Eg3-git/Classifiers/Data Collection/u5/u5xyz1_ur3e_joint_states.csv
time,elbow_joint,shoulder_lift_joint,shoulder_pan_joint,wrist_1_joint,wrist_2_joint,wrist_3_joint
1708437476.1078947,-1.1061618328094482,-1.681328912774557,-2.5264151732074183,2.2819015222736816,-1.017205540333883,0.4646444022655487
1708437476.1098945,-1.1061632633209229,-1.6813403568663539,-2.526407782231466,2.281834526652954,-1.017176930104391,0.4646075367927551
1708437476.1118917,-1.1061797142028809,-1.6813560924925746,-2.5264151732074183,2.2818643289753417,-1.0171564261065882,0.4645497798919678
1708437476.113986,-1.106187105178833,-1.6812859974303187,-2.5264106432544153,2.281859799022339,-1.017193619404928,0.464606374502182
1708437476.1159344,-1.1062109470367432,-1.6812812290587367,-2.5264483133899134,2.281839056605957,-1.0171564261065882,0.4645988643169403
1708437476.1179552,-1.1061677932739258,-1.6813060245909632,-2.5264106432544153,2.2818688589283447,-1.017176930104391,0.464610755443573
1708437476.1199265,-1.1061797142028809,-1.6812569103636683,-2.5264483133899134,2.2818466860004882,-1.017160717641012,0.4645945429801941
1708437476.1219668,-1.1061618328094482,-1.6812192402281703,-2.526419703160421,2.281871719951294,-1.0171979109393519,0.4645782709121704
1708437476.1239402,-1.1061372756958008,-1.681282182733053,-2.5264363924609583,2.2818643289753417,-1.0171855131732386,0.4645572304725647
1708437476.1259465,-1.106220006942749,-1.681221147576803,-2.5263987223254603,2.281874819392822,-1.0171521345721644,0.4646151065826416
1708437476.1279283,-1.1062109470367432,-1.6813003025450648,-2.5264392534839075,2.28190462171521,-1.0171530882464808,0.4646281898021698
1708437476.129943,-1.106175184249878,-1.6812659702696742,-2.5264015833484095,2.281932755107544,-1.0171130339251917,0.46458694338798523
1708437476.131994,-1.106199026107788,-1.681225915948385,-2.5263896624194544,2.281850977534912,-1.0171573797809046,0.4645783007144928
1708437476.13392,-1.1061826944351196,-1.6812344990172328,-2.5264228026019495,2.281846447581909,-1.0171087423907679,0.464582622051239
1708437476.1359134,-1.106175184249878,-1.681230207482809,-2.526463333760397,2.281912012691162,-1.0171011129962366,0.4645901024341583
1708437476.1379666,-1.1062408685684204,-1.6812135181822718,-2.5264139811145228,2.281916542644165,-1.0171292463885706,0.46459999680519104
1708437476.1399064,-1.1062170267105103,-1.681188245812887,-2.5264301935779017,2.281907482738159,-1.0171087423907679,0.4646488130092621
1708437476.1419058,-1.1061632633209229,-1.6812344990172328,-2.5263777414904993,2.281907482738159,-1.0171735922442835,0.464554101228714
1708437476.143924,-1.1062124967575073,-1.6812416515746058,-2.5264514128314417,2.281932755107544,-1.0171821753131312,0.46466532349586487
1708437476.1459105,-1.106187105178833,-1.6812221012511195,-2.5264228026019495,2.281900091762207,-1.0171530882464808,0.4646565914154053
1708437476.14794,-1.1062244176864624,-1.681199689904684,-2.5264347235309046,2.281920834178589,-1.0171940962420862,0.4645988643169403
1708437476.1499078,-1.106199026107788,-1.6812178097166957,-2.5264228026019495,2.2818822103687744,-1.017172638569967,0.4646444320678711
1708437476.1518965,-1.106231927871704,-1.6812674007811488,-2.5264814535724085,2.2819453912922363,-1.0171693007098597,0.46462374925613403
1708437476.153952,-1.1061618328094482,-1.681188245812887,-2.5264604727374476,2.2819482523151855,-1.0171564261065882,0.46462374925613403
1708437476.1558955,-1.1061946153640747,-1.6812883816161097,-2.5264273325549524,2.2819809156605224,-1.017160717641012,0.4646281898021698
1708437476.157901,-1.1062393188476562,-1.6812135181822718,-2.5264857451068323,2.2819928365894775,-1.017160717641012,0.46462374925613403
1708437476.159883,-1.1062817573547363,-1.6812135181822718,-2.526424233113424,2.2819394308277587,-1.0171530882464808,0.4645746946334839
1708437476.1618896,-1.1062346696853638,-1.6812416515746058,-2.5264514128314417,2.2819766241260986,-1.0171573797809046,0.4646151065826416
1708437476.163988,-1.1062755584716797,-1.6812344990172328,-2.5263970533954065,2.282012386912964,-1.0171573797809046,0.4646313488483429
1708437476.1659505,-1.1062438488006592,-1.681225915948385,-2.5264273325549524,2.281946821803711,-1.0171368757831019,0.464615136384964
1708437476.1679757,-1.10627281665802,-1.6812793217101039,-2.5264092127429407,2.2820421892353515,-1.0171120802508753,0.4646356701850891
1708437476.169949,-1.1062681674957275,-1.681230207482809,-2.5264228026019495,2.2820047575184326,-1.0171530882464808,0.4646151065826416
1708437476.171906,-1.1062591075897217,-1.6812588177123011,-2.5264106432544153,2.281979485149048,-1.0172107855426233,0.4646356701850891
1708437476.1739287,-1.1062257289886475,-1.6812588177123011,-2.5264468828784388,2.282012386912964,-1.0171855131732386,0.4646194279193878
1708437476.1759145,-1.1062726974487305,-1.6812135181822718,-2.5264347235309046,2.281954212779663,-1.0171163717852991,0.4646107852458954
1708437476.1780405,-1.1062517166137695,-1.6812416515746058,-2.5264301935779017,2.282003327006958,-1.0171812216388147,0.4646151065826416
1708437476.1800063,-1.1062681674957275,-1.68127503017568,-2.5264437834369105,2.281917019481323,-1.0171650091754358,0.4645956754684448
1708437476.181961,-1.106284499168396,-1.6812793217101039,-2.5265095869647425,2.281991406078003,-1.0171735922442835,0.46454545855522156
1708437476.183921,-1.106300950050354,-1.681225915948385,-2.526458803807394,2.282057448024414,-1.0171979109393519,0.4646194279193878
1708437476.1858845,-1.1062138080596924,-1.681230207482809,-2.5264392534839075,2.2820254999348144,-1.0171812216388147,0.4646031856536865
1708437476.1879554,-1.1062636375427246,-1.6812135181822718,-2.5264392534839075,2.281938000316284,-1.017148796712057,0.4645497798919678
1708437476.189903,-1.1062755584716797,-1.6812416515746058,-2.5264559427844446,2.281994267100952,-1.0171130339251917,0.4646313488483429
1708437476.19192,-1.1062920093536377,-1.681221147576803,-2.5264678637133997,2.281938000316284,-1.0171282927142542,0.4646313786506653
1708437476.193946,-1.106300950050354,-1.6812135181822718,-2.5264061133014124,2.282019777888916,-1.0171735922442835,0.464554101228714
1708437476.1958978,-1.1062501668930054,-1.6812168560423792,-2.526437822972433,2.2820212084003906,-1.0170968214618128,0.4646151065826416
1708437476.1979818,-1.1062874794006348,-1.6812416515746058,-2.5264228026019495,2.282019777888916,-1.0171497503863733,0.4645834267139435
1708437476.1999028,-1.1062995195388794,-1.6812416515746058,-2.5264392534839075,2.282045765514038,-1.0171454588519495,0.4645826518535614
1708437476.2019124,-1.1062666177749634,-1.6812120876707972,-2.526463333760397,2.282015247935913,-1.0171735922442835,0.4645869731903076
1708437476.2038767,-1.106256365776062,-1.6812087498106898,-2.5264843145953577,2.282012386912964,-1.017160717641012,0.4646194279193878
1708437476.2058928,-1.1062546968460083,-1.6812459431090296,-2.5264483133899134,2.281995936031006,-1.0171735922442835,0.4646183252334595
1708437476.2078886,-1.106312870979309,-1.6812793217101039,-2.5264559427844446,2.282007856959961,-1.0171411673175257,0.4646281898021698
1708437476.2098858,-1.1062755584716797,-1.681225915948385,-2.5264347235309046,2.281975193614624,-1.0171940962420862,0.4645826518535614
1708437476.2118895,-1.1063172817230225,-1.6812435589232386,-2.5264888445483606,2.281979485149048,-1.0171249548541468,0.46462374925613403
1708437476.2139657,-1.1063083410263062,-1.6813036404051722,-2.5264723936664026,2.282007856959961,-1.0171411673175257,0.4645988643169403
1708437476.215944,-1.106294870376587,-1.681202074090475,-2.5264061133014124,2.2820331293293457,-1.0171855131732386,0.4646226167678833
1708437476.2179575,-1.1062382459640503,-1.6812135181822718,-2.5264769236194056,2.281975193614624,-1.0171292463885706,0.46460750699043274
1708437476.2199497,-1.1062546968460083,-1.6812674007811488,-2.5264514128314417,2.281975193614624,-1.0171411673175257,0.4646565318107605
1708437476.2219446,-1.1063158512115479,-1.6812368832030238,-2.5264514128314417,2.2820166784473876,-1.0171368757831019,0.4646031856536865
1708437476.2239184,-1.1062740087509155,-1.6812459431090296,-2.5264843145953577,2.28201071798291,-1.017132584248678,0.464582622051239
1708437476.2259104,-1.1062874794006348,-1.681225915948385,-2.5264137426959437,2.282078428859375,-1.0171249548541468,0.46457043290138245
1708437476.2279696,-1.1063158512115479,-1.681230207482809,-2.5264392534839075,2.282019777888916,-1.0171411673175257,0.4645988643169403
1708437476.2299552,-1.106296420097351,-1.6812459431090296,-2.5264888445483606,2.28201071798291,-1.0171659628497522,0.4645826518535614
1708437476.2319126,-1.1063232421875,-1.6812497578062953,-2.5264888445483606,2.282007856959961,-1.0171292463885706,0.4645783305168152
1708437476.2339306,-1.1063395738601685,-1.6812135181822718,-2.5264347235309046,2.282041235561035,-1.0171173254596155,0.46458694338798523
1708437476.2359061,-1.1063202619552612,-1.681270261804098,-2.526463333760397,2.282019777888916,-1.0171292463885706,0.4645747244358063
1708437476.2379522,-1.1062456369400024,-1.681263109246725,-2.5264318625079554,2.282006188029907,-1.0171087423907679,0.4646031856536865
1708437476.2399035,-1.106311321258545,-1.6812135181822718,-2.5264979044543665,2.282036705608032,-1.0170968214618128,0.46460315585136414
1708437476.2419257,-1.106311321258545,-1.6812135181822718,-2.526437822972433,2.2820321756550292,-1.0171096960650843,0.46458694338798523
1708437476.2439044,-1.106311321258545,-1.68127503017568,-2.5264468828784388,2.282024307841919,-1.0171249548541468,0.4646119177341461
1708437476.2459028,-1.1062740087509155,-1.6812268696227015,-2.5264437834369105,2.282024307841919,-1.0171249548541468,0.4645988643169403
1708437476.2479084,-1.1063158512115479,-1.681155344048971,-2.5264015833484095,2.282012386912964,-1.0170801321612757,0.4646151065826416
1708437476.249904,-1.1063395738601685,-1.6812674007811488,-2.5264347235309046,2.282061977977417,-1.0171011129962366,0.4646031856536865
1708437476.2518969,-1.1063575744628906,-1.681286951104635,-2.5264228026019495,2.282003327006958,-1.0171173254596155,0.4645945429801941
1708437476.2538888,-1.1063158512115479,-1.681230207482809,-2.526458803807394,2.281975193614624,-1.0171378294574183,0.46464788913726807
1708437476.255894,-1.1062740087509155,-1.681284090081686,-2.5264301935779017,2.281987114543579,-1.0171011129962366,0.46465227007865906
1708437476.2579033,-1.1062874794006348,-1.6812368832030238,-2.5264137426959437,2.282041235561035,-1.0171292463885706,0.46462371945381165
1708437476.2599165,-1.106311321258545,-1.68127503017568,-2.526433531438009,2.282050295467041,-1.0171173254596155,0.4646565318107605
1708437476.2619019,-1.1063441038131714,-1.6811839542784632,-2.5264979044543665,2.28201071798291,-1.0171087423907679,0.4646695554256439
1708437476.263954,-1.106257677078247,-1.6812416515746058,-2.5264301935779017,2.281970663661621,-1.0171335379229944,0.4646031856536865
1708437476.265924,-1.1062904596328735,-1.6812550030150355,-2.526442352925436,2.281994267100952,-1.0171173254596155,0.4646313488483429
1708437476.2679768,-1.1062785387039185,-1.681263109246725,-2.5264347235309046,2.2819689947315673,-1.017097298298971,0.4645988643169403
1708437476.2699492,-1.1062874794006348,-1.6812135181822718,-2.526449743901388,2.281991406078003,-1.0170887152301233,0.46457040309906006
1708437476.271913,-1.1062620878219604,-1.681202074090475,-2.526487175618307,2.281966133708618,-1.0169990698443812,0.4645782709121704
1708437476.2739272,-1.1062829494476318,-1.6812416515746058,-2.5264514128314417,2.281991406078003,-1.0170486609088343,0.4645901620388031
1708437476.2759025,-1.106311321258545,-1.6812392673888148,-2.526437822972433,2.281970663661621,-1.0170486609088343,0.4646313488483429
1708437476.2779844,-1.1062994003295898,-1.6812063656248988,-2.5264933745013636,2.282019777888916,-1.0170858542071741,0.4646064043045044
1708437476.2799742,-1.1062664985656738,-1.681204458276266,-2.526508394871847,2.282019777888916,-1.0170367399798792,0.46464863419532776
1708437476.281966,-1.106311321258545,-1.681284090081686,-2.526458803807394,2.2820047575184326,-1.0170820395099085,0.4646150767803192
1708437476.28402,-1.1063566207885742,-1.6811849079527796,-2.5264723936664026,2.281998797053955,-1.017069164906637,0.4646151065826416
1708437476.2859738,-1.1062620878219604,-1.681197305718893,-2.526479784642355,2.281989737147949,-1.017052952443258,0.46462374925613403
1708437476.2879534,-1.106311321258545,-1.6812416515746058,-2.526466194783346,2.281966133708618,-1.017097298298971,0.464582622051239
1708437476.2900257,-1.106339693069458,-1.6812221012511195,-2.526482645665304,2.282012386912964,-1.017069164906637,0.4646151065826416
1708437476.29194,-1.1062977313995361,-1.68117155651235,-2.5265050570117396,2.2820376592823486,-1.017052952443258,0.46459460258483887
1708437476.2939277,-1.1063321828842163,-1.681230207482809,-2.5264559427844446,2.2820486265369873,-1.017090145741598,0.46465227007865906
1708437476.2958922,-1.1063321828842163,-1.6812793217101039,-2.5264769236194056,2.281987114543579,-1.0170887152301233,0.4645988643169403
1708437476.2978942,-1.1063321828842163,-1.6812368832030238,-2.526454273854391,2.282012386912964,-1.0171015898333948,0.4645901918411255
1708437476.2999423,-1.1063321828842163,-1.6812459431090296,-2.5265007654773157,2.281982346171997,-1.0171096960650843,0.4646107852458954
1708437476.3018844,-1.1063475608825684,-1.6812459431090296,-2.526496235524313,2.281991406078003,-1.0170968214618128,0.4646063446998596
1708437476.3039167,-1.106311321258545,-1.6812449894347132,-2.526454273854391,2.2820285993763427,-1.0170930067645472,0.4646031856536865
1708437476.3058925,-1.106318712234497,-1.6812416515746058,-2.526463333760397,2.282036705608032,-1.0170519987689417,0.46460315585136414
1708437476.307896,-1.106318712234497,-1.681199689904684,-2.526496235524313,2.282028837794922,-1.017130200062887,0.4645988643169403
1708437476.3098922,-1.106339693069458,-1.6812416515746058,-2.526475254689352,2.281991406078003,-1.0170729796039026,0.4646151661872864
1708437476.3119001,-1.106318712234497,-1.6812178097166957,-2.5264888445483606,2.282003327006958,-1.0170729796039026,0.4645988643169403
1708437476.31391,-1.1063367128372192,-1.6812221012511195,-2.526475254689352,2.282007856959961,-1.0170858542071741,0.4646313488483429
1708437476.315954,-1.1063276529312134,-1.6812416515746058,-2.5265052954303187,2.282041235561035,-1.0170443693744105,0.46462374925613403
1708437476.3179667,-1.1063321828842163,-1.6811806164183558,-2.526496235524313,2.2819809156605224,-1.0170777479754847,0.4646522104740143
1708437476.319922,-1.106306791305542,-1.6812416515746058,-2.5264347235309046,2.281994267100952,-1.017041031514303,0.46464359760284424
1708437476.3219361,-1.1063202619552612,-1.6812459431090296,-2.526496235524313,2.282078428859375,-1.017069164906637,0.4646356701850891
1708437476.323926,-1.106311321258545,-1.681193014184469,-2.5264843145953577,2.282019777888916,-1.017069164906637,0.4645956754684448
1708437476.3259044,-1.1062977313995361,-1.6812344990172328,-2.5264678637133997,2.281991406078003,-1.017090145741598,0.4646194279193878
1708437476.328007,-1.1063023805618286,-1.6812178097166957,-2.526475254689352,2.281982346171997,-1.0170815626727503,0.4646443724632263
1708437476.3299344,-1.1063158512115479,-1.6812674007811488,-2.526442352925436,2.281966133708618,-1.0171015898333948,0.4645988643169403
1708437476.331917,-1.1063039302825928,-1.681230207482809,-2.52649170557131,2.282061977977417,-1.0171259085284632,0.46465227007865906
1708437476.3338878,-1.1063530445098877,-1.681197305718893,-2.526458803807394,2.282007856959961,-1.0170772711383265,0.46464788913726807
1708437476.335885,-1.1062859296798706,-1.6812087498106898,-2.5264514128314417,2.28201071798291,-1.0170772711383265,0.4645901024341583
1708437476.3379524,-1.1063321828842163,-1.6812674007811488,-2.5264843145953577,2.282015247935913,-1.0170734564410608,0.46467718482017517
1708437476.3399017,-1.1063188314437866,-1.6812087498106898,-2.526517454777853,2.282019777888916,-1.017130200062887,0.4646032154560089
1708437476.341912,-1.106318712234497,-1.6812507114806117,-2.5264678637133997,2.282036705608032,-1.0170815626727503,0.4645901620388031
1708437476.3439565,-1.1063411235809326,-1.6811806164183558,-2.526442352925436,2.2820395666309814,-1.0170930067645472,0.464582622051239
1708437476.3458827,-1.1063441038131714,-1.6812368832030238,-2.5264468828784388,2.282073898906372,-1.0171507040606897,0.4645901620388031
1708437476.3478951,-1.1062532663345337,-1.6811839542784632,-2.526454273854391,2.282024307841919,-1.0170887152301233,0.46465981006622314
1708437476.3499324,-1.10636568069458,-1.6812135181822718,-2.5264933745013636,2.282003327006958,-1.0170648733722132,0.4645988643169403
1708437476.3518834,-1.1062977313995361,-1.6812221012511195,-2.526496235524313,2.282003565425537,-1.0170357863055628,0.4646713435649872
1708437476.3539016,-1.1063232421875,-1.6812135181822718,-2.526449743901388,2.282050057048462,-1.017113987599508,0.4646151065826416
1708437476.3558939,-1.1063321828842163,-1.681221147576803,-2.526421372090475,2.282082958812378,-1.0170648733722132,0.4646107852458954
1708437476.3579206,-1.1063232421875,-1.68117155651235,-2.526470724736349,2.282069607371948,-1.0170772711383265,0.4645945429801941
1708437476.3599,-1.1063611507415771,-1.6812344990172328,-2.526475254689352,2.281991406078003,-1.017041031514303,0.46465981006622314
1708437476.3618922,-1.106327772140503,-1.6812120876707972,-2.526508394871847,2.282007856959961,-1.0170858542071741,0.46465981006622314
1708437476.3639944,-1.1063232421875,-1.6812550030150355,-2.526475254689352,2.281982346171997,-1.0170605818377894,0.46463918685913086
1708437476.3659105,-1.1063367128372192,-1.6812087498106898,-2.5264843145953577,2.281975193614624,-1.0170944372760218,0.4646313488483429
1708437476.3679574,-1.106327772140503,-1.681202074090475,-2.526482645665304,2.282012386912964,-1.017041031514303,0.4646356701850891
1708437476.369926,-1.1063023805618286,-1.6812135181822718,-2.526445213948385,2.2820166784473876,-1.0170119444476526,0.46465981006622314
1708437476.3719137,-1.1063486337661743,-1.681225915948385,-2.526482645665304,2.282045765514038,-1.0171015898333948,0.46466413140296936
1708437476.3739126,-1.1063038110733032,-1.6812416515746058,-2.526503864918844,2.282007856959961,-1.0170734564410608,0.4646194577217102
1708437476.375917,-1.1063247919082642,-1.6812507114806117,-2.5265007654773157,2.281978054637573,-1.0170648733722132,0.4646313488483429
1708437476.3783317,-1.106311321258545,-1.6812507114806117,-2.52651292482485,2.282057686442993,-1.0171058813678187,0.46466702222824097
1708437476.3799174,-1.106311321258545,-1.6811891994872035,-2.526475254689352,2.282036705608032,-1.017069164906637,0.4646107852458954
1708437476.381885,-1.1062994003295898,-1.681284090081686,-2.526487175618307,2.2820285993763427,-1.0170858542071741,0.46465981006622314
1708437476.3839147,-1.1063023805618286,-1.6812507114806117,-2.526482645665304,2.281991406078003,-1.0170734564410608,0.46465110778808594
1708437476.385867,-1.1063158512115479,-1.6812392673888148,-2.526499334965841,2.2820440965839843,-1.0171054045306605,0.4646757245063782
1708437476.387975,-1.1063202619552612,-1.681225915948385,-2.526449743901388,2.282019777888916,-1.0171011129962366,0.4646151065826416
1708437476.3899338,-1.1063023805618286,-1.6812392673888148,-2.52649170557131,2.282015247935913,-1.0170887152301233,0.4646194279193878
1708437476.391882,-1.1063522100448608,-1.6812459431090296,-2.526458803807394,2.2820724683948974,-1.017097298298971,0.46466413140296936
1708437476.3939033,-1.106327772140503,-1.681225915948385,-2.526470724736349,2.281970663661621,-1.0170686880694788,0.46463918685913086
1708437476.3958778,-1.106311321258545,-1.6812674007811488,-2.526463333760397,2.282024307841919,-1.0170605818377894,0.46463918685913086
1708437476.397918,-1.1063023805618286,-1.6812416515746058,-2.526496235524313,2.281970663661621,-1.0170858542071741,0.4645978510379791
1708437476.399887,-1.106327772140503,-1.6812507114806117,-2.5264902750598353,2.282006188029907,-1.0170648733722132,0.4645901620388031
1708437476.4019024,-1.1063441038131714,-1.6812588177123011,-2.526442352925436,2.281987114543579,-1.0170772711383265,0.4646313488483429
1708437476.4039042,-1.1062531471252441,-1.6812416515746058,-2.526479784642355,2.28201071798291,-1.017057243977682,0.4645988941192627
1708437476.4058864,-1.1062874794006348,-1.6812135181822718,-2.526499334965841,2.282012386912964,-1.0170887152301233,0.4645901620388031
1708437476.4079247,-1.1063083410263062,-1.6812135181822718,-2.5264678637133997,2.282024307841919,-1.0170648733722132,0.4646107852458954
1708437476.4099436,-1.1063441038131714,-1.6812721691527308,-2.526479784642355,2.282015247935913,-1.0170648733722132,0.4646270275115967
1708437476.4118748,-1.106311321258545,-1.6812507114806117,-2.526503864918844,2.281961603755615,-1.0170519987689417,0.4646306335926056
1708437476.4139657,-1.1063276529312134,-1.6812416515746058,-2.526487175618307,2.282024307841919,-1.0170772711383265,0.4646313488483429
1708437476.4159594,-1.1063441038131714,-1.6812325916686,-2.526466194783346,2.282015247935913,-1.0171015898333948,0.46462705731391907
1708437476.4179673,-1.1063276529312134,-1.681258340875143,-2.526482645665304,2.281998797053955,-1.0170486609088343,0.4645945429801941
1708437476.419925,-1.1062949895858765,-1.681225915948385,-2.526487175618307,2.281994267100952,-1.017052952443258,0.4645858407020569
1708437476.4219122,-1.106311321258545,-1.681230207482809,-2.526449743901388,2.282062216395996,-1.0170648733722132,0.46457386016845703
1708437476.423917,-1.1063611507415771,-1.681284090081686,-2.526463333760397,2.2820395666309814,-1.017097298298971,0.4645901620388031
1708437476.425903,-1.106339693069458,-1.681254049340719,-2.526466194783346,2.282019777888916,-1.0170930067645472,0.4645695686340332
1708437476.4279954,-1.1063611507415771,-1.6812178097166957,-2.526466194783346,2.2820166784473876,-1.0170562903033655,0.4646151661872864
1708437476.4299164,-1.1063141822814941,-1.681230207482809,-2.526463333760397,2.282045765514038,-1.0170930067645472,0.4646468758583069
1708437476.4318836,-1.106335163116455,-1.6812168560423792,-2.526458803807394,2.282061977977417,-1.0171216169940394,0.4646306335926056
1708437476.4339154,-1.1063157320022583,-1.681237360040182,-2.5264843145953577,2.2820331293293457,-1.0170400778399866,0.46459782123565674
1708437476.435877,-1.1063441038131714,-1.6812087498106898,-2.526442352925436,2.2820166784473876,-1.017097298298971,0.4646107852458954
1708437476.4379628,-1.1063232421875,-1.6812674007811488,-2.526449743901388,2.282024307841919,-1.0170772711383265,0.46465542912483215
1708437476.4398952,-1.1063486337661743,-1.681225915948385,-2.52649170557131,2.281995936031006,-1.0170400778399866,0.46465983986854553
1708437476.4419365,-1.1063232421875,-1.6812063656248988,-2.526454273854391,2.281994267100952,-1.017069164906637,0.46458157896995544
1708437476.4439337,-1.1063232421875,-1.681202074090475,-2.526466194783346,2.282019777888916,-1.017069164906637,0.4645901620388031
1708437476.4459,-1.1063305139541626,-1.6812344990172328,-2.5265007654773157,2.282045765514038,-1.017052952443258,0.4646306037902832
1708437476.4478803,-1.106339693069458,-1.681197305718893,-2.526479784642355,2.281987114543579,-1.017118279133932,0.46459779143333435
1708437476.4498847,-1.10626220703125,-1.6812435589232386,-2.52649170557131,2.281970663661621,-1.0170443693744105,0.4646349251270294
1708437476.451891,-1.1063232421875,-1.6812178097166957,-2.526499334965841,2.2820707994648437,-1.017069164906637,0.46465981006622314
1708437476.4539075,-1.1063023805618286,-1.6812435589232386,-2.526503864918844,2.282019777888916,-1.0170987288104456,0.4646107852458954
1708437476.4558833,-1.1063276529312134,-1.6812221012511195,-2.526442352925436,2.281978054637573,-1.0170648733722132,0.46458154916763306
1708437476.4578881,-1.106311321258545,-1.681225915948385,-2.526458803807394,2.282003327006958,-1.0170815626727503,0.46466416120529175
1708437476.4599214,-1.106311321258545,-1.6812392673888148,-2.526479784642355,2.28205315648999,-1.0170496145831507,0.4645979106426239
1708437476.4619281,-1.1062620878219604,-1.6812178097166957,-2.526499334965841,2.281991406078003,-1.017113987599508,0.4646063446998596
1708437476.4639525,-1.1063158512115479,-1.6812344990172328,-2.526524845753805,2.28206650793042,-1.0170367399798792,0.46458160877227783
1708437476.466031,-1.1062904596328735,-1.6812135181822718,-2.526517454777853,2.281966133708618,-1.0170944372760218,0.46463918685913086
1708437476.4679615,-1.106311321258545,-1.6812344990172328,-2.526470724736349,2.28201071798291,-1.0171015898333948,0.4646226167678833
1708437476.470049,-1.106335163116455,-1.6812588177123011,-2.526454273854391,2.2820004659840087,-1.0170815626727503,0.46463915705680847
1708437476.4719455,-1.1063530445098877,-1.6812135181822718,-2.526461664830343,2.282019777888916,-1.0170734564410608,0.4646107852458954
1708437476.4739897,-1.1062740087509155,-1.6812721691527308,-2.526496235524313,2.28201071798291,-1.0170562903033655,0.46464788913726807
1708437476.4759364,-1.1063158512115479,-1.6812812290587367,-2.526449743901388,2.2820321756550292,-1.0171096960650843,0.4646020233631134
1708437476.4779932,-1.106327772140503,-1.681188245812887,-2.52651292482485,2.282045765514038,-1.0170281569110315,0.4646306335926056
1708437476.4800057,-1.106339693069458,-1.6812392673888148,-2.526470724736349,2.2820321756550292,-1.0171015898333948,0.4646151065826416
1708437476.48196,-1.106311321258545,-1.6812325916686,-2.5265007654773157,2.282061977977417,-1.0171344915973108,0.46464791893959045
1708437476.4839764,-1.106335163116455,-1.6812507114806117,-2.526508394871847,2.2820767599293212,-1.0170486609088343,0.46463915705680847
1708437476.485936,-1.106311321258545,-1.6812507114806117,-2.5265172163592737,2.282045765514038,-1.0170815626727503,0.46466419100761414
1708437476.487956,-1.106306791305542,-1.681221147576803,-2.5264514128314417,2.281982346171997,-1.0170605818377894,0.46463918685913086
1708437476.490053,-1.1063096523284912,-1.681197305718893,-2.526487175618307,2.28201071798291,-1.0171015898333948,0.4646108150482178
1708437476.4919147,-1.1063023805618286,-1.6812459431090296,-2.5264468828784388,2.281994267100952,-1.0170930067645472,0.46463918685913086
1708437476.4939477,-1.106318712234497,-1.681263109246725,-2.526520315800802,2.282019777888916,-1.0170443693744105,0.464606374502182
1708437476.4958854,-1.1063232421875,-1.681199689904684,-2.526479784642355,2.2820440965839843,-1.0170772711383265,0.4646511375904083
1708437476.4979382,-1.106311321258545,-1.681263109246725,-2.526499334965841,2.282057686442993,-1.0170858542071741,0.46463486552238464
1708437476.4999447,-1.1063158512115479,-1.6812344990172328,-2.5264468828784388,2.2820121484943847,-1.017090145741598,0.4646107852458954
1708437476.5019767,-1.106311321258545,-1.6812344990172328,-2.526482645665304,2.282036705608032,-1.0170815626727503,0.4646713435649872
1708437476.5039277,-1.106306791305542,-1.6812344990172328,-2.526482645665304,2.282019777888916,-1.0170648733722132,0.46465542912483215
1708437476.5059028,-1.106311321258545,-1.6813045940794886,-2.52649170557131,2.282007856959961,-1.0170815626727503,0.46461835503578186
1708437476.5079348,-1.106306791305542,-1.681254049340719,-2.526470724736349,2.282012386912964,-1.017097298298971,0.4646020829677582
1708437476.5099082,-1.1063441038131714,-1.6812721691527308,-2.526508394871847,2.282024307841919,-1.0170562903033655,0.46466419100761414
1708437476.511891,-1.1063486337661743,-1.6812135181822718,-2.526496235524313,2.282019777888916,-1.0171015898333948,0.4646064043045044
1708437476.513917,-1.1062859296798706,-1.6812087498106898,-2.526524845753805,2.281982346171997,-1.017052952443258,0.4646194279193878
1708437476.5159602,-1.106339693069458,-1.6812459431090296,-2.526442352925436,2.282003327006958,-1.017090145741598,0.4646800458431244
1708437476.5179737,-1.1063069105148315,-1.681230207482809,-2.526508394871847,2.28209034978833,-1.0170777479754847,0.4646522104740143
1708437476.5199342,-1.1062860488891602,-1.681263109246725,-2.5264843145953577,2.281991406078003,-1.017052952443258,0.4646313488483429
1708437476.521916,-1.1062994003295898,-1.6812135181822718,-2.526482645665304,2.281994267100952,-1.0170205275165003,0.46465981006622314
1708437476.523919,-1.1063232421875,-1.6812344990172328,-2.526487175618307,2.282094879741333,-1.0170281569110315,0.46463918685913086
1708437476.5259213,-1.1063202619552612,-1.6812793217101039,-2.526499334965841,2.28201071798291,-1.017052952443258,0.4646140933036804
1708437476.527964,-1.106294870376587,-1.681263109246725,-2.52643329301943,2.28202406942334,-1.017113987599508,0.46466413140296936
1708437476.5299413,-1.1063321828842163,-1.681225915948385,-2.526442352925436,2.282057686442993,-1.0170443693744105,0.46466413140296936
1708437476.5319214,-1.1062994003295898,-1.681197305718893,-2.526475254689352,2.282082958812378,-1.017090145741598,0.46463918685913086
1708437476.5338824,-1.106306791305542,-1.6811758480467738,-2.526437822972433,2.282003327006958,-1.017097298298971,0.4646020829677582
1708437476.5359375,-1.1063023805618286,-1.6812416515746058,-2.526470724736349,2.2820285993763427,-1.0170858542071741,0.4645901620388031
1708437476.537949,-1.106327772140503,-1.6812931499876917,-2.526487175618307,2.282041235561035,-1.017090145741598,0.4646757245063782
1708437476.5399177,-1.106311321258545,-1.681230207482809,-2.526470724736349,2.2820486265369873,-1.0171311537372034,0.46467140316963196
1708437476.5419047,-1.106306791305542,-1.6812168560423792,-2.526482645665304,2.2820321756550292,-1.017052952443258,0.464606374502182
1708437476.5438807,-1.1063321828842163,-1.6812416515746058,-2.526482645665304,2.282041235561035,-1.0170858542071741,0.4646468758583069
1708437476.5459313,-1.1063232421875,-1.681197305718893,-2.526470724736349,2.2820440965839843,-1.0170648733722132,0.46465542912483215
1708437476.547902,-1.106339693069458,-1.6812507114806117,-2.526470724736349,2.281975193614624,-1.0170930067645472,0.46463486552238464
1708437476.5498934,-1.106294870376587,-1.681202074090475,-2.526499334965841,2.2820004659840087,-1.0170772711383265,0.4646800458431244
1708437476.5518806,-1.106311321258545,-1.681225915948385,-2.526470724736349,2.2819899755665283,-1.0171058813678187,0.4646226167678833
1708437476.5538974,-1.1063202619552612,-1.6812550030150355,-2.526503864918844,2.2820276457020263,-1.017090145741598,0.46461084485054016
1708437476.5558975,-1.1062620878219604,-1.681221147576803,-2.526499334965841,2.282012386912964,-1.0170238653766077,0.4646313488483429
1708437476.557885,-1.1062904596328735,-1.6812135181822718,-2.526454273854391,2.2820047575184326,-1.0170858542071741,0.46465110778808594
1708437476.5598965,-1.1063456535339355,-1.681221147576803,-2.526470724736349,2.282003327006958,-1.017069164906637,0.4646800458431244
1708437476.5618944,-1.1063202619552612,-1.681197305718893,-2.526470724736349,2.282012386912964,-1.0170734564410608,0.4646270275115967
1708437476.5639873,-1.1062546968460083,-1.681199689904684,-2.526517454777853,2.2820166784473876,-1.017069164906637,0.4646031856536865
1708437476.5659657,-1.10626220703125,-1.681197305718893,-2.526487175618307,2.282012386912964,-1.0170815626727503,0.4646313488483429
1708437476.567928,-1.106312870979309,-1.6812435589232386,-2.526461903248922,2.282041235561035,-1.0170648733722132,0.4646356701850891
1708437476.5699675,-1.1063337326049805,-1.68127503017568,-2.526482645665304,2.281970663661621,-1.0171015898333948,0.4646270275115967
1708437476.571918,-1.1062785387039185,-1.6812459431090296,-2.52649170557131,2.282003327006958,-1.0170815626727503,0.46466702222824097
1708437476.5739322,-1.1063247919082642,-1.681197305718893,-2.526475254689352,2.281991406078003,-1.0171015898333948,0.46465542912483215
1708437476.5759032,-1.1062785387039185,-1.6812178097166957,-2.526508394871847,2.282050057048462,-1.0170772711383265,0.46463918685913086
1708437476.5779898,-1.1063247919082642,-1.6812178097166957,-2.526499334965841,2.2819973665424804,-1.0171096960650843,0.46464359760284424
1708437476.5799742,-1.1062666177749634,-1.6812588177123011,-2.526487175618307,2.281979485149048,-1.0170562903033655,0.4645901620388031
1708437476.581972,-1.1062666177749634,-1.681263109246725,-2.526482645665304,2.281970663661621,-1.0170930067645472,0.4646151065826416
1708437476.5838943,-1.106329321861267,-1.6811891994872035,-2.526503864918844,2.281987114543579,-1.0170686880694788,0.4645901322364807
1708437476.5858967,-1.1062829494476318,-1.6812449894347132,-2.5265067259417933,2.28201071798291,-1.017069164906637,0.4646107852458954
1708437476.58799,-1.1063247919082642,-1.6812392673888148,-2.5265443960772913,2.281991406078003,-1.017097298298971,0.4646356701850891
1708437476.589905,-1.1062501668930054,-1.6812368832030238,-2.5265489260302942,2.2819840151020507,-1.0170815626727503,0.4646313488483429
1708437476.5918891,-1.1062920093536377,-1.6812135181822718,-2.5265443960772913,2.2820331293293457,-1.0170844236956995,0.46466413140296936
1708437476.5938933,-1.1062755584716797,-1.681164403954977,-2.5265682379352015,2.281958742732666,-1.0170815626727503,0.46461939811706543
1708437476.5958815,-1.1062874794006348,-1.681225915948385,-2.5265846888171595,2.282007856959961,-1.0171130339251917,0.46464788913726807
1708437476.59791,-1.1062711477279663,-1.6812416515746058,-2.526623789464132,2.281994267100952,-1.0171497503863733,0.46464791893959045
1708437476.5998876,-1.1063321828842163,-1.6812497578062953,-2.5266147295581263,2.2820331293293457,-1.0171378294574183,0.4646918773651123
1708437476.601883,-1.1062829494476318,-1.6812459431090296,-2.52664024034609,2.282007856959961,-1.0171054045306605,0.46463918685913086
1708437476.6038916,-1.1063039302825928,-1.6812883816161097,-2.526602808629171,2.2820166784473876,-1.0170686880694788,0.4646356403827667
1708437476.6059031,-1.10626220703125,-1.6812416515746058,-2.5266101996051233,2.281970663661621,-1.017041031514303,0.4645978808403015
1708437476.607896,-1.1062532663345337,-1.6812063656248988,-2.526619259511129,2.281979485149048,-1.0170453230487269,0.4646269977092743
1708437476.609905,-1.1063172817230225,-1.68127503017568,-2.526607338582174,2.2820300298878173,-1.0170000235186976,0.46466413140296936
1708437476.6119146,-1.106311321258545,-1.6812135181822718,-2.5266431013690394,2.2819840151020507,-1.017041031514303,0.4645739793777466
1708437476.6139317,-1.1062620878219604,-1.681258340875143,-2.5266552607165735,2.281995936031006,-1.017118279133932,0.46458590030670166
1708437476.6159558,-1.10626220703125,-1.6812344990172328,-2.5266476313220423,2.281982346171997,-1.017069164906637,0.46465981006622314
1708437476.617953,-1.1063083410263062,-1.681221147576803,-2.5266643206225794,2.281970663661621,-1.0170930067645472,0.4646183252334595
1708437476.619916,-1.1062829494476318,-1.6812588177123011,-2.526602808629171,2.2819766241260986,-1.017069164906637,0.4646832346916199
1708437476.621928,-1.1062666177749634,-1.681225915948385,-2.5265937487231653,2.2820004659840087,-1.0171259085284632,0.4646107852458954
1708437476.6239183,-1.1063084602355957,-1.681225915948385,-2.526656691228048,2.281958742732666,-1.0171259085284632,0.46465539932250977
1708437476.6259398,-1.1062785387039185,-1.6812359295287074,-2.5266643206225794,2.281946821803711,-1.0171054045306605,0.46458590030670166
1708437476.628043,-1.1063039302825928,-1.6812507114806117,-2.5266266504870813,2.281963272685669,-1.017118279133932,0.4646226167678833
1708437476.629925,-1.1063083410263062,-1.681225915948385,-2.526656691228048,2.2820004659840087,-1.0170605818377894,0.4646511375904083
1708437476.6319394,-1.106245756149292,-1.6812459431090296,-2.5265892187701624,2.282003327006958,-1.017130200062887,0.46468430757522583
1708437476.6339333,-1.1062891483306885,-1.681221147576803,-2.5265982786761683,2.2819885450550537,-1.0171087423907679,0.4646356701850891
1708437476.6358938,-1.1062591075897217,-1.681225915948385,-2.5266147295581263,2.281987114543579,-1.0170605818377894,0.4645945727825165
1708437476.6379771,-1.1062347888946533,-1.6812221012511195,-2.5266431013690394,2.2819840151020507,-1.0171378294574183,0.4646107852458954
1708437476.639903,-1.1062517166137695,-1.6812435589232386,-2.5266056696521204,2.281995936031006,-1.017146412526266,0.4646107852458954
1708437476.641915,-1.1062346696853638,-1.6812588177123011,-2.5266385714160364,2.282041235561035,-1.0171096960650843,0.464664101600647
1708437476.6439145,-1.1062636375427246,-1.681282182733053,-2.5266476313220423,2.2819809156605224,-1.0171054045306605,0.4646522104740143
1708437476.6459088,-1.1062874794006348,-1.6811806164183558,-2.5266311804400843,2.2820047575184326,-1.017118279133932,0.46462374925613403
1708437476.647903,-1.1062393188476562,-1.6812120876707972,-2.5266643206225794,2.281970663661621,-1.0171130339251917,0.4645988643169403
1708437476.6499007,-1.1062346696853638,-1.681193014184469,-2.5266266504870813,2.282024307841919,-1.0170801321612757,0.4646064043045044
1708437476.651898,-1.1062427759170532,-1.681204458276266,-2.526623789464132,2.281975193614624,-1.0171259085284632,0.4646269977092743
1708437476.6539261,-1.1062383651733398,-1.6812135181822718,-2.5266175905810755,2.2819885450550537,-1.0171011129962366,0.4645945429801941
1708437476.6558938,-1.1062681674957275,-1.6811891994872035,-2.5266311804400843,2.282012386912964,-1.0170887152301233,0.4646141231060028
1708437476.657921,-1.1062936782836914,-1.6812325916686,-2.5266643206225794,2.281963272685669,-1.0170930067645472,0.4646313488483429
1708437476.6599097,-1.1062301397323608,-1.681199689904684,-2.5266807715045374,2.2819720941730957,-1.0170648733722132,0.4646151065826416
1708437476.661893,-1.1062546968460083,-1.6811806164183558,-2.5266507307635706,2.2819766241260986,-1.0171344915973108,0.4646151065826416
1708437476.6639977,-1.1062228679656982,-1.6812368832030238,-2.5266838709460657,2.2819885450550537,-1.0170930067645472,0.4646313488483429
1708437476.6659377,-1.1062427759170532,-1.6812459431090296,-2.5266147295581263,2.281921549434326,-1.0171216169940394,0.46454110741615295
1708437476.6679928,-1.106284499168396,-1.681225915948385,-2.5266462008105677,2.2819883066364746,-1.017142120991842,0.46463918685913086
1708437476.6699958,-1.1062301397323608,-1.6812435589232386,-2.5266643206225794,2.281979485149048,-1.0171335379229944,0.4647170901298523
1708437476.6720068,-1.1062273979187012,-1.68127503017568,-2.526656691228048,2.2820092874714355,-1.0171454588519495,0.46460315585136414
1708437476.6739714,-1.1062064170837402,-1.681225915948385,-2.5266431013690394,2.2820004659840087,-1.017104450856344,0.46465227007865906
1708437476.6759079,-1.1062346696853638,-1.6812659702696742,-2.5266643206225794,2.2820376592823486,-1.0171368757831019,0.4646313488483429
1708437476.6779752,-1.1062183380126953,-1.6812931499876917,-2.52664024034609,2.2819840151020507,-1.017148796712057,0.4646356403827667
1708437476.6800249,-1.1062473058700562,-1.6812178097166957,-2.526607338582174,2.281930370921753,-1.0171979109393519,0.464664101600647
1708437476.6819813,-1.1062183380126953,-1.6812135181822718,-2.5266311804400843,2.2820169168659667,-1.017148796712057,0.4646511375904083
1708437476.6839914,-1.1062438488006592,-1.6812793217101039,-2.526607338582174,2.2820004659840087,-1.0172107855426233,0.4646270275115967
1708437476.6859672,-1.1062607765197754,-1.6812325916686,-2.52664024034609,2.2820300298878173,-1.0171735922442835,0.46462374925613403
1708437476.687952,-1.1061944961547852,-1.6812325916686,-2.5266385714160364,2.2820212084003906,-1.017160717641012,0.4646313488483429
1708437476.6900342,-1.1062438488006592,-1.6812721691527308,-2.5266385714160364,2.2819675642200927,-1.0171693007098597,0.4646226465702057
1708437476.6918833,-1.1062653064727783,-1.681270261804098,-2.5266101996051233,2.2820591169544677,-1.0171411673175257,0.46464359760284424
1708437476.6939108,-1.1062138080596924,-1.681291242639059,-2.5265772978412073,2.2819394308277587,-1.0171573797809046,0.464582622051239
1708437476.6958864,-1.1062183380126953,-1.6812325916686,-2.5266643206225794,2.2820257383533935,-1.017176930104391,0.4646064043045044
1708437476.6979163,-1.1062229871749878,-1.681225915948385,-2.526619259511129,2.281975193614624,-1.0171454588519495,0.46463069319725037
1708437476.6999133,-1.1062346696853638,-1.6812120876707972,-2.5266101996051233,2.2819675642200927,-1.017144505177633,0.4645945727825165
1708437476.7019231,-1.1062393188476562,-1.681225915948385,-2.5266552607165735,2.2819720941730957,-1.0171855131732386,0.4646226465702057
1708437476.7039587,-1.1062302589416504,-1.6812416515746058,-2.5266221205340784,2.2819885450550537,-1.0171530882464808,0.46457383036613464
1708437476.7059107,-1.1062229871749878,-1.6812483272948207,-2.5266476313220423,2.281934900874756,-1.0171249548541468,0.4646194279193878
1708437476.707895,-1.1062301397323608,-1.6812283001341761,-2.526652161275045,2.2819809156605224,-1.0171173254596155,0.4646313190460205
1708437476.7099316,-1.106260895729065,-1.681204458276266,-2.526607338582174,2.281991406078003,-1.0171163717852991,0.4646887481212616
1708437476.7118933,-1.1061961650848389,-1.6812497578062953,-2.526602808629171,2.2819766241260986,-1.0171898047076624,0.4646313488483429
1708437476.713988,-1.1062182188034058,-1.6812344990172328,-2.5266147295581263,2.2819973665424804,-1.0171650091754358,0.46461835503578186
1708437476.7159812,-1.1062183380126953,-1.681221147576803,-2.526652161275045,2.2820138174244384,-1.0171735922442835,0.4646356701850891
1708437476.7179797,-1.1062346696853638,-1.6812368832030238,-2.526602808629171,2.2819394308277587,-1.017176930104391,0.46463245153427124
1708437476.719925,-1.106215476989746,-1.6812588177123011,-2.526635710393087,2.281979485149048,-1.0171521345721644,0.464606374502182
1708437476.721919,-1.1062408685684204,-1.6812416515746058,-2.526619259511129,2.2819647031971435,-1.0171650091754358,0.4645739197731018
1708437476.7239387,-1.1062438488006592,-1.681263109246725,-2.5266431013690394,2.2820092874714355,-1.0171530882464808,0.46463486552238464
1708437476.725913,-1.1062438488006592,-1.6812659702696742,-2.526644770299093,2.2819675642200927,-1.017172638569967,0.4645945727825165
1708437476.727979,-1.1062273979187012,-1.6812368832030238,-2.526619259511129,2.2819391924091796,-1.017148796712057,0.46465227007865906
1708437476.7299485,-1.1063026189804077,-1.6812993488707484,-2.526635710393087,2.2819556432911376,-1.017209831868307,0.4646225869655609
1708437476.7318928,-1.1062198877334595,-1.6812325916686,-2.526595417653219,2.2820257383533935,-1.0171411673175257,0.46464791893959045
1708437476.7339277,-1.1062653064727783,-1.6812325916686,-2.5266311804400843,2.2819675642200927,-1.0171573797809046,0.46463996171951294
1708437476.7359161,-1.1062109470367432,-1.6812416515746058,-2.526602808629171,2.2819675642200927,-1.0172227064715784,0.46462374925613403
1708437476.7379365,-1.1062452793121338,-1.681263109246725,-2.526623789464132,2.281918449992798,-1.0171650091754358,0.4646270275115967
1708437476.7399004,-1.106252670288086,-1.6812368832030238,-2.526569668446676,2.2819809156605224,-1.017160717641012,0.4646140933036804
1708437476.7419214,-1.106231927871704,-1.6812368832030238,-2.526602808629171,2.2820018964954834,-1.0171940962420862,0.4645978510379791
1708437476.743917,-1.1062198877334595,-1.6812497578062953,-2.526635710393087,2.281995936031006,-1.017160717641012,0.4645945429801941
1708437476.745912,-1.1062138080596924,-1.681312700311178,-2.526611868535177,2.2819928365894775,-1.017193619404928,0.46463918685913086
1708437476.7479267,-1.1062273979187012,-1.681225915948385,-2.5266147295581263,2.2819854456135253,-1.0171650091754358,0.4645978510379791
1708437476.749902,-1.1062273979187012,-1.6812087498106898,-2.526595417653219,2.2819809156605224,-1.0171893278705042,0.4646226167678833
1708437476.7519286,-1.1062527894973755,-1.681202074090475,-2.52661639848818,2.2819647031971435,-1.0171693007098597,0.4645978510379791
1708437476.7539203,-1.1062273979187012,-1.6812793217101039,-2.5266476313220423,2.2819394308277587,-1.017148796712057,0.4645739197731018
1708437476.7559185,-1.1062198877334595,-1.6812588177123011,-2.526623789464132,2.2819689947315673,-1.0171812216388147,0.464615136384964
1708437476.7578907,-1.1062109470367432,-1.6812135181822718,-2.526602808629171,2.2819601732441406,-1.0171530882464808,0.4646270275115967
1708437476.7599342,-1.1062273979187012,-1.681324144402975,-2.5265772978412073,2.2819854456135253,-1.017148796712057,0.4646183252334595
1708437476.7619379,-1.1061781644821167,-1.6812416515746058,-2.526628319417135,2.281918449992798,-1.0171650091754358,0.46466702222824097
1708437476.7640054,-1.106215476989746,-1.681202074090475,-2.5266147295581263,2.2819720941730957,-1.0171659628497522,0.46464788913726807
1708437476.7659993,-1.1062110662460327,-1.6812368832030238,-2.52664024034609,2.281942530269287,-1.0171693007098597,0.4646522104740143
1708437476.76795,-1.106203556060791,-1.6812793217101039,-2.5265982786761683,2.2819527822681884,-1.0171659628497522,0.4646194577217102
1708437476.7699938,-1.1061782836914062,-1.681230207482809,-2.5266311804400843,2.2819556432911376,-1.017160717641012,0.4647006690502167
1708437476.7719631,-1.106199026107788,-1.6812416515746058,-2.526628319417135,2.2819973665424804,-1.0171898047076624,0.4646522104740143
1708437476.773943,-1.1061826944351196,-1.681225915948385,-2.526590887700216,2.2819675642200927,-1.017160717641012,0.4646270275115967
1708437476.7759416,-1.1062616109848022,-1.6812659702696742,-2.5266101996051233,2.2819766241260986,-1.0171693007098597,0.46463486552238464
1708437476.777917,-1.106220006942749,-1.6812659702696742,-2.5265818277942103,2.2819973665424804,-1.0171282927142542,0.46466413140296936
1708437476.7799914,-1.106203556060791,-1.681286951104635,-2.526607338582174,2.281994505519531,-1.0172022024737757,0.4646183252334595
1708437476.7819617,-1.1061946153640747,-1.6812325916686,-2.526578728352682,2.281918449992798,-1.017205540333883,0.46464255452156067
1708437476.7839208,-1.1061946153640747,-1.68127503017568,-2.526632849370138,2.2819573122211914,-1.017132584248678,0.4646306335926056
1708437476.7858944,-1.1062363386154175,-1.6812659702696742,-2.526632849370138,2.281951351756714,-1.0171573797809046,0.4646746814250946
1708437476.7879167,-1.1061946153640747,-1.681223531762594,-2.5266147295581263,2.2819437223621826,-1.0171240011798304,0.46467578411102295
1708437476.789927,-1.1062318086624146,-1.681291242639059,-2.526632849370138,2.281926079387329,-1.0171530882464808,0.4647041857242584
1708437476.791921,-1.106215476989746,-1.6812778911986292,-2.526590887700216,2.2819437223621826,-1.0171812216388147,0.46464359760284424
1708437476.7939513,-1.1061707735061646,-1.6812168560423792,-2.526599947606222,2.2819854456135253,-1.0171693007098597,0.46471187472343445
1708437476.7959154,-1.1062318086624146,-1.6812459431090296,-2.5266147295581263,2.2819527822681884,-1.0171940962420862,0.4647237956523895
1708437476.7979312,-1.1062244176864624,-1.681270261804098,-2.526569668446676,2.2819275098988037,-1.017148796712057,0.46468326449394226
1708437476.799907,-1.106208086013794,-1.681286951104635,-2.526574198399679,2.2819148737141113,-1.0171735922442835,0.46471503376960754
1708437476.8019037,-1.1062407493591309,-1.681230207482809,-2.526590887700216,2.2819148737141113,-1.0171812216388147,0.4647063910961151
1708437476.8039267,-1.1061663627624512,-1.6812368832030238,-2.526595417653219,2.2819482523151855,-1.0171368757831019,0.46473050117492676
1708437476.8059042,-1.1062198877334595,-1.6812497578062953,-2.526623789464132,2.2819437223621826,-1.0171693007098597,0.4647510349750519
1708437476.8078983,-1.1061855554580688,-1.6812659702696742,-2.526599947606222,2.2819060522266845,-1.0171979109393519,0.46480295062065125
1708437476.809923,-1.1061946153640747,-1.681254049340719,-2.526590887700216,2.281886501903198,-1.017160717641012,0.46476224064826965
1708437476.8119256,-1.1061618328094482,-1.6812168560423792,-2.526595417653219,2.2819408613392334,-1.0171812216388147,0.4647943675518036
1708437476.813921,-1.1062407493591309,-1.681199689904684,-2.526653830205099,2.2819318014332275,-1.0171650091754358,0.46483156085014343
1708437476.815945,-1.1062110662460327,-1.681230207482809,-2.526562039052145,2.281994505519531,-1.017132584248678,0.4648358225822449
1708437476.817953,-1.106203556060791,-1.6811839542784632,-2.526562039052145,2.281954451198242,-1.0171850363360804,0.4648228883743286
1708437476.8199227,-1.1062229871749878,-1.681230207482809,-2.526599947606222,2.2819573122211914,-1.0172141234027308,0.4648628830909729
1708437476.8219278,-1.106215476989746,-1.6812616787352503,-2.526604477559225,2.2819618421741943,-1.0171693007098597,0.46491047739982605
1708437476.8239462,-1.1062109470367432,-1.6812993488707484,-2.526583258305685,2.2819415765949707,-1.0172141234027308,0.46486979722976685
1708437476.8259099,-1.1062407493591309,-1.68127503017568,-2.526562039052145,2.281982584590576,-1.0171521345721644,0.4649432599544525
1708437476.8279188,-1.1062318086624146,-1.681193014184469,-2.526611868535177,2.281874819392822,-1.0171893278705042,0.4649912714958191
1708437476.8299565,-1.1061991453170776,-1.6812416515746058,-2.526578728352682,2.2819618421741943,-1.0172260443316858,0.4649663269519806
1708437476.8319495,-1.1061991453170776,-1.6812135181822718,-2.526574198399679,2.2818702894398193,-1.0171812216388147,0.46497824788093567
1708437476.8339562,-1.1062273979187012,-1.681263109246725,-2.526562039052145,2.281867189998291,-1.0171979109393519,0.465025931596756
1708437476.8359182,-1.1062244176864624,-1.6812449894347132,-2.526578728352682,2.281859799022339,-1.0171855131732386,0.46503785252571106
1708437476.837904,-1.1062109470367432,-1.6812416515746058,-2.526557509099142,2.281777544612549,-1.0171893278705042,0.46510231494903564
1708437476.8399405,-1.106199026107788,-1.6812168560423792,-2.5265501181231897,2.2818073469349365,-1.0171521345721644,0.4651217460632324
1708437476.8419003,-1.1061826944351196,-1.6812283001341761,-2.526578728352682,2.2818144994923095,-1.0171282927142542,0.4651673436164856
1708437476.843922,-1.1062363386154175,-1.6811796627440394,-2.526625458394186,2.2818280893513183,-1.0171650091754358,0.4651859998703003
1708437476.8459332,-1.1061991453170776,-1.68119539837026,-2.526595417653219,2.281808777446411,-1.017160717641012,0.4651935398578644
1708437476.847931,-1.1061781644821167,-1.6812507114806117,-2.526586357747213,2.28178779661145,-1.017132584248678,0.46520116925239563
1708437476.849931,-1.1061826944351196,-1.681270261804098,-2.526607338582174,2.2818235593983154,-1.017132584248678,0.4652901589870453
1708437476.851895,-1.1062244176864624,-1.6812392673888148,-2.526583258305685,2.2817954260059814,-1.0171735922442835,0.4653141498565674
1708437476.8539014,-1.1061946153640747,-1.681204458276266,-2.526641909276144,2.2818116384693603,-1.0171735922442835,0.46533384919166565
1708437476.8559196,-1.106191635131836,-1.6812325916686,-2.5265818277942103,2.2818702894398193,-1.0171282927142542,0.4653532803058624
1708437476.857899,-1.1061991453170776,-1.6812416515746058,-2.526632849370138,2.281841440791748,-1.0171650091754358,0.4654009938240051
1708437476.860184,-1.106175184249878,-1.6812588177123011,-2.5265982786761683,2.2817937570759277,-1.0171812216388147,0.46542951464653015
1708437476.8619106,-1.1061826944351196,-1.6812368832030238,-2.526583258305685,2.2818190294453125,-1.017176930104391,0.46542832255363464
1708437476.863915,-1.106224536895752,-1.6812459431090296,-2.526599947606222,2.2818309503742675,-1.0171764532672327,0.465480238199234
1708437476.8659656,-1.1061781644821167,-1.681263109246725,-2.526595417653219,2.281853361720703,-1.0171850363360804,0.46549227833747864
1708437476.867911,-1.1061707735061646,-1.681188245812887,-2.526574198399679,2.2817863660999755,-1.017193619404928,0.4655405580997467
1708437476.8699515,-1.1062244176864624,-1.681270261804098,-2.526578728352682,2.2818235593983154,-1.0171359221087855,0.46557191014289856
1708437476.8719158,-1.1061960458755493,-1.681270261804098,-2.5265756289111536,2.2818488317677,-1.0172260443316858,0.4655798375606537
1708437476.8739452,-1.106175184249878,-1.681291242639059,-2.526590887700216,2.28178779661145,-1.0172141234027308,0.46566420793533325
1708437476.8759098,-1.106199026107788,-1.6812588177123011,-2.526557509099142,2.2818569379993896,-1.0171969572650355,0.4656630754470825
1708437476.8779817,-1.1061707735061646,-1.6812459431090296,-2.526562039052145,2.2818659979053955,-1.017221752797262,0.46569156646728516
1708437476.879989,-1.1062198877334595,-1.6812368832030238,-2.526628319417135,2.2817625242420654,-1.0171683470355433,0.46580883860588074
1708437476.8819892,-1.1061797142028809,-1.681284090081686,-2.526587788258688,2.2818116384693603,-1.0171521345721644,0.4657871723175049
1708437476.8839357,-1.106191635131836,-1.6812659702696742,-2.526595417653219,2.2818144994923095,-1.0171893278705042,0.46587085723876953
1708437476.885989,-1.1061617136001587,-1.68127503017568,-2.526595417653219,2.2818445402332763,-1.0171764532672327,0.4659155607223511
1708437476.8879569,-1.106203556060791,-1.681199689904684,-2.526628319417135,2.281820698375366,-1.017160717641012,0.4659426212310791
1708437476.890048,-1.1061797142028809,-1.68127503017568,-2.526574198399679,2.2818190294453125,-1.0172022024737757,0.46604371070861816
1708437476.891933,-1.106187105178833,-1.681254049340719,-2.526604477559225,2.2818161684223632,-1.0171197096454065,0.4660663306713104
1708437476.893914,-1.1061618328094482,-1.681270261804098,-2.526611868535177,2.2818235593983154,-1.0171979109393519,0.4661230742931366
1708437476.8959134,-1.1062333583831787,-1.6812588177123011,-2.526628319417135,2.281804247493408,-1.0171650091754358,0.46614277362823486
1708437476.8979049,-1.1061797142028809,-1.6812616787352503,-2.526557509099142,2.2818400102802734,-1.017221752797262,0.4662307798862457
1708437476.8999596,-1.1060971021652222,-1.6812120876707972,-2.526620928441183,2.2818073469349365,-1.0171812216388147,0.4663230776786804
1708437476.901892,-1.106191635131836,-1.681286951104635,-2.526611868535177,2.2818400102802734,-1.0171807448016565,0.46637535095214844
1708437476.9039054,-1.1061588525772095,-1.6812497578062953,-2.526611868535177,2.2818445402332763,-1.0171979109393519,0.46643054485321045
1708437476.905909,-1.1061841249465942,-1.6812659702696742,-2.5265923182116907,2.2818614679523925,-1.017193619404928,0.4664536714553833
1708437476.9078991,-1.1062244176864624,-1.6812497578062953,-2.5265665690051478,2.2818025785633544,-1.0172141234027308,0.4664972126483917
1708437476.9099147,-1.1062170267105103,-1.6812497578062953,-2.526587788258688,2.2818190294453125,-1.017237965260641,0.4666426181793213
1708437476.911923,-1.1062052249908447,-1.6812120876707972,-2.526583258305685,2.2818190294453125,-1.017151180897848,0.46669384837150574
1708437476.913923,-1.1061797142028809,-1.6812859974303187,-2.52661639848818,2.2818488317677,-1.0172422567950647,0.46674177050590515
1708437476.9159272,-1.1061797142028809,-1.6812483272948207,-2.526599947606222,2.2818326193043212,-1.0172012487994593,0.46684929728507996
1708437476.9179099,-1.1062053442001343,-1.68127503017568,-2.52653676668276,2.2818643289753417,-1.017237965260641,0.46692538261413574
1708437476.9199436,-1.1061588525772095,-1.6812449894347132,-2.5265637079821985,2.2818488317677,-1.017193619404928,0.4670220911502838
1708437476.9219303,-1.1061480045318604,-1.6812616787352503,-2.526590887700216,2.2818161684223632,-1.0172541777240198,0.46703970432281494
1708437476.923927,-1.1061298847198486,-1.6812368832030238,-2.526569668446676,2.2818400102802734,-1.0172012487994593,0.4671645164489746
1708437476.9259098,-1.1061298847198486,-1.6812569103636683,-2.526583258305685,2.2818488317677,-1.0171721617328089,0.46728962659835815
1708437476.9279196,-1.106146216392517,-1.681263109246725,-2.52661639848818,2.2818235593983154,-1.017160717641012,0.46734413504600525
1708437476.9299257,-1.1061813831329346,-1.6813003025450648,-2.526595417653219,2.2818659979053955,-1.0172131697284144,0.4674603343009949
1708437476.931919,-1.1061643362045288,-1.681328912774557,-2.526569668446676,2.2817954260059814,-1.017221752797262,0.4675059914588928
1708437476.9339123,-1.1061152219772339,-1.68127503017568,-2.526599947606222,2.2818280893513183,-1.0172174612628382,0.46762213110923767
1708437476.9359019,-1.1061389446258545,-1.6812449894347132,-2.526628319417135,2.2817908960529785,-1.0171850363360804,0.4676780104637146
1708437476.9379392,-1.1061151027679443,-1.681270261804098,-2.5266147295581263,2.2817861276813964,-1.017172638569967,0.4677605628967285
1708437476.9399421,-1.106061339378357,-1.681270261804098,-2.526604477559225,2.281841440791748,-1.0172012487994593,0.46786049008369446
1708437476.9418945,-1.1061241626739502,-1.681282182733053,-2.526586357747213,2.2817863660999755,-1.0172088781939905,0.4679766297340393
1708437476.9439213,-1.1061196327209473,-1.6812283001341761,-2.526586357747213,2.2818116384693603,-1.0171926657306116,0.46807584166526794
1708437476.9459012,-1.1061315536499023,-1.6812368832030238,-2.526552979146139,2.2818524080463867,-1.0172174612628382,0.46819624304771423
1708437476.9479249,-1.1061151027679443,-1.681291242639059,-2.526590887700216,2.2818488317677,-1.0172045866595667,0.46832895278930664
1708437476.9499207,-1.1061285734176636,-1.681270261804098,-2.526590887700216,2.2818326193043212,-1.0172012487994593,0.4684204161167145
1708437476.9519303,-1.1061404943466187,-1.6813270054259242,-2.526557509099142,2.2817789751240234,-1.0172131697284144,0.4685191214084625
1708437476.9539254,-1.106079339981079,-1.6812449894347132,-2.5265710989581507,2.2818071085163574,-1.0172012487994593,0.4686637818813324
1708437476.9559045,-1.1061031818389893,-1.6813284359373988,-2.526562039052145,2.2817835050770263,-1.0172250906573694,0.4687996208667755
1708437476.9579203,-1.106083869934082,-1.6813136539854945,-2.526569668446676,2.281775875682495,-1.0172088781939905,0.4689193069934845
1708437476.9599268,-1.1061166524887085,-1.6812526188292445,-2.52661639848818,2.2817835050770263,-1.0172174612628382,0.4689900577068329
1708437476.9619246,-1.1060549020767212,-1.6812688312926234,-2.526595417653219,2.281813068980835,-1.0172088781939905,0.46913790702819824
1708437476.9639351,-1.1060868501663208,-1.6812731228270472,-2.526583258305685,2.281834049815796,-1.0172002951251429,0.46924540400505066
1708437476.9659286,-1.1060765981674194,-1.6812778911986292,-2.526604477559225,2.28178779661145,-1.0172284285174769,0.4693726897239685
1708437476.9679363,-1.1060384511947632,-1.6813093624510707,-2.526611868535177,2.2817715841480712,-1.0172575155841272,0.46954911947250366
1708437476.9699423,-1.1060340404510498,-1.6813017330565394,-2.526590887700216,2.281845970744751,-1.0172370115863245,0.4696894884109497
1708437476.9719405,-1.1060220003128052,-1.6813270054259242,-2.526595417653219,2.281817598933838,-1.0172327200519007,0.46976327896118164
1708437476.9739556,-1.1060192584991455,-1.6813470325865687,-2.526607338582174,2.281784935588501,-1.0172489325152796,0.4699554145336151
1708437476.97591,-1.105979084968567,-1.6813179455199183,-2.526607338582174,2.2817393976398925,-1.0172575155841272,0.4700543284416199
1708437476.977938,-1.1060357093811035,-1.6813403568663539,-2.526574198399679,2.281768484706543,-1.0172737280475062,0.47023066878318787
1708437476.979934,-1.105986475944519,-1.6813990078368128,-2.526587788258688,2.2817656236835937,-1.0172413031207483,0.4703287184238434
1708437476.9819057,-1.1059926748275757,-1.6814094982542933,-2.526599947606222,2.2817115026661376,-1.0172284285174769,0.4705011546611786
1708437476.9839182,-1.1059545278549194,-1.6813842258849085,-2.526611868535177,2.2817067342945556,-1.0171926657306116,0.47063717246055603
1708437476.985899,-1.1059380769729614,-1.6814257107176722,-2.526574198399679,2.2817115026661376,-1.017261807118551,0.47078853845596313
1708437476.9879282,-1.1059880256652832,-1.6814424000182093,-2.526604477559225,2.2816902834125976,-1.0172165075885218,0.4709320366382599
1708437476.989922,-1.1059880256652832,-1.6814590893187464,-2.526632849370138,2.2817248541065673,-1.0172088781939905,0.4711077809333801
1708437476.9919138,-1.1059801578521729,-1.6814705334105433,-2.526602808629171,2.2816919523426513,-1.0172174612628382,0.4712275564670563
1708437476.9939365,-1.105913758277893,-1.6814032993712367,-2.526628319417135,2.281689091319702,-1.0172284285174769,0.47134608030319214
1708437476.995912,-1.1059682369232178,-1.6814786396422328,-2.526529375706808,2.281655712718628,-1.0172651449786585,0.4715310335159302
1708437476.9979482,-1.105906367301941,-1.6814857921996058,-2.526604477559225,2.2816223341175537,-1.0172856489764612,0.47167307138442993
1708437476.99991,-1.1059681177139282,-1.681535383264059,-2.526632849370138,2.2816285330006103,-1.017252270375387,0.47180914878845215
1708437477.0018992,-1.1058974266052246,-1.681509634057516,-2.526604477559225,2.2816120821186523,-1.017236057912008,0.4719931483268738
1708437477.0039363,-1.105906367301941,-1.6814772091307582,-2.526620928441183,2.2816166120716552,-1.0172608534442347,0.4720999002456665
1708437477.0059078,-1.1059155464172363,-1.681497713128561,-2.5265381971942347,2.2815539079853515,-1.0172856489764612,0.4722842574119568
1708437477.0079145,-1.105894684791565,-1.6814962826170863,-2.526637379323141,2.281559391612671,-1.0172565619098108,0.47239843010902405
1708437477.0099096,-1.1059364080429077,-1.6815172634520472,-2.5265653769122522,2.281563921565674,-1.0172770659076136,0.4725542366504669
1708437477.0118988,-1.1058827638626099,-1.6815253696837367,-2.526595417653219,2.281567259425781,-1.0172370115863245,0.47281622886657715
1708437477.0139437,-1.1058917045593262,-1.6815501652159632,-2.5265665690051478,2.2815698820301513,-1.0172370115863245,0.47291314601898193
1708437477.0159144,-1.1059054136276245,-1.6815411053099574,-2.526562039052145,2.2815369802662353,-1.017252270375387,0.47308477759361267
1708437477.0179238,-1.1058509349822998,-1.6815253696837367,-2.526611868535177,2.2815207678028564,-1.0172370115863245,0.47324779629707336
1708437477.0199037,-1.105808973312378,-1.6815339527525843,-2.526578728352682,2.281501455897949,-1.0172932783709925,0.47344356775283813
1708437477.0218935,-1.1057907342910767,-1.6815186939635218,-2.5265756289111536,2.281459017390869,-1.0172532240497034,0.4736066162586212
1708437477.023934,-1.1058480739593506,-1.6815039120116175,-2.526578728352682,2.281447334880493,-1.0172327200519007,0.47379449009895325
1708437477.0258954,-1.105783462524414,-1.6815577946104945,-2.52661639848818,2.281439705485962,-1.0172694365130823,0.47399038076400757
1708437477.0279164,-1.1057907342910767,-1.6816073856749476,-2.5265665690051478,2.281439705485962,-1.0173018614398401,0.47412416338920593
1708437477.0299366,-1.105767011642456,-1.6815906963744105,-2.526587788258688,2.2813660341450195,-1.0172446409808558,0.4742925465106964
1708437477.0319018,-1.1057387590408325,-1.6815253696837367,-2.5265982786761683,2.2813541132160644,-1.0172651449786585,0.47448837757110596
1708437477.0339048,-1.10574471950531,-1.6815906963744105,-2.526611868535177,2.281367703075073,-1.0172370115863245,0.47462329268455505
1708437477.0359185,-1.1057074069976807,-1.6815625629820765,-2.52661639848818,2.2814084726520996,-1.017212216054098,0.47483935952186584
1708437477.0379074,-1.1056948900222778,-1.681531091729635,-2.526637379323141,2.281367703075073,-1.0172737280475062,0.47500261664390564
1708437477.039907,-1.1056667566299438,-1.681584974328512,-2.526607338582174,2.281348391170166,-1.017252270375387,0.4751949608325958
1708437477.0419064,-1.1056429147720337,-1.6816193066039027,-2.5265923182116907,2.281352921123169,-1.0172455946551722,0.475370317697525
1708437477.043916,-1.105639934539795,-1.681596418420309,-2.526590887700216,2.281320019359253,-1.0172856489764612,0.47554072737693787
1708437477.0459096,-1.105639934539795,-1.6816374264159144,-2.526586357747213,2.2812747198292236,-1.0172207991229456,0.47576555609703064
1708437477.0479143,-1.1056280136108398,-1.6816054783263148,-2.5265336672412317,2.2813047605701904,-1.0172165075885218,0.4758790135383606
1708437477.0499182,-1.105639934539795,-1.6815759144225062,-2.526607338582174,2.2812182146259765,-1.0172370115863245,0.47609513998031616
1708437477.051911,-1.105570912361145,-1.6816626987852992,-2.526620928441183,2.2812809187122802,-1.0172002951251429,0.47628313302993774
1708437477.0539408,-1.1055798530578613,-1.6816207371153773,-2.526578728352682,2.281248016948364,-1.0172165075885218,0.476453959941864
1708437477.055933,-1.1055753231048584,-1.6816250286498011,-2.526557509099142,2.281236096019409,-1.0172413031207483,0.4766291081905365
1708437477.0579348,-1.10555899143219,-1.6816207371153773,-2.5265756289111536,2.281212492580078,-1.017212216054098,0.47677916288375854
1708437477.059899,-1.1055634021759033,-1.6816092930235804,-2.5265427271472376,2.2812346655079345,-1.0172608534442347,0.4769836962223053
1708437477.0619059,-1.105560541152954,-1.6816417179503382,-2.526637379323141,2.2811714845844726,-1.0172165075885218,0.4771672189235687
1708437477.0638998,-1.1055151224136353,-1.6816073856749476,-2.526583258305685,2.281139059657715,-1.0172370115863245,0.47733819484710693
1708437477.0659177,-1.1055243015289307,-1.6816240749754847,-2.526607338582174,2.2811269003101806,-1.0172489325152796,0.47753480076789856
1708437477.0679398,-1.105527639389038,-1.6816541157164515,-2.526578728352682,2.2811359602161865,-1.0172293821917933,0.4777424931526184
1708437477.0699813,-1.105533242225647,-1.6816450558104457,-2.526644770299093,2.281106873149536,-1.0172293821917933,0.4779011607170105
1708437477.071944,-1.1054705381393433,-1.6816541157164515,-2.526587788258688,2.281099482173584,-1.0172541777240198,0.4780568778514862
1708437477.073928,-1.105516791343689,-1.6817032299437464,-2.526620928441183,2.281083031291626,-1.0172174612628382,0.4782806634902954
1708437477.0759392,-1.1054794788360596,-1.6816851101317347,-2.5265665690051478,2.2811173635670166,-1.0172489325152796,0.4784349203109741
1708437477.077956,-1.1054675579071045,-1.6816941700377406,-2.526609007512228,2.2811173635670166,-1.0172250906573694,0.4786349833011627
1708437477.0799222,-1.1054810285568237,-1.6817223034300746,-2.5265923182116907,2.2810801702686767,-1.0172737280475062,0.4788012206554413
1708437477.0819225,-1.1054437160491943,-1.681711813012594,-2.526587788258688,2.2809976774403076,-1.0172088781939905,0.47899284958839417
1708437477.0839443,-1.1054221391677856,-1.6817089519896449,-2.5265665690051478,2.2810579973408203,-1.017249886189596,0.4791644215583801
1708437477.085975,-1.1054115295410156,-1.6817299328246058,-2.526562039052145,2.2809738355823974,-1.0171969572650355,0.4793478846549988
1708437477.087936,-1.1054311990737915,-1.6816865406432093,-2.526611868535177,2.2810534673878173,-1.0171850363360804,0.4795112609863281
1708437477.0899224,-1.1053996086120605,-1.681687971154684,-2.5265710989581507,2.281074209804199,-1.017193619404928,0.4796789586544037
1708437477.0919368,-1.1053712368011475,-1.6817370853819789,-2.526611868535177,2.281062527293823,-1.0172293821917933,0.4798986315727234
1708437477.0939195,-1.1053049564361572,-1.681765695611471,-2.5265665690051478,2.2809783655354003,-1.0172174612628382,0.4800173044204712
1708437477.0959225,-1.1053802967071533,-1.6817699871458949,-2.5265710989581507,2.2809499937244873,-1.0171850363360804,0.4802582263946533
1708437477.0979168,-1.1053303480148315,-1.681774755517477,-2.526599947606222,2.280942602748535,-1.0171521345721644,0.4804287850856781
1708437477.0999405,-1.1053565740585327,-1.6817823849120082,-2.5265923182116907,2.2810260492512207,-1.0171969572650355,0.48058438301086426
1708437477.101907,-1.1053138971328735,-1.6817451916136683,-2.526604477559225,2.280980034465454,-1.0171969572650355,0.48076826333999634
1708437477.1039014,-1.1053138971328735,-1.681732793847555,-2.526501003895895,2.280930920238159,-1.017193619404928,0.4809148609638214
1708437477.1059318,-1.1053067445755005,-1.6817566357054652,-2.526611868535177,2.281005306834839,-1.0172174612628382,0.481114000082016
1708437477.1079123,-1.1052902936935425,-1.6817823849120082,-2.5265846888171595,2.2809530931660156,-1.017176930104391,0.4812160134315491
1708437477.1099222,-1.1053276062011719,-1.6817847690977992,-2.526562039052145,2.2809828954884033,-1.0171521345721644,0.4814012050628662
1708437477.1119075,-1.1052709817886353,-1.6818481884398402,-2.5265937487231653,2.2809786039539794,-1.0172184149371546,0.4816131889820099
1708437477.1139245,-1.105324625968933,-1.681793829003805,-2.526609007512228,2.2809604841419677,-1.017172638569967,0.48178815841674805
1708437477.1159291,-1.105312705039978,-1.6818090877928675,-2.5265710989581507,2.2809151846119384,-1.0171979109393519,0.48193904757499695
1708437477.1178942,-1.1052753925323486,-1.6817757091917933,-2.526562039052145,2.280928774470947,-1.0171650091754358,0.4821273982524872
1708437477.1199305,-1.1052426099777222,-1.6817475757994593,-2.526625458394186,2.280916853541992,-1.0171650091754358,0.48226943612098694
1708437477.1219177,-1.1052470207214355,-1.6817885837950648,-2.526562039052145,2.280916853541992,-1.017209831868307,0.4824122190475464
1708437477.1239429,-1.105251669883728,-1.6817671261229457,-2.526604477559225,2.2809178072163085,-1.0171812216388147,0.4825926423072815
1708437477.1259413,-1.1053217649459839,-1.6818605862059535,-2.526562039052145,2.280874415034912,-1.0171521345721644,0.4827609360218048
1708437477.1279397,-1.1052061319351196,-1.6818300686278285,-2.5265923182116907,2.280942364329956,-1.0171812216388147,0.48288726806640625
1708437477.1299262,-1.105248212814331,-1.681838174859518,-2.526599947606222,2.280843420619629,-1.017120663319723,0.48306038975715637
1708437477.1319475,-1.1052436828613281,-1.6817838154234828,-2.5265710989581507,2.2808806139179687,-1.0171693007098597,0.48315802216529846
1708437477.1338928,-1.1052436828613281,-1.6817885837950648,-2.526583258305685,2.2808968263813476,-1.0171402136432093,0.48337873816490173
1708437477.1358895,-1.1052225828170776,-1.6817957363524378,-2.526578728352682,2.2808522421070556,-1.0171530882464808,0.4835225045681
1708437477.1378965,-1.1052889823913574,-1.6817928753294886,-2.526620928441183,2.280847950572632,-1.0171120802508753,0.48366883397102356
1708437477.1399176,-1.1052016019821167,-1.6818257770934046,-2.5265546480761927,2.2808522421070556,-1.0171898047076624,0.48382583260536194
1708437477.141895,-1.1052526235580444,-1.6818167171873988,-2.526557509099142,2.2808567720600585,-1.0171120802508753,0.483920156955719
1708437477.1439064,-1.1051989793777466,-1.6818119488158167,-2.5265336672412317,2.2808686929890136,-1.0171573797809046,0.48413655161857605
1708437477.145893,-1.1052109003067017,-1.6818210087218226,-2.526620928441183,2.2808398443409423,-1.0171454588519495,0.48424288630485535
1708437477.1479125,-1.1051840782165527,-1.6818496189513148,-2.526587788258688,2.2808188635059814,-1.0171087423907679,0.48438653349876404
1708437477.1499887,-1.1052168607711792,-1.681779523889059,-2.5265710989581507,2.280852957362793,-1.017120663319723,0.48448994755744934
1708437477.1519563,-1.1052035093307495,-1.6818300686278285,-2.5265665690051478,2.2808069425770263,-1.0171411673175257,0.48463237285614014
1708437477.1539059,-1.105149745941162,-1.6817556820311488,-2.5265381971942347,2.280891104335449,-1.0171778837787073,0.48478132486343384
1708437477.1559005,-1.105231761932373,-1.6818210087218226,-2.5265968481646937,2.2808613020130615,-1.0171368757831019,0.48491257429122925
1708437477.1579113,-1.1051461696624756,-1.6817671261229457,-2.5265710989581507,2.280816002483032,-1.0171659628497522,0.48508477210998535
1708437477.1599016,-1.1052168607711792,-1.6818248234190882,-2.5265968481646937,2.280816002483032,-1.017104450856344,0.48514309525489807
1708437477.1619248,-1.105155110359192,-1.6818005047240199,-2.5265546480761927,2.2808233934589843,-1.0171497503863733,0.48526281118392944
1708437477.1639273,-1.1051541566848755,-1.6818005047240199,-2.5265546480761927,2.2808777528950195,-1.0171216169940394,0.48538583517074585
1708437477.1659126,-1.1052260398864746,-1.681838174859518,-2.526620928441183,2.280857725734375,-1.0170968214618128,0.4855141043663025
1708437477.1679068,-1.1051721572875977,-1.6818496189513148,-2.5265923182116907,2.2808281618305664,-1.0171335379229944,0.4856259226799011
1708437477.1699202,-1.1051932573318481,-1.6818210087218226,-2.526599947606222,2.2807833391376953,-1.0171259085284632,0.48572036623954773
1708437477.171962,-1.1051632165908813,-1.6817804775633753,-2.526587788258688,2.2807718950458984,-1.017092529927389,0.4858444929122925
1708437477.173913,-1.1051931381225586,-1.681807657281393,-2.5265968481646937,2.2808279234119873,-1.0171011129962366,0.48596930503845215
1708437477.1759264,-1.1051959991455078,-1.6817885837950648,-2.5265591780291956,2.280816002483032,-1.0171411673175257,0.4860934317111969
1708437477.1779232,-1.105158805847168,-1.6818005047240199,-2.5265546480761927,2.280899925822876,-1.0171173254596155,0.48622068762779236
1708437477.179934,-1.1051959991455078,-1.6818138561644496,-2.5265381971942347,2.2808665472218017,-1.017104450856344,0.4863118827342987
1708437477.181939,-1.1051812171936035,-1.6818210087218226,-2.5265756289111536,2.28077141820874,-1.0171378294574183,0.48642081022262573
1708437477.1839209,-1.1052260398864746,-1.681833883325094,-2.5265923182116907,2.28080861150708,-1.017104450856344,0.4864991009235382
1708437477.185911,-1.1051751375198364,-1.6818257770934046,-2.5265336672412317,2.2807952600666503,-1.0171540419207972,0.48662427067756653
1708437477.1878996,-1.1051661968231201,-1.681840559045309,-2.526583258305685,2.28083245336499,-1.0171411673175257,0.48668190836906433
1708437477.1899242,-1.1051676273345947,-1.6818539104857386,-2.5265710989581507,2.28084580480542,-1.0171659628497522,0.4868099093437195
1708437477.1919322,-1.1051796674728394,-1.6818300686278285,-2.5265501181231897,2.280792160625122,-1.0171173254596155,0.48689359426498413
1708437477.1938977,-1.1052123308181763,-1.681833883325094,-2.526583258305685,2.280862017268799,-1.0171249548541468,0.4869285225868225
1708437477.1959012,-1.1051721572875977,-1.6818586788573207,-2.5265381971942347,2.2808822828480224,-1.0171411673175257,0.4870644807815552
1708437477.1978939,-1.1051687002182007,-1.6818047962584437,-2.5265682379352015,2.2808117109486084,-1.0171616713153284,0.48718106746673584
1708437477.1999066,-1.1051417589187622,-1.6817838154234828,-2.526609007512228,2.28080861150708,-1.0171087423907679,0.4872644245624542
1708437477.201904,-1.1051884889602661,-1.681779523889059,-2.526595417653219,2.2807671266743164,-1.0170968214618128,0.4873689115047455
1708437477.2039065,-1.1052260398864746,-1.6818167171873988,-2.5265710989581507,2.280816002483032,-1.0171249548541468,0.4874071776866913
1708437477.2059228,-1.1051371097564697,-1.6818300686278285,-2.526587788258688,2.2808500963398437,-1.0171454588519495,0.48749586939811707
1708437477.207918,-1.1052095890045166,-1.6817885837950648,-2.5265546480761927,2.28083245336499,-1.017120663319723,0.48753872513771057
1708437477.2099304,-1.1051676273345947,-1.6818119488158167,-2.526609007512228,2.280848665828369,-1.0171616713153284,0.4876430034637451
1708437477.2119024,-1.1052124500274658,-1.6817623577513636,-2.526562039052145,2.280787630672119,-1.0171292463885706,0.48771440982818604
1708437477.2139091,-1.105154275894165,-1.6818047962584437,-2.5265923182116907,2.280874653453491,-1.0171573797809046,0.48780161142349243
1708437477.2159069,-1.1051676273345947,-1.6817623577513636,-2.526599947606222,2.2808119493671875,-1.0171087423907679,0.48782432079315186
1708437477.2179165,-1.1052377223968506,-1.6817976437010707,-2.526611868535177,2.2808942037769775,-1.0171368757831019,0.4879094660282135
1708437477.2199667,-1.105170726776123,-1.6818257770934046,-2.5265665690051478,2.2808777528950195,-1.0171368757831019,0.48797333240509033
1708437477.221916,-1.1052005290985107,-1.6818138561644496,-2.5265501181231897,2.2808233934589843,-1.017132584248678,0.4880819320678711
1708437477.2239387,-1.1052242517471313,-1.6817599735655726,-2.526545588170187,2.280869885081909,-1.0171650091754358,0.4881093204021454
1708437477.2259097,-1.1052287817001343,-1.6818005047240199,-2.526625458394186,2.2808398443409423,-1.0171530882464808,0.4881604015827179
1708437477.2279716,-1.1051840782165527,-1.6818090877928675,-2.5265665690051478,2.2809149461933593,-1.017160717641012,0.48820412158966064
1708437477.2299743,-1.1051796674728394,-1.6817757091917933,-2.5265591780291956,2.280799074763916,-1.0172184149371546,0.48827123641967773
1708437477.231905,-1.1052005290985107,-1.6818047962584437,-2.5265591780291956,2.2808894354053955,-1.017193619404928,0.48831161856651306
1708437477.233896,-1.1052095890045166,-1.6818119488158167,-2.5265756289111536,2.280843420619629,-1.017205540333883,0.4883963167667389
1708437477.2359104,-1.10520339012146,-1.6818348369994105,-2.526620928441183,2.2808806139179687,-1.0172022024737757,0.48841142654418945
1708437477.2379088,-1.1051632165908813,-1.6817599735655726,-2.5265801588641565,2.280843420619629,-1.0171893278705042,0.48848357796669006
1708437477.239965,-1.1051989793777466,-1.6817714176573695,-2.52661639848818,2.2809392648884277,-1.017209831868307,0.4884984493255615
1708437477.2419162,-1.1051915884017944,-1.6817847690977992,-2.526590887700216,2.2808307844349365,-1.017205540333883,0.488531231880188
1708437477.2439191,-1.105219841003418,-1.6817714176573695,-2.5265308062182825,2.280892534846924,-1.0171850363360804,0.4885748326778412
1708437477.2459092,-1.1052452325820923,-1.6817928753294886,-2.526587788258688,2.280895395869873,-1.0171650091754358,0.4885704517364502
1708437477.247941,-1.1052109003067017,-1.6818138561644496,-2.5265801588641565,2.280921383494995,-1.017205540333883,0.4885897934436798
1708437477.2499144,-1.105219841003418,-1.6817885837950648,-2.5265665690051478,2.280895395869873,-1.0171893278705042,0.4886419475078583
1708437477.2518947,-1.105170726776123,-1.6818138561644496,-2.526587788258688,2.280862732524536,-1.017209831868307,0.4886375963687897
1708437477.253918,-1.105207920074463,-1.6817804775633753,-2.526512686406271,2.280942364329956,-1.0171807448016565,0.48870205879211426
1708437477.255922,-1.1052109003067017,-1.6818391285338343,-2.526595417653219,2.280883474940918,-1.017205540333883,0.4886617362499237
1708437477.2579308,-1.1051616668701172,-1.6817509136595667,-2.526562039052145,2.280937834376953,-1.0171764532672327,0.4886617362499237
1708437477.2599401,-1.1051989793777466,-1.6817647419371546,-2.526590887700216,2.2809576231190185,-1.0172012487994593,0.48869019746780396
1708437477.2618918,-1.1051944494247437,-1.6817804775633753,-2.5265710989581507,2.2809366422840576,-1.0171926657306116,0.4886573255062103
1708437477.2639673,-1.105248212814331,-1.6817757091917933,-2.52661639848818,2.2809457021900634,-1.017266098652975,0.4887031614780426
1708437477.2658963,-1.1052062511444092,-1.6818257770934046,-2.526562039052145,2.2809366422840576,-1.0172293821917933,0.4886779487133026
1708437477.267916,-1.105231761932373,-1.6817556820311488,-2.526587788258688,2.2809323507496337,-1.0172088781939905,0.488693505525589
1708437477.2699404,-1.1052272319793701,-1.6817647419371546,-2.526599947606222,2.2809902864643554,-1.0172002951251429,0.48868581652641296
1708437477.2719169,-1.1052154302597046,-1.6817976437010707,-2.5265665690051478,2.2809411722370605,-1.0172575155841272,0.488677978515625
1708437477.273961,-1.1052560806274414,-1.6817556820311488,-2.5265546480761927,2.2809323507496337,-1.0172489325152796,0.48865413665771484
1708437477.275971,-1.1052300930023193,-1.6817847690977992,-2.5265546480761927,2.280939741725586,-1.0172045866595667,0.48866721987724304
1708437477.2779958,-1.1052407026290894,-1.6818047962584437,-2.526587788258688,2.280923529262207,-1.0172413031207483,0.48856499791145325
1708437477.2799664,-1.1052272319793701,-1.6818472347655238,-2.52665359178652,2.2809242445179443,-1.0172207991229456,0.4885542094707489
1708437477.2819254,-1.1052361726760864,-1.6818229160704554,-2.5265591780291956,2.2809650140949707,-1.0172327200519007,0.48854199051856995
1708437477.2839487,-1.1052480936050415,-1.6817475757994593,-2.526578728352682,2.2809621530720214,-1.0172651449786585,0.48844975233078003
1708437477.2859282,-1.1052390336990356,-1.6817885837950648,-2.526562039052145,2.2809933859058837,-1.0172370115863245,0.4884626567363739
1708437477.2879326,-1.1052452325820923,-1.6818300686278285,-2.526611868535177,2.2809931474873046,-1.017236057912008,0.48842260241508484
1708437477.2899816,-1.1052272319793701,-1.6817714176573695,-2.52661639848818,2.2809976774403076,-1.0172446409808558,0.48834654688835144
1708437477.2919598,-1.105231761932373,-1.6818257770934046,-2.526599947606222,2.280940218562744,-1.0172889868365687,0.48832347989082336
1708437477.2939255,-1.105248212814331,-1.6818138561644496,-2.526578728352682,2.2809738355823974,-1.017313305531637,0.4882538318634033
1708437477.2959437,-1.105248212814331,-1.6818019352354945,-2.526562039052145,2.2809769350239257,-1.017329517995016,0.48819106817245483
1708437477.2979193,-1.1052272319793701,-1.6817757091917933,-2.526562039052145,2.2809650140949707,-1.0173175970660608,0.48817670345306396
1708437477.299931,-1.105236291885376,-1.6818496189513148,-2.526628319417135,2.2809814649769287,-1.017264191304342,0.4880997836589813
1708437477.3019104,-1.105215311050415,-1.6818005047240199,-2.526637379323141,2.2809769350239257,-1.0173285643206995,0.48801180720329285
1708437477.3039238,-1.1052526235580444,-1.6818496189513148,-2.526611868535177,2.2810141283222656,-1.017329517995016,0.4879353642463684
1708437477.3059194,-1.1051840782165527,-1.6817957363524378,-2.526595417653219,2.2810141283222656,-1.017369572316305,0.4878430664539337
1708437477.307918,-1.105134129524231,-1.6817733250060023,-2.526623551045553,2.2809063631245117,-1.0173566977130335,0.4877019226551056
1708437477.3099353,-1.1051732301712036,-1.6818529568114222,-2.526644770299093,2.2809502321430664,-1.0173810164081019,0.4877006411552429
1708437477.3118963,-1.1051329374313354,-1.6818815670409144,-2.526607338582174,2.280928774470947,-1.017416779194967,0.48757651448249817
1708437477.313934,-1.1050792932510376,-1.6818930111327113,-2.526604477559225,2.28093330442395,-1.017416779194967,0.4874436557292938
1708437477.3159213,-1.1050382852554321,-1.6819750271239222,-2.526602808629171,2.280937834376953,-1.0174525419818323,0.48739731311798096
1708437477.317913,-1.1050728559494019,-1.6819549999632777,-2.526562039052145,2.280871792430542,-1.0174763838397425,0.4872363209724426
1708437477.3199396,-1.1050117015838623,-1.6819726429381312,-2.5265982786761683,2.280871792430542,-1.0175002256976526,0.48712092638015747
1708437477.3219213,-1.1049391031265259,-1.6819473705687464,-2.526590887700216,2.2808567720600585,-1.0174930731402796,0.4870503842830658
1708437477.3239305,-1.1048871278762817,-1.6819993458189906,-2.526607338582174,2.2807580667683105,-1.0175169149981897,0.48685774207115173
1708437477.3259108,-1.1048060655593872,-1.6820484600462855,-2.5266643206225794,2.280768318767212,-1.0175440947162073,0.4867557883262634
1708437477.3279448,-1.1047368049621582,-1.6821266613402308,-2.5265818277942103,2.280796690578125,-1.0175688902484339,0.4865429401397705
1708437477.329974,-1.1047192811965942,-1.6821371517577113,-2.5266476313220423,2.2807773786732177,-1.0176332632647913,0.48639899492263794
1708437477.3319578,-1.1046382188796997,-1.6821614704527796,-2.5266643206225794,2.280684395427368,-1.017587963734762,0.4862760305404663
1708437477.3339293,-1.104528784751892,-1.6822182140746058,-2.5266462008105677,2.280651016826294,-1.0176366011248987,0.486067533493042
1708437477.3359025,-1.104543924331665,-1.6822363338866175,-2.5266884008990687,2.280637665385864,-1.01764423051943,0.48592838644981384
1708437477.3379056,-1.1043930053710938,-1.6822554073729457,-2.526724163685934,2.280618353480957,-1.0176604429828089,0.48575663566589355
1708437477.3399231,-1.1043428182601929,-1.6823531589903773,-2.526712242756979,2.2805494505115966,-1.0177248159991663,0.4855608344078064
1708437477.341914,-1.1042060852050781,-1.6823846302428187,-2.526712242756979,2.28043715536084,-1.0177410284625452,0.4854305386543274
1708437477.3439274,-1.1041340827941895,-1.682460447350973,-2.5267227331744593,2.2804013925739746,-1.0177930037127894,0.4851783514022827
1708437477.3458965,-1.1039890050888062,-1.6824828586974085,-2.5267558733569544,2.2802960115620117,-1.017775837575094,0.48500630259513855
1708437477.3479235,-1.1038777828216553,-1.6825844250121058,-2.5268052260028284,2.2802082735249023,-1.0178282896624964,0.484832763671875
1708437477.3499331,-1.1037322282791138,-1.682650705377096,-2.526794497166769,2.2801355558582763,-1.0178230444537562,0.48466065526008606
1708437477.3518968,-1.1036498546600342,-1.6826640568175257,-2.5268426577197474,2.2800637918659667,-1.017883602772848,0.4844333827495575
1708437477.3539033,-1.1035274267196655,-1.6827312908568324,-2.5268877188311976,2.2799767690845947,-1.0179241339312952,0.48420944809913635
1708437477.355895,-1.1033121347427368,-1.6827699146666468,-2.5269582907306116,2.279817982310913,-1.0179112593280237,0.48400625586509705
1708437477.3579125,-1.1032013893127441,-1.6828466854491175,-2.526881519948141,2.2797509866901855,-1.0179598967181605,0.4838399291038513
1708437477.3599296,-1.1030499935150146,-1.6829515896239222,-2.5269671122180384,2.279615803355835,-1.0179675261126917,0.483591765165329
1708437477.3619175,-1.1028684377670288,-1.6830159626402796,-2.5269792715655726,2.2795273500629882,-1.0179546515094202,0.4833844006061554
1708437477.363943,-1.102676510810852,-1.683075567285055,-2.527017895375387,2.2793664175220947,-1.0179913679706019,0.48317673802375793
1708437477.365912,-1.102487564086914,-1.683188100854391,-2.5270677248584192,2.2792512613483886,-1.0179827849017542,0.4829581677913666
1708437477.3679347,-1.1023045778274536,-1.6832219562926234,-2.5271156469928187,2.2791361051746826,-1.0180404821978968,0.4827461540699005
1708437477.3699303,-1.1021054983139038,-1.6833015880980433,-2.527184549962179,2.2789906698414306,-1.0180719534503382,0.4825471043586731
1708437477.3719482,-1.1018966436386108,-1.6834308109679164,-2.5271499792682093,2.2788590627857666,-1.0180147329913538,0.4822947084903717
1708437477.3739443,-1.1016361713409424,-1.6835609875121058,-2.5272684733020228,2.278686686153076,-1.0181120077716272,0.48204076290130615
1708437477.3759263,-1.1014199256896973,-1.6836134395995082,-2.5272837320910853,2.278561754817627,-1.0180991331683558,0.4818059504032135
1708437477.377999,-1.1011993885040283,-1.6838065586485804,-2.5272865931140345,2.2783912855335693,-1.0181644598590296,0.4815221130847931
1708437477.3799157,-1.1009305715560913,-1.6839143238463343,-2.5273481051074427,2.278218908900879,-1.018195931111471,0.4812992811203003
1708437477.381928,-1.1006461381912231,-1.6839949093260707,-2.527429167424337,2.2780584531971435,-1.0182278792010706,0.4810238182544708
1708437477.3839033,-1.1003880500793457,-1.6841026745238246,-2.52740985551943,2.2778617578693847,-1.0182879606830042,0.480826199054718
1708437477.3859003,-1.1000431776046753,-1.6842853031554164,-2.527475420628683,2.277667208308838,-1.0183799902545374,0.48053035140037537
1708437477.3878984,-1.0997674465179443,-1.6843091450133265,-2.5275071302997034,2.277473135585449,-1.018428150807516,0.4801813066005707
1708437477.3899717,-1.0994089841842651,-1.6844412289061488,-2.527583662663595,2.2771877485462646,-1.0184791723834437,0.4799032211303711
1708437477.391912,-1.0991363525390625,-1.6846357784666957,-2.5276148954974573,2.2770415979572753,-1.0185349623309534,0.4796193540096283
1708437477.3938959,-1.0988224744796753,-1.6847340069212855,-2.5277259985553187,2.276812716121338,-1.0186074415790003,0.47943440079689026
1708437477.3958964,-1.098466396331787,-1.6849094829955042,-2.5277486483203333,2.2765561777302246,-1.0186265150653284,0.4790656566619873
1708437477.3978996,-1.0981245040893555,-1.6850935421385707,-2.527829710637228,2.2763406473347167,-1.0187023321734827,0.47876298427581787
1708437477.3999023,-1.0976943969726562,-1.685268064538473,-2.527836863194601,2.2760395246693115,-1.0187752882586878,0.4784798324108124
1708437477.401915,-1.0972975492477417,-1.6854568920531214,-2.527874533330099,2.275761528606079,-1.0188592115985315,0.4781612455844879
1708437477.4039054,-1.0968693494796753,-1.685652872125143,-2.527947727833883,2.275456591243408,-1.0189302603351038,0.4778784513473511
1708437477.405901,-1.0964537858963013,-1.6858540974059046,-2.528015438710348,2.2752229410358886,-1.0189779440509241,0.47752314805984497
1708437477.4078925,-1.0960558652877808,-1.6859780750670375,-2.52808124223818,2.274803801173828,-1.0190466086017054,0.477194607257843
1708437477.40991,-1.0955901145935059,-1.686260839501852,-2.528118912373678,2.274529142970703,-1.0191381613360804,0.4768773019313812
1708437477.4119387,-1.0951180458068848,-1.6864758930602015,-2.5282283465014856,2.2741891580769042,-1.0192187468158167,0.47655773162841797
1708437477.413916,-1.0946125984191895,-1.6866990528502406,-2.528292957936422,2.2738656240650634,-1.0193141142474573,0.4762629270553589
1708437477.4159236,-1.094153881072998,-1.6869808636107386,-2.528372351323263,2.273517532939575,-1.0193732420550745,0.4759693145751953
1708437477.4179351,-1.0935932397842407,-1.6871806583800257,-2.5284860769854944,2.2731663423725585,-1.0195344130145472,0.4755781590938568
1708437477.4199667,-1.0931239128112793,-1.6874891720213832,-2.528496805821554,2.2727090555378417,-1.0196474234210413,0.4751809239387512
1708437477.4219265,-1.092439889907837,-1.6876913509764613,-2.52857476869692,2.2723628717609863,-1.01970082918276,0.474848210811615
1708437477.4239225,-1.091875433921814,-1.6880456409850062,-2.528745953236715,2.271958752269409,-1.0198338667498987,0.4744718372821808
1708437477.425937,-1.091323971748352,-1.6883169613280238,-2.528775755559103,2.2715868192860107,-1.0198958555804651,0.4741264283657074
1708437477.427921,-1.0906962156295776,-1.6886440716185511,-2.5288854281054896,2.2711826997944335,-1.0200451056109827,0.4737274944782257
1708437477.4299707,-1.09003746509552,-1.6889273128905238,-2.528990093861715,2.270807667369507,-1.0201366583453577,0.473347932100296
1708437477.431921,-1.0894439220428467,-1.6892358265318812,-2.529065195714132,2.2703675466724853,-1.0202973524676722,0.4729858636856079
1708437477.433911,-1.0887689590454102,-1.689632078210348,-2.529161039982931,2.269883556956909,-1.0204365889178675,0.4725915193557739
1708437477.435906,-1.0880552530288696,-1.6899105511107386,-2.52926475206484,2.269483967418335,-1.0205400625811976,0.4721842110157013
1708437477.4379113,-1.0873346328735352,-1.6902319393553675,-2.529356066380636,2.2689835268208007,-1.0206764380084437,0.47179338335990906
1708437477.4399307,-1.086625576019287,-1.6905881367125453,-2.52943998972048,2.2684542375751953,-1.02079946199526,0.47138550877571106
1708437477.4419062,-1.085879921913147,-1.6909104786314906,-2.529576603566305,2.2679924207874755,-1.0209959189044397,0.4709551930427551
1708437477.4438975,-1.0850536823272705,-1.6912452183165492,-2.529734198247091,2.267406626338623,-1.0210912863360804,0.47055286169052124
1708437477.4458983,-1.0842664241790771,-1.6916538677611292,-2.5298872629748743,2.2669119077869873,-1.0212920347796839,0.4701418876647949
1708437477.4479208,-1.0834931135177612,-1.6920834980406703,-2.5299766699420374,2.266355438823364,-1.0213950316058558,0.4697524905204773
1708437477.4499276,-1.0826741456985474,-1.6924621067442835,-2.5300970713244837,2.2658113676258544,-1.0214932600604456,0.4692403972148895
1708437477.451939,-1.0818339586257935,-1.6928321323790492,-2.53023344675173,2.2652601438709716,-1.0216825644122522,0.46885886788368225
1708437477.4539049,-1.0810025930404663,-1.6932970486082972,-2.530356470738546,2.2646683889576416,-1.021817986165182,0.46839454770088196
1708437477.4559097,-1.080148696899414,-1.693653245965475,-2.5305138270007532,2.264044685954712,-1.0219381491290491,0.46804237365722656
1708437477.4579134,-1.0792032480239868,-1.6940962276854457,-2.5306382814990442,2.2633601862141113,-1.0221260229693812,0.4676189720630646
1708437477.4599094,-1.0782982110977173,-1.694604059258932,-2.530780617390768,2.2628089624592285,-1.0222738424884241,0.4670833945274353
1708437477.4619148,-1.077292561531067,-1.6949669323363246,-2.530966822301046,2.262155218715332,-1.0224502722369593,0.46667882800102234
1708437477.4639316,-1.0763463973999023,-1.695376535455221,-2.531076256428854,2.2614869314381103,-1.022641960774557,0.46618321537971497
1708437477.4659429,-1.0753206014633179,-1.6958548031248988,-2.531224791203634,2.2608658510395507,-1.0227883497821253,0.46570059657096863
1708437477.4679463,-1.0743412971496582,-1.6963869533934535,-2.5314136187182825,2.260193033809326,-1.0229652563678187,0.4652266800403595
1708437477.4699235,-1.0733411312103271,-1.6968652210631312,-2.531581226979391,2.259479447002075,-1.023188892995016,0.4647107720375061
1708437477.4719293,-1.072350025177002,-1.6973315678038539,-2.5317614714251917,2.258849783534668,-1.0233596006976526,0.46428921818733215
1708437477.473948,-1.0712367296218872,-1.69787659267568,-2.5319672266589563,2.2580978113361816,-1.0235798994647425,0.46375414729118347
1708437477.475956,-1.0701525211334229,-1.6983939609923304,-2.532097403203146,2.2573482233234863,-1.0238197485553187,0.46330979466438293
1708437477.477952,-1.0690456628799438,-1.698895116845602,-2.5322850386248987,2.2565883833118896,-1.02407151857485,0.4627588391304016
1708437477.4799266,-1.0679126977920532,-1.699440141717428,-2.532457415257589,2.2558035093494873,-1.024276081715719,0.46230432391166687
1708437477.481922,-1.0667799711227417,-1.6999908886351527,-2.5326417128192347,2.2550737100788574,-1.0244501272784632,0.46175652742385864
1708437477.4839196,-1.0656434297561646,-1.7005659542479457,-2.5327888170825403,2.2542716699787597,-1.0247271696673792,0.46127480268478394
1708437477.4859197,-1.0644633769989014,-1.701153417626852,-2.532956902180807,2.2535595136829834,-1.0249298254596155,0.46075260639190674
1708437477.4879305,-1.0632665157318115,-1.7016946278014125,-2.533193651829855,2.2526933389851074,-1.0251496473895472,0.4602428674697876
1708437477.4899163,-1.0620450973510742,-1.70231356243276,-2.5333688894854944,2.2518603044697265,-1.025348965321676,0.4597281813621521
1708437477.491901,-1.060857892036438,-1.7029549084105433,-2.5335655848132532,2.2510949808308105,-1.025593105946676,0.4591453969478607
1708437477.493903,-1.0596486330032349,-1.7035438023009242,-2.533783022557394,2.2502152162739257,-1.0258119742022913,0.45862820744514465
1708437477.495908,-1.0583572387695312,-1.7041317425169886,-2.5339494387256067,2.2493669229694824,-1.02610952058901,0.4581179618835449
1708437477.4979,-1.0570578575134277,-1.7047378025450648,-2.5341203848468226,2.2484630781361084,-1.026327912007467,0.45756790041923523
1708437477.4999034,-1.0557172298431396,-1.7054912052550257,-2.5343571344958704,2.2475601869770507,-1.0266364256488245,0.4570043087005615
1708437477.5019155,-1.0544803142547607,-1.7060767612852992,-2.5346062819110315,2.2466327387043457,-1.0269072691546839,0.4565076231956482
1708437477.5039024,-1.05317223072052,-1.7067104778685511,-2.534841601048605,2.2457608419605712,-1.0271013418780726,0.45591941475868225
1708437477.5059142,-1.0518611669540405,-1.707388540307516,-2.5350292364703577,2.2448364931293945,-1.0273988882647913,0.4553525745868683
1708437477.507905,-1.05047607421875,-1.7081157169737757,-2.535224262868063,2.2439400392719726,-1.0276368300067347,0.45478108525276184
1708437477.509944,-1.0491260290145874,-1.708818098107809,-2.535484854375021,2.2429846960255126,-1.0279491583453577,0.4542720317840576
1708437477.5119028,-1.047635793685913,-1.7094384632506312,-2.5357380549060267,2.242023153895996,-1.0281713644610804,0.4536982476711273
1708437477.5139084,-1.046263575553894,-1.7101909122862757,-2.5359573999988,2.241027994746826,-1.0285733381854456,0.4531269669532776
1708437477.515938,-1.0447558164596558,-1.7109061680235804,-2.536182467137472,2.2400659757801513,-1.0288355986224573,0.45254045724868774
1708437477.5179324,-1.043277382850647,-1.711625715295309,-2.53638464609255,2.23905531942334,-1.029163662587301,0.45192933082580566
1708437477.5199435,-1.041764736175537,-1.712443014184469,-2.536621634160177,2.237994595164917,-1.0294869581805628,0.4513712525367737
1708437477.521914,-1.0402911901474,-1.7131687603392542,-2.5368569532977503,2.237034483546875,-1.0297907034503382,0.4508528709411621
1708437477.523929,-1.0387541055679321,-1.7138716183104457,-2.537191931401388,2.2360076147266845,-1.03007680574526,0.45025452971458435
1708437477.5259235,-1.0371825695037842,-1.7146312199034632,-2.5374465624438685,2.2350050646015625,-1.030367676411764,0.4496709406375885
1708437477.5279658,-1.0355749130249023,-1.7153774700560511,-2.5376654306994837,2.233919544810913,-1.0307000319110315,0.44910502433776855
1708437477.5299482,-1.0339757204055786,-1.716196199456686,-2.537954870854513,2.2328833776661376,-1.031088654194967,0.4485182762145996
1708437477.5319402,-1.032392144203186,-1.7170163593687953,-2.5382426420794886,2.231849356288574,-1.0314448515521448,0.44794416427612305
1708437477.5339358,-1.0307427644729614,-1.7178107700743617,-2.53843599954714,2.2307566839405517,-1.0316861311541956,0.4473814368247986
1708437477.5359282,-1.0290961265563965,-1.7186156711974085,-2.53872257867922,2.229682131404541,-1.0319812933551233,0.44678741693496704
1708437477.5379326,-1.0273852348327637,-1.719433446923727,-2.5389445463763636,2.2285825449177246,-1.0323627630816858,0.44613152742385864
1708437477.5399766,-1.0256338119506836,-1.7202688656248988,-2.5392444769488733,2.227446957225464,-1.0327099005328577,0.4455946981906891
1708437477.5419118,-1.0239286422729492,-1.721110006371969,-2.5395787397967737,2.2263282972523193,-1.032999340687887,0.44497525691986084
1708437477.543969,-1.0222023725509644,-1.7219659290709437,-2.539865318928854,2.225137873286865,-1.0333722273456019,0.44436904788017273
1708437477.545909,-1.020412564277649,-1.722811838189596,-2.5401859919177454,2.223979874248169,-1.0337403456317347,0.44376340508461
1708437477.5479488,-1.0186713933944702,-1.7237025700011195,-2.540466610585348,2.222858353252075,-1.034086052571432,0.4431408941745758
1708437477.5499463,-1.0168551206588745,-1.7245308361449183,-2.5407334009753626,2.2216784197041015,-1.0344050566302698,0.4424649477005005
1708437477.551924,-1.0150387287139893,-1.72544588665151,-2.5410574118243616,2.220407171840332,-1.0348179976092737,0.44187474250793457
1708437477.553932,-1.013208031654358,-1.7263404331602992,-2.5413695017444056,2.2191194730946044,-1.0352380911456507,0.4412202537059784
1708437477.5559056,-1.011304497718811,-1.7271911106505335,-2.5416887442218226,2.217798872584961,-1.0355880896197718,0.44063010811805725
1708437477.558198,-1.0094293355941772,-1.728121896783346,-2.541997496281759,2.2166146475025634,-1.0359962622271937,0.4399562478065491
1708437477.559906,-1.0076020956039429,-1.7290550671019496,-2.542342726384298,2.2154103952595214,-1.0363710562335413,0.4393627941608429
1708437477.5619028,-1.005660057067871,-1.7300149403014125,-2.5427115599261683,2.2141215044208984,-1.0367358366595667,0.4386558532714844
1708437477.5639403,-1.0037060976028442,-1.730997701684469,-2.5430312792407435,2.2128447729298095,-1.037131134663717,0.43802109360694885
1708437477.5660224,-1.0017396211624146,-1.7319165668883265,-2.543375794087545,2.211527033443115,-1.0376022497760218,0.4373704195022583
1708437477.5679438,-0.999734103679657,-1.7329770527281703,-2.543668333684103,2.2102793890186767,-1.0379799048053187,0.4367356598377228
1708437477.5699363,-0.9977596998214722,-1.7340012989439906,-2.5440014044391077,2.2089549738117675,-1.038379971181051,0.43609803915023804
1708437477.5719125,-0.9957832098007202,-1.734899183312887,-2.5443204084979456,2.2076608377644042,-1.038816277180807,0.4354243576526642
1708437477.5739553,-0.9937579035758972,-1.7359925709166468,-2.54472262064089,2.206294460887573,-1.0391867796527308,0.43478673696517944
1708437477.5759807,-0.9916661381721497,-1.7370196781554164,-2.545008722935812,2.204885883922241,-1.0395811239825647,0.4340704083442688
1708437477.5779192,-0.9896571636199951,-1.7381087742247523,-2.5454064051257532,2.2036334711262207,-1.0401018301593226,0.43346211314201355
1708437477.5800028,-0.9875935316085815,-1.7390839062132777,-2.5457499662982386,2.2022334772297363,-1.0405476729022425,0.43274644017219543
1708437477.5819385,-0.9855369329452515,-1.7401377163329066,-2.5461130777942103,2.200910730952881,-1.040999714528219,0.43206408619880676
1708437477.5839026,-0.9834122657775879,-1.741223474542135,-2.546486202870504,2.1995560365864257,-1.0413735548602503,0.43139365315437317
1708437477.5859127,-0.9813100099563599,-1.742321630517477,-2.546870295201437,2.1980742651173095,-1.0419109503375452,0.43073514103889465
