Eg3-git/Classifiers/Data Collection/u6/u6abc3_ur3e_joint_states.csv
time,elbow_joint,shoulder_lift_joint,shoulder_pan_joint,wrist_1_joint,wrist_2_joint,wrist_3_joint
1708437844.661678,-1.1342287063598633,-1.6658626995482386,-2.5262563864337366,2.311518593425415,-1.0167339483844202,0.20817823708057404
1708437844.6637087,-1.1342167854309082,-1.6658884487547816,-2.5261946360217493,2.311567946071289,-1.0167587439166468,0.20820747315883636
1708437844.6657023,-1.134221076965332,-1.6658688984312953,-2.5262280146228235,2.311548634166382,-1.0167220274554651,0.2081216424703598
1708437844.6676724,-1.1342167854309082,-1.6658626995482386,-2.5261991659747522,2.311511202449463,-1.0167091528521937,0.20821933448314667
1708437844.6696994,-1.1342167854309082,-1.6658555469908656,-2.5261946360217493,2.311544104213379,-1.0167468229876917,0.20816278457641602
1708437844.6716754,-1.1342244148254395,-1.6658884487547816,-2.5262325445758265,2.3115767675587158,-1.0167253653155726,0.20818686485290527
1708437844.6736658,-1.134209394454956,-1.6658646068968714,-2.5262113253222864,2.311548634166382,-1.0167620817767542,0.20821933448314667
1708437844.6757045,-1.134221076965332,-1.6658555469908656,-2.5261858145343226,2.311530752772949,-1.0167577902423304,0.2081790268421173
1708437844.6776638,-1.1342568397521973,-1.6658431492247523,-2.5262234846698206,2.311535282725952,-1.0167458693133753,0.20818255841732025
1708437844.6796522,-1.1342816352844238,-1.6658669910826625,-2.5262325445758265,2.311597986812256,-1.0167177359210413,0.20819124579429626
1708437844.6816304,-1.1342244148254395,-1.6658884487547816,-2.5262325445758265,2.311539574260376,-1.0167177359210413,0.20817820727825165
1708437844.6836832,-1.1342201232910156,-1.6658927402892054,-2.5262022654162806,2.3115245538898925,-1.0167048613177698,0.2081703543663025
1708437844.685705,-1.134232997894287,-1.6659132442870082,-2.5262234846698206,2.3115648466297607,-1.0167620817767542,0.2082117646932602
1708437844.6876543,-1.1342697143554688,-1.6658688984312953,-2.5262144247638147,2.3115767675587158,-1.0167134443866175,0.20818254351615906
1708437844.6896827,-1.1342406272888184,-1.6658646068968714,-2.5262771288501185,2.3116025167652587,-1.016754452382223,0.20819126069545746
1708437844.6916592,-1.1342201232910156,-1.665856500665182,-2.5262144247638147,2.311567946071289,-1.0167911688434046,0.20817819237709045
1708437844.6936564,-1.1342363357543945,-1.6658479175963343,-2.5262637774096888,2.311544104213379,-1.0167177359210413,0.2081497460603714
1708437844.6956701,-1.1342167854309082,-1.6658884487547816,-2.5262683073626917,2.3115781980701904,-1.0167868773089808,0.20816276967525482
1708437844.697672,-1.134293556213379,-1.6659065685667933,-2.5262399355517786,2.311572476024292,-1.016738239918844,0.2081497758626938
1708437844.699671,-1.1342363357543945,-1.6658646068968714,-2.5262067953692835,2.311523123378418,-1.0167296568499964,0.20814545452594757
1708437844.701649,-1.1342201232910156,-1.6658512554564417,-2.5262189547168177,2.3115529257008056,-1.0167058149920862,0.20816278457641602
1708437844.703662,-1.13427734375,-1.6658793888487757,-2.5262354055987757,2.311580105418823,-1.0167587439166468,0.20819126069545746
1708437844.7056732,-1.1342482566833496,-1.6658479175963343,-2.5262637774096888,2.3115648466297607,-1.0167134443866175,0.2081703096628189
1708437844.7076612,-1.1342406272888184,-1.6659089527525843,-2.52622634569277,2.31155173360791,-1.0167220274554651,0.20813782513141632
1708437844.7096882,-1.1342687606811523,-1.6658717594542445,-2.526259247456686,2.3116306501575927,-1.0167868773089808,0.20812159776687622
1708437844.7116404,-1.134220004081726,-1.6658603153624476,-2.5262189547168177,2.3115739065357666,-1.0167210737811487,0.20817027986049652
1708437844.7136471,-1.1342525482177734,-1.6659018001952113,-2.5262354055987757,2.311502142543457,-1.0167501608477991,0.2082248479127884
1708437844.715678,-1.134249210357666,-1.6658841572203578,-2.526275936757223,2.311535282725952,-1.016754452382223,0.20821182429790497
1708437844.7176442,-1.1342439651489258,-1.6658927402892054,-2.5262354055987757,2.311544104213379,-1.0167501608477991,0.2081790268421173
1708437844.719632,-1.1342158317565918,-1.6658431492247523,-2.5262473265277308,2.311523123378418,-1.0167587439166468,0.20820750296115875
1708437844.721644,-1.1342601776123047,-1.665917535821432,-2.5262444655047815,2.311572476024292,-1.0167749563800257,0.20815406739711761
1708437844.7236469,-1.1342202425003052,-1.6658226452269496,-2.5262683073626917,2.311593456859253,-1.0167458693133753,0.2081335186958313
1708437844.7256613,-1.1342439651489258,-1.6658669910826625,-2.5262189547168177,2.311544104213379,-1.0167253653155726,0.2081627994775772
1708437844.7276404,-1.1342806816101074,-1.6658803425230921,-2.5262771288501185,2.3115262228199462,-1.016754452382223,0.2081703394651413
1708437844.729683,-1.1342482566833496,-1.6658908329405726,-2.526296679173605,2.311596556300781,-1.0167577902423304,0.20817147195339203
1708437844.7316296,-1.1342439651489258,-1.6658388576903285,-2.5262637774096888,2.311563416118286,-1.016810719166891,0.20821182429790497
1708437844.733631,-1.1342439651489258,-1.6659122906126917,-2.526259247456686,2.311572476024292,-1.0167425314532679,0.2081703096628189
1708437844.7357092,-1.1342687606811523,-1.6658626995482386,-2.526304546986715,2.311535282725952,-1.0167697111712855,0.20816710591316223
1708437844.737675,-1.1342730522155762,-1.6658555469908656,-2.5263074080096644,2.3115264612385253,-1.0167697111712855,0.2082042098045349
1708437844.739714,-1.1342687606811523,-1.6659304104247035,-2.5263102690326136,2.311544104213379,-1.0167859236346644,0.2081999033689499
1708437844.7416556,-1.1342687606811523,-1.6658951244749964,-2.5263312498675745,2.3115591245838623,-1.0167654196368616,0.20817141234874725
1708437844.7436764,-1.1342730522155762,-1.6658851108946742,-2.5263386408435267,2.311535282725952,-1.0167697111712855,0.2081790268421173
1708437844.7456746,-1.1342557668685913,-1.6659108601012171,-2.5263267199145716,2.3116187292286376,-1.0167492071734827,0.2081584632396698
1708437844.74765,-1.1342933177947998,-1.6658603153624476,-2.526395861302511,2.311548634166382,-1.0167220274554651,0.2081223875284195
1708437844.7496927,-1.1343019008636475,-1.6658851108946742,-2.526376549397604,2.311567946071289,-1.0167143980609339,0.20816710591316223
1708437844.7516637,-1.1343050003051758,-1.6659256420531214,-2.526395861302511,2.311560555095337,-1.016726318989889,0.2081223577260971
1708437844.753659,-1.1342763900756836,-1.6658975086607875,-2.5263972918139856,2.3115693765827636,-1.016754452382223,0.20813894271850586
1708437844.7556455,-1.1342849731445312,-1.6659375629820765,-2.526395861302511,2.311567946071289,-1.0167296568499964,0.2081259936094284
1708437844.7576506,-1.1342514753341675,-1.6658803425230921,-2.526395861302511,2.311593456859253,-1.0167015234576624,0.20817141234874725
1708437844.7596712,-1.134251356124878,-1.6658388576903285,-2.526419703160421,2.311547203654907,-1.0167415777789515,0.20812678337097168
1708437844.761678,-1.1342806816101074,-1.6658760509886683,-2.526421133671896,2.311539574260376,-1.0167372862445276,0.20813541114330292
1708437844.7636523,-1.1342933177947998,-1.6658884487547816,-2.526362959538595,2.311556025142334,-1.0167534987079065,0.20813894271850586
1708437844.7656713,-1.1342601776123047,-1.665917535821432,-2.5263705889331263,2.311609907741211,-1.0167577902423304,0.20812349021434784
1708437844.7676733,-1.1342190504074097,-1.6658603153624476,-2.5263176600085657,2.31158892690625,-1.0167210737811487,0.20806582272052765
1708437844.7696846,-1.1342675685882568,-1.6658927402892054,-2.52637488046755,2.3115920263477783,-1.0167577902423304,0.20805852115154266
1708437844.7716568,-1.1342719793319702,-1.6658793888487757,-2.5263598600970667,2.311560555095337,-1.0167134443866175,0.20809967815876007
1708437844.77372,-1.1343048810958862,-1.6659256420531214,-2.526350800191061,2.3115767675587158,-1.0167534987079065,0.2080499231815338
1708437844.7756698,-1.1342514753341675,-1.6658688984312953,-2.5263972918139856,2.311572476024292,-1.0168030897723597,0.20803794264793396
1708437844.777659,-1.1343176364898682,-1.6658646068968714,-2.5263553301440638,2.311621590251587,-1.016766373311178,0.20807886123657227
1708437844.7796452,-1.1342363357543945,-1.6658688984312953,-2.5263810793506067,2.311556025142334,-1.0167577902423304,0.20809535682201385
1708437844.781658,-1.1343050003051758,-1.6658603153624476,-2.526350800191061,2.311605377788208,-1.0167492071734827,0.2080715149641037
1708437844.7836792,-1.134284496307373,-1.6659389934935511,-2.526367489491598,2.311600847835205,-1.0167620817767542,0.20805098116397858
1708437844.785672,-1.134284496307373,-1.6658231220641078,-2.5263298193561,2.311567946071289,-1.016778294240133,0.2080347090959549
1708437844.787677,-1.1343138217926025,-1.6658388576903285,-2.526350800191061,2.311580105418823,-1.0167773405658167,0.20804764330387115
1708437844.789704,-1.1343176364898682,-1.6658688984312953,-2.526404921208517,2.311464949245117,-1.0166929403888147,0.2080671638250351
1708437844.7916584,-1.1342719793319702,-1.6657945118346156,-2.526362959538595,2.311593456859253,-1.0167415777789515,0.20800618827342987
1708437844.7936707,-1.1342588663101196,-1.6658688984312953,-2.526379410420553,2.311502142543457,-1.0167415777789515,0.20800191164016724
1708437844.7956464,-1.1343050003051758,-1.6658975086607875,-2.526376549397604,2.311572476024292,-1.0167339483844202,0.20804676413536072
1708437844.7976847,-1.1342962980270386,-1.6658688984312953,-2.526341978703634,2.311580105418823,-1.0167339483844202,0.20803895592689514
1708437844.7996964,-1.1343005895614624,-1.6658317051329554,-2.52638823190798,2.3115426737019042,-1.0167253653155726,0.20805524289608002
1708437844.8016558,-1.1342631578445435,-1.6658183536925257,-2.526379410420553,2.311572476024292,-1.016754452382223,0.2080552577972412
1708437844.803675,-1.1342763900756836,-1.6658760509886683,-2.5263341108905237,2.311580105418823,-1.0167654196368616,0.20803551375865936
1708437844.8056674,-1.1343176364898682,-1.6658984623351039,-2.5263341108905237,2.311584635371826,-1.016778294240133,0.20803901553153992
1708437844.807662,-1.134284496307373,-1.6658464870848597,-2.526362959538595,2.31162612020459,-1.016794506703512,0.20803117752075195
1708437844.8096611,-1.1342719793319702,-1.6658669910826625,-2.526376549397604,2.3115591245838623,-1.0167697111712855,0.20805951952934265
1708437844.811653,-1.1343131065368652,-1.6659018001952113,-2.5263221899615687,2.3116084772297363,-1.0167816321002405,0.20805202424526215
1708437844.8136759,-1.1343176364898682,-1.6659108601012171,-2.526383940373556,2.311584635371826,-1.0167902151690882,0.20800301432609558
1708437844.8156612,-1.1342719793319702,-1.6658669910826625,-2.5263221899615687,2.311563416118286,-1.0168264547931116,0.20799431204795837
1708437844.8176718,-1.1343380212783813,-1.6659170589842738,-2.5263810793506067,2.3115920263477783,-1.016806427632467,0.20797023177146912
1708437844.8196547,-1.1342757940292358,-1.6658927402892054,-2.526379410420553,2.311567946071289,-1.0167892614947718,0.20798206329345703
1708437844.8216414,-1.134338140487671,-1.6659089527525843,-2.5263477007495325,2.3116339880177,-1.0167773405658167,0.2080073356628418
1708437844.8236647,-1.1342962980270386,-1.6659122906126917,-2.526376549397604,2.311605377788208,-1.0168264547931116,0.20805633068084717
1708437844.825672,-1.134300708770752,-1.6658479175963343,-2.5263386408435267,2.311596556300781,-1.0168059507953089,0.20802032947540283
1708437844.8276849,-1.134296178817749,-1.6658102474608363,-2.5263972918139856,2.311563416118286,-1.0167740027057093,0.20799075067043304
1708437844.8296685,-1.1342931985855103,-1.6658760509886683,-2.526395861302511,2.3115920263477783,-1.0167816321002405,0.20804427564144135
1708437844.8316443,-1.1342931985855103,-1.6658927402892054,-2.5263927618609827,2.3115755754658203,-1.0167697111712855,0.20798645913600922
1708437844.8336873,-1.1343263387680054,-1.6659256420531214,-2.526362959538595,2.3115832048603515,-1.0167329947101038,0.20802468061447144
1708437844.8357074,-1.1343088150024414,-1.6658927402892054,-2.526391331349508,2.311580105418823,-1.0167697111712855,0.20798325538635254
1708437844.837684,-1.134333848953247,-1.665889402429098,-2.526400391255514,2.3115591245838623,-1.0168102423297327,0.20799078047275543
1708437844.8397083,-1.134271502494812,-1.6659018001952113,-2.526383940373556,2.3115426737019042,-1.016806427632467,0.20800377428531647
1708437844.8416398,-1.1342962980270386,-1.6658760509886683,-2.526367489491598,2.3116084772297363,-1.0167577902423304,0.20799949765205383
1708437844.8437026,-1.1342887878417969,-1.665922304193014,-2.526400391255514,2.311605377788208,-1.0167978445636194,0.20796701312065125
1708437844.845645,-1.1342757940292358,-1.6658555469908656,-2.526346270238058,2.3115545946308593,-1.0167449156390589,0.20795938372612
1708437844.8476505,-1.1343050003051758,-1.6658059559264125,-2.526379410420553,2.311596556300781,-1.0167902151690882,0.20797130465507507
1708437844.84966,-1.134287714958191,-1.6658936939635218,-2.526404682789938,2.311600847835205,-1.0167773405658167,0.2080049216747284
1708437844.8516436,-1.1342800855636597,-1.6658522091307582,-2.526391331349508,2.311563416118286,-1.0168102423297327,0.20795941352844238
1708437844.85367,-1.1342644691467285,-1.6658388576903285,-2.526370350514547,2.3115755754658203,-1.0167773405658167,0.2079472541809082
1708437844.8556817,-1.1342962980270386,-1.6658522091307582,-2.526379410420553,2.3115591245838623,-1.016801659260885,0.20796813070774078
1708437844.8576286,-1.1342800855636597,-1.6659132442870082,-2.526350800191061,2.3115591245838623,-1.0167892614947718,0.20792661607265472
1708437844.8596773,-1.134346842765808,-1.6659018001952113,-2.526388470326559,2.311580105418823,-1.0168264547931116,0.207947239279747
1708437844.8616765,-1.1342588663101196,-1.6658388576903285,-2.526376549397604,2.311621590251587,-1.0168135801898401,0.20791147649288177
1708437844.863671,-1.1342887878417969,-1.665828367272848,-2.526376549397604,2.3115920263477783,-1.016801659260885,0.2079179883003235
1708437844.8656886,-1.134300708770752,-1.665917535821432,-2.5263810793506067,2.3116039472767334,-1.0168340841876429,0.20793531835079193
1708437844.8676744,-1.1343094110488892,-1.6658431492247523,-2.5264256636248987,2.3115052419849853,-1.016817871724264,0.20791909098625183
1708437844.869679,-1.1342557668685913,-1.6658388576903285,-2.526372019444601,2.3115545946308593,-1.0168340841876429,0.20793212950229645
1708437844.8716867,-1.134300708770752,-1.6659018001952113,-2.526388470326559,2.31161276876416,-1.0167930761920374,0.20792020857334137
1708437844.8737035,-1.1343780755996704,-1.6658760509886683,-2.526391331349508,2.31164733945813,-1.016869846974508,0.2079288363456726
1708437844.8757038,-1.1343088150024414,-1.6658555469908656,-2.526383940373556,2.311547203654907,-1.0168340841876429,0.20792020857334137
1708437844.8776886,-1.134300708770752,-1.6658851108946742,-2.526341978703634,2.3115500646778564,-1.0168126265155237,0.20791223645210266
1708437844.8796577,-1.134333848953247,-1.6658884487547816,-2.52638823190798,2.311580105418823,-1.0168417135821741,0.20785494148731232
1708437844.8816683,-1.1342887878417969,-1.6658512554564417,-2.526395861302511,2.3115755754658203,-1.016869846974508,0.20785494148731232
1708437844.8836772,-1.1342757940292358,-1.6658688984312953,-2.526346508656637,2.3115545946308593,-1.0168450514422815,0.20782645046710968
1708437844.8856947,-1.1343131065368652,-1.665889402429098,-2.526383940373556,2.311567946071289,-1.0168655554400843,0.20790795981884003
1708437844.8876984,-1.134300708770752,-1.6658431492247523,-2.5263431707965296,2.311621828670166,-1.0168941656695765,0.2078145295381546
1708437844.8896735,-1.1342601776123047,-1.6658851108946742,-2.5263176600085657,2.311535282725952,-1.016918961201803,0.20787549018859863
1708437844.891678,-1.1342676877975464,-1.6658479175963343,-2.526404921208517,2.3115426737019042,-1.0168898741351526,0.20788420736789703
1708437844.8936744,-1.1343175172805786,-1.6659018001952113,-2.526383940373556,2.3115131097980957,-1.0168898741351526,0.20785140991210938
1708437844.895681,-1.1343138217926025,-1.6658884487547816,-2.526400391255514,2.31161276876416,-1.0168941656695765,0.20782214403152466
1708437844.897662,-1.1343095302581787,-1.6659256420531214,-2.5264256636248987,2.31162612020459,-1.016860310231344,0.20785140991210938
1708437844.899657,-1.1342426538467407,-1.6659018001952113,-2.5263541380511683,2.3116084772297363,-1.0169060865985315,0.20781782269477844
1708437844.9016864,-1.134321928024292,-1.6658522091307582,-2.526428763066427,2.3115812975117187,-1.0169060865985315,0.20779797434806824
1708437844.9036615,-1.1342588663101196,-1.6658803425230921,-2.526383940373556,2.311551495189331,-1.0169428030597132,0.2078482061624527
1708437844.905686,-1.1342887878417969,-1.6658717594542445,-2.526391331349508,2.311638279552124,-1.0168688933001917,0.20783516764640808
1708437844.907685,-1.1342887878417969,-1.6658841572203578,-2.526379410420553,2.3115336137958984,-1.0168941656695765,0.20783080160617828
1708437844.9096444,-1.134284496307373,-1.6658317051329554,-2.526379410420553,2.311563416118286,-1.0168126265155237,0.20785142481327057
1708437844.9116855,-1.1342962980270386,-1.6658927402892054,-2.526404682789938,2.3115755754658203,-1.016820255910055,0.20785926282405853
1708437844.9136426,-1.1343088150024414,-1.6658431492247523,-2.526400391255514,2.311609907741211,-1.0169103781329554,0.20781099796295166
1708437844.9156387,-1.1343175172805786,-1.6658431492247523,-2.526403252278463,2.311596556300781,-1.01689321199526,0.20782756805419922
1708437844.9176412,-1.1343499422073364,-1.6658626995482386,-2.52637488046755,2.3115920263477783,-1.016881291066305,0.20785574615001678
1708437844.9196513,-1.134300708770752,-1.6658760509886683,-2.526350800191061,2.3115951257893066,-1.0168941656695765,0.20788098871707916
1708437844.9216385,-1.1343175172805786,-1.665889402429098,-2.526379410420553,2.311600847835205,-1.0168769995318812,0.20781973004341125
1708437844.923694,-1.134284496307373,-1.6658688984312953,-2.526379410420553,2.3115591245838623,-1.0169222990619105,0.20781894028186798
1708437844.9256396,-1.1342887878417969,-1.6658431492247523,-2.5263329187976282,2.311617298717163,-1.0169017950641077,0.20777860283851624
1708437844.927658,-1.1342918872833252,-1.6658760509886683,-2.526362959538595,2.311560555095337,-1.0168941656695765,0.20788532495498657
1708437844.9296572,-1.134300708770752,-1.665856500665182,-2.526388470326559,2.3115712839313964,-1.0169017950641077,0.2078319638967514
1708437844.9316757,-1.1343176364898682,-1.6658851108946742,-2.526379410420553,2.3115920263477783,-1.0168855826007288,0.2078394889831543
1708437844.9336903,-1.1342799663543701,-1.6658035717406214,-2.526386801396505,2.3116039472767334,-1.0168774763690394,0.20780345797538757
1708437844.935731,-1.1342806816101074,-1.6658927402892054,-2.526386801396505,2.311596556300781,-1.0169017950641077,0.20783200860023499
1708437844.9376638,-1.1343176364898682,-1.6658803425230921,-2.526386801396505,2.3116206365772705,-1.0168774763690394,0.20776230096817017
1708437844.939718,-1.1342676877975464,-1.6658388576903285,-2.526416603718893,2.311600847835205,-1.0168855826007288,0.20779480040073395
1708437844.9416633,-1.134284496307373,-1.6658345661559046,-2.526370350514547,2.3115920263477783,-1.0169342199908655,0.20777857303619385
1708437844.9436762,-1.1343050003051758,-1.665861269036764,-2.5263987223254603,2.3115786749073486,-1.0168898741351526,0.20780780911445618
1708437844.945656,-1.1342931985855103,-1.6658851108946742,-2.5263825098620813,2.311600847835205,-1.0169222990619105,0.2077958881855011
1708437844.947688,-1.134284496307373,-1.6658717594542445,-2.5263660589801233,2.311547203654907,-1.0169504324542444,0.20778726041316986
1708437844.949697,-1.1342887878417969,-1.6658884487547816,-2.5264409224139612,2.3115920263477783,-1.0169547239886683,0.20780779421329498
1708437844.951654,-1.1343131065368652,-1.6658603153624476,-2.526395861302511,2.31161276876416,-1.0168889204608362,0.20778177678585052
1708437844.9536595,-1.134333848953247,-1.6658431492247523,-2.526379410420553,2.3115712839313964,-1.0169666449176233,0.20783944427967072
1708437844.9556625,-1.1342763900756836,-1.6658431492247523,-2.526407782231466,2.311629458064697,-1.0169909636126917,0.20786118507385254
1708437844.95768,-1.1343263387680054,-1.6658793888487757,-2.5263944307910364,2.3115832048603515,-1.0169170538531702,0.20784491300582886
1708437844.959663,-1.1342501640319824,-1.6658760509886683,-2.5263825098620813,2.3115591245838623,-1.016937557850973,0.20775018632411957
1708437844.9616892,-1.134300708770752,-1.6658841572203578,-2.526395861302511,2.3115174013325195,-1.0169537703143519,0.20778726041316986
1708437844.9636817,-1.134284496307373,-1.665906091729635,-2.526400152836935,2.31161276876416,-1.016961399708883,0.20776671171188354
1708437844.965678,-1.1342631578445435,-1.6658927402892054,-2.526407782231466,2.3115712839313964,-1.0169809500323694,0.2078067809343338
1708437844.9676795,-1.1343050003051758,-1.6659041843810023,-2.526362959538595,2.3116339880177,-1.0169766584979456,0.20777851343154907
1708437844.9696555,-1.1343095302581787,-1.6658479175963343,-2.526421133671896,2.311547203654907,-1.0169976393329065,0.20780031383037567
1708437844.971646,-1.1342757940292358,-1.6658555469908656,-2.5263987223254603,2.311600847835205,-1.0169695059405726,0.20781207084655762
1708437844.973676,-1.1342978477478027,-1.6658669910826625,-2.526362959538595,2.3115951257893066,-1.017038647328512,0.20780020952224731
1708437844.9757073,-1.134284496307373,-1.6658688984312953,-2.526370350514547,2.3116413789936523,-1.0169723669635218,0.2078283131122589
1708437844.9776607,-1.134300708770752,-1.6658522091307582,-2.526421133671896,2.3116084772297363,-1.0169780890094202,0.20780350267887115
1708437844.979693,-1.1342806816101074,-1.6658736668028773,-2.526436154042379,2.3115712839313964,-1.0170019308673304,0.20777103304862976
1708437844.9816718,-1.1343222856521606,-1.6658345661559046,-2.526407782231466,2.3115591245838623,-1.0170019308673304,0.20778726041316986
1708437844.9836962,-1.1343050003051758,-1.6658364735045375,-2.526419464741842,2.31158892690625,-1.0169571081744593,0.20784936845302582
1708437844.9857075,-1.1342676877975464,-1.665856500665182,-2.5263779799090784,2.3116339880177,-1.0169528166400355,0.2078077793121338
1708437844.9877234,-1.1342631578445435,-1.6659132442870082,-2.52637488046755,2.3116115766712646,-1.016960922871725,0.20778727531433105
1708437844.989687,-1.1342931985855103,-1.6658603153624476,-2.526386801396505,2.311605377788208,-1.0169571081744593,0.20775453746318817
1708437844.9917092,-1.1342799663543701,-1.6658736668028773,-2.5264151732074183,2.3115712839313964,-1.0169537703143519,0.20782840251922607
1708437844.99372,-1.1342920064926147,-1.6657968960204066,-2.5264106432544153,2.3115755754658203,-1.016993824635641,0.20781978964805603
1708437844.9956589,-1.1342307329177856,-1.6658851108946742,-2.526391331349508,2.3116084772297363,-1.016989533101217,0.20779156684875488
1708437844.9977143,-1.1342763900756836,-1.6658760509886683,-2.5264063517199915,2.311530752772949,-1.0169528166400355,0.2077958881855011
1708437844.9996557,-1.134300708770752,-1.6658364735045375,-2.5263822714435022,2.3115996557423095,-1.0169203917132776,0.20781971514225006
1708437845.0016768,-1.1342763900756836,-1.6658851108946742,-2.526386801396505,2.3115920263477783,-1.0169528166400355,0.20778727531433105
1708437845.0037055,-1.1342933177947998,-1.6658927402892054,-2.5263779799090784,2.311605377788208,-1.0169528166400355,0.2078164964914322
1708437845.0056813,-1.1342514753341675,-1.665856500665182,-2.526412312184469,2.311580105418823,-1.0169852415667933,0.20779156684875488
1708437845.007713,-1.1342931985855103,-1.6658717594542445,-2.5264151732074183,2.311563654536865,-1.0169852415667933,0.20778296887874603
1708437845.0096674,-1.1342806816101074,-1.6658736668028773,-2.5264106432544153,2.311551495189331,-1.0169852415667933,0.20776663720607758
1708437845.0116522,-1.1342806816101074,-1.6658688984312953,-2.526403252278463,2.3115591245838623,-1.016989533101217,0.20780348777770996
1708437845.0137131,-1.1342719793319702,-1.665814062158102,-2.526386801396505,2.311547203654907,-1.0169852415667933,0.20779259502887726
1708437845.0156543,-1.134301781654358,-1.6658803425230921,-2.5264151732074183,2.31161276876416,-1.016989533101217,0.20780348777770996
1708437845.017686,-1.134297490119934,-1.665906091729635,-2.526419703160421,2.3115755754658203,-1.0169485251056116,0.2077753245830536
1708437845.0196517,-1.1342469453811646,-1.6658975086607875,-2.526424233113424,2.31161276876416,-1.016993824635641,0.207754448056221
1708437845.0216725,-1.1342849731445312,-1.6658927402892054,-2.5264318625079554,2.311608238811157,-1.0169485251056116,0.2078120857477188
1708437845.0236628,-1.1342601776123047,-1.6658646068968714,-2.5264151732074183,2.3115667539783935,-1.0169652144061487,0.2077958732843399
1708437845.0256557,-1.1342352628707886,-1.6658388576903285,-2.5264151732074183,2.311600847835205,-1.0170062224017542,0.20777852833271027
1708437845.0276494,-1.1342934370040894,-1.6658936939635218,-2.526419703160421,2.3115874963947753,-1.016993824635641,0.20779918134212494
1708437845.0296497,-1.1342763900756836,-1.6658646068968714,-2.5264318625079554,2.311596556300781,-1.0169528166400355,0.20776230096817017
1708437845.03164,-1.1342439651489258,-1.6658193073668421,-2.5264437834369105,2.31162612020459,-1.017022434865133,0.20777097344398499
1708437845.0336463,-1.1343019008636475,-1.6658150158324183,-2.5264106432544153,2.311600847835205,-1.0169780890094202,0.207750141620636
1708437845.0356743,-1.134301781654358,-1.6658760509886683,-2.5264602343188685,2.3115712839313964,-1.0169485251056116,0.20776666700839996
1708437845.037666,-1.1343306303024292,-1.6658927402892054,-2.5264273325549524,2.311605377788208,-1.0170310179339808,0.20780347287654877
1708437845.0396943,-1.134297490119934,-1.6658975086607875,-2.5264437834369105,2.311605377788208,-1.0169485251056116,0.20780345797538757
1708437845.0416784,-1.1343179941177368,-1.6658479175963343,-2.5264812151538294,2.3115457731434326,-1.0169695059405726,0.207784041762352
1708437845.0436785,-1.1342763900756836,-1.6658927402892054,-2.5264843145953577,2.3115755754658203,-1.0169737974749964,0.20780782401561737
1708437845.045652,-1.1342676877975464,-1.6658717594542445,-2.5264185110675257,2.31161276876416,-1.0170181433307093,0.2078121155500412
1708437845.0476856,-1.1342644691467285,-1.6658522091307582,-2.5264931360827845,2.3115545946308593,-1.0170019308673304,0.2077709585428238
1708437845.0496955,-1.134313702583313,-1.6659132442870082,-2.5264392534839075,2.3116206365772705,-1.016989533101217,0.20777535438537598
1708437845.0516434,-1.1342071294784546,-1.6658388576903285,-2.5264480749713343,2.3116339880177,-1.016993824635641,0.20781652629375458
1708437845.0536826,-1.1342730522155762,-1.6658927402892054,-2.5264063517199915,2.311584635371826,-1.0169976393329065,0.20774246752262115
1708437845.0556488,-1.1342277526855469,-1.6658646068968714,-2.5264392534839075,2.311600847835205,-1.0170019308673304,0.20778726041316986
1708437845.0576432,-1.1342931985855103,-1.6658522091307582,-2.5264647642718714,2.3115755754658203,-1.0170181433307093,0.2077382206916809
1708437845.059692,-1.1342644691467285,-1.6658646068968714,-2.5264435450183313,2.311563416118286,-1.0169485251056116,0.20777100324630737
1708437845.0616608,-1.1342719793319702,-1.6658803425230921,-2.52640945116152,2.3115767675587158,-1.0169442335711878,0.2077753245830536
1708437845.0636725,-1.1342687606811523,-1.6658760509886683,-2.5264347235309046,2.31161276876416,-1.0169485251056116,0.2078121155500412
1708437845.065675,-1.1342806816101074,-1.6658183536925257,-2.5264647642718714,2.3115994173237304,-1.0169366041766565,0.20778724551200867
1708437845.067661,-1.1342568397521973,-1.6659018001952113,-2.5264185110675257,2.3115624624439697,-1.0169933477984827,0.20779916644096375
1708437845.0696964,-1.1342601776123047,-1.6658975086607875,-2.526463333760397,2.3115545946308593,-1.016989533101217,0.20783628523349762
1708437845.0716746,-1.1342806816101074,-1.6659041843810023,-2.5264437834369105,2.311572476024292,-1.0169780890094202,0.20778293907642365
1708437845.0736868,-1.1342719793319702,-1.6658555469908656,-2.526458803807394,2.3115591245838623,-1.0170062224017542,0.20777852833271027
1708437845.075684,-1.1342849731445312,-1.6658555469908656,-2.5264468828784388,2.311580105418823,-1.0169528166400355,0.20778724551200867
1708437845.077688,-1.1342439651489258,-1.6659018001952113,-2.5264185110675257,2.3116249281116943,-1.0169652144061487,0.20779916644096375
1708437845.0796692,-1.1342525482177734,-1.6658431492247523,-2.5264678637133997,2.3115874963947753,-1.0169485251056116,0.20780348777770996
1708437845.081657,-1.1342601776123047,-1.6658388576903285,-2.5264888445483606,2.3115381437489013,-1.0169571081744593,0.20780780911445618
1708437845.0836654,-1.1342557668685913,-1.6658646068968714,-2.5264304319964808,2.3115767675587158,-1.0169528166400355,0.20778724551200867
1708437845.085686,-1.1342687606811523,-1.6658736668028773,-2.5265005270587366,2.3115426737019042,-1.0169737974749964,0.20786115527153015
1708437845.08769,-1.1342482566833496,-1.6658669910826625,-2.5264678637133997,2.311605377788208,-1.0169809500323694,0.20782403647899628
1708437845.089673,-1.1342931985855103,-1.6659018001952113,-2.5265005270587366,2.31158892690625,-1.0169981161700647,0.20781542360782623
1708437845.0916665,-1.1342439651489258,-1.6658717594542445,-2.526475254689352,2.311605377788208,-1.0169737974749964,0.20776672661304474
1708437845.0936663,-1.1342439651489258,-1.6658035717406214,-2.526475254689352,2.311593456859253,-1.0169571081744593,0.20780348777770996
1708437845.0957205,-1.1342525482177734,-1.6658884487547816,-2.5264559427844446,2.3116084772297363,-1.016989533101217,0.20776675641536713
1708437845.0976756,-1.1342201232910156,-1.6658388576903285,-2.5264843145953577,2.3115874963947753,-1.0169780890094202,0.20780348777770996
1708437845.0996618,-1.1342482566833496,-1.665856500665182,-2.526454273854391,2.311572476024292,-1.017026726399557,0.20781971514225006
1708437845.1016784,-1.1342320442199707,-1.6658431492247523,-2.52651292482485,2.3115767675587158,-1.017026726399557,0.2077915370464325
1708437845.1036847,-1.1342557668685913,-1.6658717594542445,-2.526454273854391,2.31158892690625,-1.0169408957110804,0.20780347287654877
1708437845.1057105,-1.1342082023620605,-1.6658927402892054,-2.526470963154928,2.311617298717163,-1.0169766584979456,0.20781101286411285
1708437845.1076612,-1.1342806816101074,-1.6659347019591273,-2.526475254689352,2.311567946071289,-1.017010513936178,0.2078240066766739
1708437845.1096976,-1.1342320442199707,-1.665861269036764,-2.526458803807394,2.311609907741211,-1.0169485251056116,0.20780345797538757
1708437845.1117072,-1.1342976093292236,-1.6658851108946742,-2.526470724736349,2.31161276876416,-1.016960922871725,0.2078121155500412
1708437845.1136906,-1.1342482566833496,-1.6658927402892054,-2.5265050570117396,2.3115383821674804,-1.0170257727252405,0.2078438252210617
1708437845.1156704,-1.1342145204544067,-1.6658803425230921,-2.526475254689352,2.3116084772297363,-1.0169652144061487,0.20780347287654877
1708437845.117685,-1.1342363357543945,-1.6658646068968714,-2.526475254689352,2.311605377788208,-1.016989533101217,0.20784485340118408
1708437845.1196532,-1.1342363357543945,-1.6658688984312953,-2.5264931360827845,2.3115545946308593,-1.0170095602618616,0.20783628523349762
1708437845.1216483,-1.1342525482177734,-1.6658851108946742,-2.526458803807394,2.311593456859253,-1.0169442335711878,0.20777539908885956
1708437845.1236517,-1.1342644691467285,-1.6658479175963343,-2.5264392534839075,2.311580105418823,-1.0169652144061487,0.20781540870666504
1708437845.1256561,-1.1342554092407227,-1.6658274135985316,-2.5264468828784388,2.311617298717163,-1.0169766584979456,0.20776672661304474
1708437845.1276474,-1.1342525482177734,-1.6658998928465785,-2.526479784642355,2.31162612020459,-1.0170019308673304,0.20781101286411285
1708437845.1296535,-1.1342320442199707,-1.6659018001952113,-2.5264602343188685,2.3115920263477783,-1.016961399708883,0.20779921114444733
1708437845.1316683,-1.1342644691467285,-1.6658736668028773,-2.5264185110675257,2.311530752772949,-1.016939942036764,0.2078196406364441
1708437845.1336536,-1.13427734375,-1.6658646068968714,-2.5264018217669886,2.3115767675587158,-1.0169442335711878,0.2077861875295639
1708437845.135676,-1.1342482566833496,-1.6658975086607875,-2.526421372090475,2.311567946071289,-1.0169809500323694,0.20780344307422638
1708437845.1376686,-1.1342568397521973,-1.6659132442870082,-2.5265050570117396,2.311580105418823,-1.016993824635641,0.2078363001346588
1708437845.1396778,-1.1342730522155762,-1.6658975086607875,-2.5264347235309046,2.311605377788208,-1.0169571081744593,0.2078319489955902
1708437845.1416748,-1.1342244148254395,-1.6658297977843226,-2.5264139811145228,2.3115920263477783,-1.0169976393329065,0.20778298377990723
1708437845.1437137,-1.134199619293213,-1.6658927402892054,-2.5264347235309046,2.311596556300781,-1.0170062224017542,0.20780351758003235
1708437845.145687,-1.1342201232910156,-1.6658431492247523,-2.5264721552478235,2.311584635371826,-1.0169695059405726,0.2078319936990738
1708437845.1476653,-1.1342525482177734,-1.6658479175963343,-2.5264468828784388,2.311572476024292,-1.0169737974749964,0.2078283131122589
1708437845.1496613,-1.1342124938964844,-1.6659132442870082,-2.52649170557131,2.311609669322632,-1.016993824635641,0.2078232616186142
1708437845.1516826,-1.1342495679855347,-1.6658851108946742,-2.5264468828784388,2.311514063472412,-1.0169571081744593,0.20779919624328613
1708437845.15369,-1.1342039108276367,-1.6658345661559046,-2.5264437834369105,2.3115274149128417,-1.016961399708883,0.20782756805419922
1708437845.1556563,-1.1342158317565918,-1.6658779583373011,-2.5264304319964808,2.311600847835205,-1.0169451872455042,0.20781540870666504
1708437845.1576543,-1.1342406272888184,-1.665856500665182,-2.5264318625079554,2.3115097719379882,-1.016961399708883,0.20781460404396057
1708437845.1596646,-1.1342525482177734,-1.6658407650389613,-2.5264604727374476,2.3115097719379882,-1.0169981161700647,0.2078644037246704
1708437845.1616547,-1.1342406272888184,-1.6658388576903285,-2.5264437834369105,2.311563416118286,-1.0169737974749964,0.20786871016025543
1708437845.1636915,-1.134265422821045,-1.6658851108946742,-2.5264678637133997,2.311560555095337,-1.0169737974749964,0.20779480040073395
1708437845.1656437,-1.1341913938522339,-1.6658927402892054,-2.526458803807394,2.311556025142334,-1.016949478779928,0.20786450803279877
1708437845.1677,-1.134261131286621,-1.665889402429098,-2.5264843145953577,2.311544104213379,-1.0169332663165491,0.2078232616186142
1708437845.1696508,-1.1342082023620605,-1.6658646068968714,-2.5264228026019495,2.311551495189331,-1.016949478779928,0.20782755315303802
1708437845.171644,-1.1342730522155762,-1.6658688984312953,-2.5264392534839075,2.311530752772949,-1.0169528166400355,0.2078481912612915
1708437845.173659,-1.134261131286621,-1.665889402429098,-2.5264437834369105,2.31158892690625,-1.016961399708883,0.20787657797336578
1708437845.1756501,-1.1342376470565796,-1.665917535821432,-2.5264559427844446,2.311600847835205,-1.0169084707843226,0.20777861773967743
1708437845.1776774,-1.1342568397521973,-1.6658431492247523,-2.5264468828784388,2.3115767675587158,-1.0169780890094202,0.207851380109787
1708437845.1796877,-1.1342124938964844,-1.6659089527525843,-2.5264604727374476,2.311539812678955,-1.016949478779928,0.2078557014465332
1708437845.181644,-1.1341962814331055,-1.6658851108946742,-2.5264437834369105,2.3115262228199462,-1.0169442335711878,0.2078319638967514
1708437845.183667,-1.1342449188232422,-1.6659018001952113,-2.5264347235309046,2.31161276876416,-1.0169742743121546,0.20780667662620544
1708437845.1856709,-1.1342082023620605,-1.6658760509886683,-2.5264301935779017,2.311551495189331,-1.0169408957110804,0.2078600376844406
1708437845.1876862,-1.1342568397521973,-1.6658317051329554,-2.5264347235309046,2.311551495189331,-1.0169571081744593,0.20787306129932404
1708437845.1896832,-1.1342048645019531,-1.6658345661559046,-2.5264018217669886,2.3115219312855224,-1.016961399708883,0.20781098306179047
1708437845.1917238,-1.134261131286621,-1.6658512554564417,-2.5264468828784388,2.311556025142334,-1.0169451872455042,0.20780667662620544
1708437845.1936908,-1.134249210357666,-1.6658522091307582,-2.5264559427844446,2.3115710455128173,-1.0169852415667933,0.2078394889831543
1708437845.1956532,-1.1341962814331055,-1.6658603153624476,-2.5264347235309046,2.3115767675587158,-1.0169866720782679,0.2078145295381546
1708437845.1976852,-1.134183406829834,-1.6658431492247523,-2.5264650026904505,2.3115262228199462,-1.0169623533831995,0.2077861875295639
1708437845.1996791,-1.1342406272888184,-1.6659089527525843,-2.5264106432544153,2.3115767675587158,-1.0169246832477015,0.2078145295381546
1708437845.2016652,-1.134265422821045,-1.6659041843810023,-2.5264151732074183,2.311546965236328,-1.0169580618487757,0.2078394889831543
1708437845.2036583,-1.1342039108276367,-1.6658479175963343,-2.5263987223254603,2.311535282725952,-1.0169170538531702,0.20788098871707916
1708437845.2056537,-1.1342201232910156,-1.665922304193014,-2.526419703160421,2.311535282725952,-1.0168922583209437,0.20786002278327942
1708437845.207702,-1.1342406272888184,-1.6658555469908656,-2.5263987223254603,2.3115262228199462,-1.0169385115252894,0.2078394889831543
1708437845.2096782,-1.1342082023620605,-1.6658345661559046,-2.526419703160421,2.311551495189331,-1.016909424458639,0.207823246717453
1708437845.211694,-1.134221076965332,-1.6658803425230921,-2.5263822714435022,2.311535282725952,-1.0169418493853968,0.20778614282608032
1708437845.2136755,-1.134178876876831,-1.6658479175963343,-2.5264151732074183,2.311530752772949,-1.016921345387594,0.20788420736789703
1708437845.215685,-1.1342406272888184,-1.6658760509886683,-2.526428763066427,2.3115693765827636,-1.0169222990619105,0.20781022310256958
1708437845.2176669,-1.1342167854309082,-1.6658669910826625,-2.5263658205615442,2.311597986812256,-1.0168769995318812,0.20784269273281097
1708437845.2196577,-1.1342201232910156,-1.665861269036764,-2.526395861302511,2.3115603166767578,-1.0169146696673792,0.20788100361824036
1708437845.2216716,-1.134232997894287,-1.6658150158324183,-2.526370350514547,2.311547203654907,-1.0168526808368128,0.20787549018859863
1708437845.2236557,-1.1342092752456665,-1.665856500665182,-2.5264151732074183,2.3115812975117187,-1.0168984572040003,0.2078189253807068
1708437845.225657,-1.134249210357666,-1.6658512554564417,-2.5264151732074183,2.3115319448658447,-1.0168898741351526,0.20783516764640808
1708437845.2276824,-1.1342244148254395,-1.6658579311766566,-2.5263987223254603,2.3115274149128417,-1.0168569723712366,0.2078470140695572
1708437845.2296846,-1.134232997894287,-1.6658669910826625,-2.526395861302511,2.311535282725952,-1.0168407599078577,0.2078470140695572
1708437845.2316825,-1.1342449188232422,-1.6658803425230921,-2.52637488046755,2.311556025142334,-1.0168526808368128,0.20782645046710968
1708437845.2336938,-1.1341915130615234,-1.6658522091307582,-2.5264151732074183,2.3115812975117187,-1.016869846974508,0.20790044963359833
1708437845.2380586,-1.1342449188232422,-1.6658317051329554,-2.5264106432544153,2.311556025142334,-1.0168569723712366,0.20787981152534485
1708437845.2380748,-1.134232997894287,-1.6658388576903285,-2.5263987223254603,2.311539574260376,-1.0168655554400843,0.2078830897808075
1708437845.2396908,-1.1342816352844238,-1.6658522091307582,-2.526370350514547,2.311605377788208,-1.0168245474444788,0.2079288363456726
1708437845.2416632,-1.134221076965332,-1.6658975086607875,-2.526403252278463,2.311544104213379,-1.0168569723712366,0.20792530477046967
1708437845.243682,-1.1342124938964844,-1.6658975086607875,-2.526407782231466,2.311539574260376,-1.016857926045553,0.20791149139404297
1708437845.2456915,-1.134261131286621,-1.6658603153624476,-2.526370350514547,2.311544104213379,-1.0169027487384241,0.20788198709487915
1708437845.2476754,-1.1342082023620605,-1.6658431492247523,-2.526358429585592,2.311523123378418,-1.016869846974508,0.20790717005729675
1708437845.249702,-1.1342535018920898,-1.6658555469908656,-2.526362959538595,2.3115574556538085,-1.0168817679034632,0.2078906148672104
1708437845.2516592,-1.1341919898986816,-1.6658717594542445,-2.526386801396505,2.311547203654907,-1.0168984572040003,0.20788198709487915
1708437845.2537112,-1.1342406272888184,-1.6658851108946742,-2.526386801396505,2.3115216928669433,-1.016869846974508,0.2078949362039566
1708437845.2556627,-1.1342449188232422,-1.6659018001952113,-2.526416842137472,2.311535282725952,-1.0168774763690394,0.20796380937099457
1708437845.2576625,-1.1342048645019531,-1.6658688984312953,-2.526350800191061,2.311556025142334,-1.0168655554400843,0.20796020328998566
1708437845.2596643,-1.1341959238052368,-1.6659466228880824,-2.5263341108905237,2.311560555095337,-1.0169103781329554,0.2079472690820694
1708437845.2616634,-1.1342363357543945,-1.6659041843810023,-2.526362959538595,2.311548634166382,-1.016869846974508,0.2079472541809082
1708437845.2637079,-1.1342167854309082,-1.6658431492247523,-2.526416603718893,2.3115529257008056,-1.0168374220477503,0.207947239279747
1708437845.2656858,-1.1342167854309082,-1.6658388576903285,-2.526358429585592,2.3115529257008056,-1.016846005116598,0.20799189805984497
1708437845.2677097,-1.1342568397521973,-1.6658646068968714,-2.526388470326559,2.311551495189331,-1.0168655554400843,0.20789414644241333
1708437845.2696683,-1.134237289428711,-1.6658183536925257,-2.526358429585592,2.311530752772949,-1.0168903509723108,0.20791037380695343
1708437845.271699,-1.1342124938964844,-1.6658183536925257,-2.526379410420553,2.311593456859253,-1.0168493429767054,0.20793965458869934
1708437845.2736976,-1.1342005729675293,-1.6658274135985316,-2.526388470326559,2.311560555095337,-1.0168417135821741,0.2079222947359085
1708437845.2756562,-1.1342082023620605,-1.6658388576903285,-2.5263553301440638,2.3115381437489013,-1.0168331305133265,0.2079342156648636
1708437845.277677,-1.134237289428711,-1.665889402429098,-2.5263341108905237,2.311597986812256,-1.0168212095843714,0.20794284343719482
1708437845.2796807,-1.1342092752456665,-1.6658512554564417,-2.526421372090475,2.311567946071289,-1.0168092886554163,0.2079060673713684
1708437845.2816498,-1.134221076965332,-1.6659089527525843,-2.526383940373556,2.311539574260376,-1.0168374220477503,0.20796813070774078
1708437845.2836595,-1.134237289428711,-1.6658884487547816,-2.5263553301440638,2.311544104213379,-1.016846005116598,0.20792661607265472
1708437845.2856553,-1.1342254877090454,-1.665889402429098,-2.5263598600970667,2.3115157324024658,-1.0168417135821741,0.2079472541809082
1708437845.2876906,-1.1342158317565918,-1.6658603153624476,-2.526346270238058,2.311544104213379,-1.0168622175799769,0.20792663097381592
1708437845.289668,-1.1342082023620605,-1.6659018001952113,-2.526325289403097,2.3114992815205078,-1.0168784300433558,0.20791909098625183
1708437845.2916765,-1.134237289428711,-1.6658688984312953,-2.526362959538595,2.311544104213379,-1.0168340841876429,0.20796380937099457
1708437845.293659,-1.134249210357666,-1.6658512554564417,-2.5264256636248987,2.311497851009033,-1.0168340841876429,0.20795078575611115
1708437845.2956617,-1.1342254877090454,-1.6658522091307582,-2.526383940373556,2.3115648466297607,-1.0168545881854456,0.20795509219169617
1708437845.297699,-1.1342287063598633,-1.6658317051329554,-2.52637488046755,2.311584635371826,-1.0168264547931116,0.20796270668506622
1708437845.2996738,-1.134221076965332,-1.6659170589842738,-2.526350800191061,2.3115693765827636,-1.016801659260885,0.20788198709487915
1708437845.3016737,-1.1342167854309082,-1.6658927402892054,-2.5263477007495325,2.311539812678955,-1.0168307463275355,0.20795509219169617
1708437845.303707,-1.134237289428711,-1.6658555469908656,-2.526346270238058,2.3115529257008056,-1.0167773405658167,0.2079223394393921
1708437845.3056662,-1.1342005729675293,-1.6658364735045375,-2.526367489491598,2.311544104213379,-1.0168102423297327,0.2079310119152069
1708437845.3076804,-1.1341962814331055,-1.6658760509886683,-2.5263267199145716,2.3115693765827636,-1.0167697111712855,0.20798325538635254
1708437845.309684,-1.1342406272888184,-1.6659018001952113,-2.526358429585592,2.311560555095337,-1.0167577902423304,0.20798756182193756
1708437845.3116598,-1.1342005729675293,-1.6658345661559046,-2.526372019444601,2.3115274149128417,-1.0167329947101038,0.20796380937099457
1708437845.313709,-1.1342167854309082,-1.6658150158324183,-2.5263553301440638,2.3115452963062744,-1.0167654196368616,0.2079593986272812
1708437845.3156533,-1.1342244148254395,-1.6658803425230921,-2.5263341108905237,2.311485930080078,-1.0167816321002405,0.20792661607265472
1708437845.3176599,-1.134265422821045,-1.6658851108946742,-2.526329580937521,2.3115977483936767,-1.0167449156390589,0.20789854228496552
1708437845.3196828,-1.1342167854309082,-1.665889402429098,-2.5263312498675745,2.3115767675587158,-1.0167859236346644,0.20795083045959473
1708437845.3217041,-1.1342406272888184,-1.6658479175963343,-2.5263176600085657,2.311548634166382,-1.016839329396383,0.20793968439102173
1708437845.3236778,-1.1342048645019531,-1.6658803425230921,-2.5263221899615687,2.311518593425415,-1.016806427632467,0.20794285833835602
1708437845.3256583,-1.134261131286621,-1.6658688984312953,-2.5263267199145716,2.311535282725952,-1.0168102423297327,0.20796380937099457
1708437845.3276675,-1.134237289428711,-1.6658975086607875,-2.526362959538595,2.3115767675587158,-1.0167773405658167,0.207991823554039
1708437845.3296828,-1.1342048645019531,-1.6658603153624476,-2.5263176600085657,2.3115767675587158,-1.016766373311178,0.207947239279747
1708437845.331666,-1.1342320442199707,-1.6658975086607875,-2.5263477007495325,2.3115410047718505,-1.0167697111712855,0.2079472541809082
1708437845.3336933,-1.134232997894287,-1.6658736668028773,-2.526393000279562,2.31150667249646,-1.0168021360980433,0.20796383917331696
1708437845.3357375,-1.1342048645019531,-1.6658479175963343,-2.5263357798205774,2.311551495189331,-1.0167372862445276,0.20797133445739746
1708437845.3376794,-1.1342167854309082,-1.6658646068968714,-2.5263357798205774,2.311544104213379,-1.0167816321002405,0.20795078575611115
1708437845.3397243,-1.1342244148254395,-1.665889402429098,-2.5263403097735804,2.3115574556538085,-1.0167697111712855,0.2078973948955536
1708437845.3417015,-1.134249210357666,-1.6658884487547816,-2.5262909571277063,2.3115648466297607,-1.0167534987079065,0.20799186825752258
1708437845.3436818,-1.134237289428711,-1.6658646068968714,-2.5263267199145716,2.3115767675587158,-1.016778294240133,0.2079516053199768
1708437845.3456686,-1.1342568397521973,-1.6658851108946742,-2.5263193289386194,2.311523123378418,-1.0167859236346644,0.20792660117149353
1708437845.3476717,-1.1342082023620605,-1.6658431492247523,-2.5263477007495325,2.3115812975117187,-1.0167253653155726,0.20792238414287567
1708437845.349684,-1.1341924667358398,-1.6658646068968714,-2.5263102690326136,2.3115812975117187,-1.0167620817767542,0.20793966948986053
1708437845.3516755,-1.1342167854309082,-1.6658646068968714,-2.5263312498675745,2.3115157324024658,-1.0167740027057093,0.2079680860042572
1708437845.353658,-1.1342124938964844,-1.6658717594542445,-2.5263477007495325,2.311560555095337,-1.016766373311178,0.2079266756772995
1708437845.3556674,-1.134221076965332,-1.6658975086607875,-2.5263341108905237,2.311548634166382,-1.0167339483844202,0.20792236924171448
1708437845.3576581,-1.1342082023620605,-1.6658479175963343,-2.5263403097735804,2.311560555095337,-1.0167329947101038,0.20794396102428436
1708437845.3596563,-1.1341876983642578,-1.6659018001952113,-2.5263777414904993,2.3115529257008056,-1.016778294240133,0.20795941352844238
1708437845.3616745,-1.134232997894287,-1.6658522091307582,-2.5263221899615687,2.3115274149128417,-1.0167740027057093,0.20798750221729279
1708437845.3636987,-1.1341708898544312,-1.6658688984312953,-2.5263193289386194,2.311560555095337,-1.016754452382223,0.20788989961147308
1708437845.3656948,-1.1342579126358032,-1.6658717594542445,-2.5263522307025355,2.3115574556538085,-1.0167577902423304,0.20798756182193756
1708437845.3677166,-1.134249210357666,-1.6658431492247523,-2.5263312498675745,2.311560555095337,-1.0167697111712855,0.20798002183437347
1708437845.3696835,-1.1342449188232422,-1.6658803425230921,-2.5263357798205774,2.3115364748188476,-1.0167253653155726,0.2079472541809082
1708437845.3716671,-1.134232997894287,-1.6658603153624476,-2.5262821356402796,2.3115767675587158,-1.0167134443866175,0.2079104632139206
1708437845.3737,-1.134249210357666,-1.6658479175963343,-2.5263643900500696,2.3115319448658447,-1.0167620817767542,0.2079843282699585
1708437845.3756638,-1.1342376470565796,-1.6658388576903285,-2.526344601308004,2.311548634166382,-1.0167501608477991,0.20799186825752258
1708437845.3776715,-1.1342124938964844,-1.6658803425230921,-2.5263777414904993,2.3114828306385498,-1.0167911688434046,0.20795941352844238
1708437845.3796556,-1.134231686592102,-1.6658851108946742,-2.5262983481036585,2.3114828306385498,-1.0167058149920862,0.2079266458749771
1708437845.3816597,-1.1342124938964844,-1.6658688984312953,-2.5263238588916224,2.3115529257008056,-1.0167220274554651,0.20791803300380707
1708437845.3836603,-1.1342363357543945,-1.6658717594542445,-2.5263312498675745,2.311556025142334,-1.0167015234576624,0.207991823554039
1708437845.385693,-1.1342535018920898,-1.6658317051329554,-2.5263102690326136,2.3115364748188476,-1.016726318989889,0.20793423056602478
1708437845.387663,-1.1342039108276367,-1.6658274135985316,-2.5262983481036585,2.311551495189331,-1.0167296568499964,0.2079266458749771
1708437845.3896768,-1.1341876983642578,-1.6658603153624476,-2.526361052189962,2.311502380962036,-1.0167306105243128,0.20796380937099457
1708437845.3917117,-1.1342614889144897,-1.6659347019591273,-2.5263403097735804,2.3115648466297607,-1.0167024771319788,0.20799624919891357
1708437845.3937044,-1.1342244148254395,-1.6658851108946742,-2.5262940565692347,2.3115319448658447,-1.0166938940631312,0.20796380937099457
1708437845.3956478,-1.1342568397521973,-1.6658317051329554,-2.5262864271747034,2.3115693765827636,-1.0167468229876917,0.20799294114112854
1708437845.3976893,-1.134249210357666,-1.6658317051329554,-2.5263403097735804,2.311523123378418,-1.0167229811297815,0.20795080065727234
1708437845.399662,-1.134261131286621,-1.6659018001952113,-2.5262578169452112,2.3115529257008056,-1.0166857878314417,0.2080080807209015
1708437845.4017115,-1.1342406272888184,-1.6658736668028773,-2.5262954870807093,2.311523123378418,-1.0166938940631312,0.20795510709285736
1708437845.4037905,-1.1342535018920898,-1.6658760509886683,-2.526344601308004,2.311511202449463,-1.0167220274554651,0.20799624919891357
1708437845.4056728,-1.1342686414718628,-1.6658803425230921,-2.526224915181295,2.311544104213379,-1.0166686216937464,0.20794285833835602
1708437845.4077027,-1.1342363357543945,-1.6658603153624476,-2.526262346898214,2.3115274149128417,-1.0167468229876917,0.20795510709285736
1708437845.4096563,-1.134249210357666,-1.6658851108946742,-2.52625018755068,2.311560555095337,-1.01671010652651,0.20796702802181244
1708437845.4116924,-1.1342449188232422,-1.6658646068968714,-2.526283327733175,2.3115648466297607,-1.0167143980609339,0.20800383388996124
1708437845.4136596,-1.134231686592102,-1.6658646068968714,-2.526275936757223,2.311490221614502,-1.0166814962970179,0.2079266458749771
1708437845.4156494,-1.1342482566833496,-1.6658317051329554,-2.526259247456686,2.311548634166382,-1.0166810194598597,0.2079266458749771
1708437845.4176638,-1.1342331171035767,-1.6658736668028773,-2.5262518564807337,2.3114992815205078,-1.0167058149920862,0.20802903175354004
1708437845.4196486,-1.1342741250991821,-1.6658646068968714,-2.5262637774096888,2.311556025142334,-1.0166686216937464,0.20791803300380707
1708437845.4216783,-1.1343104839324951,-1.6658927402892054,-2.5262637774096888,2.3115364748188476,-1.01671010652651,0.20795941352844238
1708437845.4236746,-1.134231686592102,-1.6658317051329554,-2.5262725988971155,2.311547203654907,-1.016726318989889,0.207947239279747
1708437845.4256701,-1.1342859268188477,-1.6658388576903285,-2.5262399355517786,2.3115603166767578,-1.016698185597555,0.20797133445739746
1708437845.4277005,-1.1342082023620605,-1.6658803425230921,-2.5262518564807337,2.311548634166382,-1.016677204762594,0.2079266458749771
1708437845.4296813,-1.134211540222168,-1.6658431492247523,-2.5262725988971155,2.3115319448658447,-1.01671010652651,0.20791803300380707
1708437845.43167,-1.134265422821045,-1.6658388576903285,-2.5262518564807337,2.311593456859253,-1.0166972319232386,0.20796380937099457
1708437845.4336643,-1.1342363357543945,-1.6658975086607875,-2.5262067953692835,2.3115767675587158,-1.01671010652651,0.20795941352844238
1708437845.435669,-1.1342449188232422,-1.6658388576903285,-2.5262308756457728,2.3115648466297607,-1.0167306105243128,0.20795154571533203
1708437845.4376693,-1.1342158317565918,-1.6658688984312953,-2.5262609163867396,2.3115855890461425,-1.0167835394488733,0.2079465091228485
1708437845.4396696,-1.1342687606811523,-1.6658646068968714,-2.5262444655047815,2.3115781980701904,-1.0167587439166468,0.20789749920368195
1708437845.4416938,-1.1343103647232056,-1.6658717594542445,-2.5261901060687464,2.311535282725952,-1.0167468229876917,0.20796705782413483
1708437845.4436867,-1.1342849731445312,-1.6658431492247523,-2.5262444655047815,2.311539574260376,-1.0167425314532679,0.20795510709285736
1708437845.4457154,-1.134293556213379,-1.6659089527525843,-2.5261858145343226,2.311548634166382,-1.0167058149920862,0.2079799473285675
1708437845.4476802,-1.134293556213379,-1.6657945118346156,-2.5262280146228235,2.3115529257008056,-1.0167058149920862,0.2079472839832306
1708437845.4496975,-1.134231686592102,-1.6658646068968714,-2.5262022654162806,2.311584635371826,-1.0167058149920862,0.20796805620193481
1708437845.4517448,-1.1342363357543945,-1.6658884487547816,-2.5262158552752894,2.311544104213379,-1.0166896025287073,0.20792238414287567
1708437845.4536898,-1.1342363357543945,-1.6658975086607875,-2.5262308756457728,2.311539574260376,-1.0166896025287073,0.2079843282699585
1708437845.455679,-1.1342644691467285,-1.6658975086607875,-2.5262354055987757,2.311511202449463,-1.0167425314532679,0.20794284343719482
1708437845.4576788,-1.13427734375,-1.6659347019591273,-2.5262518564807337,2.311478300685547,-1.0166896025287073,0.2079104483127594
1708437845.4596686,-1.1343060731887817,-1.6658803425230921,-2.526242796574728,2.3115364748188476,-1.0167425314532679,0.20798750221729279
1708437845.4616413,-1.1342579126358032,-1.6658646068968714,-2.526242796574728,2.3115693765827636,-1.0167391935931605,0.2079429030418396
1708437845.463678,-1.1342687606811523,-1.6658522091307582,-2.526221815739767,2.311523123378418,-1.0167186895953577,0.2079724222421646
1708437845.4657161,-1.1342687606811523,-1.6658836803831996,-2.5262354055987757,2.311560555095337,-1.0166729132281702,0.2079465240240097
1708437845.4677172,-1.1342231035232544,-1.6659265957274378,-2.5262518564807337,2.3115407663532714,-1.016698185597555,0.20793098211288452
1708437845.4696891,-1.1342933177947998,-1.6658688984312953,-2.52622634569277,2.311511202449463,-1.0166938940631312,0.2079515904188156
1708437845.471693,-1.1342568397521973,-1.6658274135985316,-2.5262144247638147,2.311490460033081,-1.0166938940631312,0.20796383917331696
1708437845.473774,-1.1342406272888184,-1.6658431492247523,-2.5262563864337366,2.3115693765827636,-1.0166814962970179,0.20798420906066895
1708437845.4757092,-1.1342730522155762,-1.6659108601012171,-2.5262892881976526,2.311556025142334,-1.0167143980609339,0.2079961895942688
1708437845.4776623,-1.1342849731445312,-1.6658522091307582,-2.5262444655047815,2.3115407663532714,-1.016726318989889,0.20791803300380707
1708437845.4796689,-1.1342226266860962,-1.6658760509886683,-2.5262725988971155,2.311544104213379,-1.016754452382223,0.20795153081417084
1708437845.4816818,-1.1342644691467285,-1.6658851108946742,-2.526275936757223,2.311539574260376,-1.0167186895953577,0.20795157551765442
1708437845.4836826,-1.134231686592102,-1.6658464870848597,-2.5261977354632776,2.311523123378418,-1.0167306105243128,0.20795083045959473
1708437845.4856915,-1.1342601776123047,-1.6658388576903285,-2.5262487570392054,2.311544104213379,-1.016698185597555,0.20798324048519135
1708437845.4877234,-1.1342730522155762,-1.6658669910826625,-2.5262022654162806,2.311527653331421,-1.0167186895953577,0.2080245018005371
1708437845.4896836,-1.1342389583587646,-1.6658522091307582,-2.5261977354632776,2.3115274149128417,-1.0167229811297815,0.207963764667511
1708437845.491694,-1.1343050003051758,-1.6658364735045375,-2.5263012091266077,2.311548634166382,-1.01671010652651,0.20797675848007202
1708437845.4936783,-1.1342763900756836,-1.6659108601012171,-2.5262308756457728,2.3115619856068115,-1.0167587439166468,0.2079918384552002
1708437845.4956622,-1.1342556476593018,-1.6658851108946742,-2.526238266621725,2.311544104213379,-1.0167177359210413,0.20795942842960358
1708437845.4976606,-1.1342439651489258,-1.6659132442870082,-2.5262473265277308,2.3115648466297607,-1.01671010652651,0.20793534815311432
1708437845.49966,-1.134231686592102,-1.6658851108946742,-2.52622634569277,2.311548634166382,-1.0167143980609339,0.20796813070774078
1708437845.50168,-1.134289264678955,-1.6658193073668421,-2.5262637774096888,2.311556025142334,-1.0166938940631312,0.20798000693321228
1708437845.5036874,-1.1342806816101074,-1.6658522091307582,-2.526221815739767,2.3115319448658447,-1.0166729132281702,0.20791806280612946
1708437845.5056465,-1.1342806816101074,-1.665906091729635,-2.5262518564807337,2.3115648466297607,-1.0166853109942835,0.20796379446983337
1708437845.5076954,-1.1342675685882568,-1.6659132442870082,-2.5262354055987757,2.3115693765827636,-1.0166896025287073,0.2079428732395172
1708437845.5096607,-1.1343019008636475,-1.6658717594542445,-2.526275936757223,2.3115812975117187,-1.0167058149920862,0.20798325538635254
1708437845.511686,-1.1342568397521973,-1.6658927402892054,-2.526221815739767,2.311556025142334,-1.01671010652651,0.20798000693321228
1708437845.5136511,-1.1342644691467285,-1.6658240757384242,-2.526245896016256,2.3115274149128417,-1.016726318989889,0.2079755961894989
1708437845.515653,-1.134279727935791,-1.6658431492247523,-2.5262399355517786,2.311539574260376,-1.0167058149920862,0.20793966948986053
1708437845.517689,-1.1343094110488892,-1.6658555469908656,-2.5262354055987757,2.3116306501575927,-1.0166972319232386,0.20795157551765442
1708437845.5196445,-1.1342557668685913,-1.6658717594542445,-2.5262022654162806,2.311544104213379,-1.0167143980609339,0.20794722437858582
1708437845.5216424,-1.1342601776123047,-1.6658555469908656,-2.5262189547168177,2.311547203654907,-1.0167058149920862,0.20796379446983337
1708437845.5237122,-1.1342962980270386,-1.6658512554564417,-2.526210133229391,2.311593456859253,-1.0167220274554651,0.20792236924171448
1708437845.525651,-1.134313702583313,-1.6658688984312953,-2.5262637774096888,2.311494751567505,-1.0167749563800257,0.2079104483127594
1708437845.5283842,-1.1342717409133911,-1.6658255062498988,-2.5262563864337366,2.3115097719379882,-1.016754452382223,0.2079104483127594
1708437845.529683,-1.1343179941177368,-1.6658688984312953,-2.5262725988971155,2.311518593425415,-1.0167587439166468,0.20798322558403015
1708437845.5316598,-1.1342557668685913,-1.6658231220641078,-2.5262518564807337,2.311539574260376,-1.0167015234576624,0.2079439014196396
1708437845.5336685,-1.1343050003051758,-1.6658717594542445,-2.526242796574728,2.3115407663532714,-1.0166938940631312,0.20795941352844238
1708437845.5357087,-1.1342763900756836,-1.6658274135985316,-2.5262637774096888,2.311518593425415,-1.0167143980609339,0.2079266607761383
1708437845.5376928,-1.1342394351959229,-1.6658522091307582,-2.5262518564807337,2.311544104213379,-1.0167253653155726,0.20790186524391174
1708437845.5396824,-1.1342307329177856,-1.6658984623351039,-2.526262346898214,2.3115452963062744,-1.016726318989889,0.2079310417175293
1708437845.541681,-1.1342849731445312,-1.665889402429098,-2.526254717503683,2.311593456859253,-1.01671010652651,0.20795154571533203
1708437845.543695,-1.1342644691467285,-1.6658688984312953,-2.526287857686178,2.311511202449463,-1.0166972319232386,0.2079680860042572
1708437845.5456948,-1.1342933177947998,-1.665861269036764,-2.5262580553637903,2.3115274149128417,-1.0167058149920862,0.2079266607761383
1708437845.547659,-1.134301781654358,-1.665856500665182,-2.526344601308004,2.311593456859253,-1.0167587439166468,0.20793858170509338
1708437845.5497026,-1.1343131065368652,-1.6658102474608363,-2.5263119379626673,2.311556025142334,-1.0167339483844202,0.20796450972557068
1708437845.551648,-1.1342806816101074,-1.665856500665182,-2.526283327733175,2.311523123378418,-1.016726318989889,0.20793531835079193
1708437845.5536501,-1.134284496307373,-1.6658851108946742,-2.5262983481036585,2.3115529257008056,-1.016726318989889,0.207914799451828
1708437845.555644,-1.1343306303024292,-1.6658717594542445,-2.5263193289386194,2.3115052419849853,-1.016738239918844,0.20796379446983337
1708437845.5576699,-1.1342719793319702,-1.6658646068968714,-2.5263238588916224,2.31150667249646,-1.0167425314532679,0.20795156061649323
1708437845.5596743,-1.1342933177947998,-1.665906091729635,-2.5263074080096644,2.31158892690625,-1.0167091528521937,0.2079266607761383
1708437845.5616682,-1.1342395544052124,-1.6658522091307582,-2.5263357798205774,2.311539574260376,-1.016754452382223,0.2080005407333374
1708437845.5636783,-1.134284496307373,-1.6658522091307582,-2.5263193289386194,2.3115767675587158,-1.016738239918844,0.2079148292541504
1708437845.5656629,-1.1343179941177368,-1.6658646068968714,-2.5263267199145716,2.311530752772949,-1.0167458693133753,0.20796379446983337
1708437845.5676832,-1.1342395544052124,-1.6658479175963343,-2.5263238588916224,2.3115693765827636,-1.016766373311178,0.2079266607761383
1708437845.5696495,-1.134280800819397,-1.6658479175963343,-2.5263028780566614,2.3115154939838867,-1.0166972319232386,0.20793960988521576
1708437845.5716493,-1.1342931985855103,-1.6658646068968714,-2.5263553301440638,2.311567946071289,-1.0167501608477991,0.20792236924171448
1708437845.573642,-1.1342887878417969,-1.6658479175963343,-2.5263221899615687,2.3115855890461425,-1.016754452382223,0.20795086026191711
1708437845.5756466,-1.1342631578445435,-1.6658975086607875,-2.5263643900500696,2.3114933210560302,-1.0167253653155726,0.20796379446983337
1708437845.5776577,-1.1343094110488892,-1.6658669910826625,-2.5263267199145716,2.311548634166382,-1.0167534987079065,0.20797564089298248
1708437845.579641,-1.134284496307373,-1.6658717594542445,-2.526400391255514,2.31158892690625,-1.0167091528521937,0.2079428732395172
1708437845.5816617,-1.1342601776123047,-1.6658803425230921,-2.526372019444601,2.311560555095337,-1.0167587439166468,0.2079428881406784
1708437845.583639,-1.134313702583313,-1.6658522091307582,-2.526362959538595,2.3115154939838867,-1.0167177359210413,0.20797565579414368
1708437845.5856647,-1.134313702583313,-1.6658927402892054,-2.526362959538595,2.311530752772949,-1.0167253653155726,0.20792768895626068
1708437845.5876603,-1.1343095302581787,-1.6658927402892054,-2.5263341108905237,2.311547203654907,-1.0167253653155726,0.20789757370948792
1708437845.589684,-1.1342644691467285,-1.6658431492247523,-2.526376549397604,2.3115648466297607,-1.0167458693133753,0.20797136425971985
1708437845.5916755,-1.1343095302581787,-1.6658479175963343,-2.5263643900500696,2.311556025142334,-1.016754452382223,0.20795513689517975
1708437845.5936623,-1.134289264678955,-1.6658193073668421,-2.5263598600970667,2.3116025167652587,-1.0167620817767542,0.20792239904403687
1708437845.595699,-1.1342931985855103,-1.6658927402892054,-2.5263477007495325,2.311497612590454,-1.0167501608477991,0.20798425376415253
1708437845.5976825,-1.1342849731445312,-1.6658851108946742,-2.5263643900500696,2.3114992815205078,-1.0167458693133753,0.2079353630542755
1708437845.5997097,-1.134300708770752,-1.6658388576903285,-2.5263927618609827,2.311502142543457,-1.0167372862445276,0.20798425376415253
1708437845.6016533,-1.1342557668685913,-1.6658688984312953,-2.5263808409320276,2.311605377788208,-1.0167868773089808,0.2079961597919464
1708437845.603658,-1.1342557668685913,-1.6658150158324183,-2.526393000279562,2.3115383821674804,-1.0167210737811487,0.20795513689517975
1708437845.6056564,-1.134313702583313,-1.6658803425230921,-2.5263341108905237,2.311626358623169,-1.0167534987079065,0.20797237753868103
1708437845.6076446,-1.1343138217926025,-1.6658975086607875,-2.526376549397604,2.31158892690625,-1.016778294240133,0.2079353779554367
1708437845.6096787,-1.1342806816101074,-1.6658479175963343,-2.526376549397604,2.311560555095337,-1.016778294240133,0.2079917937517166
1708437845.611663,-1.134313702583313,-1.6658431492247523,-2.5263972918139856,2.311544104213379,-1.0167706648456019,0.20793110132217407
1708437845.613664,-1.1342601776123047,-1.6658522091307582,-2.5263221899615687,2.311560555095337,-1.016778294240133,0.20795086026191711
1708437845.615666,-1.1343138217926025,-1.6658803425230921,-2.5263477007495325,2.311597986812256,-1.016782585774557,0.20798322558403015
1708437845.617685,-1.1342675685882568,-1.6658927402892054,-2.5263598600970667,2.311547203654907,-1.0167577902423304,0.20793533325195312
1708437845.6196573,-1.1343019008636475,-1.6658364735045375,-2.5263221899615687,2.311518593425415,-1.016794506703512,0.20792236924171448
1708437845.621653,-1.1342718601226807,-1.6658364735045375,-2.526346270238058,2.311539574260376,-1.0167587439166468,0.2080080658197403
1708437845.6236567,-1.1342887878417969,-1.6658975086607875,-2.5263641516314905,2.3115648466297607,-1.0167902151690882,0.20799513161182404
1708437845.6256468,-1.134284496307373,-1.6658803425230921,-2.526350800191061,2.311544104213379,-1.0167458693133753,0.20797564089298248
1708437845.6276584,-1.1342931985855103,-1.6658841572203578,-2.5263686815844935,2.3115648466297607,-1.016778294240133,0.20796705782413483
1708437845.6296563,-1.134300708770752,-1.6658717594542445,-2.5263431707965296,2.311572476024292,-1.016782585774557,0.20792661607265472
1708437845.6316535,-1.1342601776123047,-1.6658603153624476,-2.5263643900500696,2.311584635371826,-1.0167577902423304,0.2079549878835678
1708437845.6336517,-1.1342676877975464,-1.6659304104247035,-2.5263643900500696,2.311527653331421,-1.0167577902423304,0.2080080509185791
1708437845.6357174,-1.1342233419418335,-1.6659180126585902,-2.5263341108905237,2.311548634166382,-1.0167868773089808,0.20795053243637085
1708437845.6376977,-1.1342644691467285,-1.6658803425230921,-2.5263431707965296,2.311544104213379,-1.016782585774557,0.2079755812883377
1708437845.6397016,-1.134284496307373,-1.6658717594542445,-2.5263341108905237,2.311511202449463,-1.0167296568499964,0.20795078575611115
1708437845.6416667,-1.134297490119934,-1.6658603153624476,-2.5263553301440638,2.3115648466297607,-1.0167534987079065,0.20799508690834045
1708437845.6436725,-1.1342887878417969,-1.6658479175963343,-2.526350800191061,2.311597986812256,-1.0167697111712855,0.20798325538635254
1708437845.6456816,-1.1342887878417969,-1.6659089527525843,-2.526376549397604,2.311485930080078,-1.0167816321002405,0.20797426998615265
1708437845.647676,-1.1342525482177734,-1.6658927402892054,-2.526372019444601,2.3115591245838623,-1.0167339483844202,0.20797033607959747
1708437845.6497252,-1.1342718601226807,-1.6659018001952113,-2.5263519922839563,2.311560555095337,-1.0167372862445276,0.20802028477191925
1708437845.6516662,-1.1343263387680054,-1.6658274135985316,-2.5263176600085657,2.3115381437489013,-1.0167740027057093,0.20798324048519135
1708437845.653698,-1.1342687606811523,-1.6658927402892054,-2.526350800191061,2.311535282725952,-1.0168231169330042,0.208007350564003
1708437845.6556914,-1.1342849731445312,-1.6658555469908656,-2.5263059774981897,2.311560555095337,-1.016782585774557,0.2080567628145218
1708437845.6576717,-1.1342718601226807,-1.6658388576903285,-2.5263312498675745,2.311563416118286,-1.0167492071734827,0.20799966156482697
1708437845.6597047,-1.1342719793319702,-1.6658522091307582,-2.5263643900500696,2.311560555095337,-1.0167577902423304,0.20805232226848602
1708437845.6616642,-1.1342933177947998,-1.6658522091307582,-2.5263386408435267,2.311544104213379,-1.0167534987079065,0.2080446034669876
1708437845.6636562,-1.1342763900756836,-1.6658803425230921,-2.526388470326559,2.311539574260376,-1.0167620817767542,0.20798175036907196
1708437845.6656942,-1.1342436075210571,-1.6658927402892054,-2.5263431707965296,2.311544104213379,-1.0167329947101038,0.20803561806678772
1708437845.6677098,-1.1342687606811523,-1.6658717594542445,-2.526313368474142,2.311560555095337,-1.0167449156390589,0.20805232226848602
1708437845.6696842,-1.1343224048614502,-1.6658851108946742,-2.5263386408435267,2.3115407663532714,-1.0167902151690882,0.20803117752075195
1708437845.6716688,-1.1342806816101074,-1.6658884487547816,-2.5263221899615687,2.311544104213379,-1.0167859236346644,0.20799843966960907
1708437845.673681,-1.134268879890442,-1.6658226452269496,-2.526376549397604,2.3115693765827636,-1.0167620817767542,0.2080850601196289
1708437845.6756842,-1.1342887878417969,-1.665906091729635,-2.5263176600085657,2.311560555095337,-1.0168193022357386,0.2080642431974411
1708437845.6777036,-1.1342763900756836,-1.6658555469908656,-2.5263147989856165,2.3115274149128417,-1.0167740027057093,0.20805969834327698
1708437845.6796873,-1.1342320442199707,-1.6658231220641078,-2.5263431707965296,2.3115529257008056,-1.0167415777789515,0.2080642431974411
1708437845.6816652,-1.1342406272888184,-1.6658555469908656,-2.5263267199145716,2.311539574260376,-1.0167534987079065,0.20805081725120544
1708437845.6836693,-1.1342320442199707,-1.6658760509886683,-2.5263386408435267,2.3115364748188476,-1.0167534987079065,0.20805232226848602
1708437845.685677,-1.1342525482177734,-1.6659213505186976,-2.5263267199145716,2.311511202449463,-1.0167740027057093,0.2081088125705719
1708437845.6876929,-1.1342525482177734,-1.6658803425230921,-2.5263431707965296,2.3115154939838867,-1.0167501608477991,0.20807163417339325
1708437845.6897104,-1.1342062950134277,-1.6658364735045375,-2.5263643900500696,2.3115245538898925,-1.016754452382223,0.20807163417339325
1708437845.6916926,-1.1342450380325317,-1.6658431492247523,-2.5263553301440638,2.311478300685547,-1.0167458693133753,0.20807886123657227
1708437845.693698,-1.134274959564209,-1.6659041843810023,-2.5263643900500696,2.311525984401367,-1.016754452382223,0.20805828273296356
1708437845.6956666,-1.1341923475265503,-1.665999551812643,-2.526346270238058,2.3114794927784423,-1.0167296568499964,0.2081119418144226
1708437845.6976776,-1.1342614889144897,-1.665936132470602,-2.5263267199145716,2.3114301401325683,-1.016738239918844,0.20808766782283783
1708437845.6996517,-1.1342259645462036,-1.6660052738585414,-2.526313130055563,2.3114020067402343,-1.0167253653155726,0.20809555053710938
1708437845.7016952,-1.1341959238052368,-1.6659747562804164,-2.5263477007495325,2.311452551479004,-1.01671010652651,0.20811931788921356
1708437845.7037258,-1.1341408491134644,-1.665992876092428,-2.5263598600970667,2.3113507467457275,-1.0167372862445276,0.2081524133682251
1708437845.705667,-1.1342095136642456,-1.6660453281798304,-2.5263312498675745,2.3113836485096435,-1.016782585774557,0.20812225341796875
1708437845.7076921,-1.1341590881347656,-1.6660362682738246,-2.5263267199145716,2.31136862813916,-1.0167220274554651,0.20810586214065552
1708437845.7097347,-1.1341590881347656,-1.6660157642760218,-2.526350800191061,2.311295433635376,-1.0167177359210413,0.20813003182411194
1708437845.711701,-1.1341562271118164,-1.6660720310606898,-2.5263598600970667,2.3112503725239257,-1.016726318989889,0.20817168056964874
1708437845.7136612,-1.1341323852539062,-1.6661011181273402,-2.5263341108905237,2.3112262922474365,-1.0167630354510706,0.20814640820026398
1708437845.715685,-1.1341323852539062,-1.666105409661764,-2.5263357798205774,2.3112801748463134,-1.0167587439166468,0.20817169547080994
1708437845.7176986,-1.134079098701477,-1.6661411724486292,-2.5263147989856165,2.311239643687866,-1.016754452382223,0.20821671187877655
1708437845.7196999,-1.1341041326522827,-1.6661340198912562,-2.5263810793506067,2.311194820994995,-1.0167458693133753,0.20817916095256805
1708437845.721667,-1.1340837478637695,-1.6661650143065394,-2.5263357798205774,2.31115905820813,-1.0167415777789515,0.20821070671081543
1708437845.723696,-1.1340718269348145,-1.6661983929076136,-2.5263643900500696,2.3111142355152587,-1.0167372862445276,0.20823180675506592
1708437845.7256725,-1.1340525150299072,-1.666192194024557,-2.5263312498675745,2.3111154276081542,-1.0167534987079065,0.2082228660583496
1708437845.7276666,-1.1340062618255615,-1.666192194024557,-2.5263267199145716,2.3110660749622802,-1.0167740027057093,0.2082061916589737
1708437845.7296584,-1.1340450048446655,-1.6662489376463832,-2.5263238588916224,2.3110391336628417,-1.016794506703512,0.20824670791625977
1708437845.7316523,-1.1339545249938965,-1.6662727795042933,-2.5263312498675745,2.3110195833393554,-1.0167458693133753,0.20826753973960876
1708437845.733677,-1.1338980197906494,-1.6662384472289027,-2.5263519922839563,2.311041756267212,-1.0167339483844202,0.2083110213279724
1708437845.7356777,-1.13388991355896,-1.6663338146605433,-2.5263565222369593,2.3109850126453857,-1.0167306105243128,0.20831546187400818
1708437845.7376459,-1.1338825225830078,-1.666328569451803,-2.5263312498675745,2.3109564024158935,-1.016726318989889,0.20839647948741913
1708437845.7396865,-1.1338553428649902,-1.6663595638670863,-2.5263598600970667,2.3108622270771484,-1.0167501608477991,0.20834994316101074
1708437845.7416902,-1.13383150100708,-1.6663357220091761,-2.5263357798205774,2.3108877378651123,-1.016677204762594,0.20840685069561005
1708437845.743695,-1.133804202079773,-1.6663404903807582,-2.5263312498675745,2.3108483987995605,-1.01671010652651,0.2084309160709381
1708437845.745678,-1.1336809396743774,-1.6663538418211878,-2.5263028780566614,2.3108081060596923,-1.0167220274554651,0.2084057331085205
1708437845.7476995,-1.1337016820907593,-1.666415353814596,-2.5263400713550013,2.310759945506714,-1.0167058149920862,0.20849202573299408
1708437845.749677,-1.133654236793518,-1.6663795910277308,-2.5263283888446253,2.3106748300739746,-1.0167620817767542,0.20849823951721191
1708437845.7516778,-1.1336190700531006,-1.66644348720693,-2.5263283888446253,2.3106552797504882,-1.0167501608477991,0.20851019024848938
1708437845.7536733,-1.1335163116455078,-1.666448255578512,-2.5262909571277063,2.31056992589917,-1.0167902151690882,0.20850414037704468
1708437845.7556596,-1.1334435939788818,-1.6665007076659144,-2.5263567606555384,2.310601158733032,-1.016766373311178,0.20859861373901367
1708437845.7576692,-1.133437156677246,-1.6664301357665003,-2.5263074080096644,2.310532255763672,-1.0167091528521937,0.20863580703735352
1708437845.7597482,-1.1334389448165894,-1.6665111980833949,-2.5263193289386194,2.3104962545582275,-1.0167706648456019,0.20861339569091797
1708437845.7616518,-1.1333407163619995,-1.6665393314757289,-2.5262909571277063,2.310398979777954,-1.016726318989889,0.20867474377155304
1708437845.7636578,-1.133309006690979,-1.666563173333639,-2.5262864271747034,2.3103181558796386,-1.0167220274554651,0.20864494144916534
1708437845.7657375,-1.133216381072998,-1.6665755710997523,-2.5263598600970667,2.3102821546741943,-1.0167296568499964,0.20872266590595245
1708437845.7676754,-1.1332098245620728,-1.6665994129576625,-2.5263238588916224,2.3102235037037353,-1.0167058149920862,0.20878401398658752
1708437845.7696767,-1.1331244707107544,-1.6666890583434046,-2.5262909571277063,2.3101605611988525,-1.0167220274554651,0.2087661325931549
1708437845.7716577,-1.1330609321594238,-1.666654726068014,-2.526344601308004,2.310100479716919,-1.0167425314532679,0.20882746577262878
1708437845.7736712,-1.1329538822174072,-1.6667567692198695,-2.5262940565692347,2.3100003439136962,-1.0167015234576624,0.20883052051067352
1708437845.7756455,-1.1328836679458618,-1.6667176685728968,-2.526344601308004,2.309964342708252,-1.0167468229876917,0.20887844264507294
1708437845.7776747,-1.1327439546585083,-1.6667877636351527,-2.5262866655932825,2.309842987651489,-1.0167306105243128,0.20886652171611786
1708437845.7796495,-1.1327086687088013,-1.6667825184264125,-2.5263119379626673,2.3098038870045166,-1.0166571776019495,0.20889027416706085
1708437845.7816672,-1.1326508522033691,-1.6668716869749964,-2.526344601308004,2.309682531947754,-1.0167143980609339,0.20897579193115234
1708437845.783673,-1.1325664520263672,-1.6668945751585902,-2.5263028780566614,2.30959860860791,-1.016677204762594,0.20897872745990753
1708437845.7857084,-1.1324864625930786,-1.6669141254820765,-2.5263193289386194,2.309586210841797,-1.0167058149920862,0.20902666449546814
1708437845.7876656,-1.1324065923690796,-1.6670214138426722,-2.5263193289386194,2.3094188409992675,-1.0167349020587366,0.20904302597045898
1708437845.789667,-1.1323390007019043,-1.667051454583639,-2.5263028780566614,2.3093570905872802,-1.0167306105243128,0.20907004177570343
1708437845.791648,-1.1321593523025513,-1.6670471630492152,-2.5262985865222376,2.3092567163654785,-1.0167058149920862,0.2091105729341507
1708437845.7936692,-1.1321135759353638,-1.6670996151366175,-2.5263312498675745,2.3090576368519287,-1.016698185597555,0.20913314819335938
1708437845.7956655,-1.1319793462753296,-1.6671396694579066,-2.5263312498675745,2.3090244966694335,-1.0167511145221155,0.20919862389564514
1708437845.7976506,-1.1319254636764526,-1.6671949825682582,-2.5263028780566614,2.3089491563984375,-1.0167587439166468,0.20921356976032257
1708437845.7996871,-1.1318211555480957,-1.6672960720457972,-2.5262954870807093,2.3087920385548095,-1.0167339483844202,0.2092287540435791
1708437845.801669,-1.1316949129104614,-1.6672164402403773,-2.5263357798205774,2.3086885648914794,-1.01671010652651,0.20927374064922333
1708437845.8036683,-1.1315792798995972,-1.6673747501769007,-2.5262895266162317,2.3085507589527587,-1.0167792479144495,0.20932459831237793
1708437845.805679,-1.1314785480499268,-1.6674300632872523,-2.5262654463397425,2.3084518152424316,-1.0167177359210413,0.20938150584697723
1708437845.8076487,-1.1313369274139404,-1.6674944363036097,-2.5263312498675745,2.3083483415791015,-1.0167220274554651,0.20945468544960022
1708437845.8096879,-1.1312272548675537,-1.6675216160216273,-2.526250425969259,2.3082193571278076,-1.0167058149920862,0.20946986973285675
1708437845.8116772,-1.131089448928833,-1.6676045856871546,-2.526328150426046,2.3080875116535644,-1.0167425314532679,0.20950880646705627
1708437845.8136947,-1.1309231519699097,-1.6676012478270472,-2.5262742678271692,2.3080171781727294,-1.0167458693133753,0.2095925211906433
1708437845.8156807,-1.1308331489562988,-1.6676889858641566,-2.5263400713550013,2.307856722468994,-1.0167587439166468,0.2096118927001953
1708437845.8176675,-1.1307049989700317,-1.6677748165526332,-2.5262866655932825,2.3077007967182617,-1.0167706648456019,0.20969732105731964
1708437845.8196585,-1.1305344104766846,-1.6678177318968714,-2.5262909571277063,2.3076047140308837,-1.016738239918844,0.20973332226276398
1708437845.8216727,-1.1303977966308594,-1.6679259739317835,-2.5262909571277063,2.3074490266987304,-1.0166929403888147,0.20982472598552704
1708437845.8236673,-1.130239725112915,-1.6679545841612757,-2.526332680379049,2.3073124128529052,-1.0167425314532679,0.20989757776260376
1708437845.8256466,-1.1301660537719727,-1.6680127582945765,-2.526316229497091,2.307140036220215,-1.0166643301593226,0.2099084109067917
1708437845.8276618,-1.1300268173217773,-1.668100973168844,-2.5263119379626673,2.3070084291645507,-1.0167134443866175,0.20997269451618195
1708437845.8297005,-1.1298397779464722,-1.6682192287840785,-2.5262909571277063,2.306819363231323,-1.0167058149920862,0.21004143357276917
1708437845.8316638,-1.1296913623809814,-1.668229719201559,-2.5263238588916224,2.3066934782215576,-1.0167058149920862,0.21012096107006073
1708437845.83369,-1.129577398300171,-1.6682926617064417,-2.5263147989856165,2.3065196710773925,-1.0167058149920862,0.2101074755191803
1708437845.835734,-1.1294487714767456,-1.6684285602965296,-2.5263147989856165,2.306405706996582,-1.0167015234576624,0.21019744873046875
1708437845.8376572,-1.1293144226074219,-1.668455263177389,-2.5262864271747034,2.3061751562305908,-1.0167177359210413,0.21028994023799896
1708437845.83968,-1.1291617155075073,-1.66859831432485,-2.526349131261007,2.3060685831257324,-1.0167620817767542,0.21032007038593292
1708437845.8416529,-1.1289972066879272,-1.6686321697630824,-2.526332680379049,2.305917187328003,-1.0167339483844202,0.21044425666332245
1708437845.8437293,-1.1288779973983765,-1.668758054772848,-2.5262909571277063,2.3057731825062255,-1.0167501608477991,0.21041886508464813
1708437845.8456635,-1.128722071647644,-1.6687876186766566,-2.5263028780566614,2.3055426317402343,-1.0167501608477991,0.21056126058101654
1708437845.8476543,-1.1285368204116821,-1.6688181362547816,-2.526337210332052,2.3054255682178955,-1.0167296568499964,0.21055817604064941
1708437845.8497205,-1.1283689737319946,-1.6689511738219203,-2.5263119379626673,2.305294914836548,-1.0167091528521937,0.2106761634349823
1708437845.8516514,-1.1282906532287598,-1.6690565548338832,-2.5263193289386194,2.3050643640705566,-1.0167372862445276,0.2107633352279663
1708437845.8536768,-1.1280897855758667,-1.6691233120360316,-2.5263028780566614,2.304880066508911,-1.0167415777789515,0.21080678701400757
1708437845.8556666,-1.1280149221420288,-1.6692191563048304,-2.5263238588916224,2.3047451215931396,-1.0167740027057093,0.21085917949676514
1708437845.8576667,-1.1277531385421753,-1.6693197689452113,-2.5263074080096644,2.304602547282837,-1.0167740027057093,0.21097537875175476
1708437845.8596995,-1.12762451171875,-1.6694079838194789,-2.5263312498675745,2.3044661718555908,-1.0167501608477991,0.21100693941116333
1708437845.8616397,-1.127507209777832,-1.6694919071593226,-2.5263477007495325,2.304241343135498,-1.0167048613177698,0.21108663082122803
1708437845.8636553,-1.1273144483566284,-1.6696087322630824,-2.5263732115374964,2.3041390615650634,-1.016766373311178,0.21117949485778809
1708437845.865673,-1.1271048784255981,-1.669659277001852,-2.5263357798205774,2.30393831312146,-1.016778294240133,0.2112303078174591
1708437845.8676732,-1.1270149946212769,-1.669729848901266,-2.526344601308004,2.3037704664417724,-1.0167501608477991,0.21128563582897186
1708437845.8696852,-1.1267865896224976,-1.6698299847044886,-2.5263147989856165,2.303614779109619,-1.0167329947101038,0.2113289088010788
1708437845.871653,-1.126625657081604,-1.6699453792967738,-2.5263312498675745,2.3034109312244873,-1.0167534987079065,0.21145027875900269
1708437845.873685,-1.1264342069625854,-1.6700173817076625,-2.5263357798205774,2.303172751063965,-1.0167859236346644,0.2115176022052765
1708437845.8757052,-1.1262370347976685,-1.6700755558409632,-2.5263147989856165,2.303067608470581,-1.0167859236346644,0.21161198616027832
1708437845.877694,-1.126085877418518,-1.6701966724791468,-2.5262776056872767,2.3028756815144042,-1.016806427632467,0.21168245375156403
1708437845.879708,-1.1258889436721802,-1.6702805958189906,-2.5263567606555384,2.3026835161396484,-1.0168221632586878,0.2117242068052292
1708437845.8816843,-1.1257963180541992,-1.6704212627806605,-2.5263147989856165,2.302462025279663,-1.0167697111712855,0.21180513501167297
1708437845.8836806,-1.1255674362182617,-1.6704889736571253,-2.5263553301440638,2.3023227888294677,-1.0167935530291956,0.21192634105682373
1708437845.8856766,-1.1253688335418701,-1.6706038914122523,-2.5264018217669886,2.30210988103833,-1.0167611281024378,0.2119593769311905
1708437845.8876781,-1.125270962715149,-1.6707116566100062,-2.5263312498675745,2.3019255834766845,-1.016756836568014,0.2120760828256607
1708437845.8896782,-1.1250207424163818,-1.67079557994985,-2.5263312498675745,2.3017546373554687,-1.0167773405658167,0.21211650967597961
1708437845.8916664,-1.1248409748077393,-1.6709314785399378,-2.5263221899615687,2.301595612163208,-1.0168426672564905,0.21223315596580505
1708437845.8937206,-1.1247191429138184,-1.6710697613158167,-2.5263477007495325,2.301363392467163,-1.0167978445636194,0.2122514247894287
1708437845.8956618,-1.1244690418243408,-1.671103139916891,-2.5263028780566614,2.301142855281494,-1.0168145338641565,0.21235613524913788
1708437845.8976924,-1.1243010759353638,-1.6712571583189906,-2.5263147989856165,2.3009554582783203,-1.0168665091144007,0.2124725580215454
1708437845.8997142,-1.1241580247879028,-1.6714021168150843,-2.5263267199145716,2.3007845121571044,-1.0168622175799769,0.21244880557060242
1708437845.9017222,-1.1239501237869263,-1.6714512310423792,-2.5263059774981897,2.3005522924610595,-1.016857926045553,0.21263298392295837
1708437845.9036834,-1.123789668083191,-1.6715766392149867,-2.5263519922839563,2.3003691869923095,-1.0168331305133265,0.21271243691444397
1708437845.905664,-1.1236093044281006,-1.67169251064443,-2.5263147989856165,2.300144596690796,-1.016869846974508,0.21279573440551758
1708437845.9076803,-1.123462438583374,-1.6717730961241664,-2.5263431707965296,2.299940510387085,-1.0168288389789026,0.21286338567733765
1708437845.9097016,-1.1232573986053467,-1.6718617878355921,-2.5263267199145716,2.2997891145893554,-1.0169103781329554,0.21292652189731598
1708437845.9116642,-1.123123288154602,-1.6720143757262171,-2.5263312498675745,2.2995316225239257,-1.016907040272848,0.21298636496067047
1708437845.9136825,-1.1228926181793213,-1.6721145115294398,-2.5262938181506556,2.299412890071533,-1.0168731848346155,0.2131030559539795
1708437845.915664,-1.1227012872695923,-1.6722270450987757,-2.5263102690326136,2.299283905620239,-1.0168731848346155,0.21313729882240295
1708437845.9176886,-1.1225091218948364,-1.6722928486266078,-2.5263972918139856,2.299069805736206,-1.0168731848346155,0.21330805122852325
1708437845.919688,-1.1223500967025757,-1.6723925075926722,-2.5263643900500696,2.2989184099384765,-1.0168569723712366,0.2133501023054123
1708437845.9216506,-1.1221652030944824,-1.6724721393980921,-2.5263477007495325,2.298663778895996,-1.016918961201803,0.21341733634471893
1708437845.923672,-1.1219528913497925,-1.6725660763182582,-2.5264137426959437,2.29850618421521,-1.0168898741351526,0.21350988745689392
1708437845.9256666,-1.1218236684799194,-1.672715803185934,-2.526362959538595,2.2983128267475585,-1.0168569723712366,0.21360906958580017
1708437845.9276495,-1.121652364730835,-1.672824045220846,-2.526367489491598,2.2980879980274658,-1.0168941656695765,0.21370939910411835
1708437845.929669,-1.1214399337768555,-1.6729699573912562,-2.5263553301440638,2.297970934505127,-1.0169180075274866,0.21376477181911469
1708437845.9316988,-1.121234655380249,-1.6730205021300257,-2.5263553301440638,2.297713204021118,-1.0169385115252894,0.21387255191802979
1708437845.9336607,-1.1210424900054932,-1.6731745205321253,-2.5263221899615687,2.2975093561359863,-1.0169137159930628,0.21393240988254547
1708437845.935687,-1.1208293437957764,-1.6731864414610804,-2.5263267199145716,2.2972847658344726,-1.01689321199526,0.21398329734802246
1708437845.9376907,-1.1206732988357544,-1.6733361683287562,-2.5263176600085657,2.297051115626953,-1.016909424458639,0.21407608687877655
1708437845.939688,-1.1204769611358643,-1.6734315357603968,-2.5263477007495325,2.296926184291504,-1.0169299284564417,0.2141467034816742
1708437845.941658,-1.1203633546829224,-1.6735035381712855,-2.5263312498675745,2.296804590816162,-1.0169580618487757,0.21425867080688477
1708437845.9437108,-1.1201591491699219,-1.6736232242979945,-2.5263312498675745,2.2965666490742187,-1.016881291066305,0.21433962881565094
1708437845.947722,-1.1198399066925049,-1.6738320789732875,-2.5263689200030726,2.296276016826294,-1.0169342199908655,0.21454018354415894
1708437845.9497232,-1.119687795639038,-1.6738535366454066,-2.5263386408435267,2.296079083079956,-1.0169170538531702,0.21455064415931702
1708437845.95169,-1.119457483291626,-1.6739946804442347,-2.5263386408435267,2.295914812678955,-1.0169332663165491,0.214649498462677
1708437845.953689,-1.1193147897720337,-1.6740037403502406,-2.526388470326559,2.2957345682331542,-1.0169203917132776,0.21480068564414978
1708437845.9556856,-1.119154453277588,-1.6741162739195765,-2.5263431707965296,2.2955843645283203,-1.016960922871725,0.2148144543170929
1708437845.9576714,-1.1189793348312378,-1.6741625271239222,-2.526313368474142,2.2953719335743408,-1.0169780890094202,0.21491150557994843
1708437845.9596999,-1.1188398599624634,-1.674296041528219,-2.5263221899615687,2.295208616847656,-1.0170376936541956,0.2150610387325287
1708437845.9616895,-1.1186456680297852,-1.6744047604002894,-2.526376549397604,2.2949985700794677,-1.0170300642596644,0.21505829691886902
1708437845.9636788,-1.1185024976730347,-1.6744605503477992,-2.526376549397604,2.2948152261921386,-1.0170138517962855,0.21519458293914795
1708437845.9656694,-1.1183973550796509,-1.674610277215475,-2.526372019444601,2.2947162824818115,-1.0169766584979456,0.21526780724525452
1708437845.9677234,-1.1182154417037964,-1.6746241054930628,-2.5263477007495325,2.294499559993408,-1.0169890562640589,0.21537970006465912
1708437845.9696794,-1.1180603504180908,-1.674737115899557,-2.526372019444601,2.2943734365650634,-1.0169523398028772,0.215444415807724
1708437845.9716463,-1.1178758144378662,-1.6748243770995082,-2.526400152836935,2.294222040767334,-1.0170171896563929,0.21549971401691437
1708437845.973646,-1.117781162261963,-1.6749583683409632,-2.526372019444601,2.2940046030231933,-1.0169890562640589,0.21555833518505096
1708437845.975687,-1.1176141500473022,-1.6750322781004847,-2.5263298193561,2.293877287501953,-1.0170214811908167,0.21566730737686157
1708437845.9776976,-1.117470145225525,-1.6750875912108363,-2.526379410420553,2.2937301832386474,-1.0169976393329065,0.2157796323299408
1708437845.979711,-1.1172486543655396,-1.6752087078490199,-2.526337448750631,2.293508215541504,-1.0170462767230433,0.21582627296447754
1708437845.9816601,-1.1171404123306274,-1.675241609612936,-2.52637488046755,2.2933525282093505,-1.017010513936178,0.21587717533111572
1708437845.9836547,-1.1170424222946167,-1.6753388843932093,-2.526346270238058,2.2932090002247314,-1.0170496145831507,0.21595217287540436
1708437845.9856827,-1.1168216466903687,-1.6754199467101039,-2.526383940373556,2.293085737819336,-1.017041031514303,0.21607007086277008
1708437845.9877238,-1.1167012453079224,-1.675457616845602,-2.526412312184469,2.2929436403461914,-1.0170334021197718,0.21611198782920837
1708437845.9897213,-1.1165779829025269,-1.6755925617613734,-2.526416603718893,2.292773647899292,-1.017057243977682,0.21619145572185516
1708437845.9916573,-1.1164464950561523,-1.6756636104979457,-2.526407782231466,2.2926315504261474,-1.017090145741598,0.2162933051586151
1708437845.993657,-1.1163185834884644,-1.6757685146727503,-2.526403252278463,2.2924205499836425,-1.0170987288104456,0.2163650095462799
1708437845.995662,-1.1161952018737793,-1.6757899723448695,-2.526428524647848,2.2922941881367187,-1.017041031514303,0.21642336249351501
1708437845.997675,-1.1160424947738647,-1.675878187219137,-2.526391331349508,2.2921506601520996,-1.0170944372760218,0.21651920676231384
1708437845.9997144,-1.1159272193908691,-1.6759168110289515,-2.526386801396505,2.292043848628662,-1.0170734564410608,0.2166823446750641
1708437846.0016754,-1.1157985925674438,-1.675993104974264,-2.526403252278463,2.291895552272461,-1.0170615355121058,0.21677058935165405
1708437846.00366,-1.1156792640686035,-1.6761027775206507,-2.5264318625079554,2.291771336192749,-1.0170539061175745,0.2168079912662506
1708437846.0056539,-1.115572452545166,-1.6761371097960414,-2.5264106432544153,2.2916228014179687,-1.017057243977682,0.21693241596221924
1708437846.0076625,-1.115390658378601,-1.6763044796385707,-2.5264363924609583,2.2915002542683105,-1.017052952443258,0.2170000672340393
1708437846.0097067,-1.1153115034103394,-1.6762687168517054,-2.5264514128314417,2.291396065349243,-1.0170648733722132,0.21708333492279053
1708437846.0116897,-1.1151632070541382,-1.676340719262594,-2.5264812151538294,2.291276140803955,-1.017052952443258,0.21715542674064636
1708437846.013643,-1.115011215209961,-1.6763555012144984,-2.5264483133899134,2.291106863612793,-1.017069164906637,0.21723489463329315
1708437846.0157025,-1.1149282455444336,-1.6764728031554164,-2.526403252278463,2.291015549296997,-1.017069164906637,0.2173098921775818
1708437846.0176506,-1.1147444248199463,-1.6765247784056605,-2.5264437834369105,2.290855808848999,-1.0170815626727503,0.21742653846740723
1708437846.0196764,-1.1146219968795776,-1.6766134701170863,-2.5264437834369105,2.290743036861084,-1.0170815626727503,0.2175343632698059
1708437846.0216465,-1.1145179271697998,-1.6766845188536585,-2.5264182726489466,2.2906719881245117,-1.017052952443258,0.21759705245494843
1708437846.0236816,-1.1143659353256226,-1.676727911035055,-2.5264437834369105,2.2905029493519287,-1.0170486609088343,0.21769294142723083
1708437846.0256522,-1.1143196821212769,-1.6768256626524867,-2.5264888445483606,2.2903458315083007,-1.0171058813678187,0.21777239441871643
1708437846.0276496,-1.1142796277999878,-1.6768690548338832,-2.5264723936664026,2.2902838426777343,-1.0170772711383265,0.21787244081497192
1708437846.0296738,-1.114168643951416,-1.6769195995726527,-2.526487175618307,2.290194197291992,-1.0170195738421839,0.2180297076702118
1708437846.0316594,-1.114048957824707,-1.6769587002196253,-2.5264256636248987,2.2900938230701904,-1.0170858542071741,0.21806414425373077
1708437846.0336583,-1.1139240264892578,-1.6769992313780726,-2.52649170557131,2.2899698454090576,-1.0170815626727503,0.21818383038043976
1708437846.0356867,-1.1138410568237305,-1.6771160564818324,-2.526454273854391,2.289832277888916,-1.017057243977682,0.21835778653621674
1708437846.0376773,-1.1136605739593506,-1.677138467828268,-2.526416842137472,2.2897516924091796,-1.017052952443258,0.21837547421455383
1708437846.0397203,-1.1135945320129395,-1.6771699390807093,-2.526475254689352,2.2896243768879394,-1.0170605818377894,0.21850258111953735
1708437846.0417235,-1.1135603189468384,-1.6772881946959437,-2.526449743901388,2.289499207133911,-1.0170815626727503,0.21864356100559235
1708437846.0437021,-1.1134401559829712,-1.6772738895811976,-2.526458803807394,2.289421959514282,-1.017069164906637,0.21875156462192535
1708437846.0457423,-1.1133263111114502,-1.6773587665953578,-2.5264678637133997,2.28932969152417,-1.0170400778399866,0.21886639297008514
1708437846.0476701,-1.113250732421875,-1.677434583703512,-2.5264559427844446,2.2891928392597656,-1.0171058813678187,0.2190207988023758
1708437846.049737,-1.1131341457366943,-1.6775185070433558,-2.5264392534839075,2.289076490993164,-1.0170772711383265,0.21913614869117737
1708437846.0516832,-1.1131129264831543,-1.6775099239745082,-2.5264347235309046,2.2890333372303466,-1.0170844236956995,0.2193261831998825
1708437846.0536845,-1.1129543781280518,-1.6775785885252894,-2.526479784642355,2.288916750545166,-1.0170486609088343,0.21937403082847595
1708437846.0556765,-1.1128913164138794,-1.6776462994017542,-2.5264678637133997,2.288858099574707,-1.0170734564410608,0.21951048076152802
1708437846.0576718,-1.1128275394439697,-1.6776567898192347,-2.5264843145953577,2.288778706187866,-1.0170605818377894,0.21968847513198853
1708437846.0596743,-1.1126782894134521,-1.6777225933470667,-2.5264559427844446,2.2887162405201416,-1.0171015898333948,0.2197454869747162
1708437846.0616612,-1.1126649379730225,-1.6777869663634242,-2.526421372090475,2.288585587138794,-1.0170815626727503,0.21991457045078278
1708437846.0636842,-1.1125504970550537,-1.677817007104391,-2.5265005270587366,2.28850166379895,-1.017069164906637,0.22004173696041107
1708437846.0656664,-1.1124593019485474,-1.6778036556639613,-2.526421372090475,2.288398428554199,-1.0170944372760218,0.22015269100666046
1708437846.0677066,-1.1124012470245361,-1.6778842411436976,-2.5264678637133997,2.288264675731323,-1.0170777479754847,0.22030100226402283
1708437846.069687,-1.1122552156448364,-1.6779738865294398,-2.5264468828784388,2.2881943422504882,-1.0170281569110315,0.2205103486776352
1708437846.0716784,-1.112228512763977,-1.6780053577818812,-2.5264723936664026,2.2881342607685546,-1.017069164906637,0.22065870463848114
1708437846.0736818,-1.1121445894241333,-1.6780368290343226,-2.526496235524313,2.2880636888691406,-1.017052952443258,0.22074851393699646
1708437846.075715,-1.1120798587799072,-1.6780816517271937,-2.5264514128314417,2.2879833418079834,-1.017057243977682,0.22088024020195007
1708437846.0777166,-1.1120548248291016,-1.6781536541380824,-2.5264559427844446,2.287886782283447,-1.0170539061175745,0.22104302048683167
1708437846.0796847,-1.111961841583252,-1.6781732044615687,-2.5264843145953577,2.287799044246338,-1.0170658270465296,0.2212541699409485
1708437846.0816698,-1.1118229627609253,-1.6782251797118128,-2.5264514128314417,2.2877673345753173,-1.0170376936541956,0.22140824794769287
1708437846.0837066,-1.1118128299713135,-1.6782571278014125,-2.5264392534839075,2.2876743513294677,-1.0170496145831507,0.2215268462896347
1708437846.0856922,-1.1117035150527954,-1.6782971821227015,-2.5264514128314417,2.287606878871582,-1.0170615355121058,0.22171702980995178
1708437846.0877092,-1.1116522550582886,-1.6783319912352503,-2.5264139811145228,2.2875394064136962,-1.0170257727252405,0.2218754142522812
1708437846.0896814,-1.1115928888320923,-1.6783796749510707,-2.5264256636248987,2.2874628740498046,-1.0169966856585901,0.22202253341674805
1708437846.0916865,-1.1115164756774902,-1.6783868275084437,-2.5264678637133997,2.2873803812214355,-1.0170214811908167,0.222214013338089
1708437846.093692,-1.111427903175354,-1.678434511224264,-2.5264347235309046,2.2873143392750244,-1.0170453230487269,0.22241459786891937
1708437846.0956597,-1.1113544702529907,-1.6785203419127406,-2.5264106432544153,2.2872065740772705,-1.0169890562640589,0.2226136177778244
1708437846.0977151,-1.1113004684448242,-1.6785303554930628,-2.5264363924609583,2.287196322078369,-1.0170095602618616,0.2228439450263977
1708437846.0997124,-1.111232876777649,-1.6785804233946742,-2.526436154042379,2.2870825964161376,-1.016989533101217,0.2230595499277115
1708437846.1016757,-1.111196517944336,-1.6786495647826136,-2.5263987223254603,2.287031336421631,-1.0169480482684534,0.2231484055519104
1708437846.1036787,-1.111141562461853,-1.678664346734518,-2.5264106432544153,2.2869793611713867,-1.0170138517962855,0.22337298095226288
1708437846.105659,-1.1110695600509644,-1.678657671014303,-2.5264318625079554,2.286919279689453,-1.0169451872455042,0.22356416285037994
1708437846.1076677,-1.1110501289367676,-1.6786986790099085,-2.5264318625079554,2.286846323604248,-1.0169780890094202,0.22375886142253876
1708437846.1096575,-1.1109647750854492,-1.6787973843016566,-2.526403252278463,2.286775990123413,-1.016982380543844,0.22400866448879242
1708437846.1116683,-1.1109017133712769,-1.6788002453246058,-2.5263941923724573,2.2866906362720947,-1.0168846289264124,0.22419176995754242
1708437846.1136665,-1.1108698844909668,-1.6787573299803675,-2.5263822714435022,2.2866594034382324,-1.0169537703143519,0.22437867522239685
1708437846.1156774,-1.1107726097106934,-1.6788107357420863,-2.5263825098620813,2.2865874010273437,-1.0168889204608362,0.22463619709014893
1708437846.1176836,-1.1107786893844604,-1.6788956127562464,-2.526452604924337,2.2865680891224365,-1.0169418493853968,0.22485019266605377
1708437846.1196625,-1.1106603145599365,-1.678943773309225,-2.526419703160421,2.2864722448536376,-1.0168769995318812,0.22508534789085388
1708437846.1216562,-1.110616683959961,-1.678922792474264,-2.5264106432544153,2.286420984859131,-1.0168774763690394,0.22529810667037964
1708437846.1236753,-1.1105518341064453,-1.6789590320982875,-2.526407782231466,2.286383791560791,-1.0168941656695765,0.22551198303699493
1708437846.1256633,-1.1105327606201172,-1.6789995632567347,-2.526386801396505,2.286313219661377,-1.0168655554400843,0.2258230745792389
1708437846.1276596,-1.110480546951294,-1.678995271722311,-2.526403252278463,2.2862774568745117,-1.0168612639056605,0.22597889602184296
1708437846.1296659,-1.1104159355163574,-1.6790386639037074,-2.5263660589801233,2.2862247663685302,-1.0168049971209925,0.2263098508119583
1708437846.1316617,-1.1104100942611694,-1.6790782413878382,-2.526346270238058,2.28617708265271,-1.016817871724264,0.22651928663253784
