Eg3-git/Classifiers/Data Collection/u6/u6abc5_ur3e_joint_states.csv
time,elbow_joint,shoulder_lift_joint,shoulder_pan_joint,wrist_1_joint,wrist_2_joint,wrist_3_joint
1708437885.8658874,-1.1041074991226196,-1.6823598347105921,-2.526428763066427,2.2796293932148437,-1.0169809500323694,0.16268451511859894
1708437885.867894,-1.1041492223739624,-1.6823555431761683,-2.5263941923724573,2.2796894746967773,-1.0169852415667933,0.1626845896244049
1708437885.870011,-1.1041357517242432,-1.682335992852682,-2.526412312184469,2.279730721110962,-1.0169203917132776,0.1626715511083603
1708437885.8719041,-1.1041611433029175,-1.6823274097838343,-2.526386801396505,2.279698057765625,-1.0169695059405726,0.16266393661499023
1708437885.8739457,-1.1041150093078613,-1.6823598347105921,-2.5263851324664515,2.2797252374836425,-1.0169537703143519,0.1626715511083603
1708437885.8759465,-1.1041357517242432,-1.6823035679259242,-2.5264061133014124,2.2797457414814453,-1.0169537703143519,0.16268350183963776
1708437885.8778882,-1.104156732559204,-1.6823274097838343,-2.526419703160421,2.2797371584125976,-1.0170024077044886,0.16271699965000153
1708437885.8798954,-1.1041655540466309,-1.682286878625387,-2.5264650026904505,2.2797116476246337,-1.0169742743121546,0.16268010437488556
1708437885.8818884,-1.1041476726531982,-1.6823226414122523,-2.52637488046755,2.2798592287250976,-1.016982380543844,0.16270403563976288
1708437885.8838763,-1.1041945219039917,-1.6822706661620082,-2.5264061133014124,2.279805822963379,-1.016961399708883,0.16265103220939636
1708437885.8859122,-1.1041686534881592,-1.6823169193663539,-2.5263822714435022,2.279751940364502,-1.0169366041766565,0.16272906959056854
1708437885.887895,-1.104185700416565,-1.6823450527586878,-2.5264151732074183,2.27981345235791,-1.0169780890094202,0.16271260380744934
1708437885.8898847,-1.1041594743728638,-1.6822825870909632,-2.5263732115374964,2.27981345235791,-1.0170019308673304,0.1626758575439453
1708437885.8918946,-1.104209303855896,-1.6823107204832972,-2.526403252278463,2.2798265653797607,-1.0169981161700647,0.1626758724451065
1708437885.8939018,-1.104192852973938,-1.6823121509947718,-2.526428763066427,2.279810352916382,-1.016993824635641,0.16262252628803253
1708437885.8958995,-1.10419762134552,-1.6823350391783656,-2.5264151732074183,2.279801531428955,-1.0169451872455042,0.16268011927604675
1708437885.8978815,-1.1041765213012695,-1.6823064289488734,-2.5264528433429163,2.2797896105,-1.016961399708883,0.16264306008815765
1708437885.8998623,-1.1041839122772217,-1.6823107204832972,-2.5263987223254603,2.279797239894531,-1.0169485251056116,0.1627040058374405
1708437885.901866,-1.1042122840881348,-1.6823598347105921,-2.5263941923724573,2.279829664821289,-1.016961399708883,0.1626063883304596
1708437885.9038658,-1.104170560836792,-1.682324071923727,-2.526424233113424,2.279780789012573,-1.0169537703143519,0.1626301109790802
1708437885.905866,-1.1042033433914185,-1.6823274097838343,-2.526386801396505,2.2798265653797607,-1.0169737974749964,0.16272489726543427
1708437885.9078743,-1.1042152643203735,-1.682366510430807,-2.5264228026019495,2.279801531428955,-1.0169571081744593,0.1626877784729004
1708437885.9098961,-1.1041913032531738,-1.682319780389303,-2.526428763066427,2.2798265653797607,-1.016961399708883,0.16265957057476044
1708437885.9118817,-1.1041914224624634,-1.6823140583434046,-2.5263987223254603,2.279883785838745,-1.0169695059405726,0.1626758724451065
1708437885.913923,-1.1042450666427612,-1.682291646996969,-2.5263822714435022,2.279817982310913,-1.016961399708883,0.16264304518699646
1708437885.9159253,-1.1042152643203735,-1.682291646996969,-2.5264318625079554,2.2798210817524414,-1.016961399708883,0.16269207000732422
1708437885.9179225,-1.104236125946045,-1.682324071923727,-2.5263941923724573,2.279879255885742,-1.016961399708883,0.162655308842659
1708437885.9198885,-1.1042033433914185,-1.682315012017721,-2.5263987223254603,2.2798208433338623,-1.016982380543844,0.16268351674079895
1708437885.921905,-1.104236125946045,-1.6823049984373988,-2.526403252278463,2.279825373286865,-1.0169366041766565,0.1627325415611267
1708437885.9239042,-1.1042152643203735,-1.682319780389303,-2.526353899632589,2.279841585750244,-1.0169537703143519,0.1626388132572174
1708437885.925924,-1.1042615175247192,-1.6823493442931117,-2.5264318625079554,2.279850407237671,-1.0169289747821253,0.16264739632606506
1708437885.9278872,-1.104252576828003,-1.6823035679259242,-2.5264228026019495,2.2798003393360595,-1.016949478779928,0.16268885135650635
1708437885.9299061,-1.1041896343231201,-1.682315012017721,-2.5263822714435022,2.279891176814697,-1.016961399708883,0.16268348693847656
1708437885.9318805,-1.1042388677597046,-1.682279726068014,-2.5264106432544153,2.279808922404907,-1.016961399708883,0.16266830265522003
1708437885.9338737,-1.1042225360870361,-1.6823331318297328,-2.526395861302511,2.2798942762562255,-1.016993824635641,0.1626715511083603
1708437885.9358823,-1.1042269468307495,-1.682340761224264,-2.526386801396505,2.279853506679199,-1.016949478779928,0.1626877784729004
1708437885.9378638,-1.1042723655700684,-1.682295938531393,-2.5264409224139612,2.2798492151447753,-1.0169571081744593,0.16269639134407043
1708437885.9398794,-1.1042815446853638,-1.682315012017721,-2.5263822714435022,2.2798735338398437,-1.016982380543844,0.16270828247070312
1708437885.941856,-1.1042932271957397,-1.6823364696898402,-2.526407782231466,2.2798823553272705,-1.0169981161700647,0.1627083122730255
1708437885.9438775,-1.104210615158081,-1.6823121509947718,-2.5263822714435022,2.2798988062092285,-1.0169408957110804,0.16266722977161407
1708437885.9458706,-1.1042978763580322,-1.6823035679259242,-2.526428763066427,2.2798942762562255,-1.016949478779928,0.16270403563976288
1708437885.9478521,-1.1042299270629883,-1.682324071923727,-2.5263822714435022,2.2798690038868408,-1.0169780890094202,0.16268014907836914
1708437885.9498699,-1.1042842864990234,-1.682328840295309,-2.52637488046755,2.2798825937458496,-1.016965691243307,0.16264310479164124
1708437885.9519064,-1.104263424873352,-1.682291646996969,-2.526353899632589,2.2798690038868408,-1.0169289747821253,0.16264738142490387
1708437885.9539225,-1.104216456413269,-1.6823493442931117,-2.526386801396505,2.279901905650757,-1.016937557850973,0.16264739632606506
1708437885.955894,-1.1042888164520264,-1.6823002300658167,-2.526407782231466,2.279897375697754,-1.0169742743121546,0.1627083271741867
1708437885.9578824,-1.1042872667312622,-1.6823364696898402,-2.5264409224139612,2.279935761088989,-1.0169332663165491,0.16268450021743774
1708437885.9598699,-1.1043663024902344,-1.682319780389303,-2.5264151732074183,2.2799135881611328,-1.0169537703143519,0.16268014907836914
1708437885.961864,-1.104357361793518,-1.682324071923727,-2.5263987223254603,2.2799388605305175,-1.016961399708883,0.1626344621181488
1708437885.963886,-1.1042991876602173,-1.6823398075499476,-2.5263615290271204,2.279864712352417,-1.0169289747821253,0.16264310479164124
1708437885.9658816,-1.1043200492858887,-1.682291646996969,-2.526407782231466,2.279857321376465,-1.0169737974749964,0.16267584264278412
1708437885.9678748,-1.104345440864563,-1.682324071923727,-2.5264151732074183,2.2799343305775146,-1.0169203917132776,0.16267156600952148
1708437885.9699247,-1.1043064594268799,-1.6823035679259242,-2.5263899008380335,2.2798897463032226,-1.0169127623187464,0.16264739632606506
1708437885.9718752,-1.1043319702148438,-1.682307859460348,-2.526407782231466,2.27989308416333,-1.0169742743121546,0.16266393661499023
1708437885.9738681,-1.1043319702148438,-1.682307859460348,-2.5264151732074183,2.2799300390430908,-1.0169289747821253,0.16262689232826233
1708437885.9758637,-1.10434091091156,-1.682335992852682,-2.5263822714435022,2.279941959972046,-1.016949478779928,0.16268014907836914
1708437885.9778838,-1.1043744087219238,-1.6823154888548792,-2.5264363924609583,2.2799343305775146,-1.016993824635641,0.16268453001976013
1708437885.9799304,-1.1042975187301636,-1.6823226414122523,-2.5263987223254603,2.27989308416333,-1.016961399708883,0.1626758575439453
1708437885.9818668,-1.1043528318405151,-1.6823440990843714,-2.526412312184469,2.279897375697754,-1.0169299284564417,0.16269207000732422
1708437885.983885,-1.1043528318405151,-1.682335992852682,-2.526386801396505,2.2799343305775146,-1.0169537703143519,0.16264238953590393
1708437885.9858668,-1.1043438911437988,-1.682324071923727,-2.526424233113424,2.279897375697754,-1.0169332663165491,0.16270507872104645
1708437885.987874,-1.104322910308838,-1.682307859460348,-2.5264528433429163,2.27991692602124,-1.0169084707843226,0.16267158091068268
1708437885.989882,-1.1043907403945923,-1.6822825870909632,-2.526424233113424,2.279897375697754,-1.0169699827777308,0.16270074248313904
1708437885.991899,-1.1043020486831665,-1.682324071923727,-2.526403252278463,2.279892845744751,-1.0169332663165491,0.16263452172279358
1708437885.9938986,-1.104356288909912,-1.682335992852682,-2.526370350514547,2.279945059413574,-1.016961399708883,0.16266831755638123
1708437885.995883,-1.1043438911437988,-1.682307859460348,-2.5264318625079554,2.27989308416333,-1.0169418493853968,0.16271695494651794
1708437885.9978814,-1.1043890714645386,-1.682307859460348,-2.5264151732074183,2.2799462515064697,-1.0169451872455042,0.1626063883304596
1708437885.9998598,-1.1043981313705444,-1.682319780389303,-2.526353899632589,2.2799431520649414,-1.0169408957110804,0.16268882155418396
1708437886.0018651,-1.104318380355835,-1.6823121509947718,-2.5263822714435022,2.279905005092285,-1.0170062224017542,0.1626388132572174
1708437886.0038931,-1.1043392419815063,-1.682328840295309,-2.5263777414904993,2.2799462515064697,-1.0169699827777308,0.16268882155418396
1708437886.005883,-1.104356288909912,-1.682295938531393,-2.526424233113424,2.279949589366577,-1.0169332663165491,0.1627049595117569
1708437886.0079248,-1.1043319702148438,-1.6823450527586878,-2.526395861302511,2.279900475139282,-1.0169451872455042,0.1626301407814026
1708437886.009895,-1.1043227910995483,-1.682291646996969,-2.5263658205615442,2.27989308416333,-1.0169084707843226,0.1626758575439453
1708437886.0118902,-1.1043155193328857,-1.6822840176024378,-2.526424233113424,2.2799507814594726,-1.0169289747821253,0.16273778676986694
1708437886.0139306,-1.1043682098388672,-1.6823035679259242,-2.5264061133014124,2.27989308416333,-1.016909424458639,0.16269633173942566
1708437886.0159,-1.104386329650879,-1.682286878625387,-2.526419703160421,2.279941959972046,-1.016949478779928,0.16268014907836914
1708437886.0178914,-1.1043438911437988,-1.6822987995543421,-2.5263405481921595,2.2799619871326904,-1.0170066992389124,0.16266289353370667
1708437886.019879,-1.104393720626831,-1.6822663746275843,-2.5264363924609583,2.2798589903065185,-1.0169299284564417,0.16266396641731262
1708437886.0218732,-1.1043757200241089,-1.6823708019652308,-2.526419703160421,2.279916687602661,-1.0169127623187464,0.1627083420753479
1708437886.023887,-1.1044055223464966,-1.682295938531393,-2.526403252278463,2.279897375697754,-1.0169623533831995,0.16269204020500183
1708437886.025915,-1.1043428182601929,-1.682324071923727,-2.5264318625079554,2.2799624639698486,-1.0169127623187464,0.16270823776721954
1708437886.0279045,-1.10433030128479,-1.6823379002013148,-2.5264363924609583,2.279925509090088,-1.0169451872455042,0.16268882155418396
1708437886.029933,-1.1043757200241089,-1.6823002300658167,-2.5264106432544153,2.279905005092285,-1.016965691243307,0.1626596450805664
1708437886.031865,-1.1043517589569092,-1.682307859460348,-2.526403252278463,2.279905005092285,-1.0169571081744593,0.16261932253837585
1708437886.0338666,-1.1043682098388672,-1.682324071923727,-2.5263658205615442,2.279953880901001,-1.0169537703143519,0.16266833245754242
1708437886.0358913,-1.1043682098388672,-1.6823107204832972,-2.526412312184469,2.279916687602661,-1.0169451872455042,0.16265179216861725
1708437886.0378969,-1.1043428182601929,-1.682328840295309,-2.5264528433429163,2.2798797327229003,-1.016965691243307,0.16265179216861725
1708437886.0398996,-1.104387640953064,-1.682335992852682,-2.526419703160421,2.279987021083496,-1.0169699827777308,0.16266393661499023
1708437886.0418549,-1.1043920516967773,-1.6823274097838343,-2.5264151732074183,2.279933138484619,-1.0169742743121546,0.16266728937625885
1708437886.043872,-1.1043756008148193,-1.682340761224264,-2.5263479391681116,2.279949589366577,-1.016989533101217,0.16264311969280243
1708437886.04586,-1.1043845415115356,-1.682295938531393,-2.5264151732074183,2.279904766673706,-1.016961399708883,0.16266395151615143
1708437886.0478654,-1.1043846607208252,-1.6823002300658167,-2.526419703160421,2.279945059413574,-1.016989533101217,0.16267259418964386
1708437886.049871,-1.1044039726257324,-1.6822825870909632,-2.5263987223254603,2.2799619871326904,-1.0169408957110804,0.16268013417720795
1708437886.0518591,-1.1043182611465454,-1.6823169193663539,-2.5263941923724573,2.279949350947998,-1.0169528166400355,0.16271252930164337
1708437886.053858,-1.1043890714645386,-1.682274957696432,-2.5264228026019495,2.279979630107544,-1.0169537703143519,0.1626628041267395
1708437886.0558763,-1.104325771331787,-1.682335992852682,-2.5264273325549524,2.2799288469501953,-1.0169699827777308,0.16265180706977844
1708437886.0579076,-1.1044009923934937,-1.6823035679259242,-2.5264015833484095,2.2799581724354248,-1.017010513936178,0.16267260909080505
1708437886.0599072,-1.104421854019165,-1.6823779545226039,-2.5264318625079554,2.2798961836048584,-1.016961399708883,0.1626920849084854
1708437886.0619085,-1.1043801307678223,-1.6823121509947718,-2.5264151732074183,2.2799123960682373,-1.0169332663165491,0.16270074248313904
1708437886.0638585,-1.1043438911437988,-1.6822530231871546,-2.526424233113424,2.279933138484619,-1.0169366041766565,0.16267260909080505
1708437886.0658762,-1.104318380355835,-1.6822840176024378,-2.526407782231466,2.2798961836048584,-1.016965691243307,0.16267259418964386
1708437886.0679293,-1.1043964624404907,-1.682295938531393,-2.5264409224139612,2.279945059413574,-1.0169408957110804,0.1626729667186737
1708437886.069918,-1.1043473482131958,-1.6823121509947718,-2.526424233113424,2.2800063329884033,-1.016993824635641,0.1625903695821762
1708437886.0718765,-1.1043592691421509,-1.682324071923727,-2.5264106432544153,2.279975100154541,-1.0169695059405726,0.1626848578453064
1708437886.0738885,-1.104365348815918,-1.6823531589903773,-2.526407782231466,2.27991692602124,-1.0170062224017542,0.16262643039226532
1708437886.0758703,-1.1043965816497803,-1.6823121509947718,-2.5264151732074183,2.2799405294605712,-1.0169780890094202,0.1626759171485901
1708437886.0779033,-1.1044039726257324,-1.6823035679259242,-2.526419703160421,2.279945059413574,-1.0169695059405726,0.1626758724451065
1708437886.079867,-1.1044009923934937,-1.6823364696898402,-2.5264151732074183,2.279970808620117,-1.0169528166400355,0.1626114696264267
1708437886.0818708,-1.1043636798858643,-1.682291646996969,-2.526419703160421,2.279987021083496,-1.0170019308673304,0.16265951097011566
1708437886.0839007,-1.1043429374694824,-1.6823574505248011,-2.5263987223254603,2.279890223140381,-1.0169442335711878,0.16267141699790955
1708437886.0859537,-1.1043964624404907,-1.682315012017721,-2.526424233113424,2.2799531656452636,-1.0169766584979456,0.16263985633850098
1708437886.0878744,-1.1043636798858643,-1.682324071923727,-2.5264363924609583,2.279987021083496,-1.0170181433307093,0.16259363293647766
1708437886.0898821,-1.1044174432754517,-1.6823440990843714,-2.5264106432544153,2.2798871236988525,-1.0169852415667933,0.16265176236629486
1708437886.091851,-1.1043726205825806,-1.682291646996969,-2.5264151732074183,2.279937430019043,-1.0170181433307093,0.16267292201519012
1708437886.093868,-1.1043667793273926,-1.6823317013182582,-2.5263899008380335,2.279982729549072,-1.0169766584979456,0.16268932819366455
1708437886.095896,-1.1043846607208252,-1.6823121509947718,-2.5263987223254603,2.2798828321644287,-1.0170181433307093,0.16264721751213074
1708437886.0978653,-1.1043846607208252,-1.682291646996969,-2.5263567606555384,2.279975100154541,-1.016993824635641,0.16265176236629486
1708437886.0998664,-1.104371190071106,-1.682279726068014,-2.5263732115374964,2.2799240785786132,-1.0169766584979456,0.16264276206493378
1708437886.1018672,-1.1043965816497803,-1.682291646996969,-2.5264483133899134,2.2798916536518554,-1.0169809500323694,0.1626487523317337
1708437886.1038656,-1.1043682098388672,-1.682340761224264,-2.5264363924609583,2.279933138484619,-1.016989533101217,0.16264274716377258
1708437886.1058795,-1.104354739189148,-1.682274957696432,-2.5264151732074183,2.2799288469501953,-1.0169737974749964,0.16258586943149567
1708437886.1078763,-1.104334831237793,-1.682295938531393,-2.5264559427844446,2.2799693781086425,-1.0170181433307093,0.1626577377319336
1708437886.109872,-1.104356288909912,-1.682340761224264,-2.5264139811145228,2.279937430019043,-1.0169652144061487,0.16264279186725616
1708437886.1118567,-1.1043636798858643,-1.6823379002013148,-2.5263972918139856,2.2799317079731445,-1.0169528166400355,0.1625891774892807
1708437886.113876,-1.1043429374694824,-1.6823493442931117,-2.5264650026904505,2.2799531656452636,-1.0169852415667933,0.1626383513212204
1708437886.1159372,-1.1043801307678223,-1.6822840176024378,-2.5264182726489466,2.280015392894409,-1.0169571081744593,0.16266511380672455
1708437886.117898,-1.104354739189148,-1.682286878625387,-2.5264061133014124,2.2799574571796875,-1.0169528166400355,0.16259808838367462
1708437886.1198874,-1.1044009923934937,-1.682286878625387,-2.5264106432544153,2.2799693781086425,-1.0170019308673304,0.16262643039226532
1708437886.1219196,-1.1044083833694458,-1.682291646996969,-2.5264273325549524,2.2799078661152343,-1.017010513936178,0.16265621781349182
1708437886.1238852,-1.104377269744873,-1.682249208489889,-2.526419703160421,2.2799812990375976,-1.0169933477984827,0.1626487523317337
1708437886.1259134,-1.1043801307678223,-1.6823121509947718,-2.5264182726489466,2.2799736696430664,-1.0169852415667933,0.16265621781349182
1708437886.1278877,-1.1043846607208252,-1.6823374233641566,-2.5264106432544153,2.27993552267041,-1.0169933477984827,0.16261157393455505
1708437886.1298807,-1.1043801307678223,-1.682291646996969,-2.5264061133014124,2.2799855905720214,-1.0169890562640589,0.16265621781349182
1708437886.1319067,-1.1044055223464966,-1.682295938531393,-2.5264766852008265,2.2799650865742187,-1.0170095602618616,0.16263985633850098
1708437886.1338599,-1.1043964624404907,-1.6823121509947718,-2.5264559427844446,2.2799693781086425,-1.0170334021197718,0.16260263323783875
1708437886.1358576,-1.10433828830719,-1.6823331318297328,-2.5264650026904505,2.2800139623829345,-1.0170496145831507,0.1625903844833374
1708437886.1378949,-1.1044204235076904,-1.6823331318297328,-2.5263851324664515,2.2799605566212158,-1.0169890562640589,0.16257405281066895
1708437886.1398566,-1.1043667793273926,-1.6823121509947718,-2.5264318625079554,2.2800139623829345,-1.0170171896563929,0.16263985633850098
1708437886.141867,-1.1043591499328613,-1.6823121509947718,-2.5264061133014124,2.279977007503174,-1.0170334021197718,0.16262347996234894
1708437886.143858,-1.104378581047058,-1.6823049984373988,-2.5264182726489466,2.2800139623829345,-1.016984764729635,0.16263985633850098
1708437886.1458662,-1.104383111000061,-1.682295938531393,-2.5264650026904505,2.279951735133789,-1.0170701185809534,0.16257846355438232
1708437886.147872,-1.104383111000061,-1.6823212109007777,-2.5264092127429407,2.2800420957752685,-1.0170581976519983,0.1626937836408615
1708437886.1498744,-1.1043846607208252,-1.682340761224264,-2.5264559427844446,2.2800051408955078,-1.0170496145831507,0.16258597373962402
1708437886.151864,-1.1044293642044067,-1.6822663746275843,-2.5264392534839075,2.279984398479126,-1.0170624891864222,0.16258294880390167
1708437886.1538715,-1.1044323444366455,-1.6823092899718226,-2.5264392534839075,2.2800332742878417,-1.0170300642596644,0.16263236105442047
1708437886.155873,-1.104432225227356,-1.682319780389303,-2.5265141169177454,2.28005759298291,-1.0170248190509241,0.16261599957942963
1708437886.157869,-1.1044530868530273,-1.682274957696432,-2.5264483133899134,2.2800213533588867,-1.0170248190509241,0.1626172810792923
1708437886.1598594,-1.1044367551803589,-1.682286878625387,-2.5264182726489466,2.2800370889851074,-1.0170334021197718,0.16254693269729614
1708437886.1618795,-1.1044158935546875,-1.682279726068014,-2.5264228026019495,2.2800487714954834,-1.017057243977682,0.16254399716854095
1708437886.1638677,-1.1044232845306396,-1.6822673283019007,-2.5264092127429407,2.280041380519531,-1.0170334021197718,0.16253508627414703
1708437886.1658733,-1.1044039726257324,-1.682286878625387,-2.5264468828784388,2.280090256328247,-1.0170376936541956,0.16250646114349365
1708437886.1678617,-1.104453206062317,-1.682286878625387,-2.526470724736349,2.280019922847412,-1.0170658270465296,0.16249454021453857
1708437886.169871,-1.1043994426727295,-1.6823002300658167,-2.5264559427844446,2.2800564008900146,-1.017029110585348,0.16253209114074707
1708437886.1718783,-1.1044113636016846,-1.6823002300658167,-2.5264559427844446,2.2800771433063964,-1.0170367399798792,0.16253209114074707
1708437886.1738684,-1.1044114828109741,-1.682274957696432,-2.5265172163592737,2.2800845342823486,-1.0170777479754847,0.1625276356935501
1708437886.1758935,-1.104444146156311,-1.6822840176024378,-2.526421133671896,2.2801171976276855,-1.0170453230487269,0.16253209114074707
1708437886.1778665,-1.104448676109314,-1.682295938531393,-2.5264392534839075,2.2801009851643066,-1.0170615355121058,0.1625080108642578
1708437886.1798978,-1.1044039726257324,-1.6823002300658167,-2.526475254689352,2.2801098066517334,-1.0170734564410608,0.16251538693904877
1708437886.1819198,-1.1044397354125977,-1.682291646996969,-2.526470724736349,2.2800802427479248,-1.0170367399798792,0.16249901056289673
1708437886.1838737,-1.1044872999191284,-1.6823049984373988,-2.526475254689352,2.2801260191151123,-1.017090145741598,0.1625276356935501
1708437886.1858766,-1.1043905019760132,-1.6823021374144496,-2.526515785847799,2.2800890642353515,-1.0170815626727503,0.1625484675168991
1708437886.1878688,-1.1044278144836426,-1.6822930775084437,-2.526524845753805,2.280019446010254,-1.017090145741598,0.1625574827194214
1708437886.189905,-1.1044083833694458,-1.6822272739806117,-2.526499334965841,2.2800444799610595,-1.0170205275165003,0.162518709897995
1708437886.1918955,-1.104434847831726,-1.6822930775084437,-2.5265324751483362,2.28009216367688,-1.017052952443258,0.1625574827194214
1708437886.1938794,-1.1044278144836426,-1.6822601757445277,-2.526499334965841,2.2801052766987304,-1.0170777479754847,0.16251538693904877
1708437886.1958904,-1.1044234037399292,-1.6822692356505335,-2.5265021959887903,2.2800771433063964,-1.017090145741598,0.16250355541706085
1708437886.197856,-1.1044442653656006,-1.6822387180724085,-2.5265279451953333,2.280075951213501,-1.0170486609088343,0.16256941854953766
1708437886.199895,-1.1044646501541138,-1.6822883091368617,-2.526494805012838,2.2800771433063964,-1.0170443693744105,0.1624826192855835
1708437886.2018497,-1.1044158935546875,-1.6822601757445277,-2.5265489260302942,2.2801009851643066,-1.0170734564410608,0.162508025765419
1708437886.20387,-1.1044530868530273,-1.6822759113707484,-2.526548687611715,2.2800890642353515,-1.0170486609088343,0.16249608993530273
1708437886.2059157,-1.1044139862060547,-1.6822272739806117,-2.5265608469592493,2.2800683218189697,-1.0170486609088343,0.1625005453824997
1708437886.207883,-1.1044095754623413,-1.6822716198363246,-2.5265682379352015,2.280130549068115,-1.0170658270465296,0.1625034660100937
1708437886.2098706,-1.104434847831726,-1.6822973690428675,-2.5264814535724085,2.2800728517719726,-1.017052952443258,0.1625366359949112
1708437886.2118893,-1.1044526100158691,-1.6822558842101039,-2.5265324751483362,2.2800728517719726,-1.0170777479754847,0.1625499725341797
1708437886.213876,-1.104461908340454,-1.6822344265379847,-2.5264769236194056,2.2801129060932617,-1.0170605818377894,0.1625574827194214
1708437886.215912,-1.1044600009918213,-1.6822425327696742,-2.526565138493673,2.2801171976276855,-1.0171058813678187,0.16256476938724518
1708437886.2179089,-1.1044232845306396,-1.6822735271849574,-2.5264888445483606,2.2800728517719726,-1.0170858542071741,0.16249902546405792
1708437886.219882,-1.1044902801513672,-1.6822387180724085,-2.5264859835254114,2.2801291185566406,-1.0170930067645472,0.16253210604190826
1708437886.2219486,-1.1044689416885376,-1.6822806797423304,-2.5265188852893274,2.2801129060932617,-1.0171015898333948,0.16248713433742523
1708437886.223993,-1.1044645309448242,-1.6822558842101039,-2.5265021959887903,2.280114098186157,-1.0171096960650843,0.16251245141029358
1708437886.2258837,-1.104434847831726,-1.6822520695128382,-2.5265443960772913,2.2800771433063964,-1.0170887152301233,0.16243769228458405
1708437886.2279224,-1.1044902801513672,-1.6822644672789515,-2.5264902750598353,2.280064030284546,-1.0170729796039026,0.16256189346313477
1708437886.2299213,-1.1044883728027344,-1.6822601757445277,-2.5264976660357874,2.2800890642353515,-1.0171011129962366,0.1625080108642578
1708437886.2319512,-1.1045066118240356,-1.6822387180724085,-2.5265517870532435,2.2801052766987304,-1.0170772711383265,0.16247199475765228
1708437886.233878,-1.1044573783874512,-1.6822735271849574,-2.5265188852893274,2.2800802427479248,-1.0171259085284632,0.1624871790409088
1708437886.2358975,-1.10443913936615,-1.6822520695128382,-2.5265725294696253,2.2801052766987304,-1.0171054045306605,0.16247525811195374
1708437886.237883,-1.1044929027557373,-1.6822673283019007,-2.5265143553363245,2.2800935941883544,-1.017142120991842,0.16248719394207
1708437886.2398741,-1.1044808626174927,-1.6822759113707484,-2.5265188852893274,2.2801217275806884,-1.0171626249896448,0.16251541674137115
1708437886.2418997,-1.1044809818267822,-1.6822759113707484,-2.5265563170062464,2.2801424699970703,-1.0170930067645472,0.16247083246707916
1708437886.243921,-1.1044929027557373,-1.6822511158385218,-2.5264976660357874,2.2801171976276855,-1.0171130339251917,0.16251543164253235
1708437886.2458882,-1.1045018434524536,-1.6822840176024378,-2.5265308062182825,2.2800847727009277,-1.0171259085284632,0.1625366508960724
1708437886.2478952,-1.1044838428497314,-1.6822344265379847,-2.5265262762652796,2.2800933557697753,-1.0171173254596155,0.16254112124443054
1708437886.2498877,-1.10443913936615,-1.6822434864439906,-2.5265353361712855,2.2801248270222167,-1.0171130339251917,0.1625499725341797
1708437886.2518756,-1.1044853925704956,-1.682246824304098,-2.5265353361712855,2.2801098066517334,-1.0170758406268519,0.16251245141029358
1708437886.2538786,-1.1044689416885376,-1.6822191677489222,-2.5265725294696253,2.2801052766987304,-1.0171130339251917,0.16250357031822205
1708437886.2559106,-1.104467511177063,-1.6822673283019007,-2.5264769236194056,2.2801129060932617,-1.0171378294574183,0.16252437233924866
1708437886.2579067,-1.1044738292694092,-1.6822806797423304,-2.526548687611715,2.2800933557697753,-1.017092529927389,0.16251246631145477
1708437886.2599113,-1.1044901609420776,-1.6822849712767542,-2.5265217463122767,2.280114098186157,-1.0170968214618128,0.16248416900634766
1708437886.2619283,-1.1045048236846924,-1.6822759113707484,-2.5264812151538294,2.2801098066517334,-1.0171368757831019,0.16248871386051178
1708437886.2639177,-1.1044927835464478,-1.6822644672789515,-2.5265517870532435,2.2800933557697753,-1.0171087423907679,0.16250507533550262
1708437886.2659054,-1.1044689416885376,-1.6822887859740199,-2.5265517870532435,2.280114098186157,-1.0171087423907679,0.16249608993530273
1708437886.2679071,-1.104511022567749,-1.682274957696432,-2.5265682379352015,2.280064030284546,-1.0171130339251917,0.16242878139019012
1708437886.2698784,-1.1044883728027344,-1.6822840176024378,-2.5265262762652796,2.2800521093555908,-1.0171693007098597,0.1625303328037262
1708437886.2718725,-1.1044973134994507,-1.6823302708067835,-2.5265517870532435,2.2800325590321044,-1.0171011129962366,0.16249608993530273
1708437886.273914,-1.1044719219207764,-1.6822759113707484,-2.5265234152423304,2.280141754741333,-1.0171249548541468,0.16250507533550262
1708437886.2758873,-1.1044901609420776,-1.6822716198363246,-2.5265279451953333,2.2800847727009277,-1.0171335379229944,0.16249608993530273
1708437886.2779012,-1.1045212745666504,-1.6822716198363246,-2.5265353361712855,2.2800683218189697,-1.0171249548541468,0.16246747970581055
1708437886.2798848,-1.1044883728027344,-1.6822387180724085,-2.5265725294696253,2.280114098186157,-1.0171282927142542,0.1625378131866455
1708437886.2819116,-1.1044600009918213,-1.6822840176024378,-2.5265682379352015,2.280114098186157,-1.0171693007098597,0.1625005453824997
1708437886.2839003,-1.104472041130066,-1.6822434864439906,-2.526511255894796,2.2801379400440673,-1.0171573797809046,0.16251245141029358
1708437886.2858849,-1.1044973134994507,-1.6822716198363246,-2.5265725294696253,2.280064030284546,-1.0171173254596155,0.1625378131866455
1708437886.287879,-1.1044585704803467,-1.6822387180724085,-2.5265143553363245,2.2801217275806884,-1.0171530882464808,0.16252882778644562
1708437886.2899344,-1.1045048236846924,-1.6822558842101039,-2.526511255894796,2.2800771433063964,-1.0171411673175257,0.16244666278362274
1708437886.2918813,-1.1045048236846924,-1.6822673283019007,-2.5265637079821985,2.280022307033203,-1.0171573797809046,0.1624871790409088
1708437886.293882,-1.1045047044754028,-1.6822673283019007,-2.5265055338488978,2.2800683218189697,-1.0171292463885706,0.16253326833248138
1708437886.2958724,-1.1044436693191528,-1.6822840176024378,-2.5265100638019007,2.2801129060932617,-1.017148796712057,0.16246747970581055
1708437886.297863,-1.1044436693191528,-1.6823092899718226,-2.5265398661242884,2.2801379400440673,-1.0170968214618128,0.1625080108642578
1708437886.2998838,-1.104518175125122,-1.6823255024352015,-2.5265637079821985,2.2801052766987304,-1.0171855131732386,0.16244666278362274
1708437886.3019109,-1.1044809818267822,-1.6822668514647425,-2.5265756289111536,2.2800933557697753,-1.0171616713153284,0.16251690685749054
1708437886.303888,-1.1044397354125977,-1.6823135815062464,-2.5265308062182825,2.2800847727009277,-1.0171411673175257,0.16250507533550262
1708437886.3059223,-1.104455590248108,-1.6822344265379847,-2.5264933745013636,2.2801129060932617,-1.0171163717852991,0.1624797284603119
1708437886.3078678,-1.1044304370880127,-1.6822625599303187,-2.5265398661242884,2.280064030284546,-1.017160717641012,0.16245858371257782
1708437886.3098965,-1.104472041130066,-1.6822806797423304,-2.5265770594226282,2.2800652223774414,-1.0171530882464808,0.16248416900634766
1708437886.3118675,-1.1044349670410156,-1.6823049984373988,-2.5265937487231653,2.280047579402588,-1.0171001593219202,0.16246746480464935
1708437886.3138535,-1.1044690608978271,-1.6822883091368617,-2.5265427271472376,2.280114098186157,-1.0171693007098597,0.16251692175865173
1708437886.3158927,-1.1044436693191528,-1.6822253666319789,-2.5265262762652796,2.2801171976276855,-1.0171411673175257,0.16244661808013916
1708437886.3179352,-1.1044690608978271,-1.6822558842101039,-2.5265143553363245,2.280064030284546,-1.0171693007098597,0.16249163448810577
1708437886.319889,-1.1044526100158691,-1.6822883091368617,-2.5265262762652796,2.2800521093555908,-1.0171693007098597,0.1625378578901291
1708437886.3218818,-1.1044436693191528,-1.6823507748045863,-2.5265637079821985,2.2801052766987304,-1.0172022024737757,0.16249608993530273
1708437886.3239088,-1.1044141054153442,-1.6823212109007777,-2.5265055338488978,2.2801098066517334,-1.0171163717852991,0.1624826192855835
1708437886.3258984,-1.1044738292694092,-1.6823002300658167,-2.5265234152423304,2.2800802427479248,-1.017160717641012,0.1625005453824997
1708437886.3278942,-1.104444146156311,-1.6822344265379847,-2.5265427271472376,2.2800521093555908,-1.0171855131732386,0.16247200965881348
1708437886.3298678,-1.1044808626174927,-1.6823002300658167,-2.5265682379352015,2.2800847727009277,-1.017144505177633,0.16247200965881348
1708437886.331881,-1.1044573783874512,-1.6822759113707484,-2.5265308062182825,2.2800814348408203,-1.0171368757831019,0.16251692175865173
1708437886.3339314,-1.1044601202011108,-1.6823049984373988,-2.5265262762652796,2.2800728517719726,-1.017160717641012,0.16246746480464935
1708437886.3358846,-1.1044113636016846,-1.6822558842101039,-2.5265188852893274,2.2800606924244384,-1.0172064940081995,0.1625005453824997
1708437886.3378723,-1.1044481992721558,-1.6822840176024378,-2.5265637079821985,2.2800609308430175,-1.0171735922442835,0.16249608993530273
1708437886.3398755,-1.1044304370880127,-1.682324071923727,-2.5265682379352015,2.2800933557697753,-1.0171979109393519,0.16248416900634766
1708437886.341873,-1.1044113636016846,-1.6822840176024378,-2.5265846888171595,2.2800444799610595,-1.017193619404928,0.16244371235370636
1708437886.3438723,-1.104444146156311,-1.6823212109007777,-2.5265472571002405,2.28005759298291,-1.0171683470355433,0.16252438724040985
1708437886.3458662,-1.1044259071350098,-1.682279726068014,-2.5265143553363245,2.2800156313129882,-1.0171855131732386,0.16247078776359558
1708437886.347873,-1.1044234037399292,-1.6822883091368617,-2.5265517870532435,2.2800444799610595,-1.0171979109393519,0.16243919730186462
1708437886.349886,-1.1044234037399292,-1.6822883091368617,-2.5265308062182825,2.280085964793823,-1.0171979109393519,0.16249608993530273
1708437886.3518758,-1.1044278144836426,-1.6823421917357386,-2.5265100638019007,2.2800325590321044,-1.0171979109393519,0.16248416900634766
1708437886.3538792,-1.1044304370880127,-1.6822840176024378,-2.5264933745013636,2.2800933557697753,-1.0171693007098597,0.16248416900634766
1708437886.355945,-1.1044576168060303,-1.6822511158385218,-2.5265682379352015,2.2800814348408203,-1.0171855131732386,0.16250956058502197
1708437886.357889,-1.104399561882019,-1.6822930775084437,-2.5265308062182825,2.280114098186157,-1.017160717641012,0.1624797135591507
1708437886.3598597,-1.1044158935546875,-1.682230135003561,-2.5265055338488978,2.2800370889851074,-1.017172638569967,0.1624797135591507
1708437886.361853,-1.1044323444366455,-1.682279726068014,-2.5265517870532435,2.2800237375446777,-1.017193619404928,0.16249610483646393
1708437886.3638542,-1.1044367551803589,-1.6822644672789515,-2.5265563170062464,2.280041380519531,-1.0172064940081995,0.16249163448810577
1708437886.3658495,-1.1043906211853027,-1.6823002300658167,-2.5265682379352015,2.2800401884266357,-1.0171683470355433,0.16249163448810577
1708437886.3678837,-1.104432225227356,-1.6822825870909632,-2.5265308062182825,2.280041380519531,-1.017193619404928,0.16249166429042816
1708437886.3698783,-1.104432225227356,-1.6822887859740199,-2.5265682379352015,2.2800533014484863,-1.017160717641012,0.16253778338432312
1708437886.371869,-1.1044039726257324,-1.6822716198363246,-2.5265517870532435,2.2799905973621826,-1.0172141234027308,0.1625005602836609
1708437886.3738875,-1.1044085025787354,-1.6823049984373988,-2.5265637079821985,2.280057831401489,-1.017193619404928,0.16245116293430328
1708437886.3759055,-1.1044203042984009,-1.6822663746275843,-2.5265427271472376,2.280033512706421,-1.017176930104391,0.16249166429042816
1708437886.3778846,-1.1044204235076904,-1.6823092899718226,-2.5265143553363245,2.28007094442334,-1.017209831868307,0.16252882778644562
1708437886.379871,-1.1044039726257324,-1.6822558842101039,-2.526517454777853,2.280066652888916,-1.0171316305743616,0.16250808537006378
1708437886.3818774,-1.1043846607208252,-1.6822625599303187,-2.5265308062182825,2.2800370889851074,-1.0172174612628382,0.1624796986579895
1708437886.3838768,-1.104366660118103,-1.6822511158385218,-2.5265517870532435,2.280028982753418,-1.017221752797262,0.16251690685749054
1708437886.3858883,-1.1043726205825806,-1.6822511158385218,-2.5265217463122767,2.2799874979206542,-1.0171807448016565,0.1624975949525833
1708437886.3878732,-1.104398250579834,-1.6822425327696742,-2.5266013781176966,2.280000849361084,-1.0171640555011194,0.16247519850730896
1708437886.3899195,-1.1043965816497803,-1.6822644672789515,-2.5265637079821985,2.280028982753418,-1.0171764532672327,0.16249611973762512
1708437886.3918703,-1.104322910308838,-1.6822387180724085,-2.5265427271472376,2.280059261912964,-1.017209831868307,0.16249608993530273
1708437886.3939,-1.1043637990951538,-1.6823212109007777,-2.5265682379352015,2.2799977499195556,-1.0172012487994593,0.1625005304813385
1708437886.3958676,-1.104356288909912,-1.6822759113707484,-2.5265968481646937,2.2799486356922607,-1.017205540333883,0.16246628761291504
1708437886.397916,-1.104356288909912,-1.6822625599303187,-2.5265217463122767,2.2799271780201416,-1.0171807448016565,0.1624753475189209
1708437886.3998778,-1.1043473482131958,-1.6822673283019007,-2.5265262762652796,2.279982729549072,-1.0172174612628382,0.16247645020484924
1708437886.4018705,-1.1044011116027832,-1.682307859460348,-2.5265472571002405,2.2799343305775146,-1.0171850363360804,0.16250507533550262
1708437886.4038675,-1.104410171508789,-1.6823002300658167,-2.5265682379352015,2.2798632818409423,-1.0171850363360804,0.16245564818382263
1708437886.4058692,-1.104365348815918,-1.6823135815062464,-2.5265262762652796,2.279876633281372,-1.0172174612628382,0.16251693665981293
1708437886.4078772,-1.1043682098388672,-1.6823002300658167,-2.5265427271472376,2.279909296626709,-1.0172012487994593,0.16245412826538086
1708437886.4098704,-1.1043472290039062,-1.6822883091368617,-2.5265725294696253,2.279937430019043,-1.0172455946551722,0.16244220733642578
1708437886.411878,-1.1043891906738281,-1.6822558842101039,-2.5265501181231897,2.279905005092285,-1.0172174612628382,0.16247645020484924
1708437886.4138904,-1.1043392419815063,-1.6822883091368617,-2.5265591780291956,2.279953880901001,-1.0172174612628382,0.16245856881141663
1708437886.4158816,-1.1043529510498047,-1.6823002300658167,-2.5265591780291956,2.2799135881611328,-1.0171764532672327,0.16250507533550262
1708437886.4179192,-1.104398250579834,-1.6822716198363246,-2.52651292482485,2.279937430019043,-1.0172250906573694,0.16247200965881348
1708437886.4198728,-1.1043274402618408,-1.6823092899718226,-2.5265472571002405,2.279925509090088,-1.017249886189596,0.16245412826538086
1708437886.4218829,-1.1043428182601929,-1.6822754345335902,-2.5265517870532435,2.279949350947998,-1.0172045866595667,0.1625303328037262
1708437886.4238632,-1.1043392419815063,-1.682246824304098,-2.526562039052145,2.2799712854572753,-1.0172250906573694,0.16247527301311493
1708437886.4258862,-1.1043392419815063,-1.6822706661620082,-2.5265381971942347,2.2798961836048584,-1.0172455946551722,0.16248869895935059
1708437886.4278986,-1.1044026613235474,-1.682279726068014,-2.5265591780291956,2.279949350947998,-1.0171969572650355,0.1625303328037262
1708437886.4298675,-1.104356288909912,-1.6823421917357386,-2.5265756289111536,2.279897375697754,-1.0172293821917933,0.16251245141029358
1708437886.4319174,-1.1043484210968018,-1.6823374233641566,-2.5265546480761927,2.2799581724354248,-1.0172012487994593,0.1625080108642578
1708437886.4338753,-1.1043347120285034,-1.682274957696432,-2.5265472571002405,2.2799300390430908,-1.0172694365130823,0.16248416900634766
1708437886.435883,-1.1043819189071655,-1.6823049984373988,-2.526562039052145,2.2799135881611328,-1.0171969572650355,0.1625005304813385
1708437886.437868,-1.1043111085891724,-1.682291646996969,-2.5265472571002405,2.279941959972046,-1.0172455946551722,0.16248416900634766
1708437886.439889,-1.1043392419815063,-1.682274957696432,-2.5265637079821985,2.279876633281372,-1.0171969572650355,0.16249608993530273
1708437886.4418972,-1.1043438911437988,-1.6822840176024378,-2.5265308062182825,2.2798515993305664,-1.0172131697284144,0.16247527301311493
1708437886.4438877,-1.1043484210968018,-1.6822930775084437,-2.5265801588641565,2.279897375697754,-1.0172293821917933,0.16252143681049347
1708437886.445874,-1.1043156385421753,-1.6823212109007777,-2.5265262762652796,2.279876633281372,-1.0172045866595667,0.1625095158815384
1708437886.4478862,-1.1043200492858887,-1.6822973690428675,-2.5265427271472376,2.2799300390430908,-1.0172207991229456,0.16247645020484924
1708437886.4498694,-1.1043156385421753,-1.6823002300658167,-2.5265637079821985,2.2798587518879394,-1.0172455946551722,0.16247527301311493
1708437886.4518723,-1.1042736768722534,-1.6823388538756312,-2.5265756289111536,2.279921217555664,-1.0172327200519007,0.16251690685749054
1708437886.453877,-1.1043363809585571,-1.6822558842101039,-2.526562039052145,2.2799181181141357,-1.0172165075885218,0.16247527301311493
1708437886.4559002,-1.1043111085891724,-1.6822887859740199,-2.5265710989581507,2.279925509090088,-1.017233673726217,0.1624511033296585
1708437886.457886,-1.1043200492858887,-1.6822511158385218,-2.5265501181231897,2.2799135881611328,-1.0172250906573694,0.16252589225769043
1708437886.4598844,-1.1043155193328857,-1.6822883091368617,-2.5265381971942347,2.279843969936035,-1.0172651449786585,0.1624797284603119
1708437886.4618845,-1.10431706905365,-1.6823002300658167,-2.5265336672412317,2.2799669939228515,-1.0172932783709925,0.16249164938926697
1708437886.463883,-1.1043617725372314,-1.682324071923727,-2.526587788258688,2.279916687602661,-1.0172489325152796,0.1625080108642578
1708437886.4658842,-1.1042917966842651,-1.6822987995543421,-2.5265756289111536,2.2799224096485595,-1.0172413031207483,0.16250507533550262
1708437886.4679005,-1.1043200492858887,-1.6822673283019007,-2.5265665690051478,2.2799104887196044,-1.0172694365130823,0.16251690685749054
1708437886.4699075,-1.1043334007263184,-1.6823121509947718,-2.5265665690051478,2.2799386221119384,-1.0172370115863245,0.1625095158815384
1708437886.4718785,-1.1042664051055908,-1.6823169193663539,-2.526501003895895,2.2799016672321777,-1.0172608534442347,0.16252143681049347
1708437886.4739473,-1.1042872667312622,-1.6822377643980921,-2.5265637079821985,2.279900475139282,-1.0172207991229456,0.16248869895935059
1708437886.4759188,-1.1043379306793213,-1.682221075097555,-2.526529137288229,2.279941959972046,-1.0172608534442347,0.16251245141029358
1708437886.477925,-1.1043081283569336,-1.6822625599303187,-2.5265262762652796,2.279864712352417,-1.0172727743731897,0.16249315440654755
1708437886.4799168,-1.1042886972427368,-1.6823035679259242,-2.5265682379352015,2.279901905650757,-1.0172889868365687,0.1625095158815384
1708437886.48188,-1.1042917966842651,-1.6822625599303187,-2.5265381971942347,2.279897375697754,-1.017268482838766,0.16248869895935059
1708437886.4839032,-1.1042709350585938,-1.6822625599303187,-2.5265846888171595,2.2799343305775146,-1.0172608534442347,0.1625005304813385
1708437886.4858956,-1.1043051481246948,-1.6822434864439906,-2.5265637079821985,2.2799593645283203,-1.0172770659076136,0.1624630242586136
1708437886.4879334,-1.1042588949203491,-1.6823049984373988,-2.5265637079821985,2.2798358637043457,-1.0172651449786585,0.16246628761291504
1708437886.4898965,-1.1042768955230713,-1.682291646996969,-2.5265665690051478,2.279897375697754,-1.017240349446432,0.1624871790409088
1708437886.4918807,-1.10431706905365,-1.682328840295309,-2.5266135374652308,2.2799388605305175,-1.0172608534442347,0.16251245141029358
1708437886.4938989,-1.1042991876602173,-1.682291646996969,-2.5265336672412317,2.279872341746948,-1.0172770659076136,0.1625080108642578
1708437886.495889,-1.104324460029602,-1.6823331318297328,-2.5265923182116907,2.279885454768799,-1.0172489325152796,0.16248416900634766
1708437886.4979014,-1.1042470932006836,-1.6823450527586878,-2.5265427271472376,2.2798616129108886,-1.0172446409808558,0.16248416900634766
1708437886.4998677,-1.1042388677597046,-1.6823626957335414,-2.5265756289111536,2.279860420817993,-1.0172651449786585,0.16249608993530273
1708437886.5018864,-1.104312539100647,-1.6822840176024378,-2.5265546480761927,2.279897375697754,-1.0172165075885218,0.16249608993530273
1708437886.503884,-1.1042753458023071,-1.6823450527586878,-2.5265472571002405,2.279923840160034,-1.0172608534442347,0.1624990552663803
1708437886.5059059,-1.1042559146881104,-1.6822806797423304,-2.5265756289111536,2.279881163234375,-1.0172608534442347,0.16254107654094696
1708437886.507887,-1.1043051481246948,-1.6822716198363246,-2.5265923182116907,2.27986924230542,-1.017224136983053,0.16247083246707916
1708437886.509899,-1.1042723655700684,-1.6823212109007777,-2.5265172163592737,2.279864712352417,-1.0173056761371058,0.16247078776359558
1708437886.511873,-1.1042604446411133,-1.6822625599303187,-2.5265472571002405,2.2799314695545654,-1.0172856489764612,0.16247078776359558
1708437886.5138874,-1.1042650938034058,-1.682274957696432,-2.5265637079821985,2.2799269396015625,-1.0172446409808558,0.16251246631145477
1708437886.515867,-1.1042559146881104,-1.682286878625387,-2.526587788258688,2.279860420817993,-1.0172813574420374,0.16252149641513824
1708437886.517894,-1.1042723655700684,-1.6822120151915492,-2.5265756289111536,2.2798778253742675,-1.0172932783709925,0.16248719394207
1708437886.5199513,-1.104248046875,-1.6822511158385218,-2.5265591780291956,2.2798897463032226,-1.0172813574420374,0.16250507533550262
1708437886.5218952,-1.1042524576187134,-1.6822535000243128,-2.5265381971942347,2.27986924230542,-1.0172975699054163,0.1625378131866455
1708437886.52389,-1.1042962074279785,-1.682249208489889,-2.5265336672412317,2.279831572169922,-1.0172532240497034,0.1625455617904663
1708437886.5259035,-1.104267954826355,-1.682279726068014,-2.5265846888171595,2.279897375697754,-1.0172565619098108,0.162528857588768
1708437886.527872,-1.10431706905365,-1.682286878625387,-2.5265968481646937,2.27986924230542,-1.0172608534442347,0.1624826192855835
1708437886.5298882,-1.1042678356170654,-1.6822825870909632,-2.5265801588641565,2.2798778253742675,-1.0172165075885218,0.1625109314918518
1708437886.5318892,-1.1042433977127075,-1.6823049984373988,-2.5265591780291956,2.279881163234375,-1.017280403767721,0.16252438724040985
1708437886.5339153,-1.104251503944397,-1.682291646996969,-2.5266013781176966,2.2798942762562255,-1.017268482838766,0.16249164938926697
1708437886.535915,-1.1042962074279785,-1.6823450527586878,-2.5265801588641565,2.279876633281372,-1.0172813574420374,0.1624826192855835
1708437886.53789,-1.1043096780776978,-1.682295938531393,-2.5265637079821985,2.2798196512409667,-1.0172565619098108,0.16253331303596497
1708437886.539883,-1.1042344570159912,-1.682286878625387,-2.526587788258688,2.2798194128223876,-1.0172532240497034,0.1624782383441925
1708437886.54188,-1.1042604446411133,-1.682286878625387,-2.526587788258688,2.2798196512409667,-1.0173018614398401,0.16249898076057434
1708437886.543859,-1.1042678356170654,-1.682340761224264,-2.5265923182116907,2.279857321376465,-1.0172446409808558,0.16252440214157104
1708437886.545869,-1.1042299270629883,-1.682328840295309,-2.5265546480761927,2.279852791423462,-1.0173142592059534,0.16250355541706085
1708437886.547866,-1.1043051481246948,-1.6823169193663539,-2.5265427271472376,2.2798680502125244,-1.0172608534442347,0.16251248121261597
1708437886.5498621,-1.1042723655700684,-1.682319780389303,-2.526517454777853,2.2798735338398437,-1.0172608534442347,0.16250357031822205
1708437886.551857,-1.1042886972427368,-1.682340761224264,-2.5265756289111536,2.2798735338398437,-1.0172770659076136,0.16253207623958588
1708437886.5539052,-1.1042768955230713,-1.6822987995543421,-2.5265710989581507,2.279885454768799,-1.0172932783709925,0.16249901056289673
1708437886.5558743,-1.104248046875,-1.6822716198363246,-2.5265637079821985,2.2798825937458496,-1.0172532240497034,0.16251246631145477
1708437886.5578983,-1.1042152643203735,-1.6823731861510218,-2.5265501181231897,2.279852791423462,-1.017240349446432,0.1625276505947113
1708437886.5598621,-1.1042859554290771,-1.6823779545226039,-2.5265710989581507,2.2798914152332763,-1.0172565619098108,0.16254551708698273
1708437886.5618548,-1.1043096780776978,-1.6823574505248011,-2.526562039052145,2.2798358637043457,-1.0172727743731897,0.16250357031822205
1708437886.5638797,-1.104248046875,-1.682335992852682,-2.5265682379352015,2.2798897463032226,-1.0172813574420374,0.16249904036521912
1708437886.5659013,-1.1042650938034058,-1.682286878625387,-2.5265801588641565,2.2798735338398437,-1.017212216054098,0.16254551708698273
1708437886.567881,-1.104278564453125,-1.6823331318297328,-2.526557509099142,2.2798492151447753,-1.0172489325152796,0.162510946393013
1708437886.5699468,-1.104267954826355,-1.6823049984373988,-2.5265710989581507,2.279852791423462,-1.0172565619098108,0.16253210604190826
1708437886.5718923,-1.1042650938034058,-1.6823035679259242,-2.5265665690051478,2.2798165517994384,-1.0172489325152796,0.16253207623958588
1708437886.5738966,-1.1042433977127075,-1.6823169193663539,-2.5265756289111536,2.2799104887196044,-1.0172284285174769,0.16253957152366638
1708437886.5758882,-1.1042433977127075,-1.682307859460348,-2.5265665690051478,2.2798616129108886,-1.0172532240497034,0.1625366359949112
1708437886.5779011,-1.1042814254760742,-1.6823493442931117,-2.5265308062182825,2.2798282343098144,-1.01727801958193,0.1625857949256897
1708437886.5798979,-1.1042815446853638,-1.682291646996969,-2.5265923182116907,2.2798401552387695,-1.0172446409808558,0.162560373544693
1708437886.5818982,-1.104248046875,-1.6822706661620082,-2.5265665690051478,2.2798446851917724,-1.0172694365130823,0.16253662109375
1708437886.5839105,-1.1042814254760742,-1.6823450527586878,-2.5265172163592737,2.2798492151447753,-1.0172370115863245,0.16253207623958588
1708437886.5859902,-1.104252576828003,-1.682253976861471,-2.5265546480761927,2.2798284727283935,-1.0172284285174769,0.1624871790409088
1708437886.5878646,-1.1042433977127075,-1.682295938531393,-2.5265501181231897,2.279857321376465,-1.0172370115863245,0.16250357031822205
1708437886.5899282,-1.1042650938034058,-1.682340761224264,-2.5265353361712855,2.279885454768799,-1.0172575155841272,0.16255593299865723
1708437886.5918658,-1.1042389869689941,-1.6822673283019007,-2.5265501181231897,2.279885454768799,-1.0172250906573694,0.16252321004867554
1708437886.593889,-1.10427987575531,-1.682340761224264,-2.5265308062182825,2.2798942762562255,-1.0172370115863245,0.1625799983739853
1708437886.5958607,-1.1042559146881104,-1.6822625599303187,-2.5265682379352015,2.279852791423462,-1.0172455946551722,0.16258454322814941
1708437886.5978754,-1.104248046875,-1.682246824304098,-2.5265591780291956,2.2798778253742675,-1.0172455946551722,0.1625845730304718
1708437886.5998704,-1.1042560338974,-1.6822625599303187,-2.5265801588641565,2.279860182399414,-1.0171926657306116,0.16256040334701538
1708437886.6018627,-1.104252576828003,-1.6822625599303187,-2.5265710989581507,2.2798868852802734,-1.0171969572650355,0.16253511607646942
1708437886.603869,-1.1042978763580322,-1.6823183498778285,-2.5265710989581507,2.27986924230542,-1.0172174612628382,0.16253209114074707
1708437886.6058757,-1.1042060852050781,-1.682249208489889,-2.5265665690051478,2.2798616129108886,-1.0172012487994593,0.16251416504383087
1708437886.6078727,-1.1042978763580322,-1.682361742059225,-2.5265546480761927,2.279857321376465,-1.017233673726217,0.16251875460147858
1708437886.6099083,-1.1042389869689941,-1.6823450527586878,-2.526587788258688,2.27986924230542,-1.0171807448016565,0.1625678539276123
1708437886.6118996,-1.104227066040039,-1.6823398075499476,-2.5265756289111536,2.2798661428638916,-1.0171893278705042,0.16258899867534637
1708437886.6138775,-1.1042695045471191,-1.682286878625387,-2.5266013781176966,2.2798825937458496,-1.0171893278705042,0.16261275112628937
1708437886.615907,-1.104251503944397,-1.6823002300658167,-2.5265563170062464,2.2798778253742675,-1.017160717641012,0.16259931027889252
1708437886.6178772,-1.1042932271957397,-1.6823121509947718,-2.5264933745013636,2.2798778253742675,-1.0171564261065882,0.16260385513305664
1708437886.6199527,-1.1042389869689941,-1.682274957696432,-2.5265637079821985,2.2799061971851806,-1.0171893278705042,0.1626279354095459
1708437886.621876,-1.104248046875,-1.6823121509947718,-2.526562039052145,2.2798825937458496,-1.017176930104391,0.16268634796142578
1708437886.6239028,-1.1042768955230713,-1.6822625599303187,-2.526583258305685,2.279831572169922,-1.0171640555011194,0.1626279354095459
1708437886.6258976,-1.1042604446411133,-1.6822582683958949,-2.5265801588641565,2.279815121287964,-1.0172012487994593,0.16264724731445312
1708437886.6278849,-1.1042559146881104,-1.6822706661620082,-2.5265262762652796,2.2798358637043457,-1.0171521345721644,0.16267140209674835
1708437886.6298895,-1.104251503944397,-1.6822663746275843,-2.5265546480761927,2.2798897463032226,-1.0171735922442835,0.1626219004392624
1708437886.6318924,-1.1042962074279785,-1.682295938531393,-2.5265262762652796,2.279848499889038,-1.0171359221087855,0.1626758575439453
1708437886.63391,-1.104246973991394,-1.6823049984373988,-2.5265801588641565,2.279857321376465,-1.0171650091754358,0.1626550406217575
1708437886.6359036,-1.10431706905365,-1.682249208489889,-2.5265801588641565,2.279940291041992,-1.017132584248678,0.16264724731445312
1708437886.6378856,-1.1042962074279785,-1.682319780389303,-2.5265665690051478,2.279885454768799,-1.0171693007098597,0.16263830661773682
1708437886.6399107,-1.1042842864990234,-1.6823135815062464,-2.5265756289111536,2.2798988062092285,-1.0171812216388147,0.16266243159770966
1708437886.6418762,-1.1042842864990234,-1.6822582683958949,-2.526587788258688,2.2798778253742675,-1.0171573797809046,0.16271758079528809
1708437886.643872,-1.1042932271957397,-1.682307859460348,-2.5265710989581507,2.2798988062092285,-1.017148796712057,0.16271303594112396
1708437886.6458757,-1.1043214797973633,-1.6823598347105921,-2.5265710989581507,2.2798942762562255,-1.0171077887164515,0.16270120441913605
1708437886.6478806,-1.1042470932006836,-1.682324071923727,-2.5265427271472376,2.2798825937458496,-1.0171530882464808,0.16272978484630585
1708437886.649871,-1.1042842864990234,-1.682295938531393,-2.5265563170062464,2.2798616129108886,-1.0171411673175257,0.1626758575439453
1708437886.6519055,-1.1042470932006836,-1.682279726068014,-2.5265308062182825,2.2799195486256103,-1.0171573797809046,0.16264723241329193
1708437886.65387,-1.1042888164520264,-1.682286878625387,-2.5265637079821985,2.279864712352417,-1.0171411673175257,0.16271638870239258
1708437886.6558719,-1.1042872667312622,-1.6823035679259242,-2.5265637079821985,2.279881163234375,-1.0171454588519495,0.16267141699790955
1708437886.657904,-1.10431706905365,-1.6822945080199183,-2.5265591780291956,2.279848499889038,-1.017120663319723,0.16268031299114227
1708437886.6599045,-1.104263424873352,-1.682295938531393,-2.5265608469592493,2.2799061971851806,-1.0171454588519495,0.16271185874938965
1708437886.6618915,-1.104300618171692,-1.6823121509947718,-2.5265234152423304,2.2798823553272705,-1.0171335379229944,0.16269969940185547
1708437886.6639075,-1.1042590141296387,-1.6822244129576625,-2.5265517870532435,2.2799343305775146,-1.0171573797809046,0.16264724731445312
1708437886.6659064,-1.1043215990066528,-1.6822625599303187,-2.5264931360827845,2.279857321376465,-1.0171130339251917,0.16267140209674835
1708437886.667881,-1.1043081283569336,-1.6822987995543421,-2.5265727678882044,2.279885454768799,-1.0171454588519495,0.1626729518175125
1708437886.6698987,-1.104267954826355,-1.682286878625387,-2.5265472571002405,2.2799061971851806,-1.0171259085284632,0.16265055537223816
1708437886.6719217,-1.104324460029602,-1.6823135815062464,-2.5265262762652796,2.279897375697754,-1.0171173254596155,0.16264277696609497
1708437886.673899,-1.1043037176132202,-1.6822840176024378,-2.5265846888171595,2.2799061971851806,-1.017092529927389,0.1626758575439453
1708437886.675898,-1.1042991876602173,-1.6823049984373988,-2.5265398661242884,2.2799104887196044,-1.0170801321612757,0.16269223392009735
1708437886.677893,-1.1042827367782593,-1.6823255024352015,-2.5265637079821985,2.2798616129108886,-1.0170519987689417,0.1626966893672943
1708437886.6798875,-1.1042916774749756,-1.682279726068014,-2.5265472571002405,2.279876633281372,-1.0170648733722132,0.1626877784729004
1708437886.6818807,-1.1043245792388916,-1.6822673283019007,-2.5265234152423304,2.279876633281372,-1.0170930067645472,0.1626758575439453
1708437886.6838715,-1.1043037176132202,-1.682249208489889,-2.5265381971942347,2.279897375697754,-1.0171378294574183,0.16274616122245789
1708437886.6858866,-1.1043245792388916,-1.6823049984373988,-2.5265381971942347,2.2798401552387695,-1.0170443693744105,0.16269223392009735
1708437886.6878757,-1.1043155193328857,-1.6823493442931117,-2.5265217463122767,2.279872341746948,-1.0170815626727503,0.16272085905075073
1708437886.689923,-1.1043035984039307,-1.6822782955565394,-2.5265608469592493,2.2799300390430908,-1.0170729796039026,0.16269223392009735
1708437886.6918833,-1.1043319702148438,-1.6823374233641566,-2.5265517870532435,2.2799181181141357,-1.017069164906637,0.1626550257205963
1708437886.6938927,-1.1043200492858887,-1.6822840176024378,-2.5265727678882044,2.279857321376465,-1.0170772711383265,0.16269515454769135
1708437886.6958818,-1.1043319702148438,-1.682295938531393,-2.5265052954303187,2.279897375697754,-1.0170815626727503,0.16267141699790955
1708437886.6978788,-1.1043789386749268,-1.6823212109007777,-2.5265608469592493,2.2799016672321777,-1.0170605818377894,0.1627253293991089
1708437886.699875,-1.1043484210968018,-1.6823169193663539,-2.5265846888171595,2.279949350947998,-1.0170648733722132,0.16270120441913605
1708437886.7018893,-1.1043438911437988,-1.682279726068014,-2.526515785847799,2.279848499889038,-1.017057243977682,0.16269221901893616
1708437886.703883,-1.1043274402618408,-1.6823121509947718,-2.5265353361712855,2.2799627023884277,-1.0171259085284632,0.16271640360355377
1708437886.705909,-1.104334831237793,-1.682324071923727,-2.5265143553363245,2.279905005092285,-1.0170486609088343,0.16270415484905243
1708437886.7078886,-1.104356288909912,-1.682230135003561,-2.5265682379352015,2.27989308416333,-1.0171015898333948,0.1626669466495514
1708437886.7098637,-1.1043609380722046,-1.6823331318297328,-2.526511255894796,2.279909296626709,-1.0171101729022425,0.16265060007572174
1708437886.7118688,-1.1043392419815063,-1.682249208489889,-2.5265067259417933,2.27989308416333,-1.0171058813678187,0.1626550257205963
1708437886.713922,-1.1043846607208252,-1.6822511158385218,-2.5265608469592493,2.2799300390430908,-1.0171015898333948,0.16270120441913605
1708437886.7158685,-1.1043682098388672,-1.682324071923727,-2.5265279451953333,2.2799507814594726,-1.0170944372760218,0.16268330812454224
1708437886.7178738,-1.1043890714645386,-1.682324071923727,-2.5265234152423304,2.2798842626759033,-1.0170729796039026,0.16269971430301666
1708437886.7198997,-1.1044129133224487,-1.682279726068014,-2.5265324751483362,2.2799507814594726,-1.0170858542071741,0.16265791654586792
1708437886.721896,-1.1043636798858643,-1.682295938531393,-2.5265067259417933,2.2799622255512695,-1.017069164906637,0.16263385117053986
1708437886.7238781,-1.104393720626831,-1.6822930775084437,-2.526494805012838,2.2799288469501953,-1.017069164906637,0.16268330812454224
1708437886.7259033,-1.1043964624404907,-1.6822425327696742,-2.5265279451953333,2.279937430019043,-1.0170734564410608,0.1626550257205963
1708437886.7279072,-1.1043592691421509,-1.6823121509947718,-2.5265353361712855,2.2799288469501953,-1.0170858542071741,0.1626877784729004
1708437886.7298968,-1.1043637990951538,-1.682291646996969,-2.5265727678882044,2.2799486356922607,-1.0171473662005823,0.16270124912261963
1708437886.7318733,-1.1043592691421509,-1.682286878625387,-2.5265892187701624,2.2799078661152343,-1.0170820395099085,0.16265949606895447
1708437886.7339098,-1.1044085025787354,-1.6823450527586878,-2.5265234152423304,2.2799123960682373,-1.017052952443258,0.1627086102962494
1708437886.73593,-1.104417324066162,-1.6823212109007777,-2.5265517870532435,2.2799619871326904,-1.0170367399798792,0.16269221901893616
1708437886.7378988,-1.1043920516967773,-1.6823169193663539,-2.5265563170062464,2.2799574571796875,-1.0170648733722132,0.16271185874938965
1708437886.739922,-1.1043787002563477,-1.6822377643980921,-2.5265188852893274,2.2800063329884033,-1.017069164906637,0.1626877784729004
1708437886.7418773,-1.104399561882019,-1.6822143993773402,-2.5265324751483362,2.2799693781086425,-1.0170205275165003,0.16271184384822845
1708437886.743888,-1.1043950319290161,-1.6823121509947718,-2.5265772978412073,2.2799855905720214,-1.017090145741598,0.16267138719558716
1708437886.7458985,-1.1044248342514038,-1.682295938531393,-2.5265443960772913,2.280027313823364,-1.0171101729022425,0.1626877784729004
1708437886.7478771,-1.104387640953064,-1.6823121509947718,-2.5264857451068323,2.280000849361084,-1.0170734564410608,0.16265946626663208
1708437886.7498963,-1.1044085025787354,-1.682249208489889,-2.5264902750598353,2.2800139623829345,-1.0170734564410608,0.16265055537223816
1708437886.7518895,-1.1044487953186035,-1.682279726068014,-2.5265067259417933,2.2800466257282714,-1.0170324484454554,0.16269221901893616
1708437886.7538867,-1.1044248342514038,-1.6822582683958949,-2.5265234152423304,2.2800378042408447,-1.0170944372760218,0.16265060007572174
1708437886.7558794,-1.1044039726257324,-1.6823121509947718,-2.5265234152423304,2.279991789455078,-1.0170648733722132,0.1626877784729004
1708437886.7578952,-1.1044278144836426,-1.6822668514647425,-2.5265563170062464,2.27997533857312,-1.0170324484454554,0.1626848727464676
1708437886.7598822,-1.1044249534606934,-1.6822673283019007,-2.5265384356128138,2.2800378042408447,-1.0170605818377894,0.16270866990089417
1708437886.7618647,-1.1044232845306396,-1.682279726068014,-2.5265398661242884,2.280028982753418,-1.0170648733722132,0.16265948116779327
1708437886.763881,-1.104466438293457,-1.682274957696432,-2.5265443960772913,2.280078573817871,-1.0170734564410608,0.16267144680023193
1708437886.765871,-1.1044738292694092,-1.6823002300658167,-2.5265608469592493,2.28005759298291,-1.017069164906637,0.16263991594314575
1708437886.7678905,-1.1044158935546875,-1.6823049984373988,-2.526515785847799,2.2800490099140625,-1.0170615355121058,0.16266395151615143
1708437886.7698998,-1.1044397354125977,-1.6822253666319789,-2.5265143553363245,2.280069513911865,-1.0170248190509241,0.16268034279346466
1708437886.7718878,-1.1044304370880127,-1.682230135003561,-2.5265608469592493,2.280114098186157,-1.0170815626727503,0.16265179216861725
1708437886.773914,-1.1044573783874512,-1.6822887859740199,-2.5265353361712855,2.280059500331543,-1.0171015898333948,0.16264277696609497
1708437886.7759402,-1.1043931245803833,-1.6823183498778285,-2.526511255894796,2.2800966936298828,-1.0170734564410608,0.16262193024158478
1708437886.7779288,-1.1043949127197266,-1.6822706661620082,-2.5265381971942347,2.2800683218189697,-1.0170930067645472,0.16263985633850098
1708437886.7798884,-1.104478359222412,-1.6822759113707484,-2.5265143553363245,2.2800564008900146,-1.0170367399798792,0.16268928349018097
1708437886.781916,-1.1044738292694092,-1.6822887859740199,-2.5265443960772913,2.2801505762287597,-1.0170858542071741,0.16264429688453674
1708437886.7839124,-1.1044259071350098,-1.682295938531393,-2.526553455983297,2.280087633723877,-1.0170858542071741,0.16256961226463318
1708437886.7859123,-1.1044600009918213,-1.6822387180724085,-2.5265517870532435,2.2801171976276855,-1.0171096960650843,0.16259369254112244
1708437886.7879038,-1.1044050455093384,-1.6822716198363246,-2.5265021959887903,2.280120297069214,-1.017097298298971,0.1626071035861969
1708437886.7899218,-1.1044883728027344,-1.682279726068014,-2.5265517870532435,2.2801291185566406,-1.017113987599508,0.1626100391149521
1708437886.7918875,-1.1044213771820068,-1.682286878625387,-2.5264933745013636,2.2801129060932617,-1.0170968214618128,0.16261157393455505
1708437886.793898,-1.1044973134994507,-1.6822759113707484,-2.5265563170062464,2.280158205623291,-1.0170930067645472,0.16266515851020813
1708437886.7958758,-1.1045092344284058,-1.6823002300658167,-2.5264931360827845,2.2801291185566406,-1.0171259085284632,0.16258293390274048
1708437886.7979162,-1.1044838428497314,-1.6822625599303187,-2.5265234152423304,2.280106945628784,-1.0170930067645472,0.1625903844833374
1708437886.7998776,-1.1044883728027344,-1.682295938531393,-2.5264902750598353,2.2801825243183593,-1.017090145741598,0.16256211698055267
1708437886.8018866,-1.1045300960540771,-1.6821767292418421,-2.5265353361712855,2.280120297069214,-1.0170930067645472,0.16257110238075256
1708437886.803907,-1.1045002937316895,-1.6822644672789515,-2.5264905134784144,2.280106945628784,-1.017113987599508,0.16261276602745056
1708437886.8058736,-1.1045256853103638,-1.6822930775084437,-2.5265353361712855,2.2801825243183593,-1.0170801321612757,0.16257676482200623
1708437886.8079066,-1.1044957637786865,-1.6822558842101039,-2.5264976660357874,2.2801734644123535,-1.017097298298971,0.16256332397460938
1708437886.809886,-1.1046068668365479,-1.6822434864439906,-2.5265427271472376,2.2801896768757324,-1.0171054045306605,0.16252319514751434
1708437886.8118675,-1.1045194864273071,-1.6822387180724085,-2.5265563170062464,2.280176563853882,-1.0170844236956995,0.16247525811195374
1708437886.8139079,-1.1045693159103394,-1.6822191677489222,-2.5265725294696253,2.280258818263672,-1.0171096960650843,0.1625574827194214
1708437886.8158824,-1.104536533355713,-1.6822644672789515,-2.5265308062182825,2.280217333430908,-1.0171292463885706,0.1624796986579895
1708437886.8179011,-1.104560375213623,-1.6822105846800746,-2.5265188852893274,2.2802292543598632,-1.0171497503863733,0.16250355541706085
1708437886.81989,-1.1046169996261597,-1.6822692356505335,-2.5264976660357874,2.2802931505390625,-1.0171292463885706,0.16250355541706085
1708437886.8218813,-1.1046125888824463,-1.6822239361205042,-2.526553455983297,2.2802561956593017,-1.0171001593219202,0.16250509023666382
1708437886.8239162,-1.1046006679534912,-1.6822363338866175,-2.526511255894796,2.2802840906330566,-1.0171454588519495,0.16243475675582886
1708437886.8259315,-1.1046125888824463,-1.6822320423521937,-2.5265443960772913,2.280329390163086,-1.0171249548541468,0.16250209510326385
1708437886.827885,-1.104575276374817,-1.6821776829161585,-2.5265279451953333,2.280345602626465,-1.0171368757831019,0.16245262324810028
1708437886.8298855,-1.1046080589294434,-1.6822120151915492,-2.5265234152423304,2.2803990083881835,-1.0171650091754358,0.1624809205532074
1708437886.8319085,-1.1046607494354248,-1.6821462116637171,-2.5265308062182825,2.280393286342285,-1.0171812216388147,0.1624571681022644
1708437886.833946,-1.104651689529419,-1.682122369805807,-2.5265381971942347,2.2804059225269775,-1.0171564261065882,0.16240771114826202
1708437886.8359277,-1.1047098636627197,-1.6821967564024867,-2.5265472571002405,2.2804295259663085,-1.017172638569967,0.16243746876716614
1708437886.8379304,-1.104691982269287,-1.6821323833861292,-2.5264976660357874,2.2804252344318847,-1.017205540333883,0.16236740350723267
1708437886.8399408,-1.1047009229660034,-1.6821729145445765,-2.5265188852893274,2.280412121410034,-1.0171893278705042,0.1623927503824234
1708437886.8419514,-1.1046947240829468,-1.6821595631041468,-2.5265472571002405,2.2804860311695556,-1.017237965260641,0.16236010193824768
1708437886.8438985,-1.1047039031982422,-1.6821371517577113,-2.5265262762652796,2.280480309123657,-1.0172174612628382,0.16237348318099976
1708437886.8459024,-1.1047520637512207,-1.6820999584593714,-2.5265308062182825,2.2804757791706542,-1.0171926657306116,0.16231948137283325
1708437886.8479137,-1.1047236919403076,-1.6821280918517054,-2.5265846888171595,2.280528708095215,-1.0172951857196253,0.16230140626430511
1708437886.8498967,-1.1047639846801758,-1.682075639764303,-2.5265591780291956,2.280512257213257,-1.017237965260641,0.16228796541690826
1708437886.851889,-1.1047685146331787,-1.6820351086058558,-2.5265710989581507,2.2805449205585937,-1.0172174612628382,0.1622641682624817
1708437886.8539004,-1.1047848463058472,-1.6819941006102503,-2.5265381971942347,2.280621214503906,-1.017249886189596,0.16222816705703735
1708437886.8558865,-1.1048659086227417,-1.6819740734496058,-2.5265563170062464,2.280665798778198,-1.0172370115863245,0.16219545900821686
1708437886.8579245,-1.1048777103424072,-1.68200745205068,-2.5265710989581507,2.2805842596241455,-1.0172207991229456,0.16223706305027008
1708437886.8598752,-1.1048897504806519,-1.6820818386473597,-2.5265501181231897,2.2806245523640136,-1.0172207991229456,0.162175714969635
1708437886.8618784,-1.1048405170440674,-1.6819340191283167,-2.5265501181231897,2.2806646066853027,-1.0172489325152796,0.16214874386787415
1708437886.8638935,-1.1048672199249268,-1.6819349728026332,-2.5265336672412317,2.280677004451416,-1.0172975699054163,0.1621561050415039
1708437886.8659046,-1.1049336194992065,-1.6819516621031703,-2.526545588170187,2.2806965547749023,-1.0172317663775843,0.16215313971042633
1708437886.8679242,-1.1049572229385376,-1.6819936237730921,-2.5265923182116907,2.280733509654663,-1.017301384602682,0.1621502786874771
1708437886.8699086,-1.1049453020095825,-1.6819459400572718,-2.5266345183001917,2.280756636256836,-1.0173090139972132,0.16207541525363922
1708437886.871892,-1.1049861907958984,-1.6819502315916957,-2.526609007512228,2.2807654577442626,-1.0173047224627894,0.1620815247297287
1708437886.873887,-1.1049772500991821,-1.6818753681578578,-2.5265710989581507,2.280792399043701,-1.0173371473895472,0.1620648056268692
1708437886.8759055,-1.1050180196762085,-1.6819006405272425,-2.5265710989581507,2.280824823970459,-1.0173371473895472,0.16203205287456512
1708437886.877935,-1.1050207614898682,-1.6818725071349085,-2.52661639848818,2.28086440145459,-1.0173371473895472,0.1620205044746399
1708437886.879895,-1.1050535440444946,-1.6818677387633265,-2.5265381971942347,2.2809013563343505,-1.0173938910113733,0.1619676798582077
1708437886.8819072,-1.1050900220870972,-1.6818553409972132,-2.526587788258688,2.28086440145459,-1.0173895994769495,0.1619856357574463
1708437886.883917,-1.1051182746887207,-1.6818272076048792,-2.5265665690051478,2.280928774470947,-1.0174253622638147,0.1619720757007599
1708437886.8859036,-1.1050548553466797,-1.681868692437643,-2.5266147295581263,2.2809828954884033,-1.0173972288714808,0.16191533207893372
1708437886.887901,-1.105161190032959,-1.681831499139303,-2.526607338582174,2.2809323507496337,-1.0174534956561487,0.1619572639465332
1708437886.889927,-1.1052095890045166,-1.681840559045309,-2.526599947606222,2.2809650140949707,-1.0174372831927698,0.16194655001163483
1708437886.891917,-1.1051642894744873,-1.6818343601622523,-2.526595417653219,2.280988855952881,-1.017449204121725,0.16194206476211548
1708437886.8939338,-1.1052542924880981,-1.6818424663939417,-2.5266311804400843,2.281000776881836,-1.0174654165851038,0.1619168072938919
1708437886.8958678,-1.1052651405334473,-1.6817227802672328,-2.5266101996051233,2.281012697810791,-1.0174081961261194,0.1618974357843399
1708437886.8978777,-1.1052607297897339,-1.6817432842650355,-2.526644770299093,2.2810727792927246,-1.0174644629107874,0.16192279756069183
1708437886.899877,-1.1052753925323486,-1.6817566357054652,-2.526623789464132,2.2811097341724853,-1.0174763838397425,0.16186141967773438
1708437886.901872,-1.105317234992981,-1.6817523441710414,-2.5265982786761683,2.2810696798511962,-1.0174720923053187,0.161783367395401
1708437886.9038835,-1.1053320169448853,-1.6817251644530238,-2.5266462008105677,2.28115360319104,-1.0175374189959925,0.1618417650461197
1708437886.9058661,-1.105323076248169,-1.6817237339415492,-2.5266643206225794,2.281160994166992,-1.0175169149981897,0.16175660490989685
1708437886.9078846,-1.1054413318634033,-1.6817342243590296,-2.5266597906695765,2.281139059657715,-1.0175002256976526,0.16177596151828766
1708437886.9098942,-1.1053996086120605,-1.6816684208311976,-2.5266838709460657,2.2812627989002685,-1.0175407568561,0.16175660490989685
1708437886.911882,-1.1054404973983765,-1.6816894016661585,-2.5266581217395228,2.2812704282947998,-1.0175774733172815,0.16173705458641052
1708437886.9138865,-1.1054482460021973,-1.6816283665099085,-2.5266643206225794,2.281249447459839,-1.0175731817828577,0.1616964489221573
1708437886.9158814,-1.1055094003677368,-1.6816860638060511,-2.5266626516925257,2.2812675672718505,-1.0175688902484339,0.16172513365745544
1708437886.9178903,-1.1054840087890625,-1.6816383800902308,-2.5267213026629847,2.2813452917286376,-1.0175812880145472,0.16171440482139587
1708437886.9198728,-1.1055197715759277,-1.6816584072508753,-2.526679340993063,2.281341000194214,-1.0175727049456995,0.16170091927051544
1708437886.9219186,-1.105527639389038,-1.681568285027975,-2.5266838709460657,2.281339569682739,-1.0175798575030726,0.16162362694740295
1708437886.9239023,-1.1055798530578613,-1.681589265862936,-2.52669865289797,2.281364603633545,-1.0175798575030726,0.16164438426494598
1708437886.9259133,-1.1056160926818848,-1.6814905605711878,-2.526707712803976,2.2814737993427734,-1.0175965468036097,0.16167864203453064
1708437886.927897,-1.105599045753479,-1.6815577946104945,-2.526749912892477,2.2814485269733886,-1.0176084677325647,0.16168466210365295
1708437886.9299035,-1.105668306350708,-1.6815082035460414,-2.526670281087057,2.281505747432373,-1.0175922552691858,0.1616533100605011
1708437886.9318979,-1.1056592464447021,-1.6815082035460414,-2.526665751134054,2.281517668361328,-1.0175955931292933,0.16159796714782715
1708437886.9339137,-1.1057255268096924,-1.6814471683897914,-2.526670281087057,2.281569643611572,-1.0176246801959437,0.16156934201717377
1708437886.9359145,-1.105749487876892,-1.6815234623351039,-2.526715103779928,2.281601591701172,-1.0176203886615198,0.16154851019382477
1708437886.937952,-1.1057685613632202,-1.6814919910826625,-2.526728693638937,2.2815720277973632,-1.0176528135882776,0.1615619957447052
1708437886.9399478,-1.105767011642456,-1.6814500294127406,-2.5267391840564173,2.281628294582031,-1.0176203886615198,0.1615365445613861
1708437886.9419,-1.105799913406372,-1.6814242802061976,-2.5267227331744593,2.2816316324421386,-1.0176118055926722,0.16154108941555023
1708437886.9438705,-1.1058361530303955,-1.6814376316466273,-2.5267766157733362,2.281672640437744,-1.0176237265216272,0.16151699423789978
1708437886.945899,-1.1058272123336792,-1.6814424000182093,-2.5267513434039515,2.2817351061054687,-1.0176604429828089,0.16152474284172058
1708437886.9478931,-1.1059545278549194,-1.6813732586302699,-2.5267558733569544,2.2817863660999755,-1.0176766554461878,0.16152141988277435
1708437886.9498994,-1.1059200763702393,-1.681394716302389,-2.5267346541034144,2.281780405635498,-1.0176118055926722,0.16154712438583374
1708437886.9518929,-1.1059274673461914,-1.6813684902586878,-2.5267346541034144,2.2818118768879394,-1.0176356474505823,0.1615348756313324
1708437886.953886,-1.1060107946395874,-1.6813751659789027,-2.5267797152148646,2.2818161684223632,-1.0176604429828089,0.16155603528022766
1708437886.9559686,-1.105995535850525,-1.6813045940794886,-2.5268171469317835,2.2818643289753417,-1.0177133719073694,0.16152293980121613
1708437886.9579089,-1.1059999465942383,-1.6813165150084437,-2.5267496744738978,2.2819718557545166,-1.01764423051943,0.16146612167358398
1708437886.9599068,-1.1060811281204224,-1.6814080677428187,-2.5267961660968226,2.281920834178589,-1.017656151448385,0.16146452724933624
1708437886.961958,-1.1060765981674194,-1.6813179455199183,-2.5267825762378138,2.2819570738026123,-1.0177047888385218,0.16147802770137787
1708437886.9639084,-1.106095790863037,-1.6812931499876917,-2.526761595402853,2.2820016580769042,-1.0176919142352503,0.16149020195007324
1708437886.965903,-1.1061569452285767,-1.6813036404051722,-2.5267825762378138,2.282003565425537,-1.0177128950702112,0.16142889857292175
1708437886.9678955,-1.1061643362045288,-1.681331296960348,-2.5267871061908167,2.282106562251709,-1.0176680723773401,0.16148249804973602
1708437886.969873,-1.1061724424362183,-1.6812902889647425,-2.52682334581484,2.282113953227661,-1.017684284840719,0.16144227981567383
1708437886.9718955,-1.1062289476394653,-1.6812283001341761,-2.526844326649801,2.2821339803883056,-1.0177291075335901,0.16147056221961975
1708437886.9739158,-1.1062952280044556,-1.6812659702696742,-2.526818815861837,2.2821213442036132,-1.0176790396319788,0.1614631861448288
1708437886.9759285,-1.1062891483306885,-1.6812592945494593,-2.526802364979879,2.2821413713642578,-1.0177281538592737,0.16144227981567383
1708437886.9779673,-1.106284499168396,-1.681225915948385,-2.526836935673849,2.282139940852783,-1.01772386232485,0.16142894327640533
1708437886.9799035,-1.106311321258545,-1.6811839542784632,-2.5268517176257532,2.282179995174072,-1.0177324453936976,0.16146612167358398
1708437886.9819057,-1.1062785387039185,-1.6812178097166957,-2.526789967213766,2.2821876245686035,-1.0177367369281214,0.1614869385957718
1708437886.9839132,-1.1063232421875,-1.6811520061888636,-2.526818815861837,2.282251997584961,-1.0177519957171839,0.16144227981567383
1708437886.985903,-1.1064105033874512,-1.6811939678587855,-2.526802364979879,2.282231255168579,-1.0177887121783655,0.16147056221961975
1708437886.987923,-1.1064295768737793,-1.6812154255309046,-2.5268097559558313,2.2823003965565185,-1.0177801291095179,0.1614869385957718
1708437886.9899223,-1.1064457893371582,-1.681211610833639,-2.52690560022463,2.2823256689259033,-1.0177434126483362,0.16142894327640533
1708437886.9919105,-1.1064026355743408,-1.6811419926085414,-2.5268800894366663,2.282315416927002,-1.0177553335772913,0.16147954761981964
1708437886.993924,-1.1065397262573242,-1.6811181507506312,-2.5268142859088343,2.2823731142231445,-1.017775837575094,0.16143783926963806
1708437886.995908,-1.1064811944961548,-1.6811205349364222,-2.526872698460714,2.2824100691029052,-1.0178001562701624,0.16145865619182587
1708437886.997895,-1.1064393520355225,-1.6811672649779261,-2.5268636385547083,2.2824222284504394,-1.0177715460406702,0.1614333689212799
1708437886.9998884,-1.1064631938934326,-1.681133886376852,-2.5268922487842005,2.2823871809193115,-1.0178001562701624,0.16146612167358398
1708437887.0019145,-1.1065332889556885,-1.681122442285055,-2.5268171469317835,2.2824041086384277,-1.0177629629718226,0.16141989827156067
1708437887.003925,-1.1065324544906616,-1.68109192470693,-2.5268636385547083,2.282427950496338,-1.017787281666891,0.1614571213722229
1708437887.0058656,-1.1065154075622559,-1.681129594842428,-2.5269086996661585,2.282526417369507,-1.0178197065936487,0.1615065634250641
1708437887.0078902,-1.1065754890441895,-1.6810981235899867,-2.5268173853503626,2.282505674953125,-1.017815415059225,0.16158142685890198
1708437887.009921,-1.106526255607605,-1.681072851220602,-2.5268664995776575,2.282431049937866,-1.0178726355182093,0.16152596473693848
1708437887.0119193,-1.1066417694091797,-1.681131502191061,-2.5268500486956995,2.2825042444416503,-1.0178359190570276,0.1615918129682541
1708437887.0139148,-1.1066163778305054,-1.681039949456686,-2.526832167302267,2.282513304347656,-1.0178359190570276,0.161561980843544
1708437887.0159056,-1.1065874099731445,-1.6810890636839808,-2.5268831888781946,2.2825073438831787,-1.0178683439837855,0.16157394647598267
1708437887.0179343,-1.106611728668213,-1.6810580692686976,-2.526923720036642,2.282585306758545,-1.0178802649127405,0.16163551807403564
1708437887.0198736,-1.1066327095031738,-1.6811143360533656,-2.526919190083639,2.2825400072285156,-1.0178878943072718,0.16165930032730103
1708437887.0219076,-1.1066638231277466,-1.6810323200621546,-2.526935640965597,2.2825521665760498,-1.0178468863116663,0.16168756783008575
1708437887.023936,-1.106635570526123,-1.6810862026610316,-2.5269373098956507,2.282604618663452,-1.017907444630758,0.16169056296348572
1708437887.0259156,-1.1066474914550781,-1.6810938320555628,-2.526944700871603,2.282571955318115,-1.0179198423968714,0.16163258254528046
1708437887.0279326,-1.1066503524780273,-1.6811071834959925,-2.526919190083639,2.282559557552002,-1.0178874174701136,0.16175945103168488
1708437887.0299006,-1.1066548824310303,-1.6810981235899867,-2.526910130177633,2.2825016218372802,-1.017907444630758,0.16178350150585175
1708437887.031892,-1.1066101789474487,-1.6810580692686976,-2.526952091847555,2.2825631338306884,-1.0179522673236292,0.16186422109603882
1708437887.0339043,-1.106645941734314,-1.6810938320555628,-2.526964251195089,2.282538576717041,-1.0179155508624476,0.16182249784469604
1708437887.0359175,-1.106666922569275,-1.6810904941954554,-2.5269010702716272,2.2825631338306884,-1.0179112593280237,0.1618119478225708
1708437887.0379033,-1.1067086458206177,-1.6810742817320765,-2.526914660130636,2.2825631338306884,-1.0179393927203577,0.16191989183425903
1708437887.0399337,-1.1066832542419434,-1.6810833416380824,-2.526964251195089,2.282550497645996,-1.0179436842547815,0.16194212436676025
1708437887.041884,-1.1066696643829346,-1.6810995541014613,-2.5269747416125696,2.282609148616455,-1.0179556051837366,0.1619855910539627
1708437887.043923,-1.1066503524780273,-1.6810785732665003,-2.5269716421710413,2.2825795847126464,-1.017979923878805,0.162033811211586
1708437887.04586,-1.1066951751708984,-1.6810742817320765,-2.5270076433764856,2.2826284605213623,-1.017979923878805,0.1620780974626541
1708437887.047884,-1.1067451238632202,-1.6810785732665003,-2.526964251195089,2.2825416761585693,-1.0179999510394495,0.1621997356414795
1708437887.0498736,-1.1067122220993042,-1.6810652218260707,-2.526994053517477,2.2825371462055664,-1.0179956595050257,0.16222228109836578
1708437887.0518632,-1.1067149639129639,-1.6810533008971156,-2.5270360151873987,2.282616539592407,-1.0179956595050257,0.16224001348018646
1708437887.0539284,-1.1067376136779785,-1.6810714207091273,-2.5269702116595667,2.2825912672230224,-1.018008057271139,0.1623537838459015
1708437887.0558903,-1.1066324710845947,-1.6810833416380824,-2.5270031134234827,2.2826565939136962,-1.0179956595050257,0.16240949928760529
1708437887.0579178,-1.1066951751708984,-1.6810623608031214,-2.526994053517477,2.2826239305683593,-1.0180037657367151,0.16245713829994202
1708437887.0598972,-1.1066758632659912,-1.6810294590392054,-2.526989523564474,2.282644672984741,-1.0180113951312464,0.16255740821361542
1708437887.0618768,-1.1066951751708984,-1.6810652218260707,-2.5269702116595667,2.2826196390339355,-1.0180557409869593,0.16267737746238708
1708437887.0639458,-1.1066741943359375,-1.6810699901976527,-2.5269911924945276,2.2825912672230224,-1.0180276075946253,0.16281050443649292
1708437887.0658941,-1.1066460609436035,-1.6810175381102503,-2.526994053517477,2.2825988966175537,-1.0180352369891565,0.16287466883659363
1708437887.0679133,-1.1066997051239014,-1.6810862026610316,-2.527069393788473,2.2826730447956542,-1.0180676619159144,0.16297070682048798
1708437887.0699325,-1.1067041158676147,-1.6810409031310023,-2.52702242532839,2.2826034265705566,-1.0180719534503382,0.16302447021007538
1708437887.0719137,-1.1067285537719727,-1.6810742817320765,-2.526994053517477,2.2826360899158935,-1.018088165913717,0.16311582922935486
1708437887.073927,-1.1066758632659912,-1.6810366115965785,-2.526989523564474,2.282637282008789,-1.0180919806109827,0.16324007511138916
1708437887.0758939,-1.106713056564331,-1.6810876331725062,-2.527085844670431,2.2826284605213623,-1.018116299306051,0.16332843899726868
1708437887.0778973,-1.1067167520523071,-1.6810785732665003,-2.527039353047506,2.282644672984741,-1.0180991331683558,0.1634945571422577
1708437887.079946,-1.1067376136779785,-1.6811024151244105,-2.526984993611471,2.282632752055786,-1.0180991331683558,0.1636216789484024
1708437887.081891,-1.1066951751708984,-1.6810609302916468,-2.5270677248584192,2.2826272684284667,-1.018111530934469,0.1637580841779709
1708437887.0839398,-1.1066696643829346,-1.6811276874937953,-2.527076784764425,2.2826687532612304,-1.0181482473956507,0.1638195812702179
1708437887.0859432,-1.106641411781311,-1.6810208759703578,-2.527039353047506,2.282639189357422,-1.018111530934469,0.16395577788352966
1708437887.0879042,-1.1067211627960205,-1.6810742817320765,-2.527039353047506,2.28259460508313,-1.0181234518634241,0.16408312320709229
1708437887.0899374,-1.1066861152648926,-1.6810580692686976,-2.52708870569338,2.2826523023792724,-1.0181191603290003,0.1642448902130127
1708437887.0918722,-1.106685996055603,-1.681054254571432,-2.5270302931415003,2.282578154201172,-1.018111530934469,0.16435393691062927
1708437887.0938923,-1.1066950559616089,-1.6810714207091273,-2.527072254811422,2.2826077181049804,-1.018151585255758,0.16452309489250183
1708437887.0959399,-1.106690526008606,-1.6810342274107875,-2.5270960966693323,2.282644672984741,-1.0181310812579554,0.1646432727575302
1708437887.0978732,-1.1066713333129883,-1.6810833416380824,-2.527105156575338,2.2825988966175537,-1.0181310812579554,0.16480614244937897
1708437887.0999331,-1.1066877841949463,-1.6810699901976527,-2.5270796457873743,2.2826403814503173,-1.0181592146502894,0.16496798396110535
1708437887.1018963,-1.1066310405731201,-1.6810656986632289,-2.5270467440234583,2.2825662332722167,-1.018151585255758,0.16511885821819305
1708437887.1039112,-1.1066548824310303,-1.6810666523375453,-2.5270960966693323,2.282644672984741,-1.018085781727926,0.16534818708896637
1708437887.1058936,-1.1067086458206177,-1.6810981235899867,-2.5270870367633265,2.2826120096394042,-1.0181549231158655,0.16549140214920044
1708437887.1078932,-1.106705665588379,-1.6811233959593714,-2.5270825068103235,2.2826120096394042,-1.018151585255758,0.16562962532043457
1708437887.1099,-1.1066668033599854,-1.6810580692686976,-2.5270825068103235,2.2825915056416015,-1.018184010182516,0.16576892137527466
1708437887.1118968,-1.106619119644165,-1.6811071834959925,-2.5270825068103235,2.2825915056416015,-1.0181997458087366,0.16594837605953217
1708437887.1139023,-1.1066101789474487,-1.6810652218260707,-2.5270989576922815,2.2825957971760253,-1.0181625525103968,0.16615203022956848
1708437887.115903,-1.1066310405731201,-1.6811071834959925,-2.527106587086813,2.282571955318115,-1.0181997458087366,0.16638267040252686
1708437887.1178849,-1.1065856218338013,-1.6810742817320765,-2.5271034876452845,2.282600088710449,-1.0182321707354944,0.16651581227779388
1708437887.1198955,-1.1065618991851807,-1.6810862026610316,-2.5270989576922815,2.282581015224121,-1.0181787649737757,0.16671675443649292
1708437887.1218984,-1.1066328287124634,-1.6810580692686976,-2.5271156469928187,2.282550497645996,-1.0181997458087366,0.1669647991657257
1708437887.1239445,-1.1065901517868042,-1.6810819111266078,-2.5270541349994105,2.282526894206665,-1.018191162739889,0.16716846823692322
1708437887.1259198,-1.1065635681152344,-1.6811191044249476,-2.5270870367633265,2.282547636623047,-1.0181787649737757,0.16733002662658691
1708437887.1279042,-1.1065680980682373,-1.6810819111266078,-2.5270870367633265,2.2825400072285156,-1.0181787649737757,0.1675221174955368
1708437887.1299145,-1.1065590381622314,-1.6810952625670375,-2.5270989576922815,2.2825118738361816,-1.0181987921344202,0.16775844991207123
1708437887.1318872,-1.10651433467865,-1.6810938320555628,-2.5271156469928187,2.2824999529072265,-1.018219296132223,0.16798147559165955
1708437887.1338947,-1.1065154075622559,-1.6810785732665003,-2.5270944277392786,2.2824880319782714,-1.0182355085956019,0.16820111870765686
1708437887.1358933,-1.1064989566802979,-1.6811639271178187,-2.527073685322897,2.2824296194263916,-1.0182235876666468,0.16843651235103607
1708437887.137898,-1.1065369844436646,-1.6811806164183558,-2.5270898977862757,2.2824103075214843,-1.0181954542743128,0.16865213215351105
1708437887.1399546,-1.1064677238464355,-1.681072851220602,-2.5271363894092005,2.2824486929127197,-1.0181868712054651,0.16890031099319458
1708437887.1419036,-1.1064931154251099,-1.6811133823790492,-2.5271034876452845,2.2823826509663085,-1.0182679335223597,0.16911910474300385
1708437887.143883,-1.1064484119415283,-1.681129594842428,-2.5271156469928187,2.2823783594318847,-1.0182150045977991,0.16931794583797455
1708437887.1459098,-1.106436848640442,-1.681150575677389,-2.5271123091327112,2.282355471248291,-1.0182398001300257,0.1696367859840393
1708437887.1478736,-1.1064438819885254,-1.681122442285055,-2.5270586649524134,2.2823185163685302,-1.018231217061178,0.16985860466957092
1708437887.1498725,-1.1064116954803467,-1.6811639271178187,-2.5271156469928187,2.282315416927002,-1.0182603041278284,0.17011752724647522
1708437887.1518734,-1.1064116954803467,-1.6811381779112757,-2.5271034876452845,2.282278223628662,-1.0182150045977991,0.17045122385025024
1708437887.1538699,-1.106408715248108,-1.6811539135374964,-2.5271320978747767,2.2822746473499755,-1.0182507673846644,0.17068487405776978
1708437887.1558716,-1.1063259840011597,-1.6811582050719203,-2.5270615259753626,2.282259626979492,-1.0182269255267542,0.1709769368171692
1708437887.1578875,-1.1063140630722046,-1.6811462841429652,-2.5271487871753138,2.2822269636341552,-1.0182150045977991,0.1713017374277115
1708437887.1598988,-1.1062740087509155,-1.6812106571593226,-2.527064625416891,2.282203121776245,-1.018231217061178,0.17153498530387878
1708437887.1619213,-1.1062620878219604,-1.6811896763243617,-2.5271156469928187,2.2821833330341796,-1.0182636419879358,0.17185534536838531
1708437887.163877,-1.1062591075897217,-1.6812240085997523,-2.5271111170398157,2.2821714121052246,-1.0182507673846644,0.17213915288448334
1708437887.1658847,-1.1062636375427246,-1.6811658344664515,-2.5271156469928187,2.2821637827106933,-1.0182517210589808,0.17241910099983215
1708437887.1678946,-1.1062363386154175,-1.6812435589232386,-2.52710205713381,2.282156153316162,-1.018203083668844,0.17273485660552979
1708437887.1698675,-1.1062229871749878,-1.6812063656248988,-2.5270825068103235,2.282082720393799,-1.018231217061178,0.17302502691745758
1708437887.171873,-1.1062289476394653,-1.681254049340719,-2.5270989576922815,2.282099171275757,-1.018231217061178,0.1733335256576538
1708437887.173932,-1.1062498092651367,-1.681230207482809,-2.5270779768573206,2.2821048933216552,-1.0182150045977991,0.17369157075881958
1708437887.175936,-1.106106162071228,-1.6812793217101039,-2.5270989576922815,2.2820064264484863,-1.0182517210589808,0.17402255535125732
1708437887.1779144,-1.106122612953186,-1.6812283001341761,-2.52710205713381,2.282064839000366,-1.018231217061178,0.17427533864974976
1708437887.1799035,-1.1061077117919922,-1.6812778911986292,-2.5270989576922815,2.282007856959961,-1.0182150045977991,0.1746239960193634
1708437887.1819005,-1.1060703992843628,-1.68133606533193,-2.5271320978747767,2.2820047575184326,-1.018203083668844,0.1749427169561386
1708437887.1838715,-1.1061166524887085,-1.6812945804991664,-2.5270825068103235,2.2819720941730957,-1.0182560125934046,0.17522412538528442
1708437887.1858974,-1.1060384511947632,-1.681282182733053,-2.5271034876452845,2.2819763857075195,-1.018243137990133,0.1755896359682083
1708437887.1879077,-1.1060640811920166,-1.6813270054259242,-2.5271034876452845,2.2819408613392334,-1.018247429524557,0.17597268521785736
1708437887.1899242,-1.1059911251068115,-1.6813179455199183,-2.5271320978747767,2.28186742841687,-1.018219296132223,0.17627094686031342
1708437887.1919284,-1.1060118675231934,-1.6813136539854945,-2.5271034876452845,2.2818924623676757,-1.0181945005999964,0.17664377391338348
1708437887.193898,-1.1060044765472412,-1.6813341579832972,-2.5270615259753626,2.281860037440918,-1.018203083668844,0.17699122428894043
1708437887.1958845,-1.1059682369232178,-1.6813045940794886,-2.5271156469928187,2.2818354803272705,-1.0182560125934046,0.17734570801258087
1708437887.1979082,-1.105922818183899,-1.681328912774557,-2.5270779768573206,2.2817880350300292,-1.018203083668844,0.1777065545320511
1708437887.1998796,-1.105918288230896,-1.6813246212401332,-2.5271275679217737,2.2817792135426025,-1.018275562916891,0.1780613511800766
1708437887.2018964,-1.1059200763702393,-1.6813122234740199,-2.5270944277392786,2.2817715841480712,-1.018231217061178,0.17843739688396454
1708437887.2039034,-1.105837345123291,-1.681361814538473,-2.5270944277392786,2.281768484706543,-1.0181825796710413,0.17881309986114502
1708437887.2058911,-1.105879306793213,-1.6813441715636195,-2.5271247068988245,2.28171889364209,-1.0182235876666468,0.1791887879371643
1708437887.2078922,-1.1058226823806763,-1.6813122234740199,-2.5271034876452845,2.2816833692738037,-1.018203083668844,0.17953301966190338
1708437887.2098923,-1.1057988405227661,-1.6814376316466273,-2.5270989576922815,2.281646891231201,-1.0181987921344202,0.17996549606323242
1708437887.2118905,-1.1058169603347778,-1.6814257107176722,-2.5270705858813685,2.2816268640705566,-1.0181873480426233,0.18034128844738007
1708437887.2138877,-1.1058132648468018,-1.6814304790892542,-2.5270825068103235,2.281632824535034,-1.018219296132223,0.18071530759334564
1708437887.2158742,-1.1057969331741333,-1.6813975773253382,-2.5270779768573206,2.281563921565674,-1.0181625525103968,0.18114377558231354
1708437887.217901,-1.1057476997375488,-1.6814376316466273,-2.5271034876452845,2.281534119243286,-1.0181954542743128,0.18150632083415985
1708437887.219898,-1.1057357788085938,-1.6814333401122035,-2.5271411577807825,2.281597061748169,-1.0181873480426233,0.18195103108882904
1708437887.221894,-1.1057255268096924,-1.681441446343893,-2.5270989576922815,2.2815324503132324,-1.0181463400470179,0.18236632645130157
1708437887.2239032,-1.1056681871414185,-1.681493421594137,-2.5270870367633265,2.281503124828003,-1.0181549231158655,0.18277724087238312
1708437887.2259474,-1.1056026220321655,-1.6815229854979457,-2.5270989576922815,2.2814621168323974,-1.018151585255758,0.18322621285915375
1708437887.227911,-1.1056444644927979,-1.6815053425230921,-2.5270751158343714,2.281484289760254,-1.0181592146502894,0.18359902501106262
1708437887.2299352,-1.105582594871521,-1.6814772091307582,-2.5270944277392786,2.281439943904541,-1.0181635061847132,0.18401819467544556
1708437887.2319005,-1.1055753231048584,-1.681514402429098,-2.5271156469928187,2.2814041811176757,-1.0180862585650843,0.18450774252414703
1708437887.2338884,-1.105634331703186,-1.6815172634520472,-2.5271409193622034,2.2814084726520996,-1.0181191603290003,0.18492266535758972
1708437887.2359142,-1.1055514812469482,-1.6815053425230921,-2.5270915667163294,2.2813352781483154,-1.018111530934469,0.18532800674438477
1708437887.2379036,-1.1055306196212769,-1.6815387211241664,-2.5271080175982874,2.281339569682739,-1.0181158224688929,0.18583261966705322
1708437887.239904,-1.1055232286453247,-1.6815949879088343,-2.5270870367633265,2.281332178706787,-1.0180986563311976,0.18621428310871124
1708437887.241929,-1.1054705381393433,-1.6815253696837367,-2.5270496050464075,2.2812883096882324,-1.018127743397848,0.18667134642601013
1708437887.243923,-1.1055094003677368,-1.6815773449339808,-2.5270660559283655,2.2812675672718505,-1.018094841633932,0.18717142939567566
1708437887.2458827,-1.1054258346557617,-1.6815206013121546,-2.5270541349994105,2.2812763887592773,-1.018083397542135,0.18761704862117767
1708437887.247877,-1.1054646968841553,-1.6815773449339808,-2.5270870367633265,2.281240625972412,-1.0180991331683558,0.18815305829048157
1708437887.2498736,-1.1054528951644897,-1.6816054783263148,-2.5270870367633265,2.281256838435791,-1.0180709997760218,0.18859516084194183
1708437887.2519026,-1.1054556369781494,-1.681650777856344,-2.5270870367633265,2.2812582689472656,-1.0180991331683558,0.18908268213272095
1708437887.2538974,-1.1054071187973022,-1.6816760502257289,-2.5270915667163294,2.2812420564838867,-1.018066708241598,0.18953359127044678
1708437887.2558966,-1.1053996086120605,-1.6816536388792933,-2.5270615259753626,2.2811924654194335,-1.0180633703814905,0.19002923369407654
1708437887.2579598,-1.105383276939392,-1.6816240749754847,-2.5270705858813685,2.28109519063916,-1.0180719534503382,0.19054463505744934
1708437887.2599761,-1.1053966283798218,-1.6816626987852992,-2.5270796457873743,2.281090660686157,-1.0180276075946253,0.19107234477996826
1708437887.26189,-1.1053348779678345,-1.681591650048727,-2.5270512739764612,2.281115933055542,-1.0180190245257776,0.19156895577907562
1708437887.26391,-1.1053156852722168,-1.681690355340475,-2.5270376841174524,2.2810684877583007,-1.0180318991290491,0.19202572107315063
1708437887.2659187,-1.1053067445755005,-1.6816450558104457,-2.5270841757403772,2.2811009126850585,-1.018048111592428,0.19253428280353546
1708437887.2679095,-1.1053202152252197,-1.6816984615721644,-2.5270586649524134,2.2810608583637695,-1.0180318991290491,0.19304905831813812
1708437887.2699232,-1.1052873134613037,-1.6817103825011195,-2.5270870367633265,2.28101555883374,-1.0179908911334437,0.19359417259693146
1708437887.2718928,-1.1052091121673584,-1.6816760502257289,-2.5270677248584192,2.2810370165058593,-1.0179951826678675,0.1940585821866989
1708437887.273921,-1.1052225828170776,-1.6817208729186,-2.5270467440234583,2.2809623914906005,-1.0180209318744105,0.19463446736335754
1708437887.2759004,-1.1052390336990356,-1.681687971154684,-2.5270586649524134,2.281012697810791,-1.0179103056537073,0.19511988759040833
1708437887.2779243,-1.1052062511444092,-1.681687971154684,-2.5270796457873743,2.280980034465454,-1.0179556051837366,0.19567331671714783
1708437887.2799454,-1.1051989793777466,-1.6817132435240687,-2.5270512739764612,2.28095190107312,-1.017947022114889,0.19618040323257446
1708437887.2818844,-1.1051796674728394,-1.6816970310606898,-2.5270348230945032,2.280963822002075,-1.0179351011859339,0.19671842455863953
1708437887.2839265,-1.1051251888275146,-1.6816345653929652,-2.527008835469381,2.280960722560547,-1.0179069677936,0.19722013175487518
1708437887.2858903,-1.105150580406189,-1.6817208729186,-2.5270751158343714,2.2808989721485595,-1.017956558858053,0.1978093385696411
1708437887.2879024,-1.105126976966858,-1.6817370853819789,-2.526994053517477,2.2809077936359863,-1.0179651419269007,0.19835196435451508
1708437887.2899,-1.105128526687622,-1.6817409000792445,-2.52702242532839,2.2809457021900634,-1.0178988615619105,0.19895626604557037
1708437887.2918828,-1.1050912141799927,-1.6817285023131312,-2.527013365422384,2.28086440145459,-1.017911736165182,0.19951941072940826
1708437887.293926,-1.105083703994751,-1.6817361317076625,-2.526973311101095,2.2808849054523925,-1.0179045836078089,0.2000945806503296
1708437887.2958984,-1.105071783065796,-1.6817475757994593,-2.526989523564474,2.2808524805256347,-1.0178750197040003,0.20057813823223114
1708437887.2978911,-1.1050474643707275,-1.6817361317076625,-2.527060333882467,2.2808398443409423,-1.017883602772848,0.20112423598766327
1708437887.2998717,-1.1050490140914917,-1.6817971668639125,-2.526973072682516,2.280853195781372,-1.0178597609149378,0.2016528844833374
1708437887.301869,-1.105002760887146,-1.6817432842650355,-2.5270467440234583,2.280820532436035,-1.0178640524493616,0.20218463242053986
1708437887.3038943,-1.1050251722335815,-1.6817318401732386,-2.527026955281393,2.2807716566273193,-1.0178478399859827,0.2027704119682312
1708437887.3058898,-1.1049834489822388,-1.681833406487936,-2.5269866625415247,2.280780478114746,-1.0178683439837855,0.20334556698799133
1708437887.3079233,-1.1049879789352417,-1.6817971668639125,-2.5270002524005335,2.2807890611835937,-1.0178068319903772,0.20396822690963745
1708437887.30988,-1.1049772500991821,-1.6817709408202113,-2.5270450750934046,2.2806624609180908,-1.017787281666891,0.20448139309883118
1708437887.3118725,-1.1049607992172241,-1.681840559045309,-2.5269911924945276,2.2807158666798095,-1.0178197065936487,0.20505356788635254
1708437887.3139079,-1.1049772500991821,-1.6818777523436488,-2.5269625822650355,2.2807158666798095,-1.0178206602679651,0.20564031600952148
1708437887.315901,-1.1049472093582153,-1.6817871532835902,-2.5269866625415247,2.2806712824055175,-1.0178034941302698,0.2062198519706726
1708437887.3178856,-1.104910969734192,-1.6818977795042933,-2.5269702116595667,2.280684633845947,-1.01780873933901,0.2067403793334961
1708437887.319888,-1.1048415899276733,-1.6818248234190882,-2.5270002524005335,2.280697985286377,-1.0177348295794886,0.20732447504997253
1708437887.3218706,-1.1048744916915894,-1.681857248345846,-2.5269625822650355,2.280639334315918,-1.0177839438067835,0.20794275403022766
1708437887.3239155,-1.1048625707626343,-1.6818796596922816,-2.5269747416125696,2.2806319433399658,-1.0178044478045862,0.2085549235343933
1708437887.325909,-1.1048808097839355,-1.6819459400572718,-2.5269671122180384,2.280627413386963,-1.0177925268756312,0.20909687876701355
1708437887.3279,-1.1048240661621094,-1.6818872890868128,-2.5269761721240442,2.2806452947803955,-1.0177682081805628,0.20974081754684448
1708437887.3299487,-1.1047786474227905,-1.681981702844137,-2.5269506613360804,2.2806288438984375,-1.0177925268756312,0.21034884452819824
1708437887.3318834,-1.104799747467041,-1.6819526157774867,-2.526926581059591,2.280609293574951,-1.0177229086505335,0.21095740795135498
1708437887.3338876,-1.1047759056091309,-1.6819802723326625,-2.5269761721240442,2.280543490047119,-1.0177434126483362,0.21153640747070312
