Eg3-git/Classifiers/Data Collection/u6/u6abc2_ur3e_joint_states.csv
time,elbow_joint,shoulder_lift_joint,shoulder_pan_joint,wrist_1_joint,wrist_2_joint,wrist_3_joint
1708437824.001558,-1.1060444116592407,-1.681326528588766,-2.5272026697741907,2.2820352750965576,-1.0184791723834437,0.31396543979644775
1708437824.0035708,-1.1060031652450562,-1.6812650165953578,-2.5272236506091517,2.2820514875599365,-1.0184348265277308,0.3139609098434448
1708437824.0055592,-1.1059869527816772,-1.6812902889647425,-2.527247492467062,2.2820724683948974,-1.018442455922262,0.313989520072937
1708437824.0075755,-1.105991244316101,-1.6813222370543421,-2.5272355715381067,2.2820190626331787,-1.0184338728534144,0.31396985054016113
1708437824.009598,-1.1060075759887695,-1.6812650165953578,-2.5272281805621546,2.2820018964954834,-1.0184510389911097,0.3139234781265259
1708437824.0115826,-1.1060442924499512,-1.681326528588766,-2.527242962514059,2.2820276457020263,-1.018430534993307,0.3139805793762207
1708437824.0135703,-1.1060324907302856,-1.6813188991942347,-2.5272324720965784,2.282064839000366,-1.0184510389911097,0.31395649909973145
1708437824.015555,-1.1060032844543457,-1.6812778911986292,-2.527231041585104,2.2820724683948974,-1.018426243458883,0.3139324486255646
1708437824.0175982,-1.1060575246810913,-1.6812902889647425,-2.5272355715381067,2.282085819835327,-1.0184500853167933,0.31395789980888367
1708437824.0195503,-1.1060205698013306,-1.681282182733053,-2.5272191206561487,2.2820560175129394,-1.018442455922262,0.31395208835601807
1708437824.0215702,-1.1059869527816772,-1.681282182733053,-2.5272401014911097,2.2820440965839843,-1.0184381643878382,0.31396985054016113
1708437824.023556,-1.1060075759887695,-1.681254049340719,-2.5272608439074915,2.2820932108112792,-1.018442455922262,0.3139520287513733
1708437824.0255635,-1.1060487031936646,-1.6812325916686,-2.527214590703146,2.2820440965839843,-1.0184672514544886,0.3139534890651703
1708437824.027576,-1.1060161590576172,-1.6812945804991664,-2.5272026697741907,2.2820352750965576,-1.0184467474566858,0.31395792961120605
1708437824.0295796,-1.1059750318527222,-1.6812283001341761,-2.527210060750143,2.2820679384418945,-1.0184381643878382,0.313940167427063
1708437824.0315561,-1.1060280799865723,-1.6812778911986292,-2.5272191206561487,2.2820233541676025,-1.0184348265277308,0.31395795941352844
1708437824.0335946,-1.1059538125991821,-1.681326528588766,-2.5272401014911097,2.2820278841206054,-1.0184381643878382,0.3138953447341919
1708437824.035643,-1.1059913635253906,-1.6812693081297816,-2.5271862188922327,2.2820188242145996,-1.0184477011310022,0.3139042556285858
1708437824.0376136,-1.1059750318527222,-1.6812616787352503,-2.5272563139544886,2.28205315648999,-1.018426243458883,0.3139609098434448
1708437824.0395916,-1.1060529947280884,-1.6812650165953578,-2.527247492467062,2.2820395666309814,-1.0184510389911097,0.31393682956695557
1708437824.0415826,-1.1060075759887695,-1.6812902889647425,-2.5272520224200647,2.282064839000366,-1.0185039679156702,0.3139324486255646
1708437824.0435874,-1.1060032844543457,-1.6813341579832972,-2.5272520224200647,2.2820233541676025,-1.018426243458883,0.31392350792884827
1708437824.0455573,-1.1060237884521484,-1.6812735996642054,-2.527214590703146,2.2820843893238525,-1.0184467474566858,0.31393247842788696
1708437824.047617,-1.1060357093811035,-1.681303163568014,-2.5272026697741907,2.2820963102528076,-1.0184910933123987,0.31396543979644775
1708437824.0495877,-1.1060161590576172,-1.6812902889647425,-2.527226511632101,2.281978054637573,-1.0184467474566858,0.3139115869998932
1708437824.0516145,-1.1060444116592407,-1.6813470325865687,-2.527214590703146,2.2820276457020263,-1.018426243458883,0.3139938712120056
1708437824.0536084,-1.1060075759887695,-1.6812488041319789,-2.5272727648364466,2.2820486265369873,-1.0184672514544886,0.3139401376247406
1708437824.0555286,-1.1060528755187988,-1.6812735996642054,-2.527210060750143,2.2820395666309814,-1.018414322529928,0.3139894902706146
1708437824.0575745,-1.1059913635253906,-1.681286474267477,-2.5272401014911097,2.2819899755665283,-1.0184791723834437,0.3139817416667938
1708437824.05958,-1.1060682535171509,-1.6812616787352503,-2.5272026697741907,2.2820724683948974,-1.018430534993307,0.3139786422252655
1708437824.061518,-1.1060357093811035,-1.6812368832030238,-2.5272191206561487,2.2820679384418945,-1.0184219519244593,0.3139357268810272
1708437824.063563,-1.1060194969177246,-1.6812650165953578,-2.5272727648364466,2.2820018964954834,-1.018454376851217,0.31390276551246643
1708437824.0655763,-1.1060367822647095,-1.6812859974303187,-2.5272026697741907,2.28205315648999,-1.0184748808490198,0.31392350792884827
1708437824.0676157,-1.106032371520996,-1.681244512597555,-2.5272026697741907,2.28201071798291,-1.0184338728534144,0.31396982073783875
1708437824.0695262,-1.1059913635253906,-1.6812454662718714,-2.5272520224200647,2.282081289882324,-1.018458668385641,0.31393125653266907
1708437824.071549,-1.1060562133789062,-1.6812778911986292,-2.5271862188922327,2.2819973665424804,-1.0184467474566858,0.31392791867256165
1708437824.073563,-1.1060031652450562,-1.6812778911986292,-2.527247492467062,2.282081289882324,-1.0184834639178675,0.31395208835601807
1708437824.0755532,-1.1060271263122559,-1.6813060245909632,-2.527214590703146,2.282097502345703,-1.0184629599200647,0.3139490783214569
1708437824.0775301,-1.1060237884521484,-1.6812859974303187,-2.5271952787982386,2.2820352750965576,-1.018430534993307,0.31395649909973145
1708437824.0795345,-1.1060162782669067,-1.6813222370543421,-2.5272191206561487,2.2820486265369873,-1.0184748808490198,0.3139204978942871
1708437824.0815306,-1.1059707403182983,-1.6812735996642054,-2.5272191206561487,2.28205315648999,-1.0184391180621546,0.3139324188232422
1708437824.0835736,-1.1060768365859985,-1.681310316125387,-2.5272520224200647,2.2820605474659423,-1.0184953848468226,0.31392350792884827
1708437824.0856502,-1.1060487031936646,-1.681282182733053,-2.527198139821188,2.2820886808582763,-1.018442455922262,0.31393125653266907
1708437824.0875852,-1.1060194969177246,-1.6812650165953578,-2.5272281805621546,2.2820142942615966,-1.018442455922262,0.31392791867256165
1708437824.0895872,-1.1060519218444824,-1.681260725060934,-2.527198139821188,2.2820486265369873,-1.0184629599200647,0.3139490783214569
1708437824.09156,-1.1060357093811035,-1.6812735996642054,-2.5272191206561487,2.2820398050495605,-1.018426243458883,0.3139684200286865
1708437824.093547,-1.1060529947280884,-1.6812735996642054,-2.527285401021139,2.2820634084888916,-1.018458668385641,0.3139534890651703
1708437824.0955331,-1.1059750318527222,-1.6812859974303187,-2.5272520224200647,2.282085819835327,-1.0184715429889124,0.3139894902706146
1708437824.0975766,-1.1060442924499512,-1.6812530956664027,-2.5272608439074915,2.2820426660725097,-1.0184953848468226,0.3139817416667938
1708437824.0995817,-1.1060324907302856,-1.6812693081297816,-2.527193848286764,2.2820634084888916,-1.0184500853167933,0.31392350792884827
1708437824.1015563,-1.1060400009155273,-1.6812988720335902,-2.527231041585104,2.2820767599293212,-1.0184620062457483,0.3139742314815521
1708437824.1035376,-1.1060357093811035,-1.681314607659811,-2.527231041585104,2.2820145326801757,-1.0184791723834437,0.31391608715057373
1708437824.1055248,-1.1060280799865723,-1.6813551388182582,-2.5272401014911097,2.2820605474659423,-1.0184629599200647,0.31388944387435913
1708437824.1075494,-1.1060324907302856,-1.681244512597555,-2.527198139821188,2.2820233541676025,-1.0184295813189905,0.3139817416667938
1708437824.1096058,-1.1059870719909668,-1.681310316125387,-2.5271862188922327,2.2820395666309814,-1.0184014479266565,0.3139490783214569
1708437824.1115983,-1.1060529947280884,-1.6813060245909632,-2.5271952787982386,2.2820486265369873,-1.0184629599200647,0.31395649909973145
1708437824.1135664,-1.1060519218444824,-1.681314607659811,-2.527210060750143,2.2820605474659423,-1.018458668385641,0.3139534890651703
1708437824.1155958,-1.1060237884521484,-1.681282182733053,-2.5272117296801966,2.2820352750965576,-1.0184100309955042,0.31396540999412537
1708437824.1175706,-1.1060280799865723,-1.6812573872008265,-2.527231041585104,2.2820398050495605,-1.018486801777975,0.3138789236545563
1708437824.119559,-1.1060400009155273,-1.6812931499876917,-2.5272281805621546,2.28213016569104,-1.018486801777975,0.31392350792884827
1708437824.1215496,-1.1060194969177246,-1.6812650165953578,-2.527210060750143,2.282069368953369,-1.0184748808490198,0.3139609098434448
1708437824.123555,-1.105995535850525,-1.6812778911986292,-2.527193609868185,2.2820843893238525,-1.018482510243551,0.31389084458351135
1708437824.1256099,-1.1059999465942383,-1.6812778911986292,-2.5272401014911097,2.2820560175129394,-1.0184176603900355,0.313940167427063
1708437824.127537,-1.1059988737106323,-1.6812931499876917,-2.5272026697741907,2.2821079927631835,-1.018458668385641,0.31392791867256165
1708437824.1295636,-1.1059999465942383,-1.6812735996642054,-2.5272162596331995,2.2820605474659423,-1.0184910933123987,0.31392350792884827
1708437824.1315434,-1.1060487031936646,-1.681314607659811,-2.5272026697741907,2.2820605474659423,-1.018458668385641,0.31395649909973145
1708437824.1335545,-1.1060314178466797,-1.6812530956664027,-2.527214590703146,2.2820352750965576,-1.018458668385641,0.31392791867256165
1708437824.1355658,-1.106006383895874,-1.6812817058958949,-2.5272281805621546,2.281994267100952,-1.0184457937823694,0.3139071762561798
1708437824.1376114,-1.106032371520996,-1.6812659702696742,-2.5271907488452356,2.2820064264484863,-1.0184457937823694,0.31389525532722473
1708437824.1395922,-1.1060314178466797,-1.6812573872008265,-2.527231041585104,2.2820440965839843,-1.0184953848468226,0.3139609098434448
1708437824.1415784,-1.1060357093811035,-1.6813341579832972,-2.5271952787982386,2.2820395666309814,-1.0184338728534144,0.31392791867256165
1708437824.1435595,-1.1060237884521484,-1.6812573872008265,-2.527198139821188,2.2820321756550292,-1.0184500853167933,0.31395649909973145
1708437824.1456037,-1.1060324907302856,-1.6812735996642054,-2.5272026697741907,2.282069607371948,-1.0184338728534144,0.3139357566833496
1708437824.1475766,-1.1059869527816772,-1.6812659702696742,-2.5272071997271937,2.2820188242145996,-1.018515412007467,0.3139490783214569
1708437824.1495795,-1.1060850620269775,-1.6812693081297816,-2.5272355715381067,2.2821051317402343,-1.0184782187091272,0.31396540999412537
1708437824.1515582,-1.1060444116592407,-1.6812488041319789,-2.527193848286764,2.2820352750965576,-1.0184748808490198,0.3139324188232422
1708437824.1535532,-1.1060563325881958,-1.6812488041319789,-2.527226511632101,2.2820724683948974,-1.0184953848468226,0.3139490783214569
1708437824.1555386,-1.1060400009155273,-1.681310316125387,-2.5272236506091517,2.2820352750965576,-1.018454376851217,0.3139609098434448
1708437824.1575418,-1.1060032844543457,-1.6812368832030238,-2.5272191206561487,2.2820395666309814,-1.018482510243551,0.3139204978942871
1708437824.1595972,-1.1060606241226196,-1.6813060245909632,-2.52726394334902,2.2820724683948974,-1.0184577147113245,0.3139204978942871
1708437824.1615438,-1.1060237884521484,-1.6812693081297816,-2.527181927357809,2.2820605474659423,-1.0184620062457483,0.31395649909973145
1708437824.1635535,-1.1059664487838745,-1.681359430352682,-2.527231041585104,2.2820395666309814,-1.018486801777975,0.3139115869998932
1708437824.165561,-1.1060357093811035,-1.6812368832030238,-2.5271952787982386,2.2820767599293212,-1.0185077826129358,0.3139894902706146
1708437824.167556,-1.1059956550598145,-1.6812454662718714,-2.5272608439074915,2.2820560175129394,-1.018503491078512,0.3139324188232422
1708437824.1695642,-1.1060357093811035,-1.6812945804991664,-2.5271740595446985,2.2820841509052734,-1.018482510243551,0.3139204978942871
1708437824.1715634,-1.1060562133789062,-1.6812735996642054,-2.527210060750143,2.2820560175129394,-1.018503491078512,0.31392350792884827
1708437824.17359,-1.1059707403182983,-1.6813017330565394,-2.527189318333761,2.2820679384418945,-1.0184467474566858,0.31392791867256165
1708437824.1755664,-1.1060075759887695,-1.681270261804098,-2.5271907488452356,2.2820278841206054,-1.0184662977801722,0.31396982073783875
1708437824.1775825,-1.1060638427734375,-1.6812330685057582,-2.527213160191671,2.2820233541676025,-1.0184949080096644,0.3139071762561798
1708437824.1795611,-1.1060357093811035,-1.681286474267477,-2.527231041585104,2.2820018964954834,-1.018503491078512,0.31394457817077637
1708437824.1815572,-1.1060476303100586,-1.6812616787352503,-2.527221981679098,2.282069607371948,-1.018482510243551,0.31392791867256165
1708437824.1835709,-1.1060725450515747,-1.6812693081297816,-2.527177397404806,2.282081289882324,-1.018486801777975,0.31393682956695557
1708437824.185567,-1.1060400009155273,-1.6812945804991664,-2.5272520224200647,2.2820932108112792,-1.0184748808490198,0.3139324188232422
1708437824.1876557,-1.1060314178466797,-1.6812530956664027,-2.5272191206561487,2.2820018964954834,-1.0184620062457483,0.3139817714691162
1708437824.189573,-1.1060357093811035,-1.681314607659811,-2.52726394334902,2.2820395666309814,-1.0184949080096644,0.3139268159866333
1708437824.1915507,-1.1060357093811035,-1.6812368832030238,-2.527259413396017,2.2820767599293212,-1.0184748808490198,0.313940167427063
1708437824.1935782,-1.1060606241226196,-1.6813060245909632,-2.527184788380758,2.28201071798291,-1.0184991995440882,0.31393682956695557
1708437824.1955588,-1.1060314178466797,-1.681326528588766,-2.527231041585104,2.28205315648999,-1.0184415022479456,0.31395792961120605
1708437824.197586,-1.1060725450515747,-1.6813708744444789,-2.5272355715381067,2.282109423274658,-1.0184372107135218,0.3139115869998932
1708437824.1995633,-1.1060682535171509,-1.6812778911986292,-2.527205769215719,2.28205315648999,-1.018486801777975,0.31396088004112244
1708437824.2015646,-1.106022596359253,-1.6812974415221156,-2.5272401014911097,2.2820767599293212,-1.018486801777975,0.31393682956695557
1708437824.2035635,-1.1060194969177246,-1.6812945804991664,-2.5272682348834437,2.2820395666309814,-1.018503491078512,0.31396985054016113
1708437824.2055418,-1.1060681343078613,-1.681310316125387,-2.5272401014911097,2.282081289882324,-1.0185068289386194,0.31396540999412537
1708437824.2075615,-1.1059869527816772,-1.6812988720335902,-2.527242962514059,2.2820018964954834,-1.018531624470846,0.31392350792884827
1708437824.2096012,-1.1060444116592407,-1.6812731228270472,-2.527226511632101,2.2820514875599365,-1.0184991995440882,0.31395646929740906
1708437824.2115414,-1.1060476303100586,-1.6812778911986292,-2.527226511632101,2.2820560175129394,-1.018482510243551,0.31396982073783875
1708437824.2135715,-1.1060194969177246,-1.6812159023680628,-2.527226511632101,2.2820886808582763,-1.0185273329364222,0.31396979093551636
1708437824.2155561,-1.1060150861740112,-1.6812902889647425,-2.52727181116213,2.2820262151905517,-1.018503491078512,0.31394457817077637
1708437824.2175608,-1.1060194969177246,-1.6812488041319789,-2.527242962514059,2.2820440965839843,-1.0184863249408167,0.31397414207458496
1708437824.2195642,-1.1060476303100586,-1.6813179455199183,-2.527231041585104,2.2820767599293212,-1.0184949080096644,0.3139490783214569
1708437824.221535,-1.1060433387756348,-1.6813017330565394,-2.5272026697741907,2.2820514875599365,-1.0184782187091272,0.31395643949508667
1708437824.2235563,-1.1060357093811035,-1.6813017330565394,-2.5272071997271937,2.282097502345703,-1.0184820334063929,0.3139042258262634
1708437824.2255511,-1.106052041053772,-1.6813341579832972,-2.527210060750143,2.2820142942615966,-1.0184863249408167,0.313944548368454
1708437824.2275531,-1.1060519218444824,-1.6813060245909632,-2.527259413396017,2.282118483180664,-1.0184739271747034,0.31392931938171387
1708437824.2295694,-1.1060606241226196,-1.6812454662718714,-2.5272355715381067,2.2820753294178466,-1.018543545399801,0.3139324486255646
1708437824.2315361,-1.1060314178466797,-1.6812859974303187,-2.527259413396017,2.2820514875599365,-1.0185273329364222,0.3139174282550812
1708437824.2335672,-1.1060400009155273,-1.6812287769713343,-2.5272563139544886,2.2820843893238525,-1.0184991995440882,0.31396976113319397
1708437824.2355766,-1.1059900522232056,-1.6813308201231898,-2.5272355715381067,2.2821170526691894,-1.0184457937823694,0.31393682956695557
1708437824.2375693,-1.1060280799865723,-1.6812735996642054,-2.527259413396017,2.282106562251709,-1.018482510243551,0.313965380191803
1708437824.239581,-1.1060031652450562,-1.6812988720335902,-2.5272401014911097,2.2820471960255126,-1.018482510243551,0.31392186880111694
1708437824.2415607,-1.1060271263122559,-1.6812778911986292,-2.5272520224200647,2.282097502345703,-1.0185025374041956,0.31394121050834656
1708437824.243571,-1.1060562133789062,-1.6812368832030238,-2.527242962514059,2.2820963102528076,-1.018486801777975,0.31394121050834656
1708437824.2455857,-1.1060271263122559,-1.6812988720335902,-2.527254883443014,2.2820679384418945,-1.0185273329364222,0.3139204978942871
1708437824.2475693,-1.1060357093811035,-1.6812530956664027,-2.527242962514059,2.2819766241260986,-1.018515412007467,0.3139072060585022
1708437824.2495558,-1.1060476303100586,-1.6812530956664027,-2.527205769215719,2.282010002727173,-1.018543545399801,0.31390416622161865
1708437824.2515717,-1.1060357093811035,-1.6812325916686,-2.52726394334902,2.2820262151905517,-1.0185068289386194,0.31391745805740356
1708437824.2535622,-1.1060357093811035,-1.6812974415221156,-2.527221981679098,2.2820605474659423,-1.0185230414019983,0.3138922452926636
1708437824.2555666,-1.1060357093811035,-1.6812650165953578,-2.527242962514059,2.2820426660725097,-1.0185230414019983,0.31393682956695557
1708437824.257564,-1.1060271263122559,-1.6812778911986292,-2.52726394334902,2.2820798593708496,-1.0185025374041956,0.3139292895793915
1708437824.2595935,-1.1060357093811035,-1.6813188991942347,-2.527221981679098,2.2820560175129394,-1.0185111204730433,0.3139249086380005
1708437824.261576,-1.1060314178466797,-1.6812859974303187,-2.527259413396017,2.2820395666309814,-1.0185273329364222,0.3138416111469269
1708437824.2635846,-1.1060725450515747,-1.6812778911986292,-2.527242962514059,2.2820233541676025,-1.0184696356402796,0.31392791867256165
1708437824.2656026,-1.1060357093811035,-1.6812988720335902,-2.5272672812091272,2.2820352750965576,-1.0185230414019983,0.3140115439891815
1708437824.2675967,-1.1060314178466797,-1.6813136539854945,-2.527259413396017,2.2820233541676025,-1.0185468832599085,0.3139490485191345
1708437824.26959,-1.1060150861740112,-1.6812497578062953,-2.527238432561056,2.2820471960255126,-1.0185068289386194,0.313935786485672
1708437824.2715607,-1.1060487031936646,-1.6812907658019007,-2.527214590703146,2.2821096616932373,-1.0184906164752405,0.31392791867256165
1708437824.2735777,-1.1060357093811035,-1.6813188991942347,-2.527254883443014,2.2820767599293212,-1.0185025374041956,0.3139772117137909
1708437824.2755556,-1.1060194969177246,-1.6812659702696742,-2.527210060750143,2.2820142942615966,-1.0185068289386194,0.31387898325920105
1708437824.2775972,-1.1060551404953003,-1.681277414361471,-2.527242962514059,2.2820352750965576,-1.0185187498675745,0.3138878643512726
1708437824.2795813,-1.1060519218444824,-1.6812368832030238,-2.527242962514059,2.2820843893238525,-1.0185025374041956,0.3139490783214569
1708437824.2815483,-1.106022596359253,-1.6812573872008265,-2.527217451726095,2.2820886808582763,-1.0184982458697718,0.3139292895793915
1708437824.2836046,-1.1060606241226196,-1.6813179455199183,-2.527231041585104,2.2820724683948974,-1.0184991995440882,0.31392791867256165
1708437824.2855804,-1.1060433387756348,-1.681310316125387,-2.527231041585104,2.2820231157490234,-1.0184820334063929,0.31393682956695557
1708437824.287634,-1.1060519218444824,-1.6812988720335902,-2.527276341115133,2.2820753294178466,-1.018505875264303,0.3139490783214569
1708437824.28958,-1.1060519218444824,-1.6812530956664027,-2.527221981679098,2.2820142942615966,-1.0184734503375452,0.3139204978942871
1708437824.2915702,-1.1060194969177246,-1.681310316125387,-2.527221981679098,2.2820471960255126,-1.0184982458697718,0.31392353773117065
1708437824.2936213,-1.1060519218444824,-1.6812902889647425,-2.527226511632101,2.2820352750965576,-1.0184906164752405,0.3139129877090454
1708437824.295575,-1.1060194969177246,-1.6812693081297816,-2.527214590703146,2.2820307451435546,-1.0184982458697718,0.31394121050834656
1708437824.2975626,-1.1060357093811035,-1.6812488041319789,-2.527259413396017,2.2820514875599365,-1.0185144583331507,0.31389978528022766
1708437824.29959,-1.1060032844543457,-1.681310316125387,-2.527233902608053,2.282038136119507,-1.0184820334063929,0.31394457817077637
1708437824.3015893,-1.1060357093811035,-1.6812488041319789,-2.5272837320910853,2.2820514875599365,-1.0185068289386194,0.31396979093551636
1708437824.3036232,-1.1059621572494507,-1.6812497578062953,-2.5272672812091272,2.2820352750965576,-1.0185144583331507,0.31390416622161865
1708437824.3055758,-1.1060638427734375,-1.6812530956664027,-2.527247492467062,2.2820514875599365,-1.0184863249408167,0.3139609098434448
1708437824.3075938,-1.1060357093811035,-1.6812974415221156,-2.527254883443014,2.2820352750965576,-1.0184820334063929,0.31393128633499146
1708437824.3095806,-1.1060031652450562,-1.6812859974303187,-2.527259413396017,2.2820591169544677,-1.0185230414019983,0.31392353773117065
1708437824.3115606,-1.1060152053833008,-1.6812859974303187,-2.527193848286764,2.2820679384418945,-1.0185111204730433,0.31392791867256165
1708437824.313574,-1.1059869527816772,-1.6812530956664027,-2.5272563139544886,2.2820679384418945,-1.0184949080096644,0.3138701617717743
1708437824.3155735,-1.1060400009155273,-1.6812778911986292,-2.5272355715381067,2.2820634084888916,-1.0184820334063929,0.3139072060585022
1708437824.3175845,-1.1060032844543457,-1.6812902889647425,-2.527276341115133,2.2820886808582763,-1.0185273329364222,0.31393682956695557
1708437824.319547,-1.1060357093811035,-1.6812778911986292,-2.527221981679098,2.2820514875599365,-1.018547836934225,0.31390416622161865
1708437824.3215425,-1.1060237884521484,-1.6813017330565394,-2.527254883443014,2.2820560175129394,-1.0184820334063929,0.3139534592628479
1708437824.3235404,-1.1060343980789185,-1.6812902889647425,-2.527238432561056,2.2820679384418945,-1.0184949080096644,0.31394121050834656
1708437824.3255687,-1.1060893535614014,-1.6812616787352503,-2.5272236506091517,2.2820886808582763,-1.0185144583331507,0.3139578700065613
1708437824.3275528,-1.1059826612472534,-1.6812488041319789,-2.527250353490011,2.2821215826221923,-1.0185273329364222,0.31394562125205994
1708437824.3295794,-1.1060476303100586,-1.6812650165953578,-2.527245823537008,2.282097740764282,-1.0185349623309534,0.3138878643512726
1708437824.3315408,-1.1060314178466797,-1.6812573872008265,-2.5272250811206263,2.282010002727173,-1.0184734503375452,0.31396979093551636
1708437824.3335423,-1.1060476303100586,-1.6812778911986292,-2.5272682348834437,2.2819854456135253,-1.0185392538653772,0.3139324188232422
1708437824.335554,-1.1060357093811035,-1.6813179455199183,-2.52727181116213,2.2820471960255126,-1.0185306707965296,0.3139129877090454
1708437824.337616,-1.1060237884521484,-1.681282182733053,-2.527254883443014,2.2820917802998046,-1.018547836934225,0.3139534592628479
1708437824.3395631,-1.1060357093811035,-1.6812778911986292,-2.527259413396017,2.2821051317402343,-1.018531624470846,0.31391608715057373
1708437824.341565,-1.1059738397598267,-1.6813222370543421,-2.527217451726095,2.2820514875599365,-1.0185187498675745,0.31393682956695557
1708437824.3435504,-1.106022596359253,-1.6812735996642054,-2.527254883443014,2.2820886808582763,-1.018482510243551,0.3139204978942871
1708437824.345555,-1.1060237884521484,-1.681282182733053,-2.527221981679098,2.2820352750965576,-1.0185511747943323,0.31387999653816223
1708437824.347557,-1.1060107946395874,-1.6813231907286585,-2.527242962514059,2.2820753294178466,-1.018477741871969,0.3138922452926636
1708437824.3495672,-1.106034517288208,-1.681282182733053,-2.527217451726095,2.2821006017872314,-1.0185144583331507,0.31390416622161865
1708437824.3515692,-1.1060031652450562,-1.6812778911986292,-2.527231041585104,2.2821006017872314,-1.0185111204730433,0.3138878643512726
1708437824.3535733,-1.1060075759887695,-1.6812530956664027,-2.527259413396017,2.2821006017872314,-1.0185349623309534,0.31396979093551636
1708437824.3555589,-1.1060314178466797,-1.6812626324095667,-2.527213160191671,2.2820514875599365,-1.0185187498675745,0.31390416622161865
1708437824.3575675,-1.1060357093811035,-1.6813308201231898,-2.527231041585104,2.282064839000366,-1.0185187498675745,0.313933789730072
1708437824.3595865,-1.1060807704925537,-1.6813308201231898,-2.527238432561056,2.2820634084888916,-1.0184696356402796,0.3139490783214569
1708437824.361556,-1.1060638427734375,-1.681314607659811,-2.527254883443014,2.2820514875599365,-1.0184820334063929,0.31396225094795227
1708437824.3635616,-1.1060519218444824,-1.6812778911986292,-2.527242962514059,2.2820886808582763,-1.0184863249408167,0.3139578700065613
1708437824.3655512,-1.1060764789581299,-1.681282182733053,-2.5273001829730433,2.2821082311817626,-1.018505875264303,0.3139292895793915
1708437824.36756,-1.106022596359253,-1.6812945804991664,-2.527233902608053,2.282109423274658,-1.0185230414019983,0.3139323890209198
1708437824.3695943,-1.106023907661438,-1.6812616787352503,-2.52726394334902,2.282125158900879,-1.0185640493976038,0.3139292895793915
1708437824.3715518,-1.106052041053772,-1.681326528588766,-2.527280871068136,2.2820963102528076,-1.0185392538653772,0.3138922452926636
1708437824.373581,-1.1060476303100586,-1.6813222370543421,-2.527217451726095,2.2820843893238525,-1.0184906164752405,0.3139204978942871
1708437824.3756087,-1.1060388088226318,-1.6812988720335902,-2.527254883443014,2.2820798593708496,-1.0184820334063929,0.313933789730072
1708437824.3775852,-1.1060638427734375,-1.6812573872008265,-2.527250353490011,2.2820724683948974,-1.0184949080096644,0.31390857696533203
1708437824.3795521,-1.1060595512390137,-1.681282182733053,-2.527247492467062,2.2820591169544677,-1.0185025374041956,0.3139534294605255
1708437824.3815625,-1.1060551404953003,-1.6812907658019007,-2.5272682348834437,2.2821170526691894,-1.0184863249408167,0.31396088004112244
1708437824.3835523,-1.106076955795288,-1.6812650165953578,-2.527231041585104,2.2820276457020263,-1.0184863249408167,0.31394457817077637
1708437824.3855565,-1.1060433387756348,-1.6812902889647425,-2.527280871068136,2.2820679384418945,-1.0185349623309534,0.3139161169528961
1708437824.387584,-1.1060550212860107,-1.6812616787352503,-2.527233902608053,2.2820514875599365,-1.018505875264303,0.31392356753349304
1708437824.3895886,-1.1060388088226318,-1.6813060245909632,-2.5272727648364466,2.2820679384418945,-1.0185349623309534,0.31396088004112244
1708437824.3915613,-1.1060271263122559,-1.681286474267477,-2.527238432561056,2.2820724683948974,-1.0184982458697718,0.31392356753349304
1708437824.393604,-1.1060850620269775,-1.6813351116576136,-2.52726394334902,2.2819973665424804,-1.0185187498675745,0.3139367997646332
1708437824.395562,-1.1060606241226196,-1.6813308201231898,-2.527229611073629,2.282078190440796,-1.0184820334063929,0.3139367997646332
1708437824.3976095,-1.1060400009155273,-1.6812778911986292,-2.527238432561056,2.2821170526691894,-1.0185392538653772,0.31394559144973755
1708437824.3995566,-1.1060357093811035,-1.681254049340719,-2.52727181116213,2.2820634084888916,-1.0184863249408167,0.31391164660453796
1708437824.4015682,-1.1060357093811035,-1.6812735996642054,-2.5272355715381067,2.2820886808582763,-1.0185144583331507,0.3138623833656311
1708437824.403643,-1.1060764789581299,-1.6812659702696742,-2.527259413396017,2.2821006017872314,-1.0185187498675745,0.3139292299747467
1708437824.4055908,-1.1060638427734375,-1.681310316125387,-2.527210060750143,2.2820634084888916,-1.0184949080096644,0.3139204978942871
1708437824.4075804,-1.1060681343078613,-1.6812859974303187,-2.527201239262716,2.2820395666309814,-1.0184653441058558,0.3139072358608246
1708437824.4095848,-1.1060400009155273,-1.6812530956664027,-2.52726394334902,2.2821082311817626,-1.0185230414019983,0.3139204978942871
1708437824.411553,-1.1060433387756348,-1.681338449517721,-2.527221981679098,2.282113953227661,-1.0184863249408167,0.3139292597770691
1708437824.4135945,-1.1060107946395874,-1.6812573872008265,-2.527238432561056,2.2821125227161865,-1.0185273329364222,0.31390419602394104
1708437824.415554,-1.1060400009155273,-1.6812945804991664,-2.527226511632101,2.2820426660725097,-1.018519703541891,0.3139367997646332
1708437824.4175763,-1.1060681343078613,-1.6812573872008265,-2.52726394334902,2.2820471960255126,-1.0185068289386194,0.31397414207458496
1708437824.4195704,-1.1060314178466797,-1.6812330685057582,-2.527254883443014,2.2820886808582763,-1.0184991995440882,0.31389665603637695
1708437824.421557,-1.1060725450515747,-1.681310316125387,-2.527276341115133,2.2820398050495605,-1.018515412007467,0.31392794847488403
1708437824.4235952,-1.1060433387756348,-1.6812735996642054,-2.527254883443014,2.2820963102528076,-1.0184782187091272,0.31392356753349304
1708437824.4255545,-1.1060606241226196,-1.6812817058958949,-2.527254883443014,2.2820426660725097,-1.0184415022479456,0.31394118070602417
1708437824.427595,-1.1060476303100586,-1.6812530956664027,-2.527201239262716,2.2820307451435546,-1.0184991995440882,0.3139490485191345
1708437824.42957,-1.1060433387756348,-1.681310316125387,-2.527231041585104,2.2820843893238525,-1.0184906164752405,0.313940167427063
1708437824.4315505,-1.1060519218444824,-1.6812778911986292,-2.527292553578512,2.2820307451435546,-1.0184991995440882,0.31386685371398926
1708437824.4336019,-1.1060638427734375,-1.681314607659811,-2.527276341115133,2.2820352750965576,-1.0185230414019983,0.3139248788356781
1708437824.435562,-1.1060550212860107,-1.6812945804991664,-2.527259413396017,2.2820753294178466,-1.018515412007467,0.31390419602394104
1708437824.4376428,-1.1060519218444824,-1.6812616787352503,-2.527259413396017,2.2820963102528076,-1.0184491316424769,0.31391164660453796
1708437824.4395726,-1.1060519218444824,-1.6812735996642054,-2.527221981679098,2.2820395666309814,-1.0185111204730433,0.31390419602394104
1708437824.4415722,-1.1060270071029663,-1.6812902889647425,-2.527242962514059,2.2820064264484863,-1.0185273329364222,0.31392794847488403
1708437824.443603,-1.1060357093811035,-1.681326528588766,-2.527242962514059,2.2820722299763183,-1.0184372107135218,0.3139938414096832
1708437824.4455655,-1.1060638427734375,-1.6813222370543421,-2.5272520224200647,2.2820960718342285,-1.018482510243551,0.3139653503894806
1708437824.4475923,-1.1060270071029663,-1.6812488041319789,-2.5272355715381067,2.2820679384418945,-1.0184949080096644,0.31394118070602417
1708437824.4495697,-1.1060314178466797,-1.6812735996642054,-2.527231041585104,2.2820917802998046,-1.0184696356402796,0.31394118070602417
1708437824.4515672,-1.1060314178466797,-1.6812454662718714,-2.527259413396017,2.2820591169544677,-1.0184739271747034,0.31390419602394104
1708437824.4536383,-1.1060476303100586,-1.681310316125387,-2.527214590703146,2.2821170526691894,-1.0185187498675745,0.31389981508255005
1708437824.4555552,-1.1060357093811035,-1.6812778911986292,-2.52726394334902,2.2820395666309814,-1.0184782187091272,0.3138909339904785
1708437824.4575853,-1.1060314178466797,-1.6812945804991664,-2.527288023625509,2.2820591169544677,-1.0184991995440882,0.31387463212013245
1708437824.459571,-1.1060893535614014,-1.6812817058958949,-2.527259413396017,2.2820798593708496,-1.0184782187091272,0.3139204978942871
1708437824.4615545,-1.1060681343078613,-1.6812859974303187,-2.527226511632101,2.2820634084888916,-1.0184910933123987,0.3139204978942871
1708437824.463559,-1.1060400009155273,-1.6812497578062953,-2.527205769215719,2.2820634084888916,-1.0185111204730433,0.3139622211456299
1708437824.4655557,-1.1060357093811035,-1.6812735996642054,-2.527247492467062,2.2820636469074707,-1.0184415022479456,0.3139533996582031
1708437824.4676204,-1.1060850620269775,-1.681244512597555,-2.527231041585104,2.2820426660725097,-1.0184782187091272,0.3138909339904785
1708437824.4696336,-1.1060314178466797,-1.6813308201231898,-2.527231041585104,2.282036705608032,-1.0185187498675745,0.313912957906723
1708437824.4715521,-1.1060519218444824,-1.681314607659811,-2.527198139821188,2.282038374538086,-1.0184782187091272,0.3139161169528961
1708437824.4735599,-1.1060152053833008,-1.6812650165953578,-2.527198139821188,2.2820514875599365,-1.0184991995440882,0.3139292597770691
1708437824.475564,-1.1060606241226196,-1.681310316125387,-2.52727181116213,2.2821459013172607,-1.0184739271747034,0.31399044394493103
1708437824.4775796,-1.1060638427734375,-1.681270261804098,-2.527259413396017,2.2820560175129394,-1.0185077826129358,0.3139534294605255
1708437824.479566,-1.1060638427734375,-1.6813308201231898,-2.527250353490011,2.2820841509052734,-1.0185077826129358,0.31396976113319397
1708437824.481553,-1.1059945821762085,-1.6813017330565394,-2.527276341115133,2.2820440965839843,-1.0185077826129358,0.3139578402042389
1708437824.483559,-1.1060768365859985,-1.6812988720335902,-2.5272520224200647,2.2820352750965576,-1.0184949080096644,0.31390419602394104
1708437824.4855459,-1.1060152053833008,-1.6812859974303187,-2.5273106733905237,2.2820560175129394,-1.0184863249408167,0.3139292597770691
1708437824.4875813,-1.1060433387756348,-1.6812287769713343,-2.527226511632101,2.2820634084888916,-1.0184820334063929,0.31390419602394104
1708437824.4895618,-1.1060357093811035,-1.6813136539854945,-2.527231041585104,2.2821051317402343,-1.018442455922262,0.3139534294605255
1708437824.491586,-1.1060270071029663,-1.6813060245909632,-2.527212921773092,2.2820471960255126,-1.018482510243551,0.3139534294605255
1708437824.4935856,-1.1060764789581299,-1.681310316125387,-2.527210060750143,2.282026453609131,-1.018482510243551,0.31394457817077637
1708437824.4955628,-1.1060357093811035,-1.681282182733053,-2.527231041585104,2.2820471960255126,-1.0184338728534144,0.3139324188232422
1708437824.4975739,-1.1060562133789062,-1.681310316125387,-2.5272520224200647,2.282054587001465,-1.0184782187091272,0.3139367997646332
1708437824.4995625,-1.1060476303100586,-1.681254049340719,-2.527238432561056,2.2820352750965576,-1.0184748808490198,0.3139248788356781
1708437824.5015705,-1.1060107946395874,-1.6812902889647425,-2.527320925389425,2.2820960718342285,-1.0184782187091272,0.31394118070602417
1708437824.5036197,-1.1060271263122559,-1.6812659702696742,-2.527226511632101,2.2820932108112792,-1.018454376851217,0.3139248788356781
1708437824.5055385,-1.1060314178466797,-1.6812778911986292,-2.527242962514059,2.2820843893238525,-1.0184949080096644,0.31388354301452637
1708437824.5075676,-1.1060881614685059,-1.681338449517721,-2.527231041585104,2.282081289882324,-1.0184953848468226,0.3139323890209198
1708437824.5095744,-1.1060357093811035,-1.6812497578062953,-2.527276341115133,2.2820917802998046,-1.0184949080096644,0.3139830231666565
1708437824.5115523,-1.1060194969177246,-1.6812778911986292,-2.527231041585104,2.2820886808582763,-1.0185068289386194,0.3139367997646332
1708437824.5135787,-1.1060271263122559,-1.6811872921385707,-2.527247492467062,2.2820963102528076,-1.0184949080096644,0.3138790428638458
1708437824.5155303,-1.106019377708435,-1.6812659702696742,-2.52726394334902,2.2820753294178466,-1.0184457937823694,0.3139490485191345
1708437824.5176148,-1.1060271263122559,-1.681258340875143,-2.527213160191671,2.282026453609131,-1.018442455922262,0.3139367997646332
1708437824.5195425,-1.1060357093811035,-1.681270261804098,-2.527247492467062,2.282054587001465,-1.0184739271747034,0.3139161169528961
1708437824.521558,-1.1060433387756348,-1.681310316125387,-2.527254883443014,2.2820679384418945,-1.0184910933123987,0.31394118070602417
1708437824.5235581,-1.1060314178466797,-1.6813341579832972,-2.5272191206561487,2.2820634084888916,-1.0184910933123987,0.31389090418815613
1708437824.5255334,-1.1060314178466797,-1.6812530956664027,-2.527245823537008,2.282071037883423,-1.0184662977801722,0.3139116168022156
1708437824.5275457,-1.1060725450515747,-1.6812287769713343,-2.527210060750143,2.2820724683948974,-1.0184662977801722,0.31393682956695557
1708437824.5295382,-1.1060595512390137,-1.681258340875143,-2.527259413396017,2.282038136119507,-1.0184662977801722,0.3139042258262634
1708437824.5315666,-1.1060271263122559,-1.681310316125387,-2.527247492467062,2.2820843893238525,-1.018482510243551,0.3139324188232422
1708437824.5335648,-1.1060764789581299,-1.6812616787352503,-2.5272520224200647,2.2820307451435546,-1.0185239950763147,0.31389540433883667
1708437824.5355475,-1.1060314178466797,-1.6812616787352503,-2.527238432561056,2.2820307451435546,-1.018486801777975,0.31394460797309875
1708437824.5376122,-1.1060638427734375,-1.6813222370543421,-2.52727181116213,2.2820591169544677,-1.0184748808490198,0.3139248490333557
1708437824.5395534,-1.1060433387756348,-1.681310316125387,-2.527276341115133,2.2820517259785156,-1.018482510243551,0.3139534294605255
1708437824.5415874,-1.1060357093811035,-1.6812817058958949,-2.527242962514059,2.282129688853882,-1.0184949080096644,0.31394118070602417
1708437824.543575,-1.1060271263122559,-1.681260725060934,-2.527193848286764,2.2820798593708496,-1.018482510243551,0.3138909935951233
1708437824.5455678,-1.1060271263122559,-1.681314607659811,-2.527242962514059,2.282109423274658,-1.0184457937823694,0.31391170620918274
1708437824.5475616,-1.1060681343078613,-1.681314607659811,-2.527226511632101,2.2820307451435546,-1.018486801777975,0.3139204978942871
1708437824.5496047,-1.1060388088226318,-1.6813122234740199,-2.527242962514059,2.2820634084888916,-1.0184791723834437,0.3139205574989319
1708437824.551566,-1.1060519218444824,-1.6813308201231898,-2.52726394334902,2.2821051317402343,-1.0184910933123987,0.3139697015285492
1708437824.5535872,-1.1060807704925537,-1.6812735996642054,-2.527247492467062,2.282125158900879,-1.0184338728534144,0.3138953745365143
1708437824.5555649,-1.106083869934082,-1.6812497578062953,-2.527214590703146,2.2820886808582763,-1.0184739271747034,0.31396979093551636
1708437824.5575778,-1.1060181856155396,-1.6812616787352503,-2.527242962514059,2.282082720393799,-1.0184338728534144,0.31392496824264526
1708437824.5596251,-1.1060606241226196,-1.6812945804991664,-2.527280871068136,2.2820932108112792,-1.0184906164752405,0.31390291452407837
1708437824.5615766,-1.1060881614685059,-1.681286474267477,-2.5272672812091272,2.282054587001465,-1.0184782187091272,0.31394457817077637
1708437824.5635731,-1.106063961982727,-1.6812778911986292,-2.527254883443014,2.2820591169544677,-1.018482510243551,0.31394118070602417
1708437824.5655675,-1.1060550212860107,-1.6812368832030238,-2.52727181116213,2.2820843893238525,-1.0184991995440882,0.3139367997646332
1708437824.5676131,-1.1060433387756348,-1.6813222370543421,-2.527245823537008,2.2820753294178466,-1.018486801777975,0.3138953447341919
1708437824.5696201,-1.1060433387756348,-1.6813017330565394,-2.527259413396017,2.2821006017872314,-1.0184696356402796,0.3139161169528961
1708437824.571574,-1.1060638427734375,-1.6812082729735316,-2.527238432561056,2.2820798593708496,-1.0185077826129358,0.3139784634113312
1708437824.573596,-1.1060271263122559,-1.6812659702696742,-2.5272672812091272,2.2820307451435546,-1.0184910933123987,0.31391921639442444
1708437824.575587,-1.1061012744903564,-1.6812616787352503,-2.527276341115133,2.282113953227661,-1.018482510243551,0.31390729546546936
1708437824.5776029,-1.1060476303100586,-1.6812530956664027,-2.527193848286764,2.2820917802998046,-1.0184457937823694,0.3139577805995941
1708437824.5795648,-1.1060433387756348,-1.6812616787352503,-2.527247492467062,2.282081289882324,-1.0184662977801722,0.31390419602394104
1708437824.5815668,-1.1060433387756348,-1.6812497578062953,-2.527250353490011,2.2820634084888916,-1.018458668385641,0.3139204978942871
1708437824.583582,-1.1060020923614502,-1.6812693081297816,-2.52726394334902,2.282021923656128,-1.018503491078512,0.3139248788356781
1708437824.5855734,-1.1060194969177246,-1.6812368832030238,-2.527254883443014,2.2820679384418945,-1.018482510243551,0.3138909935951233
1708437824.5875814,-1.1060271263122559,-1.681286474267477,-2.527250353490011,2.2820636469074707,-1.018503491078512,0.3139324188232422
1708437824.5895803,-1.1060595512390137,-1.681286474267477,-2.527233902608053,2.2820753294178466,-1.018486801777975,0.3139248788356781
1708437824.5915666,-1.106034517288208,-1.6812573872008265,-2.527254883443014,2.2820753294178466,-1.0185239950763147,0.31391164660453796
1708437824.593586,-1.1060807704925537,-1.6812330685057582,-2.527231041585104,2.2820560175129394,-1.0184782187091272,0.3139621615409851
1708437824.5955586,-1.1060433387756348,-1.6812693081297816,-2.5272563139544886,2.2820917802998046,-1.018486801777975,0.31390419602394104
1708437824.5975864,-1.1060357093811035,-1.681282182733053,-2.5272520224200647,2.282038136119507,-1.0184620062457483,0.3139367997646332
1708437824.5995607,-1.1060595512390137,-1.681237360040182,-2.527214590703146,2.2820843893238525,-1.0184820334063929,0.3139324188232422
1708437824.6015477,-1.1060519218444824,-1.6812616787352503,-2.5272792021380823,2.2820426660725097,-1.0184739271747034,0.31396088004112244
1708437824.6035893,-1.1060681343078613,-1.6812788448729457,-2.527217451726095,2.2820963102528076,-1.0185077826129358,0.3139534294605255
1708437824.605691,-1.1060926914215088,-1.6812530956664027,-2.527242962514059,2.2820471960255126,-1.018503491078512,0.31392794847488403
1708437824.6075618,-1.1060681343078613,-1.6812497578062953,-2.527254883443014,2.282054587001465,-1.0184748808490198,0.31392794847488403
1708437824.609566,-1.1060850620269775,-1.6812659702696742,-2.527231041585104,2.2820634084888916,-1.018503491078512,0.3139204978942871
1708437824.611586,-1.1060152053833008,-1.681314607659811,-2.52726394334902,2.2820307451435546,-1.0185111204730433,0.3139534294605255
1708437824.6135893,-1.106022596359253,-1.6812497578062953,-2.527245823537008,2.282078190440796,-1.0184910933123987,0.31390419602394104
1708437824.6155705,-1.106022596359253,-1.681314607659811,-2.5272682348834437,2.2820514875599365,-1.0184782187091272,0.3139411509037018
1708437824.6176007,-1.1060550212860107,-1.681237360040182,-2.527238432561056,2.282071037883423,-1.018531624470846,0.3139204978942871
1708437824.6195602,-1.1060314178466797,-1.681282182733053,-2.527254883443014,2.2820960718342285,-1.018486801777975,0.31394118070602417
1708437824.6215508,-1.1060433387756348,-1.6812693081297816,-2.527276341115133,2.2820591169544677,-1.0184991995440882,0.3139161169528961
1708437824.6235695,-1.106050729751587,-1.6812693081297816,-2.527259413396017,2.2820426660725097,-1.0184863249408167,0.31388354301452637
1708437824.6255493,-1.1060476303100586,-1.6812454662718714,-2.527242962514059,2.2820471960255126,-1.018470589314596,0.31390857696533203
1708437824.627574,-1.1060768365859985,-1.681282182733053,-2.527241293584005,2.2820352750965576,-1.018482510243551,0.31394457817077637
1708437824.6295595,-1.1060032844543457,-1.6812735996642054,-2.527238432561056,2.2821125227161865,-1.0184991995440882,0.3139534294605255
1708437824.631548,-1.106006383895874,-1.681282182733053,-2.5272401014911097,2.2820886808582763,-1.0184782187091272,0.3139292597770691
1708437824.6335626,-1.1060595512390137,-1.6812902889647425,-2.527231041585104,2.2821125227161865,-1.0184662977801722,0.31386691331863403
1708437824.6355422,-1.106034517288208,-1.6812659702696742,-2.5272637049304407,2.2820426660725097,-1.0184906164752405,0.3138461410999298
1708437824.6376002,-1.1061012744903564,-1.681314607659811,-2.527205769215719,2.2821082311817626,-1.018486801777975,0.31394118070602417
1708437824.6395726,-1.1060764789581299,-1.6812902889647425,-2.527205769215719,2.2820591169544677,-1.018482510243551,0.3139204978942871
1708437824.6415613,-1.1059988737106323,-1.6812693081297816,-2.527201239262716,2.2820679384418945,-1.018503491078512,0.31387564539909363
1708437824.6435897,-1.1060388088226318,-1.6812902889647425,-2.5272517840014856,2.2820917802998046,-1.0184782187091272,0.3139248788356781
1708437824.6455564,-1.1060476303100586,-1.6812945804991664,-2.527254883443014,2.282116098994873,-1.0184991995440882,0.3139534294605255
1708437824.647589,-1.1060681343078613,-1.681270261804098,-2.527280871068136,2.2820843893238525,-1.0184620062457483,0.3139174282550812
1708437824.6495929,-1.1060595512390137,-1.6812659702696742,-2.527246061955587,2.2820932108112792,-1.0185359160052698,0.3139292597770691
1708437824.6516166,-1.1060926914215088,-1.6812778911986292,-2.5272637049304407,2.2821079927631835,-1.0184739271747034,0.3139534294605255
1708437824.6535594,-1.1060271263122559,-1.6813017330565394,-2.52726394334902,2.2820963102528076,-1.0185359160052698,0.3139161169528961
1708437824.655546,-1.106022596359253,-1.6812616787352503,-2.527221981679098,2.2821428018757324,-1.0184696356402796,0.3139174282550812
1708437824.6575763,-1.1060595512390137,-1.6812859974303187,-2.527238432561056,2.2821051317402343,-1.0184577147113245,0.3139161169528961
1708437824.6595674,-1.1060357093811035,-1.6812659702696742,-2.527254883443014,2.2820872503468017,-1.0184949080096644,0.3139161169528961
1708437824.661569,-1.1060388088226318,-1.681282182733053,-2.527217451726095,2.2821079927631835,-1.0184534231769007,0.3139248788356781
1708437824.663578,-1.1060476303100586,-1.6812735996642054,-2.527254883443014,2.2820514875599365,-1.018482510243551,0.3139204978942871
1708437824.6655545,-1.1060764789581299,-1.6812745533385218,-2.527259413396017,2.2820841509052734,-1.018482510243551,0.31388789415359497
1708437824.667607,-1.1060476303100586,-1.6812573872008265,-2.527238432561056,2.2820560175129394,-1.0185564200030726,0.3139324188232422
1708437824.6695879,-1.1060764789581299,-1.6812945804991664,-2.527254883443014,2.2820724683948974,-1.018470589314596,0.3139248788356781
1708437824.67158,-1.1060681343078613,-1.681303163568014,-2.527238432561056,2.282050057048462,-1.0184782187091272,0.3139204978942871
1708437824.6735988,-1.106071949005127,-1.6812659702696742,-2.527259413396017,2.2820767599293212,-1.0184662977801722,0.3139174282550812
1708437824.6755853,-1.1060850620269775,-1.6812693081297816,-2.527229611073629,2.2820963102528076,-1.0185068289386194,0.313871294260025
1708437824.6775608,-1.1060388088226318,-1.6812778911986292,-2.527297083531515,2.2820350366779785,-1.0184782187091272,0.31390419602394104
1708437824.6795502,-1.1060314178466797,-1.6812411747374476,-2.527231041585104,2.282054587001465,-1.0184295813189905,0.31389981508255005
1708437824.6815472,-1.1059901714324951,-1.681282182733053,-2.527205769215719,2.282054587001465,-1.0184620062457483,0.3139011263847351
1708437824.6835835,-1.1060519218444824,-1.681282182733053,-2.527250353490011,2.2820886808582763,-1.0185273329364222,0.3139161169528961
1708437824.6855485,-1.1060519218444824,-1.6813308201231898,-2.527231041585104,2.2820560175129394,-1.0184500853167933,0.3139292597770691
1708437824.6875932,-1.1060433387756348,-1.6812950573363246,-2.527205769215719,2.2820679384418945,-1.0184662977801722,0.3138800263404846
1708437824.6895843,-1.1060314178466797,-1.6812454662718714,-2.527242962514059,2.2820917802998046,-1.0184949080096644,0.31389665603637695
1708437824.6915693,-1.1060152053833008,-1.6812907658019007,-2.527242962514059,2.2820767599293212,-1.0184500853167933,0.31389665603637695
1708437824.693587,-1.1060595512390137,-1.6812778911986292,-2.527259413396017,2.2820634084888916,-1.0184910933123987,0.3138953745365143
1708437824.6955705,-1.1060850620269775,-1.6812616787352503,-2.527247492467062,2.2821006017872314,-1.018482510243551,0.31388354301452637
1708437824.6975815,-1.1060476303100586,-1.681307931939596,-2.527238432561056,2.282033844585083,-1.0184696356402796,0.3139367997646332
1708437824.6995833,-1.1060850620269775,-1.6813060245909632,-2.527247492467062,2.2820471960255126,-1.0184991995440882,0.3139292597770691
1708437824.7022893,-1.1060433387756348,-1.681326528588766,-2.527221981679098,2.2820514875599365,-1.0184949080096644,0.31390419602394104
1708437824.7040687,-1.106006383895874,-1.681270261804098,-2.527221981679098,2.2820917802998046,-1.018482510243551,0.31388789415359497
1708437824.7055535,-1.1059901714324951,-1.6812735996642054,-2.527247492467062,2.2820753294178466,-1.0184991995440882,0.3139161169528961
1708437824.7075493,-1.106022596359253,-1.6812488041319789,-2.527233902608053,2.2820753294178466,-1.018482510243551,0.31393808126449585
1708437824.7095792,-1.1060595512390137,-1.6812173328795375,-2.527276341115133,2.2821213442036132,-1.0184577147113245,0.3139367997646332
1708437824.7115557,-1.1059988737106323,-1.6812330685057582,-2.527226511632101,2.2820917802998046,-1.0184620062457483,0.31389665603637695
1708437824.7135954,-1.1060388088226318,-1.6812859974303187,-2.527231041585104,2.2820843893238525,-1.0184953848468226,0.3139011263847351
1708437824.7155774,-1.1060850620269775,-1.6812039814391078,-2.527238432561056,2.2820843893238525,-1.018482510243551,0.3139367997646332
1708437824.717572,-1.1060550212860107,-1.6812616787352503,-2.527231041585104,2.282021923656128,-1.0184662977801722,0.3139455318450928
1708437824.719581,-1.1060271263122559,-1.6812287769713343,-2.527226511632101,2.282054587001465,-1.0184295813189905,0.3139367401599884
1708437824.7215676,-1.1060476303100586,-1.6812902889647425,-2.527250353490011,2.282054587001465,-1.018454376851217,0.3139248788356781
1708437824.72355,-1.1060314178466797,-1.6812778911986292,-2.527196709309713,2.2821079927631835,-1.018508259450094,0.31390857696533203
1708437824.725559,-1.106022596359253,-1.6812735996642054,-2.527259413396017,2.282071037883423,-1.0184629599200647,0.31394118070602417
1708437824.7275436,-1.1060595512390137,-1.6812907658019007,-2.527242962514059,2.2820753294178466,-1.0184796492206019,0.3139401972293854
1708437824.7295737,-1.1060595512390137,-1.681282182733053,-2.527221981679098,2.2820471960255126,-1.0185120741473597,0.31389227509498596
1708437824.731551,-1.1060595512390137,-1.6812659702696742,-2.527217451726095,2.2820307451435546,-1.0184782187091272,0.3139161169528961
1708437824.7335603,-1.106034517288208,-1.6812330685057582,-2.527233902608053,2.2821213442036132,-1.0184457937823694,0.3139161169528961
1708437824.7355425,-1.1060194969177246,-1.681314607659811,-2.527226511632101,2.2821051317402343,-1.0184672514544886,0.3139248788356781
1708437824.7376673,-1.1060807704925537,-1.6813427410521449,-2.527254883443014,2.2821006017872314,-1.018454376851217,0.313912957906723
1708437824.7395566,-1.1060388088226318,-1.6812659702696742,-2.5272682348834437,2.282026453609131,-1.0184796492206019,0.31390419602394104
1708437824.7415578,-1.1060926914215088,-1.6812368832030238,-2.527214590703146,2.2821051317402343,-1.0184672514544886,0.3139740824699402
1708437824.7435718,-1.1060725450515747,-1.6812778911986292,-2.527229611073629,2.2821006017872314,-1.018458668385641,0.3139042258262634
1708437824.7455986,-1.1060638427734375,-1.6812626324095667,-2.527250353490011,2.282054587001465,-1.0184791723834437,0.3139161169528961
1708437824.7475622,-1.1059869527816772,-1.6813560924925746,-2.527259413396017,2.2820591169544677,-1.0184662977801722,0.3139697015285492
1708437824.7495654,-1.1060476303100586,-1.6812778911986292,-2.527222220097677,2.282113953227661,-1.018442455922262,0.3139204978942871
1708437824.7516162,-1.1060969829559326,-1.6812454662718714,-2.527231041585104,2.2820591169544677,-1.0184133688556116,0.31389668583869934
1708437824.7535903,-1.1060595512390137,-1.681307931939596,-2.527247492467062,2.2820872503468017,-1.018442455922262,0.31394895911216736
1708437824.755542,-1.1060433387756348,-1.6812368832030238,-2.527242962514059,2.2820917802998046,-1.0184219519244593,0.31391167640686035
1708437824.7575517,-1.106071949005127,-1.6812693081297816,-2.5272520224200647,2.2820753294178466,-1.0184176603900355,0.3139248788356781
1708437824.7595456,-1.1060433387756348,-1.681307931939596,-2.527276341115133,2.2820843893238525,-1.0184348265277308,0.31394556164741516
1708437824.7615516,-1.1060764789581299,-1.6812416515746058,-2.527276341115133,2.2821051317402343,-1.0184291044818323,0.31391608715057373
1708437824.7636228,-1.1060807704925537,-1.6813060245909632,-2.527221981679098,2.2820471960255126,-1.018458668385641,0.313874751329422
1708437824.765565,-1.1060807704925537,-1.681270261804098,-2.527259413396017,2.2820917802998046,-1.0184467474566858,0.31389230489730835
1708437824.7675827,-1.1060388088226318,-1.6812330685057582,-2.527247492467062,2.2820307451435546,-1.018458668385641,0.3139324188232422
1708437824.769575,-1.1060969829559326,-1.681258340875143,-2.527276341115133,2.2820634084888916,-1.0184558073626917,0.31393370032310486
1708437824.7715638,-1.1060764789581299,-1.6812659702696742,-2.527242962514059,2.2820755678364257,-1.018430534993307,0.31396663188934326
1708437824.7735908,-1.106022596359253,-1.6812988720335902,-2.527238432561056,2.2820636469074707,-1.0184391180621546,0.31398284435272217
1708437824.7755973,-1.1060550212860107,-1.6812330685057582,-2.527233902608053,2.282099171275757,-1.0184019247638147,0.31399479508399963
1708437824.777621,-1.1060638427734375,-1.6813179455199183,-2.527238432561056,2.282021923656128,-1.018397633229391,0.3139204978942871
1708437824.7795827,-1.106018304824829,-1.6813017330565394,-2.5272355715381067,2.282054587001465,-1.0184229055987757,0.31391167640686035
1708437824.7815888,-1.1061055660247803,-1.6812778911986292,-2.527231041585104,2.2820841509052734,-1.0183985869037073,0.3139455020427704
1708437824.783576,-1.1060388088226318,-1.681310316125387,-2.527259413396017,2.2820679384418945,-1.0183613936053675,0.3139161169528961
1708437824.7855573,-1.1060433387756348,-1.6813188991942347,-2.52726394334902,2.2820917802998046,-1.0183613936053675,0.3139490485191345
1708437824.7876077,-1.1060519218444824,-1.6812497578062953,-2.5272772947894495,2.2820798593708496,-1.0183985869037073,0.3139621317386627
1708437824.7895596,-1.1060638427734375,-1.6813188991942347,-2.5272191206561487,2.282071037883423,-1.0183942953692835,0.3138713240623474
1708437824.7915626,-1.1060638427734375,-1.681303163568014,-2.527231041585104,2.2821006017872314,-1.0184028784381312,0.3139653205871582
1708437824.7935655,-1.1060271263122559,-1.6812735996642054,-2.527254883443014,2.282012863750122,-1.0183871428119105,0.31393134593963623
1708437824.7955692,-1.1060550212860107,-1.6812735996642054,-2.527221981679098,2.2821294504353027,-1.0183585325824183,0.3139010965824127
1708437824.797591,-1.1060152053833008,-1.681282182733053,-2.5272563139544886,2.2820679384418945,-1.0183537642108362,0.31388360261917114
1708437824.7995632,-1.1060550212860107,-1.6812330685057582,-2.527214590703146,2.2820679384418945,-1.018362824116842,0.31397417187690735
1708437824.801576,-1.1060969829559326,-1.681282182733053,-2.527210060750143,2.2821006017872314,-1.018383804951803,0.3139161169528961
1708437824.8035839,-1.1059900522232056,-1.681282182733053,-2.5272401014911097,2.2821170526691894,-1.0183289686786097,0.31394901871681213
1708437824.8055665,-1.1060681343078613,-1.6813231907286585,-2.527210060750143,2.2820514875599365,-1.0183418432818812,0.31395214796066284
1708437824.8075585,-1.1060768365859985,-1.6812616787352503,-2.5272117296801966,2.2820426660725097,-1.018338982258932,0.313907265663147
1708437824.8095694,-1.1060850620269775,-1.6813017330565394,-2.5271952787982386,2.2820963102528076,-1.018362824116842,0.31393587589263916
1708437824.8115447,-1.1060271263122559,-1.6812659702696742,-2.527198378239767,2.2820932108112792,-1.018362824116842,0.31396085023880005
1708437824.8135736,-1.1059945821762085,-1.6812659702696742,-2.527210299168722,2.2820560175129394,-1.018338982258932,0.3139938712120056
1708437824.8155508,-1.1060476303100586,-1.6812530956664027,-2.527231041585104,2.2820560175129394,-1.0183270613299769,0.313996821641922
1708437824.817591,-1.1060357093811035,-1.6812907658019007,-2.5271862188922327,2.2820605474659423,-1.018334690724508,0.31395211815834045
1708437824.8195336,-1.1060519218444824,-1.6812735996642054,-2.527231041585104,2.2820886808582763,-1.0183475653277796,0.31400880217552185
1708437824.8215349,-1.1060433387756348,-1.6812945804991664,-2.5272071997271937,2.282097502345703,-1.0183146635638636,0.31405767798423767
1708437824.823558,-1.1060850620269775,-1.6812693081297816,-2.5272608439074915,2.2820753294178466,-1.0183189550982874,0.31395071744918823
1708437824.8255649,-1.1060433387756348,-1.6812416515746058,-2.5271907488452356,2.2821037012287597,-1.0182908217059534,0.3139912784099579
1708437824.8275657,-1.1060152053833008,-1.6812735996642054,-2.527214590703146,2.2820426660725097,-1.0183280150042933,0.31405335664749146
1708437824.8295484,-1.1060681343078613,-1.6812778911986292,-2.527160708104269,2.282118483180664,-1.0182908217059534,0.31400007009506226
1708437824.8315587,-1.1060020923614502,-1.6812902889647425,-2.5271952787982386,2.2820917802998046,-1.0182865301715296,0.3140314519405365
1708437824.833569,-1.1060682535171509,-1.681282182733053,-2.527160708104269,2.2821125227161865,-1.0182793776141565,0.3140564560890198
1708437824.835537,-1.1060152053833008,-1.6812778911986292,-2.5272279421435755,2.282085819835327,-1.0183404127704065,0.3140595257282257
1708437824.837592,-1.1060969829559326,-1.6812693081297816,-2.527181927357809,2.2820142942615966,-1.0182908217059534,0.3140956163406372
1708437824.8395712,-1.1060638427734375,-1.6812082729735316,-2.5272281805621546,2.2820679384418945,-1.0182836691485804,0.314152330160141
1708437824.8415484,-1.1060476303100586,-1.681286474267477,-2.527198378239767,2.2820634084888916,-1.0182221571551722,0.31417641043663025
1708437824.8435814,-1.1060433387756348,-1.6812817058958949,-2.5272071997271937,2.2820963102528076,-1.0182226339923304,0.31416457891464233
1708437824.8455968,-1.1060314178466797,-1.6813188991942347,-2.5271831194507044,2.2821079927631835,-1.0182579199420374,0.31418710947036743
1708437824.8475595,-1.1060433387756348,-1.6812788448729457,-2.5272443930255335,2.2820963102528076,-1.018243137990133,0.3142034113407135
1708437824.8495512,-1.1060388088226318,-1.6812454662718714,-2.5272191206561487,2.2820395666309814,-1.018243137990133,0.31426891684532166
1708437824.8515627,-1.106050729751587,-1.6812907658019007,-2.5272281805621546,2.28202931463208,-1.018247429524557,0.3143002390861511
1708437824.8535976,-1.1060476303100586,-1.6813427410521449,-2.5272236506091517,2.282125874156616,-1.0182269255267542,0.3142663538455963
1708437824.855543,-1.1060595512390137,-1.6812902889647425,-2.5271530787097376,2.2820767599293212,-1.0182116667376917,0.31438544392585754
1708437824.8575473,-1.1060519218444824,-1.68119539837026,-2.5272370020495813,2.282054587001465,-1.0182235876666468,0.31434717774391174
1708437824.8595753,-1.1060595512390137,-1.6812902889647425,-2.5272043387042444,2.2820872503468017,-1.0181697050677698,0.31444934010505676
1708437824.8615441,-1.1060271263122559,-1.681270261804098,-2.5271785894977015,2.2820440965839843,-1.0182073752032679,0.31443971395492554
1708437824.8635392,-1.106071949005127,-1.6812945804991664,-2.5271499792682093,2.2820395666309814,-1.0181954542743128,0.31439921259880066
1708437824.8655443,-1.1060357093811035,-1.6812411747374476,-2.5271619001971644,2.2820605474659423,-1.0181501547442835,0.3144678473472595
1708437824.8675692,-1.1060595512390137,-1.681244512597555,-2.52717096010317,2.2820963102528076,-1.0181620756732386,0.3144950866699219
1708437824.8695662,-1.1060807704925537,-1.6812817058958949,-2.527154509221212,2.2820514875599365,-1.0181668440448206,0.3145531415939331
1708437824.8715441,-1.1060764789581299,-1.681254049340719,-2.5271289984332483,2.2821051317402343,-1.0181711355792444,0.31452327966690063
1708437824.8735652,-1.1060676574707031,-1.6812945804991664,-2.5272133986102503,2.2820352750965576,-1.0180848280536097,0.31455186009407043
1708437824.8755326,-1.1060926914215088,-1.6813017330565394,-2.527154509221212,2.2820724683948974,-1.0181430021869105,0.3145655393600464
1708437824.8776035,-1.106022596359253,-1.6812945804991664,-2.527154509221212,2.282085819835327,-1.0181801954852503,0.31462669372558594
1708437824.879589,-1.106018304824829,-1.6812988720335902,-2.52714711824526,2.2820188242145996,-1.0181143919574183,0.3146997392177582
1708437824.8815362,-1.106022596359253,-1.6812945804991664,-2.5271487871753138,2.2820767599293212,-1.0181353727923792,0.3146953284740448
1708437824.8835752,-1.1060850620269775,-1.681286474267477,-2.527097765599386,2.282069607371948,-1.018139664326803,0.31472691893577576
1708437824.8855412,-1.1060681343078613,-1.6812497578062953,-2.5271440188037317,2.2820307451435546,-1.018094841633932,0.3147379755973816
1708437824.8875773,-1.1060314178466797,-1.6812902889647425,-2.5270989576922815,2.282006188029907,-1.0181143919574183,0.31478220224380493
1708437824.889555,-1.1060850620269775,-1.6812488041319789,-2.5271034876452845,2.28205315648999,-1.0181158224688929,0.31487613916397095
1708437824.8915446,-1.106050729751587,-1.6812130413451136,-2.5270705858813685,2.2820769983479003,-1.0180919806109827,0.3148901164531708
1708437824.893544,-1.106071949005127,-1.6812778911986292,-2.5270660559283655,2.2820276457020263,-1.0180876890765589,0.3149183392524719
1708437824.8955412,-1.1060676574707031,-1.6813470325865687,-2.5270958582507532,2.2820560175129394,-1.0180919806109827,0.3149421811103821
1708437824.897545,-1.1060638427734375,-1.6812693081297816,-2.527017895375387,2.2820767599293212,-1.0180218855487269,0.31498265266418457
1708437824.8995645,-1.1060442924499512,-1.6813060245909632,-2.5270360151873987,2.2820514875599365,-1.0180876890765589,0.3150337040424347
1708437824.9015777,-1.1060638427734375,-1.681260725060934,-2.5270512739764612,2.281989737147949,-1.0180676619159144,0.3150785267353058
1708437824.9035704,-1.106006383895874,-1.681277414361471,-2.5270031134234827,2.2820440965839843,-1.0180142561541956,0.3150891959667206
1708437824.90554,-1.1060681343078613,-1.681303163568014,-2.5270360151873987,2.282024307841919,-1.0180366675006312,0.31523507833480835
1708437824.9075766,-1.1060764789581299,-1.681310316125387,-2.5269866625415247,2.2820932108112792,-1.0180304686175745,0.31522825360298157
1708437824.90956,-1.1060595512390137,-1.6812735996642054,-2.5269911924945276,2.28201071798291,-1.0179904142962855,0.31530997157096863
1708437824.9115465,-1.1060926914215088,-1.6813308201231898,-2.5269416014300745,2.281991406078003,-1.0180113951312464,0.3153698742389679
1708437824.9136055,-1.1060764789581299,-1.681326528588766,-2.5270076433764856,2.282003327006958,-1.0180366675006312,0.31549951434135437
1708437824.915565,-1.1060807704925537,-1.681282182733053,-2.5269911924945276,2.281994267100952,-1.0179665724383753,0.3155132830142975
1708437824.91754,-1.106101393699646,-1.6812902889647425,-2.5269671122180384,2.2820395666309814,-1.017954174672262,0.31555822491645813
1708437824.9196243,-1.106050729751587,-1.6813060245909632,-2.5270047823535364,2.2820004659840087,-1.0180004278766077,0.31561270356178284
1708437824.9215436,-1.1061131954193115,-1.6812616787352503,-2.5269625822650355,2.2820004659840087,-1.0179932753192347,0.31566065549850464
1708437824.9235473,-1.1060476303100586,-1.681277414361471,-2.5269580523120325,2.282024307841919,-1.0179718176471155,0.3157900273799896
1708437824.925536,-1.1060476303100586,-1.6812778911986292,-2.5269957224475306,2.282024307841919,-1.0179479757892054,0.3157922923564911
1708437824.9275384,-1.1060764789581299,-1.6812693081297816,-2.5269838015185755,2.282003327006958,-1.0179317633258265,0.31589218974113464
1708437824.9295566,-1.1060519218444824,-1.681303163568014,-2.5269294420825403,2.281942530269287,-1.017961327229635,0.315992146730423
1708437824.9315324,-1.1060850620269775,-1.6812902889647425,-2.526943031941549,2.2819928365894775,-1.0179360548602503,0.31607586145401
1708437824.9335406,-1.106006383895874,-1.6812693081297816,-2.5269058386432093,2.2819556432911376,-1.0178960005389612,0.31612277030944824
1708437824.9355505,-1.1060638427734375,-1.6813179455199183,-2.526910130177633,2.2819601732441406,-1.017905060444967,0.31621500849723816
1708437824.9376562,-1.106050729751587,-1.6812530956664027,-2.526935640965597,2.281919403667114,-1.017834488545553,0.31630659103393555
1708437824.939591,-1.1060271263122559,-1.681260725060934,-2.526919190083639,2.2819318014332275,-1.0178759733783167,0.3164183497428894
1708437824.9415574,-1.106071949005127,-1.6813341579832972,-2.526914660130636,2.281900091762207,-1.017850701008932,0.31653502583503723
1708437824.9435987,-1.1060807704925537,-1.6812859974303187,-2.526935879384176,2.281883640880249,-1.0178521315204065,0.31661853194236755
1708437824.9456012,-1.106022596359253,-1.681326528588766,-2.526902739201681,2.281888170833252,-1.0177791754352015,0.31671449542045593
1708437824.9475648,-1.1060388088226318,-1.6812488041319789,-2.526928249989645,2.281916542644165,-1.0177910963641565,0.3168340027332306
1708437824.9495935,-1.106022596359253,-1.6812817058958949,-2.526890579854147,2.281920834178589,-1.0178120771991175,0.316893070936203
1708437824.9515867,-1.1061131954193115,-1.6812778911986292,-2.526928249989645,2.281892700786255,-1.0177748839007776,0.31703007221221924
1708437824.9535766,-1.1060314178466797,-1.6813341579832972,-2.526902739201681,2.281888170833252,-1.017813507710592,0.3171820640563965
1708437824.9555528,-1.1060314178466797,-1.6812974415221156,-2.526869837437765,2.28192846357312,-1.0177848974811,0.31726935505867004
1708437824.9575682,-1.1060725450515747,-1.681303163568014,-2.5268664995776575,2.281871719951294,-1.0177071730243128,0.3173239827156067
1708437824.9595912,-1.1060850620269775,-1.6813060245909632,-2.5268877188311976,2.281891031856201,-1.0177190939532679,0.3174284100532532
1708437824.9615483,-1.106071949005127,-1.6812497578062953,-2.5268591086017054,2.281895561809204,-1.0177491346942347,0.31761711835861206
1708437824.9635713,-1.1060681343078613,-1.6812283001341761,-2.5268710295306605,2.281871719951294,-1.0177119413958948,0.3177163600921631
1708437824.9655485,-1.1060638427734375,-1.6812902889647425,-2.5268591086017054,2.281876249904297,-1.0176757017718714,0.3178483545780182
1708437824.9675689,-1.1060595512390137,-1.6812988720335902,-2.5268517176257532,2.2818850713917236,-1.0176590124713343,0.31795474886894226
1708437824.9695873,-1.1060764789581299,-1.6812735996642054,-2.5268517176257532,2.281932755107544,-1.017656151448385,0.3180384337902069
1708437824.9715548,-1.1060638427734375,-1.681314607659811,-2.526839796696798,2.2818643289753417,-1.017656151448385,0.3181551694869995
1708437824.9735806,-1.1060519218444824,-1.6812650165953578,-2.526827875767843,2.281850977534912,-1.0176237265216272,0.3183671236038208
1708437824.9755795,-1.1060725450515747,-1.6813222370543421,-2.526806894932882,2.281888170833252,-1.0176246801959437,0.31849873065948486
1708437824.977602,-1.1060476303100586,-1.6812778911986292,-2.526811424885885,2.28184358655896,-1.017628018056051,0.3185855746269226
1708437824.9795876,-1.1060850620269775,-1.6812650165953578,-2.526815954838888,2.281839056605957,-1.01758319536318,0.31876644492149353
1708437824.981562,-1.1060681343078613,-1.6813060245909632,-2.526832405720846,2.281892700786255,-1.0175841490374964,0.3188652992248535
1708437824.9835963,-1.1060682535171509,-1.6813427410521449,-2.5267825762378138,2.2818524080463867,-1.0175817648517054,0.3190210163593292
1708437824.9855807,-1.1060476303100586,-1.6812902889647425,-2.5267797152148646,2.2818688589283447,-1.0175817648517054,0.3191230893135071
1708437824.987608,-1.1060807704925537,-1.6812693081297816,-2.5267346541034144,2.2818643289753417,-1.017552677785055,0.3193240761756897
1708437824.9895928,-1.1060433387756348,-1.6813093624510707,-2.5267301241504114,2.2818688589283447,-1.0175321737872522,0.3194400370121002
1708437824.9915822,-1.1060314178466797,-1.6812859974303187,-2.5267048517810267,2.2818478780933837,-1.017524544392721,0.31954243779182434
1708437824.9936142,-1.1060638427734375,-1.6813341579832972,-2.5267513434039515,2.2818643289753417,-1.01750356355776,0.31971487402915955
1708437824.9955943,-1.1060314178466797,-1.6813427410521449,-2.5267649332629603,2.2818235593983154,-1.01747972169985,0.3199034035205841
1708437824.9975815,-1.1060271263122559,-1.6813255749144496,-2.526727263127462,2.2818524080463867,-1.0175002256976526,0.3200018107891083
1708437824.9995568,-1.1061012744903564,-1.6813255749144496,-2.526710573826925,2.2817982870289306,-1.017512623463766,0.3201615810394287
1708437825.0015447,-1.1060107946395874,-1.6813465557494105,-2.526706043873922,2.2818488317677,-1.0174434820758265,0.3203172981739044
1708437825.0035565,-1.1060271263122559,-1.681314607659811,-2.526715103779928,2.2817835050770263,-1.0174229780780237,0.3204769790172577
1708437825.0055506,-1.106034517288208,-1.681338449517721,-2.526649061833517,2.281796856517456,-1.0173781553851526,0.3206369876861572
1708437825.0075536,-1.1060433387756348,-1.6813298664488734,-2.526686731969015,2.28182498990979,-1.017444912587301,0.3208327293395996
1708437825.0095458,-1.1060519218444824,-1.6812974415221156,-2.526679340993063,2.2818116384693603,-1.0174005667315882,0.3209353983402252
1708437825.0115507,-1.1060850620269775,-1.6813298664488734,-2.52667481104006,2.281836910838745,-1.0173915068255823,0.32113197445869446
1708437825.0135543,-1.1060638427734375,-1.6812974415221156,-2.5266926924334925,2.2818383413502197,-1.017425839100973,0.32125064730644226
1708437825.0155745,-1.106022596359253,-1.681375642816061,-2.526686731969015,2.281813068980835,-1.0173686186419886,0.3214758634567261
1708437825.0175567,-1.1060107946395874,-1.6813341579832972,-2.5267091433154505,2.2817551332661132,-1.0173433462726038,0.3216955065727234
1708437825.0195725,-1.1060194969177246,-1.6812735996642054,-2.5267136732684534,2.281808777446411,-1.0173729101764124,0.3217697739601135
1708437825.021535,-1.1060881614685059,-1.6813341579832972,-2.5266056696521204,2.281841440791748,-1.0173328558551233,0.32201457023620605
1708437825.023571,-1.1059901714324951,-1.681284566918844,-2.5266929308520716,2.2817954260059814,-1.0173700491534632,0.3221331536769867
1708437825.0255551,-1.1060433387756348,-1.6813579998412074,-2.5266643206225794,2.281792326564453,-1.0173209349261683,0.32231268286705017
1708437825.0275674,-1.106022596359253,-1.681277414361471,-2.5266717115985315,2.281817598933838,-1.017297093068258,0.32251790165901184
1708437825.029555,-1.1060519218444824,-1.6813341579832972,-2.5266972223864954,2.28176395475354,-1.0172889868365687,0.3226028382778168
1708437825.0315475,-1.1060519218444824,-1.6812974415221156,-2.5266101996051233,2.281792326564453,-1.0173147360431116,0.32286882400512695
1708437825.0335827,-1.1060724258422852,-1.6812859974303187,-2.5266688505755823,2.281777544612549,-1.0172207991229456,0.3230065405368805
1708437825.0355532,-1.1060152053833008,-1.681387563745016,-2.5266147295581263,2.281697912807129,-1.0172279516803187,0.32316309213638306
1708437825.0376093,-1.1060764789581299,-1.6813298664488734,-2.526602808629171,2.281756563777588,-1.0172532240497034,0.3233252763748169
1708437825.0396004,-1.1060433387756348,-1.6813136539854945,-2.526660982762472,2.2818221288868408,-1.0172131697284144,0.32351255416870117
1708437825.041568,-1.106022596359253,-1.681277414361471,-2.526607338582174,2.2817610937305908,-1.0171921888934534,0.3236725330352783
1708437825.0436091,-1.1060314178466797,-1.6813179455199183,-2.526574198399679,2.2817610937305908,-1.0171759764300745,0.3239293396472931
1708437825.045588,-1.1060433387756348,-1.6813508472838343,-2.526562039052145,2.2817365366169433,-1.017172638569967,0.3240969479084015
1708437825.0475466,-1.1060807704925537,-1.6813422642149867,-2.526637379323141,2.2817067342945556,-1.017193619404928,0.3242361545562744
1708437825.04959,-1.1060476303100586,-1.681251665154928,-2.526604477559225,2.2817575174519042,-1.0171650091754358,0.32449328899383545
1708437825.0515842,-1.1060433387756348,-1.6813465557494105,-2.5265710989581507,2.2818102079578857,-1.017205540333883,0.3246355354785919
1708437825.0536523,-1.1060194969177246,-1.6813136539854945,-2.526541296635763,2.2816950517841796,-1.017160717641012,0.3247587978839874
1708437825.0555432,-1.106053113937378,-1.6813255749144496,-2.5265381971942347,2.2817322450825195,-1.0171740690814417,0.3249545991420746
1708437825.057547,-1.1060271263122559,-1.6813136539854945,-2.5265801588641565,2.2817279535480957,-1.0171530882464808,0.32515788078308105
1708437825.0595853,-1.1060281991958618,-1.6813622913756312,-2.5265844503985804,2.2817115026661376,-1.0171411673175257,0.3253580927848816
1708437825.0615592,-1.1060107946395874,-1.681300779382223,-2.5265384356128138,2.281762047404907,-1.0171292463885706,0.325516939163208
1708437825.0635936,-1.1060606241226196,-1.6813093624510707,-2.5265560785876673,2.2817789751240234,-1.0171082655536097,0.3256755471229553
1708437825.065537,-1.105994462966919,-1.6813293896117152,-2.5266056696521204,2.2816876608082275,-1.0171335379229944,0.3259129226207733
1708437825.0675328,-1.1059988737106323,-1.681300779382223,-2.5265234152423304,2.2817041116901855,-1.0170920530902308,0.32602742314338684
1708437825.069576,-1.1060519218444824,-1.6813746891417445,-2.5265398661242884,2.281717224712036,-1.0170839468585413,0.3262101113796234
1708437825.0715737,-1.1060595512390137,-1.6813341579832972,-2.5265234152423304,2.2816905218311767,-1.0170839468585413,0.3263821303844452
1708437825.0735602,-1.1060270071029663,-1.6813341579832972,-2.5265234152423304,2.281688852901123,-1.0170772711383265,0.32653751969337463
1708437825.0755527,-1.106052041053772,-1.6813579998412074,-2.526515785847799,2.281701012248657,-1.0170887152301233,0.32670512795448303
1708437825.077555,-1.1060400009155273,-1.6813579998412074,-2.526515785847799,2.2816547590443115,-1.0170601050006312,0.326925128698349
1708437825.0795584,-1.1060807704925537,-1.681427618066305,-2.5265143553363245,2.2816831308552246,-1.017069164906637,0.3271283507347107
1708437825.081527,-1.1060476303100586,-1.6813255749144496,-2.52647835413088,2.281668110484741,-1.017069164906637,0.3273274600505829
1708437825.0835457,-1.1060562133789062,-1.681312700311178,-2.526532236729757,2.281710072154663,-1.0170114676104944,0.32748740911483765
1708437825.0855446,-1.1060476303100586,-1.681345125237936,-2.5265067259417933,2.281705303783081,-1.017052952443258,0.32762691378593445
1708437825.087649,-1.105979323387146,-1.6813579998412074,-2.5265234152423304,2.2817367750355224,-1.017020050679342,0.3278215825557709
1708437825.0895734,-1.1060476303100586,-1.6814190349974574,-2.526524607335226,2.2816919523426513,-1.0170157591449183,0.3280053734779358
1708437825.0915866,-1.1060357093811035,-1.6813537083067835,-2.526499334965841,2.281684561366699,-1.0170825163470667,0.3281655013561249
1708437825.0935643,-1.1060357093811035,-1.6813732586302699,-2.5265067259417933,2.2816964822956542,-1.0170376936541956,0.32836562395095825
1708437825.0955904,-1.1060075759887695,-1.6813661060728968,-2.526565138493673,2.2817084032246093,-1.0170124212848108,0.3285210430622101
1708437825.0975761,-1.1060519218444824,-1.6813050709166468,-2.526499334965841,2.281689091319702,-1.0170171896563929,0.32867559790611267
1708437825.099584,-1.1060519218444824,-1.681361814538473,-2.526482645665304,2.2817084032246093,-1.0170543829547327,0.32886824011802673
1708437825.101617,-1.1060194969177246,-1.6813293896117152,-2.526541296635763,2.281689091319702,-1.0170376936541956,0.32903140783309937
1708437825.1036005,-1.1059988737106323,-1.6813532314696253,-2.526494805012838,2.2816638189503173,-1.0170543829547327,0.32916951179504395
1708437825.1055658,-1.1060107946395874,-1.6813093624510707,-2.52647835413088,2.2816638189503173,-1.0170095602618616,0.32940784096717834
1708437825.1075792,-1.1060487031936646,-1.6813703976073207,-2.52647835413088,2.281646652812622,-1.0170257727252405,0.32954591512680054
1708437825.109557,-1.1059707403182983,-1.681345125237936,-2.526482645665304,2.281642361278198,-1.0170095602618616,0.3296528160572052
1708437825.1115952,-1.1060194969177246,-1.6813775501646937,-2.526494805012838,2.2817427355,-1.0170305410968226,0.32985860109329224
1708437825.1135607,-1.1059750318527222,-1.6813813648619593,-2.526470724736349,2.2816757398792724,-1.0169933477984827,0.33002492785453796
1708437825.1155725,-1.1060400009155273,-1.681333681146139,-2.526557747517721,2.2816313940235595,-1.0170138517962855,0.3301522433757782
1708437825.1175463,-1.1060237884521484,-1.681316991845602,-2.526499334965841,2.2816433149525146,-1.0170138517962855,0.3303195536136627
1708437825.1195498,-1.1060280799865723,-1.6813537083067835,-2.526482645665304,2.281672640437744,-1.0170052687274378,0.3305034041404724
1708437825.1215487,-1.106032371520996,-1.6813818416991175,-2.5265279451953333,2.2816693025776367,-1.0169976393329065,0.3305894732475281
1708437825.12354,-1.1060444116592407,-1.6813732586302699,-2.526515785847799,2.281672640437744,-1.0170095602618616,0.33083435893058777
1708437825.1255405,-1.1060075759887695,-1.681345125237936,-2.526494805012838,2.281686230296753,-1.0169561545001429,0.33099842071533203
1708437825.1275716,-1.106032371520996,-1.681345125237936,-2.526466433201925,2.2816478449055175,-1.0169933477984827,0.33114972710609436
1708437825.129577,-1.106008768081665,-1.6813703976073207,-2.526482645665304,2.2816268640705566,-1.0169933477984827,0.33128926157951355
1708437825.131556,-1.1059376001358032,-1.6813861332335414,-2.526479784642355,2.2816433149525146,-1.0170052687274378,0.3314937353134155
1708437825.1335487,-1.105991244316101,-1.681401868859762,-2.526548687611715,2.2815942007252197,-1.0170138517962855,0.33162859082221985
1708437825.1355917,-1.1059988737106323,-1.681406160394186,-2.526520077382223,2.2816826540180664,-1.0170186201678675,0.33181247115135193
1708437825.137608,-1.106020450592041,-1.681368967095846,-2.526499334965841,2.281677170390747,-1.0170052687274378,0.3319486379623413
1708437825.1395624,-1.1059707403182983,-1.6814137897887171,-2.526482645665304,2.2816638189503173,-1.0170391241656702,0.3321044147014618
1708437825.1415677,-1.1060075759887695,-1.6813813648619593,-2.52649170557131,2.281655712718628,-1.0169761816607874,0.33216094970703125
1708437825.1435468,-1.105979323387146,-1.6814266643919886,-2.526449743901388,2.2816313940235595,-1.0170186201678675,0.3323132395744324
1708437825.145567,-1.1060280799865723,-1.6813532314696253,-2.526494805012838,2.281714602107666,-1.0170424620257776,0.332502543926239
1708437825.1475594,-1.1059625148773193,-1.6813985309996546,-2.526466433201925,2.2816693025776367,-1.0169761816607874,0.33268240094184875
1708437825.149556,-1.1059837341308594,-1.6813813648619593,-2.526503864918844,2.2816433149525146,-1.0170005003558558,0.33281391859054565
1708437825.151595,-1.1059913635253906,-1.6814419231810511,-2.52647835413088,2.281677170390747,-1.0169933477984827,0.332945853471756
1708437825.1535757,-1.1060161590576172,-1.6814094982542933,-2.5264573732959192,2.2816566663929443,-1.0170257727252405,0.3331044614315033
1708437825.1555533,-1.1060237884521484,-1.6813842258849085,-2.526478115712301,2.2816781240650634,-1.016996208821432,0.33324941992759705
1708437825.1575625,-1.1060205698013306,-1.681389947930807,-2.526461903248922,2.2816433149525146,-1.0170052687274378,0.3333592414855957
1708437825.15956,-1.10599684715271,-1.6814342937865199,-2.526479784642355,2.2816566663929443,-1.0170334021197718,0.333547443151474
1708437825.1615837,-1.1059999465942383,-1.6814104519286097,-2.526470724736349,2.281681938762329,-1.0170705954181116,0.33368048071861267
1708437825.1635597,-1.105971097946167,-1.6813646755614222,-2.526499334965841,2.2816359239765625,-1.0170663038836878,0.33381080627441406
1708437825.1655557,-1.1059880256652832,-1.6813489399352015,-2.526508394871847,2.2816342550465087,-1.0170095602618616,0.33390238881111145
1708437825.1675432,-1.105954885482788,-1.6813732586302699,-2.526466194783346,2.281649275416992,-1.0170214811908167,0.3340548574924469
1708437825.1695704,-1.1059956550598145,-1.6814223728575648,-2.526494805012838,2.2816404539295654,-1.0170453230487269,0.33419087529182434
1708437825.1715841,-1.1060161590576172,-1.6814266643919886,-2.526478115712301,2.2816404539295654,-1.0171149412738245,0.33431515097618103
1708437825.1736321,-1.105971097946167,-1.681430002252096,-2.526482645665304,2.2815987306782226,-1.016991917287008,0.33441272377967834
1708437825.1756067,-1.1059925556182861,-1.681418081323141,-2.526475254689352,2.2816313940235595,-1.0170858542071741,0.334545761346817
1708437825.1776435,-1.1059224605560303,-1.681401868859762,-2.526494805012838,2.2816566663929443,-1.0171106497394007,0.3347134292125702
1708437825.1796272,-1.1059999465942383,-1.6813732586302699,-2.526499334965841,2.2816359239765625,-1.0170734564410608,0.33484962582588196
1708437825.181616,-1.106004238128662,-1.6813560924925746,-2.526532236729757,2.2816566663929443,-1.0170815626727503,0.3349440395832062
1708437825.1836169,-1.10597562789917,-1.6813932857909144,-2.5264859835254114,2.2815987306782226,-1.0170725027667444,0.3350846469402313
1708437825.1856387,-1.1059925556182861,-1.6814223728575648,-2.526515785847799,2.281644745463989,-1.017151180897848,0.3351801037788391
1708437825.1876314,-1.105959415435791,-1.6814552746214808,-2.526499334965841,2.2816693025776367,-1.0171411673175257,0.33526650071144104
1708437825.1895876,-1.1059637069702148,-1.6814223728575648,-2.52656060854067,2.2816478449055175,-1.0171502272235315,0.3354034721851349
1708437825.1916208,-1.1059517860412598,-1.6814009151854457,-2.526494805012838,2.281660242671631,-1.0171454588519495,0.33547407388687134
1708437825.1936169,-1.1059386730194092,-1.6814266643919886,-2.5265234152423304,2.2816566663929443,-1.0171693007098597,0.33555367588996887
1708437825.1955807,-1.1060011386871338,-1.681401868859762,-2.5265188852893274,2.2816359239765625,-1.0171945730792444,0.33573076128959656
1708437825.1976326,-1.105947494506836,-1.681389947930807,-2.5265517870532435,2.2816566663929443,-1.0171650091754358,0.3358018100261688
1708437825.1995573,-1.1059517860412598,-1.681430002252096,-2.526499334965841,2.281686230296753,-1.01719838777651,0.33588889241218567
1708437825.2015548,-1.105954885482788,-1.6813975773253382,-2.5265188852893274,2.2816566663929443,-1.0171650091754358,0.33603358268737793
1708437825.2035644,-1.1059637069702148,-1.6814376316466273,-2.5265517870532435,2.2816738325306396,-1.0171516577350062,0.3361654281616211
1708437825.2055678,-1.1059473752975464,-1.681418081323141,-2.5265308062182825,2.2816240030476074,-1.0172174612628382,0.3362775146961212
1708437825.2077794,-1.1059799194335938,-1.6814552746214808,-2.5265591780291956,2.2816433149525146,-1.0172012487994593,0.33634379506111145
1708437825.2095778,-1.1059311628341675,-1.6814009151854457,-2.5265308062182825,2.281616373653076,-1.0172503630267542,0.33647680282592773
1708437825.2115848,-1.1059268712997437,-1.6814257107176722,-2.526544157658712,2.2816359239765625,-1.0172327200519007,0.33656808733940125
1708437825.2135592,-1.1059223413467407,-1.6813889942564906,-2.5265055338488978,2.2816781240650634,-1.0172489325152796,0.3366072475910187
1708437825.2155378,-1.1059430837631226,-1.6813684902586878,-2.5265398661242884,2.281644745463989,-1.0172951857196253,0.33674898743629456
1708437825.217569,-1.1059843301773071,-1.6813889942564906,-2.5265234152423304,2.2816194730946044,-1.0172770659076136,0.3368512690067291
1708437825.2195637,-1.1059398651123047,-1.6814094982542933,-2.5265055338488978,2.2816566663929443,-1.017301384602682,0.3369317054748535
1708437825.2215369,-1.1058980226516724,-1.6814214191832484,-2.5265021959887903,2.2816313940235595,-1.017325226460592,0.3370184600353241
1708437825.223549,-1.105976939201355,-1.6814214191832484,-2.5265517870532435,2.2815987306782226,-1.0173371473895472,0.3371187448501587
1708437825.225532,-1.105947494506836,-1.6813975773253382,-2.5265427271472376,2.281651182765625,-1.0173118750201624,0.33722683787345886
1708437825.2275622,-1.1059679985046387,-1.6814128361144007,-2.5265591780291956,2.2816523748585205,-1.0173609892474573,0.3373136818408966
1708437825.229536,-1.1059186458587646,-1.681446214715475,-2.5265756289111536,2.2816781240650634,-1.0173729101764124,0.3374554216861725
1708437825.2315311,-1.1059355735778809,-1.6814342937865199,-2.5265710989581507,2.2816268640705566,-1.0173686186419886,0.3375033438205719
1708437825.2335694,-1.1059648990631104,-1.6813680134215296,-2.5265710989581507,2.2816120821186523,-1.0174139181720179,0.33759453892707825
1708437825.2355673,-1.1059486865997314,-1.6814333401122035,-2.526562039052145,2.281655712718628,-1.0174091498004358,0.33762505650520325
1708437825.2376294,-1.1059855222702026,-1.6814376316466273,-2.526562039052145,2.2816385465809326,-1.017416779194967,0.3377581536769867
1708437825.239648,-1.1059112548828125,-1.6814543209471644,-2.526625458394186,2.2816342550465087,-1.0174153486834925,0.33785438537597656
1708437825.2415936,-1.1059398651123047,-1.6814333401122035,-2.526587788258688,2.281707211131714,-1.0174568335162562,0.33791351318359375
1708437825.2436333,-1.1059112548828125,-1.6814290485777796,-2.526665512715475,2.2816952902027587,-1.0174482504474085,0.3379974365234375
1708437825.245585,-1.1059398651123047,-1.6814543209471644,-2.5266147295581263,2.2816359239765625,-1.0174272696124476,0.3380972743034363
1708437825.247599,-1.1059560775756836,-1.6814376316466273,-2.526619259511129,2.2816404539295654,-1.0174897352801722,0.33820512890815735
1708437825.2495728,-1.1059398651123047,-1.6813975773253382,-2.5266805330859583,2.2816566663929443,-1.0174554030047815,0.3383021056652069
1708437825.2515736,-1.1058905124664307,-1.6814052067198695,-2.5266581217395228,2.281698389644287,-1.0174554030047815,0.33834049105644226
1708437825.2536156,-1.1059229373931885,-1.681430002252096,-2.5267003218280237,2.2816194730946044,-1.0174673239337366,0.3384404182434082
1708437825.255574,-1.1058905124664307,-1.6814171276488246,-2.5266507307635706,2.2816478449055175,-1.0175331274615687,0.3385121822357178
1708437825.257574,-1.1059143543243408,-1.6813813648619593,-2.5266838709460657,2.2816359239765625,-1.0175002256976526,0.3386080265045166
1708437825.259542,-1.1059112548828125,-1.6814214191832484,-2.526641909276144,2.2815942007252197,-1.0175259749041956,0.33868739008903503
1708437825.2615843,-1.1059317588806152,-1.6814009151854457,-2.5267284552203577,2.281644745463989,-1.017512623463766,0.3387681245803833
1708437825.263545,-1.1059112548828125,-1.681474348107809,-2.526695791875021,2.2815987306782226,-1.0175336042987269,0.33889323472976685
1708437825.2655573,-1.1058704853057861,-1.6814257107176722,-2.526706043873922,2.2816075521656494,-1.017552677785055,0.3388410806655884
1708437825.267569,-1.105912446975708,-1.6814376316466273,-2.5267496744738978,2.2816566663929443,-1.0175817648517054,0.3390193283557892
1708437825.2695706,-1.1059486865997314,-1.6814290485777796,-2.5267227331744593,2.2816268640705566,-1.0175884405719202,0.33911117911338806
1708437825.2716217,-1.105861783027649,-1.6814614735045375,-2.526764694844381,2.2816032606312255,-1.0175684134112757,0.33922284841537476
1708437825.2735987,-1.10588800907135,-1.6813889942564906,-2.5267468134509485,2.28166572629895,-1.0176246801959437,0.3392697274684906
1708437825.2755485,-1.105907917022705,-1.6814333401122035,-2.5267017523394983,2.2816268640705566,-1.0176294485675257,0.33935365080833435
1708437825.2775588,-1.1058661937713623,-1.681446214715475,-2.5267885367022913,2.281661196345947,-1.0176532904254358,0.33941349387168884
1708437825.2795477,-1.1058917045593262,-1.6814094982542933,-2.5267346541034144,2.2816566663929443,-1.0177019278155726,0.33952564001083374
1708437825.281554,-1.1058835983276367,-1.6814037762083949,-2.5267677942859095,2.2816523748585205,-1.017656151448385,0.33961841464042664
1708437825.2835577,-1.105907917022705,-1.6814009151854457,-2.5267425219165247,2.2816566663929443,-1.0176056067096155,0.33974629640579224
1708437825.2855372,-1.1058704853057861,-1.6814552746214808,-2.5267825762378138,2.281677170390747,-1.0176590124713343,0.3397357165813446
1708437825.2876174,-1.1058704853057861,-1.6814257107176722,-2.5268035570727747,2.2816566663929443,-1.0177176634417933,0.3398608863353729
1708437825.289584,-1.105863094329834,-1.6814171276488246,-2.5267871061908167,2.2816268640705566,-1.0177205244647425,0.33997735381126404
1708437825.2915854,-1.105879306793213,-1.681371351281637,-2.526761595402853,2.2816647726246337,-1.0177281538592737,0.34008505940437317
1708437825.293609,-1.105846881866455,-1.6814257107176722,-2.526820484791891,2.2816268640705566,-1.0177162329303187,0.34017661213874817
1708437825.2955604,-1.1058673858642578,-1.6814137897887171,-2.526794497166769,2.2816223341175537,-1.0177729765521448,0.34025272727012634
1708437825.2976377,-1.1058716773986816,-1.6814128361144007,-2.526799027119772,2.281655712718628,-1.0177972952472132,0.34035614132881165
1708437825.2996118,-1.1058878898620605,-1.6814094982542933,-2.526778046284811,2.281668110484741,-1.0177848974811,0.340453177690506
1708437825.3015885,-1.1058554649353027,-1.6814214191832484,-2.526778046284811,2.281672640437744,-1.0177715460406702,0.3405280113220215
1708437825.3036282,-1.1057862043380737,-1.6814543209471644,-2.526806894932882,2.2816647726246337,-1.0177791754352015,0.340599000453949
1708437825.3055744,-1.1058348417282104,-1.6814137897887171,-2.526827875767843,2.281655712718628,-1.017829720173971,0.3407197892665863
1708437825.3075964,-1.1058597564697266,-1.6814657650389613,-2.52682334581484,2.2816735941120605,-1.0178197065936487,0.34084704518318176
1708437825.309551,-1.105900526046753,-1.6814586124815882,-2.526893440877096,2.2816385465809326,-1.0178239981280726,0.340955913066864
1708437825.3115907,-1.1058554649353027,-1.6814457378783167,-2.5268517176257532,2.281660242671631,-1.0178402105914515,0.3410505950450897
1708437825.3135605,-1.1058597564697266,-1.6814457378783167,-2.5268219153033655,2.2816313940235595,-1.0178149382220667,0.3411659598350525
1708437825.3155506,-1.1058316230773926,-1.6814543209471644,-2.5268636385547083,2.2816647726246337,-1.0178640524493616,0.34124550223350525
1708437825.317565,-1.1058447360992432,-1.6814614735045375,-2.5268517176257532,2.2816058832355957,-1.0178807417498987,0.3413846790790558
1708437825.3195624,-1.1058359146118164,-1.6814328632750453,-2.5268965403186243,2.2816385465809326,-1.017822567616598,0.34152206778526306
1708437825.3215475,-1.1058392524719238,-1.681446214715475,-2.5269010702716272,2.2816735941120605,-1.0179207960711878,0.34164926409721375
1708437825.3235657,-1.1058239936828613,-1.6814009151854457,-2.5268681685077112,2.281660242671631,-1.0178960005389612,0.34183910489082336
1708437825.3255584,-1.1058186292648315,-1.6814986668028773,-2.5269325415240687,2.2816385465809326,-1.0178983847247522,0.34191787242889404
1708437825.3275554,-1.1057990789413452,-1.6814614735045375,-2.5269206205951136,2.281684561366699,-1.0179155508624476,0.3420173227787018
1708437825.3295693,-1.1058197021484375,-1.681437154809469,-2.5269163290606897,2.2816738325306396,-1.0179274717914026,0.34211602807044983
1708437825.3315632,-1.1057703495025635,-1.6814376316466273,-2.5268877188311976,2.2816220956989746,-1.0179393927203577,0.34226861596107483
1708437825.3335636,-1.1058534383773804,-1.6814614735045375,-2.5268576780902308,2.281660242671631,-1.0179598967181605,0.34238821268081665
1708437825.3355792,-1.1057953834533691,-1.6814094982542933,-2.5269325415240687,2.2816566663929443,-1.0179393927203577,0.3425145745277405
1708437825.337558,-1.1057672500610352,-1.6814457378783167,-2.526914660130636,2.2816638189503173,-1.0179317633258265,0.3427203297615051
1708437825.339564,-1.105787754058838,-1.6814528904356898,-2.526890579854147,2.2816693025776367,-1.0179975668536585,0.34284907579421997
1708437825.3415642,-1.1057628393173218,-1.681437154809469,-2.526935640965597,2.2816647726246337,-1.0179632345782679,0.34294652938842773
1708437825.3435612,-1.105787754058838,-1.6814614735045375,-2.526907269154684,2.281686468715332,-1.0179556051837366,0.3430863320827484
1708437825.3455567,-1.1057389974594116,-1.681465288201803,-2.526943031941549,2.2816952902027587,-1.0179556051837366,0.3432384133338928
1708437825.3475676,-1.1057227849960327,-1.6815196476378382,-2.526947561894552,2.281660242671631,-1.0179393927203577,0.34336602687835693
1708437825.3495622,-1.105743408203125,-1.6815349064269007,-2.5269177595721644,2.281693621272705,-1.0179632345782679,0.34354186058044434
1708437825.3515532,-1.1056946516036987,-1.681469579736227,-2.526931111012594,2.281681938762329,-1.0179765860186976,0.343669593334198
1708437825.3535714,-1.1057683229446411,-1.681493421594137,-2.5269296805011194,2.2816194730946044,-1.0179465452777308,0.34380897879600525
1708437825.3555555,-1.1056787967681885,-1.6814857921996058,-2.526938501988546,2.2816433149525146,-1.017942253743307,0.3439776599407196
1708437825.3575642,-1.1056950092315674,-1.6814609966673792,-2.5269792715655726,2.281655712718628,-1.0180171171771448,0.34407997131347656
1708437825.3595755,-1.1056950092315674,-1.6815344295897425,-2.5269461313830774,2.2816313940235595,-1.0180290381061,0.34428882598876953
1708437825.3616326,-1.1056950092315674,-1.6814686260619105,-2.5269418398486536,2.2815942007252197,-1.018024746571676,0.3444804847240448
1708437825.3635743,-1.1056475639343262,-1.681521554986471,-2.5269838015185755,2.2816285330006103,-1.018012825642721,0.34465569257736206
1708437825.3656025,-1.1056193113327026,-1.6815411053099574,-2.5269463698016565,2.2816566663929443,-1.0180395285235804,0.344779908657074
1708437825.3675702,-1.105639934539795,-1.681528230706686,-2.5269838015185755,2.2816359239765625,-1.0179737249957483,0.34498462080955505
1708437825.3695965,-1.1055960655212402,-1.6815382442870082,-2.5269702116595667,2.2816359239765625,-1.0180724302874964,0.34517064690589905
1708437825.3715925,-1.1055387258529663,-1.681523939172262,-2.5269866625415247,2.281620903606079,-1.0180514494525355,0.3452697694301605
1708437825.3735876,-1.1055885553359985,-1.6815687618651332,-2.5270617643939417,2.281559391612671,-1.0180967489825647,0.345501571893692
1708437825.3755844,-1.105510950088501,-1.681629320184225,-2.5270357767688196,2.281588240260742,-1.0181077162372034,0.3456821143627167
1708437825.3776267,-1.1054590940475464,-1.681666990319723,-2.526989523564474,2.2815520006367187,-1.018045727406637,0.34584543108940125
1708437825.379565,-1.1054352521896362,-1.6816493473448695,-2.5270031134234827,2.2815355497547607,-1.0180991331683558,0.3460533916950226
1708437825.3815534,-1.1054189205169678,-1.6817227802672328,-2.527085606251852,2.281475468272827,-1.018083397542135,0.3462285101413727
1708437825.3835607,-1.1054490804672241,-1.6816727123656214,-2.52702242532839,2.281522198314331,-1.0181158224688929,0.34642142057418823
1708437825.3855839,-1.1053584814071655,-1.6817013225951136,-2.527060333882467,2.281426354045532,-1.0181158224688929,0.3465431332588196
1708437825.3875816,-1.1053069829940796,-1.6817165813841761,-2.5270915667163294,2.281374378795288,-1.0181353727923792,0.346780389547348
1708437825.3895557,-1.1052950620651245,-1.681753774682516,-2.5270467440234583,2.2814130026051025,-1.018111530934469,0.3469793498516083
1708437825.3915818,-1.1052592992782593,-1.6817776165404261,-2.5271123091327112,2.2813514906116943,-1.018094841633932,0.3471418023109436
1708437825.393636,-1.105247974395752,-1.6817604504027308,-2.5270870367633265,2.281261606807373,-1.0181353727923792,0.34732240438461304
1708437825.395586,-1.105207920074463,-1.6818167171873988,-2.5270841757403772,2.2811991411396484,-1.018151585255758,0.34752508997917175
1708437825.3976374,-1.1051183938980103,-1.6819058857359828,-2.5270660559283655,2.281240625972412,-1.0181472937213343,0.34770911931991577
1708437825.3995614,-1.1050546169281006,-1.6818558178343714,-2.5271034876452845,2.281162663097046,-1.018151585255758,0.347977876663208
1708437825.4016237,-1.1050763130187988,-1.6819454632201136,-2.527109448109762,2.2811598020740966,-1.0181964079486292,0.3481486141681671
1708437825.4035723,-1.1049913167953491,-1.6819569073119105,-2.527159039174215,2.281153841609619,-1.0181549231158655,0.34834346175193787
1708437825.4055839,-1.10495924949646,-1.6820250950255335,-2.5271933714496058,2.281083031291626,-1.0181711355792444,0.34856775403022766
1708437825.407577,-1.1048791408538818,-1.6820365391173304,-2.527168099080221,2.2810696798511962,-1.0181711355792444,0.34879985451698303
1708437825.409566,-1.1048598289489746,-1.6820603809752406,-2.5272043387042444,2.2809087473103027,-1.0181921164142054,0.34901538491249084
1708437825.4115973,-1.1047390699386597,-1.6821075878539027,-2.5272117296801966,2.280959292049072,-1.0181897322284144,0.3492186665534973
1708437825.413551,-1.1046594381332397,-1.6821567020811976,-2.5271862188922327,2.2809547620960693,-1.0182669798480433,0.3494876027107239
1708437825.4155798,-1.1045700311660767,-1.6822205982603968,-2.5272160212146204,2.2808307844349365,-1.018332306538717,0.34962156414985657
1708437825.417583,-1.1045153141021729,-1.682249208489889,-2.5272727648364466,2.28080861150708,-1.0183032194720667,0.3498043417930603
1708437825.419564,-1.1043939590454102,-1.6823088131346644,-2.527221981679098,2.2807068067738037,-1.0184138456927698,0.3500613570213318
1708437825.4215536,-1.1042861938476562,-1.6823483906187953,-2.5272672812091272,2.280639334315918,-1.018334690724508,0.35032564401626587
1708437825.423565,-1.1041861772537231,-1.682437082330221,-2.5273001829730433,2.2806095319935302,-1.0183871428119105,0.350548654794693
1708437825.4255917,-1.104087233543396,-1.682488580743307,-2.5273481051074427,2.2805239397236328,-1.0184896628009241,0.35072633624076843
1708437825.4275875,-1.1039175987243652,-1.6824828586974085,-2.527421538029806,2.2804149824329834,-1.018491570149557,0.3509756922721863
1708437825.429587,-1.1037859916687012,-1.6825753651061,-2.527412716542379,2.2803265291401367,-1.0185397307025355,0.3511486351490021
1708437825.4315646,-1.103653907775879,-1.682648321191305,-2.5274186770068567,2.2802440363117675,-1.0185468832599085,0.35143375396728516
1708437825.4335895,-1.1034817695617676,-1.6827770672240199,-2.52744704881777,2.2801853853413085,-1.0186246077166956,0.35165271162986755
1708437825.4355593,-1.103362798690796,-1.6828161678709925,-2.5275281111346644,2.2799815374561767,-1.0185983816729944,0.35189658403396606
1708437825.4376242,-1.1031537055969238,-1.6828552685179652,-2.5275190512286585,2.279897375697754,-1.0186355749713343,0.3521609604358673
1708437825.4396074,-1.1030107736587524,-1.6829434833922328,-2.5275548140155237,2.2797955709644775,-1.0186265150653284,0.3523797392845154
1708437825.4415853,-1.1028023958206177,-1.6830154858031214,-2.527616564427511,2.2797116476246337,-1.0186784903155726,0.35259512066841125
1708437825.443653,-1.102597713470459,-1.683098932305807,-2.5276029745685022,2.2795395094105224,-1.0186741987811487,0.3527856767177582
1708437825.4455657,-1.1023365259170532,-1.68322815517568,-2.5276883284198206,2.279379053706787,-1.0187562147723597,0.3530384600162506
1708437825.4476109,-1.102096676826477,-1.683303018609518,-2.527703348790304,2.2792350488850097,-1.0187180677997034,0.3532571494579315
1708437825.4496064,-1.1018774509429932,-1.6834150753416957,-2.5277605692492884,2.2790373998829345,-1.0187490622149866,0.3535747528076172
1708437825.4515502,-1.1016497611999512,-1.6835361919798792,-2.5277753512011927,2.2789038854786376,-1.0187862555133265,0.35374030470848083
1708437825.4536214,-1.1013808250427246,-1.6836229763426722,-2.527790371571676,2.278686686153076,-1.018855396901266,0.3539915978908539
1708437825.4555845,-1.1011549234390259,-1.6837593517699183,-2.5278685728656214,2.2784978586384277,-1.0189154783831995,0.35416457056999207
1708437825.4576044,-1.1008250713348389,-1.6838461361327113,-2.527900044118063,2.278409166927002,-1.0189555327044886,0.3544827699661255
1708437825.4595778,-1.1005656719207764,-1.683974405328268,-2.527881924306051,2.2781099516102294,-1.0190232435809534,0.354694128036499
1708437825.4616146,-1.1002851724624634,-1.684106012383932,-2.5279555956469935,2.2779552179523925,-1.0190590063678187,0.3548930585384369
1708437825.4635923,-1.0999621152877808,-1.6842247448363246,-2.5280075708972376,2.2777721124836425,-1.0190938154803675,0.35517704486846924
1708437825.4655533,-1.0996333360671997,-1.6843611202635707,-2.5280514399157923,2.2775353628345947,-1.0191953817950647,0.355421245098114
1708437825.4675608,-1.0992602109909058,-1.684488435784811,-2.5281410853015345,2.2772256571003417,-1.0192831198321741,0.3556768596172333
1708437825.4695766,-1.0989370346069336,-1.6846767864623011,-2.528151814137594,2.2770096498676757,-1.0193584601031702,0.35593244433403015
1708437825.4716072,-1.0985571146011353,-1.6848250828185023,-2.5282207171069544,2.2767626482197265,-1.0194304625140589,0.356175035238266
