Eg3-git/Classifiers/Data Collection/u6/u6abc1_ur3e_joint_states.csv
time,elbow_joint,shoulder_lift_joint,shoulder_pan_joint,wrist_1_joint,wrist_2_joint,wrist_3_joint
1708437801.769435,-1.104248046875,-1.6822735271849574,-2.5271666685687464,2.2801284033009033,-1.018266503010885,0.3864009380340576
1708437801.771425,-1.1042317152023315,-1.6822496853270472,-2.527191702519552,2.2802108961292724,-1.0183032194720667,0.3864457905292511
1708437801.7734325,-1.1042613983154297,-1.6822196445860804,-2.52717096010317,2.2802061277576904,-1.0183189550982874,0.3864308297634125
1708437801.7754319,-1.1042524576187134,-1.6822058163084925,-2.5272041002856653,2.28016106664624,-1.0182822386371058,0.38643839955329895
1708437801.7774189,-1.104248046875,-1.6822229824461878,-2.5271788279162806,2.2801565366932373,-1.018266503010885,0.3863920271396637
1708437801.7794547,-1.1042344570159912,-1.6822191677489222,-2.527159039174215,2.2801284033009033,-1.0182793776141565,0.38644134998321533
1708437801.7814567,-1.1042814254760742,-1.6822453937926234,-2.527179781590597,2.2802151876636962,-1.0183118025409144,0.38642945885658264
1708437801.783449,-1.1042650938034058,-1.6822272739806117,-2.5271874109851282,2.2801899152943115,-1.0182865301715296,0.3864547312259674
1708437801.7854536,-1.104248046875,-1.6822320423521937,-2.527216974888937,2.280155583018921,-1.0183313528644007,0.38638460636138916
1708437801.7874405,-1.104248046875,-1.6821776829161585,-2.5271382967578333,2.28016106664624,-1.0182579199420374,0.38638758659362793
1708437801.7894323,-1.104236125946045,-1.6822520695128382,-2.5271874109851282,2.2801355558582763,-1.0183075110064905,0.38642942905426025
1708437801.7914393,-1.1042197942733765,-1.6822558842101039,-2.5271547476397913,2.2802180486866455,-1.0182626883136194,0.3864576816558838
1708437801.7934704,-1.1042524576187134,-1.6822887859740199,-2.5271874109851282,2.2801236349293212,-1.0182669798480433,0.38641759753227234
1708437801.7954848,-1.104227066040039,-1.682261129418844,-2.5271874109851282,2.2801779943653564,-1.0182750860797327,0.3863801062107086
1708437801.7975252,-1.104227066040039,-1.68223299602651,-2.527208391820089,2.2801825243183593,-1.0182626883136194,0.38644134998321533
1708437801.7994552,-1.104248046875,-1.682289262811178,-2.527175251637594,2.2801944452473144,-1.0182541052447718,0.38638758659362793
1708437801.8014336,-1.104227066040039,-1.682213922540182,-2.527179781590597,2.2801808553883056,-1.0183075110064905,0.38640096783638
1708437801.8034458,-1.1042568683624268,-1.6822477779784144,-2.527142588292257,2.2802108961292724,-1.0181968847857874,0.38647881150245667
1708437801.805425,-1.1042317152023315,-1.6822320423521937,-2.5272041002856653,2.2802018362232666,-1.0182951132403772,0.38644134998321533
1708437801.8074594,-1.1042062044143677,-1.6822692356505335,-2.527175251637594,2.2801689344593505,-1.018259350453512,0.3864576816558838
1708437801.8094363,-1.1042226552963257,-1.6822272739806117,-2.5271340052234095,2.2801989752003173,-1.0182836691485804,0.38641759753227234
1708437801.8114433,-1.1042524576187134,-1.6822496853270472,-2.527179781590597,2.2801689344593505,-1.0182507673846644,0.38643696904182434
1708437801.8134537,-1.104248046875,-1.6822191677489222,-2.5271459261523646,2.2801899152943115,-1.0182464758502405,0.3864666521549225
1708437801.8154845,-1.1042345762252808,-1.6822644672789515,-2.52717096010317,2.2801899152943115,-1.0182507673846644,0.38647741079330444
1708437801.8174405,-1.1042858362197876,-1.6822105846800746,-2.5272038618670862,2.2802108961292724,-1.018271271382467,0.3864532709121704
1708437801.8194387,-1.104248046875,-1.6822453937926234,-2.5271621386157435,2.2801882463642578,-1.0182183424579065,0.3864743411540985
1708437801.8214219,-1.1042604446411133,-1.6822520695128382,-2.5271382967578333,2.28024069845166,-1.0182793776141565,0.38643693923950195
1708437801.8234289,-1.1042723655700684,-1.6822568378844203,-2.5271340052234095,2.2802108961292724,-1.0182550589190882,0.38643255829811096
1708437801.8254302,-1.104248046875,-1.6822453937926234,-2.5271547476397913,2.2801520067402343,-1.0182550589190882,0.38645026087760925
1708437801.827447,-1.1042977571487427,-1.6821943722166957,-2.5271459261523646,2.2801853853413085,-1.0182464758502405,0.3864532709121704
1708437801.829448,-1.1042560338974,-1.6822887859740199,-2.5271831194507044,2.2802018362232666,-1.0182507673846644,0.3864743709564209
1708437801.8314812,-1.1042389869689941,-1.6822434864439906,-2.527135197316305,2.2801474767872314,-1.0182879606830042,0.38643693923950195
1708437801.8334644,-1.1042886972427368,-1.6822411022581996,-2.527130905781881,2.280176563853882,-1.0182464758502405,0.3864130973815918
1708437801.8354678,-1.1042650938034058,-1.6822520695128382,-2.527175251637594,2.2802061277576904,-1.0182259718524378,0.38643693923950195
1708437801.837513,-1.1042389869689941,-1.6822320423521937,-2.527159039174215,2.2801312643238525,-1.0182464758502405,0.3864280879497528
1708437801.8394372,-1.10427987575531,-1.6822520695128382,-2.5271502176867884,2.2801899152943115,-1.0182550589190882,0.3864413797855377
1708437801.841447,-1.104300618171692,-1.6822148762144984,-2.5271578470813196,2.2801400858112792,-1.0182507673846644,0.3864280581474304
1708437801.8434653,-1.104251503944397,-1.6822644672789515,-2.5271547476397913,2.2801808553883056,-1.0182669798480433,0.38643696904182434
1708437801.845456,-1.1042886972427368,-1.6822411022581996,-2.527175251637594,2.2801565366932373,-1.0182507673846644,0.38645026087760925
1708437801.8474844,-1.1043169498443604,-1.6822105846800746,-2.5271382967578333,2.2801565366932373,-1.0182951132403772,0.38642793893814087
1708437801.8494563,-1.1042767763137817,-1.6822320423521937,-2.5271340052234095,2.2802092271992187,-1.0182793776141565,0.38645032048225403
1708437801.8514473,-1.1042962074279785,-1.6822692356505335,-2.5271666685687464,2.2801689344593505,-1.0182669798480433,0.38639527559280396
1708437801.8534477,-1.1042560338974,-1.6821986637511195,-2.5271504561053675,2.2802018362232666,-1.018292252217428,0.38643693923950195
1708437801.855428,-1.1042590141296387,-1.6822253666319789,-2.52717096010317,2.2802108961292724,-1.0182097593890589,0.3864502012729645
1708437801.8574636,-1.1042962074279785,-1.6822411022581996,-2.5271502176867884,2.2801312643238525,-1.018292252217428,0.38650256395339966
1708437801.8594875,-1.1042723655700684,-1.6822191677489222,-2.52717096010317,2.2801689344593505,-1.0182836691485804,0.38638901710510254
1708437801.8615193,-1.1042754650115967,-1.6822239361205042,-2.5271666685687464,2.2802559572407226,-1.0182636419879358,0.3864383101463318
1708437801.8635292,-1.104300618171692,-1.6822191677489222,-2.527142588292257,2.2801355558582763,-1.0182879606830042,0.3863919973373413
1708437801.8655045,-1.1042426824569702,-1.682228227654928,-2.527163330708639,2.2801973062702636,-1.0182669798480433,0.38645023107528687
1708437801.8674939,-1.1042753458023071,-1.6821943722166957,-2.527159039174215,2.2801779943653564,-1.0182951132403772,0.3863998353481293
1708437801.8694766,-1.10431706905365,-1.6822363338866175,-2.5272041002856653,2.2801312643238525,-1.0182908217059534,0.38639989495277405
1708437801.8715043,-1.104328989982605,-1.6822568378844203,-2.527179781590597,2.2801899152943115,-1.0182879606830042,0.3864249885082245
1708437801.8734775,-1.1043365001678467,-1.6822759113707484,-2.527125422154562,2.2801689344593505,-1.018259350453512,0.38646557927131653
1708437801.875444,-1.1042886972427368,-1.6821733913817347,-2.5271874109851282,2.2802352148243408,-1.018320385609762,0.3864533007144928
1708437801.8774602,-1.104328989982605,-1.6822558842101039,-2.52714711824526,2.2801400858112792,-1.0183079878436487,0.3864206075668335
1708437801.8794632,-1.1043156385421753,-1.6822601757445277,-2.5272048155414026,2.2801973062702636,-1.0182421843158167,0.3864458501338959
1708437801.8814588,-1.10434091091156,-1.6822453937926234,-2.527142588292257,2.2802061277576904,-1.0182879606830042,0.38647735118865967
1708437801.8835084,-1.1043200492858887,-1.6822191677489222,-2.5271874109851282,2.2801717954822998,-1.0182793776141565,0.3864399492740631
1708437801.8854878,-1.1042917966842651,-1.6822411022581996,-2.527142588292257,2.2802018362232666,-1.0182421843158167,0.3863712251186371
1708437801.8874643,-1.1042991876602173,-1.6822191677489222,-2.5271297136889856,2.2801808553883056,-1.0182583967791956,0.38644134998321533
1708437801.8894684,-1.1042665243148804,-1.6822434864439906,-2.527159039174215,2.2802061277576904,-1.0183189550982874,0.38642358779907227
1708437801.8914979,-1.1042962074279785,-1.6822191677489222,-2.5271874109851282,2.2801779943653564,-1.018259350453512,0.3864206075668335
1708437801.893481,-1.1043363809585571,-1.6822520695128382,-2.52714711824526,2.280162973994873,-1.0182879606830042,0.3864043056964874
1708437801.8954651,-1.104328989982605,-1.6822105846800746,-2.527159039174215,2.2801267343708496,-1.018271271382467,0.3864325284957886
1708437801.8975275,-1.1042872667312622,-1.6822735271849574,-2.5271995703326624,2.2801973062702636,-1.0182259718524378,0.3865070641040802
1708437801.8994734,-1.1043037176132202,-1.6821986637511195,-2.5271340052234095,2.280176563853882,-1.0182793776141565,0.38640427589416504
1708437801.901447,-1.104324460029602,-1.6821867428221644,-2.52714711824526,2.28019563734021,-1.0182464758502405,0.3864906430244446
1708437801.9034503,-1.1043319702148438,-1.6822363338866175,-2.5271621386157435,2.2802395063587646,-1.018271271382467,0.38640424609184265
1708437801.9054427,-1.1042546033859253,-1.6822120151915492,-2.52717096010317,2.280155583018921,-1.0182836691485804,0.3864206075668335
1708437801.9074707,-1.1043453216552734,-1.6822148762144984,-2.5271874109851282,2.2802015978046875,-1.0182884375201624,0.3864457905292511
1708437801.9094605,-1.1043081283569336,-1.6822568378844203,-2.5271666685687464,2.2802061277576904,-1.0182583967791956,0.3864206075668335
1708437801.9114501,-1.1043200492858887,-1.6822239361205042,-2.527130905781881,2.280200167293213,-1.0182998816119593,0.386405348777771
1708437801.913466,-1.104361653327942,-1.6822120151915492,-2.52717096010317,2.2801882463642578,-1.0182417074786585,0.3864576816558838
1708437801.9154596,-1.104312539100647,-1.6822077236571253,-2.5271547476397913,2.2801734644123535,-1.0182707945453089,0.38643696904182434
1708437801.9174964,-1.104294776916504,-1.6822363338866175,-2.527175251637594,2.280226154918335,-1.0183032194720667,0.3864009380340576
1708437801.9194453,-1.1043572425842285,-1.6822229824461878,-2.5271547476397913,2.2801973062702636,-1.0183032194720667,0.3864457309246063
1708437801.9214487,-1.1043453216552734,-1.6822511158385218,-2.52717096010317,2.280230684871338,-1.018327538167135,0.38645026087760925
1708437801.9234748,-1.1043319702148438,-1.6822196445860804,-2.5271297136889856,2.2801882463642578,-1.018249813710348,0.38642504811286926
1708437801.9254427,-1.1043407917022705,-1.6822520695128382,-2.527163569127218,2.2801808553883056,-1.0182989279376429,0.38645023107528687
1708437801.9274817,-1.1042828559875488,-1.6822735271849574,-2.52717096010317,2.2802559572407226,-1.0183189550982874,0.3864383101463318
1708437801.9294534,-1.1043363809585571,-1.6822239361205042,-2.527175251637594,2.2802633482166748,-1.0182865301715296,0.3864131271839142
1708437801.9314704,-1.1043905019760132,-1.6822568378844203,-2.5271135012256067,2.2801973062702636,-1.0183032194720667,0.3864744007587433
1708437801.9334793,-1.1043037176132202,-1.6822191677489222,-2.5271874109851282,2.2801882463642578,-1.0183075110064905,0.3864205777645111
1708437801.935447,-1.104311227798462,-1.6822191677489222,-2.5271251837359827,2.280221624965332,-1.0183056036578577,0.38645467162132263
1708437801.937449,-1.104369878768921,-1.6822029552855433,-2.52717096010317,2.2801717954822998,-1.0183475653277796,0.38637569546699524
1708437801.9394498,-1.1043363809585571,-1.6821824512877406,-2.527212683354513,2.280200167293213,-1.0183032194720667,0.38638901710510254
1708437801.941472,-1.1043156385421753,-1.6822239361205042,-2.5271416346179407,2.2802225786396484,-1.0183270613299769,0.3863964378833771
1708437801.9434779,-1.1043319702148438,-1.6822105846800746,-2.5272041002856653,2.280226154918335,-1.0183313528644007,0.3864097595214844
1708437801.945466,-1.1043156385421753,-1.6822105846800746,-2.527191702519552,2.2802046972462158,-1.0183032194720667,0.3864220082759857
1708437801.947479,-1.104294776916504,-1.6822272739806117,-2.527175251637594,2.280221624965332,-1.0183356443988245,0.38638901710510254
1708437801.9494324,-1.1043527126312256,-1.6822272739806117,-2.5271788279162806,2.2801882463642578,-1.0182855764972132,0.3864176571369171
1708437801.9514487,-1.1043905019760132,-1.682261129418844,-2.5271666685687464,2.2802092271992187,-1.0183551947223108,0.38640233874320984
1708437801.9534366,-1.104294776916504,-1.6822363338866175,-2.5272277037249964,2.2802514272877197,-1.0183551947223108,0.3863934278488159
1708437801.9554336,-1.104361653327942,-1.6822477779784144,-2.527159039174215,2.280247135753296,-1.018350903187887,0.3864220082759857
1708437801.9574306,-1.104322910308838,-1.6822692356505335,-2.527175251637594,2.2801973062702636,-1.0183094183551233,0.3863934278488159
1708437801.9594774,-1.1043483018875122,-1.6822477779784144,-2.5271547476397913,2.280226154918335,-1.018383804951803,0.38636383414268494
1708437801.961559,-1.1043609380722046,-1.682265420953268,-2.5271459261523646,2.2802092271992187,-1.0183747450457972,0.386360764503479
1708437801.9634604,-1.1043816804885864,-1.6822520695128382,-2.52717096010317,2.2801808553883056,-1.0183747450457972,0.38638150691986084
1708437801.9654803,-1.1043275594711304,-1.6822320423521937,-2.5271831194507044,2.280221624965332,-1.0183942953692835,0.38638901710510254
1708437801.9674299,-1.1043319702148438,-1.682261129418844,-2.5271742979632776,2.2801973062702636,-1.0183985869037073,0.3863964378833771
1708437801.969443,-1.1043064594268799,-1.6822453937926234,-2.5271428267108362,2.280217095012329,-1.0183985869037073,0.38638898730278015
1708437801.9714592,-1.1043527126312256,-1.6822105846800746,-2.5271874109851282,2.2802092271992187,-1.0184028784381312,0.3863563537597656
1708437801.9734704,-1.1043527126312256,-1.6822411022581996,-2.5271874109851282,2.280249996776245,-1.0183985869037073,0.386360764503479
1708437801.975457,-1.1043319702148438,-1.6822735271849574,-2.5271666685687464,2.280240936870239,-1.018411938344137,0.3863277733325958
1708437801.9774647,-1.1043319702148438,-1.6822568378844203,-2.5272041002856653,2.280217095012329,-1.0184200445758265,0.3863159120082855
1708437801.979492,-1.1043483018875122,-1.6822849712767542,-2.5271578470813196,2.280249996776245,-1.018362824116842,0.38633668422698975
1708437801.981467,-1.1043527126312256,-1.6822148762144984,-2.5271742979632776,2.280298872584961,-1.018428150807516,0.3863084316253662
1708437801.9834638,-1.104322910308838,-1.6822520695128382,-2.527196232472555,2.280240936870239,-1.0184357802020472,0.3863410949707031
1708437801.9854763,-1.1043483018875122,-1.6822077236571253,-2.5271578470813196,2.280278130168579,-1.0184152762042444,0.38631725311279297
1708437801.9874456,-1.1043319702148438,-1.6822778187193812,-2.5271831194507044,2.2803138929554443,-1.0184362570392054,0.3863203525543213
1708437801.9894452,-1.1043392419815063,-1.6822496853270472,-2.5271459261523646,2.2803665834614257,-1.0184109846698206,0.3863203525543213
1708437801.9914575,-1.1043438911437988,-1.6822782955565394,-2.5272234121905726,2.28042380392041,-1.0183451811419886,0.38629618287086487
1708437801.9934921,-1.1043609380722046,-1.6822406254210414,-2.527159039174215,2.280373974437378,-1.0184019247638147,0.3863380551338196
1708437801.9954882,-1.1043156385421753,-1.6822239361205042,-2.527208391820089,2.280385895366333,-1.0184348265277308,0.3862890899181366
1708437801.9974477,-1.104311227798462,-1.6822453937926234,-2.5271578470813196,2.280353232020996,-1.0184229055987757,0.3863675892353058
1708437801.9994383,-1.1043156385421753,-1.6822692356505335,-2.5272203127490442,2.2803117471882324,-1.0184109846698206,0.38628458976745605
1708437802.0014262,-1.1043572425842285,-1.6822520695128382,-2.5271788279162806,2.280369682902954,-1.0184677282916468,0.3863304853439331
1708437802.00343,-1.1043065786361694,-1.682261129418844,-2.5271621386157435,2.2803889948078613,-1.0184467474566858,0.3862321674823761
1708437802.0054417,-1.1043483018875122,-1.6822406254210414,-2.5271874109851282,2.280353232020996,-1.0184510389911097,0.38630226254463196
1708437802.0074377,-1.1043682098388672,-1.6822849712767542,-2.5271666685687464,2.280402346248291,-1.018442455922262,0.38626956939697266
1708437802.0094483,-1.1043275594711304,-1.6822148762144984,-2.5271995703326624,2.280348702067993,-1.0184124151812952,0.38626182079315186
1708437802.0114279,-1.1043319702148438,-1.6822825870909632,-2.5271995703326624,2.280353232020996,-1.018454376851217,0.38621142506599426
1708437802.01343,-1.1043319702148438,-1.6822148762144984,-2.5272234121905726,2.280406876201294,-1.018508259450094,0.38623660802841187
1708437802.0154316,-1.1043438911437988,-1.6821896038451136,-2.5271578470813196,2.280369682902954,-1.0185163656817835,0.3862740695476532
1708437802.017453,-1.1043065786361694,-1.6822601757445277,-2.5271621386157435,2.280362053508423,-1.0184381643878382,0.3862203061580658
1708437802.0194612,-1.1043392419815063,-1.6822601757445277,-2.52717096010317,2.280341311092041,-1.01843768755068,0.38622474670410156
1708437802.0214322,-1.1043483018875122,-1.6822229824461878,-2.5271831194507044,2.2803518015095214,-1.0184457937823694,0.3862169086933136
1708437802.023459,-1.1043438911437988,-1.6822363338866175,-2.527224604283468,2.280381603831909,-1.0184958616839808,0.38624849915504456
1708437802.025428,-1.1043111085891724,-1.6822735271849574,-2.527224604283468,2.280402346248291,-1.018470589314596,0.38626182079315186
1708437802.027479,-1.1042993068695068,-1.6822363338866175,-2.5271876494037073,2.280341311092041,-1.0184662977801722,0.3862617611885071
1708437802.0294635,-1.1043304204940796,-1.6822229824461878,-2.5271952787982386,2.2803889948078613,-1.0185039679156702,0.3862784206867218
1708437802.0314534,-1.1043438911437988,-1.6822477779784144,-2.52722675005068,2.280393524760864,-1.0184662977801722,0.38624104857444763
1708437802.033454,-1.1043518781661987,-1.682261129418844,-2.52722675005068,2.280390425319336,-1.0185111204730433,0.3862454891204834
1708437802.035461,-1.104377269744873,-1.6822520695128382,-2.527198616658346,2.280353232020996,-1.0184782187091272,0.38621699810028076
1708437802.037521,-1.1043438911437988,-1.6822658977904261,-2.527186695729391,2.280324860210083,-1.0184906164752405,0.38620060682296753
1708437802.039453,-1.1043726205825806,-1.6822520695128382,-2.5271459261523646,2.2803947168537597,-1.0185321013080042,0.38620948791503906
1708437802.0414693,-1.1043392419815063,-1.6822239361205042,-2.5271909872638147,2.280353232020996,-1.0184748808490198,0.3861931264400482
1708437802.0434651,-1.1043156385421753,-1.6822272739806117,-2.5272114912616175,2.280373974437378,-1.0184949080096644,0.38624244928359985
1708437802.0454643,-1.1043483018875122,-1.6822520695128382,-2.5271745363818567,2.2803117471882324,-1.0184748808490198,0.38622140884399414
1708437802.047486,-1.1042873859405518,-1.6821910343565882,-2.527242962514059,2.280353232020996,-1.0184906164752405,0.3861680030822754
1708437802.0494726,-1.1042917966842651,-1.6822520695128382,-2.527182165776388,2.2803444105335693,-1.0185187498675745,0.3861887753009796
1708437802.0514545,-1.1042993068695068,-1.6822363338866175,-2.527186457310812,2.280365152949951,-1.0185158888446253,0.386197566986084
1708437802.0534778,-1.1043200492858887,-1.6822105846800746,-2.527214829121725,2.2803279596516113,-1.0185306707965296,0.3862169086933136
1708437802.0554361,-1.1042873859405518,-1.6822735271849574,-2.527186457310812,2.280316038722656,-1.0185144583331507,0.3861635625362396
1708437802.0574632,-1.1043697595596313,-1.6822568378844203,-2.527231041585104,2.280345841045044,-1.0185588041888636,0.38621389865875244
1708437802.0594628,-1.1043156385421753,-1.6823021374144496,-2.52720290819277,2.280353232020996,-1.0185840765582483,0.38620510697364807
1708437802.0615027,-1.1042873859405518,-1.6822897396483363,-2.527214829121725,2.280336781139038,-1.0185635725604456,0.38620948791503906
1708437802.063461,-1.1042991876602173,-1.6822434864439906,-2.5271897951709192,2.280287190074585,-1.0185516516314905,0.3862258493900299
1708437802.0654452,-1.104324460029602,-1.6822320423521937,-2.5272353331195276,2.2803665834614257,-1.0184977690326136,0.3861812651157379
1708437802.0674646,-1.1043697595596313,-1.6822520695128382,-2.5272071997271937,2.2803947168537597,-1.0185173193561,0.38621389865875244
1708437802.0694563,-1.1043363809585571,-1.6823016605772914,-2.527242962514059,2.280320568675659,-1.0185263792621058,0.38619452714920044
1708437802.0714593,-1.1043660640716553,-1.6822434864439906,-2.5272472540484827,2.280345841045044,-1.018529240285055,0.38620948791503906
1708437802.0734558,-1.1043081283569336,-1.6822387180724085,-2.527238670979635,2.2803384500690917,-1.0185545126544397,0.38614681363105774
1708437802.075452,-1.1042991876602173,-1.6822105846800746,-2.527276579533712,2.280304117793701,-1.0185545126544397,0.38621824979782104
1708437802.0774343,-1.10434091091156,-1.6822239361205042,-2.52722675005068,2.280336781139038,-1.0185874144183558,0.3861734867095947
1708437802.07945,-1.1043037176132202,-1.6822320423521937,-2.5272472540484827,2.280324860210083,-1.0185840765582483,0.38620197772979736
1708437802.08146,-1.104324460029602,-1.6822477779784144,-2.52722675005068,2.280373974437378,-1.01857835451235,0.38619014620780945
1708437802.0834785,-1.1043334007263184,-1.6822191677489222,-2.527222220097677,2.2803265291401367,-1.018590275441305,0.38616153597831726
1708437802.0855367,-1.1043363809585571,-1.6822477779784144,-2.527238670979635,2.280345841045044,-1.018590275441305,0.38614964485168457
1708437802.0874875,-1.104328989982605,-1.6822272739806117,-2.527259174977438,2.2803219991871337,-1.018590275441305,0.3861123323440552
1708437802.0894976,-1.1043660640716553,-1.6822272739806117,-2.527336899434225,2.280341311092041,-1.0186026732074183,0.3861945867538452
1708437802.091491,-1.104300618171692,-1.6822120151915492,-2.527299706135885,2.2802931505390625,-1.018574062977926,0.38616156578063965
1708437802.0935311,-1.1043081283569336,-1.6822716198363246,-2.5273118654834192,2.280329390163086,-1.0185859839068812,0.3861377239227295
1708437802.0954738,-1.1042917966842651,-1.6821943722166957,-2.5272703806506556,2.280320568675659,-1.0185893217669886,0.3861945569515228
1708437802.0974846,-1.1042828559875488,-1.6822735271849574,-2.5273268858539026,2.280308647746704,-1.0185368696795862,0.3862195909023285
1708437802.0994601,-1.1042710542678833,-1.6822320423521937,-2.527289930974142,2.280308647746704,-1.0185812155352991,0.38614964485168457
1708437802.1015122,-1.1043334007263184,-1.6822759113707484,-2.5273476282702845,2.2803050714680175,-1.018606964741842,0.3861408233642578
1708437802.103485,-1.104251503944397,-1.6822320423521937,-2.527339045201437,2.2803472715565185,-1.0186188856707972,0.38619115948677063
1708437802.1054556,-1.1042767763137817,-1.6822558842101039,-2.527322594319479,2.2803591924854736,-1.0186474959002894,0.38617485761642456
1708437802.1074681,-1.1043051481246948,-1.6822029552855433,-2.5273311773883265,2.2802976804920654,-1.0185936133014124,0.38612106442451477
1708437802.1094415,-1.1042345762252808,-1.6822644672789515,-2.5273640791522425,2.2803353506275634,-1.0185893217669886,0.38615405559539795
1708437802.1114428,-1.1042723655700684,-1.6822363338866175,-2.5273063818561,2.2802738386341552,-1.0186145941363733,0.386165976524353
1708437802.1134665,-1.1042301654815674,-1.6822568378844203,-2.5273433367358606,2.2802604871937255,-1.0186308065997522,0.38614964485168457
1708437802.1154332,-1.104227066040039,-1.6822930775084437,-2.52736741701235,2.2802528577991943,-1.0186474959002894,0.38610923290252686
1708437802.1174676,-1.1042650938034058,-1.6822558842101039,-2.527318302785055,2.2802278238483886,-1.0186188856707972,0.3861123025417328
1708437802.1194232,-1.104227066040039,-1.6822511158385218,-2.527339045201437,2.2802693086811523,-1.0186637083636683,0.3861466348171234
1708437802.1214292,-1.1042197942733765,-1.6823064289488734,-2.5273094812976282,2.2802604871937255,-1.0186427275287073,0.3861122727394104
1708437802.1234572,-1.104236125946045,-1.6822883091368617,-2.5273433367358606,2.2802485662647705,-1.0186355749713343,0.3861289918422699
1708437802.1254544,-1.1042569875717163,-1.6822658977904261,-2.527339045201437,2.280249996776245,-1.0186341444598597,0.3861333131790161
1708437802.1274333,-1.1042286157608032,-1.6822644672789515,-2.527379337941305,2.280249996776245,-1.0186012426959437,0.38615402579307556
1708437802.129501,-1.1041959524154663,-1.6822496853270472,-2.5273543039904993,2.2801853853413085,-1.0186055342303675,0.3861585259437561
1708437802.1314464,-1.1042286157608032,-1.6821819744505824,-2.5273543039904993,2.280230684871338,-1.0186341444598597,0.3861585557460785
1708437802.1334631,-1.10418701171875,-1.6822477779784144,-2.5273717085467737,2.2802180486866455,-1.0186713377581995,0.38617491722106934
1708437802.1354642,-1.104236125946045,-1.6822105846800746,-2.527363125477926,2.2801355558582763,-1.018696133290426,0.3861377239227295
1708437802.1374698,-1.1042494773864746,-1.6822363338866175,-2.527339045201437,2.2801474767872314,-1.0186546484576624,0.3860898017883301
1708437802.139448,-1.1042242050170898,-1.6823021374144496,-2.5273063818561,2.2801689344593505,-1.0186784903155726,0.3861047625541687
1708437802.1414387,-1.1041840314865112,-1.6822229824461878,-2.527334753667013,2.28016106664624,-1.0186503569232386,0.3861343562602997
1708437802.1434622,-1.1041914224624634,-1.6822148762144984,-2.5273094812976282,2.2801520067402343,-1.0186956564532679,0.38613876700401306
1708437802.145469,-1.1041498184204102,-1.6822520695128382,-2.527339045201437,2.280149145717285,-1.0186832586871546,0.3860986530780792
1708437802.147479,-1.104253888130188,-1.6822411022581996,-2.527334753667013,2.280144615764282,-1.018660847340719,0.3861299753189087
1708437802.1494393,-1.1041676998138428,-1.6822477779784144,-2.5274296442614954,2.2801355558582763,-1.0186370054828089,0.3860820531845093
1708437802.1514347,-1.1041839122772217,-1.6822759113707484,-2.527334753667013,2.280132694835327,-1.018686596547262,0.3861387372016907
1708437802.1534607,-1.1042122840881348,-1.6822520695128382,-2.527334753667013,2.2801284033009033,-1.0187071005450647,0.38610926270484924
1708437802.1554604,-1.104150652885437,-1.6822387180724085,-2.5273552576648157,2.2801193433948974,-1.0187061468707483,0.3860524594783783
1708437802.1574457,-1.1041721105575562,-1.6822411022581996,-2.52736741701235,2.2801944452473144,-1.0186517874347132,0.38607314229011536
1708437802.159439,-1.104209303855896,-1.6822930775084437,-2.52736741701235,2.280149145717285,-1.0186927954303187,0.38613125681877136
1708437802.161487,-1.1041884422302246,-1.6822568378844203,-2.527334753667013,2.28016106664624,-1.0187180677997034,0.3860898017883301
1708437802.1634912,-1.1041884422302246,-1.6822434864439906,-2.527334753667013,2.280146284694336,-1.0187061468707483,0.3860776722431183
1708437802.1654603,-1.104117751121521,-1.6822759113707484,-2.527339045201437,2.280120297069214,-1.0187714735614222,0.3861105740070343
1708437802.1674411,-1.104192852973938,-1.6822272739806117,-2.527339045201437,2.280153675670288,-1.0186927954303187,0.3861313462257385
1708437802.1694565,-1.1041765213012695,-1.6822716198363246,-2.5273552576648157,2.280158205623291,-1.0187504927264612,0.3860194683074951
1708437802.1716568,-1.1041313409805298,-1.6822692356505335,-2.5273597876178187,2.280165596599243,-1.0187299887286585,0.38608643412590027
1708437802.1734605,-1.1041477918624878,-1.6822229824461878,-2.527383867894308,2.280153675670288,-1.0187552610980433,0.3860371708869934
1708437802.1754339,-1.1041030883789062,-1.6822644672789515,-2.5273588339435022,2.280158205623291,-1.0187342802630823,0.3860582709312439
1708437802.1774638,-1.104172945022583,-1.6822930775084437,-2.527346674595968,2.2801715570637207,-1.0187433401690882,0.3860211670398712
1708437802.1794763,-1.1041566133499146,-1.6822897396483363,-2.52736741701235,2.280095024699829,-1.0187180677997034,0.3860211670398712
1708437802.18149,-1.1041239500045776,-1.6822434864439906,-2.5273881594287317,2.280120297069214,-1.0187419096576136,0.38609084486961365
1708437802.1834893,-1.1041358709335327,-1.6822272739806117,-2.527346674595968,2.280103846187256,-1.0187180677997034,0.38605034351348877
1708437802.1854935,-1.1041446924209595,-1.6822716198363246,-2.52736741701235,2.2800845342823486,-1.018775765095846,0.38602566719055176
1708437802.1874685,-1.1041491031646729,-1.6822759113707484,-2.5273707548724573,2.280071182841919,-1.0187342802630823,0.3860299587249756
1708437802.1894743,-1.104116439819336,-1.6822363338866175,-2.5273717085467737,2.2800964552113037,-1.0187061468707483,0.38600048422813416
1708437802.1914494,-1.1041699647903442,-1.6822191677489222,-2.527375046406881,2.2800726133533935,-1.018726650868551,0.3860583007335663
1708437802.1934807,-1.104128360748291,-1.6823021374144496,-2.527346674595968,2.2801009851643066,-1.0187433401690882,0.38602569699287415
1708437802.1954968,-1.1041417121887207,-1.6822411022581996,-2.527379337941305,2.2801293569752197,-1.0187552610980433,0.38605475425720215
1708437802.1974854,-1.1041491031646729,-1.6822973690428675,-2.5274043718921106,2.2800935941883544,-1.0187090078936976,0.38605475425720215
1708437802.1994376,-1.104128360748291,-1.6822387180724085,-2.5273500124560755,2.2800845342823486,-1.0186927954303187,0.38602569699287415
1708437802.2014318,-1.1041045188903809,-1.6822558842101039,-2.527407709752218,2.280120297069214,-1.0186598936664026,0.38602113723754883
1708437802.2034523,-1.1041252613067627,-1.6822887859740199,-2.5273707548724573,2.2800444799610595,-1.0187552610980433,0.38600608706474304
1708437802.2054675,-1.1041492223739624,-1.6822406254210414,-2.527395788823263,2.2801009851643066,-1.0187342802630823,0.3860211968421936
1708437802.2074962,-1.1041089296340942,-1.6822411022581996,-2.5273378531085413,2.2801174360462646,-1.0187132994281214,0.38599300384521484
1708437802.2094705,-1.1041491031646729,-1.6822601757445277,-2.5273552576648157,2.280132694835327,-1.0187433401690882,0.3860299587249756
1708437802.2114708,-1.1040762662887573,-1.6822692356505335,-2.5273991266833704,2.2801248270222167,-1.0187504927264612,0.38605037331581116
1708437802.2134533,-1.1040955781936646,-1.6822344265379847,-2.5273881594287317,2.2800890642353515,-1.0186689535724085,0.38607141375541687
1708437802.2154908,-1.1041089296340942,-1.6822601757445277,-2.527407709752218,2.280075712794922,-1.0187671820269983,0.3860459327697754
1708437802.2174506,-1.104146122932434,-1.6822644672789515,-2.527346674595968,2.2800518709370117,-1.0187552610980433,0.3860211670398712
1708437802.2194521,-1.1041371822357178,-1.6822849712767542,-2.5273500124560755,2.2800683218189697,-1.0187552610980433,0.3860459327697754
1708437802.221464,-1.1040925979614258,-1.6822930775084437,-2.5273869673358362,2.2801715570637207,-1.0186846891986292,0.38603436946868896
1708437802.2235098,-1.1040925979614258,-1.6822568378844203,-2.527395550404684,2.2801129060932617,-1.0187385717975062,0.3860136568546295
1708437802.225456,-1.1040592193603516,-1.6822668514647425,-2.5273500124560755,2.2801098066517334,-1.0187504927264612,0.3860459327697754
1708437802.2274466,-1.1041252613067627,-1.6822058163084925,-2.527379337941305,2.2801293569752197,-1.0187132994281214,0.3860093653202057
1708437802.2294807,-1.104067325592041,-1.6822692356505335,-2.527346674595968,2.2800890642353515,-1.0187256971942347,0.38602688908576965
1708437802.2314942,-1.1041179895401,-1.6822272739806117,-2.5273216406451624,2.28009216367688,-1.0187552610980433,0.38604167103767395
1708437802.2334692,-1.1041045188903809,-1.6822272739806117,-2.5273259321795862,2.280059500331543,-1.0187047163592737,0.38603872060775757
1708437802.2355094,-1.1041208505630493,-1.6822601757445277,-2.527379337941305,2.280123158092163,-1.0187624136554163,0.3860343396663666
1708437802.2374895,-1.1041536331176758,-1.6823021374144496,-2.52739125887026,2.2801217275806884,-1.0187538305865687,0.38600611686706543
1708437802.2394612,-1.1041343212127686,-1.6822272739806117,-2.52736741701235,2.2800890642353515,-1.0186970869647425,0.38602566719055176
1708437802.2414842,-1.1040762662887573,-1.6822716198363246,-2.5273259321795862,2.2801248270222167,-1.0187166372882288,0.3860180377960205
1708437802.2434883,-1.1040459871292114,-1.6822601757445277,-2.5273717085467737,2.280054731959961,-1.0187786261187952,0.3860625624656677
1708437802.2455065,-1.1041417121887207,-1.6821967564024867,-2.527383867894308,2.2800890642353515,-1.0187419096576136,0.3860788345336914
1708437802.247558,-1.1041001081466675,-1.6822668514647425,-2.5273259321795862,2.2800325590321044,-1.0187791029559534,0.3860503137111664
1708437802.2494493,-1.104063630104065,-1.6822477779784144,-2.527334753667013,2.2800637918659667,-1.018787686024801,0.3860093057155609
1708437802.2514338,-1.104079246520996,-1.6822692356505335,-2.5273216406451624,2.2800935941883544,-1.0187581221209925,0.38605034351348877
1708437802.2534819,-1.1040881872177124,-1.6822511158385218,-2.527363125477926,2.2801424699970703,-1.0187504927264612,0.3860459327697754
1708437802.255453,-1.1041179895401,-1.6822625599303187,-2.5273173491107386,2.2800771433063964,-1.0187342802630823,0.38601362705230713
1708437802.2574348,-1.104071855545044,-1.6822930775084437,-2.5273924509631556,2.2801424699970703,-1.0187624136554163,0.3859851062297821
1708437802.2594836,-1.1041224002838135,-1.6822973690428675,-2.52736741701235,2.2801055151173095,-1.0187419096576136,0.3860136568546295
1708437802.2614524,-1.1040970087051392,-1.6822716198363246,-2.527375046406881,2.2800935941883544,-1.0187667051898401,0.38604164123535156
1708437802.2635076,-1.1041016578674316,-1.6822568378844203,-2.527395788823263,2.2801129060932617,-1.0187624136554163,0.3860459625720978
1708437802.2654634,-1.1041297912597656,-1.6822015247740687,-2.527330462132589,2.2801217275806884,-1.0187743345843714,0.38605475425720215
1708437802.26747,-1.1040682792663574,-1.6822511158385218,-2.5273292700396937,2.2800726133533935,-1.0187581221209925,0.3860136568546295
1708437802.2695153,-1.1041133403778076,-1.6822759113707484,-2.527379337941305,2.280130549068115,-1.0187504927264612,0.38608765602111816
1708437802.2715025,-1.1040881872177124,-1.6822716198363246,-2.5273216406451624,2.2800771433063964,-1.0187624136554163,0.3860788941383362
1708437802.2735364,-1.104150652885437,-1.6822511158385218,-2.52736741701235,2.2801055151173095,-1.0187667051898401,0.3860093653202057
1708437802.2754707,-1.1040881872177124,-1.6822229824461878,-2.527379576359884,2.2801083761402587,-1.0187624136554163,0.3860168159008026
1708437802.2774773,-1.1040592193603516,-1.6822511158385218,-2.527383867894308,2.2801262575336914,-1.0187132994281214,0.386070191860199
1708437802.2794845,-1.1040970087051392,-1.6822511158385218,-2.527342144642965,2.2801262575336914,-1.0187504927264612,0.386029988527298
1708437802.2814984,-1.1040881872177124,-1.6822806797423304,-2.527363125477926,2.2800606924244384,-1.0187504927264612,0.3860371708869934
1708437802.283489,-1.1041045188903809,-1.6822520695128382,-2.527339045201437,2.2800890642353515,-1.0187538305865687,0.38597193360328674
1708437802.2854745,-1.1040925979614258,-1.6822434864439906,-2.527424160634176,2.2801143366047363,-1.0187433401690882,0.3860582709312439
1708437802.2874935,-1.104071855545044,-1.6822692356505335,-2.527375046406881,2.2800637918659667,-1.0187504927264612,0.38599735498428345
1708437802.289457,-1.1040925979614258,-1.6822973690428675,-2.5273552576648157,2.2800683218189697,-1.0187299887286585,0.3860136568546295
1708437802.2914512,-1.1041016578674316,-1.6823140583434046,-2.527407709752218,2.2800726133533935,-1.0187624136554163,0.3860224187374115
1708437802.2934551,-1.1040629148483276,-1.6822849712767542,-2.527350966130392,2.2800964552113037,-1.0187667051898401,0.3860625624656677
1708437802.2954633,-1.1040806770324707,-1.6822849712767542,-2.5273717085467737,2.2800935941883544,-1.0187667051898401,0.3860343396663666
1708437802.2976031,-1.1041016578674316,-1.6823021374144496,-2.5273552576648157,2.2800935941883544,-1.0187376181231897,0.3860211968421936
1708437802.2994826,-1.104083776473999,-1.6822229824461878,-2.52736741701235,2.2801055151173095,-1.0187419096576136,0.3860343396663666
1708437802.3014562,-1.1040762662887573,-1.6822849712767542,-2.527379337941305,2.2800978857227783,-1.0187342802630823,0.3860459327697754
1708437802.3034444,-1.1040806770324707,-1.6822272739806117,-2.527330462132589,2.2800802427479248,-1.0187090078936976,0.3859807550907135
1708437802.305441,-1.1040717363357544,-1.6822272739806117,-2.527358595524923,2.2801129060932617,-1.0187504927264612,0.3860299587249756
1708437802.3074453,-1.1040881872177124,-1.6822387180724085,-2.527375046406881,2.2800935941883544,-1.0187223593341272,0.3860093653202057
1708437802.3095102,-1.104067325592041,-1.6822296581664027,-2.5273543039904993,2.2801174360462646,-1.0187419096576136,0.3860343396663666
1708437802.311446,-1.1040762662887573,-1.6822558842101039,-2.527375046406881,2.2800771433063964,-1.0187385717975062,0.3860093653202057
1708437802.3134363,-1.1040853261947632,-1.6822716198363246,-2.5273869673358362,2.2800771433063964,-1.0186880270587366,0.386029988527298
1708437802.3154585,-1.1040881872177124,-1.6822849712767542,-2.52736741701235,2.2801293569752197,-1.0187433401690882,0.3860299587249756
1708437802.3174438,-1.1041179895401,-1.6822434864439906,-2.5273543039904993,2.28011862813916,-1.01872426668276,0.3860343396663666
1708437802.319438,-1.1040806770324707,-1.6822568378844203,-2.5273707548724573,2.2800845342823486,-1.0187385717975062,0.3860299587249756
1708437802.3214517,-1.1041297912597656,-1.6823092899718226,-2.527363125477926,2.280014677638672,-1.0187624136554163,0.3860006034374237
1708437802.3234608,-1.1040762662887573,-1.682246824304098,-2.527363125477926,2.2800890642353515,-1.0187581221209925,0.38605472445487976
1708437802.3254485,-1.1040925979614258,-1.6822434864439906,-2.527375046406881,2.2801174360462646,-1.0187833944903772,0.3860136568546295
1708437802.327456,-1.1040503978729248,-1.6822840176024378,-2.5273552576648157,2.2801009851643066,-1.0187552610980433,0.3860136866569519
1708437802.3294313,-1.1040925979614258,-1.6822387180724085,-2.5273707548724573,2.2801174360462646,-1.0187209288226526,0.38599735498428345
1708437802.3314905,-1.1041001081466675,-1.6822806797423304,-2.527363125477926,2.280135079021118,-1.0187209288226526,0.3860093355178833
1708437802.3334625,-1.1040881872177124,-1.6822058163084925,-2.527379337941305,2.280130549068115,-1.018731419240133,0.3860459327697754
1708437802.3354938,-1.1040970087051392,-1.6823021374144496,-2.5273259321795862,2.2801009851643066,-1.0187743345843714,0.3860136568546295
1708437802.3374908,-1.1040925979614258,-1.6822558842101039,-2.5273869673358362,2.2800964552113037,-1.0187223593341272,0.3860582411289215
1708437802.3394673,-1.1040925979614258,-1.6822148762144984,-2.5274208227740687,2.2800683218189697,-1.0187538305865687,0.38602566719055176
1708437802.341475,-1.1041252613067627,-1.6822806797423304,-2.52736741701235,2.2800964552113037,-1.0187371412860315,0.3860093653202057
1708437802.343465,-1.1041134595870972,-1.6822434864439906,-2.5273543039904993,2.2801055151173095,-1.0186970869647425,0.38600942492485046
1708437802.3455281,-1.1041373014450073,-1.6822272739806117,-2.527395788823263,2.2801174360462646,-1.0187132994281214,0.3860343396663666
1708437802.3474739,-1.1041045188903809,-1.6822849712767542,-2.5273378531085413,2.2800816732593994,-1.0187132994281214,0.3860475420951843
1708437802.3494437,-1.1041120290756226,-1.6822759113707484,-2.527400080357687,2.2800935941883544,-1.0187667051898401,0.3859557807445526
1708437802.3514493,-1.1040881872177124,-1.6822692356505335,-2.527342144642965,2.2801129060932617,-1.0187223593341272,0.3860502541065216
1708437802.3534434,-1.1041030883789062,-1.6822692356505335,-2.527350966130392,2.2801129060932617,-1.0187342802630823,0.3860211968421936
1708437802.355469,-1.1041001081466675,-1.6822930775084437,-2.527342144642965,2.2801262575336914,-1.0187061468707483,0.38603124022483826
1708437802.3574712,-1.104116439819336,-1.6822716198363246,-2.527363125477926,2.2800802427479248,-1.0187342802630823,0.38600173592567444
1708437802.3595417,-1.1041089296340942,-1.6823183498778285,-2.527346674595968,2.2801293569752197,-1.018759552632467,0.38604164123535156
1708437802.3614526,-1.1041446924209595,-1.6822558842101039,-2.527395788823263,2.2800771433063964,-1.0187433401690882,0.38599735498428345
1708437802.363525,-1.1041417121887207,-1.6822520695128382,-2.5273664633380335,2.2800978857227783,-1.0187504927264612,0.38602566719055176
1708437802.3654575,-1.1040955781936646,-1.6822668514647425,-2.5273500124560755,2.2800964552113037,-1.0187433401690882,0.3860343396663666
1708437802.3674648,-1.104116439819336,-1.6822759113707484,-2.527424160634176,2.280099316234253,-1.0187385717975062,0.38595128059387207
1708437802.3694315,-1.1041611433029175,-1.6822511158385218,-2.527346674595968,2.2801217275806884,-1.018759552632467,0.3859764635562897
1708437802.3714716,-1.1041208505630493,-1.6822344265379847,-2.527375046406881,2.2800964552113037,-1.0187433401690882,0.38607457280158997
1708437802.3734555,-1.1041239500045776,-1.6822759113707484,-2.527350966130392,2.2801834779926757,-1.0187180677997034,0.3860061466693878
1708437802.3754976,-1.1041208505630493,-1.6822511158385218,-2.527346674595968,2.2801217275806884,-1.0187342802630823,0.38599395751953125
1708437802.3774683,-1.104128360748291,-1.682246824304098,-2.527379337941305,2.2800726133533935,-1.0187180677997034,0.38596445322036743
1708437802.3794813,-1.1041208505630493,-1.6823345623412074,-2.527379576359884,2.2801381784626464,-1.018775765095846,0.3860582709312439
1708437802.3815136,-1.1041536331176758,-1.6822434864439906,-2.5273259321795862,2.2801381784626464,-1.0187433401690882,0.3859851062297821
1708437802.3834944,-1.1041358709335327,-1.6822759113707484,-2.5273881594287317,2.28009216367688,-1.0187385717975062,0.3860343396663666
1708437802.3854625,-1.1041491031646729,-1.6822272739806117,-2.527330462132589,2.2800964552113037,-1.0187061468707483,0.38599738478660583
1708437802.387461,-1.1041818857192993,-1.6822806797423304,-2.5273543039904993,2.2801055151173095,-1.0187013784991663,0.386045902967453
1708437802.3894613,-1.1041945219039917,-1.6822759113707484,-2.527334753667013,2.2800845342823486,-1.0187462011920374,0.3860093653202057
1708437802.3914742,-1.1041566133499146,-1.6822511158385218,-2.527350966130392,2.280103846187256,-1.0187013784991663,0.3860136568546295
1708437802.3934917,-1.104177474975586,-1.6823021374144496,-2.5273595491992396,2.280149145717285,-1.0187223593341272,0.3860136568546295
1708437802.3954697,-1.104172945022583,-1.6823002300658167,-2.527339045201437,2.2801083761402587,-1.018714729939596,0.3859677314758301
1708437802.3974948,-1.1041685342788696,-1.6822644672789515,-2.5273588339435022,2.280146284694336,-1.0187671820269983,0.3860105872154236
1708437802.3994567,-1.1041431427001953,-1.6822511158385218,-2.527358595524923,2.280120297069214,-1.018726650868551,0.3860299587249756
1708437802.4014487,-1.1041641235351562,-1.6822716198363246,-2.527346674595968,2.2801293569752197,-1.018693749104635,0.3860386908054352
1708437802.4034588,-1.104181170463562,-1.6822716198363246,-2.527363125477926,2.280146284694336,-1.018731419240133,0.38600611686706543
1708437802.4054482,-1.1041975021362305,-1.6822806797423304,-2.5273268858539026,2.2801551061817626,-1.0187433401690882,0.38599735498428345
1708437802.4074461,-1.1041685342788696,-1.6822320423521937,-2.527339045201437,2.2801336485096435,-1.0187223593341272,0.3860299587249756
1708437802.4094741,-1.104172945022583,-1.6822511158385218,-2.5273595491992396,2.280162735576294,-1.018731419240133,0.3860372304916382
1708437802.4114454,-1.104181170463562,-1.6822058163084925,-2.527346674595968,2.280078573817871,-1.018714729939596,0.3860343396663666
1708437802.413477,-1.1041641235351562,-1.682295938531393,-2.5273552576648157,2.280150814647339,-1.018660847340719,0.3860136568546295
1708437802.41544,-1.1041550636291504,-1.6822558842101039,-2.527318302785055,2.2801129060932617,-1.0187071005450647,0.3860415816307068
1708437802.4174664,-1.1041641235351562,-1.6822558842101039,-2.5273552576648157,2.280158205623291,-1.0186250845538538,0.386016845703125
1708437802.419447,-1.1041477918624878,-1.6822558842101039,-2.527358595524923,2.2801834779926757,-1.0186412970172327,0.38603872060775757
1708437802.4214475,-1.1041550636291504,-1.6822229824461878,-2.5273552576648157,2.2801009851643066,-1.0186579863177698,0.3860136568546295
1708437802.4234724,-1.1041268110275269,-1.6822806797423304,-2.527350966130392,2.280162735576294,-1.0186222235309046,0.3860093951225281
1708437802.4254496,-1.1041721105575562,-1.6822320423521937,-2.52736741701235,2.2801236349293212,-1.0186875502215784,0.3860299587249756
1708437802.427465,-1.1041594743728638,-1.6823107204832972,-2.527342144642965,2.280141754741333,-1.0186665693866175,0.386050283908844
1708437802.4294393,-1.104204773902893,-1.6822387180724085,-2.527350966130392,2.2801834779926757,-1.0186503569232386,0.38606253266334534
1708437802.4315088,-1.104204773902893,-1.6823302708067835,-2.527363125477926,2.280132694835327,-1.0186799208270472,0.3860180377960205
1708437802.433477,-1.1041721105575562,-1.6822363338866175,-2.527350966130392,2.280083103770874,-1.0186384359942835,0.386045902967453
1708437802.435476,-1.1041884422302246,-1.6822930775084437,-2.527412239705221,2.280103846187256,-1.0186546484576624,0.3860503137111664
1708437802.43747,-1.1041550636291504,-1.6822601757445277,-2.5273006598102015,2.28013722478833,-1.0186503569232386,0.3860093951225281
1708437802.4394786,-1.1041840314865112,-1.6822148762144984,-2.5273881594287317,2.280111237163208,-1.0186503569232386,0.38602563738822937
1708437802.4414606,-1.1041884422302246,-1.6822320423521937,-2.527339045201437,2.28009216367688,-1.0186427275287073,0.38599830865859985
1708437802.4434996,-1.1042078733444214,-1.6822849712767542,-2.5273924509631556,2.2801825243183593,-1.0186799208270472,0.3860343098640442
1708437802.4454775,-1.104221224784851,-1.6823183498778285,-2.5273664633380335,2.280162735576294,-1.0186427275287073,0.3860459327697754
1708437802.447509,-1.1042242050170898,-1.6822897396483363,-2.5273259321795862,2.280144615764282,-1.0185936133014124,0.38605910539627075
1708437802.4494658,-1.1042286157608032,-1.6823092899718226,-2.527322594319479,2.2801779943653564,-1.0186222235309046,0.3860503137111664
1708437802.4514568,-1.1041959524154663,-1.6822363338866175,-2.5273433367358606,2.2801825243183593,-1.0186546484576624,0.386021226644516
1708437802.4534729,-1.1042033433914185,-1.6822840176024378,-2.527350966130392,2.280132694835327,-1.0186012426959437,0.38606345653533936
1708437802.4554446,-1.104191541671753,-1.6822692356505335,-2.527313772832052,2.280207796687744,-1.0186145941363733,0.386021226644516
1708437802.4574647,-1.104154348373413,-1.6822716198363246,-2.527313772832052,2.28016106664624,-1.0186308065997522,0.386050283908844
1708437802.4594903,-1.1042033433914185,-1.6822520695128382,-2.527330462132589,2.280165596599243,-1.0186174551593226,0.3860700726509094
1708437802.461464,-1.1041706800460815,-1.6822272739806117,-2.527363125477926,2.2802137571522216,-1.0186427275287073,0.3860136866569519
1708437802.4635262,-1.1042286157608032,-1.682279726068014,-2.52736741701235,2.2801944452473144,-1.0186222235309046,0.3860343098640442
1708437802.4654908,-1.104203462600708,-1.6823169193663539,-2.527342144642965,2.280230684871338,-1.0186174551593226,0.3860372006893158
1708437802.4674628,-1.1042739152908325,-1.6822272739806117,-2.527339045201437,2.280176563853882,-1.0186055342303675,0.3860017657279968
1708437802.4695385,-1.1042405366897583,-1.6822387180724085,-2.5273476282702845,2.280183716411255,-1.0185893217669886,0.38599398732185364
1708437802.4714665,-1.1042317152023315,-1.6822759113707484,-2.527383867894308,2.2801927763172607,-1.0186341444598597,0.3860299587249756
1708437802.4734724,-1.1042405366897583,-1.6822315655150355,-2.527383867894308,2.280240936870239,-1.0185893217669886,0.38607126474380493
1708437802.4754426,-1.1042330265045166,-1.6822320423521937,-2.5273259321795862,2.280221624965332,-1.0186308065997522,0.3860386908054352
1708437802.4774516,-1.1042524576187134,-1.6822716198363246,-2.5273476282702845,2.280249996776245,-1.0185983816729944,0.386050283908844
1708437802.4794815,-1.104236125946045,-1.6822520695128382,-2.527334753667013,2.280233545894287,-1.0185850302325647,0.3860093951225281
1708437802.4814625,-1.104203462600708,-1.6822668514647425,-2.527342144642965,2.280259056682251,-1.0186308065997522,0.38602569699287415
1708437802.483455,-1.1042405366897583,-1.6822644672789515,-2.527363125477926,2.2802366453358154,-1.0185850302325647,0.38606253266334534
1708437802.4855056,-1.1042649745941162,-1.6822363338866175,-2.527313772832052,2.280294581050537,-1.0185983816729944,0.3860223889350891
1708437802.487458,-1.1042389869689941,-1.6822806797423304,-2.5273311773883265,2.2802113729664306,-1.0186308065997522,0.3860502541065216
1708437802.4894633,-1.104248046875,-1.6822897396483363,-2.527313772832052,2.28023807584729,-1.0186145941363733,0.3860343098640442
1708437802.4914699,-1.1042107343673706,-1.6822644672789515,-2.5273476282702845,2.280254288310669,-1.0186222235309046,0.3860582411289215
1708437802.4935002,-1.1042613983154297,-1.6822558842101039,-2.5273638407336634,2.280249996776245,-1.0185983816729944,0.3860299587249756
1708437802.4954886,-1.104248046875,-1.6822601757445277,-2.527334753667013,2.280217095012329,-1.0186145941363733,0.386078804731369
1708437802.4974692,-1.1042137145996094,-1.6822296581664027,-2.527363125477926,2.280221624965332,-1.0185936133014124,0.3860299587249756
1708437802.4994612,-1.1042389869689941,-1.6823064289488734,-2.527350966130392,2.280249996776245,-1.0186117331134241,0.38602569699287415
1708437802.5014796,-1.1042650938034058,-1.6822434864439906,-2.5273433367358606,2.280240936870239,-1.0185859839068812,0.3860180377960205
1708437802.5034416,-1.104302167892456,-1.6822601757445277,-2.527289930974142,2.28023807584729,-1.018606964741842,0.3860299289226532
1708437802.5054955,-1.104236125946045,-1.6822058163084925,-2.5273063818561,2.280245466823242,-1.01857835451235,0.38604167103767395
1708437802.5074372,-1.1042516231536865,-1.6822601757445277,-2.5273478666888636,2.2802738386341552,-1.018606964741842,0.3860756754875183
1708437802.5095017,-1.1042226552963257,-1.6822453937926234,-2.5273259321795862,2.2802738386341552,-1.018590275441305,0.3860458433628082
1708437802.511465,-1.1043258905410767,-1.6822558842101039,-2.527339045201437,2.2802082735249023,-1.018557373677389,0.38604167103767395
1708437802.5135021,-1.1042560338974,-1.6822849712767542,-2.527339045201437,2.280286951656006,-1.0186484495746058,0.38602569699287415
1708437802.5154476,-1.1042650938034058,-1.6822434864439906,-2.527339045201437,2.2802528577991943,-1.018574062977926,0.3860136568546295
1708437802.5174518,-1.1043140888214111,-1.6822735271849574,-2.527339045201437,2.280183716411255,-1.01854116121401,0.38604164123535156
1708437802.5194511,-1.1042931079864502,-1.6822930775084437,-2.527346674595968,2.280259056682251,-1.01854116121401,0.38603436946868896
1708437802.5214477,-1.1042931079864502,-1.6822716198363246,-2.527334753667013,2.280266209239624,-1.018550221120016,0.38602569699287415
1708437802.5234697,-1.1042650938034058,-1.682246824304098,-2.5273805300342005,2.2802857595631103,-1.018557373677389,0.3860299587249756
1708437802.5254526,-1.104248046875,-1.682246824304098,-2.527318064366476,2.2802366453358154,-1.018557373677389,0.3860832154750824
1708437802.5274928,-1.1042767763137817,-1.6822477779784144,-2.5273094812976282,2.280229015941284,-1.0185664335833948,0.38605380058288574
1708437802.5294533,-1.1042931079864502,-1.6822434864439906,-2.527318302785055,2.280233545894287,-1.0185826460467737,0.3860299587249756
1708437802.5314586,-1.1043169498443604,-1.6822558842101039,-2.5273433367358606,2.2802366453358154,-1.0185874144183558,0.3860136568546295
1708437802.533452,-1.1043213605880737,-1.6822716198363246,-2.527322594319479,2.2802128034779052,-1.018574062977926,0.3860820531845093
1708437802.535454,-1.1042433977127075,-1.6822387180724085,-2.5273106733905237,2.2802082735249023,-1.018616024647848,0.3860788643360138
1708437802.5375056,-1.1042516231536865,-1.6822520695128382,-2.527301851903097,2.280226154918335,-1.018574062977926,0.3860124945640564
1708437802.539458,-1.1042382717132568,-1.6822568378844203,-2.5273476282702845,2.280278130168579,-1.0185993353473108,0.3860299289226532
1708437802.541451,-1.1042767763137817,-1.6822229824461878,-2.5273433367358606,2.280217095012329,-1.0185707251178187,0.38606250286102295
1708437802.5434685,-1.1042723655700684,-1.682246824304098,-2.5273106733905237,2.2802366453358154,-1.0185945669757288,0.38606253266334534
1708437802.545452,-1.1043050289154053,-1.6822558842101039,-2.527289930974142,2.2802159029194335,-1.018557373677389,0.3860459327697754
1708437802.547448,-1.1042345762252808,-1.6822644672789515,-2.5273268858539026,2.2802485662647705,-1.018550221120016,0.3860343098640442
1708437802.549439,-1.1042590141296387,-1.6822058163084925,-2.5273433367358606,2.280278130168579,-1.0185530821429651,0.3860257565975189
1708437802.551466,-1.1042426824569702,-1.6822434864439906,-2.527350966130392,2.280245466823242,-1.0186117331134241,0.3860625624656677
1708437802.5534935,-1.1042590141296387,-1.6822973690428675,-2.5273476282702845,2.2802738386341552,-1.0185945669757288,0.3860745131969452
1708437802.5554333,-1.104312539100647,-1.6823021374144496,-2.5273268858539026,2.2802485662647705,-1.018590275441305,0.3860328495502472
1708437802.5574503,-1.1042842864990234,-1.6822520695128382,-2.527322594319479,2.2802082735249023,-1.0185664335833948,0.38607457280158997
1708437802.5594819,-1.1042590141296387,-1.6822692356505335,-2.5273106733905237,2.280254288310669,-1.018562142048971,0.3860875964164734
1708437802.561449,-1.1042723655700684,-1.6822930775084437,-2.5273311773883265,2.2802693086811523,-1.0185993353473108,0.38604164123535156
1708437802.563587,-1.1042516231536865,-1.6823092899718226,-2.5273354689227503,2.280259056682251,-1.0185826460467737,0.3860788345336914
1708437802.5654802,-1.1042516231536865,-1.6822930775084437,-2.527273718510763,2.2802738386341552,-1.0186246077166956,0.3860503137111664
1708437802.5675278,-1.104300618171692,-1.6822840176024378,-2.5273433367358606,2.280249996776245,-1.018550221120016,0.38607320189476013
1708437802.569453,-1.104267954826355,-1.6823140583434046,-2.527339045201437,2.2801994520374755,-1.0185588041888636,0.3860136866569519
1708437802.5714438,-1.104267954826355,-1.6822477779784144,-2.5273268858539026,2.280245466823242,-1.0185664335833948,0.385993093252182
1708437802.573461,-1.1042560338974,-1.682213922540182,-2.5273063818561,2.2802321153828125,-1.0185425917254847,0.3860211968421936
1708437802.5754437,-1.10427987575531,-1.6821938953795375,-2.5272987524615687,2.280257387752197,-1.0185635725604456,0.38604164123535156
1708437802.5774693,-1.104300618171692,-1.6822272739806117,-2.5273311773883265,2.2802528577991943,-1.0185874144183558,0.3860328197479248
1708437802.5794404,-1.104300618171692,-1.6822520695128382,-2.5273030439959925,2.2802619177052,-1.0185874144183558,0.38604164123535156
1708437802.5814688,-1.1043169498443604,-1.6822973690428675,-2.527339045201437,2.280270739192627,-1.0185754934894007,0.38605380058288574
1708437802.58354,-1.1042723655700684,-1.6822558842101039,-2.527322594319479,2.28023807584729,-1.0185383001910608,0.3860701024532318
1708437802.5854611,-1.1043422222137451,-1.6822520695128382,-2.527322594319479,2.280257387752197,-1.0185630957232874,0.3860327899456024
1708437802.5874903,-1.1042635440826416,-1.6822272739806117,-2.5273640791522425,2.280266209239624,-1.0185335318194788,0.38605380058288574
1708437802.5894656,-1.1042931079864502,-1.6822930775084437,-2.5273311773883265,2.2802321153828125,-1.0185664335833948,0.3860745131969452
1708437802.5914636,-1.1042470932006836,-1.6823302708067835,-2.527294460927145,2.280245466823242,-1.0185545126544397,0.38604065775871277
1708437802.5934906,-1.1042723655700684,-1.6822644672789515,-2.5273521582232874,2.280278130168579,-1.0185173193561,0.3860745131969452
1708437802.5954666,-1.1042389869689941,-1.6822849712767542,-2.5273192564593714,2.280229015941284,-1.018562142048971,0.3860820233821869
1708437802.5975676,-1.104267954826355,-1.6822930775084437,-2.527289930974142,2.280282660121582,-1.0185335318194788,0.38605383038520813
1708437802.599451,-1.1042433977127075,-1.682246824304098,-2.5273399988757532,2.2802201944538574,-1.0185468832599085,0.38609087467193604
1708437802.601459,-1.1043169498443604,-1.6822377643980921,-2.5273063818561,2.280245466823242,-1.0185588041888636,0.38609424233436584
1708437802.6034749,-1.1043258905410767,-1.6822601757445277,-2.5273354689227503,2.280233545894287,-1.018522087727682,0.3861311972141266
1708437802.605447,-1.1042723655700684,-1.6822716198363246,-2.5273149649249476,2.280249996776245,-1.0186079184161585,0.3860700726509094
1708437802.607477,-1.1043081283569336,-1.6822191677489222,-2.5273311773883265,2.280270739192627,-1.0186002890216272,0.3861267864704132
1708437802.6094882,-1.1042931079864502,-1.6822897396483363,-2.5273106733905237,2.280257387752197,-1.0185263792621058,0.38604164123535156
1708437802.6114657,-1.1043334007263184,-1.6822272739806117,-2.527322594319479,2.2802366453358154,-1.0185588041888636,0.3860657215118408
1708437802.6134496,-1.1042560338974,-1.6822558842101039,-2.5273106733905237,2.280240936870239,-1.0185263792621058,0.38605380058288574
1708437802.6154394,-1.1042389869689941,-1.6822840176024378,-2.527322594319479,2.2802619177052,-1.0185840765582483,0.3860745429992676
1708437802.6174533,-1.1042931079864502,-1.6822387180724085,-2.5273476282702845,2.280266209239624,-1.0185335318194788,0.3860613703727722
1708437802.6195033,-1.10427987575531,-1.6822625599303187,-2.5273030439959925,2.2802366453358154,-1.0185635725604456,0.38605690002441406
1708437802.6214316,-1.1042931079864502,-1.6823183498778285,-2.527328077946798,2.2802201944538574,-1.0185797850238245,0.38605254888534546
1708437802.623455,-1.1043095588684082,-1.6822806797423304,-2.527297560368673,2.2802039819904785,-1.0185707251178187,0.38609856367111206
1708437802.6254642,-1.1043258905410767,-1.6822520695128382,-2.527278010045187,2.2802738386341552,-1.0185664335833948,0.38606882095336914
1708437802.6274762,-1.10427987575531,-1.6822511158385218,-2.5273073355304163,2.2802769380756835,-1.0185545126544397,0.3860613703727722
1708437802.629454,-1.1042426824569702,-1.6822644672789515,-2.5273149649249476,2.2802485662647705,-1.018529240285055,0.38610172271728516
1708437802.6314902,-1.1042814254760742,-1.6822849712767542,-2.5273192564593714,2.280249758357666,-1.0185754934894007,0.38610926270484924
1708437802.6334887,-1.1042962074279785,-1.6822887859740199,-2.5273192564593714,2.280278130168579,-1.0185053984271448,0.3861299157142639
1708437802.6354554,-1.1042650938034058,-1.6822644672789515,-2.5273354689227503,2.280229015941284,-1.018550221120016,0.3861377239227295
1708437802.637546,-1.104267954826355,-1.6822692356505335,-2.527322594319479,2.2802247244068603,-1.0185635725604456,0.38616904616355896
1708437802.6394725,-1.104267954826355,-1.6822363338866175,-2.5272825399981897,2.280310793513916,-1.0185630957232874,0.38616591691970825
1708437802.6414766,-1.1042650938034058,-1.6821896038451136,-2.5273192564593714,2.2802046972462158,-1.0185754934894007,0.38621076941490173
1708437802.6434908,-1.1042345762252808,-1.6822806797423304,-2.5272987524615687,2.280229015941284,-1.0185545126544397,0.38616591691970825
1708437802.6454854,-1.1042842864990234,-1.6822520695128382,-2.5273106733905237,2.2801660734364013,-1.0185263792621058,0.3861527442932129
1708437802.6474822,-1.1042433977127075,-1.6822644672789515,-2.527323547993795,2.2802738386341552,-1.0185588041888636,0.38616156578063965
1708437802.6494405,-1.1042723655700684,-1.6822105846800746,-2.5273354689227503,2.2802366453358154,-1.0185797850238245,0.38615721464157104
1708437802.6514635,-1.1042560338974,-1.6823183498778285,-2.5273268858539026,2.2802247244068603,-1.0185707251178187,0.3861944079399109
1708437802.65346,-1.1042842864990234,-1.6822477779784144,-2.5272868315326136,2.2802366453358154,-1.0184968153582972,0.38616156578063965
1708437802.6554463,-1.1042723655700684,-1.6822558842101039,-2.527278010045187,2.280266209239624,-1.0185707251178187,0.3861483931541443
1708437802.6574802,-1.1043094396591187,-1.6822806797423304,-2.5273149649249476,2.280186815852783,-1.0185678640948694,0.3861900866031647
1708437802.6594932,-1.1042470932006836,-1.6822644672789515,-2.5273192564593714,2.2802278238483886,-1.0185144583331507,0.38615721464157104
1708437802.6614377,-1.104267954826355,-1.6822601757445277,-2.527289930974142,2.2802528577991943,-1.0185306707965296,0.38618215918540955
1708437802.6635315,-1.1042931079864502,-1.6822601757445277,-2.5272749106036585,2.28023807584729,-1.0185173193561,0.3861944079399109
1708437802.6655219,-1.1042226552963257,-1.6822759113707484,-2.5273106733905237,2.2802528577991943,-1.0185454527484339,0.38619881868362427
1708437802.6675067,-1.1043050289154053,-1.6822191677489222,-2.5273399988757532,2.280245466823242,-1.0185173193561,0.3861769139766693
1708437802.669529,-1.104300618171692,-1.6822148762144984,-2.5273149649249476,2.280266209239624,-1.0185053984271448,0.3861734867095947
1708437802.671508,-1.1042635440826416,-1.6822601757445277,-2.5273106733905237,2.280257387752197,-1.0185545126544397,0.3861856758594513
1708437802.6735218,-1.1042886972427368,-1.6822668514647425,-2.5272954146014612,2.2802321153828125,-1.0185263792621058,0.38616472482681274
1708437802.6754503,-1.104312539100647,-1.6822477779784144,-2.5272987524615687,2.2802693086811523,-1.0185707251178187,0.38619881868362427
1708437802.677485,-1.1042470932006836,-1.6822644672789515,-2.5273192564593714,2.2802738386341552,-1.0185425917254847,0.38617777824401855
1708437802.6794796,-1.1043095588684082,-1.6822558842101039,-2.5273564497577112,2.2802247244068603,-1.0185797850238245,0.386132150888443
1708437802.6814556,-1.1043169498443604,-1.6822644672789515,-2.5273311773883265,2.2802738386341552,-1.0185588041888636,0.38616904616355896
1708437802.683506,-1.10427987575531,-1.6822320423521937,-2.527294460927145,2.280257387752197,-1.0185263792621058,0.3861944377422333
1708437802.6854603,-1.1042842864990234,-1.6822601757445277,-2.5272911230670374,2.2802738386341552,-1.0185664335833948,0.38616466522216797
1708437802.6874876,-1.1042931079864502,-1.6822759113707484,-2.5273030439959925,2.2802738386341552,-1.0185754934894007,0.3861734867095947
1708437802.6894457,-1.1042886972427368,-1.6822191677489222,-2.5273311773883265,2.2802247244068603,-1.0185630957232874,0.38616040349006653
1708437802.6914625,-1.104300618171692,-1.6822716198363246,-2.5273354689227503,2.28023807584729,-1.0184877554522913,0.3861734867095947
1708437802.6934965,-1.1042842864990234,-1.6822735271849574,-2.5273030439959925,2.2802201944538574,-1.0185545126544397,0.3862074613571167
1708437802.6954684,-1.1042932271957397,-1.6822453937926234,-2.5272987524615687,2.2802366453358154,-1.0185797850238245,0.3861735165119171
1708437802.6975324,-1.1043214797973633,-1.6822520695128382,-2.5273073355304163,2.280245466823242,-1.0185754934894007,0.3862030804157257
1708437802.6994925,-1.1043288707733154,-1.6822148762144984,-2.527289930974142,2.280310793513916,-1.0185383001910608,0.3861527442932129
1708437802.7014425,-1.1042962074279785,-1.6822411022581996,-2.5273311773883265,2.280301972026489,-1.0185664335833948,0.38617783784866333
1708437802.703472,-1.1042962074279785,-1.6822849712767542,-2.527289930974142,2.280282660121582,-1.0185425917254847,0.38616591691970825
1708437802.7054367,-1.1042886972427368,-1.6822191677489222,-2.527322594319479,2.2802857595631103,-1.0185425917254847,0.3861365020275116
1708437802.7074645,-1.1043200492858887,-1.6822897396483363,-2.5272987524615687,2.2803725439259033,-1.0185754934894007,0.38617026805877686
1708437802.7094975,-1.1043037176132202,-1.6822363338866175,-2.5272987524615687,2.2803050714680175,-1.0185664335833948,0.3861747086048126
1708437802.7114604,-1.1043363809585571,-1.6822239361205042,-2.5273192564593714,2.2803429800220947,-1.0185383001910608,0.3861365020275116
1708437802.713462,-1.1043483018875122,-1.6822387180724085,-2.5272987524615687,2.2803665834614257,-1.0185664335833948,0.38610926270484924
1708437802.7154508,-1.1043081283569336,-1.6822558842101039,-2.527294460927145,2.2803665834614257,-1.0185664335833948,0.3861865699291229
1708437802.7174401,-1.1043572425842285,-1.6822520695128382,-2.5273762384997767,2.280393524760864,-1.01857835451235,0.3861299157142639
1708437802.7194345,-1.1042991876602173,-1.6822148762144984,-2.5273268858539026,2.2803889948078613,-1.0185530821429651,0.38611677289009094
1708437802.721443,-1.1043609380722046,-1.6822272739806117,-2.5273030439959925,2.2803725439259033,-1.0185917059527796,0.3861377239227295
1708437802.7234793,-1.1043275594711304,-1.682228227654928,-2.5273149649249476,2.280419273967407,-1.018557373677389,0.386109322309494
1708437802.7254403,-1.1043200492858887,-1.6822434864439906,-2.5273433367358606,2.2803591924854736,-1.018590275441305,0.38611799478530884
1708437802.7274613,-1.1043156385421753,-1.6822320423521937,-2.5273192564593714,2.2803384500690917,-1.0185993353473108,0.3861255645751953
1708437802.729464,-1.1043609380722046,-1.6822735271849574,-2.5273030439959925,2.2803711134144287,-1.0185993353473108,0.38606885075569153
1708437802.7314785,-1.1043697595596313,-1.6821981869139613,-2.5273311773883265,2.2804459768482666,-1.018606964741842,0.38607674837112427
1708437802.7334917,-1.1043518781661987,-1.6822644672789515,-2.5272868315326136,2.280411882991455,-1.0185530821429651,0.38605257868766785
1708437802.735452,-1.104365348815918,-1.6822568378844203,-2.5273149649249476,2.2804087835499267,-1.0185530821429651,0.3860613703727722
1708437802.7374816,-1.1043920516967773,-1.6822120151915492,-2.5273476282702845,2.2804416853138427,-1.018616024647848,0.386045902967453
1708437802.7394528,-1.1044129133224487,-1.6822387180724085,-2.527322594319479,2.28043715536084,-1.0185530821429651,0.3860745131969452
1708437802.7415004,-1.1044336557388306,-1.682228227654928,-2.52733022371401,2.2804416853138427,-1.0185917059527796,0.3860136866569519
1708437802.7434888,-1.1044039726257324,-1.682261129418844,-2.527301851903097,2.280449076289795,-1.018557373677389,0.3860180377960205
1708437802.7454872,-1.1044114828109741,-1.6821986637511195,-2.5273433367358606,2.280449076289795,-1.018569294606344,0.3860149085521698
1708437802.7474868,-1.1043858528137207,-1.6822239361205042,-2.5273311773883265,2.2804757791706542,-1.0185368696795862,0.3859688937664032
1708437802.7494745,-1.1044021844863892,-1.6822568378844203,-2.527285639439718,2.280468388194702,-1.0186117331134241,0.3860343098640442
1708437802.7514563,-1.1044114828109741,-1.6822411022581996,-2.5273063818561,2.2805329996296386,-1.0185983816729944,0.3860386908054352
1708437802.753469,-1.1044021844863892,-1.6822520695128382,-2.5273476282702845,2.280491514796875,-1.018616024647848,0.385964572429657
1708437802.7554657,-1.1044349670410156,-1.6822239361205042,-2.5273476282702845,2.2805165487476806,-1.0186308065997522,0.3859701454639435
1708437802.7575054,-1.1044927835464478,-1.6822229824461878,-2.527322594319479,2.2805256086536865,-1.0186517874347132,0.385990709066391
1708437802.7594836,-1.104455590248108,-1.6822735271849574,-2.5273564497577112,2.2805537420460205,-1.0186145941363733,0.3859495520591736
1708437802.76147,-1.104483962059021,-1.6822511158385218,-2.527322594319479,2.280564232463501,-1.0185983816729944,0.38593730330467224
1708437802.7635043,-1.1045092344284058,-1.68223299602651,-2.5273476282702845,2.28062288343396,-1.0186188856707972,0.3859788477420807
1708437802.7655256,-1.1045299768447876,-1.682228227654928,-2.5272987524615687,2.2806095319935302,-1.0186055342303675,0.3859253227710724
1708437802.7675009,-1.1045031547546387,-1.6822453937926234,-2.5273476282702845,2.280606670970581,-1.0186026732074183,0.38592979311943054
1708437802.7694483,-1.104582667350769,-1.6821958027281703,-2.527294460927145,2.280593081111572,-1.0186384359942835,0.38595467805862427
1708437802.7714696,-1.1045528650283813,-1.6822453937926234,-2.5273149649249476,2.280658407802246,-1.0186222235309046,0.38591787219047546
1708437802.773483,-1.104548454284668,-1.68223299602651,-2.5273149649249476,2.2806495863148193,-1.0186188856707972,0.38594603538513184
1708437802.7754688,-1.1045902967453003,-1.682228227654928,-2.5273268858539026,2.2806169229694824,-1.0186145941363733,0.3859265148639679
1708437802.7774816,-1.1046066284179688,-1.6822477779784144,-2.527339045201437,2.2806081014820556,-1.0186474959002894,0.38587746024131775
1708437802.7794547,-1.104597568511963,-1.6822229824461878,-2.527301851903097,2.2806948858448486,-1.0186384359942835,0.385902464389801
1708437802.7814732,-1.1045559644699097,-1.6822239361205042,-2.527339045201437,2.280726118678711,-1.0186594168292444,0.3858731687068939
1708437802.7834792,-1.104591727256775,-1.6821958027281703,-2.5273433367358606,2.2806801038929443,-1.0185850302325647,0.38587427139282227
1708437802.7854626,-1.1046289205551147,-1.6822239361205042,-2.527322594319479,2.280700846309326,-1.0186741987811487,0.38587868213653564
1708437802.7874827,-1.1046243906021118,-1.682200094262594,-2.527278010045187,2.280754252071045,-1.0186460653888147,0.3858296871185303
1708437802.7894769,-1.1046442985534668,-1.6821958027281703,-2.5273106733905237,2.2807530599781494,-1.0186503569232386,0.3858458697795868
1708437802.7914608,-1.1046199798583984,-1.6822411022581996,-2.5273881594287317,2.280752106303833,-1.0186665693866175,0.38582634925842285
1708437802.7934742,-1.1046279668807983,-1.6822077236571253,-2.5273521582232874,2.2807745176502685,-1.0186908880816858,0.3858177065849304
1708437802.795502,-1.1046890020370483,-1.682176252404684,-2.5273268858539026,2.2808591562458496,-1.0186250845538538,0.3857934772968292
1708437802.7974532,-1.1046398878097534,-1.682200094262594,-2.527334753667013,2.2807440000721435,-1.0186341444598597,0.38583073019981384
1708437802.7994823,-1.1046384572982788,-1.682167192498678,-2.527306143437521,2.280804081554077,-1.0186713377581995,0.3858022689819336
1708437802.8014557,-1.1047039031982422,-1.682178636590475,-2.527318064366476,2.28084580480542,-1.0186412970172327,0.3858097195625305
1708437802.8034515,-1.1046875715255737,-1.68217196087026,-2.5273476282702845,2.280841274852417,-1.0186131636248987,0.3857979476451874
1708437802.8054907,-1.1047253608703613,-1.68217196087026,-2.52733022371401,2.280853195781372,-1.0186713377581995,0.3857860267162323
1708437802.8074522,-1.1046992540359497,-1.68217196087026,-2.5273433367358606,2.2808117109486084,-1.0186503569232386,0.3857860267162323
1708437802.8094673,-1.1047357320785522,-1.682200094262594,-2.5273433367358606,2.28083245336499,-1.0186503569232386,0.3857748210430145
1708437802.8114579,-1.1047357320785522,-1.682089468041891,-2.527322594319479,2.2808567720600585,-1.0186293760882776,0.3857589066028595
1708437802.8134866,-1.1047683954238892,-1.6821309528746546,-2.527339045201437,2.2809149461933593,-1.0186546484576624,0.3857426643371582
1708437802.8154674,-1.1048041582107544,-1.6821071110167445,-2.527350966130392,2.2809013563343505,-1.0186546484576624,0.38572967052459717
1708437802.8174593,-1.1047624349594116,-1.6820923290648402,-2.527322594319479,2.280928774470947,-1.0186908880816858,0.3857426941394806
1708437802.8194726,-1.1048449277877808,-1.682042738000387,-2.527289930974142,2.2809178072163085,-1.0186412970172327,0.38571786880493164
1708437802.821474,-1.1048612594604492,-1.6820980511107386,-2.5273106733905237,2.2809547620960693,-1.0186832586871546,0.38570234179496765
1708437802.8234808,-1.104819655418396,-1.682018896142477,-2.5273268858539026,2.2809828954884033,-1.0186875502215784,0.3856850266456604
1708437802.8254447,-1.104831576347351,-1.6820365391173304,-2.527339045201437,2.2809857565113525,-1.0186622778521937,0.3857220709323883
1708437802.8274837,-1.1048479080200195,-1.6820742092528285,-2.527339045201437,2.2809604841419677,-1.0186832586871546,0.3857221305370331
1708437802.8294523,-1.1048626899719238,-1.6819621525206507,-2.5273063818561,2.280956192607544,-1.0186579863177698,0.3857556879520416
1708437802.8315027,-1.1048673391342163,-1.6820084057249964,-2.527322594319479,2.281005306834839,-1.0186784903155726,0.3856860399246216
1708437802.833479,-1.1048916578292847,-1.6819845638670863,-2.5273552576648157,2.2809738355823974,-1.018648926411764,0.3857109844684601
1708437802.835498,-1.1049199104309082,-1.681955953637594,-2.5273149649249476,2.280984325999878,-1.01862079301943,0.38567739725112915
1708437802.8374875,-1.1048418283462524,-1.681936880151266,-2.527339045201437,2.2809769350239257,-1.0186131636248987,0.38570982217788696
1708437802.8394585,-1.1049526929855347,-1.6819349728026332,-2.527297560368673,2.2810215192982177,-1.0186308065997522,0.38572290539741516
1708437802.8414724,-1.104906439781189,-1.6819526157774867,-2.527318064366476,2.281062527293823,-1.0186503569232386,0.3857351839542389
1708437802.8434744,-1.1049110889434814,-1.6818915806212367,-2.5273552576648157,2.281029148692749,-1.0186174551593226,0.38573601841926575
1708437802.8455021,-1.1049199104309082,-1.6818705997862757,-2.527294460927145,2.2810370165058593,-1.0186055342303675,0.3857221305370331
1708437802.8474991,-1.1049652099609375,-1.6818677387633265,-2.5273063818561,2.2810370165058593,-1.0186265150653284,0.38570666313171387
1708437802.849471,-1.1049607992172241,-1.6818977795042933,-2.527339045201437,2.281024618739746,-1.0186341444598597,0.3856784999370575
1708437802.8514402,-1.1049561500549316,-1.6818725071349085,-2.5273476282702845,2.2810444074818115,-1.0186460653888147,0.3857153058052063
1708437802.853474,-1.1049724817276,-1.6818553409972132,-2.5273683706866663,2.2810966211506347,-1.0186460653888147,0.38572728633880615
1708437802.855455,-1.1049970388412476,-1.6818815670409144,-2.527334753667013,2.2811552721210937,-1.0186741987811487,0.38572290539741516
1708437802.8574603,-1.1049970388412476,-1.6818553409972132,-2.5273595491992396,2.281026764506958,-1.0186784903155726,0.38567420840263367
1708437802.8594706,-1.1050251722335815,-1.681798597375387,-2.5273063818561,2.281104012126587,-1.0186460653888147,0.3856947124004364
1708437802.861444,-1.1050162315368652,-1.681803365746969,-2.527323547993795,2.2811292844959716,-1.0186412970172327,0.38572290539741516
1708437802.8634903,-1.10504150390625,-1.681836267510885,-2.527334753667013,2.281115933055542,-1.0186427275287073,0.38569796085357666
1708437802.865515,-1.1050609350204468,-1.6818248234190882,-2.5273268858539026,2.281083031291626,-1.0186308065997522,0.3857141435146332
1708437802.8674953,-1.1051181554794312,-1.6818496189513148,-2.5273106733905237,2.281179113979004,-1.018608872090475,0.38568612933158875
1708437802.8694675,-1.105047583580017,-1.6818777523436488,-2.527334753667013,2.281170292491577,-1.0186222235309046,0.3856619596481323
1708437802.871491,-1.1051373481750488,-1.681791444818014,-2.5273552576648157,2.281094952220581,-1.0186222235309046,0.38569045066833496
1708437802.8735108,-1.105112075805664,-1.6818753681578578,-2.5273268858539026,2.2811805444904785,-1.0186517874347132,0.38572725653648376
1708437802.8754735,-1.1051150560379028,-1.6818248234190882,-2.527346674595968,2.2811447817036132,-1.0186594168292444,0.3857034146785736
1708437802.8775184,-1.1051359176635742,-1.6818119488158167,-2.5273192564593714,2.2811521726795654,-1.0186713377581995,0.3856903910636902
1708437802.8794491,-1.105155110359192,-1.681829114953512,-2.5273030439959925,2.2812303739735107,-1.018656078969137,0.38569796085357666
1708437802.8814628,-1.1051597595214844,-1.6818257770934046,-2.527294460927145,2.2811924654194335,-1.0186756292926233,0.3857153058052063
1708437802.8834922,-1.105155110359192,-1.6818496189513148,-2.5272987524615687,2.2812132078358154,-1.0186103026019495,0.38567420840263367
1708437802.8854878,-1.1051884889602661,-1.681807657281393,-2.5273311773883265,2.2811953264423828,-1.0186222235309046,0.38570666313171387
1708437802.8874948,-1.1051884889602661,-1.6817838154234828,-2.527294460927145,2.2812043863483886,-1.0186546484576624,0.38568171858787537
1708437802.889511,-1.1052258014678955,-1.6817385158934535,-2.5272942225085657,2.281237764949463,-1.0186174551593226,0.38567420840263367
1708437802.89147,-1.105231761932373,-1.6817599735655726,-2.5272703806506556,2.281268997783325,-1.0185893217669886,0.3857315480709076
1708437802.8934886,-1.1051663160324097,-1.6817385158934535,-2.5272629896747034,2.2812957006641845,-1.0186355749713343,0.3857024013996124
1708437802.8954718,-1.1052526235580444,-1.6817647419371546,-2.5272584597217005,2.2812198835560302,-1.0185650030719202,0.3856903910636902
1708437802.8974953,-1.105219841003418,-1.6817647419371546,-2.5272541681872767,2.281207962627075,-1.0185945669757288,0.3856784701347351
1708437802.899502,-1.1052651405334473,-1.6817227802672328,-2.527259174977438,2.281264467830322,-1.018574062977926,0.385699063539505
1708437802.9014902,-1.1052888631820679,-1.681760927239889,-2.5272179285632532,2.2812272745319824,-1.0185707251178187,0.38570237159729004
1708437802.9034765,-1.1052770614624023,-1.6817027531065882,-2.5272191206561487,2.2812437254139404,-1.0185216108905237,0.38568171858787537
1708437802.9054523,-1.1052709817886353,-1.6817075214781703,-2.5271788279162806,2.281252546901367,-1.0185454527484339,0.3856741786003113
1708437802.9074807,-1.1052799224853516,-1.681699892083639,-2.5272157827960413,2.2812227445789794,-1.0185454527484339,0.38568609952926636
1708437802.9094605,-1.105312705039978,-1.681692739526266,-2.5272157827960413,2.281309052104614,-1.0185707251178187,0.3857221007347107
1708437802.9114575,-1.105290412902832,-1.681732793847555,-2.52717096010317,2.2813126283833007,-1.0185874144183558,0.38569796085357666
1708437802.913462,-1.105308175086975,-1.6817089519896449,-2.52717096010317,2.2813500601002197,-1.0185187498675745,0.38570234179496765
1708437802.915439,-1.1053200960159302,-1.6817132435240687,-2.5272041002856653,2.2813336092182617,-1.0185516516314905,0.38571417331695557
1708437802.9174771,-1.1053699254989624,-1.6817089519896449,-2.5271504561053675,2.2813991743275146,-1.0185068289386194,0.38571420311927795
1708437802.9194498,-1.105330467224121,-1.681692739526266,-2.5271428267108362,2.281339569682739,-1.0184648672686976,0.38570132851600647
1708437802.921454,-1.1053980588912964,-1.6816894016661585,-2.527167860661642,2.281336470241211,-1.0184615294085901,0.38570988178253174
1708437802.923463,-1.105410099029541,-1.681704660455221,-2.527114454899923,2.281360312099121,-1.018430534993307,0.38572290539741516
1708437802.9254515,-1.1054292917251587,-1.6817552051939906,-2.527151409779684,2.281360312099121,-1.018449608479635,0.38576000928878784
1708437802.9274726,-1.105359435081482,-1.6816851101317347,-2.527135197316305,2.281339569682739,-1.018430534993307,0.3857513964176178
1708437802.9294589,-1.105383276939392,-1.6817299328246058,-2.527114454899923,2.281384153957031,-1.018397633229391,0.3857373595237732
1708437802.9314609,-1.1054085493087769,-1.6816684208311976,-2.52717096010317,2.2813467222401123,-1.0184019247638147,0.3857914209365845
1708437802.9334848,-1.105415940284729,-1.6816569767394007,-2.52710992494692,2.281376762981079,-1.0183494726764124,0.3857704997062683
1708437802.9354725,-1.1054188013076782,-1.681610723535055,-2.5271645228015345,2.2813424307056884,-1.018329922352926,0.3857990503311157
1708437802.9375286,-1.1054574251174927,-1.6816894016661585,-2.52710992494692,2.281384153957031,-1.018371884022848,0.3857903480529785
1708437802.9394696,-1.105435848236084,-1.6816894016661585,-2.5271437803851526,2.2813750940510253,-1.0183642546283167,0.38583502173423767
1708437802.9414902,-1.1054902076721191,-1.6816894016661585,-2.52710992494692,2.2813514906116943,-1.018261734639303,0.3858426511287689
1708437802.9435115,-1.1054528951644897,-1.6816727123656214,-2.527151409779684,2.2813965517231445,-1.0182998816119593,0.38581418991088867
1708437802.9454846,-1.1055092811584473,-1.6816450558104457,-2.527139488850729,2.2814339834400634,-1.0182254950152796,0.3858470320701599
1708437802.9475098,-1.1054750680923462,-1.6817075214781703,-2.5271318594561976,2.281388683910034,-1.0182269255267542,0.38582634925842285
1708437802.9494698,-1.1054631471633911,-1.6816207371153773,-2.527090374623434,2.2814130026051025,-1.0181954542743128,0.3858664333820343
1708437802.9514546,-1.1054959297180176,-1.6816536388792933,-2.527107540761129,2.2813920217701416,-1.018191162739889,0.3858577013015747
1708437802.953477,-1.1055034399032593,-1.6816359959044398,-2.5271032492267054,2.2814203935810546,-1.0181501547442835,0.3858458697795868
1708437802.955449,-1.1055107116699219,-1.6816002331175746,-2.5271077791797083,2.2814411359974365,-1.0181177298175257,0.38589373230934143
1708437802.9574897,-1.1055277585983276,-1.6816283665099085,-2.5270589033709925,2.2814695078083496,-1.0181382338153284,0.38590243458747864
1708437802.959453,-1.1055151224136353,-1.6816493473448695,-2.5270631949054163,2.2814993101307373,-1.0181382338153284,0.3859189748764038
1708437802.9614449,-1.105532169342041,-1.6816703281798304,-2.5270400683032435,2.2814487653919677,-1.0181353727923792,0.38591468334198
1708437802.9634702,-1.1055723428726196,-1.6816045246519984,-2.526978079472677,2.281427784557007,-1.0180991331683558,0.38591787219047546
1708437802.9655151,-1.1055485010147095,-1.681650777856344,-2.5270400683032435,2.281444235438965,-1.018083397542135,0.3859102725982666
1708437802.9674797,-1.1055470705032349,-1.681596418420309,-2.5269954840289515,2.281411572093628,-1.0180543104754847,0.38600048422813416
1708437802.96945,-1.105544090270996,-1.6816054783263148,-2.526937786732809,2.2815133768269042,-1.0180514494525355,0.3859788775444031
1708437802.9714644,-1.1055516004562378,-1.681568285027975,-2.5269749800311487,2.2814768987843017,-1.0180066267596644,0.3859626352787018
1708437802.97352,-1.1055798530578613,-1.6816073856749476,-2.5269835630999964,2.281454487437866,-1.0180156866656702,0.3859701156616211
1708437802.9754403,-1.1055842638015747,-1.6816073856749476,-2.5269299189196985,2.281459017390869,-1.017982308064596,0.3860017657279968
1708437802.9774575,-1.1056170463562012,-1.681526323358053,-2.5269582907306116,2.281484528178833,-1.017982308064596,0.3859863877296448
1708437802.9794586,-1.1055798530578613,-1.6815039120116175,-2.5269671122180384,2.281451626414917,-1.0179913679706019,0.386019229888916
1708437802.9814403,-1.1055618524551392,-1.6815997562804164,-2.5269387404071253,2.28147999822583,-1.0179675261126917,0.3860267996788025
1708437802.9834476,-1.1055798530578613,-1.6815906963744105,-2.526947323475973,2.281517906779907,-1.0179632345782679,0.3860017657279968
1708437802.9854598,-1.1056534051895142,-1.6814948521056117,-2.526881996785299,2.2814933496662597,-1.0179274717914026,0.38600945472717285
1708437802.9874854,-1.1056190729141235,-1.6815625629820765,-2.526919190083639,2.2815088468739013,-1.0179289023028772,0.3860299587249756
1708437802.9894443,-1.105634093284607,-1.6815277538695277,-2.526878897343771,2.281562491054199,-1.0178983847247522,0.3860582411289215
1708437802.9914482,-1.105607271194458,-1.6815444431700648,-2.526881996785299,2.281534357661865,-1.0178960005389612,0.3860657513141632
1708437802.9934824,-1.1056488752365112,-1.6815625629820765,-2.526878897343771,2.281501455897949,-1.0178793112384241,0.38605380058288574
1708437802.9954708,-1.1056534051895142,-1.6815115414061488,-2.5268622080432337,2.2815207678028564,-1.0178716818438929,0.3860700726509094
1708437802.9974742,-1.1056116819381714,-1.6815129719176234,-2.5268591086017054,2.2814997869678955,-1.0178149382220667,0.38611799478530884
1708437802.9994793,-1.1056236028671265,-1.6815206013121546,-2.5268059412585657,2.2815162378498535,-1.017794434224264,0.38610929250717163
1708437803.0014513,-1.1056562662124634,-1.6815296612181605,-2.5268753210650843,2.2814835745045166,-1.0178449789630335,0.3861333727836609
1708437803.003475,-1.1056443452835083,-1.6815253696837367,-2.5268340746508997,2.281562491054199,-1.0177958647357386,0.3861377537250519
1708437803.0054457,-1.1056889295578003,-1.6815444431700648,-2.5268147627459925,2.2815281587788085,-1.017775837575094,0.3861124515533447
1708437803.0074978,-1.1056846380233765,-1.6815253696837367,-2.5268145243274134,2.2814790445515136,-1.017763916646139,0.38616591691970825
1708437803.0094748,-1.105696439743042,-1.6814962826170863,-2.5268383661853235,2.2815326887318115,-1.0178211371051233,0.38616156578063965
1708437803.0114539,-1.1057039499282837,-1.6815444431700648,-2.526867691670553,2.2815133768269042,-1.017742935811178,0.3861769735813141
1708437803.013481,-1.1056832075119019,-1.6815253696837367,-2.5268266836749476,2.2815133768269042,-1.017731014882223,0.3861856758594513
1708437803.0154517,-1.105696439743042,-1.6815535030760707,-2.5268309752093714,2.2815043169208984,-1.0177400747882288,0.38623443245887756
1708437803.0174594,-1.1057209968566895,-1.6815206013121546,-2.526835266743795,2.2815207678028564,-1.0177729765521448,0.3862411379814148
1708437803.0194457,-1.105662226676941,-1.6815172634520472,-2.5268145243274134,2.2815162378498535,-1.0177119413958948,0.3861757814884186
1708437803.0214906,-1.1057254076004028,-1.6815368137755335,-2.5268190542804163,2.2814878660389404,-1.0176785627948206,0.3862454891204834
1708437803.0234587,-1.105716586112976,-1.681507249871725,-2.526811424885885,2.28147999822583,-1.0177086035357874,0.3862335681915283
1708437803.0254533,-1.1056458950042725,-1.6815906963744105,-2.52682334581484,2.2815250593372802,-1.0176356474505823,0.38621264696121216
1708437803.027457,-1.1056458950042725,-1.6815277538695277,-2.52677828470339,2.2815369802662353,-1.0176399389850062,0.38627833127975464
1708437803.029451,-1.1057039499282837,-1.6815411053099574,-2.52682334581484,2.2815043169208984,-1.017616097127096,0.38626956939697266
1708437803.031484,-1.1057119369506836,-1.6815864048399867,-2.5268364588366907,2.2815074163624267,-1.0176766554461878,0.3863390386104584
1708437803.0334485,-1.1056458950042725,-1.6816116772093714,-2.526815954838888,2.2815117078968505,-1.0176604429828089,0.3863465189933777
1708437803.035463,-1.1056549549102783,-1.6815277538695277,-2.526782814656393,2.2814835745045166,-1.0176532904254358,0.3862977623939514
1708437803.0374815,-1.1056801080703735,-1.6815129719176234,-2.52675444284548,2.281502886409424,-1.0175874868976038,0.38634544610977173
1708437803.0394464,-1.1057238578796387,-1.6815368137755335,-2.526738230382101,2.2815043169208984,-1.0176246801959437,0.3863410949707031
1708437803.0414743,-1.1056668758392334,-1.681554456750387,-2.5268076101886194,2.2815207678028564,-1.0175965468036097,0.38634544610977173
1708437803.043447,-1.1056876182556152,-1.6814919910826625,-2.526782814656393,2.2815088468739013,-1.0176542440997522,0.38630422949790955
1708437803.0454776,-1.1056832075119019,-1.6815368137755335,-2.526816431676046,2.2814909654804687,-1.0176056067096155,0.38637709617614746
1708437803.0474465,-1.105708360671997,-1.6815206013121546,-2.526770893727438,2.2814745145985107,-1.0175636450396937,0.38637393712997437
1708437803.0494525,-1.1056832075119019,-1.6816207371153773,-2.526733938847677,2.281459017390869,-1.017552677785055,0.38638466596603394
1708437803.0514448,-1.1056712865829468,-1.6816040478148402,-2.5268121401416224,2.2814835745045166,-1.017524544392721,0.38641753792762756
1708437803.0534475,-1.1057238578796387,-1.6815501652159632,-2.526733938847677,2.2815043169208984,-1.0175231138812464,0.38638466596603394
1708437803.055447,-1.1056549549102783,-1.6815716228880824,-2.5267675558673304,2.281470938319824,-1.017552677785055,0.38645321130752563
1708437803.057452,-1.105663776397705,-1.6815172634520472,-2.5267348925219935,2.281451626414917,-1.017508331929342,0.38644126057624817
1708437803.0594494,-1.1056876182556152,-1.6815039120116175,-2.5267260710345667,2.281442566508911,-1.0174959341632288,0.3864456117153168
1708437803.0614498,-1.105650544166565,-1.6815411053099574,-2.5267959276782435,2.2814969259449462,-1.017512623463766,0.38644126057624817
1708437803.0634627,-1.1056712865829468,-1.6815368137755335,-2.5267556349383753,2.2815207678028564,-1.017524544392721,0.3864119052886963
1708437803.0654988,-1.1056876182556152,-1.6815453968443812,-2.526743475590841,2.2814997869678955,-1.0175216833697718,0.38642817735671997
1708437803.0675,-1.1057039499282837,-1.6815997562804164,-2.5267019907580774,2.2814878660389404,-1.0175002256976526,0.386465460062027
1708437803.069488,-1.105663776397705,-1.681589265862936,-2.5267675558673304,2.2814923959919433,-1.0174887816058558,0.3864935636520386
1708437803.0714743,-1.1057254076004028,-1.6815444431700648,-2.5267306009875696,2.2814969259449462,-1.0175092856036585,0.38652315735816956
1708437803.0735085,-1.1056785583496094,-1.6816073856749476,-2.5266945997821253,2.281393452281616,-1.0174720923053187,0.38652631640434265
1708437803.0754917,-1.105716586112976,-1.6816026173033656,-2.526710812245504,2.2814768987843017,-1.0175021330462855,0.3865295648574829
1708437803.0774987,-1.105728268623352,-1.6816116772093714,-2.526710812245504,2.281488819713257,-1.0174806753741663,0.3865458369255066
1708437803.0794587,-1.105737328529358,-1.6815039120116175,-2.526719395314352,2.281517906779907,-1.0174687544452112,0.3865002989768982
1708437803.0814884,-1.1057039499282837,-1.6815444431700648,-2.526740376149313,2.281468077296875,-1.0174763838397425,0.3865089416503906
1708437803.0834737,-1.105634093284607,-1.6815864048399867,-2.526719395314352,2.281439705485962,-1.0174720923053187,0.38649702072143555
1708437803.0854664,-1.1056593656539917,-1.6815082035460414,-2.5267513434039515,2.281510277385376,-1.0174601713763636,0.38649579882621765
1708437803.0874794,-1.1056832075119019,-1.6815229854979457,-2.526776377354757,2.281444235438965,-1.0174525419818323,0.38656237721443176
1708437803.089465,-1.1056548357009888,-1.681507249871725,-2.5267520586596888,2.281451626414917,-1.0174081961261194,0.38654494285583496
1708437803.0914617,-1.105708360671997,-1.681535383264059,-2.526719395314352,2.281501455897949,-1.0173915068255823,0.3865449130535126
1708437803.093463,-1.105684518814087,-1.681573053399557,-2.526740376149313,2.28141896306958,-1.0173915068255823,0.3864717185497284
1708437803.095454,-1.1056667566299438,-1.6815453968443812,-2.526740376149313,2.281435413951538,-1.017432991658346,0.3865848183631897
1708437803.097495,-1.1056668758392334,-1.6816541157164515,-2.5267229715930384,2.281427784557007,-1.017388645802633,0.38654062151908875
1708437803.0994995,-1.1056727170944214,-1.6815773449339808,-2.526727263127462,2.281402512187622,-1.017437760029928,0.38657715916633606
1708437803.10151,-1.1056177616119385,-1.6815277538695277,-2.526740376149313,2.281398220653198,-1.017388645802633,0.38654825091362
1708437803.10348,-1.1056190729141235,-1.6815139255919398,-2.526686731969015,2.281423493022583,-1.0174420515643519,0.38662514090538025
1708437803.105447,-1.1056681871414185,-1.6815220318236292,-2.526675049458639,2.281411572093628,-1.0174005667315882,0.38659265637397766
1708437803.1074624,-1.1056549549102783,-1.681540151635641,-2.526691261922018,2.2814487653919677,-1.017388645802633,0.38662955164909363
1708437803.1094854,-1.1056190729141235,-1.6815864048399867,-2.526682440434591,2.2813514906116943,-1.017421070729391,0.3866327106952667
1708437803.1114836,-1.1056443452835083,-1.6815444431700648,-2.5266836325274866,2.2813350397297363,-1.0174005667315882,0.38657522201538086
1708437803.1135108,-1.1056443452835083,-1.6815864048399867,-2.526658598576681,2.281336470241211,-1.017404858266012,0.38663190603256226
1708437803.11544,-1.10565185546875,-1.681573053399557,-2.5266955534564417,2.281324549312256,-1.0173810164081019,0.3866809606552124
1708437803.1174629,-1.1056370735168457,-1.6815773449339808,-2.526679340993063,2.281348391170166,-1.017392937337057,0.38666439056396484
1708437803.1194608,-1.1056116819381714,-1.6816183529295863,-2.526691261922018,2.281282349223755,-1.0173972288714808,0.38663190603256226
1708437803.1214347,-1.1056126356124878,-1.6816102466978968,-2.5266836325274866,2.2813781934925537,-1.0173810164081019,0.38660773634910583
1708437803.1234696,-1.1056207418441772,-1.6815935573973597,-2.5267120043383997,2.2813424307056884,-1.0173686186419886,0.38666871190071106
1708437803.125462,-1.1055471897125244,-1.681589265862936,-2.526679340993063,2.2812511163898925,-1.0173524061786097,0.38665562868118286
1708437803.1274815,-1.1056126356124878,-1.6816193066039027,-2.526654068623678,2.281351252193115,-1.0173552672015589,0.38665997982025146
1708437803.129458,-1.1055842638015747,-1.6816135845580042,-2.526723925267355,2.2812556463428955,-1.0173476378070276,0.3866927921772003
1708437803.1315093,-1.1056005954742432,-1.681596418420309,-2.526682440434591,2.281277819270752,-1.0174019972430628,0.3866927921772003
1708437803.133479,-1.1055560111999512,-1.68162264446401,-2.5267041365252894,2.28125707685437,-1.0173643271075647,0.3867134749889374
1708437803.135468,-1.1055107116699219,-1.6816054783263148,-2.5267162958728235,2.281236096019409,-1.0173900763141077,0.3866884708404541
1708437803.1374671,-1.1055395603179932,-1.681592126885885,-2.526666227971212,2.281289740199707,-1.0173729101764124,0.3866722285747528
1708437803.139467,-1.1055151224136353,-1.6816002331175746,-2.526691261922018,2.2811788755604248,-1.0173943678485315,0.38665997982025146
1708437803.1414695,-1.1054871082305908,-1.6816207371153773,-2.5266836325274866,2.2811879354664306,-1.0173853079425257,0.38666436076164246
1708437803.1434846,-1.1055241823196411,-1.6816135845580042,-2.5266955534564417,2.2811998563953857,-1.0174272696124476,0.3866809606552124
1708437803.1454976,-1.105500340461731,-1.6816250286498011,-2.526679340993063,2.2811879354664306,-1.0173686186419886,0.3866972029209137
1708437803.1475012,-1.1054840087890625,-1.6816746197142542,-2.526686970387594,2.2812012869068603,-1.0173476378070276,0.3866679072380066
1708437803.1494875,-1.1054260730743408,-1.6816541157164515,-2.526649777089254,2.281106873149536,-1.0173643271075647,0.3866841495037079
1708437803.151449,-1.105435848236084,-1.6816727123656214,-2.526658598576681,2.281083031291626,-1.0173476378070276,0.3866841495037079
1708437803.1534448,-1.105435848236084,-1.6817208729186,-2.5267043749438685,2.2810801702686767,-1.0173643271075647,0.3866972029209137
1708437803.1554296,-1.1054619550704956,-1.6817838154234828,-2.526670519505636,2.281104012126587,-1.0173223654376429,0.3866841495037079
1708437803.1574917,-1.1054085493087769,-1.681732793847555,-2.5267041365252894,2.281092091197632,-1.0173314253436487,0.3866884708404541
1708437803.159456,-1.1053876876831055,-1.6817208729186,-2.526675049458639,2.281063957805298,-1.0173476378070276,0.38669610023498535
1708437803.1614623,-1.1053757667541504,-1.6817075214781703,-2.526658598576681,2.2809902864643554,-1.0174062887774866,0.38671666383743286
1708437803.1634789,-1.1053348779678345,-1.6817370853819789,-2.526646677647726,2.281020088786743,-1.0173686186419886,0.38670361042022705
1708437803.165501,-1.1052993535995483,-1.6817523441710414,-2.526707474385397,2.280956192607544,-1.0173476378070276,0.3867439925670624
1708437803.1675253,-1.1053037643432617,-1.6817690334715785,-2.526654068623678,2.2810184198566894,-1.0173729101764124,0.3867494761943817
1708437803.169441,-1.1052755117416382,-1.6817757091917933,-2.526658598576681,2.2809032636829834,-1.0173476378070276,0.3867363929748535
1708437803.171441,-1.1052724123001099,-1.6818047962584437,-2.5267120043383997,2.280862732524536,-1.0174139181720179,0.3867079019546509
1708437803.1734712,-1.1051945686340332,-1.6818248234190882,-2.526646439229147,2.280871792430542,-1.0173595587359827,0.3867363929748535
1708437803.1754713,-1.105231761932373,-1.6818586788573207,-2.526723925267355,2.2808398443409423,-1.0173853079425257,0.3867201507091522
1708437803.177473,-1.105155110359192,-1.6819068394102992,-2.5267282168017786,2.2807952600666503,-1.017376724873678,0.386756956577301
1708437803.1794462,-1.105117917060852,-1.6818815670409144,-2.52673584619631,2.28077141820874,-1.0174091498004358,0.3867114782333374
1708437803.1814816,-1.105082392692566,-1.6819168529906214,-2.526723925267355,2.2807320791431884,-1.0174301306353968,0.38677680492401123
1708437803.1834588,-1.1050548553466797,-1.6819573841490687,-2.526710812245504,2.2807187277027587,-1.0173595587359827,0.38676023483276367
1708437803.1854682,-1.105047583580017,-1.6819459400572718,-2.52673584619631,2.2807201582142334,-1.0174091498004358,0.38677680492401123
1708437803.1874797,-1.1049500703811646,-1.6819774113097132,-2.5266781489001673,2.280634804362915,-1.0174139181720179,0.38676026463508606
1708437803.1894603,-1.1049302816390991,-1.681997915307516,-2.526670519505636,2.28062288343396,-1.0174062887774866,0.38677680492401123
1708437803.1914551,-1.1049227714538574,-1.6819802723326625,-2.5267229715930384,2.280658407802246,-1.0173853079425257,0.3867756724357605
1708437803.1934786,-1.1048389673233032,-1.6819950542845667,-2.526752297078268,2.2805463510700683,-1.0173972288714808,0.3868005573749542
1708437803.19545,-1.1048403978347778,-1.6820279560484828,-2.5267894903766077,2.280559702510498,-1.017404858266012,0.3868093192577362
1708437803.1975415,-1.1048041582107544,-1.6820484600462855,-2.5267229715930384,2.2805418211170654,-1.017437760029928,0.38676807284355164
1708437803.1994648,-1.10468590259552,-1.6821042499937953,-2.526727263127462,2.2804550367542724,-1.0174077192889612,0.38683339953422546
1708437803.2014625,-1.1046473979949951,-1.6821028194823207,-2.526727263127462,2.280456467265747,-1.0174287001239222,0.3867712616920471
1708437803.2034793,-1.104587197303772,-1.6821896038451136,-2.5266976992236536,2.2804178434559326,-1.0174568335162562,0.3868037462234497
1708437803.2054687,-1.1045150756835938,-1.682143350640768,-2.5267556349383753,2.280377073878906,-1.0174363295184534,0.3868037462234497
1708437803.207493,-1.1044436693191528,-1.6822782955565394,-2.526743475590841,2.280270739192627,-1.0174687544452112,0.38685691356658936
1708437803.2094665,-1.104444146156311,-1.6822849712767542,-2.5267794767962855,2.2802397447773437,-1.0175002256976526,0.38677889108657837
1708437803.211465,-1.1043111085891724,-1.6822601757445277,-2.5267425219165247,2.280158682460449,-1.0174930731402796,0.3868280053138733
1708437803.2134929,-1.1042470932006836,-1.682366510430807,-2.5267837683307093,2.2802018362232666,-1.0175169149981897,0.38683223724365234
1708437803.215466,-1.104146122932434,-1.6823483906187953,-2.5267913977252405,2.280075712794922,-1.0175169149981897,0.3868560791015625
1708437803.217489,-1.1040629148483276,-1.6824099026122035,-2.5267751852618616,2.2800065714069824,-1.01756459871401,0.38683950901031494
1708437803.2194521,-1.1039255857467651,-1.682427545587057,-2.5268364588366907,2.2799314695545654,-1.0175440947162073,0.38688424229621887
1708437803.221455,-1.1038553714752197,-1.6824871502318324,-2.5268145243274134,2.27985589086499,-1.0175841490374964,0.38687992095947266
1708437803.2234962,-1.103743076324463,-1.6825934849181117,-2.5268102327929896,2.279705687160156,-1.0175841490374964,0.38686367869377136
1708437803.2254446,-1.1036019325256348,-1.682608266870016,-2.5268664995776575,2.2797130781361084,-1.0176056067096155,0.38688424229621887
1708437803.227445,-1.1035239696502686,-1.6826774082579554,-2.5269115606891077,2.2796084123798828,-1.0176366011248987,0.3869202435016632
1708437803.229458,-1.1033575534820557,-1.6826960049071253,-2.5269158522235315,2.279479904765747,-1.017604176198141,0.38685059547424316
1708437803.231562,-1.1032017469406128,-1.6827761135497035,-2.526919190083639,2.2793914514729003,-1.017689053212301,0.3869290351867676
1708437803.2334824,-1.1030867099761963,-1.6828328571715296,-2.5269387404071253,2.2793022829243164,-1.0177095572101038,0.3868996798992157
1708437803.235462,-1.1029298305511475,-1.6829410992064417,-2.526959482823507,2.279174967403076,-1.0177133719073694,0.3869364857673645
1708437803.237444,-1.1027488708496094,-1.682934900323385,-2.52698785463442,2.2791332441517334,-1.01772386232485,0.38694411516189575
1708437803.2394588,-1.1025364398956299,-1.683023592034811,-2.5270443598376673,2.2789921003529052,-1.0177982489215296,0.3869638442993164
1708437803.2414455,-1.102405071258545,-1.6831447086729945,-2.5270512739764612,2.2788516718098144,-1.017775837575094,0.3869638442993164
