Eg3-git/Classifiers/Data Collection/u6/u6abc4_ur3e_joint_states.csv
time,elbow_joint,shoulder_lift_joint,shoulder_pan_joint,wrist_1_joint,wrist_2_joint,wrist_3_joint
1708437866.1758199,-1.1081918478012085,-1.6801487408080042,-2.52727181116213,2.284301682109497,-1.0186026732074183,0.2907584607601166
1708437866.177826,-1.1081517934799194,-1.680103441277975,-2.527283493672506,2.284313603038452,-1.0185988585101526,0.2907257080078125
1708437866.1798115,-1.1081063747406006,-1.680153032342428,-2.5272792021380823,2.28433005392041,-1.0185859839068812,0.290708988904953
1708437866.1817977,-1.1081228256225586,-1.6801077328123988,-2.5272868315326136,2.284297152156494,-1.0185826460467737,0.2907060980796814
1708437866.183799,-1.1080808639526367,-1.680124898950094,-2.5272987524615687,2.2842985826679687,-1.0186145941363733,0.29072871804237366
1708437866.185786,-1.1080944538116455,-1.6801196537413539,-2.5272954146014612,2.284277840251587,-1.0185654799090784,0.2907000780105591
1708437866.1877995,-1.1081726551055908,-1.6801239452757777,-2.5272792021380823,2.284280939693115,-1.0185945669757288,0.29070454835891724
1708437866.1897888,-1.10814368724823,-1.6800953350462855,-2.5272823015796106,2.2842940527149658,-1.018574062977926,0.29072123765945435
1708437866.1917894,-1.1081347465515137,-1.6800862751402796,-2.5273073355304163,2.284338875407837,-1.018590275441305,0.29074662923812866
1708437866.1937757,-1.10814368724823,-1.6800953350462855,-2.5272703806506556,2.2842985826679687,-1.018590275441305,0.2907376289367676
1708437866.1958075,-1.1081184148788452,-1.6801649532713832,-2.52724534669985,2.2843355375477294,-1.0185535589801233,0.29074209928512573
1708437866.1977859,-1.1081019639968872,-1.680169244805807,-2.527328077946798,2.2843150335499267,-1.0186188856707972,0.290688157081604
1708437866.1998003,-1.1081480979919434,-1.6801282368102015,-2.5272749106036585,2.2843240934559326,-1.0186393896686,0.2907257080078125
1708437866.2017822,-1.1081300973892212,-1.6801606617369593,-2.527278010045187,2.2842957216450195,-1.018635098134176,0.290708988904953
1708437866.2037814,-1.1080973148345947,-1.68009676555776,-2.5272496382342737,2.284285231227539,-1.0186026732074183,0.2907555401325226
1708437866.2058249,-1.1081184148788452,-1.6801239452757777,-2.5272703806506556,2.2842609125324707,-1.0185983816729944,0.2907748520374298
1708437866.20778,-1.1081607341766357,-1.6801163158812464,-2.5272911230670374,2.2842563825794677,-1.018651310597555,0.290708988904953
1708437866.2097962,-1.1081079244613647,-1.6801039181151332,-2.5273311773883265,2.2843519884296875,-1.0186060110675257,0.2907302677631378
1708437866.211803,-1.1081273555755615,-1.6801649532713832,-2.5272868315326136,2.2842606741138916,-1.0186060110675257,0.2906956374645233
1708437866.213834,-1.1081154346466064,-1.6801444492735804,-2.52734882036318,2.2842416006275634,-1.0186060110675257,0.2907302677631378
1708437866.2157862,-1.1080914735794067,-1.680131574670309,-2.5272868315326136,2.2842911916920166,-1.018611256276266,0.2907257080078125
1708437866.217801,-1.1081273555755615,-1.680075307885641,-2.5272703806506556,2.2843076425739746,-1.0185983816729944,0.29069262742996216
1708437866.219795,-1.108049750328064,-1.6801444492735804,-2.5273118654834192,2.2842652040668945,-1.0186384359942835,0.2907257080078125
1708437866.2218173,-1.1080843210220337,-1.6801196537413539,-2.5272792021380823,2.2842489916035156,-1.0186470190631312,0.2907584011554718
1708437866.223789,-1.1081407070159912,-1.680157323876852,-2.5272703806506556,2.2843076425739746,-1.0186393896686,0.290708988904953
1708437866.2257867,-1.108066201210022,-1.6800905666747035,-2.527332607899801,2.284310503596924,-1.018651310597555,0.29070162773132324
1708437866.2278118,-1.1080960035324097,-1.6801444492735804,-2.5272985140429896,2.2843164640614013,-1.0186265150653284,0.29069259762763977
1708437866.2298224,-1.1080825328826904,-1.6801196537413539,-2.5273192564593714,2.2842325407215576,-1.0186060110675257,0.2907465994358063
1708437866.2317889,-1.108054280281067,-1.6801282368102015,-2.5272823015796106,2.2842206197926025,-1.0186427275287073,0.29070162773132324
1708437866.2338147,-1.1080461740493774,-1.6801444492735804,-2.5273478666888636,2.2842821317860107,-1.0186384359942835,0.2907719314098358
1708437866.2358124,-1.1080416440963745,-1.6801120243468226,-2.5272987524615687,2.2842742639729003,-1.0186179319964808,0.2907510995864868
1708437866.2378159,-1.1080118417739868,-1.68011536220693,-2.5273237864123743,2.2842325407215576,-1.0186308065997522,0.29069262742996216
1708437866.2397845,-1.1080044507980347,-1.6801163158812464,-2.527289930974142,2.284266872996948,-1.0186222235309046,0.2907450795173645
1708437866.2417839,-1.1080795526504517,-1.6801206074156703,-2.5273192564593714,2.2842623430439453,-1.0186384359942835,0.2906971871852875
1708437866.2437823,-1.108025312423706,-1.680153032342428,-2.5273311773883265,2.2842370706745605,-1.0186384359942835,0.29074662923812866
1708437866.2457957,-1.1080632209777832,-1.6801454029478968,-2.527289930974142,2.2842652040668945,-1.0186017195331019,0.2907179892063141
1708437866.2477932,-1.108041763305664,-1.6801444492735804,-2.527339045201437,2.2842251497456054,-1.0186589399920862,0.2907257378101349
1708437866.2497926,-1.1080795526504517,-1.6800691090025843,-2.5273521582232874,2.2842416006275634,-1.0186341444598597,0.2907000780105591
1708437866.2517736,-1.108078122138977,-1.6801325283446253,-2.5273552576648157,2.2842370706745605,-1.0186460653888147,0.29069721698760986
1708437866.2538314,-1.1080632209777832,-1.6801401577391566,-2.5273433367358606,2.284254952067993,-1.0186951796161097,0.29070162773132324
1708437866.2558768,-1.1081033945083618,-1.6801358662047328,-2.527322594319479,2.2842296796986084,-1.0186460653888147,0.2907376289367676
1708437866.2578392,-1.1080870628356934,-1.6801239452757777,-2.527334753667013,2.28425042211499,-1.018651310597555,0.29072126746177673
1708437866.2598166,-1.1081033945083618,-1.6801325283446253,-2.5273597876178187,2.2842742639729003,-1.0186589399920862,0.2907465994358063
1708437866.2618444,-1.1080678701400757,-1.6800819836058558,-2.527363125477926,2.2842578130909423,-1.0186665693866175,0.2907346785068512
1708437866.263809,-1.1080914735794067,-1.6801077328123988,-2.527339045201437,2.284266634578369,-1.0186546484576624,0.2907090187072754
1708437866.2657938,-1.1080328226089478,-1.6801401577391566,-2.527400318776266,2.284283085460327,-1.0186460653888147,0.29069265723228455
1708437866.267803,-1.108041763305664,-1.680181165734762,-2.527363125477926,2.28428761541333,-1.0186503569232386,0.2906881868839264
1708437866.269787,-1.108061671257019,-1.6801239452757777,-2.527339045201437,2.28428761541333,-1.0186341444598597,0.2907045781612396
1708437866.2718344,-1.1081006526947021,-1.680124898950094,-2.527432982121603,2.2842370706745605,-1.0186546484576624,0.29074206948280334
1708437866.2738488,-1.1080706119537354,-1.6801649532713832,-2.527391497288839,2.284266634578369,-1.0186427275287073,0.29072874784469604
1708437866.2757702,-1.1080842018127441,-1.6801368198790492,-2.527379576359884,2.284279986018799,-1.0186503569232386,0.2907867431640625
1708437866.2778444,-1.1080297231674194,-1.6801282368102015,-2.527379576359884,2.28425042211499,-1.0186503569232386,0.2907629907131195
1708437866.2797995,-1.1080796718597412,-1.6801077328123988,-2.5274034182177942,2.284259243602417,-1.0186341444598597,0.2907539904117584
1708437866.2817914,-1.1080870628356934,-1.6801444492735804,-2.5274034182177942,2.2841805654713134,-1.0186546484576624,0.2906852662563324
1708437866.2838204,-1.1080632209777832,-1.6800996265807093,-2.527383867894308,2.2842725950428466,-1.0186265150653284,0.29072126746177673
1708437866.2857654,-1.1080751419067383,-1.680103441277975,-2.5273171106921595,2.2842163282581787,-1.0186460653888147,0.2907674312591553
1708437866.2878149,-1.1080588102340698,-1.6801563702025355,-2.527350966130392,2.2842461305805664,-1.0186708609210413,0.2907000780105591
1708437866.2897878,-1.108041763305664,-1.68011536220693,-2.527383867894308,2.2842845159718017,-1.0186188856707972,0.2907045781612396
1708437866.291817,-1.108025312423706,-1.6801649532713832,-2.5273500124560755,2.284235401744507,-1.0186341444598597,0.2907346785068512
1708437866.2938132,-1.1080751419067383,-1.6801077328123988,-2.527375046406881,2.284291906947754,-1.018641773854391,0.2907376289367676
1708437866.2957857,-1.1080796718597412,-1.6801487408080042,-2.527363125477926,2.2842296796986084,-1.0186589399920862,0.29073914885520935
1708437866.2977824,-1.1080597639083862,-1.6801477871336878,-2.527371946965353,2.28422658025708,-1.018691364918844,0.2907629907131195
1708437866.299767,-1.1080751419067383,-1.6801520786681117,-2.527407948170797,2.28425042211499,-1.0186741987811487,0.2907257080078125
1708437866.3018196,-1.1081079244613647,-1.6801196537413539,-2.527334753667013,2.284259243602417,-1.018625561391012,0.29079577326774597
1708437866.3037868,-1.108025312423706,-1.6801487408080042,-2.5273500124560755,2.28425042211499,-1.018665615712301,0.290667325258255
1708437866.3058188,-1.1080706119537354,-1.6801163158812464,-2.527342144642965,2.2842578130909423,-1.018665615712301,0.2907123565673828
1708437866.307799,-1.108029842376709,-1.6800953350462855,-2.527416769658224,2.2841970163532714,-1.0187109152423304,0.2907347083091736
1708437866.3097801,-1.1080915927886963,-1.680075307885641,-2.5273378531085413,2.28425042211499,-1.0186827818499964,0.29075106978416443
1708437866.3117902,-1.108105182647705,-1.6801120243468226,-2.527383867894308,2.284266872996948,-1.0186708609210413,0.2907045781612396
1708437866.3138435,-1.1080915927886963,-1.6801120243468226,-2.5273826758014124,2.284243031139038,-1.0186460653888147,0.29074954986572266
1708437866.3157876,-1.1080842018127441,-1.6800953350462855,-2.527346436177389,2.284222050304077,-1.0186741987811487,0.2906762361526489
1708437866.3181798,-1.1080479621887207,-1.6801563702025355,-2.527363125477926,2.284266872996948,-1.018637482319967,0.29073914885520935
1708437866.319785,-1.108029842376709,-1.6801120243468226,-2.5273259321795862,2.2842458921619873,-1.0186994711505335,0.29070454835891724
1708437866.3217914,-1.108088731765747,-1.6801358662047328,-2.527363125477926,2.2841896253773193,-1.0186579863177698,0.290667325258255
1708437866.3237832,-1.1080597639083862,-1.6801892719664515,-2.527358595524923,2.284243031139038,-1.0186827818499964,0.29074662923812866
1708437866.3257809,-1.1081079244613647,-1.6801444492735804,-2.527395788823263,2.284254713649414,-1.018669907246725,0.2907180190086365
1708437866.3277936,-1.1080180406570435,-1.6800910435118617,-2.5273500124560755,2.2842680650898437,-1.0186741987811487,0.29072123765945435
1708437866.329809,-1.1080597639083862,-1.6801196537413539,-2.527379576359884,2.284266872996948,-1.018669907246725,0.2907674312591553
1708437866.331778,-1.1080888509750366,-1.680103441277975,-2.5273004213916224,2.28425042211499,-1.0186827818499964,0.290708988904953
1708437866.3337882,-1.10805082321167,-1.6801196537413539,-2.527379576359884,2.2841805654713134,-1.0186665693866175,0.2907347083091736
1708437866.335806,-1.1080751419067383,-1.6800953350462855,-2.527379576359884,2.284283085460327,-1.0186665693866175,0.29069262742996216
1708437866.3378022,-1.108025312423706,-1.6801358662047328,-2.52736741701235,2.284230871791504,-1.0186741987811487,0.2907135486602783
1708437866.3397844,-1.1080960035324097,-1.6801077328123988,-2.52739125887026,2.284247322673462,-1.0186827818499964,0.2907135486602783
1708437866.3417628,-1.108013391494751,-1.6800881824889125,-2.5273378531085413,2.284214659328125,-1.0186751524554651,0.2907347083091736
1708437866.343826,-1.1080632209777832,-1.6801206074156703,-2.527350966130392,2.2842177587696533,-1.0187109152423304,0.2906792461872101
1708437866.3457656,-1.108013391494751,-1.6800629101195277,-2.52739125887026,2.28425042211499,-1.0186579863177698,0.2907584607601166
1708437866.347769,-1.108076810836792,-1.6801163158812464,-2.5273707548724573,2.28425042211499,-1.018625561391012,0.29069262742996216
1708437866.349773,-1.1080914735794067,-1.6800910435118617,-2.527363125477926,2.2842342096516113,-1.018691364918844,0.2907302677631378
1708437866.3517876,-1.1080632209777832,-1.6801077328123988,-2.527342144642965,2.2842132288166503,-1.0186546484576624,0.29067179560661316
1708437866.3538296,-1.1080960035324097,-1.6800953350462855,-2.527342144642965,2.284254713649414,-1.0186908880816858,0.29076746106147766
1708437866.3557858,-1.108041763305664,-1.6801401577391566,-2.527342144642965,2.284275694484375,-1.0186622778521937,0.2907630205154419
1708437866.3578138,-1.108088731765747,-1.6800672016539515,-2.527379576359884,2.2842461305805664,-1.018653694783346,0.29074662923812866
1708437866.3598223,-1.108034372329712,-1.6801196537413539,-2.5273552576648157,2.2842532831379394,-1.018641773854391,0.2907376289367676
1708437866.3618007,-1.1079881191253662,-1.6801282368102015,-2.52739125887026,2.284291906947754,-1.0186579863177698,0.2907302677631378
1708437866.3637788,-1.1080751419067383,-1.6800672016539515,-2.527346674595968,2.284266872996948,-1.0186665693866175,0.2907135486602783
1708437866.3657749,-1.1080796718597412,-1.6801110706725062,-2.527313772832052,2.2842458921619873,-1.0186427275287073,0.29074662923812866
1708437866.367805,-1.108008861541748,-1.6800953350462855,-2.5274046103106897,2.28425042211499,-1.0186589399920862,0.2907331585884094
1708437866.3698065,-1.108054280281067,-1.6801239452757777,-2.52736741701235,2.284254713649414,-1.0186546484576624,0.290708988904953
1708437866.371808,-1.1080453395843506,-1.6801206074156703,-2.5273214022265833,2.284279986018799,-1.0186665693866175,0.29077038168907166
1708437866.3737981,-1.1081124544143677,-1.6801239452757777,-2.527375046406881,2.284266872996948,-1.0186341444598597,0.29069262742996216
1708437866.3758047,-1.1080453395843506,-1.6801239452757777,-2.52736741701235,2.2842957216450195,-1.0186741987811487,0.29072871804237366
1708437866.3777962,-1.1081123352050781,-1.6801325283446253,-2.5273826758014124,2.2842652040668945,-1.0186503569232386,0.2907347083091736
1708437866.3798099,-1.108070731163025,-1.6801077328123988,-2.5273049513446253,2.2843045431324462,-1.0186212698565882,0.29074662923812866
1708437866.3817852,-1.108070731163025,-1.6800910435118617,-2.5273597876178187,2.28425042211499,-1.0186298529254358,0.2907331585884094
1708437866.3837976,-1.1081033945083618,-1.6801487408080042,-2.5273762384997767,2.2843000131794433,-1.0186546484576624,0.2907135784626007
1708437866.3857844,-1.108131766319275,-1.680103441277975,-2.527318064366476,2.2842532831379394,-1.018625561391012,0.290708988904953
1708437866.3878057,-1.108094573020935,-1.6801325283446253,-2.527350966130392,2.284238501186035,-1.018641773854391,0.29073911905288696
1708437866.389768,-1.1080617904663086,-1.6801206074156703,-2.5273478666888636,2.2842742639729003,-1.0186503569232386,0.2907376289367676
1708437866.3917704,-1.1080572605133057,-1.6800910435118617,-2.527346674595968,2.2842370706745605,-1.0186665693866175,0.29069265723228455
1708437866.3937974,-1.1080989837646484,-1.6801163158812464,-2.527334753667013,2.2842697340198974,-1.0186951796161097,0.2907584607601166
1708437866.3957906,-1.1080960035324097,-1.6801444492735804,-2.527339045201437,2.2842911916920166,-1.0186384359942835,0.29071682691574097
1708437866.397779,-1.1081064939498901,-1.6800867519774378,-2.527306143437521,2.284271164531372,-1.0186546484576624,0.2907376289367676
1708437866.3998005,-1.108078122138977,-1.6801325283446253,-2.5273552576648157,2.2842251497456054,-1.0186708609210413,0.29073765873908997
1708437866.4017775,-1.1080989837646484,-1.680108209649557,-2.527334753667013,2.2842787939259033,-1.018613640462057,0.2907748520374298
1708437866.4038093,-1.108115315437317,-1.6801163158812464,-2.527350966130392,2.2843164640614013,-1.0186579863177698,0.29070350527763367
1708437866.4058163,-1.1081154346466064,-1.6801039181151332,-2.527346674595968,2.2842578130909423,-1.0186827818499964,0.29074206948280334
1708437866.4078307,-1.108148217201233,-1.6800838909544886,-2.527313772832052,2.2841998773762207,-1.018653694783346,0.29071682691574097
1708437866.409857,-1.1081362962722778,-1.6801206074156703,-2.527342144642965,2.2842821317860107,-1.018691364918844,0.29072874784469604
1708437866.4117978,-1.1081154346466064,-1.6800881824889125,-2.527342144642965,2.2842489916035156,-1.0186179319964808,0.2907376289367676
1708437866.413812,-1.1081273555755615,-1.6801368198790492,-2.527371946965353,2.2843028742023925,-1.0186622778521937,0.2907823622226715
1708437866.4158175,-1.1080690622329712,-1.680108209649557,-2.5273640791522425,2.2842370706745605,-1.018609348927633,0.2907629609107971
1708437866.417809,-1.1081109046936035,-1.6800795994200648,-2.527350966130392,2.284266634578369,-1.0186222235309046,0.2907584309577942
1708437866.419788,-1.1081064939498901,-1.6801368198790492,-2.5273969809161585,2.2842458921619873,-1.0186503569232386,0.29073312878608704
1708437866.4218042,-1.1081182956695557,-1.680080076257223,-2.527309242879049,2.2843000131794433,-1.0186060110675257,0.2907376289367676
1708437866.4238298,-1.108094573020935,-1.6800757847227992,-2.527350966130392,2.2842370706745605,-1.0185897986041468,0.29072874784469604
1708437866.4258814,-1.1081517934799194,-1.680063863793844,-2.527371946965353,2.2842206197926025,-1.0186427275287073,0.2907748222351074
1708437866.4278145,-1.1081109046936035,-1.680075307885641,-2.5273707548724573,2.2843119341083984,-1.0186384359942835,0.29080313444137573
1708437866.4297843,-1.1080973148345947,-1.6800996265807093,-2.527350966130392,2.2842652040668945,-1.0186222235309046,0.29077035188674927
1708437866.4317744,-1.1081300973892212,-1.6801167927184046,-2.5273552576648157,2.2842957216450195,-1.0186308065997522,0.29077786207199097
1708437866.4337924,-1.108163595199585,-1.6800757847227992,-2.527339045201437,2.284287376994751,-1.018651310597555,0.2907867431640625
1708437866.4357796,-1.108163595199585,-1.6801077328123988,-2.527322594319479,2.2842652040668945,-1.0185897986041468,0.29074954986572266
1708437866.437787,-1.1081563234329224,-1.6800552807249964,-2.527318064366476,2.2842742639729003,-1.0186103026019495,0.29077038168907166
1708437866.4397976,-1.1081300973892212,-1.6801120243468226,-2.527339045201437,2.2842911916920166,-1.0186675230609339,0.2907659411430359
1708437866.441849,-1.108170986175537,-1.6800838909544886,-2.5273881594287317,2.2842652040668945,-1.0186145941363733,0.2907376289367676
1708437866.4437826,-1.108142614364624,-1.680185934106344,-2.52733022371401,2.2843076425739746,-1.0186308065997522,0.2908076047897339
1708437866.4458141,-1.1081300973892212,-1.6801120243468226,-2.527334753667013,2.2842911916920166,-1.0186222235309046,0.2908032536506653
1708437866.4477792,-1.1081382036209106,-1.6800672016539515,-2.5273268858539026,2.2842458921619873,-1.0185940901385706,0.2907942533493042
1708437866.4497943,-1.108159065246582,-1.680141111413473,-2.5273478666888636,2.2843119341083984,-1.0186017195331019,0.29076895117759705
1708437866.4517694,-1.108142614364624,-1.6800795994200648,-2.5273807684527796,2.284285469646118,-1.0186145941363733,0.29077038168907166
1708437866.4537807,-1.10817551612854,-1.680075307885641,-2.5273597876178187,2.2843147951313476,-1.0186188856707972,0.2907494902610779
1708437866.4558294,-1.1081664562225342,-1.6801206074156703,-2.5273433367358606,2.2843312460133056,-1.0186026732074183,0.29078978300094604
1708437866.4578254,-1.1082366704940796,-1.680124898950094,-2.5273433367358606,2.2842609125324707,-1.0185697714435022,0.2907242774963379
1708437866.4598076,-1.1081799268722534,-1.6800881824889125,-2.5273686091052454,2.2842985826679687,-1.0185983816729944,0.29076144099235535
1708437866.4618404,-1.1081918478012085,-1.6801163158812464,-2.527301851903097,2.2843519884296875,-1.0185578505145472,0.2907942533493042
1708437866.4637997,-1.1081891059875488,-1.6801368198790492,-2.5273268858539026,2.2843519884296875,-1.0185859839068812,0.29074811935424805
1708437866.4657993,-1.108116626739502,-1.6801444492735804,-2.52726918855776,2.284294291133545,-1.018590275441305,0.29079869389533997
1708437866.4677916,-1.1081993579864502,-1.6801325283446253,-2.5273223559008997,2.284273310298584,-1.018574062977926,0.2907361686229706
1708437866.4698346,-1.1082037687301636,-1.6801163158812464,-2.5273433367358606,2.284305973643921,-1.0185912291156214,0.29079267382621765
1708437866.4718761,-1.1082202196121216,-1.6800672016539515,-2.5272584597217005,2.2842697340198974,-1.0186031500445765,0.29078084230422974
1708437866.473797,-1.1081783771514893,-1.6801368198790492,-2.5273118654834192,2.2843431669422607,-1.01857835451235,0.29083478450775146
1708437866.4758406,-1.108253002166748,-1.680129190484518,-2.5273149649249476,2.2842647272297363,-1.0185545126544397,0.29079267382621765
1708437866.4777749,-1.10823655128479,-1.6801945171751917,-2.5272987524615687,2.2842985826679687,-1.0185135046588343,0.2908257842063904
1708437866.4797933,-1.1081783771514893,-1.680103441277975,-2.527360979710714,2.284285469646118,-1.0185750166522425,0.29084667563438416
1708437866.4818904,-1.1082022190093994,-1.680153032342428,-2.5272660891162317,2.284310503596924,-1.0185588041888636,0.2908168435096741
1708437866.4838042,-1.1081739664077759,-1.6801563702025355,-2.5272584597217005,2.284346266383789,-1.0185673872577112,0.29081839323043823
1708437866.485767,-1.1082067489624023,-1.6801120243468226,-2.5272792021380823,2.2843877512165527,-1.018522087727682,0.29081395268440247
1708437866.4877667,-1.1082141399383545,-1.6800996265807093,-2.5272868315326136,2.2843491274067382,-1.018522087727682,0.2908124029636383
1708437866.4897938,-1.1082067489624023,-1.680129190484518,-2.52727181116213,2.284404678935669,-1.0185187498675745,0.29083770513534546
1708437866.4917912,-1.1082067489624023,-1.6801120243468226,-2.5272584597217005,2.2843567568012695,-1.0185306707965296,0.29084962606430054
1708437866.493765,-1.108185887336731,-1.6801325283446253,-2.5272672812091272,2.2843870359608154,-1.018517796193258,0.2908004820346832
1708437866.4958136,-1.1082429885864258,-1.6801039181151332,-2.5272672812091272,2.2844108778187255,-1.0184863249408167,0.2908618748188019
1708437866.4977508,-1.108152985572815,-1.6800953350462855,-2.527250353490011,2.284458561534546,-1.0185187498675745,0.29084059596061707
1708437866.499758,-1.1081902980804443,-1.6800996265807093,-2.527242962514059,2.2843655782886962,-1.0184820334063929,0.2908451557159424
1708437866.5017526,-1.1082231998443604,-1.680153032342428,-2.527238670979635,2.2844018179127197,-1.018477741871969,0.2908451557159424
1708437866.5037594,-1.108209490776062,-1.6801368198790492,-2.527276102696554,2.2844182687946777,-1.0184653441058558,0.2908451557159424
1708437866.505795,-1.1081602573394775,-1.6801663837828578,-2.5272179285632532,2.2844554620930175,-1.018543545399801,0.2908451557159424
1708437866.507885,-1.1082141399383545,-1.6800595722594203,-2.527238670979635,2.284376783961914,-1.0185187498675745,0.2907959818840027
1708437866.5098026,-1.1082429885864258,-1.6800672016539515,-2.527259174977438,2.284442110652588,-1.018543545399801,0.2908451557159424
1708437866.511825,-1.1081931591033936,-1.6800228557982386,-2.5272637049304407,2.2844435411640625,-1.0184863249408167,0.2908782362937927
1708437866.5138,-1.1081931591033936,-1.680129190484518,-2.52718955675234,2.2844151693531494,-1.0184863249408167,0.29084518551826477
1708437866.515789,-1.1082005500793457,-1.680124898950094,-2.5272026697741907,2.284388704890869,-1.0185111204730433,0.29084062576293945
1708437866.517813,-1.1082850694656372,-1.680080076257223,-2.5271733442889612,2.284392996425293,-1.0184782187091272,0.2908451557159424
1708437866.5197887,-1.108277440071106,-1.6800672016539515,-2.5272560755359095,2.2844509321400146,-1.0184949080096644,0.29084512591362
1708437866.521783,-1.1082305908203125,-1.6800419292845667,-2.527259174977438,2.2844390112110595,-1.0184457937823694,0.2908856272697449
1708437866.5238428,-1.108214259147644,-1.6800881824889125,-2.5272472540484827,2.284409447307251,-1.0184739271747034,0.2908782362937927
1708437866.5257735,-1.1082504987716675,-1.680124898950094,-2.527238670979635,2.2844671446033935,-1.0184906164752405,0.29085731506347656
1708437866.5278037,-1.1082922220230103,-1.6800953350462855,-2.5272353331195276,2.284397526378296,-1.018547836934225,0.2908647656440735
1708437866.529782,-1.1082686185836792,-1.6801039181151332,-2.5273011366473597,2.2844151693531494,-1.0184415022479456,0.2908528447151184
1708437866.5317824,-1.1082215309143066,-1.6800881824889125,-2.527242962514059,2.28442565977063,-1.0184739271747034,0.2908647656440735
1708437866.5338159,-1.1082594394683838,-1.6801382503905238,-2.527182165776388,2.2844063478657226,-1.0184534231769007,0.2908618748188019
1708437866.5357704,-1.1082340478897095,-1.6801039181151332,-2.5272606054889124,2.284372254008911,-1.0184500853167933,0.29090645909309387
1708437866.5377975,-1.1083085536956787,-1.680101057092184,-2.527210299168722,2.284397526378296,-1.0184457937823694,0.2908528447151184
1708437866.5397954,-1.1083115339279175,-1.6801544628539027,-2.5272398630725306,2.2844509321400146,-1.0184457937823694,0.2908737361431122
1708437866.541768,-1.108266830444336,-1.6800838909544886,-2.527177635823385,2.2845050531574707,-1.0184910933123987,0.2908361554145813
1708437866.5438068,-1.1082996129989624,-1.6800595722594203,-2.527231041585104,2.284437580699585,-1.0184662977801722,0.2908451557159424
1708437866.5457766,-1.108278751373291,-1.6800953350462855,-2.5272472540484827,2.284416838283203,-1.0184991995440882,0.2908361256122589
1708437866.5477707,-1.1083204746246338,-1.6800672016539515,-2.5272517840014856,2.2844628530689697,-1.018442455922262,0.29086923599243164
1708437866.549766,-1.1083040237426758,-1.6800838909544886,-2.527182165776388,2.284388704890869,-1.018470589314596,0.29084059596061707
1708437866.5517802,-1.1082757711410522,-1.680124898950094,-2.527210299168722,2.2844137388416748,-1.0184467474566858,0.29084521532058716
1708437866.5537975,-1.108278751373291,-1.6801125011839808,-2.5272191206561487,2.284496231670044,-1.018442455922262,0.29084837436676025
1708437866.5557635,-1.1082698106765747,-1.680080076257223,-2.527201477681295,2.2844182687946777,-1.018458668385641,0.29084059596061707
1708437866.557882,-1.108278751373291,-1.6800757847227992,-2.5272191206561487,2.284470959300659,-1.018414322529928,0.2908618450164795
1708437866.559802,-1.108290672302246,-1.6800443134703578,-2.52718955675234,2.2844063478657226,-1.018454376851217,0.2908603847026825
1708437866.5618112,-1.108336091041565,-1.6800757847227992,-2.52720290819277,2.284437580699585,-1.018430534993307,0.2908931076526642
1708437866.5638182,-1.108295202255249,-1.6800843677916468,-2.52722675005068,2.2844225603291015,-1.0184014479266565,0.29084059596061707
1708437866.5657966,-1.1082817316055298,-1.6800843677916468,-2.5272768179522913,2.284421368236206,-1.018442455922262,0.29084840416908264
1708437866.5678682,-1.1083279848098755,-1.68009676555776,-2.527214829121725,2.2844509321400146,-1.0184348265277308,0.2908856272697449
1708437866.569792,-1.1082414388656616,-1.6800924740233363,-2.527210299168722,2.2844344812580566,-1.018430534993307,0.29089900851249695
1708437866.5717914,-1.1082980632781982,-1.6801368198790492,-2.5272517840014856,2.284466429347656,-1.0184100309955042,0.2908317446708679
1708437866.5738378,-1.1083160638809204,-1.680080076257223,-2.5272560755359095,2.2844583231159667,-1.0184510389911097,0.2908855974674225
1708437866.5758457,-1.108307123184204,-1.6800757847227992,-2.5272398630725306,2.284442110652588,-1.0184186140643519,0.2908439636230469
1708437866.577809,-1.1083054542541504,-1.6801167927184046,-2.527214829121725,2.284433050746582,-1.018430534993307,0.2908349931240082
1708437866.5798519,-1.108343243598938,-1.6800996265807093,-2.527198378239767,2.2844344812580566,-1.0184066931353968,0.2908811569213867
1708437866.5818036,-1.1083569526672363,-1.680101057092184,-2.527194086705343,2.284433050746582,-1.0184434095965784,0.2908618450164795
1708437866.5838208,-1.1082770824432373,-1.6800714931883753,-2.5272517840014856,2.284400387401245,-1.018402401600973,0.29089003801345825
1708437866.5857792,-1.1082888841629028,-1.6800843677916468,-2.527177635823385,2.284421368236206,-1.0184229055987757,0.2909109592437744
1708437866.5877874,-1.1083405017852783,-1.680101057092184,-2.527206007634298,2.2844621378132324,-1.0184271971331995,0.29082727432250977
1708437866.5897944,-1.1083053350448608,-1.6800843677916468,-2.527214829121725,2.284388704890869,-1.0184152762042444,0.2908528745174408
1708437866.5918324,-1.1083552837371826,-1.6800843677916468,-2.527242962514059,2.2844576078602294,-1.0184477011310022,0.2908603250980377
1708437866.5938048,-1.108336091041565,-1.6800757847227992,-2.5272279421435755,2.28444950162854,-1.0184271971331995,0.29087671637535095
1708437866.5957794,-1.1083269119262695,-1.680080076257223,-2.527222220097677,2.2844621378132324,-1.0183785597430628,0.2909109592437744
1708437866.5978334,-1.1083433628082275,-1.6800433597960414,-2.5272114912616175,2.284444971675537,-1.0183900038348597,0.2908930778503418
1708437866.5997798,-1.1083388328552246,-1.6800562343993128,-2.527231041585104,2.2844902712055664,-1.0183942953692835,0.2908451557159424
1708437866.6017752,-1.1083463430404663,-1.680063863793844,-2.52720290819277,2.284428520793579,-1.0184357802020472,0.29088854789733887
1708437866.6037874,-1.1083433628082275,-1.6801339588561,-2.527170006428854,2.284470959300659,-1.0184109846698206,0.29087820649147034
1708437866.605792,-1.108404517173767,-1.6800271473326625,-2.5272234121905726,2.2844576078602294,-1.0183942953692835,0.2908603250980377
1708437866.6078556,-1.1083054542541504,-1.680101057092184,-2.5272353331195276,2.2844783502766113,-1.0183985869037073,0.2908855974674225
1708437866.6097984,-1.1083507537841797,-1.6801053486266078,-2.5272160212146204,2.284437580699585,-1.0183942953692835,0.2908856272697449
1708437866.6118069,-1.1083582639694214,-1.6800476513304652,-2.527186457310812,2.284475489253662,-1.0183871428119105,0.29085731506347656
1708437866.613843,-1.1083225011825562,-1.6800314388670863,-2.527198378239767,2.2844576078602294,-1.0184195677386683,0.2908856272697449
1708437866.615791,-1.1083507537841797,-1.6800714931883753,-2.52720290819277,2.284499092692993,-1.0183618704425257,0.29085731506347656
1708437866.6178234,-1.1083225011825562,-1.6800562343993128,-2.527182165776388,2.2844621378132324,-1.0184195677386683,0.29087668657302856
1708437866.6198182,-1.108320951461792,-1.6801210842528285,-2.5271909872638147,2.284444971675537,-1.0183456579791468,0.29087668657302856
1708437866.621797,-1.1083372831344604,-1.68009676555776,-2.52720290819277,2.284515543574951,-1.0183914343463343,0.2909019887447357
1708437866.623797,-1.108388066291809,-1.6800886593260707,-2.527194086705343,2.284470959300659,-1.0183661619769495,0.29086923599243164
1708437866.625786,-1.108377456665039,-1.6801587543883265,-2.527170006428854,2.284482880229614,-1.0183704535113733,0.2908361554145813
1708437866.6278055,-1.1083836555480957,-1.680080076257223,-2.527186457310812,2.2844738203236084,-1.0183704535113733,0.2909187078475952
1708437866.6297987,-1.1083910465240479,-1.6800757847227992,-2.5271952787982386,2.2844902712055664,-1.0184028784381312,0.2908272445201874
1708437866.6317866,-1.1083745956420898,-1.6800881824889125,-2.5272203127490442,2.2844442564197998,-1.0183456579791468,0.29086923599243164
1708437866.633798,-1.108386516571045,-1.6800180874266566,-2.527210299168722,2.2844902712055664,-1.0183871428119105,0.29087668657302856
1708437866.6357837,-1.1084119081497192,-1.680051942864889,-2.527231041585104,2.2844814497181396,-1.0183914343463343,0.29090645909309387
1708437866.6377854,-1.1083821058273315,-1.6800562343993128,-2.5272353331195276,2.2845393854328613,-1.0183871428119105,0.2908901274204254
1708437866.6397803,-1.1083910465240479,-1.6800724468626917,-2.5272071997271937,2.284487410182617,-1.0184195677386683,0.29084059596061707
1708437866.6418004,-1.1083745956420898,-1.680063863793844,-2.5272191206561487,2.2844902712055664,-1.0183833281146448,0.29089462757110596
1708437866.6437824,-1.108361005783081,-1.680051942864889,-2.5271952787982386,2.2845064836689453,-1.0183871428119105,0.29084059596061707
1708437866.645772,-1.1083821058273315,-1.6800605259337367,-2.5271952787982386,2.2845229345509033,-1.0183542410479944,0.2908930778503418
1708437866.6477733,-1.108444333076477,-1.6800152264037074,-2.527170006428854,2.2845422464558105,-1.0183833281146448,0.29083168506622314
1708437866.649776,-1.108381986618042,-1.68003573040151,-2.527198378239767,2.2844976621815185,-1.0183380285846155,0.29090645909309387
1708437866.6518006,-1.1083984375,-1.6800314388670863,-2.5272114912616175,2.2845217424580078,-1.0183499495135706,0.2908737063407898
1708437866.653798,-1.108381986618042,-1.680051942864889,-2.5272191206561487,2.28455559789624,-1.0183914343463343,0.29089006781578064
1708437866.6557765,-1.1084442138671875,-1.680051942864889,-2.527214829121725,2.284484549159668,-1.0183542410479944,0.29081976413726807
1708437866.6578681,-1.1084016561508179,-1.6800605259337367,-2.5272517840014856,2.2845467764088134,-1.018379036580221,0.2908782362937927
1708437866.6598132,-1.1083937883377075,-1.6800109348692835,-2.5272353331195276,2.2845586973377685,-1.0183833281146448,0.2908901274204254
1708437866.6618204,-1.108427882194519,-1.6800443134703578,-2.52722675005068,2.2845379549213867,-1.018362824116842,0.2908737063407898
1708437866.6638181,-1.1084061861038208,-1.6800810299315394,-2.52720290819277,2.284566803569458,-1.0183594862567347,0.2908618748188019
1708437866.6658173,-1.1084108352661133,-1.6800562343993128,-2.5272517840014856,2.2845260339924316,-1.018379036580221,0.2908737063407898
1708437866.6678474,-1.1084414720535278,-1.680051942864889,-2.5272367636310022,2.2845935064503173,-1.0183542410479944,0.2908451557159424
1708437866.6698012,-1.1084061861038208,-1.680051942864889,-2.5272191206561487,2.28457419454541,-1.018395725880758,0.2908540666103363
1708437866.6717916,-1.1084370613098145,-1.6800648174681605,-2.527238670979635,2.2845446306416015,-1.0183303991900843,0.29089468717575073
1708437866.6738145,-1.1083972454071045,-1.6800314388670863,-2.527194086705343,2.2846099573322753,-1.0183747450457972,0.2908360958099365
1708437866.6758037,-1.1084154844284058,-1.6800199947752894,-2.5272398630725306,2.2846218782612304,-1.0183747450457972,0.2908618748188019
1708437866.67783,-1.1084108352661133,-1.6800042591490687,-2.527149025593893,2.2846261697956542,-1.0183585325824183,0.2908737063407898
1708437866.6797798,-1.1084426641464233,-1.680023809472555,-2.52720290819277,2.2846342760273437,-1.018395725880758,0.2908451557159424
1708437866.6817753,-1.1084470748901367,-1.679969926873678,-2.527231041585104,2.2845892149158935,-1.0183747450457972,0.29084059596061707
1708437866.6837862,-1.1084935665130615,-1.6800366840758265,-2.5272322336779993,2.2846173483082275,-1.0183303991900843,0.2908782958984375
1708437866.685774,-1.1084016561508179,-1.6800486050047816,-2.52720290819277,2.284667654628418,-1.0184114615069788,0.2908541262149811
1708437866.6877985,-1.1084561347961426,-1.6799913845457972,-2.5271909872638147,2.2846564489552,-1.0183585325824183,0.2908618748188019
1708437866.6898003,-1.108444333076477,-1.6800571880736292,-2.527186457310812,2.2846099573322753,-1.0184028784381312,0.29084059596061707
1708437866.691794,-1.1084500551223755,-1.6800366840758265,-2.5272603670703333,2.284531994456909,-1.018400017415182,0.2908618748188019
1708437866.6938117,-1.1084470748901367,-1.6800242863097132,-2.5272398630725306,2.284630699748657,-1.018379036580221,0.29084059596061707
1708437866.6957746,-1.1084544658660889,-1.6800042591490687,-2.527182165776388,2.2845889764973144,-1.0184028784381312,0.29078686237335205
1708437866.6977816,-1.1084635257720947,-1.6799875698485316,-2.527186457310812,2.2845918375202636,-1.018362824116842,0.29085856676101685
1708437866.6997924,-1.1084544658660889,-1.6800242863097132,-2.5271909872638147,2.2846342760273437,-1.0183423201190394,0.29087087512016296
1708437866.7018037,-1.108461856842041,-1.6799646816649378,-2.527182165776388,2.2846218782612304,-1.018379036580221,0.29089462757110596
1708437866.703802,-1.1084738969802856,-1.6799808941283167,-2.5271831194507044,2.2846433359333496,-1.018400017415182,0.2908541262149811
1708437866.705786,-1.1084544658660889,-1.6799408398070277,-2.5272486845599573,2.2846564489552,-1.0183942953692835,0.29084062576293945
1708437866.707807,-1.1084754467010498,-1.6799246273436488,-2.5272071997271937,2.2846342760273437,-1.0183380285846155,0.29084518551826477
1708437866.7097979,-1.108421802520752,-1.6799117527403773,-2.5272203127490442,2.2846335607716064,-1.0183704535113733,0.29082417488098145
1708437866.7118106,-1.1084709167480469,-1.6799656353392542,-2.527177635823385,2.2846736150928955,-1.0184443632708948,0.29082879424095154
1708437866.7138054,-1.1084351539611816,-1.679859300652975,-2.5272026697741907,2.2846297460743408,-1.018400017415182,0.29080942273139954
1708437866.7157917,-1.1084575653076172,-1.6798926792540492,-2.5272398630725306,2.2846218782612304,-1.018407169972555,0.2908168137073517
1708437866.7177925,-1.1084784269332886,-1.679896970788473,-2.527198378239767,2.284676714534424,-1.0183466116534632,0.2907628118991852
1708437866.7197812,-1.1085036993026733,-1.6798840961852015,-2.527222220097677,2.2846054273792724,-1.0183303991900843,0.290804922580719
1708437866.7218134,-1.1084262132644653,-1.6799093685545863,-2.527231041585104,2.2846342760273437,-1.018367115651266,0.29080936312675476
1708437866.723795,-1.1084381341934204,-1.6799208126463832,-2.5272191206561487,2.2845844465443115,-1.0183551947223108,0.2908557951450348
1708437866.7258117,-1.1083920001983643,-1.6798602543272914,-2.527214829121725,2.2846297460743408,-1.0183432737933558,0.2908048927783966
1708437866.7277784,-1.108417272567749,-1.679868837396139,-2.52718955675234,2.28465120374646,-1.0183313528644007,0.2908107042312622
1708437866.7297723,-1.1084665060043335,-1.6798764667906703,-2.5271952787982386,2.2846082884022216,-1.018334690724508,0.2908017337322235
1708437866.7317839,-1.1084470748901367,-1.6798635921873988,-2.5272279421435755,2.2846264082142334,-1.0183551947223108,0.2907569706439972
1708437866.7338095,-1.1084798574447632,-1.6798764667906703,-2.527198378239767,2.2846173483082275,-1.0183313528644007,0.29078981280326843
1708437866.735788,-1.1084709167480469,-1.679925104180807,-2.5272026697741907,2.2846125799366455,-1.0183585325824183,0.29069551825523376
1708437866.737803,-1.1084798574447632,-1.679880758325094,-2.5272191206561487,2.284611149425171,-1.0183876196490687,0.29072415828704834
1708437866.739803,-1.1084709167480469,-1.679880758325094,-2.527214829121725,2.2846125799366455,-1.018362824116842,0.2907511293888092
1708437866.7417846,-1.1084126234054565,-1.6799093685545863,-2.5272114912616175,2.2846173483082275,-1.018350903187887,0.2907302677631378
1708437866.7437768,-1.108429193496704,-1.6798635921873988,-2.5272353331195276,2.2846342760273437,-1.0183747450457972,0.29072120785713196
1708437866.7457788,-1.1084425449371338,-1.6798840961852015,-2.5271998087512415,2.2845355707355957,-1.0184243361102503,0.2906835079193115
1708437866.7477734,-1.108466386795044,-1.6798755131163539,-2.5272234121905726,2.2846388059803466,-1.0183303991900843,0.2907180190086365
1708437866.749773,-1.1084692478179932,-1.6798964939513148,-2.527198378239767,2.2846342760273437,-1.0183303991900843,0.2907421886920929
1708437866.7517936,-1.1084544658660889,-1.6799293957152308,-2.5271998087512415,2.2846008974262695,-1.0183585325824183,0.2906925678253174
1708437866.753804,-1.1084574460983276,-1.679920335809225,-2.5271952787982386,2.2846008974262695,-1.0183594862567347,0.2907302975654602
1708437866.7557917,-1.1085373163223267,-1.6798798046507777,-2.5271995703326624,2.284655972118042,-1.018395725880758,0.29068523645401
1708437866.7578242,-1.1085237264633179,-1.6799375019469203,-2.5272071997271937,2.284646673793457,-1.0183585325824183,0.29068970680236816
1708437866.759802,-1.1085020303726196,-1.6798721752562464,-2.5272353331195276,2.2846008974262695,-1.018350903187887,0.2906807065010071
1708437866.7618127,-1.1085237264633179,-1.679925104180807,-2.527161184941427,2.2845918375202636,-1.018367115651266,0.2906610071659088
1708437866.7637982,-1.108506679534912,-1.6799289188780726,-2.527186457310812,2.2846082884022216,-1.0183218161212366,0.2906688153743744
1708437866.765794,-1.108514666557312,-1.6798964939513148,-2.5272441546069544,2.2846297460743408,-1.0183423201190394,0.2906777858734131
1708437866.7678,-1.1085237264633179,-1.6799122295775355,-2.52720290819277,2.284672184581421,-1.0183585325824183,0.2906401753425598
1708437866.7697866,-1.1085609197616577,-1.6799036465086878,-2.527170006428854,2.284662886256836,-1.018362824116842,0.29068684577941895
1708437866.7718198,-1.1084811687469482,-1.6799289188780726,-2.5272279421435755,2.284676714534424,-1.018428150807516,0.290620893239975
1708437866.7738419,-1.1085282564163208,-1.6799079380431117,-2.5272441546069544,2.2845963674732666,-1.0184114615069788,0.2906881272792816
1708437866.7758408,-1.1085309982299805,-1.6798755131163539,-2.5271952787982386,2.284616394633911,-1.018334690724508,0.29062825441360474
1708437866.7778542,-1.1085519790649414,-1.6799332104124964,-2.5272071997271937,2.284688635463379,-1.0183551947223108,0.29062986373901367
1708437866.7798505,-1.1085237264633179,-1.679859300652975,-2.5272160212146204,2.284583254451416,-1.0183704535113733,0.2906462550163269
1708437866.7818372,-1.108506679534912,-1.6799289188780726,-2.5272114912616175,2.284616394633911,-1.0183466116534632,0.29060864448547363
1708437866.783818,-1.108514666557312,-1.6798473797240199,-2.5272026697741907,2.284667654628418,-1.0183380285846155,0.2905893921852112
1708437866.7858016,-1.1085729598999023,-1.6798840961852015,-2.5271785894977015,2.284700317973755,-1.0183380285846155,0.2906057834625244
1708437866.7878163,-1.1085773706436157,-1.6798926792540492,-2.527198378239767,2.284691258067749,-1.0183876196490687,0.29059672355651855
1708437866.7898085,-1.1085474491119385,-1.6798678837218226,-2.5272160212146204,2.2846543031879882,-1.0183833281146448,0.29063892364501953
1708437866.7918417,-1.1085281372070312,-1.6798678837218226,-2.5272203127490442,2.2846297460743408,-1.0183466116534632,0.29060283303260803
1708437866.793784,-1.1084738969802856,-1.6798488102354945,-2.5271909872638147,2.284679337138794,-1.018367115651266,0.29059386253356934
1708437866.795784,-1.1084810495376587,-1.6798926792540492,-2.5272114912616175,2.2846779066273193,-1.018362824116842,0.29060128331184387
1708437866.7977796,-1.1085681915283203,-1.6798445187010707,-2.527214829121725,2.284679337138794,-1.0183914343463343,0.2905893921852112
1708437866.7997975,-1.1085282564163208,-1.6798516712584437,-2.527186457310812,2.284616394633911,-1.0183714071856897,0.2905938923358917
1708437866.8017905,-1.1084740161895752,-1.6799165211119593,-2.527182165776388,2.284712000484131,-1.0183747450457972,0.2906058430671692
1708437866.8037972,-1.1085565090179443,-1.6798473797240199,-2.527198378239767,2.284658594722412,-1.0183475653277796,0.2905893921852112
1708437866.8057754,-1.1085681915283203,-1.6799050770201625,-2.527182165776388,2.2846781450458984,-1.0183303991900843,0.29058218002319336
1708437866.8077817,-1.1085056066513062,-1.6798602543272914,-2.5272441546069544,2.284679337138794,-1.0183423201190394,0.29057776927948
1708437866.8098462,-1.1085355281829834,-1.6798755131163539,-2.5272603670703333,2.284658594722412,-1.0183303991900843,0.2905372083187103
1708437866.8118153,-1.1085518598556519,-1.679925104180807,-2.5271952787982386,2.284670515651367,-1.0183466116534632,0.29054465889930725
1708437866.8138356,-1.108526587486267,-1.6798516712584437,-2.5272353331195276,2.2846082884022216,-1.0183551947223108,0.29057779908180237
1708437866.8158,-1.1085429191589355,-1.6799208126463832,-2.5272234121905726,2.2846497732349853,-1.018350903187887,0.2905086278915405
1708437866.8177977,-1.1085503101348877,-1.6798559627928675,-2.5272191206561487,2.2846173483082275,-1.0183432737933558,0.2905789911746979
1708437866.8198042,-1.1085504293441772,-1.6798926792540492,-2.527186457310812,2.284691258067749,-1.0183303991900843,0.290520578622818
1708437866.8217897,-1.1085309982299805,-1.6798721752562464,-2.5271909872638147,2.2846297460743408,-1.018367115651266,0.29057449102401733
1708437866.8238611,-1.1085220575332642,-1.6798798046507777,-2.5272041002856653,2.284658594722412,-1.018338982258932,0.2905416786670685
1708437866.8258262,-1.108575701713562,-1.67991366008901,-2.5272367636310022,2.284662886256836,-1.0183714071856897,0.2905175983905792
1708437866.8278005,-1.108575701713562,-1.6798531017699183,-2.52720290819277,2.2846378523060302,-1.0183551947223108,0.2904893755912781
1708437866.8297756,-1.1085667610168457,-1.6798798046507777,-2.5272191206561487,2.284684105510376,-1.0183919111834925,0.29051467776298523
1708437866.8317788,-1.1085667610168457,-1.6799079380431117,-2.5272768179522913,2.2846378523060302,-1.0183303991900843,0.29050856828689575
1708437866.8337896,-1.1085429191589355,-1.679892202416891,-2.5271952787982386,2.2846333223530273,-1.0183303991900843,0.29054298996925354
1708437866.8357646,-1.1085264682769775,-1.6798445187010707,-2.5271995703326624,2.284625216121338,-1.0183466116534632,0.2904680073261261
1708437866.8377738,-1.10859215259552,-1.6798840961852015,-2.5272236506091517,2.284658594722412,-1.0183337370501917,0.2904607057571411
1708437866.8397784,-1.1084840297698975,-1.6799007854857386,-2.5271909872638147,2.284658594722412,-1.0184114615069788,0.29051464796066284
1708437866.841808,-1.1085220575332642,-1.679880758325094,-2.527186457310812,2.28465120374646,-1.0184043089496058,0.29051920771598816
1708437866.8437846,-1.1085176467895508,-1.6799050770201625,-2.5272041002856653,2.2846662241169433,-1.018395725880758,0.2904650866985321
1708437866.8457882,-1.1085801124572754,-1.6798635921873988,-2.5272398630725306,2.2846378523060302,-1.0183914343463343,0.29049378633499146
1708437866.8477886,-1.1085175275802612,-1.6798964939513148,-2.5271831194507044,2.284703178996704,-1.0183466116534632,0.29049378633499146
1708437866.849845,-1.108547329902649,-1.6798893413939417,-2.527165476475851,2.284712000484131,-1.0183585325824183,0.29051920771598816
1708437866.8518093,-1.1085354089736938,-1.6798635921873988,-2.527170006428854,2.284658594722412,-1.0183585325824183,0.29042789340019226
1708437866.8537893,-1.1085354089736938,-1.6798840961852015,-2.527194086705343,2.284658594722412,-1.0183704535113733,0.2904905676841736
1708437866.8557956,-1.1085190773010254,-1.6798316440977992,-2.5271785894977015,2.284654064769409,-1.018367115651266,0.29046517610549927
1708437866.8577883,-1.1085385084152222,-1.6799093685545863,-2.527208391820089,2.284679337138794,-1.018362824116842,0.2904622256755829
1708437866.8598883,-1.1085892915725708,-1.6798559627928675,-2.527186457310812,2.2846779066273193,-1.0183714071856897,0.2904982566833496
1708437866.861858,-1.1085548400878906,-1.6798721752562464,-2.5271666685687464,2.2846247392841796,-1.0183714071856897,0.29052820801734924
1708437866.8638494,-1.1085894107818604,-1.6798883877196253,-2.5272234121905726,2.284642143840454,-1.018395725880758,0.29047417640686035
1708437866.8658316,-1.1085681915283203,-1.6798516712584437,-2.5272114912616175,2.284700317973755,-1.018367115651266,0.290487676858902
1708437866.8677814,-1.1085548400878906,-1.6798764667906703,-2.5271897951709192,2.284658594722412,-1.0183542410479944,0.29045772552490234
1708437866.8698108,-1.108616590499878,-1.6798764667906703,-2.527186457310812,2.284712000484131,-1.0183714071856897,0.2904651165008545
1708437866.8718178,-1.1085548400878906,-1.6799208126463832,-2.5271742979632776,2.284658594722412,-1.0183337370501917,0.2904651165008545
1708437866.8738406,-1.1085965633392334,-1.6799007854857386,-2.5272041002856653,2.284642143840454,-1.0183303991900843,0.2904786467552185
1708437866.8758535,-1.1085786819458008,-1.6798926792540492,-2.5272648970233362,2.2846364217945556,-1.0183303991900843,0.2905117869377136
1708437866.8778207,-1.1085219383239746,-1.67991366008901,-2.527144734059469,2.284670515651367,-1.018362824116842,0.29048609733581543
1708437866.87979,-1.1085203886032104,-1.6799050770201625,-2.5272114912616175,2.2846497732349853,-1.018362824116842,0.2904905676841736
1708437866.8817742,-1.1085995435714722,-1.6799093685545863,-2.5271952787982386,2.284686966533325,-1.018367115651266,0.29044586420059204
1708437866.8837867,-1.1085623502731323,-1.6798764667906703,-2.5272398630725306,2.2847329813190917,-1.0183303991900843,0.2904622554779053
1708437866.885821,-1.1085622310638428,-1.6799093685545863,-2.527214829121725,2.2846571642109375,-1.0183833281146448,0.290432333946228
1708437866.8878057,-1.1085786819458008,-1.679946085015768,-2.5272191206561487,2.284700317973755,-1.0184086004840296,0.29047417640686035
1708437866.8897943,-1.1085906028747559,-1.6799208126463832,-2.5272322336779993,2.284663124675415,-1.0183833281146448,0.2904577851295471
1708437866.891793,-1.1085950136184692,-1.6799336872496546,-2.5271788279162806,2.2846736150928955,-1.0183714071856897,0.2904982566833496
1708437866.8937864,-1.1085695028305054,-1.679843088189596,-2.5271952787982386,2.2846574026295166,-1.018334690724508,0.2904667258262634
1708437866.8957958,-1.1085906028747559,-1.6798926792540492,-2.5272279421435755,2.284662886256836,-1.018400017415182,0.2904697060585022
1708437866.8977776,-1.1085995435714722,-1.6798678837218226,-2.5272322336779993,2.2846409517475585,-1.0183184782611292,0.2904622554779053
1708437866.899776,-1.1085504293441772,-1.6798678837218226,-2.5271995703326624,2.2846616941639404,-1.018350903187887,0.29051628708839417
1708437866.9017804,-1.1085786819458008,-1.6798721752562464,-2.5272114912616175,2.2846571642109375,-1.0183714071856897,0.29049503803253174
1708437866.9038527,-1.108569622039795,-1.6799336872496546,-2.527170006428854,2.284686728114746,-1.0183423201190394,0.2904622554779053
1708437866.9057894,-1.108526587486267,-1.6799050770201625,-2.527198378239767,2.2847062784382324,-1.018350903187887,0.29045331478118896
1708437866.9077995,-1.1085667610168457,-1.6798964939513148,-2.527252976094381,2.2846333223530273,-1.018379036580221,0.2904442250728607
1708437866.909908,-1.1085458993911743,-1.6798840961852015,-2.5271785894977015,2.2846497732349853,-1.018338982258932,0.29047417640686035
1708437866.9118142,-1.1085503101348877,-1.6798840961852015,-2.5272160212146204,2.284679337138794,-1.0183756987201136,0.2905117869377136
1708437866.9138472,-1.1085623502731323,-1.6798883877196253,-2.5271874109851282,2.2846342760273437,-1.018350903187887,0.2904697060585022
1708437866.9158182,-1.1085786819458008,-1.6798602543272914,-2.5272203127490442,2.284719629878662,-1.0183594862567347,0.2904577851295471
1708437866.9177926,-1.1085950136184692,-1.6798764667906703,-2.5271909872638147,2.2846616941639404,-1.0183466116534632,0.2904950678348541
1708437866.919803,-1.1085623502731323,-1.6798602543272914,-2.527191940938131,2.284686966533325,-1.0183184782611292,0.2904082238674164
1708437866.9217975,-1.1085623502731323,-1.6798764667906703,-2.5272041002856653,2.2847108083912353,-1.018338982258932,0.2905237078666687
1708437866.9238186,-1.108541488647461,-1.6798678837218226,-2.5271621386157435,2.2846988874622802,-1.018338982258932,0.2904905676841736
1708437866.925861,-1.1085712909698486,-1.6799093685545863,-2.52717096010317,2.2846452432819824,-1.0183833281146448,0.29050731658935547
1708437866.9278047,-1.1085742712020874,-1.6799122295775355,-2.5271664301501673,2.2846342760273437,-1.0183098951922815,0.2904786467552185
1708437866.9297605,-1.1085742712020874,-1.6799093685545863,-2.5271788279162806,2.284735842342041,-1.0183585325824183,0.2904532849788666
1708437866.931761,-1.1085131168365479,-1.6798840961852015,-2.5272322336779993,2.2846779066273193,-1.0183261076556605,0.2904995381832123
1708437866.933761,-1.1085504293441772,-1.679941793481344,-2.5271995703326624,2.2846616941639404,-1.0183432737933558,0.2904532849788666
1708437866.9357638,-1.10859215259552,-1.6799050770201625,-2.5271831194507044,2.2846452432819824,-1.0183423201190394,0.2904950976371765
1708437866.93777,-1.108587622642517,-1.6798798046507777,-2.527196232472555,2.284691258067749,-1.0183423201190394,0.2904905676841736
1708437866.9397874,-1.1085623502731323,-1.679859300652975,-2.52717096010317,2.284682436580322,-1.0183551947223108,0.2904983460903168
1708437866.9417799,-1.1085995435714722,-1.6799208126463832,-2.5271294752704065,2.2846497732349853,-1.018334690724508,0.2904667556285858
1708437866.9438267,-1.1086039543151855,-1.6798840961852015,-2.5271666685687464,2.2847108083912353,-1.0183637777911585,0.29052090644836426
1708437866.9457843,-1.108587622642517,-1.6799050770201625,-2.5271831194507044,2.284691258067749,-1.018334690724508,0.2904667556285858
1708437866.9477637,-1.1086076498031616,-1.6798840961852015,-2.527175251637594,2.284707470531128,-1.0183551947223108,0.29044580459594727
1708437866.949761,-1.1085383892059326,-1.6798755131163539,-2.5271666685687464,2.284707708949707,-1.0183551947223108,0.2904815375804901
1708437866.9517934,-1.108571171760559,-1.6799007854857386,-2.5271533171283167,2.284658594722412,-1.0183551947223108,0.29048311710357666
1708437866.9538023,-1.1085413694381714,-1.6799122295775355,-2.5271502176867884,2.284695788020752,-1.018350903187887,0.2905028164386749
1708437866.9557781,-1.1085920333862305,-1.6799332104124964,-2.5272114912616175,2.284665985698364,-1.0182974974261683,0.29047417640686035
1708437866.9577718,-1.1086084842681885,-1.679892202416891,-2.5272041002856653,2.284715099925659,-1.018322769795553,0.29045331478118896
1708437866.959864,-1.1085906028747559,-1.6799012623228968,-2.5272114912616175,2.284695549602173,-1.0183313528644007,0.29050731658935547
1708437866.961816,-1.1085295677185059,-1.6799165211119593,-2.5271666685687464,2.284682436580322,-1.018306080495016,0.29043975472450256
1708437866.9638786,-1.108525037765503,-1.6799165211119593,-2.5271666685687464,2.284712000484131,-1.018301788960592,0.2904905676841736
1708437866.96588,-1.1085995435714722,-1.6799208126463832,-2.5271413961993616,2.2846693235584716,-1.018277947102682,0.2904532253742218
1708437866.967796,-1.1085339784622192,-1.6798106632628382,-2.5272203127490442,2.284682436580322,-1.0182989279376429,0.2905117869377136
1708437866.969817,-1.1085667610168457,-1.6799165211119593,-2.527175251637594,2.284719629878662,-1.0183551947223108,0.2904950678348541
1708437866.9717956,-1.1085458993911743,-1.6799007854857386,-2.5271175543414515,2.284658594722412,-1.0183103720294397,0.29046517610549927
1708437866.973847,-1.1085786819458008,-1.679880758325094,-2.527159039174215,2.284642143840454,-1.0183146635638636,0.2904622256755829
1708437866.9758482,-1.1085667610168457,-1.6799375019469203,-2.527142588292257,2.284719391460083,-1.0183075110064905,0.2904486656188965
1708437866.9778523,-1.108547329902649,-1.6798635921873988,-2.52714711824526,2.284665985698364,-1.0183146635638636,0.2904950678348541
1708437866.9798565,-1.1085429191589355,-1.6798635921873988,-2.5272041002856653,2.284682436580322,-1.0183313528644007,0.29049503803253174
1708437866.981838,-1.1085458993911743,-1.6799289188780726,-2.527159039174215,2.2846943575092773,-1.0182989279376429,0.2904905676841736
1708437866.9838433,-1.1085667610168457,-1.6799036465086878,-2.527139727269308,2.2846409517475585,-1.0182822386371058,0.29049059748649597
1708437866.98578,-1.1085458993911743,-1.679920335809225,-2.5270782152758997,2.2846378523060302,-1.0182750860797327,0.29051175713539124
1708437866.9877687,-1.1085906028747559,-1.6799494228758753,-2.5270708242999476,2.2846497732349853,-1.018266503010885,0.2904982566833496
1708437866.989777,-1.1085667610168457,-1.6798879108824671,-2.5270827452289026,2.2846378523060302,-1.0182541052447718,0.29047414660453796
1708437866.9917855,-1.108510136604309,-1.6799246273436488,-2.527116600667135,2.284616394633911,-1.0183032194720667,0.2904442846775055
1708437866.993812,-1.108571171760559,-1.6799246273436488,-2.5270350615130823,2.2846497732349853,-1.0183118025409144,0.2904578745365143
1708437866.995798,-1.1085056066513062,-1.6799451313414515,-2.5270381609546106,2.284740372295044,-1.0182908217059534,0.29054009914398193
1708437866.997795,-1.1084976196289062,-1.6799494228758753,-2.5270512739764612,2.284735842342041,-1.0183356443988245,0.29049503803253174
1708437866.9997797,-1.1085518598556519,-1.6799093685545863,-2.5270631949054163,2.284740133876465,-1.0183032194720667,0.290498286485672
1708437867.0017743,-1.1085237264633179,-1.6799165211119593,-2.52702242532839,2.28467504560437,-1.0182822386371058,0.2904622256755829
1708437867.0037742,-1.1085339784622192,-1.6799451313414515,-2.527039353047506,2.284700317973755,-1.0183189550982874,0.29043689370155334
1708437867.0057714,-1.108559250831604,-1.6798879108824671,-2.527039353047506,2.284616394633911,-1.0182908217059534,0.2905355989933014
1708437867.007835,-1.1085383892059326,-1.6799408398070277,-2.527039353047506,2.284658594722412,-1.0182865301715296,0.2905474901199341
1708437867.0098329,-1.108580231666565,-1.6799613438048304,-2.527018133793966,2.284646673793457,-1.0182989279376429,0.2904725968837738
1708437867.0118232,-1.1085503101348877,-1.6798836193480433,-2.527026955281393,2.284620924586914,-1.0182908217059534,0.29048609733581543
1708437867.013865,-1.1085100173950195,-1.6798879108824671,-2.527018133793966,2.284658594722412,-1.0183189550982874,0.2905356287956238
1708437867.0158198,-1.1085383892059326,-1.6799246273436488,-2.5269723574267786,2.284740372295044,-1.018299404774801,0.29053401947021484
1708437867.0178206,-1.1084811687469482,-1.6799122295775355,-2.527104441319601,2.284695788020752,-1.0183442274676722,0.29057613015174866
1708437867.0197923,-1.1085401773452759,-1.679948469201559,-2.5270350615130823,2.2846543031879882,-1.018303696309225,0.29052209854125977
1708437867.0217974,-1.1084482669830322,-1.6798964939513148,-2.527039353047506,2.284672184581421,-1.018327538167135,0.29056426882743835
1708437867.023866,-1.1085447072982788,-1.6799408398070277,-2.5270631949054163,2.284646673793457,-1.0182421843158167,0.290538489818573
1708437867.0259023,-1.1085156202316284,-1.6799494228758753,-2.5270424524890345,2.2846378523060302,-1.0182626883136194,0.29055970907211304
1708437867.0278034,-1.1085401773452759,-1.6799451313414515,-2.5270512739764612,2.284695788020752,-1.0182464758502405,0.2905430197715759
1708437867.0298555,-1.1084527969360352,-1.6799289188780726,-2.5270217100726526,2.284667654628418,-1.0183160940753382,0.2905716300010681
1708437867.0317712,-1.1084738969802856,-1.6799122295775355,-2.5270381609546106,2.284683867091797,-1.018271271382467,0.2905867397785187
1708437867.0338109,-1.10849928855896,-1.6799704037108363,-2.5270469824420374,2.2846378523060302,-1.018275562916891,0.29055362939834595
1708437867.0358033,-1.108478307723999,-1.6799007854857386,-2.5270913282977503,2.284667654628418,-1.0182550589190882,0.29054903984069824
1708437867.0377934,-1.1084619760513306,-1.6799289188780726,-2.5270589033709925,2.2845472532459716,-1.0182421843158167,0.2906237244606018
1708437867.0398169,-1.108466386795044,-1.6799007854857386,-2.527079407368795,2.2845565515705566,-1.0182464758502405,0.2906237244606018
1708437867.0418172,-1.1084619760513306,-1.6799365482726039,-2.5270870367633265,2.2846433359333496,-1.0183246771441858,0.2905732989311218
1708437867.0438008,-1.1084425449371338,-1.6798678837218226,-2.5270631949054163,2.2846099573322753,-1.0182879606830042,0.2906131446361542
1708437867.0458107,-1.1084336042404175,-1.6798879108824671,-2.527072016392843,2.2846082884022216,-1.0182507673846644,0.29059672355651855
1708437867.047771,-1.1084142923355103,-1.6798879108824671,-2.5270424524890345,2.2846054273792724,-1.0182140509234827,0.29062986373901367
1708437867.0497916,-1.1084635257720947,-1.6799332104124964,-2.527116362248556,2.2845980364033203,-1.018271271382467,0.29061025381088257
1708437867.0518029,-1.1084754467010498,-1.679859300652975,-2.52706748643984,2.2845892149158935,-1.018303696309225,0.2906462550163269
1708437867.0538373,-1.108467936515808,-1.6798635921873988,-2.5270424524890345,2.2845980364033203,-1.0182669798480433,0.29059672355651855
1708437867.0557728,-1.1084635257720947,-1.6799613438048304,-2.5270913282977503,2.284578486079834,-1.0182388464557093,0.29066723585128784
1708437867.0577953,-1.1084381341934204,-1.6799165211119593,-2.527116362248556,2.2845446306416015,-1.018275562916891,0.2905922532081604
1708437867.059891,-1.108456015586853,-1.6799122295775355,-2.527112070714132,2.2846099573322753,-1.0182388464557093,0.2906401753425598
1708437867.061831,-1.1084307432174683,-1.6799036465086878,-2.5270543734179896,2.2845653730579834,-1.0182388464557093,0.2906373143196106
1708437867.0638387,-1.108472466468811,-1.6799365482726039,-2.5270589033709925,2.2845565515705566,-1.0182507673846644,0.2906164228916168
1708437867.0658333,-1.108472466468811,-1.6798879108824671,-2.5270500818835657,2.2845498758503417,-1.0182507673846644,0.29064464569091797
1708437867.0678153,-1.1084516048431396,-1.6799365482726039,-2.5270870367633265,2.2845217424580078,-1.0182679335223597,0.290703147649765
1708437867.0697985,-1.1084028482437134,-1.6798879108824671,-2.527083937321798,2.284533663386963,-1.018271271382467,0.29067009687423706
1708437867.0717752,-1.1083728075027466,-1.679899354974264,-2.527112070714132,2.2845756250568847,-1.0182626883136194,0.29060736298561096
1708437867.0738528,-1.1083581447601318,-1.6799289188780726,-2.5270469824420374,2.2845632272907714,-1.018292252217428,0.29071059823036194
1708437867.0758572,-1.1084017753601074,-1.67993225673818,-2.527100149785177,2.284463568324707,-1.0182302633868616,0.29065656661987305
1708437867.0777755,-1.108361005783081,-1.6799570522704066,-2.5270631949054163,2.284527226085327,-1.018259350453512,0.2907269299030304
1708437867.0797677,-1.1083745956420898,-1.6799165211119593,-2.5270305315600794,2.2844814497181396,-1.0182345549212855,0.2906688153743744
1708437867.081816,-1.1083581447601318,-1.6799279652037562,-2.5270469824420374,2.2845348554798584,-1.018275562916891,0.29068970680236816
1708437867.083773,-1.1083656549453735,-1.6799680195250453,-2.5270751158343714,2.28453175603833,-1.0182793776141565,0.2906925678253174
1708437867.0857732,-1.1083954572677612,-1.679948469201559,-2.527104441319601,2.2844695287891845,-1.0182669798480433,0.29071804881095886
1708437867.0877752,-1.1083507537841797,-1.679944177667135,-2.5270219484912317,2.284444971675537,-1.0182951132403772,0.29068073630332947
1708437867.0898077,-1.1083672046661377,-1.6799408398070277,-2.527088228856222,2.2844902712055664,-1.018275562916891,0.29075556993484497
1708437867.0917666,-1.1083672046661377,-1.679920335809225,-2.5270631949054163,2.284527464503906,-1.0182345549212855,0.290708988904953
1708437867.0937762,-1.1083910465240479,-1.6799689731993617,-2.5270469824420374,2.2844406801411132,-1.0182626883136194,0.29072126746177673
1708437867.0958035,-1.1083626747131348,-1.6799570522704066,-2.527079407368795,2.284433050746582,-1.018271271382467,0.29074954986572266
1708437867.097798,-1.1083626747131348,-1.679948469201559,-2.5270350615130823,2.284376783961914,-1.0182669798480433,0.29076308012008667
1708437867.0997844,-1.1083463430404663,-1.6799570522704066,-2.5270350615130823,2.284409447307251,-1.0182378927813929,0.29067617654800415
1708437867.101769,-1.108331561088562,-1.6799408398070277,-2.5270305315600794,2.2844344812580566,-1.0182908217059534,0.2907167375087738
1708437867.1037877,-1.1083269119262695,-1.679899354974264,-2.527072016392843,2.2844182687946777,-1.0182507673846644,0.29074954986572266
1708437867.1058025,-1.108359694480896,-1.6799365482726039,-2.5270589033709925,2.2844301897236328,-1.018292252217428,0.2908077538013458
1708437867.1078155,-1.1082770824432373,-1.679972311059469,-2.5271077791797083,2.284405155772827,-1.0182507673846644,0.2907824218273163
1708437867.109816,-1.1082890033721924,-1.6799613438048304,-2.5270469824420374,2.2844390112110595,-1.0182583967791956,0.29073768854141235
1708437867.11181,-1.1083344221115112,-1.6799408398070277,-2.527055565510885,2.2844464021870117,-1.0182583967791956,0.2907852828502655
1708437867.113795,-1.1083524227142334,-1.6798707447447718,-2.527079407368795,2.2843987184711914,-1.018259350453512,0.29074057936668396
1708437867.1157944,-1.1082725524902344,-1.6799537144102992,-2.5270708242999476,2.2843736845203857,-1.0182793776141565,0.29078978300094604
1708437867.1178083,-1.1082861423492432,-1.6799365482726039,-2.5270913282977503,2.2843989568897705,-1.018271271382467,0.2907569110393524
1708437867.119804,-1.108274221420288,-1.6799122295775355,-2.5270913282977503,2.2844063478657226,-1.0182226339923304,0.29078084230422974
1708437867.1218143,-1.1082816123962402,-1.6799646816649378,-2.5271111170398157,2.2843870359608154,-1.0182345549212855,0.29076892137527466
1708437867.1238494,-1.1082713603973389,-1.6799117527403773,-2.5270989576922815,2.2843448358723144,-1.0182302633868616,0.2908017039299011
1708437867.1258736,-1.108283281326294,-1.6799160442748011,-2.5270708242999476,2.2843870359608154,-1.018275562916891,0.29083940386772156
1708437867.1277916,-1.1082876920700073,-1.6799160442748011,-2.5270913282977503,2.284358187312744,-1.018271271382467,0.29079264402389526
1708437867.1297908,-1.1082549095153809,-1.6799732647337855,-2.5271111170398157,2.2843374448963623,-1.0182507673846644,0.2908468544483185
1708437867.1317856,-1.108262300491333,-1.67993225673818,-2.5270381609546106,2.284367008800171,-1.0182388464557093,0.29080042243003845
1708437867.133782,-1.1082459688186646,-1.6799613438048304,-2.52712852159609,2.284325523967407,-1.0182550589190882,0.29085859656333923
1708437867.1357713,-1.1082640886306763,-1.6800090275206507,-2.5270708242999476,2.284407778377197,-1.0182269255267542,0.29086190462112427
1708437867.137782,-1.1082639694213867,-1.6799689731993617,-2.52706748643984,2.284341974849365,-1.0182388464557093,0.2908405065536499
1708437867.1398103,-1.108266830444336,-1.6799193821349085,-2.5271483103381556,2.2843374448963623,-1.0182550589190882,0.2908405661582947
1708437867.1417816,-1.108209490776062,-1.6799890003600062,-2.5271032492267054,2.284318132991455,-1.018275562916891,0.29084834456443787
1708437867.1437764,-1.1082022190093994,-1.6799918613829554,-2.5271032492267054,2.284285231227539,-1.0182464758502405,0.2908405661582947
1708437867.1458085,-1.108197808265686,-1.6799808941283167,-2.527088228856222,2.2842652040668945,-1.0182636419879358,0.29089757800102234
1708437867.1477878,-1.1082231998443604,-1.680032869378561,-2.527112070714132,2.2842697340198974,-1.018271271382467,0.2908811569213867
1708437867.1498232,-1.108185887336731,-1.6800323925414027,-2.5270589033709925,2.284266872996948,-1.0182507673846644,0.29087209701538086
1708437867.1517653,-1.108138084411621,-1.6800724468626917,-2.5270751158343714,2.2842177587696533,-1.0182669798480433,0.2908720374107361
1708437867.1537902,-1.1081664562225342,-1.6801096401610316,-2.5270543734179896,2.284230871791504,-1.0182669798480433,0.2909007668495178
1708437867.1557617,-1.1081829071044922,-1.6801454029478968,-2.5270708242999476,2.284230871791504,-1.0182421843158167,0.290921688079834
1708437867.1577685,-1.1081501245498657,-1.6801339588561,-2.527104441319601,2.284279986018799,-1.018259350453512,0.29095450043678284
1708437867.1598423,-1.1081382036209106,-1.6801120243468226,-2.5271032492267054,2.2842342096516113,-1.0181902090655726,0.2909335494041443
1708437867.1618304,-1.1081874370574951,-1.6801649532713832,-2.527120892201559,2.284210367793701,-1.0182388464557093,0.2909409999847412
1708437867.163857,-1.108170986175537,-1.6801725826659144,-2.5270913282977503,2.284223719234131,-1.0182636419879358,0.29098281264305115
1708437867.1658356,-1.1081799268722534,-1.680127283135885,-2.5270589033709925,2.2841903406330566,-1.0182064215289515,0.2909335792064667
1708437867.167831,-1.1081347465515137,-1.6801606617369593,-2.5270662943469446,2.2842444616505126,-1.0182064215289515,0.2909320294857025
1708437867.169842,-1.1081336736679077,-1.6801520786681117,-2.5270469824420374,2.2841784197041015,-1.0182679335223597,0.29097679257392883
1708437867.1718063,-1.108159065246582,-1.6802174053587855,-2.5270500818835657,2.2841664987751464,-1.0182636419879358,0.29097384214401245
1708437867.17382,-1.1081891059875488,-1.6801921329894007,-2.527072016392843,2.2841622072407226,-1.0182388464557093,0.29095131158828735
1708437867.175815,-1.1081047058105469,-1.680216451684469,-2.5270913282977503,2.2841829496571044,-1.018259350453512,0.29100990295410156
1708437867.1778276,-1.108127236366272,-1.6802121601500453,-2.527079407368795,2.2841414648243408,-1.0181987921344202,0.2909677028656006
1708437867.1798613,-1.1081018447875977,-1.680260797540182,-2.5270543734179896,2.2841946321674804,-1.018231217061178,0.290991872549057
1708437867.1818593,-1.1080899238586426,-1.6802369556822718,-2.527104441319601,2.284196062678955,-1.0182073752032679,0.29101723432540894
1708437867.1838236,-1.1081109046936035,-1.6802522144713343,-2.5270469824420374,2.2841383653828125,-1.0181902090655726,0.291029155254364
1708437867.1857808,-1.1081182956695557,-1.6802483997740687,-2.527055565510885,2.2841707903095703,-1.0181945005999964,0.2909873127937317
1708437867.1877928,-1.1081182956695557,-1.6802269421019496,-2.5271077791797083,2.2840980726429443,-1.0181987921344202,0.291057825088501
1708437867.1898098,-1.1080989837646484,-1.6802269421019496,-2.5270469824420374,2.284127874965332,-1.0182235876666468,0.2910712659358978
1708437867.1917853,-1.1081243753433228,-1.6802355251707972,-2.527079407368795,2.284089966411255,-1.018203083668844,0.29106515645980835
1708437867.193785,-1.108061671257019,-1.6802479229369105,-2.5270350615130823,2.2841033178516845,-1.0181945005999964,0.2910726070404053
1708437867.1957724,-1.1080632209777832,-1.6802355251707972,-2.5270913282977503,2.284012957210205,-1.0182159582721155,0.2910696566104889
1708437867.1977568,-1.1080915927886963,-1.680288930932516,-2.5270827452289026,2.2841121393391113,-1.0181954542743128,0.2910471558570862
1708437867.1997585,-1.1080843210220337,-1.6802522144713343,-2.5270751158343714,2.284033699626587,-1.0182321707354944,0.2910696566104889
1708437867.2017639,-1.1080344915390015,-1.6802441082396449,-2.5270751158343714,2.28400103628125,-1.0182116667376917,0.2910635471343994
1708437867.203801,-1.10805082321167,-1.6802479229369105,-2.5270708242999476,2.284039183253906,-1.0181506315814417,0.2911294996738434
1708437867.2057755,-1.1079896688461304,-1.6802078686156214,-2.527079407368795,2.2840513426014404,-1.0181592146502894,0.29108476638793945
1708437867.2077866,-1.1079792976379395,-1.6802641354002894,-2.5270913282977503,2.2839481073566894,-1.018179718648092,0.2911279797554016
1708437867.2097745,-1.107962965965271,-1.6802226505675257,-2.5270500818835657,2.283998652095459,-1.0181267897235315,0.29111605882644653
1708437867.211847,-1.107954978942871,-1.6802922687926234,-2.5270870367633265,2.283991261119507,-1.0181387106524866,0.2911684513092041
1708437867.2138302,-1.1079593896865845,-1.6802436314024867,-2.527079407368795,2.283974810237549,-1.0181549231158655,0.2911399006843567
1708437867.215848,-1.107954978942871,-1.6802269421019496,-2.5270543734179896,2.2839791017719726,-1.0181105772601526,0.29110708832740784
1708437867.2178326,-1.1079175472259521,-1.6802436314024867,-2.5270782152758997,2.2839509683796386,-1.0181644598590296,0.2911967635154724
1708437867.2197862,-1.1078722476959229,-1.6802598438658656,-2.5270381609546106,2.2839597898670654,-1.0181439558612269,0.2911562919616699
1708437867.221801,-1.1078784465789795,-1.680260797540182,-2.527112070714132,2.283946676845215,-1.018151585255758,0.2912103533744812
1708437867.22381,-1.1078569889068604,-1.680272718469137,-2.5270708242999476,2.2839597898670654,-1.0180986563311976,0.2912627160549164
1708437867.2258427,-1.1078613996505737,-1.6802598438658656,-2.5270543734179896,2.2838784891315917,-1.018111530934469,0.2912418246269226
1708437867.2278001,-1.1078749895095825,-1.6802965603270472,-2.5271199385272425,2.283919020290039,-1.0181310812579554,0.29122093319892883
1708437867.2297745,-1.1078705787658691,-1.6803127727904261,-2.527116362248556,2.2838827806660156,-1.0181029478656214,0.29121190309524536
1708437867.2317882,-1.1078705787658691,-1.680275102654928,-2.5270305315600794,2.2838503557392578,-1.0180991331683558,0.29129135608673096
1708437867.2337677,-1.107830286026001,-1.6803165874876917,-2.527033869420187,2.283873959178589,-1.0181029478656214,0.29124021530151367
1708437867.2357821,-1.1078840494155884,-1.6803041897215785,-2.5270705858813685,2.2838517862507324,-1.0181439558612269,0.2912430763244629
1708437867.2377934,-1.1078318357467651,-1.6803490124144496,-2.5270631949054163,2.2838021951862792,-1.018090550099508,0.2912357449531555
1708437867.2397802,-1.107756495475769,-1.6803323231139125,-2.5270913282977503,2.2837814527698974,-1.018090550099508,0.2912598252296448
1708437867.241765,-1.1078139543533325,-1.6802674732603968,-2.527116362248556,2.283757372493408,-1.018090550099508,0.29127466678619385
1708437867.243788,-1.1078064441680908,-1.680352350274557,-2.52706748643984,2.2837750154682617,-1.0181320349322718,0.2913302779197693
1708437867.2457654,-1.1077945232391357,-1.680319448510641,-2.5270424524890345,2.2837588030048828,-1.0181234518634241,0.2912881374359131
1708437867.2477696,-1.107791781425476,-1.6803761921324671,-2.5270469824420374,2.2837795454212646,-1.0181158224688929,0.29131677746772766
1708437867.2497833,-1.1077700853347778,-1.6803966961302699,-2.5270424524890345,2.2837254244038085,-1.0181201140033167,0.29136112332344055
1708437867.251771,-1.1077419519424438,-1.6803556881346644,-2.5270631949054163,2.2836941915699462,-1.0181568304644983,0.29135674238204956
1708437867.2537994,-1.107759952545166,-1.680338521996969,-2.527055565510885,2.2836319643208007,-1.0181158224688929,0.29134032130241394
1708437867.2557733,-1.1076852083206177,-1.6803881130614222,-2.5270915667163294,2.28365866720166,-1.0180748144732874,0.2913927435874939
1708437867.2577817,-1.1077479124069214,-1.6804005108275355,-2.527088228856222,2.283616467113159,-1.0180991331683558,0.29135990142822266
1708437867.2597625,-1.1076725721359253,-1.6803633175291957,-2.5270512739764612,2.2836341100880126,-1.0180991331683558,0.2913927435874939
1708437867.261842,-1.1077123880386353,-1.6804329357542933,-2.5270219484912317,2.283580704326294,-1.0181077162372034,0.29135823249816895
1708437867.2638216,-1.1076998710632324,-1.6803676090636195,-2.5270424524890345,2.2835613924213867,-1.018094841633932,0.29143330454826355
1708437867.2658694,-1.1076550483703613,-1.6804076633849085,-2.5270469824420374,2.2836474615284423,-1.0180876890765589,0.29143616557121277
1708437867.2678318,-1.1076266765594482,-1.680370946923727,-2.5270305315600794,2.283599777812622,-1.0180752913104456,0.2914316654205322
1708437867.2698128,-1.1076267957687378,-1.680422922173971,-2.527083937321798,2.2835540014454345,-1.0180590788470667,0.2913837432861328
1708437867.2717946,-1.107623815536499,-1.6804272137083949,-2.5270305315600794,2.283541365260742,-1.0181120077716272,0.2914692461490631
1708437867.2738178,-1.1075786352157593,-1.6804071865477503,-2.527043883000509,2.2835470873066406,-1.0181120077716272,0.291443794965744
1708437867.2758222,-1.1075621843338013,-1.680488725701803,-2.5270512739764612,2.2834982114979248,-1.0181005636798304,0.2914484143257141
1708437867.2779055,-1.1075502634048462,-1.680422922173971,-2.5270217100726526,2.2835263448902587,-1.018083397542135,0.2915008068084717
1708437867.2797925,-1.107530951499939,-1.680497785607809,-2.527033869420187,2.2834788995930175,-1.0180428663836878,0.29146766662597656
1708437867.2817912,-1.107542872428894,-1.6804138622679652,-2.52706748643984,2.2834624487110595,-1.0180752913104456,0.29146480560302734
1708437867.2837927,-1.107511043548584,-1.6804787121214808,-2.5270913282977503,2.283475800151489,-1.0180342833148401,0.2914631962776184
1708437867.2858179,-1.1074663400650024,-1.6804830036559046,-2.5270262400256556,2.2834231096455078,-1.0181120077716272,0.2915332615375519
1708437867.2877936,-1.1075036525726318,-1.6805197201170863,-2.5270093123065394,2.2833773332783203,-1.0180633703814905,0.29149892926216125
1708437867.2897875,-1.1074305772781372,-1.680495401422018,-2.527072016392843,2.2833828169056396,-1.0180514494525355,0.2915109097957611
1708437867.2917697,-1.1074469089508057,-1.6804939709105433,-2.527079407368795,2.2833828169056396,-1.0180719534503382,0.2914963364601135
1708437867.293785,-1.1074368953704834,-1.6805883846678675,-2.52706748643984,2.2833213049122314,-1.0180352369891565,0.29153943061828613
1708437867.2957716,-1.1074098348617554,-1.680596490899557,-2.52706748643984,2.2833258348652343,-1.018038574849264,0.29150182008743286
1708437867.2977762,-1.1074236631393433,-1.6805883846678675,-2.527100149785177,2.2833480077930908,-1.0180962721454065,0.29154399037361145
1708437867.2997694,-1.1073908805847168,-1.68060364345693,-2.5270870367633265,2.28327385961499,-1.0180795828448694,0.29156774282455444
1708437867.3017762,-1.107353687286377,-1.68060364345693,-2.527026955281393,2.28328721105542,-1.0180471579181116,0.291585773229599
1708437867.303783,-1.1073386669158936,-1.6805836162962855,-2.527029339467184,2.283287926311157,-1.0180514494525355,0.2915799915790558
1708437867.305776,-1.1073024272918701,-1.6805993519225062,-2.5270381609546106,2.2832791048237304,-1.0180633703814905,0.29154977202415466
1708437867.3077683,-1.107352375984192,-1.6805898151793421,-2.5270870367633265,2.2832552629658203,-1.0180795828448694,0.2916008532047272
1708437867.3098094,-1.1073204278945923,-1.6806146107115687,-2.5270870367633265,2.2831856447407226,-1.0180428663836878,0.2915406823158264
1708437867.3118718,-1.1072876453399658,-1.680659910241598,-2.527043883000509,2.283240242595337,-1.0180676619159144,0.2915542423725128
1708437867.3138227,-1.1072876453399658,-1.6806470356383265,-2.527088228856222,2.283247633571289,-1.0180633703814905,0.29157838225364685
1708437867.3158617,-1.1072349548339844,-1.6806184254088343,-2.527039353047506,2.283212109203003,-1.0181120077716272,0.2915918231010437
1708437867.3178155,-1.1072138547897339,-1.6806799374022425,-2.527055565510885,2.283144636745117,-1.0180471579181116,0.2916037440299988
1708437867.3198173,-1.1072245836257935,-1.680695196191305,-2.5270543734179896,2.2831713396259765,-1.0181048552142542,0.29161566495895386
1708437867.3218148,-1.1071664094924927,-1.6806789837279261,-2.527083937321798,2.2831625181385498,-1.0180590788470667,0.29156938195228577
1708437867.3238113,-1.107158899307251,-1.6806746921935023,-2.5270589033709925,2.2831474977680664,-1.0180709997760218,0.2916397452354431
1708437867.3258522,-1.1071664094924927,-1.6806298695006312,-2.527072016392843,2.283106966609619,-1.0180919806109827,0.2916111946105957
1708437867.3278022,-1.1071463823318481,-1.6807195148863734,-2.5270350615130823,2.283115788097046,-1.0180428663836878,0.2916233539581299
1708437867.3298001,-1.1071361303329468,-1.680695196191305,-2.5270350615130823,2.2830869394489746,-1.0180547873126429,0.29160213470458984
1708437867.3317974,-1.107082486152649,-1.680735250512594,-2.5270469824420374,2.2830542761036376,-1.0180752913104456,0.2916143834590912
1708437867.3337998,-1.107121467590332,-1.6806823215880335,-2.5270512739764612,2.283071919078491,-1.0180590788470667,0.2916233539581299
1708437867.3357913,-1.1070749759674072,-1.680739542047018,-2.5270469824420374,2.283027334804199,-1.0180795828448694,0.2916516661643982
1708437867.3377929,-1.1070505380630493,-1.6807223759093226,-2.527055565510885,2.2829910951801757,-1.0180590788470667,0.29166072607040405
1708437867.339788,-1.1070269346237183,-1.6807433567442835,-2.527060095463888,2.282986803645752,-1.0180752913104456,0.2916279733181
1708437867.3418248,-1.1070104837417603,-1.680673738519186,-2.5270913282977503,2.282916947002075,-1.0180752913104456,0.29156944155693054
1708437867.3438144,-1.1070120334625244,-1.6807919941344203,-2.527076307927267,2.2830042082020263,-1.0180709997760218,0.2916143834590912
1708437867.3457928,-1.1070001125335693,-1.680746694604391,-2.5270589033709925,2.282930298442505,-1.0180752913104456,0.29164719581604004
1708437867.3477993,-1.1069382429122925,-1.680730482141012,-2.5270958582507532,2.2829524713703613,-1.0180547873126429,0.2916397452354431
1708437867.3498063,-1.1069101095199585,-1.6807834110655726,-2.5270512739764612,2.282910032863281,-1.0180919806109827,0.29162633419036865
1708437867.351779,-1.1069146394729614,-1.6807953319945277,-2.5270524660693567,2.2828256326862792,-1.0181034247027796,0.2916591167449951
1708437867.3538063,-1.1069111824035645,-1.680746694604391,-2.527088228856222,2.2829083639332275,-1.018066708241598,0.2916892468929291
1708437867.3557928,-1.106878399848938,-1.680746694604391,-2.5270870367633265,2.282895250911377,-1.0180876890765589,0.29165610671043396
1708437867.357796,-1.1068657636642456,-1.6807977161803187,-2.5270500818835657,2.2828685480305175,-1.0181034247027796,0.2916308045387268
1708437867.359777,-1.1068702936172485,-1.6807991466917933,-2.5270350615130823,2.2828218179890136,-1.018094841633932,0.29163527488708496
1708437867.3618598,-1.106863021850586,-1.6807991466917933,-2.5270589033709925,2.2828685480305175,-1.0180919806109827,0.2916545569896698
1708437867.3638034,-1.1068675518035889,-1.6808229885497035,-2.5270631949054163,2.2827862936207275,-1.0180991331683558,0.29167258739471436
1708437867.3658621,-1.1068391799926758,-1.6807662449278773,-2.5270500818835657,2.282791777248047,-1.0181034247027796,0.2916308045387268
1708437867.367833,-1.1068600416183472,-1.6808749637999476,-2.5270631949054163,2.2827624517628173,-1.0181449095355433,0.2916397452354431
1708437867.3698096,-1.1068437099456787,-1.6808468304076136,-2.5270946661578577,2.282799406642578,-1.0181320349322718,0.2916053831577301
1708437867.3717997,-1.1067781448364258,-1.6808468304076136,-2.5270708242999476,2.282783194179199,-1.0181034247027796,0.2916680574417114
1708437867.3738165,-1.106812596321106,-1.6808544598021449,-2.5270708242999476,2.2827843862720947,-1.018083397542135,0.2916918992996216
1708437867.3758337,-1.1068006753921509,-1.6808792553343714,-2.527100149785177,2.282684488887451,-1.0180991331683558,0.2916427254676819
1708437867.3778622,-1.106767177581787,-1.6808587513365687,-2.527017418538229,2.2827650743671875,-1.018111530934469,0.2915976941585541
1708437867.3798122,-1.106726884841919,-1.6808415851988734,-2.5270708242999476,2.2827274042316894,-1.0181029478656214,0.2916516661643982
1708437867.3818343,-1.1067806482315063,-1.6808339558043421,-2.5270662943469446,2.2827650743671875,-1.018155876790182,0.2916713058948517
1708437867.3838437,-1.1067030429840088,-1.6808620891966761,-2.5270989576922815,2.2826976019093017,-1.0181148687945765,0.2916591167449951
1708437867.3858123,-1.1066814661026,-1.68089022258901,-2.5270958582507532,2.2827393251606445,-1.0181029478656214,0.2916591167449951
1708437867.3878367,-1.1066832542419434,-1.680911203423971,-2.527140442525045,2.2826992708393554,-1.0181310812579554,0.29163816571235657
1708437867.3897982,-1.1066951751708984,-1.680955549279684,-2.5270913282977503,2.2826873499104003,-1.0181344191180628,0.29161888360977173
1708437867.3917954,-1.1066877841949463,-1.6808816395201625,-2.5270631949054163,2.282695932979248,-1.018179718648092,0.2916758358478546
1708437867.3938756,-1.1066594123840332,-1.680967470208639,-2.5270543734179896,2.282637520427368,-1.0181539694415491,0.2916651666164398
1708437867.3958127,-1.1066594123840332,-1.680978914300436,-2.5270631949054163,2.282625599498413,-1.0181711355792444,0.2916545569896698
1708437867.3977892,-1.1065982580184937,-1.6809545956053675,-2.5271287600146692,2.282679720515869,-1.0181754271136683,0.29164719581604004
1708437867.3997781,-1.1066327095031738,-1.6809989414610804,-2.5270913282977503,2.2826434808918457,-1.018170181904928,0.2916337847709656
1708437867.4017854,-1.10660719871521,-1.6809703312315882,-2.527112070714132,2.282618208522461,-1.018191162739889,0.29166358709335327
1708437867.403793,-1.1065993309020996,-1.6809574566283167,-2.5270827452289026,2.282622738475464,-1.0182269255267542,0.29166069626808167
1708437867.4058802,-1.1066038608551025,-1.681007524529928,-2.5270827452289026,2.282600088710449,-1.0181954542743128,0.2916144132614136
1708437867.4077861,-1.1065635681152344,-1.6809827289977015,-2.5270662943469446,2.2825824457355957,-1.018203083668844,0.2916545569896698
1708437867.4097943,-1.1065800189971924,-1.6810227833189906,-2.5270662943469446,2.2826034265705566,-1.018247429524557,0.29168733954429626
1708437867.4118483,-1.1065500974655151,-1.681014200250143,-2.527090136204855,2.2825631338306884,-1.018247429524557,0.29166358709335327
1708437867.4137938,-1.10651433467865,-1.6809283695616664,-2.5271242300616663,2.2826031881519775,-1.0182550589190882,0.29164719581604004
1708437867.4158008,-1.1065188646316528,-1.680997987786764,-2.5271111170398157,2.2825676637836914,-1.018275562916891,0.2916591167449951
1708437867.4178016,-1.1065516471862793,-1.6809903583922328,-2.527079407368795,2.2825638490864257,-1.018259350453512,0.29162177443504333
1708437867.4198136,-1.1065199375152588,-1.68096985439443,-2.527106825505392,2.2825416761585693,-1.0182626883136194,0.29166358709335327
1708437867.4218042,-1.1064796447753906,-1.6810513935484828,-2.527090136204855,2.282529755229614,-1.0182836691485804,0.2916427254676819
1708437867.4238288,-1.1064989566802979,-1.6810432873167933,-2.527062002812521,2.2825237947651367,-1.0182793776141565,0.29162177443504333
1708437867.425885,-1.106449842453003,-1.681014200250143,-2.5270870367633265,2.2825400072285156,-1.0183160940753382,0.29163816571235657
1708437867.4278493,-1.1064796447753906,-1.681042810479635,-2.5271111170398157,2.2824792104908447,-1.0183118025409144,0.2917172312736511
1708437867.4298072,-1.1064707040786743,-1.681026121179098,-2.5271602312671106,2.2824622827717285,-1.0182626883136194,0.2916680574417114
1708437867.4317737,-1.1064512729644775,-1.6810184917845667,-2.5271318594561976,2.2824792104908447,-1.0182908217059534,0.2916725277900696
1708437867.4338174,-1.1064393520355225,-1.6810385189452113,-2.5271602312671106,2.2824792104908447,-1.0183232466327112,0.29164719581604004
1708437867.4357834,-1.106451392173767,-1.6810385189452113,-2.527135197316305,2.282480164165161,-1.0183399359332483,0.2916397452354431
1708437867.4377737,-1.1064457893371582,-1.6810218296446742,-2.5271602312671106,2.282513304347656,-1.0182822386371058,0.2916099429130554
1708437867.4397502,-1.1064274311065674,-1.6810056171812953,-2.5271382967578333,2.282463713283203,-1.0183876196490687,0.2916066348552704
1708437867.44179,-1.1063814163208008,-1.6810218296446742,-2.5271547476397913,2.2824932771870117,-1.0183466116534632,0.2916725277900696
1708437867.443836,-1.1063997745513916,-1.681087156335348,-2.527224842702047,2.282451792354248,-1.0183303991900843,0.29164719581604004
1708437867.4457977,-1.1064026355743408,-1.6810513935484828,-2.5272191206561487,2.282447262401245,-1.0183833281146448,0.29162633419036865
1708437867.4477792,-1.1063952445983887,-1.6810175381102503,-2.527170006428854,2.282419129008911,-1.0183466116534632,0.2916758358478546
1708437867.4497745,-1.106404185295105,-1.681075235406393,-2.5272441546069544,2.282456083888672,-1.018400017415182,0.29163527488708496
1708437867.4517996,-1.1063952445983887,-1.6810013256468714,-2.5272191206561487,2.2824205595203857,-1.0183098951922815,0.2916427254676819
1708437867.4538043,-1.1063340902328491,-1.6810385189452113,-2.5272517840014856,2.2824770647236328,-1.0183184782611292,0.2916053831577301
1708437867.4557714,-1.1063714027404785,-1.6810904941954554,-2.527250353490011,2.2824296194263916,-1.018350903187887,0.29163527488708496
1708437867.4577901,-1.106338620185852,-1.6810170612730921,-2.5272517840014856,2.2824384409138183,-1.018362824116842,0.29169636964797974
1708437867.4598105,-1.1063522100448608,-1.6810132465758265,-2.5272637049304407,2.2823871809193115,-1.0183141867267054,0.2916591167449951
1708437867.4619157,-1.1063259840011597,-1.6810342274107875,-2.527254883443014,2.2823871809193115,-1.018362824116842,0.2916591167449951
1708437867.4638333,-1.1063188314437866,-1.681115289727682,-2.527238670979635,2.2823421198078613,-1.018350903187887,0.2916427254676819
1708437867.465857,-1.1063321828842163,-1.6810742817320765,-2.527238670979635,2.2823304372974853,-1.0183270613299769,0.29164719581604004
1708437867.4678776,-1.1062904596328735,-1.6810013256468714,-2.5272637049304407,2.2823523718067626,-1.0183303991900843,0.29168030619621277
1708437867.4697902,-1.106306791305542,-1.6810742817320765,-2.527259174977438,2.282339020366333,-1.0183704535113733,0.29162633419036865
1708437867.4717786,-1.106306791305542,-1.681131502191061,-2.527259174977438,2.2823685842701416,-1.0183833281146448,0.29163527488708496
1708437867.4738047,-1.1063441038131714,-1.6810623608031214,-2.527254883443014,2.282261295909546,-1.018423859273092,0.2916784882545471
1708437867.4758143,-1.1062620878219604,-1.6810785732665003,-2.527222220097677,2.282322807902954,-1.0184157530414026,0.29164719581604004
1708437867.477866,-1.1063038110733032,-1.6811229191222132,-2.527250353490011,2.2823731142231445,-1.0183542410479944,0.2916308045387268
1708437867.479846,-1.106329321861267,-1.6810938320555628,-2.527254883443014,2.282331629390381,-1.0183857123004358,0.2916680574417114
1708437867.4818385,-1.1062874794006348,-1.6811186275877894,-2.52722675005068,2.2823569017597656,-1.0184109846698206,0.2915932238101959
1708437867.4838023,-1.1062546968460083,-1.6811143360533656,-2.527250353490011,2.2823239999958496,-1.0183942953692835,0.2916545569896698
1708437867.4857993,-1.1062920093536377,-1.6811100445189417,-2.527231041585104,2.282310886973999,-1.0184066931353968,0.2917172908782959
1708437867.487807,-1.1063039302825928,-1.6811143360533656,-2.527234141026632,2.282298966045044,-1.0184109846698206,0.2916545569896698
1708437867.4898202,-1.1062666177749634,-1.681105752984518,-2.5272637049304407,2.2823983865925292,-1.0184348265277308,0.2916427254676819
1708437867.491802,-1.1062592267990112,-1.6811138592162074,-2.527214829121725,2.2822913366505126,-1.0183938185321253,0.29167255759239197
1708437867.4938204,-1.1062302589416504,-1.6811267338194789,-2.527222220097677,2.282287760371826,-1.0184391180621546,0.2916918992996216
1708437867.4958172,-1.1062755584716797,-1.681129594842428,-2.527222220097677,2.2823077875324707,-1.018402401600973,0.2917381823062897
1708437867.4978297,-1.1062636375427246,-1.681133886376852,-2.527242962514059,2.2823447424122314,-1.0184109846698206,0.2917083203792572
1708437867.4997983,-1.1062517166137695,-1.6811381779112757,-2.5272849241839808,2.2823049265095214,-1.0183981100665491,0.2916712760925293
1708437867.5018122,-1.10627281665802,-1.6811419926085414,-2.527238670979635,2.282271547908447,-1.0184152762042444,0.29168736934661865
1708437867.5038092,-1.1062591075897217,-1.6811377010741175,-2.527222220097677,2.2822462755390625,-1.018374268208639,0.29172801971435547
1708437867.5057964,-1.1062138080596924,-1.681166788140768,-2.527288023625509,2.2823092180439453,-1.0184066931353968,0.29172804951667786
1708437867.5078003,-1.1062482595443726,-1.6811744175352992,-2.5272353331195276,2.282271547908447,-1.0183900038348597,0.29169774055480957
1708437867.5097923,-1.1062182188034058,-1.6811582050719203,-2.527242962514059,2.282247706050537,-1.0184443632708948,0.29172638058662415
1708437867.5118413,-1.106260895729065,-1.6811992130675257,-2.527222220097677,2.2822181421467285,-1.018402401600973,0.291766881942749
1708437867.5138137,-1.1062527894973755,-1.6811582050719203,-2.527206007634298,2.28222839414563,-1.0184434095965784,0.29174280166625977
1708437867.5158365,-1.1061900854110718,-1.6811453304686488,-2.527254883443014,2.282256527537964,-1.0184477011310022,0.2917788326740265
1708437867.517856,-1.1062228679656982,-1.6811701260008753,-2.527259174977438,2.2822107511707763,-1.0184229055987757,0.29184481501579285
1708437867.5197983,-1.1061961650848389,-1.6811777553954066,-2.527231041585104,2.282203121776245,-1.0184109846698206,0.2918402850627899
1708437867.5217974,-1.106203556060791,-1.6811853847899378,-2.527247492467062,2.282174273128174,-1.0184477011310022,0.29186689853668213
1708437867.5238028,-1.1061707735061646,-1.6811896763243617,-2.5272398630725306,2.282174273128174,-1.0183981100665491,0.2919403314590454
1708437867.5258324,-1.1062124967575073,-1.681162496606344,-2.527242962514059,2.282256527537964,-1.0184271971331995,0.2918863296508789
1708437867.5278573,-1.106199026107788,-1.6811658344664515,-2.5272353331195276,2.2821430402943115,-1.0184271971331995,0.2919132113456726
1708437867.529835,-1.1062124967575073,-1.6811453304686488,-2.527259174977438,2.2822040754505615,-1.0184596220599573,0.2919255495071411
1708437867.531813,-1.1061372756958008,-1.6811777553954066,-2.527226511632101,2.2821473318287353,-1.0184391180621546,0.29200342297554016
1708437867.5337899,-1.1061769723892212,-1.6811982593932093,-2.5272725264178675,2.282179995174072,-1.0184357802020472,0.29203033447265625
1708437867.5358233,-1.1061677932739258,-1.681202074090475,-2.5272722879992884,2.282118006343506,-1.0184109846698206,0.2921123206615448
1708437867.5377698,-1.1061677932739258,-1.6811725101866664,-2.52720290819277,2.28217260419812,-1.0184028784381312,0.2921154201030731
1708437867.5397854,-1.1061632633209229,-1.6811615429320277,-2.5272603670703333,2.2821518617817382,-1.0184109846698206,0.29210636019706726
1708437867.5418272,-1.1061677932739258,-1.681169172326559,-2.527231041585104,2.282168074245117,-1.0184195677386683,0.29217106103897095
1708437867.5438256,-1.1062052249908447,-1.6811572513976039,-2.52720290819277,2.2821356493183593,-1.0183661619769495,0.29220667481422424
1708437867.5457895,-1.1061553955078125,-1.6812674007811488,-2.5272353331195276,2.28214876234021,-1.0183618704425257,0.2922378182411194
1708437867.5478232,-1.1061724424362183,-1.6811863384642542,-2.5272234121905726,2.28209034978833,-1.0184443632708948,0.2922587990760803
1708437867.5497978,-1.1061389446258545,-1.6811896763243617,-2.5272722879992884,2.282132549876831,-1.018423859273092,0.29226943850517273
1708437867.551801,-1.1061315536499023,-1.6811114750304164,-2.527231041585104,2.282111807460449,-1.0183704535113733,0.292320191860199
1708437867.5538208,-1.1061270236968994,-1.6811453304686488,-2.527231041585104,2.282094641322754,-1.0183542410479944,0.29239070415496826
1708437867.5558057,-1.106110692024231,-1.6811777553954066,-2.527198378239767,2.282094641322754,-1.0183661619769495,0.29241737723350525
1708437867.557836,-1.1060987710952759,-1.6812178097166957,-2.5272603670703333,2.2821168142506103,-1.0183942953692835,0.29247888922691345
1708437867.5597854,-1.1061031818389893,-1.681181093255514,-2.5271742979632776,2.282025023097656,-1.0184028784381312,0.29248178005218506
1708437867.561918,-1.1061524152755737,-1.6812006435790003,-2.5272234121905726,2.282111807460449,-1.0183380285846155,0.29255834221839905
1708437867.5638545,-1.1061151027679443,-1.6812459431090296,-2.527231041585104,2.2821006017872314,-1.018362824116842,0.2926059365272522
1708437867.5658627,-1.1061331033706665,-1.6812502346434535,-2.5271909872638147,2.2820471960255126,-1.018362824116842,0.29262232780456543
1708437867.5678782,-1.106079339981079,-1.681254049340719,-2.5271788279162806,2.2820679384418945,-1.0183585325824183,0.2926568388938904
1708437867.569867,-1.1060749292373657,-1.6812416515746058,-2.5272191206561487,2.2820471960255126,-1.018362824116842,0.2927587330341339
1708437867.5718179,-1.10610032081604,-1.681258340875143,-2.5272234121905726,2.282147093410156,-1.0183585325824183,0.2927720546722412
1708437867.5738435,-1.1060824394226074,-1.6812173328795375,-2.5271995703326624,2.2820517259785156,-1.018334690724508,0.29280954599380493
1708437867.575844,-1.1060659885406494,-1.6812831364073695,-2.527182165776388,2.2820517259785156,-1.018334690724508,0.292917400598526
1708437867.577857,-1.106095790863037,-1.681258340875143,-2.5272160212146204,2.2820352750965576,-1.0183594862567347,0.29296043515205383
1708437867.579848,-1.1061077117919922,-1.6812459431090296,-2.527170006428854,2.2820188242145996,-1.0183551947223108,0.29305794835090637
1708437867.581847,-1.10610032081604,-1.6812907658019007,-2.5271952787982386,2.282069368953369,-1.0183475653277796,0.29312101006507874
1708437867.5838797,-1.1061404943466187,-1.6812416515746058,-2.5271621386157435,2.282048388118408,-1.018322769795553,0.2932508885860443
1708437867.5858314,-1.1061122417449951,-1.6812907658019007,-2.5271995703326624,2.282019777888916,-1.0183475653277796,0.29325559735298157
1708437867.5878026,-1.1060630083084106,-1.681282182733053,-2.5271831194507044,2.282081051463745,-1.0182989279376429,0.2933884561061859
1708437867.5898058,-1.106024980545044,-1.6812788448729457,-2.5271547476397913,2.2820276457020263,-1.0183146635638636,0.2934395968914032
1708437867.5918229,-1.1060459613800049,-1.681282182733053,-2.5271547476397913,2.281994505519531,-1.0183146635638636,0.2935679852962494
1708437867.593796,-1.10610032081604,-1.6812859974303187,-2.5271785894977015,2.281987114543579,-1.0183399359332483,0.2936146557331085
1708437867.5957851,-1.1060503721237183,-1.681303163568014,-2.5271459261523646,2.282069368953369,-1.0183075110064905,0.29378795623779297
1708437867.5977829,-1.1060974597930908,-1.6812735996642054,-2.5271382967578333,2.282007856959961,-1.0182669798480433,0.2938433587551117
1708437867.5997748,-1.106083869934082,-1.6812368832030238,-2.5271874109851282,2.281978054637573,-1.018299404774801,0.29393473267555237
1708437867.6017766,-1.1060900688171387,-1.6812659702696742,-2.5271621386157435,2.282019777888916,-1.0183160940753382,0.2940216362476349
1708437867.6037736,-1.1059775352478027,-1.6812778911986292,-2.5271578470813196,2.2820002275654296,-1.0182879606830042,0.2941785752773285
1708437867.6057768,-1.1060011386871338,-1.6812240085997523,-2.52717096010317,2.2820331293293457,-1.0182302633868616,0.2943265736103058
1708437867.6077867,-1.10606849193573,-1.6813060245909632,-2.527142588292257,2.281991644496582,-1.0182107130633753,0.2944552004337311
1708437867.609777,-1.1060640811920166,-1.681314607659811,-2.52717096010317,2.281914396876953,-1.0181825796710413,0.2945675253868103
1708437867.6118407,-1.106002926826477,-1.6812693081297816,-2.5271666685687464,2.281967802638672,-1.018203083668844,0.2946990430355072
1708437867.6138577,-1.1060267686843872,-1.6812988720335902,-2.527159039174215,2.2819689947315673,-1.018170181904928,0.2948007583618164
1708437867.6158035,-1.105986475944519,-1.6812931499876917,-2.527179781590597,2.2819809156605224,-1.0181625525103968,0.2949654757976532
1708437867.6178653,-1.105991005897522,-1.6813222370543421,-2.527200762425558,2.2819601732441406,-1.0181344191180628,0.29514217376708984
1708437867.6198022,-1.1060192584991455,-1.6813188991942347,-2.5271220842944544,2.2819525438496093,-1.0181711355792444,0.2952856421470642
1708437867.6217916,-1.1059999465942383,-1.681326528588766,-2.527130905781881,2.2819077211567382,-1.01809007326235,0.2954680621623993
1708437867.6237988,-1.1060402393341064,-1.6813255749144496,-2.5271111170398157,2.281912012691162,-1.0181720892535608,0.29559966921806335
1708437867.6258104,-1.1060073375701904,-1.6813179455199183,-2.527069393788473,2.2818421560474853,-1.0180986563311976,0.2957597076892853
1708437867.6278937,-1.1060255765914917,-1.681359430352682,-2.5270989576922815,2.281883879298828,-1.0181029478656214,0.295988529920578
1708437867.629817,-1.1060044765472412,-1.6813179455199183,-2.5270381609546106,2.281912012691162,-1.0181635061847132,0.2960529923439026
1708437867.6317914,-1.1059880256652832,-1.681277414361471,-2.527083937321798,2.2819089132496337,-1.0181472937213343,0.29629966616630554
1708437867.633807,-1.106013536453247,-1.6813093624510707,-2.5270589033709925,2.2819253641315917,-1.018155876790182,0.29648709297180176
1708437867.635864,-1.1059972047805786,-1.6813050709166468,-2.52702242532839,2.281900091762207,-1.0181191603290003,0.29669493436813354
1708437867.6377933,-1.1059709787368774,-1.6813298664488734,-2.5270350615130823,2.281862898463867,-1.0181439558612269,0.29685643315315247
1708437867.6398125,-1.1059880256652832,-1.681300779382223,-2.527043883000509,2.281879349345825,-1.0181310812579554,0.29709580540657043
1708437867.6417897,-1.1059836149215698,-1.681312700311178,-2.527072016392843,2.281874819392822,-1.0181353727923792,0.29729655385017395
1708437867.6438627,-1.1059545278549194,-1.6813579998412074,-2.5270631949054163,2.281871958369873,-1.0181234518634241,0.29751190543174744
1708437867.64577,-1.105959177017212,-1.681316991845602,-2.527039353047506,2.281862898463867,-1.018094841633932,0.2978052794933319
1708437867.6477914,-1.1059517860412598,-1.6813136539854945,-2.5270350615130823,2.281871958369873,-1.0180991331683558,0.29798319935798645
