Eg3-git/Classifiers/Data Collection/u6/u6cir3_ur3e_joint_states.csv
time,elbow_joint,shoulder_lift_joint,shoulder_pan_joint,wrist_1_joint,wrist_2_joint,wrist_3_joint
1708438044.082729,-1.1229901313781738,-1.6723762951292933,-2.523900334035055,2.2983452516743164,-1.0120943228351038,0.20343813300132751
1708438044.0847456,-1.1229407787322998,-1.672281404534811,-2.5238152186023157,2.298327847118042,-1.012085262929098,0.2034127116203308
1708438044.0867395,-1.1229127645492554,-1.67236389736318,-2.5238850752459925,2.2983781534382324,-1.0121505896197718,0.20346221327781677
1708438044.0887308,-1.1229289770126343,-1.6723805866637171,-2.5238762537585657,2.298337860698364,-1.0121148268329065,0.2034531980752945
1708438044.0907204,-1.1229333877563477,-1.6723720035948695,-2.5238762537585657,2.2983409601398925,-1.0120986143695276,0.2034037709236145
1708438044.09274,-1.1229257583618164,-1.6723596058287562,-2.523802105580465,2.2982842165180664,-1.0121434370623987,0.2034127116203308
1708438044.0947313,-1.122893214225769,-1.6723762951292933,-2.523888651524679,2.2983333307453613,-1.0121477285968226,0.20342910289764404
1708438044.096738,-1.1229019165039062,-1.672351976434225,-2.5238359610186976,2.29830185949292,-1.0120895544635218,0.20345327258110046
1708438044.098739,-1.1229225397109985,-1.6723762951292933,-2.5238640944110315,2.298285647029541,-1.0121267477618616,0.20342466235160828
1708438044.1007333,-1.1229106187820435,-1.6723033390440882,-2.5238798300372522,2.2982613283344726,-1.012172047291891,0.2034246325492859
1708438044.1027207,-1.1228857040405273,-1.672392030755514,-2.523839060460226,2.2982122141071777,-1.0121148268329065,0.203444242477417
1708438044.1047752,-1.122894287109375,-1.6722942791380824,-2.5238598028766077,2.2982167440601806,-1.0121076742755335,0.20348605513572693
1708438044.10676,-1.122898817062378,-1.6723877392210902,-2.5238762537585657,2.2982048231312255,-1.0121386686908167,0.20343530178070068
1708438044.1087625,-1.1228868961334229,-1.6723553142943324,-2.523884121571676,2.2981676298328857,-1.0121267477618616,0.20348158478736877
1708438044.1107566,-1.122849464416504,-1.6723228893675746,-2.523827139531271,2.2981480795093994,-1.0121105352984827,0.20349335670471191
1708438044.1127176,-1.122833251953125,-1.6724044285216273,-2.523843590413229,2.2982310491749267,-1.012118164693014,0.203484445810318
1708438044.1147223,-1.1228256225585938,-1.6723762951292933,-2.523827139531271,2.2981480795093994,-1.0121148268329065,0.2034488022327423
1708438044.1167278,-1.1228505373001099,-1.672413011590475,-2.5238807837115687,2.2981981474110107,-1.0121315161334437,0.2034725546836853
1708438044.1187465,-1.1227941513061523,-1.672314306298727,-2.5238972345935267,2.2981578546711425,-1.0121029059039515,0.20347702503204346
1708438044.1207342,-1.1227567195892334,-1.6723391018309535,-2.5239091555224817,2.2981700140186767,-1.012118164693014,0.20345617830753326
1708438044.1227365,-1.1227329969406128,-1.6723720035948695,-2.523827139531271,2.2980848985859375,-1.0121434370623987,0.20348449051380157
1708438044.1247542,-1.1227372884750366,-1.6724239788451136,-2.523871962224142,2.2981414037891845,-1.0121315161334437,0.20346811413764954
1708438044.1267216,-1.1227548122406006,-1.672359128991598,-2.523863140736715,2.298048897380493,-1.012113396321432,0.20346808433532715
1708438044.1287324,-1.122689127922058,-1.672403474847311,-2.523888651524679,2.298077030772827,-1.012118164693014,0.20351314544677734
1708438044.130761,-1.122627854347229,-1.6724111042418421,-2.5238807837115687,2.2980009752460937,-1.0121434370623987,0.20344263315200806
1708438044.1327393,-1.1226822137832642,-1.6723948917784632,-2.523843590413229,2.2980052667805175,-1.012130085621969,0.20347097516059875
1708438044.134748,-1.1226863861083984,-1.6724821529784144,-2.5238884131061,2.2979723650166015,-1.0121105352984827,0.20345018804073334
1708438044.1367626,-1.1226333379745483,-1.6724025211729945,-2.523850981389181,2.297961397761963,-1.0121386686908167,0.20349960029125214
1708438044.1387446,-1.1226184368133545,-1.6724473438658656,-2.523884121571676,2.29794089376416,-1.0121343771563929,0.2035115510225296
1708438044.140728,-1.1226145029067993,-1.672438760797018,-2.5238521734820765,2.297908230418823,-1.012146298085348,0.20352786779403687
1708438044.142708,-1.1226102113723755,-1.6724502048888148,-2.523846689854757,2.2978731828876953,-1.012109104787008,0.20355810225009918
1708438044.1447449,-1.1225852966308594,-1.6724912128844203,-2.5238762537585657,2.2978078561970214,-1.0121586958514612,0.20352338254451752
1708438044.1467574,-1.1225625276565552,-1.6725036106505335,-2.523871962224142,2.2978295522877197,-1.0121343771563929,0.2035803645849228
1708438044.1487143,-1.122473120689392,-1.6725880108275355,-2.5238598028766077,2.2977935510822753,-1.012174431477682,0.20354747772216797
1708438044.1507392,-1.1224656105041504,-1.6725512943663539,-2.5238261858569544,2.2977163034626464,-1.012200180684225,0.20355652272701263
1708438044.1527224,-1.1224828958511353,-1.6725794277586878,-2.523892943059103,2.2976955610462646,-1.012179199849264,0.20354755222797394
1708438044.1547341,-1.1223881244659424,-1.672636171380514,-2.5238884131061,2.297664089793823,-1.0121544043170374,0.20354753732681274
1708438044.1567369,-1.1224085092544556,-1.6726528606810511,-2.5238807837115687,2.297722740764282,-1.01221210161318,0.20355944335460663
1708438044.1587632,-1.1223936080932617,-1.6726395092406214,-2.523830238972799,2.2976531225391845,-1.0121944586383265,0.20355036854743958
1708438044.1607718,-1.1223535537719727,-1.6726676426329554,-2.523846689854757,2.2976290422626953,-1.0122106711017054,0.20361170172691345
1708438044.1627536,-1.122354507446289,-1.6726390324034632,-2.523806635533468,2.297625704402588,-1.0122392813311976,0.20361346006393433
1708438044.1647203,-1.1222933530807495,-1.6727234325804652,-2.5238762537585657,2.29755608617749,-1.0122421423541468,0.20361347496509552
1708438044.1667423,-1.1222577095031738,-1.672711034814352,-2.5238884131061,2.297581120128296,-1.0122631231891077,0.20360441505908966
1708438044.16875,-1.1222575902938843,-1.6727472744383753,-2.5238798300372522,2.297562523479126,-1.012245003377096,0.20361164212226868
1708438044.1707351,-1.1222295761108398,-1.672779222527975,-2.5238884131061,2.2975374895283203,-1.0122063795672815,0.20365209877490997
1708438044.1727145,-1.1221818923950195,-1.672835489312643,-2.523904863988058,2.2974602419086914,-1.0122583548175257,0.20366112887859344
1708438044.174729,-1.1221294403076172,-1.672863622704977,-2.523916784917013,2.297452374095581,-1.0122540632831019,0.20365208387374878
1708438044.1767242,-1.1221011877059937,-1.6728507481017054,-2.523928705845968,2.2974087434956054,-1.0122540632831019,0.20367170870304108
1708438044.1787417,-1.1220817565917969,-1.6728984318175257,-2.523850981389181,2.2974349695393066,-1.012249771748678,0.20366400480270386
1708438044.1807678,-1.1220247745513916,-1.6729065380492152,-2.523900334035055,2.2974023061939697,-1.012275520955221,0.2036340832710266
1708438044.182745,-1.1220216751098633,-1.6729098759093226,-2.523850981389181,2.2973708349415283,-1.0122650305377405,0.2036459892988205
1708438044.1847234,-1.1219701766967773,-1.6729580364623011,-2.52393609682192,2.2972888189503173,-1.0122903029071253,0.2037375569343567
1708438044.186759,-1.1218888759613037,-1.673046728173727,-2.523867670689718,2.2972768980213623,-1.0122812430011194,0.20367908477783203
1708438044.1887398,-1.1218819618225098,-1.6730381451048792,-2.523916784917013,2.2972213464924316,-1.0123170057879847,0.2037196159362793
1708438044.190728,-1.1218332052230835,-1.673086782495016,-2.523900334035055,2.297135038966797,-1.0123637358294886,0.20365670323371887
1708438044.192745,-1.1217609643936157,-1.673098703423971,-2.523904863988058,2.297161503429077,-1.0123503843890589,0.20376431941986084
1708438044.1947284,-1.1217247247695923,-1.6731435261168421,-2.52391225496401,2.2971255022236328,-1.0123336950885218,0.20380032062530518
1708438044.1967375,-1.1217260360717773,-1.673122068444723,-2.5238829294787806,2.297102614040039,-1.0123785177813929,0.20379585027694702
1708438044.1987298,-1.1216334104537964,-1.6731697521605433,-2.523890558873312,2.296996756190918,-1.012414280568258,0.20377656817436218
1708438044.2007403,-1.1216182708740234,-1.6732107601561488,-2.52393609682192,2.296984835261963,-1.0124500433551233,0.20381255447864532
1708438044.20276,-1.1215505599975586,-1.6732341251769007,-2.5239318052874964,2.2968920904346923,-1.012383286152975,0.20378682017326355
1708438044.2047355,-1.121477484703064,-1.6732861004271449,-2.5239396731006067,2.2968811231800537,-1.0124262014972132,0.20383185148239136
1708438044.2067752,-1.121446132659912,-1.6732984981932582,-2.523897949849264,2.2968122202106933,-1.0124500433551233,0.2038363665342331
1708438044.2087607,-1.1214065551757812,-1.6732679806151332,-2.5239725748645228,2.296707792873047,-1.0124953428851526,0.20383474230766296
1708438044.2107363,-1.1212890148162842,-1.673378129998678,-2.523987595235006,2.2967533308216552,-1.012453858052389,0.20385146141052246
1708438044.2127774,-1.1212587356567383,-1.673361440698141,-2.5240007082568567,2.2966665464588623,-1.012505833302633,0.20387977361679077
1708438044.214755,-1.121208667755127,-1.6734091244139613,-2.523987595235006,2.2965356546589355,-1.012533966694967,0.20392480492591858
1708438044.2167702,-1.121145486831665,-1.6734243832030238,-2.5240116755114954,2.2964958387562255,-1.0125177542315882,0.20391133427619934
1708438044.21874,-1.1210366487503052,-1.6734940014281214,-2.524024788533346,2.296477957362793,-1.0125535170184534,0.20387372374534607
1708438044.2207603,-1.1210227012634277,-1.6734725437560023,-2.524036709462301,2.2964164453693847,-1.012571159993307,0.20399358868598938
1708438044.2227676,-1.120950698852539,-1.6735254726805628,-2.5240607897387903,2.296325131053589,-1.0125749746905726,0.20398008823394775
1708438044.2247696,-1.1208775043487549,-1.6735855541624964,-2.5240312258349817,2.2962519365498046,-1.0125983397113245,0.2039473056793213
1708438044.226749,-1.1207984685897827,-1.673532625237936,-2.5240562597857874,2.2961603838154296,-1.0126178900348108,0.2039518654346466
1708438044.2287517,-1.1207261085510254,-1.6736661396422328,-2.5240801016436976,2.296088381404541,-1.012613598500387,0.20400840044021606
1708438044.2307427,-1.120604157447815,-1.6736651859679164,-2.5240920225726526,2.2960526186176757,-1.012629810963766,0.2039458155632019
1708438044.2327619,-1.1205852031707764,-1.6736818752684535,-2.524120871220724,2.2959655958363037,-1.0126655737506312,0.20403555035591125
1708438044.2347276,-1.120477557182312,-1.6737548313536585,-2.5241077581988733,2.2958404260822753,-1.012672249470846,0.2040519416332245
1708438044.236747,-1.1203924417495728,-1.6737977466978968,-2.524116341267721,2.2957469659992675,-1.0127137343036097,0.20399630069732666
1708438044.2387292,-1.120345950126648,-1.6737891636290492,-2.5241358915912073,2.2957495886036376,-1.0127666632281702,0.20409241318702698
1708438044.240729,-1.1202988624572754,-1.6738091907896937,-2.524172846470968,2.2956744867512207,-1.0128024260150355,0.20409083366394043
1708438044.2427626,-1.1201938390731812,-1.6738935909666957,-2.5241640249835413,2.295618696803711,-1.0128095785724085,0.2041236162185669
1708438044.244736,-1.1201249361038208,-1.6738807163634242,-2.524130407963888,2.2954611021229248,-1.0128172079669397,0.204143226146698
1708438044.2467647,-1.1200542449951172,-1.673936506310934,-2.5242047945605677,2.2954303461262207,-1.0128009955035608,0.20411011576652527
1708438044.2487335,-1.1199827194213867,-1.673964639703268,-2.52423602739443,2.2953669267841796,-1.0128830114947718,0.20417633652687073
1708438044.250757,-1.1198450326919556,-1.6739965877928675,-2.52423602739443,2.295278711909912,-1.012831989918844,0.2041371762752533
1708438044.2527504,-1.119756817817688,-1.6740809879698695,-2.524248186741964,2.295219584102295,-1.012946907673971,0.20420017838478088
1708438044.2547383,-1.1197059154510498,-1.6741048298277796,-2.5242601076709192,2.2950448232838134,-1.0129054228412073,0.2041822075843811
1708438044.2567587,-1.1195646524429321,-1.674190183679098,-2.524341885243551,2.295001192683838,-1.0129340330706995,0.20428121089935303
1708438044.2587335,-1.1195257902145386,-1.6741725407042445,-2.524271313344137,2.294844790095947,-1.0129740873919886,0.20426324009895325
1708438044.2607448,-1.1194548606872559,-1.6742407284178675,-2.5242961088763636,2.294790192241333,-1.0129411856280726,0.2042960226535797
1708438044.2627153,-1.1192889213562012,-1.6742860279478968,-2.524344269429342,2.2946812349506835,-1.0129278341876429,0.20434394478797913
1708438044.2647076,-1.1192495822906494,-1.6743370495238246,-2.5243025461779993,2.2946297365375976,-1.0129969755755823,0.20431563258171082
1708438044.2667298,-1.1191776990890503,-1.6743031940855921,-2.5243433157550257,2.2945102888294677,-1.0130251089679163,0.20434841513633728
1708438044.2687345,-1.1190991401672363,-1.674408575097555,-2.5243800322162073,2.294449968928955,-1.0130236784564417,0.2043796181678772
1708438044.2707458,-1.1189903020858765,-1.6744448147215785,-2.5243876616107386,2.294391079539917,-1.0131223837481897,0.2043796181678772
1708438044.2727494,-1.1188656091690063,-1.674488206902975,-2.5243998209582728,2.294316216106079,-1.013141934071676,0.2043948471546173
1708438044.2747297,-1.11880624294281,-1.6745239696898402,-2.5244608561145228,2.2941738802143554,-1.0131447950946253,0.20440667867660522
1708438044.2767367,-1.1187059879302979,-1.6746002636351527,-2.524423901234762,2.294045611018799,-1.013221565877096,0.2044382095336914
1708438044.2787368,-1.1186509132385254,-1.6745993099608363,-2.5244315306292933,2.294006033534668,-1.0132201353656214,0.20443373918533325
1708438044.2807648,-1.1185176372528076,-1.6746350727477015,-2.5245047251330774,2.293923540706299,-1.0132859388934534,0.20452505350112915
1708438044.2828238,-1.118412971496582,-1.6746660671629847,-2.5245328585254114,2.293795033092163,-1.013308350239889,0.20445013046264648
1708438044.2847643,-1.1183053255081177,-1.6747638187804164,-2.5244718233691614,2.2936903673359375,-1.0133574644671839,0.20453986525535583
1708438044.2867548,-1.1182589530944824,-1.6747986278929652,-2.5245447794543665,2.2935666280933837,-1.0134099165545862,0.20450997352600098
1708438044.288718,-1.118076205253601,-1.6748181782164515,-2.5244959036456507,2.2935101228901367,-1.0134413878070276,0.20455947518348694
1708438044.2907028,-1.1180304288864136,-1.674882551232809,-2.524519745503561,2.2933737474628906,-1.0134976545916956,0.20460739731788635
1708438044.2927186,-1.1179183721542358,-1.675000330010885,-2.5245559851275843,2.2932979303547363,-1.0135000387774866,0.20455332100391388
1708438044.2947142,-1.117822527885437,-1.6750437221922816,-2.5245679060565394,2.293243332500122,-1.0135400930987757,0.2046147584915161
1708438044.2967212,-1.1177390813827515,-1.6750537357726039,-2.524588648472921,2.293135567302368,-1.013519589100973,0.2046058177947998
1708438044.2987287,-1.1175885200500488,-1.6751305065550746,-2.524621073399679,2.293027086848877,-1.013559643422262,0.2046058177947998
1708438044.3007658,-1.1175376176834106,-1.675243993798727,-2.5245874563800257,2.2928990560718994,-1.0136240164386194,0.20462095737457275
1708438044.3027332,-1.117438793182373,-1.6752878628172816,-2.5246198813067835,2.2928475576588134,-1.0136569182025355,0.2047363519668579
1708438044.3047318,-1.1173096895217896,-1.6752897701659144,-2.5246649424182337,2.2927426534840087,-1.0136893431292933,0.20463114976882935
1708438044.3067484,-1.1172131299972534,-1.6753455601134242,-2.524619166051046,2.2926391798206787,-1.0136764685260218,0.2047138214111328
1708438044.308746,-1.1171499490737915,-1.675467153588766,-2.524672571812765,2.292510672206543,-1.0136869589435022,0.20474182069301605
1708438044.310752,-1.1170618534088135,-1.6754452190794886,-2.524741236363546,2.2924505907246093,-1.0136736075030726,0.20479577779769897
1708438044.3127487,-1.1169672012329102,-1.6755053005614222,-2.5246878306018274,2.292339964503906,-1.0137231985675257,0.2047734260559082
1708438044.3147552,-1.116822600364685,-1.6756216488280238,-2.524707619343893,2.2922558027454834,-1.0137437025653284,0.20483487844467163
1708438044.3167746,-1.116726040840149,-1.6756779156126917,-2.5247445742236536,2.2921318250843505,-1.0137794653521937,0.20481687784194946
1708438044.318747,-1.1166496276855469,-1.6757427654662074,-2.5247769991504114,2.2920679289051513,-1.0138071219073694,0.20483645796775818
1708438044.3207636,-1.1166114807128906,-1.6757122478880824,-2.524735752736227,2.2919391828724365,-1.0138395468341272,0.20488566160202026
1708438044.3227675,-1.1164625883102417,-1.675793787042135,-2.524771753941671,2.2918476301380615,-1.0138590971576136,0.20484837889671326
1708438044.3247278,-1.116339087486267,-1.6759029827513636,-2.524813238774435,2.2917191225239257,-1.0139086882220667,0.20497563481330872
1708438044.3267467,-1.116262674331665,-1.6759048900999964,-2.524804417287008,2.29166762411084,-1.013972584401266,0.2049637883901596
1708438044.3287282,-1.1161620616912842,-1.6759816608824671,-2.524820868168966,2.2915806013294677,-1.0139640013324183,0.20494583249092102
1708438044.3307786,-1.116045594215393,-1.6760584316649378,-2.5248120466815394,2.291473074550293,-1.0140002409564417,0.20497728884220123
1708438044.332759,-1.115954041481018,-1.6761023006834925,-2.5247989336596888,2.2913564878651123,-1.013974968587057,0.205017551779747
1708438044.3347456,-1.1158745288848877,-1.676152845422262,-2.5248809496508997,2.2912143903919677,-1.014036003743307,0.20501303672790527
1708438044.3366945,-1.1157822608947754,-1.6761518917479457,-2.524867836629049,2.291217489833496,-1.014108959828512,0.20507767796516418
1708438044.338709,-1.1156985759735107,-1.676248689691061,-2.5248809496508997,2.291121645564697,-1.0140789190875452,0.2050940990447998
1708438044.3407257,-1.1156232357025146,-1.6762639484801234,-2.524900499974386,2.290968342418335,-1.0141318480121058,0.2050805687904358
1708438044.3427618,-1.115511178970337,-1.6763411960997523,-2.524940792714254,2.290912552470825,-1.014162842427389,0.20510143041610718
1708438044.3447182,-1.1154272556304932,-1.676380296746725,-2.524896208439962,2.290837450618408,-1.0141585508929651,0.2051536589860916
1708438044.3467577,-1.1153314113616943,-1.676431795159811,-2.5248904863940638,2.2907489973255615,-1.014212433491842,0.2051912397146225
1708438044.3487182,-1.115218997001648,-1.6764599285521449,-2.5249200502978724,2.2906693655201416,-1.0142558256732386,0.20521053671836853
1708438044.350724,-1.1150786876678467,-1.6765524349608363,-2.5249560515033167,2.290531559581421,-1.0142706076251429,0.2052226960659027
1708438044.352711,-1.1150078773498535,-1.676519056359762,-2.524951759968893,2.2904535967060546,-1.0142830053912562,0.2052375078201294
1708438044.3547132,-1.1149314641952515,-1.6766039333739222,-2.524902645741598,2.290337010020874,-1.0142949263202112,0.2052375078201294
1708438044.35672,-1.114810585975647,-1.6766840420165003,-2.5249722639666956,2.290290041560791,-1.0143440405475062,0.20527061820030212
1708438044.358737,-1.1147187948226929,-1.6766993008055628,-2.524963680897848,2.290154142970703,-1.0143545309649866,0.20525263249874115
1708438044.3607306,-1.1146266460418701,-1.676744123498434,-2.5250075499164026,2.2900571066090087,-1.0143707434283655,0.20532599091529846
1708438044.362703,-1.1145963668823242,-1.6768108807005824,-2.5250206629382532,2.289956970805786,-1.0143697897540491,0.20530056953430176
1708438044.364708,-1.1144962310791016,-1.676859518090719,-2.5250518957721155,2.289865418071411,-1.0144103209124964,0.2053365707397461
1708438044.3667858,-1.1143872737884521,-1.6768752537169398,-2.5250206629382532,2.28981797277417,-1.0144594351397913,0.20532888174057007
1708438044.368747,-1.114328384399414,-1.6769467792906703,-2.525031391774313,2.289722128505371,-1.0144580046283167,0.20543524622917175
1708438044.3707652,-1.1141833066940308,-1.6769916019835414,-2.525038782750265,2.289654417628906,-1.0144794623004358,0.20541729032993317
1708438044.3727388,-1.1140950918197632,-1.6770392856993617,-2.5250356833087366,2.2895662027546386,-1.014498535786764,0.20544880628585815
1708438044.3747282,-1.114052176475525,-1.6770578823485316,-2.525071684514181,2.2894171911427,-1.0145075956927698,0.20545341074466705
1708438044.3767245,-1.1139607429504395,-1.6771065197386683,-2.5250585714923304,2.289382143611572,-1.0144942442523401,0.20547263324260712
1708438044.3787484,-1.1138314008712769,-1.6771546802916468,-2.5250869433032435,2.2892936903187255,-1.0145676771747034,0.20545177161693573
1708438044.3807857,-1.1137837171554565,-1.677230020562643,-2.525128428136007,2.2892510133930664,-1.0145543257342737,0.20556695759296417
1708438044.3827488,-1.113736629486084,-1.6773001156248988,-2.5251153151141565,2.289121313686035,-1.0146063009845179,0.20555797219276428
1708438044.384761,-1.1136564016342163,-1.6772853336729945,-2.52515679994692,2.289083166713379,-1.0146344343768519,0.20550717413425446
1708438044.3867257,-1.1135649681091309,-1.6773129902281703,-2.525173012410299,2.2889572817036132,-1.0146215597735804,0.20554441213607788
1708438044.3887315,-1.1135210990905762,-1.677422662774557,-2.5251315275775355,2.2888902860828857,-1.0146868864642542,0.20558039844036102
1708438044.3907096,-1.1133722066879272,-1.6774913273253382,-2.5251436869250696,2.288802071208618,-1.0146902243243616,0.2056131809949875
1708438044.3927045,-1.1133445501327515,-1.677493234673971,-2.5251928011523646,2.2887725073048095,-1.014709774647848,0.20556700229644775
1708438044.3947303,-1.1132320165634155,-1.6775413952269496,-2.525163475667135,2.288609190578125,-1.0147832075702112,0.20556694269180298
1708438044.3967252,-1.113155484199524,-1.6775738201537074,-2.525163475667135,2.288581534022949,-1.0148022810565394,0.2056402713060379
1708438044.3987243,-1.1131123304367065,-1.6776253185667933,-2.5251382032977503,2.2885019022175292,-1.0147979895221155,0.2056521773338318
1708438044.4007087,-1.113053321838379,-1.6776329479613246,-2.5252047220813196,2.2884394365498046,-1.0148456732379358,0.2056598663330078
1708438044.4027097,-1.112984538078308,-1.6776939831175746,-2.52523643175234,2.2883760172077636,-1.014796559010641,0.2056717872619629
1708438044.4047072,-1.112851858139038,-1.6778189144530238,-2.5251784960376185,2.2883197504230957,-1.014841381703512,0.20568819344043732
1708438044.4067357,-1.112823486328125,-1.6778174839415492,-2.5252111593829554,2.2882508474537353,-1.0148561636554163,0.20569106936454773
1708438044.4087296,-1.1127148866653442,-1.6778298817076625,-2.5252397696124476,2.2881764608570556,-1.0149224440204065,0.2057451605796814
1708438044.4107955,-1.1126803159713745,-1.6779176197447718,-2.5252636114703577,2.2880782324024658,-1.0148852507220667,0.20573163032531738
1708438044.4127476,-1.1126525402069092,-1.6779004536070765,-2.5252111593829554,2.288017912501953,-1.0149014631854456,0.20572708547115326
1708438044.4147482,-1.1125394105911255,-1.677992960015768,-2.5252516905414026,2.287947340602539,-1.0149014631854456,0.2058052122592926
1708438044.4167416,-1.1125092506408691,-1.6779800854124964,-2.525259319935934,2.2878781992145996,-1.0149343649493616,0.205826073884964
1708438044.4187343,-1.1124696731567383,-1.6780005894102992,-2.525303904210226,2.287801428432129,-1.0149505774127405,0.20581555366516113
1708438044.420758,-1.1123437881469727,-1.6780811748900355,-2.52527887025942,2.2878081041523437,-1.0149253050433558,0.2058200240135193
1708438044.422777,-1.1122921705245972,-1.6781450710692347,-2.525287453328268,2.2876991468616943,-1.0149415175067347,0.2058621644973755
1708438044.4247646,-1.1122125387191772,-1.678164621392721,-2.5253246466266077,2.2877041536518554,-1.014911953602926,0.2058396339416504
1708438044.426755,-1.11222243309021,-1.6781517467894496,-2.5253246466266077,2.287640257472656,-1.0149949232684534,0.2058705985546112
1708438044.4287965,-1.1121041774749756,-1.6781922779478968,-2.525320355092184,2.2875470358082275,-1.0149944464312952,0.20581406354904175
1708438044.4307418,-1.1120566129684448,-1.6782523594298304,-2.5253194014178675,2.287482424373291,-1.0149772802936,0.20590072870254517
1708438044.4327278,-1.1120083332061768,-1.678333421746725,-2.525344435368673,2.287452383632324,-1.0149930159198206,0.20589634776115417
1708438044.4347515,-1.1119650602340698,-1.678319593469137,-2.525311533604757,2.2873541551777343,-1.0150254408465784,0.20590825378894806
1708438044.4367428,-1.1118842363357544,-1.6783391437926234,-2.5253356138812464,2.2873684602924804,-1.0150540510760706,0.20592465996742249
1708438044.438814,-1.1118535995483398,-1.6783634624876917,-2.5253148714648646,2.287287874812744,-1.0150540510760706,0.20586487650871277
1708438044.4407732,-1.1118011474609375,-1.678383012811178,-2.5253432432757776,2.2872440057941894,-1.0150869528399866,0.20596513152122498
1708438044.442713,-1.1117771863937378,-1.6784359417357386,-2.5253594557391565,2.287200613612793,-1.0150569120990198,0.20596066117286682
1708438044.444738,-1.1117138862609863,-1.6784593067564906,-2.5253759066211146,2.2871319490620117,-1.015106503163473,0.20600560307502747
1708438044.4467204,-1.111656904220581,-1.6785241566100062,-2.5254045168506067,2.287010832423828,-1.0151093641864222,0.20598474144935608
1708438044.4487503,-1.1116299629211426,-1.6785112820067347,-2.5253759066211146,2.2869795995899658,-1.0151498953448694,0.20600858330726624
1708438044.4508061,-1.1115524768829346,-1.6785842380919398,-2.5253878275500696,2.2869669634052734,-1.0151036421405237,0.20596230030059814
1708438044.4527392,-1.1114811897277832,-1.6785842380919398,-2.525374714528219,2.2869207102009277,-1.0151780287372034,0.20599955320358276
1708438044.45473,-1.1114252805709839,-1.6786147556700648,-2.5253661314593714,2.286859913463257,-1.0151990095721644,0.20600402355194092
1708438044.4567251,-1.1113802194595337,-1.6786691151061,-2.52539569536318,2.2867674070545654,-1.0151813665973108,0.20601916313171387
1708438044.458725,-1.1113407611846924,-1.678659578362936,-2.525407616292135,2.2867674070545654,-1.0151904265033167,0.20597711205482483
1708438044.4607818,-1.1113214492797852,-1.678666730920309,-2.52541953722109,2.2866954046436767,-1.015205208455221,0.2060266137123108
1708438044.462756,-1.111313819885254,-1.6786495647826136,-2.525407616292135,2.2867159086414794,-1.0151847044574183,0.2060266137123108
1708438044.4647217,-1.1112298965454102,-1.6787392101683558,-2.5254064241992396,2.2866694170185546,-1.0152128378497522,0.20606833696365356
1708438044.4667635,-1.1111361980438232,-1.6787716350951136,-2.525423828755514,2.28660695135083,-1.0151713530169886,0.20606708526611328
1708438044.4688396,-1.1111578941345215,-1.6787806950011195,-2.5254557768451136,2.2865964609333496,-1.0152900854693812,0.20606708526611328
1708438044.4707355,-1.1110804080963135,-1.6787911854186,-2.5254796187030237,2.2865187364765625,-1.0153024832354944,0.2060295045375824
1708438044.4727516,-1.1110739707946777,-1.6787940464415492,-2.5254927317248743,2.2864786821552734,-1.0152648130999964,0.20606708526611328
1708438044.474771,-1.1110427379608154,-1.6788236103453578,-2.5254676977740687,2.286473436946533,-1.0152633825885218,0.20610442757606506
1708438044.4767723,-1.1109412908554077,-1.6788507900633753,-2.5254765192614954,2.286391420955322,-1.0152767340289515,0.20608803629875183
1708438044.4787288,-1.1109048128128052,-1.6788627109923304,-2.5254676977740687,2.28638402997937,-1.0152939001666468,0.20611652731895447
1708438044.4807363,-1.1109256744384766,-1.678821702996725,-2.5254958311664026,2.2863690096088867,-1.0153043905841272,0.2061150074005127
1708438044.4827936,-1.1108280420303345,-1.6788794002928675,-2.5254958311664026,2.2862869936176757,-1.015336815510885,0.20611658692359924
1708438044.4847605,-1.1108455657958984,-1.6789022884764613,-2.5255077520953577,2.286297007197998,-1.015341583882467,0.2060745507478714
1708438044.4867294,-1.1107816696166992,-1.678906580010885,-2.52549916902651,2.2863175111958007,-1.0153325239764612,0.2061060667037964
1708438044.4887075,-1.1107659339904785,-1.67889465908193,-2.525564734135763,2.286278172130249,-1.0153234640704554,0.20609091222286224
1708438044.4907484,-1.1107409000396729,-1.6788937054076136,-2.525560442601339,2.2862130838581542,-1.0153730551349085,0.20609861612319946
1708438044.4927154,-1.1107226610183716,-1.6789633236327113,-2.5255189577685755,2.2861410814472656,-1.0153644720660608,0.20614778995513916
1708438044.4947097,-1.1106082201004028,-1.6789661846556605,-2.525569025670187,2.2861453729816894,-1.0153844992267054,0.206143319606781
1708438044.4967248,-1.1106581687927246,-1.6789871654906214,-2.5255187193499964,2.286097212428711,-1.0153802076922815,0.20613884925842285
1708438044.4987223,-1.1105974912643433,-1.6790272198119105,-2.525515381489889,2.286101742381714,-1.0153926054583948,0.206143319606781
1708438044.500778,-1.110558032989502,-1.6790229282774867,-2.5255101362811487,2.2860371309467773,-1.01540452638735,0.20616739988327026
1708438044.5027602,-1.1105623245239258,-1.6789375744261683,-2.5255516211139124,2.2860047060200195,-1.015388313923971,0.20615100860595703
1708438044.5047472,-1.1104897260665894,-1.6790434322752894,-2.5255797545062464,2.2859975534626464,-1.0153792540179651,0.206171914935112
1708438044.5067432,-1.1104698181152344,-1.6789819202818812,-2.52555495897402,2.285928173656128,-1.0154121557818812,0.20613758265972137
1708438044.5087185,-1.1104741096496582,-1.679030557672018,-2.5255754629718226,2.2859489160725097,-1.015395466481344,0.20617038011550903
1708438044.5107148,-1.1104545593261719,-1.6790067158141078,-2.5255711714373987,2.285888834590576,-1.01542836824526,0.2061837911605835
1708438044.5127375,-1.110479474067688,-1.679026266137594,-2.525562349949972,2.285905047053955,-1.0154641310321253,0.20620475709438324
1708438044.514738,-1.1103689670562744,-1.6790415249266566,-2.5256157557116907,2.2858854967304687,-1.0154359976397913,0.20619124174118042
1708438044.5167627,-1.1103947162628174,-1.6790501079955042,-2.5256038347827356,2.285820408458374,-1.015472714100973,0.2061837613582611
1708438044.518757,-1.1103625297546387,-1.6790782413878382,-2.525595251713888,2.2857634264179687,-1.0154808203326624,0.20618219673633575
1708438044.5207274,-1.1102969646453857,-1.679086824456686,-2.5256312529193323,2.2857648569294433,-1.0154641310321253,0.2061944603919983
1708438044.522763,-1.1102687120437622,-1.6790710888304652,-2.5256157557116907,2.285801573390625,-1.0154836813556116,0.20622435212135315
1708438044.524751,-1.1102083921432495,-1.6791068516173304,-2.525607172642843,2.285741015071533,-1.0154836813556116,0.20617038011550903
1708438044.5267217,-1.1102581024169922,-1.6790863476195277,-2.5256639162646692,2.2857376772114257,-1.0154631773578089,0.20619574189186096
1708438044.5287204,-1.1102173328399658,-1.6791068516173304,-2.5256193319903772,2.285655661220215,-1.0154913107501429,0.2061748504638672
1708438044.5307257,-1.1101685762405396,-1.6791187725462855,-2.525684420262472,2.2856852251240234,-1.0155285040484827,0.20619745552539825
1708438044.5327678,-1.1101579666137695,-1.6791225872435511,-2.5256343523608606,2.285599871272705,-1.0155332724200647,0.2061944305896759
1708438044.5347362,-1.110199213027954,-1.6791182957091273,-2.5256148020373743,2.2856013017841796,-1.0155614058123987,0.20625999569892883
1708438044.536729,-1.1101429462432861,-1.679178854028219,-2.5256269613849085,2.2856337267109375,-1.0155242125140589,0.20617328584194183
1708438044.5387306,-1.110105276107788,-1.679150720635885,-2.5256550947772425,2.2856013017841796,-1.0155404249774378,0.20620198547840118
1708438044.5407283,-1.1100696325302124,-1.6791182957091273,-2.5256593863116663,2.285586042995117,-1.015564266835348,0.20623885095119476
1708438044.5427318,-1.1100375652313232,-1.6791140041747035,-2.5257044474231165,2.285529299373291,-1.015527073537008,0.20619449019432068
1708438044.544727,-1.1100213527679443,-1.6791702709593714,-2.5256925264941614,2.2855540949055175,-1.0155556837665003,0.20620638132095337
1708438044.546748,-1.1099933385849,-1.6791616878905238,-2.5256882349597376,2.285489245052002,-1.015601936970846,0.2062138170003891
1708438044.5487156,-1.11004638671875,-1.6792026958861292,-2.5256925264941614,2.285550995463989,-1.0155556837665003,0.20627634227275848
1708438044.55078,-1.110002040863037,-1.6792098484435023,-2.525675121937887,2.2854782777973632,-1.015576187764303,0.20618993043899536
1708438044.5527365,-1.1099824905395508,-1.6792026958861292,-2.5257044474231165,2.2854038912006835,-1.0155885855304163,0.20617656409740448
1708438044.5547132,-1.1099168062210083,-1.6791984043517054,-2.5256837050067347,2.285433455104492,-1.0155885855304163,0.2061929851770401
1708438044.5567365,-1.1099224090576172,-1.679213663140768,-2.5256837050067347,2.285437746638916,-1.0156243483172815,0.20620641112327576
1708438044.55873,-1.1099255084991455,-1.6792050800719203,-2.525691334401266,2.2853845792957763,-1.0156124273883265,0.20624668896198273
1708438044.5607195,-1.1099430322647095,-1.679241796533102,-2.525691334401266,2.2854508596607666,-1.0156410376178187,0.2062138170003891
1708438044.5627277,-1.10990309715271,-1.6792623005309046,-2.525691334401266,2.2854196268269042,-1.0156038443194788,0.2062644511461258
1708438044.5647244,-1.1098235845565796,-1.6793042622008265,-2.5257118383990687,2.2853821951099853,-1.015627686177389,0.20618857443332672
1708438044.5667913,-1.1098904609680176,-1.679253717462057,-2.5256956259356897,2.285369558925293,-1.0156763235675257,0.20620937645435333
1708438044.5687618,-1.1098618507385254,-1.6792570553221644,-2.525691334401266,2.285365267390869,-1.015655819569723,0.2062719464302063
1708438044.570754,-1.1098542213439941,-1.6792780361571253,-2.5256837050067347,2.2853783804127197,-1.015705410634176,0.2062719464302063
1708438044.5727851,-1.1097567081451416,-1.6793223820128382,-2.525703255330221,2.28530137121167,-1.0156753698932093,0.2062511146068573
1708438044.5747755,-1.1097524166107178,-1.6793343029417933,-2.5257194677936,2.285341425532959,-1.0156515280352991,0.20622995495796204
1708438044.5767715,-1.10980224609375,-1.6793104610838832,-2.5257194677936,2.2853380876728515,-1.015683952962057,0.20626302063465118
1708438044.5787277,-1.1097322702407837,-1.6793581447997035,-2.525710646306173,2.2853056627460937,-1.0156634489642542,0.20628829300403595
1708438044.5807781,-1.1097614765167236,-1.6793581447997035,-2.5257237593280237,2.2852648931690673,-1.0157039801227015,0.20628391206264496
1708438044.5828474,-1.1097421646118164,-1.6792932949461878,-2.5257108847247522,2.2852517801472167,-1.0156996885882776,0.2062675654888153
1708438044.5847366,-1.1097872257232666,-1.6792880497374476,-2.525735680256979,2.2852980333515625,-1.0156753698932093,0.20625407993793488
1708438044.5867445,-1.109697699546814,-1.6793419323363246,-2.525735680256979,2.2852648931690673,-1.0157454649554651,0.20619595050811768
1708438044.5887268,-1.1097389459609985,-1.6793905697264613,-2.525775972996847,2.2852791982838134,-1.0157483259784144,0.20626303553581238
1708438044.5907195,-1.1096738576889038,-1.6793581447997035,-2.5257840792285364,2.2852043348499755,-1.0157488028155726,0.20629580318927765
1708438044.592756,-1.10969877243042,-1.6793648205199183,-2.52574330965151,2.2852348524281005,-1.0157411734210413,0.2062184065580368
1708438044.5947142,-1.1097033023834229,-1.6793281040587367,-2.5257673899279993,2.285172386760376,-1.0157039801227015,0.20628391206264496
1708438044.596753,-1.1097064018249512,-1.679424902001852,-2.5257673899279993,2.2851854997822265,-1.0157607237445276,0.20629581809043884
1708438044.5987217,-1.109576940536499,-1.6794544659056605,-2.5257511774646204,2.2851247030445556,-1.0157039801227015,0.20627935230731964
1708438044.6007116,-1.1095975637435913,-1.6794544659056605,-2.525813166295187,2.2851454454609375,-1.0157607237445276,0.20624659955501556
1708438044.6027155,-1.1096343994140625,-1.6794458828368128,-2.525808874760763,2.2851497369953613,-1.0157397429095667,0.20632433891296387
1708438044.6047165,-1.1096357107162476,-1.6794740162291468,-2.525747601185934,2.2851497369953613,-1.0157678763019007,0.20626600086688995
1708438044.606713,-1.1095774173736572,-1.6794616184630335,-2.5257511774646204,2.285113974208496,-1.015747372304098,0.2062704861164093
1708438044.6087146,-1.1095949411392212,-1.6794372997679652,-2.525796953831808,2.285130186671875,-1.0158007780658167,0.20625410974025726
1708438044.6107724,-1.1096031665802002,-1.679469724694723,-2.525776211415426,2.285102053279541,-1.0157354513751429,0.20626763999462128
1708438044.6127892,-1.1095342636108398,-1.6794783077635707,-2.525788132344381,2.285073443050049,-1.0157397429095667,0.20630356669425964
1708438044.6147687,-1.109571099281311,-1.679497858087057,-2.5258002916919153,2.285040779704712,-1.0158007780658167,0.20624959468841553
1708438044.61674,-1.1095266342163086,-1.6795464954771937,-2.525775972996847,2.2850658136555175,-1.0158050696002405,0.20624956488609314
1708438044.6187642,-1.1094940900802612,-1.6794892750182093,-2.5257511774646204,2.285006209010742,-1.0158336798297327,0.20627045631408691
1708438044.6207676,-1.1095116138458252,-1.6795293293394984,-2.5257542769061487,2.284989281291626,-1.0158041159259241,0.20628239214420319
1708438044.6227589,-1.1094903945922852,-1.6795498333373011,-2.5257630983935755,2.2850138384052734,-1.0157550016986292,0.2062450498342514
1708438044.6247835,-1.1094297170639038,-1.6795736751952113,-2.5257630983935755,2.284984989757202,-1.0158007780658167,0.20624056458473206
1708438044.626839,-1.10945463180542,-1.6795455418028773,-2.525886360798971,2.285006209010742,-1.0158088842975062,0.20627045631408691
1708438044.6287725,-1.1094396114349365,-1.67956604580068,-2.5257707277881067,2.2849904733845214,-1.015787426625387,0.20630359649658203
1708438044.6307504,-1.1094427108764648,-1.6795693836607875,-2.5257795492755335,2.2849580484577636,-1.015754524861471,0.20627781748771667
1708438044.6327465,-1.1093976497650146,-1.6795932255186976,-2.5258196035968226,2.28495375692334,-1.0158088842975062,0.2062913179397583
1708438044.6347578,-1.1093864440917969,-1.6795693836607875,-2.5257914702044886,2.2849742609211425,-1.0157998243915003,0.20629456639289856
1708438044.6368165,-1.109403371810913,-1.6795970402159632,-2.5257707277881067,2.2848641115375976,-1.0158160368548792,0.20626145601272583
1708438044.6387856,-1.109370231628418,-1.6796184978880824,-2.525827471409933,2.284931107158325,-1.0158117453204554,0.20631995797157288
1708438044.6407523,-1.1093450784683228,-1.679612775842184,-2.5258196035968226,2.2848774629780273,-1.0158117453204554,0.2063019871711731
1708438044.6427832,-1.1092969179153442,-1.6795608005919398,-2.5258153120623987,2.284865542049072,-1.0157783667193812,0.20627045631408691
1708438044.6447692,-1.1092926263809204,-1.6796633205809535,-2.52579909959902,2.284849091167114,-1.0158193747149866,0.20630356669425964
1708438044.6467495,-1.1092406511306763,-1.6795646152892054,-2.5258122126208704,2.2848827081867675,-1.0158517996417444,0.20627334713935852
1708438044.6487453,-1.1093270778656006,-1.6796251736082972,-2.5258119742022913,2.284845991725586,-1.0158489386187952,0.20631548762321472
1708438044.650767,-1.109278678894043,-1.679612775842184,-2.52579909959902,2.2848664957233886,-1.0158074537860315,0.2062569558620453
1708438044.6527407,-1.1092993021011353,-1.6795999012389125,-2.525848452244894,2.2847978311726074,-1.0158193747149866,0.20630644261837006
1708438044.6547172,-1.1092830896377563,-1.6796165905394496,-2.5258196035968226,2.2848052221485595,-1.0158193747149866,0.2062990814447403
1708438044.656744,-1.1092299222946167,-1.6797024212279261,-2.5258527437793177,2.284790201778076,-1.0158355871783655,0.2063109278678894
1708438044.6587245,-1.1091891527175903,-1.6796456776061,-2.5258196035968226,2.2847944933125,-1.0157654921161097,0.20633627474308014
1708438044.6607296,-1.1091892719268799,-1.6796771488585414,-2.5258033911334437,2.284802122707031,-1.0158222357379358,0.20628559589385986
1708438044.6627052,-1.1092054843902588,-1.6796728573241175,-2.5257914702044886,2.2847913938709716,-1.0158432165728968,0.20630642771720886
1708438044.6647303,-1.1091774702072144,-1.679685731927389,-2.525802199040548,2.2847868639179687,-1.0158355871783655,0.20627334713935852
1708438044.666745,-1.1091861724853516,-1.6796938381590785,-2.525827471409933,2.2847470480152587,-1.0158312956439417,0.2062569558620453
1708438044.6687477,-1.1091861724853516,-1.6796766720213832,-2.5258238951312464,2.2847019869038085,-1.0158270041095179,0.20633956789970398
1708438044.6707547,-1.1091417074203491,-1.6797176800169886,-2.525867764149801,2.2847344118305664,-1.0158432165728968,0.2063559591770172
1708438044.6727862,-1.109169840812683,-1.6796728573241175,-2.525811020527975,2.2846857744404296,-1.01585561433901,0.2063305377960205
1708438044.6747658,-1.109157919883728,-1.6796895466246546,-2.52579909959902,2.2847181993671875,-1.0158641974078577,0.20634245872497559
1708438044.6767678,-1.1091340780258179,-1.6797167263426722,-2.525851551686422,2.284735603923462,-1.0158103148089808,0.20634692907333374
1708438044.6788123,-1.1091258525848389,-1.679721017877096,-2.525827471409933,2.2846943575092773,-1.0158880392657679,0.2063424438238144
1708438044.6809247,-1.1091053485870361,-1.6797005138792933,-2.5258646647082728,2.2846781450458984,-1.0158756414996546,0.2063797116279602
1708438044.6827753,-1.1091516017913818,-1.679737230340475,-2.5258143583880823,2.284642382259033,-1.0158713499652308,0.20636630058288574
1708438044.684751,-1.1091516017913818,-1.6797243557372035,-2.525843922291891,2.2846173483082275,-1.0158994833575647,0.2063499093055725
1708438044.6867363,-1.109086036682129,-1.679761072198385,-2.5258353392230433,2.284642382259033,-1.0158713499652308,0.206424742937088
1708438044.688732,-1.1091065406799316,-1.6797567806639613,-2.525843922291891,2.2846173483082275,-1.0158713499652308,0.20642763376235962
1708438044.6907156,-1.1090620756149292,-1.6797481975951136,-2.525876585637228,2.2846099573322753,-1.015883747731344,0.20643094182014465
1708438044.6927207,-1.1090750694274902,-1.6797405682005824,-2.5258308092700403,2.284527226085327,-1.015923802052633,0.20636504888534546
1708438044.694732,-1.1090697050094604,-1.6797806225218714,-2.5258472601519983,2.2845491605946044,-1.015895191823141,0.20643828809261322
1708438044.6967137,-1.1091033220291138,-1.6797849140562953,-2.525879685078756,2.2845498758503417,-1.015890900288717,0.20649227499961853
1708438044.6987367,-1.1090545654296875,-1.6797849140562953,-2.525872294102804,2.284583016032837,-1.015886131917135,0.20652058720588684
1708438044.7007802,-1.1090545654296875,-1.679760595361227,-2.525855843220846,2.284578486079834,-1.015890900288717,0.2064952850341797
1708438044.7027113,-1.1090302467346191,-1.6798049412169398,-2.525855843220846,2.2844998079487304,-1.0159075895892542,0.20648176968097687
1708438044.7047265,-1.109031319618225,-1.6798707447447718,-2.5258353392230433,2.2845498758503417,-1.0159404913531702,0.2065148651599884
1708438044.7067106,-1.109022617340088,-1.6798082790770472,-2.5258873144732874,2.284562273616455,-1.0159152189837855,0.20650872588157654
1708438044.7087238,-1.109006404876709,-1.6798211536803187,-2.525879685078756,2.2845541673847656,-1.0159161726581019,0.20659556984901428
1708438044.7107604,-1.1089662313461304,-1.679812570611471,-2.5258353392230433,2.2844771581837158,-1.0159476439105433,0.20664018392562866
1708438044.712765,-1.1089749336242676,-1.6797758541502894,-2.525879685078756,2.284484787578247,-1.0159686247455042,0.20662973821163177
1708438044.7147367,-1.1089500188827515,-1.679812570611471,-2.5258310476886194,2.284555359477661,-1.0159433523761194,0.20665840804576874
1708438044.7167656,-1.1089911460876465,-1.6798731289305628,-2.5258873144732874,2.2844621378132324,-1.0159223715411585,0.2066403180360794
1708438044.7188075,-1.10889732837677,-1.6798731289305628,-2.5259247461902063,2.2844740587421875,-1.0159390608416956,0.2067255973815918
1708438044.7207258,-1.1088811159133911,-1.6798488102354945,-2.525879685078756,2.284475250835083,-1.0160053412066858,0.2067541629076004
1708438044.722741,-1.1089762449264526,-1.679880758325094,-2.5258548895465296,2.284417076701782,-1.0159061590777796,0.20682747662067413
1708438044.7247376,-1.108877420425415,-1.6799208126463832,-2.5258711020099085,2.2844626146503906,-1.0159180800067347,0.20685456693172455
1708438044.726729,-1.108914852142334,-1.6798840961852015,-2.5258384386645716,2.284454031581543,-1.0159300009356897,0.20685744285583496
1708438044.728736,-1.108841061592102,-1.6798964939513148,-2.5258904139148157,2.28438584386792,-1.0159629026996058,0.20696380734443665
1708438044.7307215,-1.1088860034942627,-1.6799332104124964,-2.5258873144732874,2.284402056331299,-1.0159757773028772,0.20695486664772034
1708438044.7327414,-1.1088500022888184,-1.6798721752562464,-2.5258665720569056,2.28438584386792,-1.0159629026996058,0.20697002112865448
1708438044.734758,-1.1088454723358154,-1.6799007854857386,-2.5258916060077112,2.2843825060078125,-1.0159748236285608,0.2070009708404541
1708438044.7367156,-1.1088542938232422,-1.6798964939513148,-2.5258753935443323,2.2843655782886962,-1.015970532094137,0.20708811283111572
1708438044.7387323,-1.1088380813598633,-1.6799079380431117,-2.5259247461902063,2.284416361446045,-1.016019646321432,0.20707297325134277
1708438044.7407167,-1.1088261604309082,-1.6799451313414515,-2.525907341633932,2.28433005392041,-1.0160077253924769,0.2071373164653778
1708438044.742735,-1.1087859869003296,-1.6799332104124964,-2.525907341633932,2.2843429285236816,-1.016003433858053,0.20724672079086304
1708438044.7447302,-1.1087979078292847,-1.6799408398070277,-2.5259159247027796,2.284322424525879,-1.016031567250387,0.20726341009140015
1708438044.7467167,-1.1088035106658936,-1.6799036465086878,-2.5259116331683558,2.2843400675007324,-1.0160239378558558,0.20733827352523804
1708438044.7487156,-1.1088035106658936,-1.6799451313414515,-2.5258992354022425,2.284269257182739,-1.016003433858053,0.2073904126882553
1708438044.7507415,-1.1087615489959717,-1.6799560985960902,-2.5259442965136927,2.284282847041748,-1.0160272757159632,0.20736795663833618
1708438044.752714,-1.1087671518325806,-1.6799646816649378,-2.525907341633932,2.2842623430439453,-1.016031567250387,0.20750552415847778
1708438044.7547262,-1.1087379455566406,-1.679960390130514,-2.5258947054492396,2.2842418390461425,-1.0159948507892054,0.2076030820608139
1708438044.7567239,-1.108750820159912,-1.6800137958922328,-2.525947395955221,2.284242792720459,-1.016031567250387,0.20760467648506165
1708438044.7587361,-1.1086933612823486,-1.679910799066061,-2.525931183491842,2.284194155330322,-1.0160272757159632,0.20774637162685394
1708438044.760723,-1.1086819171905518,-1.6799975834288539,-2.5259843508349817,2.2841896253773193,-1.016076389943258,0.20780962705612183
1708438044.7627413,-1.1086832284927368,-1.680032869378561,-2.5259767214404505,2.28422658025708,-1.0160840193377894,0.2079308032989502
1708438044.7647655,-1.1086832284927368,-1.6800171337523402,-2.5259636084186,2.284136934871338,-1.0160420576678675,0.2079937756061554
1708438044.7667308,-1.1086376905441284,-1.6799804172911585,-2.525968138371603,2.284207745189331,-1.0160797278033655,0.20806875824928284
1708438044.7687569,-1.1086344718933105,-1.6799832783141078,-2.525980059300558,2.284179611796997,-1.0160754362689417,0.2081807553768158
1708438044.7707279,-1.1085987091064453,-1.6800452671446742,-2.5259223620044153,2.284081383342407,-1.0161007086383265,0.208263099193573
1708438044.772724,-1.1086030006408691,-1.6800085506834925,-2.525943104420797,2.2840983110615234,-1.016083065663473,0.20842930674552917
1708438044.7747319,-1.108581781387329,-1.6800486050047816,-2.526004139577047,2.2840987878986816,-1.0160711447345179,0.20856696367263794
1708438044.7767317,-1.1085505485534668,-1.6800314388670863,-2.525975529347555,2.284069462413452,-1.016106907521383,0.20861950516700745
1708438044.7788048,-1.108513593673706,-1.6800886593260707,-2.526008431111471,2.284057541484497,-1.0161145369159144,0.20877668261528015
1708438044.78074,-1.1085060834884644,-1.6801125011839808,-2.5259833971606653,2.2840911585041503,-1.0161483923541468,0.2088334560394287
1708438044.7827492,-1.108494758605957,-1.6800672016539515,-2.5259581247912806,2.2839974600025634,-1.016172234212057,0.20910155773162842
1708438044.7847364,-1.1084709167480469,-1.6800881824889125,-2.526081625615255,2.284010573024414,-1.0161469618426722,0.20921221375465393
1708438044.7867262,-1.1084058284759521,-1.6800991497435511,-2.5260074774371546,2.2839998441883544,-1.016184155141012,0.20941749215126038
1708438044.788754,-1.1083850860595703,-1.6801196537413539,-2.5260313192950647,2.283954306239746,-1.0161965529071253,0.20955032110214233
1708438044.7907553,-1.1084153652191162,-1.6801563702025355,-2.526048723851339,2.2839791017719726,-1.0161545912372034,0.20976772904396057
1708438044.7927368,-1.1083745956420898,-1.680181165734762,-2.5260193983661097,2.2839433389851074,-1.0162246862994593,0.2099471539258957
1708438044.7947206,-1.108371376991272,-1.6801725826659144,-2.5260236899005335,2.2838985162922363,-1.0162366072284144,0.21017944812774658
1708438044.796721,-1.108359456062317,-1.68017639736318,-2.526039187108175,2.283848925227783,-1.0162485281573694,0.2104114592075348
1708438044.7987423,-1.10831880569458,-1.6802283726134242,-2.526010576878683,2.2838303285786132,-1.016230885182516,0.2105821967124939
1708438044.800709,-1.108278751373291,-1.6802441082396449,-2.526059691105978,2.2838172155567626,-1.0162232557879847,0.2108829915523529
1708438044.8027375,-1.108250617980957,-1.6802355251707972,-2.52605110803713,2.283810778255127,-1.0162714163409632,0.21113260090351105
1708438044.8047101,-1.1081936359405518,-1.6802269421019496,-2.526067558919088,2.2838031488605957,-1.0162056128131312,0.21140830218791962
1708438044.806705,-1.1081535816192627,-1.6802760563292445,-2.526104513798849,2.283733769054077,-1.0162761847125452,0.21162262558937073
1708438044.8087285,-1.1081948280334473,-1.6803041897215785,-2.52605110803713,2.2836929994770507,-1.0162461439715784,0.21185734868049622
1708438044.8107445,-1.108125925064087,-1.6802956066527308,-2.526123825703756,2.2836901384541015,-1.01628286043276,0.21217328310012817
1708438044.8127518,-1.108069658279419,-1.6803275547423304,-2.526100222264425,2.2837225633808593,-1.0163114706622522,0.21240709722042084
1708438044.8147383,-1.108083963394165,-1.680392404595846,-2.526090208684103,2.2836498457142334,-1.016318146382467,0.21275579929351807
1708438044.8167484,-1.1080420017242432,-1.6803752384581507,-2.5261569658862513,2.2836641508289794,-1.0163591543780726,0.21307909488677979
1708438044.8188019,-1.1079869270324707,-1.6804119549193324,-2.5261109511004847,2.2835823732563476,-1.0163920561419886,0.21341431140899658
1708438044.8207576,-1.1079750061035156,-1.6804186306395472,-2.5261483828174036,2.2835985857197265,-1.0163949171649378,0.21378707885742188
1708438044.822765,-1.107959270477295,-1.680460115472311,-2.5261152426349085,2.2835308748432617,-1.0163863340960901,0.21411362290382385
1708438044.8247535,-1.10784113407135,-1.6804396114745082,-2.5261603037463587,2.2835146623798828,-1.0164063612567347,0.21455805003643036
1708438044.8267572,-1.107857346534729,-1.6805645428099574,-2.526184145604269,2.2834581571766357,-1.0164268652545374,0.21498343348503113
1708438044.8287232,-1.107818603515625,-1.6806098423399867,-2.526163403187887,2.28345434247937,-1.0164507071124476,0.21535596251487732
1708438044.8307114,-1.107742190361023,-1.6806241474547328,-2.526175324116842,2.2833573061176757,-1.016498867665426,0.2158111035823822
1708438044.832753,-1.1077227592468262,-1.6806026897826136,-2.526187245045797,2.2833830553242187,-1.0165064970599573,0.21624398231506348
1708438044.8347502,-1.107698917388916,-1.6805983982481898,-2.526220146809713,2.2832860189625244,-1.0165718237506312,0.21668249368667603
1708438044.836775,-1.1076637506484985,-1.68068327526235,-2.5262277762042444,2.2833003240772705,-1.01648456255068,0.2172243893146515
1708438044.8387558,-1.107586145401001,-1.680711408654684,-2.5262766520129603,2.283219500178955,-1.0166080633746546,0.21771687269210815
1708438044.8407395,-1.1075342893600464,-1.6807800732054652,-2.5262680689441126,2.2831994730183105,-1.0166361967669886,0.21807175874710083
1708438044.8427856,-1.1075396537780762,-1.6807509861388148,-2.526292149220602,2.283092423076294,-1.01666766801943,0.21865710616111755
1708438044.8448994,-1.1074275970458984,-1.6807824573912562,-2.526304308568136,2.2831243711658935,-1.0166381041156214,0.21918731927871704
1708438044.8467507,-1.107377529144287,-1.6807824573912562,-2.5262582937823694,2.283006115550659,-1.0166619459735315,0.21981281042099
1708438044.8487298,-1.1073100566864014,-1.6808468304076136,-2.5263074080096644,2.2829953867145996,-1.0167067686664026,0.22034591436386108
1708438044.8507183,-1.1072711944580078,-1.680894514123434,-2.526372734700338,2.2829434114643554,-1.0167797247516077,0.22096246480941772
1708438044.8527362,-1.1071816682815552,-1.680955549279684,-2.5263641516314905,2.2828995424458007,-1.0167339483844202,0.2215615063905716
1708438044.8547208,-1.10715913772583,-1.6809426746764125,-2.5263968149768274,2.2828263479420166,-1.0167620817767542,0.2221483588218689
1708438044.8567324,-1.1070784330368042,-1.6809989414610804,-2.5263553301440638,2.282755060786865,-1.0168021360980433,0.222758948802948
1708438044.8587358,-1.1070032119750977,-1.6810184917845667,-2.5263870398150843,2.2826904493519287,-1.0167902151690882,0.22342216968536377
1708438044.8607125,-1.1069180965423584,-1.6810828648009242,-2.5264316240893763,2.282585783595703,-1.0168059507953089,0.22408515214920044
1708438044.8627195,-1.1068365573883057,-1.6810208759703578,-2.5264435450183313,2.2825214105793457,-1.0168746153460901,0.22470217943191528
1708438044.8647473,-1.1068272590637207,-1.6811143360533656,-2.5264273325549524,2.2824417787739257,-1.0168622175799769,0.22544321417808533
1708438044.8667748,-1.106737732887268,-1.681190629998678,-2.5264959971057337,2.2823654848286132,-1.016886059437887,0.22620800137519836
1708438044.8687232,-1.1066375970840454,-1.6812192402281703,-2.526458803807394,2.282359762782715,-1.0169180075274866,0.22691753506660461
1708438044.870735,-1.1065860986709595,-1.6812459431090296,-2.526527706776754,2.2822345930286865,-1.016965691243307,0.2276182621717453
1708438044.872736,-1.1064902544021606,-1.6812788448729457,-2.526511255894796,2.282149477595947,-1.0169852415667933,0.2284867763519287
1708438044.874741,-1.106381893157959,-1.6813179455199183,-2.526522223149435,2.282116098994873,-1.0169976393329065,0.22924615442752838
1708438044.8767502,-1.1062895059585571,-1.6813136539854945,-2.526554886494772,2.2820066648670654,-1.0170467535602015,0.23009787499904633
1708438044.878764,-1.1062300205230713,-1.6814385853209437,-2.526599709187643,2.281893416041992,-1.017090145741598,0.23089627921581268
1708438044.8807402,-1.1060891151428223,-1.6814137897887171,-2.526635471974508,2.2818686205097656,-1.0171335379229944,0.23182500898838043
1708438044.8827438,-1.106050729751587,-1.6814376316466273,-2.52665621439089,2.281722231502197,-1.0171454588519495,0.23272618651390076
1708438044.8847518,-1.1058967113494873,-1.681469579736227,-2.5267120043383997,2.281630201930664,-1.017205540333883,0.23362606763839722
1708438044.8867357,-1.1058260202407837,-1.681542535821432,-2.526715103779928,2.2815677362629394,-1.0172327200519007,0.23464760184288025
1708438044.8887331,-1.1057227849960327,-1.6816379032530726,-2.526743475590841,2.281472368831299,-1.017252270375387,0.23562650382518768
1708438044.8907406,-1.1055943965911865,-1.681683202783102,-2.5267229715930384,2.2812983232685546,-1.0173652807818812,0.23649238049983978
1708438044.8927376,-1.1054741144180298,-1.681742330590719,-2.5267794767962855,2.28119079648938,-1.0173853079425257,0.23758718371391296
1708438044.8947296,-1.1053818464279175,-1.6817861996092738,-2.5268071333514612,2.281102343196533,-1.0174687544452112,0.23858532309532166
1708438044.8967505,-1.10525381565094,-1.6818176708617152,-2.526835266743795,2.2809411722370605,-1.0175178686725062,0.23960725963115692
1708438044.898744,-1.1052122116088867,-1.68188538173818,-2.526884142552511,2.280911369914673,-1.017524544392721,0.24064046144485474
1708438044.9007287,-1.1049989461898804,-1.6819988689818324,-2.5269036928759974,2.2807630735584716,-1.0175841490374964,0.24177640676498413
1708438044.9027214,-1.1048206090927124,-1.6820136509337367,-2.5269280115710657,2.2806684213825683,-1.017632309590475,0.2429463267326355
1708438044.9047215,-1.104741096496582,-1.6820603809752406,-2.5269060770617884,2.2804948526569824,-1.017726246510641,0.24412374198436737
1708438044.9067369,-1.104634404182434,-1.6821743450560511,-2.527008597050802,2.280440493220947,-1.0177934805499476,0.24533319473266602
1708438044.9087372,-1.1044460535049438,-1.6821962795653285,-2.5270162264453333,2.280235691661499,-1.0178325811969202,0.246597021818161
1708438044.910738,-1.1043133735656738,-1.682277341882223,-2.5270524660693567,2.2800909715839843,-1.0178921858416956,0.2478267252445221
1708438044.9127936,-1.1041654348373413,-1.6822830639281214,-2.5270751158343714,2.279986544246338,-1.0179641882525843,0.24906493723392487
1708438044.9147363,-1.1040676832199097,-1.682437082330221,-2.527140442525045,2.2798518377491455,-1.0180733839618128,0.25025779008865356
1708438044.916771,-1.1038830280303955,-1.6825157604613246,-2.5271764437304896,2.279719753856323,-1.0180962721454065,0.25160929560661316
1708438044.9187834,-1.1036770343780518,-1.682563921014303,-2.5271547476397913,2.2795354562946777,-1.018167797719137,0.25290152430534363
1708438044.92079,-1.1035504341125488,-1.68267883876943,-2.5272353331195276,2.279371424312256,-1.0182488600360315,0.2542549967765808
1708438044.9227617,-1.1033302545547485,-1.6827951870360316,-2.5272398630725306,2.2791613775440673,-1.0183404127704065,0.2556038796901703
1708438044.924758,-1.1031904220581055,-1.682871480981344,-2.52731162706484,2.279042883510254,-1.018432919179098,0.25696131587028503
1708438044.9267824,-1.1029977798461914,-1.6830088100829066,-2.527344290410177,2.27885548650708,-1.0185001532184046,0.2583885192871094
1708438044.9287407,-1.102818489074707,-1.6830927334227503,-2.527346674595968,2.2787276941486816,-1.0185959974872034,0.25977471470832825
1708438044.9307332,-1.1026170253753662,-1.6831351719298304,-2.5273781458484095,2.278482599849365,-1.0186603705035608,0.2612653374671936
1708438044.9327958,-1.1024377346038818,-1.6832710705199183,-2.5275045076953333,2.278392716045044,-1.0187061468707483,0.2629198729991913
1708438044.9347842,-1.1022461652755737,-1.6833912334837855,-2.5274739901172083,2.278139277095459,-1.0188477675067347,0.26445403695106506
1708438044.9367778,-1.1019887924194336,-1.6835071049132289,-2.5275397936450403,2.2779180246540527,-1.0189521948443812,0.2660164535045624
1708438044.9387245,-1.1017937660217285,-1.6835781536498011,-2.5275922457324427,2.277796431178711,-1.019036118184225,0.2676694989204407
1708438044.9407108,-1.1016106605529785,-1.6836902103819789,-2.527623716984884,2.27763740598645,-1.0191229025470179,0.2692665755748749
1708438044.9427638,-1.1013643741607666,-1.683831354180807,-2.527724806462423,2.277404709453247,-1.0191953817950647,0.27095261216163635
1708438044.9447172,-1.1011991500854492,-1.683934827844137,-2.5277438799487513,2.277183933848999,-1.0192578474627894,0.27259230613708496
1708438044.9467523,-1.1009206771850586,-1.6841021976866664,-2.5277677218066614,2.2769757944294433,-1.0193832556353968,0.2742865979671478
1708438044.948732,-1.1006978750228882,-1.6841498814024867,-2.527884308491842,2.2767972189136962,-1.0194585959063929,0.2760351598262787
1708438044.950722,-1.100458025932312,-1.684310098687643,-2.5279117266284388,2.2765933710285644,-1.0195663611041468,0.2778804302215576
1708438044.952745,-1.1002349853515625,-1.6844212017455042,-2.527947489415304,2.2763401704975585,-1.0197141806231897,0.2797076404094696
1708438044.9547265,-1.0999748706817627,-1.684540411035055,-2.5280240217791956,2.276136561031006,-1.0198057333575647,0.2815476357936859
1708438044.956767,-1.0997185707092285,-1.684713979760641,-2.528039280568258,2.2759415346333007,-1.0199421087848108,0.28338634967803955
1708438044.958736,-1.0994949340820312,-1.6848212681212367,-2.5281406084643763,2.2756354051777343,-1.0200322310077112,0.2852189838886261
1708438044.9607072,-1.099233627319336,-1.6849328480162562,-2.528212610875265,2.2754010397144775,-1.0202048460589808,0.28709661960601807
1708438044.9627767,-1.0989956855773926,-1.6850315533080042,-2.5282650629626673,2.2751683431812744,-1.0203335920916956,0.28901639580726624
1708438044.9647179,-1.0987226963043213,-1.6851383648314417,-2.5282986799823206,2.274913473720215,-1.0204537550555628,0.29087352752685547
1708438044.9667807,-1.0984746217727661,-1.6853515110411585,-2.5283270517932337,2.2746521669575195,-1.0205686728106897,0.2929060161113739
1708438044.9687612,-1.098129391670227,-1.6855126820006312,-2.5284557978259485,2.2743894296833496,-1.0207050482379358,0.29495999217033386
1708438044.9707522,-1.0978864431381226,-1.6856142483153285,-2.5285235087024134,2.274132652873657,-1.020815674458639,0.29712140560150146
1708438044.9727712,-1.097549557685852,-1.6857544384398402,-2.528599802647726,2.2738777834125976,-1.0209997336017054,0.29919472336769104
1708438044.9747694,-1.097302794456482,-1.6859141788878382,-2.5287042299853724,2.273635073299072,-1.0211365858661097,0.301217257976532
1708438044.976735,-1.0970271825790405,-1.6861306629576625,-2.5287306944476526,2.2732502657124023,-1.0213287512408655,0.3034418523311615
1708438044.9787366,-1.096718668937683,-1.6862460575499476,-2.528872791920797,2.273030920619629,-1.0213835875140589,0.30548611283302307
1708438044.9808834,-1.0963941812515259,-1.6863795719542445,-2.528895441685812,2.2727348047443847,-1.0215438047992151,0.30770906805992126
1708438044.982787,-1.096106767654419,-1.686577936212057,-2.5290165583239954,2.2723778921314697,-1.021634880696432,0.3098766803741455
1708438044.984769,-1.0958229303359985,-1.6866847477354945,-2.529067579899923,2.2721399503895263,-1.0217669645892542,0.3120521008968353
1708438044.9867156,-1.0954622030258179,-1.686868806878561,-2.5291758219348353,2.2718135553547363,-1.0218971411334437,0.314126580953598
1708438044.9887273,-1.0952407121658325,-1.6869994602599085,-2.5292847792254847,2.2716120916553955,-1.0220420996295374,0.3163277804851532
1708438044.9907403,-1.094894528388977,-1.687129636804098,-2.5293317476855677,2.2713119226643066,-1.0222142378436487,0.31854650378227234
1708438044.9927108,-1.0946080684661865,-1.6873518429198207,-2.5294647852527063,2.271019621486328,-1.0223539511310022,0.3207659125328064
1708438044.9947174,-1.0942350625991821,-1.6874734363951625,-2.5295639673816126,2.2707933622547607,-1.0225327650653284,0.3229835629463196
1708438044.996711,-1.0939275026321411,-1.687686105767721,-2.5296195189105433,2.2704316812702636,-1.0227301756488245,0.32530033588409424
1708438044.9987724,-1.0935474634170532,-1.6878415546812953,-2.529715601597921,2.270197792644165,-1.0228689352618616,0.32752716541290283
1708438045.0007398,-1.0932350158691406,-1.6880585155882777,-2.5298407713519495,2.269848271007202,-1.0230124632464808,0.3298310935497284
1708438045.0027244,-1.092866063117981,-1.6882254085936488,-2.52989107767214,2.2695481020161132,-1.0232418219195765,0.33208167552948
1708438045.0047274,-1.0925592184066772,-1.6883679829039515,-2.5299630800830286,2.2692035871693115,-1.0234087149249476,0.3344208598136902
1708438045.0067492,-1.0922614336013794,-1.688559194604391,-2.5300875345813196,2.2688798147388916,-1.0235679785357874,0.3368355333805084
1708438045.0087278,-1.0919042825698853,-1.6887599430479945,-2.5301995913134974,2.268559380168579,-1.0237391630755823,0.33932727575302124
1708438045.010727,-1.0914865732192993,-1.688944002191061,-2.5302913824664515,2.2682317930408935,-1.0239465872394007,0.34178170561790466
1708438045.0127451,-1.0912092924118042,-1.6891595325865687,-2.5304082075702112,2.2679127889820556,-1.0241597334491175,0.3441714644432068
1708438045.014724,-1.090844988822937,-1.6892811260619105,-2.530463759099142,2.2675489622303466,-1.0243719259845179,0.34671345353126526
1708438045.0167534,-1.0904557704925537,-1.6895181141295375,-2.530579392110006,2.2672578531452636,-1.0245803038226526,0.34906327724456787
1708438045.018742,-1.090075969696045,-1.6896687946715296,-2.5306337515460413,2.2668565946766357,-1.0247138182269495,0.3515620827674866
1708438045.020738,-1.0897084474563599,-1.6899086437621058,-2.53074294725527,2.2665607172199707,-1.024921719227926,0.3538701832294464
1708438045.022737,-1.0893399715423584,-1.6900769672789515,-2.530850950871603,2.2662252622791748,-1.0251625219928187,0.3564852774143219
1708438045.024794,-1.088975429534912,-1.6902805767455042,-2.5309837500201624,2.2658936220356445,-1.0253828207599085,0.3590444326400757
1708438045.0267694,-1.0885931253433228,-1.6904431782164515,-2.531066958104269,2.265528841609619,-1.0255492369281214,0.361591637134552
1708438045.0287843,-1.0881097316741943,-1.6906587086119593,-2.531224075947897,2.2651850420185546,-1.0257857481585901,0.3641841411590576
1708438045.0307603,-1.0877718925476074,-1.690867086450094,-2.5313687960254114,2.2648538786121826,-1.0260089079486292,0.36679014563560486
1708438045.032738,-1.087421178817749,-1.6910702190794886,-2.5314767996417444,2.2645298677631835,-1.0261300245868128,0.36942702531814575
1708438045.034748,-1.0869306325912476,-1.6912576160826625,-2.5315313974963587,2.2642149168201904,-1.0263636747943323,0.372140496969223
1708438045.0367644,-1.0865689516067505,-1.6914822063841761,-2.531647030507223,2.263859196300171,-1.0265792051898401,0.3747970461845398
1708438045.0387716,-1.0861451625823975,-1.69166960338735,-2.531795088444845,2.263455553645752,-1.0268319288836878,0.37734317779541016
1708438045.040777,-1.0857443809509277,-1.6918965778746546,-2.531895939503805,2.2631305891224365,-1.0270150343524378,0.3800041675567627
1708438045.0427296,-1.0853898525238037,-1.6921121082701625,-2.5320475737201136,2.262706442470215,-1.0272424856769007,0.38264182209968567
1708438045.044779,-1.0849735736846924,-1.692270895043844,-2.53221303621401,2.2623511987873535,-1.0274460951434534,0.38533151149749756
1708438045.0467434,-1.0845662355422974,-1.6925236187376917,-2.5322917143451136,2.261978788966797,-1.027719799672262,0.38797032833099365
1708438045.048732,-1.0841128826141357,-1.6926866970457972,-2.5324485937701624,2.2616187769123535,-1.027910057698385,0.39078161120414734
1708438045.0507226,-1.0836893320083618,-1.6929675541319789,-2.5325315634356897,2.261244459743164,-1.0280960241900843,0.3934144973754883
1708438045.0527134,-1.083286166191101,-1.693129678765768,-2.532651726399557,2.260854883784912,-1.028376881276266,0.3961964249610901
1708438045.0547392,-1.0828906297683716,-1.6933819256224574,-2.5328076521502894,2.260472221965454,-1.0286300818072718,0.3989027440547943
1708438045.056737,-1.0824633836746216,-1.6935564480223597,-2.5329154173480433,2.26007525503125,-1.0288804213153284,0.4017592668533325
1708438045.0587432,-1.0819655656814575,-1.6938535175719203,-2.5331128279315394,2.2597569662281494,-1.0291393438922327,0.4046047329902649
1708438045.0607083,-1.0815374851226807,-1.6940719089903773,-2.533231798802511,2.259356899852417,-1.0293858687030237,0.40747153759002686
1708438045.0627248,-1.0811015367507935,-1.6942807636656703,-2.5333712736712855,2.2589287000843505,-1.0296948591815394,0.41023436188697815
1708438045.0647295,-1.0807157754898071,-1.6944629154601039,-2.53351074854006,2.2586116033741455,-1.0300033728228968,0.41310909390449524
1708438045.066761,-1.080260157585144,-1.694697996179098,-2.5336342493640345,2.258202238673828,-1.0302413145648401,0.41589048504829407
1708438045.0687902,-1.079840064048767,-1.6949264011778773,-2.5338249842273157,2.257748528117798,-1.030529801045553,0.4186845123767853
1708438045.0707495,-1.0793709754943848,-1.6951409778990687,-2.5339842478381556,2.257427139873169,-1.0308550039874476,0.4216364324092865
1708438045.0727332,-1.0789152383804321,-1.6953565082945765,-2.534083668385641,2.256988449687622,-1.0310748259173792,0.42440247535705566
1708438045.0747383,-1.078467607498169,-1.6955481968321742,-2.534240786229269,2.256585045451782,-1.0313566366778772,0.42732948064804077
1708438045.0767388,-1.0780208110809326,-1.69584383587026,-2.5343835989581507,2.2561849790760498,-1.031675163899557,0.43024078011512756
1708438045.0787575,-1.0775840282440186,-1.696010252038473,-2.5345469156848353,2.255793257350586,-1.0319631735431116,0.4332396686077118
1708438045.0807245,-1.0771281719207764,-1.6962672672667445,-2.5346537272082728,2.2554384905048828,-1.0322588125811976,0.4362647533416748
1708438045.082774,-1.0766315460205078,-1.6965023479857386,-2.534839455281393,2.2551166254230957,-1.0324938933001917,0.43919676542282104
1708438045.0847836,-1.076212763786316,-1.6967417202391566,-2.5350475947009485,2.2547167974659423,-1.0327532927142542,0.44206276535987854
1708438045.086708,-1.0757646560668945,-1.6969815693297328,-2.5351794401751917,2.254267378444336,-1.0329793135272425,0.44497740268707275
1708438045.0887551,-1.0752806663513184,-1.6971804104247035,-2.5353475252734583,2.2538551527210693,-1.0332430044757288,0.4478585124015808
1708438045.0907485,-1.0748035907745361,-1.6973992786803187,-2.5355001131640833,2.2534684377857666,-1.0335724989520472,0.45081081986427307
1708438045.092747,-1.0743682384490967,-1.6976801357665003,-2.5356267134295862,2.253084345454834,-1.0338519255267542,0.453798770904541
1708438045.09472,-1.0738991498947144,-1.697857519189352,-2.5358033815967005,2.252696676845215,-1.0341547171222132,0.45679327845573425
1708438045.0967448,-1.073463797569275,-1.6980816326537074,-2.535983387623922,2.252288504237793,-1.0344226996051233,0.45982125401496887
1708438045.0987132,-1.0730255842208862,-1.69834627727651,-2.5361316839801233,2.251965208644531,-1.0346983114825647,0.46290120482444763
1708438045.1007311,-1.0725438594818115,-1.6986094913878382,-2.536311690007345,2.251488133067749,-1.0350139776812952,0.46598315238952637
1708438045.1027188,-1.0720880031585693,-1.698804040948385,-2.5364261309253138,2.2510804372974853,-1.0353911558734339,0.46906572580337524
1708438045.1047144,-1.0716322660446167,-1.6990729771056117,-2.536631170903341,2.250713511104248,-1.0356791655169886,0.47192153334617615
1708438045.1067576,-1.0711725950241089,-1.6992632351317347,-2.5367959181415003,2.250281496638916,-1.036022965108053,0.47495463490486145
1708438045.1087196,-1.070757269859314,-1.6994630299010218,-2.536943260823385,2.2498771387287597,-1.0364411512957972,0.47774770855903625
1708438045.110726,-1.0703226327896118,-1.6997267208495082,-2.5371275583850306,2.249579592342041,-1.036673370991842,0.4807819724082947
1708438045.1127598,-1.0699151754379272,-1.6999665699400843,-2.5372496286975306,2.2491585451313476,-1.0369938055621546,0.4837326407432556
1708438045.1147277,-1.0694749355316162,-1.700198312798971,-2.5373860041247767,2.248845024699829,-1.037337605153219,0.4868263900279999
1708438045.1167576,-1.0690056085586548,-1.7004553280272425,-2.5375986734973353,2.24845997869458,-1.0375879446612757,0.48976412415504456
1708438045.1187258,-1.0685992240905762,-1.7006522617735804,-2.5377872625934046,2.248142881984375,-1.0379322210894983,0.4928646683692932
1708438045.1207128,-1.068113088607788,-1.7008348904051722,-2.537992064152853,2.247704191798828,-1.038222614918844,0.49593472480773926
1708438045.1227627,-1.0676994323730469,-1.701071401635641,-2.538114372883932,2.247377796764038,-1.0385263601886194,0.4990518093109131
1708438045.1247287,-1.0672850608825684,-1.7013269863524378,-2.5382867495166224,2.2469681936451416,-1.0388396422015589,0.501986026763916
1708438045.126739,-1.0668203830718994,-1.7015391788878382,-2.5384302775012415,2.246673746699951,-1.0390809218036097,0.5049254298210144
1708438045.1287513,-1.0664362907409668,-1.7017704449095667,-2.538635555897848,2.246309681529663,-1.0394704977618616,0.507855236530304
1708438045.1307383,-1.0659483671188354,-1.7019363842406214,-2.5387828985797327,2.245846911067627,-1.0397785345660608,0.5107477307319641
1708438045.1328394,-1.0655101537704468,-1.702156206170553,-2.539016071950094,2.2455622392841796,-1.0400927702533167,0.5137977600097656
1708438045.1348004,-1.065067172050476,-1.702367445031637,-2.539154593144552,2.245180531139038,-1.0404937903033655,0.5167325139045715
1708438045.1367452,-1.0647149085998535,-1.7025829754271449,-2.539302174245016,2.2448958593555908,-1.0407674948321741,0.5197052359580994
1708438045.1387188,-1.0642507076263428,-1.7028104267516078,-2.5395594278918665,2.244469090098999,-1.0410855452166956,0.522687554359436
1708438045.1407447,-1.0638070106506348,-1.7030345402159632,-2.539694611226217,2.244170590037964,-1.0413935820208948,0.5257183313369751
1708438045.1427288,-1.0634284019470215,-1.7032705746092738,-2.5398667494403284,2.243842287654541,-1.0417216459857386,0.5287476778030396
1708438045.1447248,-1.0630232095718384,-1.7034574947752894,-2.5400143305407923,2.243417187328003,-1.0420287291156214,0.5318034887313843
1708438045.1467323,-1.0626451969146729,-1.70365633587026,-2.540206257496969,2.2430807787128906,-1.0423310438739222,0.5346704125404358
1708438045.1487076,-1.062279462814331,-1.7038642368712367,-2.540372912083761,2.242739124889038,-1.0426633993731897,0.5377480983734131
1708438045.1507146,-1.0618435144424438,-1.7041212520995082,-2.540553156529562,2.242443247432373,-1.0429509321795862,0.5406355857849121
1708438045.152739,-1.0614371299743652,-1.7042509518065394,-2.540741507207052,2.2421414095112304,-1.043274227772848,0.543644368648529
1708438045.1547244,-1.0609931945800781,-1.7044626675047816,-2.5409989992724817,2.241707964534424,-1.0435941855060022,0.5466632843017578
1708438045.156754,-1.0605942010879517,-1.7046624622740687,-2.541171375905172,2.2413508135029296,-1.0439417997943323,0.5497060418128967
1708438045.1587243,-1.0602487325668335,-1.7049023113646449,-2.5412846247302454,2.2411059576221923,-1.0442364851581019,0.5526763200759888
1708438045.1607218,-1.0598328113555908,-1.7050405941405238,-2.541452948247091,2.2407571512409667,-1.044579807912008,0.5557199120521545
1708438045.1627417,-1.0594679117202759,-1.705203195611471,-2.5416088739978235,2.240441008205078,-1.0449684301959437,0.5586798191070557
1708438045.1647272,-1.0590813159942627,-1.7054273090758265,-2.541809145604269,2.240109606380127,-1.0453370253192347,0.5617272853851318
1708438045.166789,-1.058719277381897,-1.7056437931456507,-2.5420427958117884,2.2398125368305664,-1.0455902258502405,0.5646936893463135
1708438045.1687684,-1.0582619905471802,-1.7057777843871058,-2.54218560854067,2.239602251643799,-1.0459287802325647,0.567672848701477
1708438045.1707153,-1.0579005479812622,-1.7060357532896937,-2.542361561452047,2.239290400142334,-1.0463503042804163,0.5705697536468506
1708438045.172758,-1.05756676197052,-1.706203123132223,-2.5425456205951136,2.2390519815632324,-1.046704117451803,0.5734657645225525
1708438045.174728,-1.0571430921554565,-1.706341405908102,-2.542741839085714,2.238776131267212,-1.047056023274557,0.5764268040657043
1708438045.1767635,-1.0567797422409058,-1.7065168819823207,-2.542905632649557,2.238438053722046,-1.0474074522601526,0.5792058706283569
1708438045.1787505,-1.0564874410629272,-1.7067300281920375,-2.5430496374713343,2.238224430675171,-1.0476983229266565,0.5821621417999268
1708438045.180727,-1.0560872554779053,-1.7068683109679164,-2.5432336966144007,2.2378954130360107,-1.0480425993548792,0.5851083993911743
1708438045.1827877,-1.0557045936584473,-1.7070514164366664,-2.5433808008777063,2.2375823694416503,-1.048361603413717,0.588103711605072
1708438045.184778,-1.0553581714630127,-1.7072025738158167,-2.54358154932131,2.2373103338428955,-1.0486481825457972,0.591166615486145
1708438045.18679,-1.0550185441970825,-1.7074228725829066,-2.5437572638141077,2.237071676845215,-1.0489385763751429,0.5941410660743713
1708438045.1887562,-1.0546925067901611,-1.707578798333639,-2.5439205805407923,2.2367636400410156,-1.0492704550372522,0.5971367359161377
1708438045.1907523,-1.0543532371520996,-1.7077218494811,-2.5441258589373987,2.236519976253174,-1.049591366444723,0.6000784635543823
1708438045.1927404,-1.0540716648101807,-1.70790495494985,-2.5442732016192835,2.2362608152576904,-1.049873177205221,0.6029083132743835
1708438045.1947088,-1.0537534952163696,-1.7080451450743617,-2.544497791920797,2.236013336772583,-1.0501821676837366,0.6058030128479004
1708438045.196719,-1.0534051656723022,-1.7082215748228968,-2.544628683720724,2.2357165056416015,-1.0505316893206995,0.6086819171905518
1708438045.198731,-1.0530943870544434,-1.7083484135069789,-2.5448368231402796,2.235534830684326,-1.0508788267718714,0.6116801500320435
1708438045.2007053,-1.0527832508087158,-1.7084762058653773,-2.545025889073507,2.235241337413452,-1.0511863867389124,0.6143797636032104
1708438045.202727,-1.0524861812591553,-1.7086597881712855,-2.545164171849386,2.235022707576416,-1.0515297094928187,0.6174154877662659
1708438045.2047136,-1.0521658658981323,-1.708811422387594,-2.5453856627093714,2.234752817744873,-1.0518868605243128,0.6203609704971313
1708438045.2067413,-1.0518558025360107,-1.7088948688902796,-2.5455198923694056,2.2345949846455078,-1.0522339979754847,0.623394787311554
1708438045.20873,-1.0515605211257935,-1.7090908489623011,-2.5457115809070032,2.2343670564838867,-1.0525935331927698,0.6262373328208923
1708438045.2107306,-1.051212191581726,-1.7091900310912074,-2.5459535757647913,2.234146996135376,-1.0529144446002405,0.6290574669837952
1708438045.212773,-1.050994873046875,-1.7093216381468714,-2.5460684935199183,2.2339562612720947,-1.0532081762896937,0.6319355368614197
1708438045.214741,-1.0506879091262817,-1.7094532452025355,-2.5462775866137903,2.2337795931049804,-1.0535443464862269,0.6345876455307007
1708438045.2167788,-1.0504130125045776,-1.7096535168089808,-2.54637581506838,2.233571692104004,-1.0538037459002894,0.6374402642250061
1708438045.2187834,-1.050092339515686,-1.7097202740111292,-2.5466092268573206,2.2333876329609375,-1.0540826956378382,0.6402187943458557
1708438045.2207327,-1.0498584508895874,-1.7098685703673304,-2.54678184190859,2.233199043864868,-1.0543912092791956,0.6429456472396851
1708438045.222735,-1.049570918083191,-1.7099839649596156,-2.5469170252429407,2.2329792219349365,-1.0547164122210901,0.6457032561302185
1708438045.2247317,-1.0493656396865845,-1.7101923427977503,-2.547096316014425,2.2328037458607177,-1.0549667517291468,0.6485083103179932
1708438045.2267175,-1.0490527153015137,-1.710247655908102,-2.547260347996847,2.232611818904541,-1.0552342573748987,0.6513507962226868
1708438045.2287207,-1.048855185508728,-1.710363050500387,-2.5474117437945765,2.2324678140827636,-1.055568043385641,0.6541427969932556
1708438045.230716,-1.0485626459121704,-1.7104512653746546,-2.5476039091693323,2.232275887126587,-1.055859390889303,0.6569649577140808
1708438045.2327704,-1.04830002784729,-1.7106148205199183,-2.5477803389178675,2.2321368890949707,-1.0562084356891077,0.6596812605857849
1708438045.2347379,-1.048114538192749,-1.710726877252096,-2.547924343739645,2.23198048650708,-1.0564869085894983,0.6623609662055969
1708438045.2367816,-1.0478501319885254,-1.7108222446837367,-2.5480757395373743,2.231865807170532,-1.0567706266986292,0.6649797558784485
1708438045.2387486,-1.0476714372634888,-1.710959096948141,-2.548248593007223,2.2316152292438964,-1.0570867697345179,0.6676855683326721
1708438045.2407565,-1.047477126121521,-1.7110010586180628,-2.5483465830432337,2.231492443675659,-1.0573490301715296,0.6702625155448914
1708438045.2427504,-1.0472244024276733,-1.7111293278136195,-2.54850680032839,2.2314137655445556,-1.0576251188861292,0.6730405688285828
1708438045.244781,-1.0470244884490967,-1.7112490139403285,-2.548698965703146,2.231282873744629,-1.0579140822040003,0.6756125688552856
1708438045.2467241,-1.0468214750289917,-1.7112676105894984,-2.548851553593771,2.2311135965534667,-1.058160130177633,0.6783455014228821
1708438045.2487707,-1.0467039346694946,-1.7114283047118128,-2.5489419142352503,2.2309984403797607,-1.05841571489443,0.6809900999069214
1708438045.2507625,-1.0464426279067993,-1.7114950619139613,-2.5491185824023646,2.2308499056049804,-1.0586593786822718,0.6836714744567871
1708438045.252725,-1.0462636947631836,-1.7115756473936976,-2.549311939870016,2.2306887346455078,-1.058972183858053,0.6863536238670349
1708438045.2547717,-1.046063780784607,-1.7117158375182093,-2.549480978642599,2.2306558328815917,-1.0591333548175257,0.6889749765396118
1708438045.2567337,-1.0459537506103516,-1.7117687664427699,-2.5495711008654993,2.2305075365253906,-1.059467617665426,0.6914836764335632
1708438045.258736,-1.0457333326339722,-1.7118269405760707,-2.5496707598315638,2.2303497034260253,-1.0596955458270472,0.694075345993042
1708438045.2607152,-1.0456113815307617,-1.7119389973082484,-2.5498395601855677,2.230243130321167,-1.0599754492389124,0.6965624690055847
1708438045.262711,-1.04543137550354,-1.7120067081847132,-2.549999777470724,2.230137510890625,-1.0602934996234339,0.6990340948104858
1708438045.2647252,-1.045279622077942,-1.7120901546873988,-2.550124231969015,2.2301041322895507,-1.0604866186725062,0.7016253471374512
1708438045.2667394,-1.0450750589370728,-1.712247987786764,-2.5501745382892054,2.2300354677387695,-1.0607417265521448,0.70404052734375
1708438045.2687612,-1.0449987649917603,-1.712243219415182,-2.5503225962268274,2.2299677568623046,-1.060986344014303,0.7065436244010925
1708438045.270744,-1.0448055267333984,-1.7123023472227992,-2.550466601048605,2.2299081522175292,-1.06128436723818,0.7089949250221252
1708438045.2727559,-1.0446746349334717,-1.7123247585692347,-2.5505669752704065,2.229863091106079,-1.0614894072162073,0.7114965319633484
1708438045.2748222,-1.0445353984832764,-1.7124177418150843,-2.550678316746847,2.229821129436157,-1.0617716948138636,0.713978111743927
1708438045.2767334,-1.0444469451904297,-1.712400575677389,-2.5507851282702845,2.2297229009815673,-1.0619247595416468,0.7165302634239197
1708438045.2787325,-1.0443085432052612,-1.7125140629210414,-2.5509465376483362,2.2296876150318603,-1.0621479193316858,0.7190342545509338
1708438045.2807379,-1.0441957712173462,-1.7126065693297328,-2.5510383288012903,2.2296876150318603,-1.0624221006976526,0.7215081453323364
1708438045.2827365,-1.0441133975982666,-1.712626119653219,-2.5511704126941126,2.2295829492756347,-1.062685791646139,0.7238603234291077
1708438045.2847307,-1.043980598449707,-1.712621351281637,-2.5513108412372034,2.229511185283325,-1.0629094282733362,0.7263265252113342
1708438045.2867284,-1.0439149141311646,-1.712660928765768,-2.55139404932131,2.2295161920734863,-1.0631092230426233,0.7285239696502686
1708438045.2887256,-1.0438995361328125,-1.712712904016012,-2.551530186329977,2.2294229704090576,-1.0633037726031702,0.7309908270835876
1708438045.2907715,-1.0437949895858765,-1.7127453289427699,-2.5516629854785364,2.2293965059467773,-1.0635374228106897,0.7332597374916077
1708438045.2927523,-1.043699860572815,-1.7127529583373011,-2.551812473927633,2.2293564516254882,-1.0636385122882288,0.7357655167579651
1708438045.2947466,-1.0436190366744995,-1.7127968273558558,-2.551878039036886,2.2293781477161865,-1.0638931433307093,0.7379451394081116
1708438045.296725,-1.0435750484466553,-1.7127558193602503,-2.551965061818258,2.2293168741413574,-1.064063851033346,0.740399181842804
1708438045.2987359,-1.0434561967849731,-1.7128488026061,-2.552110258732931,2.2292768198200683,-1.0641854445086878,0.7426616549491882
1708438045.3007476,-1.0434244871139526,-1.7128564320006312,-2.5521605650531214,2.2292610841938476,-1.0643909613238733,0.7451244592666626
1708438045.3027468,-1.0433112382888794,-1.7128402195372523,-2.552289072667257,2.229285641307495,-1.0645511786090296,0.7473734021186829
1708438045.3047142,-1.043286919593811,-1.7128879032530726,-2.5524144808398646,2.229247971171997,-1.0647056738482874,0.7496672868728638
1708438045.3067195,-1.0432772636413574,-1.712872167626852,-2.5525103251086634,2.229309244746826,-1.0649140516864222,0.7518936395645142
1708438045.3087451,-1.0432080030441284,-1.712839265862936,-2.5525649229632776,2.2293125826069335,-1.0650909582721155,0.7541194558143616
1708438045.3107543,-1.0432100296020508,-1.7128378353514613,-2.5527101198779505,2.229348345393799,-1.0652793089496058,0.756319522857666
1708438045.3127296,-1.043107509613037,-1.712839265862936,-2.5527573267566126,2.229397698039673,-1.0654428640948694,0.7585067749023438
1708438045.314733,-1.0431456565856934,-1.7128316364684046,-2.5528693834887903,2.229409380550049,-1.065594498311178,0.760668933391571
1708438045.316719,-1.0430892705917358,-1.7128273449339808,-2.5529871622668665,2.229437752360962,-1.0657413641559046,0.762891411781311
1708438045.318744,-1.043048620223999,-1.712839265862936,-2.553070847188131,2.229500933284424,-1.065913502370016,0.7649941444396973
1708438045.3207288,-1.0430572032928467,-1.7128120861449183,-2.5530603567706507,2.2294303613850097,-1.0660904089557093,0.767102062702179
1708438045.3227198,-1.0430936813354492,-1.7128478489317835,-2.553180996571676,2.2295331197926025,-1.066192928944723,0.7691735625267029
1708438045.3247333,-1.0430324077606201,-1.7127672634520472,-2.5532575289355677,2.229581041927002,-1.0663450399981897,0.771274745464325
1708438045.3267424,-1.043069839477539,-1.7127672634520472,-2.5533164183246058,2.2297019201466064,-1.0664566198932093,0.7734368443489075
1708438045.328786,-1.043099284172058,-1.7127343616881312,-2.553380791340963,2.2296854692646484,-1.0666106382953089,0.7755929827690125
1708438045.330729,-1.0431056022644043,-1.712675233880514,-2.553464714680807,2.2296876150318603,-1.0666936079608362,0.7777702808380127
1708438045.3327515,-1.0431303977966309,-1.7126718960204066,-2.553533379231588,2.229752226466797,-1.0668490568744105,0.7798733115196228
1708438045.3347502,-1.0431863069534302,-1.712668081323141,-2.553589169179098,2.2298590379902343,-1.0669615904437464,0.7819466590881348
1708438045.3367362,-1.0432113409042358,-1.7126766643919886,-2.5536816755877894,2.229865236873291,-1.0670607725726526,0.7839939594268799
1708438045.3387709,-1.043233871459961,-1.712599893609518,-2.553676430379049,2.2298523622700195,-1.0671551863299769,0.7859618663787842
1708438045.3407352,-1.0432789325714111,-1.7125684223570765,-2.553781334553854,2.229932947749756,-1.0672600905047815,0.7879267930984497
1708438045.3427677,-1.0432902574539185,-1.712553163568014,-2.553849522267477,2.229992552394531,-1.0673602263080042,0.7898348569869995
1708438045.3447502,-1.043330192565918,-1.712520261804098,-2.5538604895221155,2.2300538259693603,-1.0674636999713343,0.7917075753211975
1708438045.346739,-1.0433624982833862,-1.7124973736205042,-2.553957764302389,2.230055971736572,-1.0675762335406702,0.7936460375785828
1708438045.348742,-1.0433861017227173,-1.712510725060934,-2.5539525190936487,2.2301334577747802,-1.0676305929767054,0.7955382466316223
1708438045.3507495,-1.0434463024139404,-1.7123547993102015,-2.5539961496936243,2.2302180963703613,-1.0677560011493128,0.7974545359611511
1708438045.3527396,-1.0434819459915161,-1.7124673328795375,-2.554056946431295,2.230269356364868,-1.0677622000323694,0.7992890477180481
1708438045.35473,-1.0435296297073364,-1.7123528919615687,-2.5541048685656946,2.2303449350544433,-1.0679166952716272,0.8012273907661438
1708438045.3567524,-1.0435773134231567,-1.7123462162413539,-2.554140869771139,2.230445309276245,-1.0679600874530237,0.8030639290809631
1708438045.3587332,-1.043597936630249,-1.7122603855528773,-2.55420953432192,2.230504198665283,-1.0679824987994593,0.8049463033676147
1708438045.3607502,-1.043644905090332,-1.7122732601561488,-2.554216210042135,2.230653925532959,-1.0680635611163538,0.8067232370376587
1708438045.3627577,-1.0437301397323608,-1.7122169933714808,-2.554244581853048,2.230729027385376,-1.0681117216693323,0.8085776567459106
1708438045.3647413,-1.0437523126602173,-1.712250371972555,-2.554243866597311,2.230870171184204,-1.0681327025042933,0.810370922088623
1708438045.3667688,-1.0438005924224854,-1.7121569118895472,-2.554300133381979,2.230961247081421,-1.068263355885641,0.8121967911720276
1708438045.3687825,-1.0439180135726929,-1.712133070031637,-2.554312292729513,2.23108093320813,-1.0682662169085901,0.8138554096221924
1708438045.3707535,-1.0439519882202148,-1.712081094781393,-2.5543199221240442,2.2311605650135498,-1.0683916250811976,0.8155665397644043
1708438045.3728096,-1.0440654754638672,-1.7120610676207484,-2.5543764273272913,2.23127190648999,-1.0684025923358362,0.817222535610199
1708438045.3747602,-1.0441200733184814,-1.7119971714415492,-2.5543885866748255,2.231393023128174,-1.0684297720538538,0.818875789642334
1708438045.3767486,-1.0442078113555908,-1.7119862041869105,-2.5544005076037806,2.2314604955860595,-1.068531338368551,0.8205471038818359
1708438045.3787417,-1.0442787408828735,-1.7119370899596156,-2.5543962160693567,2.2315806585499267,-1.068570915852682,0.8220499753952026
1708438045.3807428,-1.0443921089172363,-1.711877008477682,-2.554420296345846,2.231701536769531,-1.0685871283160608,0.8236948847770691
1708438045.3828237,-1.0444787740707397,-1.7118531666197718,-2.554432217274801,2.2317604261585693,-1.0686138311969202,0.8253171443939209
1708438045.3847246,-1.0446512699127197,-1.711846490899557,-2.5544074217425745,2.231896324748657,-1.0686052481280726,0.8269071578979492
1708438045.3867588,-1.044723629951477,-1.711708208123678,-2.5544031302081507,2.231947584743164,-1.0685842672931116,0.8284969329833984
1708438045.388743,-1.0448139905929565,-1.7117215595641078,-2.5544562975512903,2.232062979335449,-1.0685799757586878,0.829955518245697
1708438045.3907347,-1.0449286699295044,-1.711630483666891,-2.5544193426715296,2.2321807581135253,-1.068639103566305,0.8315255641937256
1708438045.3927414,-1.045015811920166,-1.7115704021849574,-2.5544031302081507,2.23234145223584,-1.0685933271991175,0.8330332636833191
1708438045.3947382,-1.0452332496643066,-1.71156706432485,-2.554404083882467,2.2324272829243164,-1.0685771147357386,0.8345398306846619
1708438045.3967462,-1.0453240871429443,-1.711531778375143,-2.5544074217425745,2.232588930720947,-1.0685575644122522,0.8361220955848694
1708438045.3987377,-1.0454144477844238,-1.7114106617369593,-2.554386917744772,2.2326716619678955,-1.0685532728778284,0.8375250101089478
1708438045.4007516,-1.04554283618927,-1.711313863793844,-2.554375712071554,2.232821150416992,-1.068561855946676,0.8390552401542664
1708438045.402761,-1.0456833839416504,-1.7112461529173792,-2.5543833414660853,2.23291198789563,-1.068538014088766,0.8404688835144043
1708438045.4047482,-1.0458190441131592,-1.7111865482726039,-2.5544005076037806,2.233067436809204,-1.0684436003314417,0.841924250125885
1708438045.4067605,-1.0459620952606201,-1.7111145458617152,-2.554335419331686,2.2332157331654052,-1.0684941450702112,0.8433632254600525
1708438045.4087484,-1.0461020469665527,-1.7110144100584925,-2.5543721357928675,2.233351154918335,-1.0684016386615198,0.8446962833404541
1708438045.4107394,-1.0462735891342163,-1.7110196552672328,-2.554324213658468,2.2334794241138916,-1.0683730284320276,0.846102237701416
1708438045.4127705,-1.0463889837265015,-1.710935731927389,-2.5542665163623255,2.2336360651203613,-1.0683782736407679,0.8473743796348572
1708438045.4147546,-1.0464993715286255,-1.7108198604979457,-2.5542882124530237,2.233865662212036,-1.0682933966266077,0.8486812710762024
1708438045.4167738,-1.0466679334640503,-1.7107511959471644,-2.554227415715353,2.2339517313190917,-1.0682366530047815,0.8498562574386597
1708438045.4188023,-1.0468153953552246,-1.7107321224608363,-2.5541957060443323,2.234088106746338,-1.0682128111468714,0.8511844873428345
1708438045.4207804,-1.0469913482666016,-1.710640092889303,-2.554155413304464,2.234208508128784,-1.0682051817523401,0.8524181842803955
1708438045.422809,-1.047167420387268,-1.710580965081686,-2.5541606585132044,2.2343804079243164,-1.0681780020343226,0.8535978198051453
1708438045.424778,-1.047274112701416,-1.7104808292784632,-2.5540791193591517,2.234532042140625,-1.068146053944723,0.8547828197479248
1708438045.4267774,-1.047433853149414,-1.710332532922262,-2.5541041533099573,2.2346109586903076,-1.068035904561178,0.8559979200363159
1708438045.428782,-1.0475798845291138,-1.7102967701353968,-2.5540927092181605,2.23479072629895,-1.0680325667010706,0.8571897149085999
1708438045.430744,-1.047747254371643,-1.7102014027037562,-2.5539994875537317,2.2349278169819335,-1.0680177847491663,0.8583454489707947
1708438045.4327614,-1.0479480028152466,-1.7101251087584437,-2.5539754072772425,2.235095663661621,-1.0679939428912562,0.8594655990600586
1708438045.434769,-1.0480871200561523,-1.7101065121092738,-2.5539754072772425,2.235219641322754,-1.0679457823382776,0.8605509996414185
1708438045.4367685,-1.0482219457626343,-1.7099739513792933,-2.553943936024801,2.2353173929401855,-1.0678442160235804,0.8617573380470276
1708438045.4387562,-1.0484347343444824,-1.7099667988219203,-2.5539000670062464,2.235544129008911,-1.0678260962115687,0.8627697825431824
1708438045.4407613,-1.0486420392990112,-1.709818025628561,-2.5538762251483362,2.235667868251465,-1.067742172871725,0.8638535737991333
1708438045.4427419,-1.0487983226776123,-1.7097183666624964,-2.553851906453268,2.2357701498218994,-1.0676072279559534,0.8649153113365173
1708438045.4447403,-1.0489120483398438,-1.7096620998778285,-2.5538323561297815,2.2359554010578613,-1.0675814787494105,0.8659833073616028
1708438045.44675,-1.049103021621704,-1.7095304928221644,-2.5537923018084925,2.2361277776905517,-1.0674727598773401,0.8669772744178772
1708438045.448797,-1.0492547750473022,-1.7095395527281703,-2.55373984972109,2.2362302976795654,-1.067404572163717,0.8679921627044678
1708438045.4507203,-1.0494384765625,-1.7094274959959925,-2.553699556981222,2.236436291331909,-1.0673206488238733,0.8689356446266174
1708438045.45274,-1.049614429473877,-1.7093068561949671,-2.5536754767047327,2.236588163966797,-1.0672157446490687,0.8699299693107605
1708438045.454717,-1.0497366189956665,-1.709198614160055,-2.553636137639181,2.2367233473011474,-1.067202393208639,0.870869517326355
1708438045.4568102,-1.049960970878601,-1.7091556988158167,-2.5536120573626917,2.236854239101074,-1.0670703093158167,0.8718205094337463
1708438045.458738,-1.0501335859298706,-1.7090188465514125,-2.5535720030414026,2.237034960384033,-1.066937271748678,0.8726051449775696
1708438045.4607415,-1.0503159761428833,-1.708980222741598,-2.553500000630514,2.2371548849293212,-1.0668204466449183,0.8735506534576416
1708438045.4627635,-1.050478219985962,-1.7088233433165492,-2.553472344075338,2.237285776729248,-1.0667246023761194,0.8743538856506348
1708438045.464755,-1.0506542921066284,-1.7087723217406214,-2.5534570852862757,2.237462206477783,-1.066629711781637,0.8751404881477356
1708438045.4667645,-1.0508496761322021,-1.7086926899352015,-2.5533679167376917,2.2375618654438476,-1.0665038267718714,0.8759709596633911
1708438045.4687717,-1.0510002374649048,-1.708621164361471,-2.5533199946032923,2.237734003657959,-1.06642991701235,0.8767061233520508
1708438045.4707801,-1.0512090921401978,-1.708545824090475,-2.553222719823019,2.237910671825073,-1.0662758986102503,0.8773813247680664
1708438045.4727516,-1.051358938217163,-1.7083856068053187,-2.553200070058004,2.2380096155354003,-1.0661729017840784,0.8780727386474609
1708438045.474764,-1.051558494567871,-1.708329816857809,-2.553147617970602,2.2381574350544433,-1.0660689512835901,0.8788144588470459
1708438045.476786,-1.0516973733901978,-1.7082420788206996,-2.5531161467181605,2.2382921415516357,-1.0659330526935022,0.8794463276863098
1708438045.4787638,-1.0518885850906372,-1.7081343136229457,-2.553011480961935,2.238506479854248,-1.065812889729635,0.8801411986351013
1708438045.4807496,-1.0521057844161987,-1.7079936466612757,-2.5529349485980433,2.2386507230946044,-1.0656560103045862,0.880748987197876
1708438045.4828184,-1.0522527694702148,-1.7079712353148402,-2.552870814000265,2.238769455546997,-1.0656312147723597,0.8813384771347046
1708438045.4848,-1.052464246749878,-1.7078429661192835,-2.552819315587179,2.2388931947895507,-1.06547719637026,0.8819028735160828
1708438045.4867244,-1.0526196956634521,-1.7077437839903773,-2.5527711550342005,2.2390448290058593,-1.0653541723834437,0.8825252056121826
1708438045.4887152,-1.052767038345337,-1.7076150379576625,-2.552666727696554,2.2391761976429443,-1.0651925245868128,0.8830939531326294
1708438045.4907093,-1.0529183149337769,-1.7075067959227503,-2.552648131047384,2.239365978831909,-1.0650976339923304,0.88356614112854
1708438045.492736,-1.053064227104187,-1.7074510059752406,-2.5525673071490687,2.2395056921192626,-1.0649498144732874,0.884052038192749
1708438045.4947078,-1.0533018112182617,-1.7073642216124476,-2.552499834691183,2.2396320539661865,-1.064850155507223,0.8844757080078125
1708438045.496723,-1.0534440279006958,-1.7072693310179652,-2.552464787160055,2.2398294645496826,-1.0646899382220667,0.8850157260894775
1708438045.4987543,-1.053604006767273,-1.707156320611471,-2.5523386637317103,2.23999731122937,-1.0645459334002894,0.8853711485862732
1708438045.5007133,-1.0537875890731812,-1.7070476017394007,-2.552267376576559,2.240072413081787,-1.0643981138812464,0.8858119249343872
1708438045.5027878,-1.0539418458938599,-1.7069975338377894,-2.552182737980978,2.2402688699909667,-1.0642908255206507,0.8861624598503113
1708438045.5047088,-1.0541023015975952,-1.7068926296629847,-2.5520907084094446,2.2403885561176757,-1.0641263167010706,0.8865416049957275
1708438045.506751,-1.054343342781067,-1.7068091831602992,-2.552018705998556,2.2405294614979248,-1.0639451185809534,0.8868744969367981
1708438045.5087168,-1.0544769763946533,-1.7066923580565394,-2.5519796053515833,2.2406272131153564,-1.0638178030597132,0.8871898651123047
1708438045.5107172,-1.0546519756317139,-1.7066098652281703,-2.5518670717822474,2.240779085750244,-1.0636785666095179,0.8874704241752625
1708438045.5127702,-1.054822564125061,-1.7065426311888636,-2.5517712275134485,2.240915222758911,-1.0635297934161585,0.8877211809158325
1708438045.5147786,-1.055018663406372,-1.706454416314596,-2.551671091710226,2.2410518366047363,-1.0633562246905726,0.8879589438438416
1708438045.5167503,-1.0552349090576172,-1.706341405908102,-2.551612202321188,2.2412070470997314,-1.0632465521441858,0.8882153034210205
1708438045.518732,-1.0554152727127075,-1.706261774102682,-2.5514867941485804,2.241351290340088,-1.0630934874164026,0.8883929252624512
1708438045.5207417,-1.0556021928787231,-1.7062069378294886,-2.551415506993429,2.2414960104176025,-1.0629633108722132,0.8885886073112488
1708438045.522745,-1.0558050870895386,-1.7060901127257289,-2.551364246998922,2.2416884142109375,-1.0627697149859827,0.8887512683868408
1708438045.524778,-1.0559637546539307,-1.7059909305968226,-2.551250998173849,2.2418200212666015,-1.062606159840719,0.8888530135154724
1708438045.526721,-1.0561069250106812,-1.7059561214842738,-2.551110331212179,2.241952343578003,-1.0624373594867151,0.8889235258102417
1708438045.5287514,-1.0563068389892578,-1.7058035335936488,-2.551103655491964,2.2420384126850585,-1.0622976461993616,0.8890279531478882
1708438045.5307348,-1.0564566850662231,-1.7057348690428675,-2.550951067601339,2.2422608572193603,-1.0621383825885218,0.8890292644500732
1708438045.5328128,-1.0567017793655396,-1.7057000599303187,-2.5509162584887903,2.242335005397461,-1.0619586149798792,0.8890950083732605
1708438045.5348265,-1.0568550825119019,-1.7055798969664515,-2.5507875124560755,2.2424544531055908,-1.0617664496051233,0.8890773057937622
1708438045.5367317,-1.0570589303970337,-1.705508371392721,-2.550727430974142,2.2425853449055175,-1.061648193989889,0.8890326619148254
1708438045.5387456,-1.0572680234909058,-1.7054416141905726,-2.5505955854998987,2.2428125578114013,-1.0614388624774378,0.8889474868774414
1708438045.5407152,-1.0574668645858765,-1.7053615055479945,-2.5505312124835413,2.2429043489643554,-1.0612710157977503,0.8889013528823853
1708438045.5427294,-1.057671308517456,-1.7052084408202113,-2.550439421330587,2.243023081416748,-1.0611284414874476,0.8887403011322021
1708438045.5447226,-1.0578093528747559,-1.7051416836180628,-2.5503230730639856,2.243187351817749,-1.0609353224383753,0.8886010646820068
1708438045.5467243,-1.0579807758331299,-1.70507874111318,-2.550300900136129,2.243281765575073,-1.0607312361346644,0.8884788751602173
1708438045.5487614,-1.0581881999969482,-1.7049414120116175,-2.550126854573385,2.243454857463501,-1.0605633894549769,0.8882579803466797
1708438045.5507305,-1.0583882331848145,-1.7048503361144007,-2.550046984349386,2.243623657817505,-1.0603740851031702,0.8881267309188843
1708438045.5527556,-1.0585519075393677,-1.7047211132445277,-2.5499921480761927,2.243718309993408,-1.0602152983294886,0.8879237771034241
1708438045.5547278,-1.0586942434310913,-1.7046743832030238,-2.549884621297018,2.2438341814228515,-1.0600593725787562,0.8877249360084534
