Eg3-git/Classifiers/Data Collection/u6/u6cir2_ur3e_joint_states.csv
time,elbow_joint,shoulder_lift_joint,shoulder_pan_joint,wrist_1_joint,wrist_2_joint,wrist_3_joint
1708438024.6006696,-1.115586280822754,-1.676155229608053,-2.525674645100729,2.291422052974365,-1.0157201925860804,0.042808495461940765
1708438024.60261,-1.1156277656555176,-1.6761309109129847,-2.5257194677936,2.291486902827881,-1.0157364050494593,0.04283713549375534
1708438024.6046026,-1.1156245470046997,-1.676164289514059,-2.525670115147726,2.2914492326923828,-1.0156953970538538,0.04284156486392021
1708438024.6065946,-1.115627646446228,-1.6761890850462855,-2.525723997746603,2.2914458948322753,-1.0157159010516565,0.04284604266285896
1708438024.6086206,-1.1156320571899414,-1.676192422906393,-2.5256956259356897,2.291428490276001,-1.015679184590475,0.04282489791512489
1708438024.610602,-1.1156827211380005,-1.6762134037413539,-2.525738779698507,2.2914492326923828,-1.0157201925860804,0.042812980711460114
1708438024.612584,-1.1156232357025146,-1.6761847935118617,-2.525790039693014,2.2914902406879882,-1.0156953970538538,0.04278772696852684
1708438024.6146293,-1.115657091140747,-1.6761757336058558,-2.525759998952047,2.2914621072956542,-1.0156996885882776,0.04281295835971832
1708438024.6166575,-1.1156682968139648,-1.676218172112936,-2.525769058858053,2.291461153621338,-1.0157440344439905,0.04277695715427399
1708438024.6186662,-1.1156858205795288,-1.6761890850462855,-2.525705877934591,2.2914373117634277,-1.0157116095172327,0.04273979738354683
1708438024.6207044,-1.1156727075576782,-1.6761518917479457,-2.5257886091815394,2.291416569347046,-1.0157440344439905,0.042769502848386765
1708438024.6226225,-1.11566960811615,-1.6761800251402796,-2.5257464090930384,2.291494532222412,-1.0157073179828089,0.042814403772354126
1708438024.624638,-1.1156364679336548,-1.6761428318419398,-2.5257628599749964,2.2914578157612304,-1.015768829976217,0.042823467403650284
1708438024.6266222,-1.1156394481658936,-1.6761747799315394,-2.5257869402514856,2.2914578157612304,-1.0156744162188929,0.04272008687257767
1708438024.6286073,-1.1156682968139648,-1.676188131371969,-2.5257886091815394,2.291506453151367,-1.015768829976217,0.04274127259850502
1708438024.6306078,-1.1156846284866333,-1.676164289514059,-2.5257840792285364,2.2915353017994384,-1.01569110551943,0.04274129122495651
1708438024.6326187,-1.115665316581726,-1.6762148342528285,-2.525734249745504,2.2914773660847167,-1.0157159010516565,0.04271271452307701
1708438024.6346555,-1.1156609058380127,-1.67612948040151,-2.5258169809924524,2.291452332133911,-1.0157397429095667,0.04267029091715813
1708438024.636665,-1.1156563758850098,-1.6761847935118617,-2.5257538000689905,2.2914492326923828,-1.0157602469073694,0.04275015369057655
1708438024.6386127,-1.1156725883483887,-1.676159997979635,-2.5258243719684046,2.291484757060669,-1.0157483259784144,0.04266737774014473
1708438024.6406286,-1.1156394481658936,-1.6761476002135218,-2.5257373491870325,2.2914654451557617,-1.0157678763019007,0.04267201945185661
1708438024.6426115,-1.1156476736068726,-1.676138540307516,-2.5257914702044886,2.2914978700825195,-1.0157354513751429,0.04265569522976875
1708438024.644615,-1.1156727075576782,-1.6761428318419398,-2.525827471409933,2.2915140825458984,-1.0157430807696741,0.042683735489845276
1708438024.6466143,-1.115664005279541,-1.6761685810484828,-2.5257914702044886,2.2915097910114746,-1.0157354513751429,0.04270537942647934
1708438024.6486127,-1.1156609058380127,-1.6761428318419398,-2.5258169809924524,2.291500969524048,-1.0157344977008265,0.04273952543735504
1708438024.6506412,-1.11568021774292,-1.6761609516539515,-2.5258169809924524,2.291538639659546,-1.0157635847674769,0.042664527893066406
1708438024.6525865,-1.11568021774292,-1.6761027775206507,-2.5257988611804407,2.2915665346333007,-1.0157716909991663,0.04268527776002884
1708438024.6546254,-1.1157214641571045,-1.6761476002135218,-2.5257840792285364,2.2915255266376953,-1.0157759825335901,0.042706187814474106
1708438024.6565988,-1.1156846284866333,-1.6761280498900355,-2.5258005301104944,2.2915255266376953,-1.0157220999347132,0.04267348721623421
1708438024.6585984,-1.1156715154647827,-1.676072736779684,-2.5258455912219446,2.2915655809589843,-1.0157678763019007,0.04264373704791069
1708438024.6606266,-1.1156965494155884,-1.6761323414244593,-2.5258124510394495,2.2915982443043212,-1.0157845656024378,0.04267348721623421
1708438024.662602,-1.1157008409500122,-1.6761099300780238,-2.5258455912219446,2.2915655809589843,-1.0157635847674769,0.04262850806117058
1708438024.664641,-1.1156715154647827,-1.6761146984496058,-2.5258033911334437,2.291597529048584,-1.015747372304098,0.042658209800720215
1708438024.6665826,-1.1156758069992065,-1.6761280498900355,-2.5257659594165247,2.2915407854267578,-1.0157678763019007,0.04267046973109245
1708438024.6685853,-1.1156466007232666,-1.6761476002135218,-2.5258079210864466,2.2916063505360107,-1.015759293233053,0.042657095938920975
1708438024.6706462,-1.1156727075576782,-1.6761890850462855,-2.5258124510394495,2.291625662440918,-1.0157721678363245,0.042624060064554214
1708438024.6726444,-1.1156996488571167,-1.6761847935118617,-2.5258005301104944,2.2916313844868164,-1.0157430807696741,0.04259134456515312
1708438024.6746273,-1.115720272064209,-1.6761518917479457,-2.5258243719684046,2.2916180330463867,-1.0157268683062952,0.042562779039144516
1708438024.6766753,-1.1156953573226929,-1.6761847935118617,-2.5257795492755335,2.291597529048584,-1.0158332029925745,0.04260920733213425
1708438024.678644,-1.1157159805297852,-1.6761824093260707,-2.5258198420154017,2.29159323751416,-1.015759293233053,0.042621031403541565
1708438024.6806488,-1.115692138671875,-1.6761399708189906,-2.5257750193225306,2.2916180330463867,-1.015780274068014,0.04257618263363838
1708438024.6830006,-1.1157565116882324,-1.6761733494200648,-2.5257795492755335,2.291609449977539,-1.0158117453204554,0.042625539004802704
1708438024.684649,-1.115724802017212,-1.6761609516539515,-2.5258079210864466,2.2916299539753417,-1.0157917181598108,0.04255090281367302
1708438024.686681,-1.1157448291778564,-1.6761685810484828,-2.5258243719684046,2.2915848928638916,-1.0157550016986292,0.042580604553222656
1708438024.688634,-1.1157071590423584,-1.676133771935934,-2.5257750193225306,2.2916461664387207,-1.0157550016986292,0.042585037648677826
1708438024.690592,-1.1157408952713013,-1.6761399708189906,-2.5257750193225306,2.291613741511963,-1.0157788435565394,0.042580585926771164
1708438024.6926386,-1.1157233715057373,-1.6761518917479457,-2.5258124510394495,2.29159323751416,-1.015820328389303,0.04253121092915535
1708438024.6946113,-1.1157402992248535,-1.6762105427184046,-2.5257795492755335,2.291621370906494,-1.015836540852682,0.042596958577632904
1708438024.696584,-1.1157402992248535,-1.6762105427184046,-2.5257795492755335,2.2916742998310546,-1.0158441702472132,0.04257310554385185
1708438024.6986,-1.1157448291778564,-1.676159997979635,-2.5257538000689905,2.291649504298828,-1.0157960096942347,0.04256868362426758
1708438024.7006063,-1.1157190799713135,-1.676192422906393,-2.5257328192340296,2.291653795833252,-1.0157716909991663,0.04254345968365669
1708438024.70262,-1.115702748298645,-1.6761352024474085,-2.525827471409933,2.2916528421589355,-1.015836540852682,0.042564261704683304
1708438024.704608,-1.115768551826477,-1.6762062511839808,-2.5257750193225306,2.291649504298828,-1.0158041159259241,0.042580604553222656
1708438024.7066085,-1.1157233715057373,-1.676197191277975,-2.5258498827563685,2.291613741511963,-1.0157631079303187,0.042564261704683304
1708438024.7086086,-1.1157479286193848,-1.6762014828123988,-2.5258198420154017,2.2916645246693115,-1.0157917181598108,0.04254008084535599
1708438024.7106037,-1.1157435178756714,-1.6761776409544886,-2.5257330576526087,2.2917069631763916,-1.0157998243915003,0.04256425052881241
1708438024.7126315,-1.1157610416412354,-1.6761790714659632,-2.5257795492755335,2.291649504298828,-1.0157550016986292,0.04254008084535599
1708438024.7146032,-1.1157641410827637,-1.6761309109129847,-2.5257840792285364,2.2916366296955566,-1.0158117453204554,0.042580604553222656
1708438024.7166402,-1.1157233715057373,-1.6761685810484828,-2.5258005301104944,2.2916406828114013,-1.0158408323871058,0.04257310554385185
1708438024.718635,-1.1157716512680054,-1.676188131371969,-2.525761429463522,2.291693850154541,-1.0157673994647425,0.04254009202122688
1708438024.7206163,-1.1157315969467163,-1.6761428318419398,-2.5257659594165247,2.2916483122059326,-1.015820328389303,0.04253564402461052
1708438024.7226455,-1.1157479286193848,-1.6761352024474085,-2.5257373491870325,2.2916852670856933,-1.015820328389303,0.04254460334777832
1708438024.724662,-1.1158292293548584,-1.6761518917479457,-2.5257628599749964,2.2916733461567382,-1.0157716909991663,0.04261030629277229
1708438024.7266388,-1.1157684326171875,-1.6761847935118617,-2.5257960001574915,2.2916366296955566,-1.015787426625387,0.042582038789987564
1708438024.728608,-1.115796685218811,-1.6761309109129847,-2.5257628599749964,2.2917064863392334,-1.0158408323871058,0.04250740632414818
1708438024.730623,-1.115739107131958,-1.6761189899840296,-2.5257704893695276,2.2916733461567382,-1.015820328389303,0.04257761687040329
1708438024.7326572,-1.1157641410827637,-1.6761566601195277,-2.5258033911334437,2.291710777873657,-1.015787426625387,0.04257761687040329
1708438024.7346516,-1.1157598495483398,-1.6761352024474085,-2.5257795492755335,2.291677637691162,-1.015820328389303,0.04260136932134628
1708438024.7366412,-1.115796685218811,-1.6761352024474085,-2.5258455912219446,2.2917021948048095,-1.0157912413226526,0.04251633957028389
1708438024.738632,-1.1157522201538086,-1.6761490307249964,-2.5258033911334437,2.2917226988026123,-1.0157917181598108,0.04254460334777832
1708438024.7406368,-1.1157630681991577,-1.6761733494200648,-2.5258124510394495,2.291689558620117,-1.015787426625387,0.04257310554385185
1708438024.7426462,-1.1157716512680054,-1.6761490307249964,-2.5257659594165247,2.291661425227783,-1.0157516638385218,0.04249073565006256
1708438024.744639,-1.1157554388046265,-1.6761800251402796,-2.5258289019214075,2.2917021948048095,-1.0158289114581507,0.04254460334777832
1708438024.746637,-1.1157879829406738,-1.6761609516539515,-2.5257659594165247,2.2917064863392334,-1.0157960096942347,0.04259101673960686
1708438024.7486484,-1.1157684326171875,-1.6761442623534144,-2.5257704893695276,2.2916764455982666,-1.0157831350909632,0.042557958513498306
1708438024.7506104,-1.1157641410827637,-1.6761518917479457,-2.5258289019214075,2.2916807371326904,-1.0157917181598108,0.04259395971894264
1708438024.7526314,-1.1157479286193848,-1.6761414013304652,-2.5257750193225306,2.2916571336933593,-1.015808407460348,0.04258646443486214
1708438024.754601,-1.1157879829406738,-1.6761518917479457,-2.5257583300219935,2.291655941600464,-1.0157955328570765,0.04254460334777832
1708438024.7566304,-1.1158041954040527,-1.6761981449522914,-2.5257914702044886,2.2916602331348876,-1.0157631079303187,0.042549025267362595
1708438024.7586005,-1.1157922744750977,-1.6760937176146449,-2.5257960001574915,2.291677637691162,-1.0157550016986292,0.042557958513498306
1708438024.7606254,-1.115771770477295,-1.6761237583556117,-2.5258095900165003,2.291611357326172,-1.0157373587237757,0.042549025267362595
1708438024.762615,-1.1157879829406738,-1.6761146984496058,-2.5257538000689905,2.2917184072681884,-1.015787426625387,0.042582038789987564
1708438024.764617,-1.1157598495483398,-1.6761938534178675,-2.5258050600634974,2.2916602331348876,-1.0157673994647425,0.042541615664958954
1708438024.7666323,-1.1157673597335815,-1.6761189899840296,-2.5257673899279993,2.2916645246693115,-1.0158279577838343,0.04251633957028389
1708438024.768604,-1.1157673597335815,-1.6761237583556117,-2.5257538000689905,2.2916933733173828,-1.015820328389303,0.0425909124314785
1708438024.7706363,-1.1157792806625366,-1.6761609516539515,-2.5257869402514856,2.291689558620117,-1.015787426625387,0.04251190647482872
1708438024.7726603,-1.11581289768219,-1.6760937176146449,-2.5257750193225306,2.2917346197315673,-1.015820328389303,0.04251633957028389
1708438024.7746565,-1.1157803535461426,-1.6761938534178675,-2.5257960001574915,2.291717215175293,-1.015787426625387,0.04254009202122688
1708438024.776654,-1.1157922744750977,-1.6761566601195277,-2.5258289019214075,2.291701002711914,-1.0157716909991663,0.04259532317519188
1708438024.7786348,-1.1157673597335815,-1.6761352024474085,-2.5258334318744105,2.291743202800415,-1.0157550016986292,0.04251633957028389
1708438024.7806332,-1.1157922744750977,-1.6761280498900355,-2.5257750193225306,2.2916807371326904,-1.0157716909991663,0.042519308626651764
1708438024.782628,-1.1158335208892822,-1.6761518917479457,-2.5257960001574915,2.2916483122059326,-1.0157917181598108,0.04253711551427841
1708438024.784617,-1.1157760620117188,-1.6761476002135218,-2.5258124510394495,2.2917021948048095,-1.0157430807696741,0.04256868362426758
1708438024.786619,-1.1158205270767212,-1.6761399708189906,-2.5258169809924524,2.2916645246693115,-1.015820328389303,0.04257005825638771
1708438024.7886095,-1.1158630847930908,-1.6761824093260707,-2.5258289019214075,2.2917184072681884,-1.015808407460348,0.04258200526237488
1708438024.7906332,-1.11578369140625,-1.6762062511839808,-2.5257628599749964,2.2916807371326904,-1.0157917181598108,0.042523737996816635
1708438024.7926145,-1.1158499717712402,-1.6761490307249964,-2.5257960001574915,2.2917508321949462,-1.015780274068014,0.04256567731499672
1708438024.7946405,-1.1157792806625366,-1.6761161289610804,-2.5258050600634974,2.2917184072681884,-1.0157550016986292,0.04256125167012215
1708438024.7966127,-1.1157909631729126,-1.6761700115599574,-2.5258169809924524,2.2916933733173828,-1.015759293233053,0.04255344718694687
1708438024.7986214,-1.1157629489898682,-1.6761237583556117,-2.5257795492755335,2.2917746740528564,-1.0157459417926233,0.04256564378738403
1708438024.8006284,-1.1157792806625366,-1.6761776409544886,-2.5258169809924524,2.2917095857807617,-1.0157550016986292,0.04255342483520508
1708438024.8026114,-1.115799903869629,-1.676126619378561,-2.5257704893695276,2.291717215175293,-1.015759293233053,0.04253266379237175
1708438024.8046248,-1.115833044052124,-1.6761476002135218,-2.5257840792285364,2.2917300897785644,-1.0158126989947718,0.04254459589719772
1708438024.806659,-1.115807294845581,-1.6761218510069789,-2.5258050600634974,2.291681929225586,-1.0157955328570765,0.042552366852760315
1708438024.808628,-1.115799903869629,-1.6761490307249964,-2.5257509390460413,2.2917184072681884,-1.0157759825335901,0.04251189902424812
1708438024.8106093,-1.115824818611145,-1.6761824093260707,-2.525738779698507,2.291759653682373,-1.0157678763019007,0.04253266379237175
1708438024.8126323,-1.1158205270767212,-1.6761476002135218,-2.5258243719684046,2.2916976648518066,-1.0157960096942347,0.04249967634677887
1708438024.8146133,-1.1158287525177002,-1.676159997979635,-2.5257914702044886,2.2917184072681884,-1.015759293233053,0.0425700843334198
1708438024.8166215,-1.1158249378204346,-1.6761237583556117,-2.5258124510394495,2.2917300897785644,-1.015747372304098,0.04255792498588562
1708438024.8186266,-1.1158041954040527,-1.6761442623534144,-2.5258453528033655,2.29165165006604,-1.0157550016986292,0.0425490140914917
1708438024.820624,-1.1157792806625366,-1.6761700115599574,-2.5257840792285364,2.2916933733173828,-1.0157268683062952,0.04255678132176399
1708438024.8226268,-1.1157879829406738,-1.676159997979635,-2.5258079210864466,2.2916807371326904,-1.0157516638385218,0.04249219596385956
1708438024.824642,-1.1158041954040527,-1.6761561832823695,-2.5257509390460413,2.2917095857807617,-1.0157678763019007,0.04256126284599304
1708438024.8266442,-1.115807294845581,-1.676126619378561,-2.5257673899279993,2.2916320997425537,-1.015759293233053,0.042474452406167984
1708438024.8286402,-1.115824818611145,-1.6761237583556117,-2.5257704893695276,2.2917021948048095,-1.0157635847674769,0.042507439851760864
1708438024.8306477,-1.1157761812210083,-1.6761189899840296,-2.5258050600634974,2.291710777873657,-1.0157678763019007,0.04255230724811554
1708438024.8326886,-1.115799903869629,-1.6761399708189906,-2.5258215109454554,2.2916721540638427,-1.0157559553729456,0.04258197918534279
1708438024.8346484,-1.1158043146133423,-1.6761566601195277,-2.5257297197925013,2.291689558620117,-1.0156987349139612,0.0425567626953125
1708438024.8366551,-1.1157702207565308,-1.6761733494200648,-2.5257795492755335,2.2916807371326904,-1.0157116095172327,0.04249078407883644
1708438024.8386178,-1.11578369140625,-1.6761518917479457,-2.5257583300219935,2.2917021948048095,-1.0157278219806116,0.04252827167510986
1708438024.8406475,-1.1158173084259033,-1.6760908565916957,-2.5257719198810022,2.2917095857807617,-1.0157354513751429,0.042528264224529266
1708438024.842621,-1.1157702207565308,-1.6761652431883753,-2.5257509390460413,2.2916571336933593,-1.0157516638385218,0.04254010319709778
1708438024.844625,-1.1157792806625366,-1.6761280498900355,-2.5258141199695032,2.2917184072681884,-1.0157440344439905,0.04258200526237488
1708438024.8466406,-1.1157630681991577,-1.6761237583556117,-2.5257719198810022,2.2917226988026123,-1.0156825224505823,0.04254010319709778
1708438024.8486109,-1.1158205270767212,-1.6761118374266566,-2.5257886091815394,2.2916721540638427,-1.0157073179828089,0.04254010319709778
1708438024.850621,-1.115867257118225,-1.6761280498900355,-2.5257719198810022,2.291743202800415,-1.0157659689532679,0.04256567358970642
1708438024.852619,-1.115807294845581,-1.6761280498900355,-2.5257583300219935,2.2917138773151855,-1.0156877676593226,0.04254460334777832
1708438024.854622,-1.1157922744750977,-1.6761280498900355,-2.525747839604513,2.2916201788135986,-1.0157039801227015,0.042516350746154785
1708438024.8566284,-1.1157792806625366,-1.6761733494200648,-2.5257673899279993,2.2917184072681884,-1.0156996885882776,0.04254010319709778
1708438024.8586056,-1.1157630681991577,-1.6761323414244593,-2.5258050600634974,2.2917184072681884,-1.0156505743609827,0.04257309436798096
1708438024.8606138,-1.1157923936843872,-1.6761251888670863,-2.5257719198810022,2.2917021948048095,-1.0156953970538538,0.04253268241882324
1708438024.8625958,-1.1157792806625366,-1.6760736904540003,-2.5257464090930384,2.291710777873657,-1.015674893056051,0.04254460334777832
1708438024.8646348,-1.1157922744750977,-1.6761533222594203,-2.525802199040548,2.291689558620117,-1.015700642262594,0.04254010319709778
1708438024.866588,-1.1158043146133423,-1.6761042080321253,-2.5257960001574915,2.2916976648518066,-1.015683952962057,0.04249962419271469
1708438024.8686097,-1.1157792806625366,-1.6761070690550746,-2.5257464090930384,2.2916764455982666,-1.0156882444964808,0.04254460334777832
1708438024.8706188,-1.1157760620117188,-1.6760817966856898,-2.5257719198810022,2.2916721540638427,-1.015679661427633,0.04256567358970642
1708438024.8726158,-1.1157954931259155,-1.6760908565916957,-2.5257931391345423,2.2916733461567382,-1.015655819569723,0.04252827167510986
1708438024.8746042,-1.1157879829406738,-1.6760937176146449,-2.5257960001574915,2.2916690546223144,-1.0156601111041468,0.04258200526237488
1708438024.876613,-1.1157922744750977,-1.6761237583556117,-2.5257554689990442,2.291689558620117,-1.0156720320331019,0.04255342483520508
1708438024.8786242,-1.1157792806625366,-1.6761442623534144,-2.5257886091815394,2.2916409212299804,-1.015679661427633,0.04256567358970642
1708438024.8806317,-1.1158086061477661,-1.6761237583556117,-2.525776449834005,2.291726990337036,-1.015639607106344,0.0425642728805542
1708438024.8826075,-1.115771770477295,-1.6761652431883753,-2.5257886091815394,2.2916976648518066,-1.0156601111041468,0.04256567358970642
1708438024.8846335,-1.11578369140625,-1.6761237583556117,-2.525722328816549,2.2916483122059326,-1.015639607106344,0.042598385363817215
1708438024.8866134,-1.1157423257827759,-1.6761280498900355,-2.5257194677936,2.2917563158222656,-1.0156105200396937,0.042580604553222656
1708438024.888624,-1.115858793258667,-1.6761189899840296,-2.525710407887594,2.291677637691162,-1.0155909697162073,0.04256868362426758
1708438024.8906245,-1.1158499717712402,-1.6761733494200648,-2.525701347981588,2.2917021948048095,-1.0156644026385706,0.04258641600608826
1708438024.892608,-1.1158205270767212,-1.6761323414244593,-2.525769058858053,2.291689558620117,-1.0156729857074183,0.04261466860771179
1708438024.894623,-1.1158161163330078,-1.6761204204955042,-2.5257194677936,2.2916690546223144,-1.015599552785055,0.04257619380950928
1708438024.896619,-1.115833044052124,-1.6761323414244593,-2.525735918675558,2.2916933733173828,-1.0156005064593714,0.04258502274751663
1708438024.8986645,-1.1158161163330078,-1.6760817966856898,-2.525740448628561,2.2916807371326904,-1.015583340321676,0.04261025786399841
1708438024.9006405,-1.1157703399658203,-1.6761237583556117,-2.525714937840597,2.2916852670856933,-1.0156167189227503,0.042571693658828735
1708438024.9026244,-1.1158418655395508,-1.6761399708189906,-2.525722328816549,2.2916602331348876,-1.0156047979937952,0.042571671307086945
1708438024.9047205,-1.1157673597335815,-1.6760999164977015,-2.525703016911642,2.291677637691162,-1.0155471006976526,0.04254791885614395
1708438024.9066103,-1.115771770477295,-1.6761161289610804,-2.525674645100729,2.291661425227783,-1.0155842939959925,0.042535632848739624
1708438024.9086525,-1.1158205270767212,-1.6761399708189906,-2.525674645100729,2.2916645246693115,-1.0155842939959925,0.04260136932134628
1708438024.9106245,-1.1157673597335815,-1.6760999164977015,-2.5256837050067347,2.2917064863392334,-1.0155556837665003,0.042580604553222656
1708438024.9126189,-1.115799903869629,-1.6761371097960414,-2.5256882349597376,2.291665716762207,-1.0155676046954554,0.042618051171302795
1708438024.9146123,-1.1157422065734863,-1.6761490307249964,-2.5256593863116663,2.2916645246693115,-1.0155847708331507,0.042604684829711914
1708438024.9166174,-1.1157909631729126,-1.6761476002135218,-2.5256713072406214,2.291633291835449,-1.0155156294452112,0.042571671307086945
1708438024.9186566,-1.1158162355422974,-1.6761490307249964,-2.5256758371936243,2.2916571336933593,-1.015548054371969,0.0425880141556263
1708438024.920643,-1.1158461570739746,-1.6760980091490687,-2.525668446217672,2.2916852670856933,-1.0155523459063929,0.04262101650238037
1708438024.922673,-1.1158205270767212,-1.6761938534178675,-2.5256639162646692,2.2916807371326904,-1.0155685583697718,0.042621027678251266
1708438024.9246588,-1.1158162355422974,-1.6761118374266566,-2.5256758371936243,2.2916807371326904,-1.0155318419085901,0.042604684829711914
1708438024.9266846,-1.1157879829406738,-1.6761518917479457,-2.5256429354297083,2.291665716762207,-1.0155156294452112,0.04258805140852928
1708438024.9286551,-1.1158205270767212,-1.6760951481261195,-2.5256055037127894,2.291689558620117,-1.0155556837665003,0.042640428990125656
1708438024.930636,-1.115824818611145,-1.6761824093260707,-2.525677506123678,2.291649504298828,-1.015536133443014,0.04263298213481903
1708438024.932662,-1.115799903869629,-1.6761371097960414,-2.5256474653827112,2.2916320997425537,-1.0155242125140589,0.04264376312494278
1708438024.934646,-1.1157748699188232,-1.6761280498900355,-2.525693957005636,2.2916852670856933,-1.015475098286764,0.04266895726323128
1708438024.9366393,-1.1157716512680054,-1.6761352024474085,-2.525628153477804,2.291649504298828,-1.0155046621905726,0.042697228491306305
1708438024.9386253,-1.1157630681991577,-1.6761700115599574,-2.5256219545947474,2.2916452127644042,-1.0155165831195276,0.04271263629198074
1708438024.9406161,-1.115811824798584,-1.6761118374266566,-2.5256264845477503,2.2916528421589355,-1.015475098286764,0.042697228491306305
1708438024.942652,-1.115799903869629,-1.6760999164977015,-2.525640074406759,2.2916452127644042,-1.015491787587301,0.04269278794527054
1708438024.9446337,-1.1157554388046265,-1.6761070690550746,-2.52566105524172,2.291677637691162,-1.0155532995807093,0.04268376901745796
1708438024.9466438,-1.115799903869629,-1.6761399708189906,-2.525619093571798,2.2916831213184814,-1.0154512564288538,0.042717110365629196
1708438024.9486175,-1.1158162355422974,-1.6761280498900355,-2.525668446217672,2.2916170793720703,-1.0155165831195276,0.04268741235136986
1708438024.9506543,-1.1157673597335815,-1.6760755978026332,-2.5255814234363,2.291661425227783,-1.015467945729391,0.04271712154150009
1708438024.952647,-1.1158041954040527,-1.6761399708189906,-2.525619093571798,2.291633291835449,-1.0154922644244593,0.04270828515291214
1708438024.9546087,-1.1157673597335815,-1.6761371097960414,-2.525635544453756,2.2916452127644042,-1.0154479185687464,0.04273800924420357
1708438024.9566433,-1.1157554388046265,-1.6761161289610804,-2.525623623524801,2.2915963369556884,-1.0154684225665491,0.042724609375
1708438024.9586096,-1.115739107131958,-1.6760951481261195,-2.5256264845477503,2.291649504298828,-1.0154479185687464,0.04274128004908562
1708438024.9606206,-1.115799903869629,-1.6760951481261195,-2.525597874318258,2.2916290003010253,-1.0154598394977015,0.04274870827794075
1708438024.962653,-1.1157760620117188,-1.6760693989195765,-2.525635544453756,2.2916669088551025,-1.0154078642474573,0.0427323654294014
1708438024.9646144,-1.1157910823822021,-1.6761700115599574,-2.525644604359762,2.291665716762207,-1.0154522101031702,0.04274127632379532
1708438024.9666083,-1.1157792806625366,-1.6760827503600062,-2.525611464177267,2.291592999095581,-1.0154479185687464,0.04276498407125473
1708438024.9685917,-1.1157747507095337,-1.6761161289610804,-2.525602404271261,2.291609449977539,-1.0154641310321253,0.042744286358356476
1708438024.9706283,-1.1157760620117188,-1.6761533222594203,-2.525593344365255,2.2916626173206787,-1.0154770056353968,0.042744230479002
1708438024.9726458,-1.1158205270767212,-1.6761161289610804,-2.525635544453756,2.291637583369873,-1.015416447316305,0.04277251288294792
1708438024.9746237,-1.1157747507095337,-1.6761070690550746,-2.525668446217672,2.2915844160267334,-1.01542836824526,0.042805496603250504
1708438024.976664,-1.1158173084259033,-1.6761027775206507,-2.525632683430807,2.2916018205830078,-1.015416447316305,0.04276358708739281
1708438024.9786274,-1.115829348564148,-1.6761189899840296,-2.5256593863116663,2.2916225629993896,-1.0153759161578577,0.04280990734696388
1708438024.9806614,-1.115771770477295,-1.6761890850462855,-2.5256264845477503,2.291571779842041,-1.0154131094561976,0.04282623529434204
1708438024.9826803,-1.1157760620117188,-1.6761700115599574,-2.525668446217672,2.2916018205830078,-1.0153844992267054,0.04280855134129524
1708438024.9846218,-1.1157760620117188,-1.6761309109129847,-2.52566105524172,2.2916063505360107,-1.0154131094561976,0.04280412197113037
1708438024.9866896,-1.1158374547958374,-1.6761070690550746,-2.525672976170675,2.2915374475666503,-1.0153968969928187,0.042787812650203705
1708438024.9886127,-1.1158086061477661,-1.6761700115599574,-2.525614563618795,2.2915655809589843,-1.0153926054583948,0.042812932282686234
1708438024.9906657,-1.1157598495483398,-1.6761399708189906,-2.525602404271261,2.2915331560322265,-1.0153926054583948,0.04284260421991348
1708438024.9926302,-1.115799903869629,-1.6761399708189906,-2.525628153477804,2.291606827373169,-1.0153968969928187,0.04278778284788132
1708438024.9946756,-1.1158373355865479,-1.6761442623534144,-2.525644604359762,2.291574164027832,-1.0153968969928187,0.042815983295440674
1708438024.9966471,-1.11578369140625,-1.6761776409544886,-2.5256310145007532,2.2915212351032714,-1.0153759161578577,0.04282045364379883
1708438024.9986212,-1.115811824798584,-1.6761890850462855,-2.525628153477804,2.2915655809589843,-1.0153644720660608,0.04282045364379883
1708438025.0006318,-1.1157597303390503,-1.6761099300780238,-2.5256100336657923,2.291546030635498,-1.015393082295553,0.04283711314201355
1708438025.0026126,-1.1157879829406738,-1.676159997979635,-2.525578323994772,2.2915212351032714,-1.015360180531637,0.04284895583987236
1708438025.004619,-1.1157554388046265,-1.6761237583556117,-2.525656525288717,2.291534109706543,-1.0153844992267054,0.042828209698200226
1708438025.0066385,-1.1157879829406738,-1.6761518917479457,-2.525672976170675,2.291546030635498,-1.0153563658343714,0.042832646518945694
1708438025.0086133,-1.1157673597335815,-1.6761566601195277,-2.525628153477804,2.291538639659546,-1.0153968969928187,0.042837098240852356
1708438025.0106459,-1.115799903869629,-1.6760693989195765,-2.525628153477804,2.291550322169922,-1.0153802076922815,0.04286971315741539
1708438025.0126204,-1.1157922744750977,-1.6761237583556117,-2.525619093571798,2.2915374475666503,-1.0153844992267054,0.04284153878688812
1708438025.0146115,-1.1157554388046265,-1.6761609516539515,-2.525623623524801,2.2915255266376953,-1.0153730551349085,0.04283711314201355
1708438025.0166435,-1.1158010959625244,-1.6761533222594203,-2.52561599413027,2.2915255266376953,-1.0153477827655237,0.04286085441708565
1708438025.0186238,-1.1158053874969482,-1.6761099300780238,-2.525590483342306,2.2915255266376953,-1.0153606573687952,0.04283564165234566
1708438025.0206275,-1.1157716512680054,-1.6761566601195277,-2.52561599413027,2.2915212351032714,-1.0153563658343714,0.04281596839427948
1708438025.0226376,-1.1157305240631104,-1.6761867008604945,-2.525614563618795,2.291602297420166,-1.0153558889972132,0.04286973923444748
1708438025.024639,-1.1157554388046265,-1.6761070690550746,-2.525578323994772,2.2915374475666503,-1.0153687636004847,0.04284012317657471
1708438025.026625,-1.1157598495483398,-1.6761280498900355,-2.5256100336657923,2.291538639659546,-1.0153973738299769,0.04282381385564804
1708438025.0286396,-1.115768551826477,-1.6761399708189906,-2.525595013295309,2.291480465526245,-1.0154054800616663,0.042828213423490524
1708438025.0306473,-1.1157315969467163,-1.6760980091490687,-2.52561599413027,2.291517897243164,-1.0153520742999476,0.0428401418030262
1708438025.0326328,-1.115796685218811,-1.6761280498900355,-2.525595013295309,2.291522427196167,-1.0153730551349085,0.042828213423490524
1708438025.034644,-1.1157641410827637,-1.6761237583556117,-2.52561599413027,2.291489287013672,-1.0153606573687952,0.04284460470080376
1708438025.0367093,-1.1157773733139038,-1.6761580906310023,-2.5256040732013147,2.291517897243164,-1.0153730551349085,0.04286837577819824
1708438025.0386267,-1.1157879829406738,-1.6761847935118617,-2.525595013295309,2.291444941157959,-1.0153563658343714,0.04284012317657471
1708438025.0406258,-1.1157358884811401,-1.6761700115599574,-2.5255664030658167,2.2913877206989746,-1.0153444449054163,0.04286089912056923
1708438025.042624,-1.1157937049865723,-1.6761442623534144,-2.5255828539477747,2.2914740282246093,-1.0153606573687952,0.04281492903828621
1708438025.0446606,-1.1157233715057373,-1.6761280498900355,-2.52561599413027,2.2914978700825195,-1.0153773466693323,0.04285205528140068
1708438025.0466185,-1.1157641410827637,-1.6761518917479457,-2.52563721338381,2.2914902406879882,-1.0153401533709925,0.04287717491388321
1708438025.0486116,-1.1157315969467163,-1.6761566601195277,-2.5256040732013147,2.2914416032978515,-1.015353027974264,0.04288053512573242
1708438025.0506182,-1.115756630897522,-1.6761652431883753,-2.525623623524801,2.291421099300049,-1.0153844992267054,0.042896855622529984
1708438025.0526154,-1.1157279014587402,-1.6761237583556117,-2.525632683430807,2.2914296823688964,-1.0153520742999476,0.04285511001944542
1708438025.0546272,-1.1157435178756714,-1.6761685810484828,-2.525623623524801,2.2914458948322753,-1.0153401533709925,0.042926520109176636
1708438025.056634,-1.1157803535461426,-1.6761309109129847,-2.525595013295309,2.2914458948322753,-1.0153563658343714,0.04285949096083641
1708438025.0586076,-1.115718960762024,-1.6761189899840296,-2.525599543248312,2.291400833720825,-1.0153358618365687,0.042913198471069336
1708438025.060618,-1.1157360076904297,-1.6761189899840296,-2.525606934224264,2.2914621072956542,-1.0153735319720667,0.04292210936546326
1708438025.062604,-1.1157233715057373,-1.676100870172018,-2.525653664265768,2.2914296823688964,-1.0153196493731897,0.04289686679840088
1708438025.06461,-1.1157935857772827,-1.6761518917479457,-2.525611464177267,2.2914134699055175,-1.0153282324420374,0.0428924560546875
1708438025.0666351,-1.115732192993164,-1.6761428318419398,-2.525628153477804,2.2914046484180908,-1.0153163115130823,0.042928509414196014
1708438025.0686111,-1.1157859563827515,-1.6761189899840296,-2.525595013295309,2.291454477901123,-1.0153444449054163,0.042940378189086914
1708438025.070619,-1.1157366037368774,-1.6761757336058558,-2.525611464177267,2.2914177614399414,-1.0153444449054163,0.04294478893280029
1708438025.0726173,-1.1157360076904297,-1.6761280498900355,-2.5255828539477747,2.2914296823688964,-1.0153730551349085,0.04294478893280029
1708438025.0746243,-1.1157289743423462,-1.6761056385436,-2.5256295839892786,2.2914177614399414,-1.0153077284442347,0.042965494096279144
1708438025.0766215,-1.115679144859314,-1.6761733494200648,-2.5256205240832728,2.2914296823688964,-1.0153282324420374,0.042940378189086914
1708438025.078623,-1.1157366037368774,-1.6761309109129847,-2.5255618731128138,2.2913800913044433,-1.0153563658343714,0.042912136763334274
1708438025.080628,-1.115732192993164,-1.6761800251402796,-2.5256040732013147,2.291426582927368,-1.0153773466693323,0.04294917732477188
1708438025.0826359,-1.1157289743423462,-1.6761428318419398,-2.525578323994772,2.291442795390747,-1.0153239409076136,0.04292405769228935
1708438025.084632,-1.115674614906311,-1.6761490307249964,-2.5255335013019007,2.291422052974365,-1.0153563658343714,0.04296109825372696
1708438025.0866497,-1.115732192993164,-1.6760817966856898,-2.5255680719958704,2.291409655208252,-1.0153239409076136,0.0429447777569294
1708438025.0886319,-1.1156628131866455,-1.6761566601195277,-2.525599543248312,2.2914351659962158,-1.0153487364398401,0.04293597862124443
1708438025.0906167,-1.1156997680664062,-1.6761232815184535,-2.5255349318133753,2.291409655208252,-1.0153401533709925,0.042940378189086914
1708438025.0926137,-1.1156715154647827,-1.6761733494200648,-2.5255726019488733,2.291438265437744,-1.0153325239764612,0.0429447777569294
1708438025.0946307,-1.1157203912734985,-1.6762105427184046,-2.5255258719073694,2.2914020258137207,-1.0153163115130823,0.04295366257429123
1708438025.0966501,-1.115708351135254,-1.676197191277975,-2.5255845228778284,2.291377230281494,-1.0153444449054163,0.04289885237812996
1708438025.0986123,-1.1156715154647827,-1.6761099300780238,-2.5255635420428675,2.2913965421864013,-1.0153444449054163,0.04297774285078049
1708438025.1006472,-1.115705132484436,-1.676171442071432,-2.525569740925924,2.2914182382770996,-1.0153163115130823,0.0429447777569294
1708438025.102606,-1.1156758069992065,-1.676192422906393,-2.5255561510669153,2.291430874461792,-1.0153401533709925,0.042949192225933075
1708438025.1046522,-1.1156595945358276,-1.6761566601195277,-2.525489870701925,2.291405125255249,-1.0153077284442347,0.04293600842356682
1708438025.1066313,-1.1156889200210571,-1.6761733494200648,-2.525519911442892,2.291393442744873,-1.0153077284442347,0.042932864278554916
1708438025.1086442,-1.1156682968139648,-1.6761623821654261,-2.5254796187030237,2.2914182382770996,-1.015336815510885,0.04296445846557617
1708438025.1106043,-1.1156758069992065,-1.676197191277975,-2.525498930607931,2.291377230281494,-1.0153520742999476,0.04292405769228935
1708438025.1126504,-1.1156433820724487,-1.6761938534178675,-2.525487009678976,2.2913901048847656,-1.0153816382037562,0.042935989797115326
1708438025.1146202,-1.115652084350586,-1.6761685810484828,-2.5254960695849817,2.2914020258137207,-1.0153606573687952,0.04299702122807503
1708438025.1166427,-1.1156889200210571,-1.67620911220693,-2.525503460560934,2.2914139467426757,-1.0153563658343714,0.04295229911804199
1708438025.1186206,-1.1156609058380127,-1.6761938534178675,-2.525494400654928,2.2913619714924316,-1.0153239409076136,0.04291965812444687
1708438025.1206305,-1.1156977415084839,-1.676155229608053,-2.5255335013019007,2.291377230281494,-1.0153887907611292,0.042940378189086914
1708438025.1226702,-1.1156563758850098,-1.6761518917479457,-2.525466028844015,2.291397734279297,-1.0153444449054163,0.042947813868522644
1708438025.1246536,-1.1156738996505737,-1.6761800251402796,-2.5254960695849817,2.291361017818115,-1.0153325239764612,0.04294038563966751
1708438025.126643,-1.1156977415084839,-1.6761218510069789,-2.525491539631979,2.2913824754902343,-1.0153196493731897,0.042952291667461395
1708438025.128618,-1.1156725883483887,-1.6761733494200648,-2.525503460560934,2.2913738924213867,-1.0153325239764612,0.0429447777569294
1708438025.1306498,-1.1156394481658936,-1.6761476002135218,-2.525524441395895,2.2913858133503417,-1.0153196493731897,0.0429522804915905
1708438025.1326299,-1.1156439781188965,-1.6761399708189906,-2.525519911442892,2.2913457590290527,-1.0153077284442347,0.04293597862124443
1708438025.1346138,-1.115681529045105,-1.6761428318419398,-2.525503460560934,2.291379614467285,-1.0153487364398401,0.04292405769228935
1708438025.1366427,-1.1156483888626099,-1.6761800251402796,-2.525503460560934,2.291316195125244,-1.0153477827655237,0.042907796800136566
1708438025.1385927,-1.1155657768249512,-1.6761566601195277,-2.525543991719381,2.2913753229328613,-1.0153606573687952,0.04295229911804199
1708438025.1406443,-1.1156483888626099,-1.6761518917479457,-2.525510851536886,2.2913245397755126,-1.0153239409076136,0.04296109825372696
1708438025.1426742,-1.1156158447265625,-1.6761476002135218,-2.52555758157839,2.2913870054432373,-1.0153973738299769,0.04291648417711258
1708438025.1446633,-1.11566960811615,-1.6761733494200648,-2.525487009678976,2.2913245397755126,-1.0153444449054163,0.0429733581840992
1708438025.1466446,-1.1156407594680786,-1.676159997979635,-2.525519911442892,2.2913870054432373,-1.0153401533709925,0.042935989797115326
1708438025.1486278,-1.1156738996505737,-1.6761428318419398,-2.525485340748922,2.2913457590290527,-1.0153973738299769,0.04293147474527359
1708438025.1506157,-1.1156188249588013,-1.6762014828123988,-2.525507990513937,2.291395826930664,-1.0153735319720667,0.0429077222943306
1708438025.152643,-1.115599513053894,-1.6762105427184046,-2.525473419819967,2.2913707929798584,-1.0153282324420374,0.042892493307590485
1708438025.154641,-1.115657091140747,-1.6761609516539515,-2.525536600743429,2.291316195125244,-1.0153487364398401,0.042895492166280746
1708438025.156625,-1.1155918836593628,-1.6761237583556117,-2.525515381489889,2.291309042567871,-1.015364948903219,0.0428880974650383
1708438025.158615,-1.1156082153320312,-1.6761890850462855,-2.525545660649435,2.2913591104694824,-1.0153563658343714,0.04290769249200821
1708438025.1606336,-1.1156320571899414,-1.6761609516539515,-2.5255289713488978,2.2913331228443603,-1.0153816382037562,0.04295666888356209
1708438025.1626313,-1.115599513053894,-1.6761476002135218,-2.525503460560934,2.29134647428479,-1.0153196493731897,0.04291653633117676
1708438025.1646106,-1.1156450510025024,-1.6761733494200648,-2.525569740925924,2.2913545805164794,-1.0153730551349085,0.042912181466817856
1708438025.166621,-1.1156407594680786,-1.6761476002135218,-2.525565210972921,2.291309042567871,-1.015393082295553,0.04287923499941826
1708438025.1686187,-1.1155920028686523,-1.6761309109129847,-2.525490109120504,2.291342182750366,-1.0153687636004847,0.042879171669483185
1708438025.170614,-1.11557137966156,-1.6761309109129847,-2.525507990513937,2.2913591104694824,-1.0153692404376429,0.042928457260131836
1708438025.1726716,-1.1156494617462158,-1.676159997979635,-2.5254960695849817,2.2913376527973632,-1.0152753035174769,0.04290766641497612
1708438025.1746333,-1.1155952215194702,-1.6762014828123988,-2.525510851536886,2.291342182750366,-1.0152915159808558,0.04295801743865013
1708438025.176665,-1.1156244277954102,-1.676126619378561,-2.525515381489889,2.291316195125244,-1.0153239409076136,0.042921051383018494
1708438025.1786485,-1.1155920028686523,-1.6761518917479457,-2.525503460560934,2.291299982661865,-1.0153358618365687,0.04291653633117676
1708438025.1806254,-1.1156126260757446,-1.676188131371969,-2.52547794977297,2.2913545805164794,-1.0153687636004847,0.04288807138800621
1708438025.1826568,-1.1156363487243652,-1.6761476002135218,-2.525482479725973,2.2912956911274414,-1.0153358618365687,0.04288806766271591
1708438025.1846359,-1.1155833005905151,-1.6761800251402796,-2.525532070790426,2.291342182750366,-1.0153730551349085,0.042910221964120865
1708438025.186678,-1.115612506866455,-1.6761428318419398,-2.52547794977297,2.291304512614868,-1.0153282324420374,0.04284016042947769
1708438025.188641,-1.1156082153320312,-1.6761847935118617,-2.525532070790426,2.291316195125244,-1.0153816382037562,0.04283119738101959
1708438025.1906164,-1.1156494617462158,-1.6761518917479457,-2.525470558797018,2.2913245397755126,-1.0153887907611292,0.04286082834005356
1708438025.19263,-1.1155920028686523,-1.67620911220693,-2.525498930607931,2.291341467494629,-1.0153563658343714,0.04283710941672325
1708438025.1946208,-1.1156494617462158,-1.6761399708189906,-2.52552301088442,2.291299982661865,-1.0153325239764612,0.04282486066222191
1708438025.1966786,-1.1155681610107422,-1.6761509380736292,-2.525532070790426,2.2913288313099365,-1.0153730551349085,0.04279089719057083
1708438025.1986225,-1.1156039237976074,-1.6762062511839808,-2.525510851536886,2.2912825781055908,-1.0153606573687952,0.04283708706498146
1708438025.200641,-1.1156363487243652,-1.6761800251402796,-2.525536600743429,2.291363402003906,-1.0153773466693323,0.04281292110681534
1708438025.2026503,-1.1155800819396973,-1.676155229608053,-2.525503460560934,2.291316195125244,-1.0153563658343714,0.04279661178588867
1708438025.204635,-1.1156244277954102,-1.6761685810484828,-2.52550179163088,2.291342182750366,-1.0153730551349085,0.042821817100048065
1708438025.2066402,-1.1156005859375,-1.676159997979635,-2.52550179163088,2.2913576799580078,-1.0153887907611292,0.04282045364379883
1708438025.2086139,-1.1155962944030762,-1.6761890850462855,-2.525519911442892,2.2913619714924316,-1.0153730551349085,0.0428098626434803
1708438025.210636,-1.1156158447265625,-1.676117559472555,-2.525487009678976,2.291304512614868,-1.0153687636004847,0.04279661178588867
1708438025.2126465,-1.115587592124939,-1.6762014828123988,-2.525532070790426,2.2912956911274414,-1.0153606573687952,0.04274291917681694
1708438025.2146287,-1.1156288385391235,-1.676164289514059,-2.525498930607931,2.291407747859619,-1.0153644720660608,0.0428469143807888
1708438025.2166393,-1.1156212091445923,-1.6762062511839808,-2.525498930607931,2.29132525503125,-1.0153401533709925,0.04279661178588867
1708438025.2186399,-1.1156375408172607,-1.6761757336058558,-2.525545660649435,2.2913245397755126,-1.0153282324420374,0.042754847556352615
1708438025.2206318,-1.1156169176101685,-1.6761509380736292,-2.525494400654928,2.29132525503125,-1.0153730551349085,0.0427769310772419
1708438025.222636,-1.1156288385391235,-1.6762014828123988,-2.525519911442892,2.2913457590290527,-1.0153816382037562,0.04279221221804619
1708438025.2246163,-1.1156005859375,-1.6762134037413539,-2.525527540837423,2.291341467494629,-1.015364948903219,0.04286349564790726
1708438025.22663,-1.1155833005905151,-1.6761428318419398,-2.525490109120504,2.2913331228443603,-1.0153816382037562,0.04284682869911194
1708438025.2286654,-1.1156005859375,-1.6761218510069789,-2.525532070790426,2.29132525503125,-1.015360180531637,0.0428098700940609
1708438025.2306182,-1.1156288385391235,-1.6761352024474085,-2.525552813206808,2.29132525503125,-1.0153606573687952,0.042776919901371
1708438025.2326443,-1.1156005859375,-1.6761685810484828,-2.525498930607931,2.29134647428479,-1.0153606573687952,0.04274732619524002
1708438025.2346268,-1.1156450510025024,-1.676159997979635,-2.525543991719381,2.2912956911274414,-1.0153163115130823,0.042829226702451706
1708438025.2366333,-1.1156244277954102,-1.6761757336058558,-2.525548521672384,2.291342182750366,-1.0153325239764612,0.04282177984714508
1708438025.2386289,-1.115587592124939,-1.676242013970846,-2.5255814234363,2.2913707929798584,-1.0153887907611292,0.04280853271484375
1708438025.2406359,-1.1156494617462158,-1.6761352024474085,-2.525569740925924,2.291288300151489,-1.0153487364398401,0.042754895985126495
1708438025.2426164,-1.11557137966156,-1.676171442071432,-2.525548521672384,2.29134647428479,-1.0153315703021448,0.04282616823911667
1708438025.2446115,-1.115599513053894,-1.6761757336058558,-2.52552301088442,2.2913753229328613,-1.0153606573687952,0.04283055663108826
1708438025.2466087,-1.1156082153320312,-1.6761800251402796,-2.525503460560934,2.2913381296345214,-1.0153687636004847,0.04279661178588867
1708438025.2486067,-1.1156407594680786,-1.676164289514059,-2.525494400654928,2.291309042567871,-1.015393082295553,0.04280547425150871
1708438025.250612,-1.1156245470046997,-1.6762272320189417,-2.525482479725973,2.2913662630268554,-1.0153773466693323,0.042760610580444336
1708438025.2526107,-1.1156005859375,-1.676126619378561,-2.525498930607931,2.2913331228443603,-1.0153687636004847,0.042754895985126495
1708438025.2546802,-1.1156537532806396,-1.676138540307516,-2.525527540837423,2.291313334102295,-1.0153000990497034,0.042776919901371
1708438025.2566137,-1.1156082153320312,-1.6761685810484828,-2.525510851536886,2.29134647428479,-1.0153315703021448,0.04273105412721634
1708438025.2586226,-1.115587592124939,-1.6761428318419398,-2.525543991719381,2.2913033205219726,-1.0153401533709925,0.042764998972415924
1708438025.2606442,-1.1156039237976074,-1.676126619378561,-2.52552301088442,2.291297121638916,-1.0153077284442347,0.04280547425150871
1708438025.2626169,-1.115633249282837,-1.6762062511839808,-2.525543991719381,2.29139153539624,-1.0153563658343714,0.042764998972415924
1708438025.2646122,-1.1155962944030762,-1.676100870172018,-2.5255394617663782,2.291299982661865,-1.0153358618365687,0.04276497662067413
1708438025.2666094,-1.1155681610107422,-1.676138540307516,-2.525515381489889,2.2913662630268554,-1.0153563658343714,0.04270697385072708
1708438025.2686005,-1.115587592124939,-1.676197191277975,-2.525494400654928,2.2913500505634765,-1.0153444449054163,0.04280985891819
1708438025.270613,-1.115645170211792,-1.676159997979635,-2.525507990513937,2.2913986879536132,-1.0153730551349085,0.04276366904377937
1708438025.2726448,-1.1156450510025024,-1.6761509380736292,-2.525532070790426,2.291329546565674,-1.0153401533709925,0.04270697385072708
1708438025.2746394,-1.115599513053894,-1.6761757336058558,-2.525506321583883,2.2913457590290527,-1.015353027974264,0.04273676872253418
1708438025.2766302,-1.1156244277954102,-1.6761428318419398,-2.525515381489889,2.2913545805164794,-1.0153358618365687,0.04271474480628967
1708438025.2786665,-1.1156331300735474,-1.6762062511839808,-2.5254855791675013,2.291419430369995,-1.0153196493731897,0.042772531509399414
1708438025.280628,-1.1155952215194702,-1.67620911220693,-2.525548521672384,2.2913500505634765,-1.0153196493731897,0.042760610580444336
1708438025.2826262,-1.1156288385391235,-1.676171442071432,-2.525506321583883,2.291341467494629,-1.0153239409076136,0.04278130456805229
1708438025.2846289,-1.1156039237976074,-1.6762000523009242,-2.525494400654928,2.291400356883667,-1.0153120199786585,0.04273991659283638
1708438025.2866771,-1.1155920028686523,-1.6761790714659632,-2.525532070790426,2.2913500505634765,-1.0153358618365687,0.04273105412721634
1708438025.2886708,-1.115587592124939,-1.6761757336058558,-2.525527540837423,2.291320725078247,-1.0153401533709925,0.042764998972415924
1708438025.2906306,-1.11557137966156,-1.67620911220693,-2.525548521672384,2.291304512614868,-1.0153563658343714,0.042760610580444336
1708438025.2926085,-1.1155712604522705,-1.676216264764303,-2.52552301088442,2.291299982661865,-1.0153239409076136,0.04273102059960365
1708438025.294619,-1.115599513053894,-1.6761847935118617,-2.525532070790426,2.2913331228443603,-1.0153358618365687,0.04274430125951767
1708438025.2966025,-1.115587592124939,-1.6761957607665003,-2.525519911442892,2.291412039394043,-1.0153239409076136,0.04274430125951767
1708438025.2986107,-1.1156407594680786,-1.6762238941588343,-2.525532070790426,2.2913500505634765,-1.0153239409076136,0.04275622218847275
1708438025.30061,-1.1155669689178467,-1.6762029133238734,-2.5255606810199183,2.2912632662006835,-1.0153282324420374,0.04271574690937996
1708438025.3026001,-1.11555814743042,-1.6762663326659144,-2.525466267262594,2.2913376527973632,-1.0153606573687952,0.04274430125951767
1708438025.304671,-1.1156039237976074,-1.6762191257872523,-2.52547794977297,2.2913457590290527,-1.015364948903219,0.042772531509399414
1708438025.3066113,-1.1156320571899414,-1.6762076816954554,-2.5255394617663782,2.2913376527973632,-1.0153401533709925,0.042814165353775024
1708438025.308604,-1.1155507564544678,-1.6762029133238734,-2.525536600743429,2.2913457590290527,-1.0153563658343714,0.04274430125951767
1708438025.3106153,-1.1156494617462158,-1.6762358150877894,-2.525510851536886,2.2913500505634765,-1.0153401533709925,0.04271572455763817
1708438025.31263,-1.1155920028686523,-1.67616667369985,-2.525569740925924,2.29132525503125,-1.015287224446432,0.042747363448143005
1708438025.3146248,-1.115559458732605,-1.6762076816954554,-2.525532070790426,2.291320725078247,-1.015364948903219,0.04275622218847275
1708438025.3166072,-1.1155800819396973,-1.6762901745238246,-2.525552813206808,2.291313334102295,-1.0153196493731897,0.04274437576532364
1708438025.3186219,-1.1156256198883057,-1.6762148342528285,-2.5255516211139124,2.291299982661865,-1.015353027974264,0.04275920242071152
1708438025.3206615,-1.1156139373779297,-1.6762405834593714,-2.525565210972921,2.291320725078247,-1.0153487364398401,0.0427279956638813
1708438025.3226407,-1.1155637502670288,-1.6762730083861292,-2.52550179163088,2.291342182750366,-1.0153487364398401,0.04274744167923927
1708438025.3246531,-1.1155141592025757,-1.6762763462462367,-2.525565210972921,2.2913331228443603,-1.01538592973818,0.04274430125951767
1708438025.3266463,-1.1155524253845215,-1.6762267551817835,-2.525506321583883,2.291320725078247,-1.0153487364398401,0.04283813759684563
1708438025.328628,-1.1155767440795898,-1.6762763462462367,-2.52552301088442,2.2913219171711425,-1.0153282324420374,0.04283049330115318
1708438025.330647,-1.1155273914337158,-1.6762916050352992,-2.52550179163088,2.2912494379230957,-1.0152881781207483,0.04284248501062393
1708438025.332635,-1.1155287027359009,-1.6763206921019496,-2.5255726019488733,2.291236324901245,-1.0153487364398401,0.04275621101260185
1708438025.3346465,-1.1155287027359009,-1.6763116321959437,-2.525565210972921,2.291207714671753,-1.0153692404376429,0.04279221221804619
1708438025.3366323,-1.1155210733413696,-1.6763497791686,-2.52550179163088,2.291311426753662,-1.0153120199786585,0.04276055842638016
1708438025.338616,-1.1154841184616089,-1.6763478718199671,-2.525527540837423,2.29122178136792,-1.0153358618365687,0.042846810072660446
1708438025.3406494,-1.115447998046875,-1.6763435802855433,-2.5255394617663782,2.2911600309559326,-1.0153401533709925,0.04274299368262291
1708438025.3426807,-1.115464210510254,-1.6763645611205042,-2.525473419819967,2.291156693095825,-1.0153358618365687,0.04285901039838791
1708438025.3446379,-1.1154284477233887,-1.6763512096800746,-2.5255561510669153,2.2911903101154785,-1.0153444449054163,0.042747460305690765
1708438025.346636,-1.1153839826583862,-1.6763512096800746,-2.5255470911609095,2.2911709982105712,-1.0153401533709925,0.042759284377098083
1708438025.3486316,-1.1154284477233887,-1.6763626537718714,-2.5255726019488733,2.2910846906849365,-1.015327278767721,0.04277690500020981
1708438025.350631,-1.1153476238250732,-1.6764079533019007,-2.525548521672384,2.2910446363636474,-1.0153563658343714,0.04279661178588867
1708438025.3526232,-1.1153196096420288,-1.6764499149718226,-2.525532070790426,2.2910172182270507,-1.0153401533709925,0.042787857353687286
1708438025.3546557,-1.1153112649917603,-1.6763869724669398,-2.525565210972921,2.291055126781128,-1.0153844992267054,0.042754895985126495
1708438025.3566253,-1.1153051853179932,-1.6764408550658167,-2.525565210972921,2.290928764934204,-1.0153759161578577,0.04285342991352081
1708438025.3589296,-1.115258812904358,-1.6764728031554164,-2.525581661854879,2.2909623819538574,-1.0153816382037562,0.04280723258852959
1708438025.360624,-1.1152362823486328,-1.6764441929259242,-2.5255680719958704,2.290966673488281,-1.0153644720660608,0.04286522790789604
1708438025.362632,-1.1151961088180542,-1.676488538781637,-2.5255845228778284,2.2908567625233154,-1.0153644720660608,0.042856454849243164
1708438025.364623,-1.1151924133300781,-1.6764842472472132,-2.5256176630603235,2.290849133128784,-1.0153687636004847,0.042856454849243164
1708438025.3666353,-1.1151849031448364,-1.6765123806395472,-2.5255754629718226,2.290853663081787,-1.015393082295553,0.04286522790789604
1708438025.3686516,-1.1151241064071655,-1.6765414677061976,-2.5255635420428675,2.2908546167561035,-1.0153973738299769,0.042881570756435394
1708438025.3706129,-1.115071415901184,-1.6765862903990687,-2.525595013295309,2.290785952205322,-1.0153687636004847,0.04284015670418739
1708438025.372608,-1.1150389909744263,-1.676568170587057,-2.52566105524172,2.2907578188129882,-1.0153563658343714,0.04288050904870033
1708438025.3746023,-1.1150727272033691,-1.676584859887594,-2.525644604359762,2.2907425600239257,-1.0153802076922815,0.04292978346347809
1708438025.376604,-1.1149789094924927,-1.6765786610045375,-2.5256264845477503,2.2907187181660156,-1.015400234852926,0.04285509139299393
1708438025.3786416,-1.1149964332580566,-1.6766120396056117,-2.5256593863116663,2.2906500536152343,-1.0154088179217737,0.04292543977499008
1708438025.3806186,-1.1149606704711914,-1.6766444645323695,-2.5256639162646692,2.2906457620808105,-1.0153797308551233,0.042883630841970444
1708438025.3826106,-1.114928126335144,-1.6766401729979457,-2.5256667772876185,2.2905523019978027,-1.0153754393206995,0.04296544939279556
1708438025.3846164,-1.1148278713226318,-1.6766711674132289,-2.525668446217672,2.2906362253376464,-1.015444580708639,0.042935971170663834
1708438025.386637,-1.1148016452789307,-1.6766625843443812,-2.5256548563586634,2.2905053335377197,-1.0154488722430628,0.0430045947432518
1708438025.388611,-1.1148204803466797,-1.6767522297301234,-2.5256531874286097,2.2904936510273437,-1.0154808203326624,0.04300902038812637
1708438025.3906186,-1.1147435903549194,-1.6767717800536097,-2.5256593863116663,2.2904741007038574,-1.0155089537249964,0.04298831894993782
1708438025.3926542,-1.1147277355194092,-1.676720758477682,-2.5256248156176966,2.290405197734497,-1.0154808203326624,0.042976412922143936
1708438025.3946047,-1.1147127151489258,-1.676796098748678,-2.5257001558886927,2.29033271848645,-1.0155327955829065,0.042991358786821365
1708438025.3966217,-1.1146607398986816,-1.6768647632994593,-2.525691095982687,2.290308399791382,-1.015467945729391,0.04299575462937355
1708438025.3986158,-1.1145681142807007,-1.6768185100951136,-2.5256882349597376,2.29021064817395,-1.0155490080462855,0.04300800338387489
1708438025.400604,-1.1145435571670532,-1.6768866978087367,-2.5257495085345667,2.2903517919727783,-1.0155113379107874,0.04301554709672928
1708438025.4026225,-1.1145286560058594,-1.676903863946432,-2.525747601185934,2.290299816722534,-1.0155394713031214,0.04303182289004326
1708438025.4046535,-1.1144315004348755,-1.676901479760641,-2.5257611910449427,2.2901899057575683,-1.0155800024615687,0.043081093579530716
1708438025.4066188,-1.1143958568572998,-1.6769796810545863,-2.525686566029684,2.290194197291992,-1.0156124273883265,0.043081119656562805
1708438025.4086223,-1.1143639087677002,-1.6769424877562464,-2.525722328816549,2.290137215251587,-1.0156124273883265,0.04307222366333008
1708438025.4106157,-1.1142832040786743,-1.6769710979857386,-2.525738779698507,2.290114565486572,-1.0156777540790003,0.043075282126665115
1708438025.4126282,-1.1142218112945557,-1.677011629144186,-2.5257554689990442,2.2900499540516357,-1.0156071821795862,0.043117083609104156
1708438025.4146214,-1.1141467094421387,-1.6770802936949671,-2.5257554689990442,2.2899698454090576,-1.0156481901751917,0.043121472001075745
1708438025.416652,-1.114151120185852,-1.6771131954588832,-2.5257418791400355,2.289921684856079,-1.0156634489642542,0.04314422607421875
1708438025.4186358,-1.1141165494918823,-1.6770860157408656,-2.5257659594165247,2.28983656942334,-1.0157082716571253,0.043179988861083984
1708438025.4206333,-1.114035964012146,-1.6770903072752894,-2.5258215109454554,2.289837046260498,-1.0156667868243616,0.043168067932128906
1708438025.422685,-1.1139756441116333,-1.6771699390807093,-2.5258153120623987,2.289790316218994,-1.0157159010516565,0.04321767017245293
1708438025.424659,-1.1138787269592285,-1.677138467828268,-2.5258365313159388,2.289710207576416,-1.0157526175128382,0.04318361356854439
1708438025.4266827,-1.1138637065887451,-1.6771818600096644,-2.525860611592428,2.2896336752125244,-1.015759293233053,0.043199919164180756
1708438025.428635,-1.1137701272964478,-1.6772014103331507,-2.525860611592428,2.2895616728016357,-1.0157673994647425,0.04321184381842613
1708438025.430616,-1.1137316226959229,-1.6772462330260218,-2.525900904332296,2.2894808489033203,-1.015787426625387,0.04324478283524513
1708438025.4326472,-1.1136845350265503,-1.6772376499571742,-2.525851551686422,2.2894670206257324,-1.0158236662494105,0.0432610921561718
1708438025.4346263,-1.1136231422424316,-1.6772939167418421,-2.5258873144732874,2.289430781001709,-1.0158560911761683,0.043256618082523346
1708438025.4366477,-1.1135680675506592,-1.6772691212096156,-2.5258544127093714,2.2893175321766357,-1.0158599058734339,0.043301478028297424
1708438025.4386492,-1.1135255098342896,-1.6773587665953578,-2.5259297529803675,2.2892536359974365,-1.0158346335040491,0.04330449923872948
1708438025.4406042,-1.1134639978408813,-1.6773654423155726,-2.5258753935443323,2.289193554515503,-1.0159161726581019,0.04327159747481346
1708438025.4426403,-1.113380789756775,-1.677373548547262,-2.5258691946612757,2.2891544538685302,-1.0159595648394983,0.04333740845322609
1708438025.444626,-1.1132993698120117,-1.6774145565428675,-2.5259161631213587,2.2890989023395996,-1.0159757773028772,0.04332084581255913
1708438025.4466753,-1.113191843032837,-1.6774212322630824,-2.5259116331683558,2.2890054422565917,-1.0160163084613245,0.04331646114587784
1708438025.4486282,-1.1131597757339478,-1.6774770222105921,-2.52592641512026,2.289003534907959,-1.016059700642721,0.04332423955202103
1708438025.4506235,-1.113090991973877,-1.677563806573385,-2.525947395955221,2.288930578822754,-1.016059700642721,0.0433884896337986
1708438025.452679,-1.113007664680481,-1.6775132618346156,-2.526013437901632,2.288867159480713,-1.0160711447345179,0.04337660223245621
1708438025.4546683,-1.1129562854766846,-1.6775442562498988,-2.5259743372546595,2.288822813625,-1.0161154905902308,0.04336781054735184
1708438025.4566543,-1.1129094362258911,-1.677610536614889,-2.5259833971606653,2.288722439403198,-1.016163174306051,0.04339599609375
1708438025.4586222,-1.1128159761428833,-1.6776462994017542,-2.5259953180896204,2.2886430460163574,-1.0161426703082483,0.04342890530824661
1708438025.4606152,-1.1127521991729736,-1.6777240238585414,-2.5259698073016565,2.288574143046997,-1.0161789099322718,0.04346147179603577
1708438025.4626656,-1.1127008199691772,-1.6776944599547328,-2.526043478642599,2.288527651424072,-1.0162232557879847,0.0434408076107502
1708438025.4646008,-1.1125786304473877,-1.6777430973448695,-2.526048008595602,2.2884437280842285,-1.0162189642535608,0.0434768944978714
1708438025.4666111,-1.1125768423080444,-1.6777378521361292,-2.5260794798480433,2.288407488460205,-1.016275707875387,0.043439529836177826
1708438025.4686036,-1.112459659576416,-1.6777717075743617,-2.5261288324939173,2.2882651525684814,-1.016254727040426,0.04345583915710449
1708438025.4706085,-1.1124122142791748,-1.6777998409666957,-2.5261197725879114,2.2882553774067382,-1.0162909666644495,0.043488748371601105
1708438025.4726741,-1.1123638153076172,-1.677931924859518,-2.5261123816119593,2.2881290155598144,-1.0163429419146937,0.04347553104162216
1708438025.4746659,-1.1122851371765137,-1.6778885326781214,-2.5261650721179407,2.2881194788166503,-1.0163591543780726,0.04348426312208176
1708438025.4766636,-1.1122124195098877,-1.6779428921141566,-2.526142422352926,2.2880679804035644,-1.0163701216327112,0.043529193848371506
1708438025.4786456,-1.1121242046356201,-1.677981515923971,-2.526158873234884,2.2879840570637207,-1.0164225737201136,0.04351154714822769
1708438025.480627,-1.1120964288711548,-1.6780597172179164,-2.526187245045797,2.287918968791626,-1.0164344946490687,0.04353976249694824
1708438025.4826212,-1.11202073097229,-1.6780864200987757,-2.526187245045797,2.2878762918659667,-1.0164826552020472,0.04352651536464691
1708438025.4846532,-1.1119400262832642,-1.6781188450255335,-2.5262113253222864,2.2877792555042724,-1.016571346913473,0.04355192184448242
1708438025.4866831,-1.1118841171264648,-1.6781159840025843,-2.5262325445758265,2.287731810207031,-1.0165217558490198,0.043566908687353134
1708438025.4886498,-1.1118366718292236,-1.6781608066954554,-2.526242796574728,2.2876598077961425,-1.016634766255514,0.04357137531042099
1708438025.4906151,-1.1117652654647827,-1.6782251797118128,-2.5262399355517786,2.2875916200825195,-1.0166142622577112,0.043608639389276505
1708438025.4925933,-1.1116857528686523,-1.6783048115172328,-2.526296917592184,2.2875351148792724,-1.0166829268084925,0.04357451573014259
1708438025.4946423,-1.1116256713867188,-1.6783558330931605,-2.52622634569277,2.287496729488037,-1.016677204762594,0.04365221783518791
1708438025.4966009,-1.1115522384643555,-1.6783410511412562,-2.52627140680422,2.2873868185230712,-1.0167143980609339,0.043718013912439346
1708438025.4986293,-1.1114476919174194,-1.6783887348570765,-2.5262637774096888,2.287339134807251,-1.016778294240133,0.043693508952856064
1708438025.5006242,-1.1113927364349365,-1.6784025631346644,-2.526292387639181,2.287308378810547,-1.016794506703512,0.043680332601070404
1708438025.5026095,-1.1113200187683105,-1.6785127125182093,-2.526292387639181,2.2872039514729003,-1.0168307463275355,0.043695926666259766
1708438025.5046618,-1.111231803894043,-1.6785532436766566,-2.526278797780172,2.2871362405964355,-1.0168708006488245,0.043716661632061005
1708438025.5066104,-1.1111966371536255,-1.6785155735411585,-2.526283327733175,2.2870303827473144,-1.0168622175799769,0.04374515637755394
1708438025.5086174,-1.1111209392547607,-1.678596635858053,-2.5263238588916224,2.287003441447876,-1.0168493429767054,0.043736353516578674
1708438025.5106184,-1.1111260652542114,-1.6785861454405726,-2.5263147989856165,2.2868870931812744,-1.01689321199526,0.04373512417078018
1708438025.5126214,-1.1110050678253174,-1.6786471805968226,-2.5263386408435267,2.2868644434162597,-1.0169866720782679,0.04381686821579933
1708438025.514616,-1.1108840703964233,-1.678716321984762,-2.5263477007495325,2.286738081569336,-1.0169408957110804,0.043828703463077545
1708438025.5166314,-1.1109061241149902,-1.6787311039366664,-2.5263312498675745,2.2867111402698974,-1.0169852415667933,0.04375015199184418
1708438025.518611,-1.110817313194275,-1.678784032861227,-2.526372019444601,2.2866641718098144,-1.0170052687274378,0.04381116107106209
1708438025.5206356,-1.1107158660888672,-1.6787868938841761,-2.5263987223254603,2.2865802484699707,-1.0169933477984827,0.043810248374938965
1708438025.5226963,-1.1106725931167603,-1.6788183651366175,-2.526358429585592,2.2864700990864257,-1.0170539061175745,0.04389508441090584
1708438025.5246446,-1.1106256246566772,-1.6788913212218226,-2.526424233113424,2.2864152628132324,-1.017029110585348,0.04395182058215141
1708438025.5266447,-1.1105329990386963,-1.6788865528502406,-2.5264151732074183,2.286428614253662,-1.0170820395099085,0.043964069336652756
1708438025.5286453,-1.110464096069336,-1.678906580010885,-2.5263941923724573,2.2863194185444335,-1.0171015898333948,0.04405328258872032
1708438025.530647,-1.110438346862793,-1.6789380512633265,-2.5264437834369105,2.286297007197998,-1.0171015898333948,0.04405639320611954
1708438025.5326412,-1.1103405952453613,-1.6789785824217738,-2.5264347235309046,2.2862042623707275,-1.017090145741598,0.044027019292116165
1708438025.5346537,-1.110276222229004,-1.6790234051146449,-2.5264015833484095,2.286156101817749,-1.0171015898333948,0.04406304657459259
1708438025.536656,-1.1102819442749023,-1.679021497766012,-2.5263941923724573,2.2861410814472656,-1.0170815626727503,0.04408710077404976
1708438025.5386512,-1.1101521253585815,-1.6790253124632777,-2.52649170557131,2.2860848146625976,-1.0171096960650843,0.04412722587585449
1708438025.5406847,-1.11012601852417,-1.6791235409178675,-2.5264723936664026,2.2859551149555664,-1.0171540419207972,0.04415130615234375
1708438025.5426712,-1.1100977659225464,-1.679101129571432,-2.526499334965841,2.2859813409992675,-1.017142120991842,0.04422017186880112
1708438025.5446274,-1.1099886894226074,-1.679164548913473,-2.526479784642355,2.2859219747730712,-1.0171573797809046,0.04422765225172043
1708438025.5466197,-1.109925389289856,-1.679162164727682,-2.526463333760397,2.2857841688343505,-1.017176930104391,0.04428909718990326
1708438025.5486305,-1.1098642349243164,-1.6791907749571742,-2.526515785847799,2.2857884603687744,-1.0171979109393519,0.0442759208381176
1708438025.5507102,-1.1098653078079224,-1.6792055569090785,-2.5264902750598353,2.2857820230671386,-1.0172260443316858,0.04432818666100502
1708438025.5526407,-1.1097859144210815,-1.6792880497374476,-2.5265067259417933,2.2856852251240234,-1.017205540333883,0.04438359662890434
1708438025.5546556,-1.1097571849822998,-1.679274698297018,-2.526520315800802,2.2855793672749023,-1.0171807448016565,0.044395528733730316
1708438025.5566404,-1.1096482276916504,-1.6792565784850062,-2.5264857451068323,2.2855731683918457,-1.017233673726217,0.04440651088953018
1708438025.5586307,-1.1096669435501099,-1.6793600521483363,-2.5265398661242884,2.285529299373291,-1.017184082661764,0.04448389261960983
1708438025.5606143,-1.1095728874206543,-1.6793915234007777,-2.5265489260302942,2.285407229060791,-1.0172165075885218,0.04454801231622696
1708438025.5626361,-1.1095623970031738,-1.679422994653219,-2.5265279451953333,2.2854463297077636,-1.017212216054098,0.04456336423754692
1708438025.5646095,-1.1094415187835693,-1.67936434368276,-2.5265262762652796,2.285337133998535,-1.0172813574420374,0.044611286371946335
1708438025.566617,-1.1094427108764648,-1.6794215641417445,-2.5265682379352015,2.2853163915821533,-1.0172813574420374,0.044659536331892014
1708438025.5686312,-1.109382152557373,-1.6794053516783656,-2.5265892187701624,2.285273237819336,-1.0172975699054163,0.04469864442944527
1708438025.5706103,-1.1093170642852783,-1.6794706783690394,-2.5265591780291956,2.285212917918823,-1.0172770659076136,0.044798851013183594
1708438025.572702,-1.1092982292175293,-1.6795216999449671,-2.5265262762652796,2.285127802486084,-1.0172727743731897,0.04485110938549042
1708438025.5746682,-1.1092743873596191,-1.6795054874815882,-2.5265381971942347,2.2851335245319824,-1.0173099676715296,0.04491877555847168
1708438025.576669,-1.109197974205017,-1.6795321903624476,-2.5265968481646937,2.285048170680664,-1.0173099676715296,0.045100729912519455
1708438025.5786507,-1.1091623306274414,-1.6795460186400355,-2.5265710989581507,2.2850581842609863,-1.0172928015338343,0.04510735720396042
1708438025.5806525,-1.1091095209121704,-1.67958464244985,-2.5265381971942347,2.2850386339375,-1.017313305531637,0.045204780995845795
1708438025.5826359,-1.1090664863586426,-1.6796170673766078,-2.5265172163592737,2.2849580484577636,-1.0172799269305628,0.04528425633907318
1708438025.5846624,-1.1090019941329956,-1.6796652279295863,-2.5265546480761927,2.2848848539539794,-1.0173123518573206,0.045351542532444
1708438025.58667,-1.1090151071548462,-1.6796609363951625,-2.526604477559225,2.284890337581299,-1.0173047224627894,0.045451775193214417
1708438025.5887017,-1.1089386940002441,-1.6796966991820277,-2.5266135374652308,2.2848052221485595,-1.0173209349261683,0.04559679701924324
1708438025.5906057,-1.1089061498641968,-1.6797224483885707,-2.5265217463122767,2.2847933012196044,-1.0173285643206995,0.04565595090389252
1708438025.5926304,-1.1088815927505493,-1.6796957455077113,-2.5265637079821985,2.2847577768513183,-1.0173080603228968,0.04573979601264
1708438025.5946398,-1.1088083982467651,-1.6797400913634242,-2.5265801588641565,2.2846857744404296,-1.0173285643206995,0.04585947096347809
1708438025.5966244,-1.108789086341858,-1.6798020801939906,-2.5265710989581507,2.284665032024048,-1.0173566977130335,0.04600449278950691
1708438025.5986075,-1.1087827682495117,-1.6798211536803187,-2.5265710989581507,2.284682436580322,-1.0173895994769495,0.046054594218730927
1708438025.6005976,-1.1087422370910645,-1.679800649682516,-2.526541058217184,2.284642382259033,-1.0173938910113733,0.04621613770723343
1708438025.602594,-1.1086819171905518,-1.67982878307485,-2.5265665690051478,2.2845448690601806,-1.0173895994769495,0.04635545238852501
1708438025.6046631,-1.108656883239746,-1.679934640923971,-2.5265665690051478,2.284512920970581,-1.017392937337057,0.04647546634078026
1708438025.606599,-1.1086300611495972,-1.6798316440977992,-2.5265546480761927,2.284489079112671,-1.0173404852496546,0.04654621332883835
1708438025.6086318,-1.1085898876190186,-1.6799141369261683,-2.5265665690051478,2.2844902712055664,-1.0173972288714808,0.04672271013259888
1708438025.6106129,-1.1085654497146606,-1.6798964939513148,-2.5265546480761927,2.2844621378132324,-1.0174091498004358,0.04686678946018219
1708438025.612619,-1.1085948944091797,-1.6799246273436488,-2.5265381971942347,2.2844008642384033,-1.0174339453326624,0.04703567177057266
1708438025.6146064,-1.108501672744751,-1.6799456081786097,-2.526587788258688,2.28438584386792,-1.0174263159381312,0.047196030616760254
1708438025.6166365,-1.108481526374817,-1.679944177667135,-2.5265665690051478,2.284341974849365,-1.017355744038717,0.0474204383790493
1708438025.6186213,-1.108482837677002,-1.679927488366598,-2.526583258305685,2.284318132991455,-1.0173972288714808,0.04753037169575691
1708438025.620649,-1.1084307432174683,-1.679976602593893,-2.526625458394186,2.284322424525879,-1.0174134413348597,0.0477476604282856
1708438025.6226406,-1.1084063053131104,-1.6799756489195765,-2.5266225973712366,2.2842742639729003,-1.0173729101764124,0.04791438207030296
1708438025.624638,-1.108383297920227,-1.6800714931883753,-2.5265756289111536,2.284238501186035,-1.0173686186419886,0.04814760386943817
1708438025.6266375,-1.1083582639694214,-1.6800085506834925,-2.526562039052145,2.284222288722656,-1.0173481146441858,0.04837209731340408
1708438025.628642,-1.108313798904419,-1.6800281010069789,-2.5265710989581507,2.2841316896625976,-1.0172994772540491,0.04855073243379593
1708438025.630621,-1.1083232164382935,-1.6800624332823695,-2.5265968481646937,2.2841414648243408,-1.0173404852496546,0.04873405769467354
1708438025.6326413,-1.108290672302246,-1.680040021935934,-2.526557509099142,2.2841707903095703,-1.0173686186419886,0.04898826405405998
1708438025.634688,-1.1082593202590942,-1.6799975834288539,-2.5265665690051478,2.2840894895740966,-1.0173524061786097,0.049152474850416183
1708438025.636645,-1.1082593202590942,-1.680080076257223,-2.5265923182116907,2.284073753947876,-1.0173643271075647,0.049443792551755905
1708438025.638633,-1.1082097291946411,-1.6800724468626917,-2.5265665690051478,2.2840944963642578,-1.0173566977130335,0.049710772931575775
1708438025.640625,-1.1081459522247314,-1.680080076257223,-2.526599947606222,2.2840706545063476,-1.0173404852496546,0.049941543489694595
1708438025.6426353,-1.108170986175537,-1.680108209649557,-2.526611868535177,2.2839812475391845,-1.0173524061786097,0.05020536854863167
1708438025.6446166,-1.1081516742706299,-1.6800991497435511,-2.526545588170187,2.2839571672626953,-1.0173481146441858,0.050501760095357895
1708438025.6466315,-1.1081228256225586,-1.6801282368102015,-2.5265756289111536,2.283933563823364,-1.01738149324526,0.05081948637962341
1708438025.6486301,-1.1080783605575562,-1.6800981960692347,-2.526583258305685,2.2839714723774414,-1.0173609892474573,0.05111138895153999
1708438025.6506188,-1.108046293258667,-1.6801988087096156,-2.526562039052145,2.2839271265217285,-1.0173447767840784,0.05136539787054062
1708438025.6526492,-1.108046293258667,-1.680138727227682,-2.5265710989581507,2.283869667644165,-1.0173361937152308,0.05169495940208435
1708438025.6546404,-1.108047604560852,-1.6801897488036097,-2.5265501181231897,2.2838784891315917,-1.0173080603228968,0.05195723474025726
1708438025.6566455,-1.1079825162887573,-1.6801806888976039,-2.5265546480761927,2.283834143275879,-1.0173938910113733,0.05232265591621399
1708438025.6586113,-1.1079673767089844,-1.6801744900145472,-2.526578728352682,2.2838021951862792,-1.0173609892474573,0.0526583194732666
1708438025.660606,-1.107889175415039,-1.680270334283346,-2.526574198399679,2.2837869363972167,-1.0173285643206995,0.05296562984585762
1708438025.66261,-1.1078484058380127,-1.6802731953062953,-2.52661639848818,2.2837413984486084,-1.0173328558551233,0.053273048251867294
1708438025.664606,-1.1078697443008423,-1.6802107296385707,-2.526599947606222,2.28373829900708,-1.0173209349261683,0.05362050607800484
1708438025.6666167,-1.1078228950500488,-1.6802264652647914,-2.526552979146139,2.2837106424519042,-1.0172928015338343,0.05395663157105446
1708438025.6686056,-1.1077946424484253,-1.6803089580931605,-2.5265546480761927,2.2836531835743408,-1.0173004309283655,0.054301027208566666
1708438025.6706097,-1.1077747344970703,-1.6802956066527308,-2.526599947606222,2.2836498457142334,-1.0172761122332972,0.0546235591173172
1708438025.6726553,-1.107787847518921,-1.6803089580931605,-2.5265710989581507,2.283646746272705,-1.017329517995016,0.054999712854623795
1708438025.6746166,-1.1077064275741577,-1.6803237400450648,-2.5265427271472376,2.2836147981831054,-1.017297093068258,0.05539598688483238
1708438025.6766539,-1.1076775789260864,-1.6803647480406703,-2.526611868535177,2.283595247859619,-1.0172565619098108,0.055739451199769974
1708438025.6786168,-1.1076463460922241,-1.6803719005980433,-2.526609007512228,2.283554716701172,-1.0173099676715296,0.05611549690365791
1708438025.6806326,-1.1076475381851196,-1.6803676090636195,-2.526578728352682,2.2835351663776855,-1.0172479788409632,0.056502606719732285
1708438025.6826339,-1.1075993776321411,-1.6804114780821742,-2.526524607335226,2.2834788995930175,-1.017301384602682,0.05688329041004181
1708438025.684621,-1.107546091079712,-1.6804849110045375,-2.526562039052145,2.2834624487110595,-1.0172651449786585,0.05731922760605812
1708438025.6866486,-1.1075547933578491,-1.6804515324034632,-2.5265710989581507,2.2834173875996093,-1.0172727743731897,0.057711463421583176
1708438025.6886363,-1.107511043548584,-1.6805039844908656,-2.526583258305685,2.283374233836792,-1.0172770659076136,0.058016836643218994
1708438025.6906135,-1.1074470281600952,-1.68048157314443,-2.526599947606222,2.2833749490925292,-1.0172651449786585,0.058469951152801514
1708438025.692672,-1.1074275970458984,-1.6805936298766078,-2.526590887700216,2.2832655149647216,-1.0172694365130823,0.05887772515416145
1708438025.6946056,-1.1073789596557617,-1.6805993519225062,-2.526578728352682,2.2832366663166503,-1.0172436873065394,0.059328991919755936
1708438025.6966515,-1.1073507070541382,-1.680565973321432,-2.526587788258688,2.2832552629658203,-1.0172770659076136,0.059766341000795364
1708438025.698626,-1.1072624921798706,-1.6806851826109828,-2.526599947606222,2.2831901746937255,-1.0172651449786585,0.06016077101230621
1708438025.700636,-1.1072217226028442,-1.6807300053038539,-2.526583258305685,2.2831613260456542,-1.0172198454486292,0.06060541421175003
1708438025.7026324,-1.1072111129760742,-1.680765768090719,-2.526604477559225,2.2831432062336425,-1.0172694365130823,0.061012525111436844
1708438025.7046428,-1.1071257591247559,-1.6807481251158656,-2.5265710989581507,2.283139391536377,-1.0172284285174769,0.06148234009742737
1708438025.7066317,-1.1070663928985596,-1.6808048687376917,-2.526609007512228,2.2830425935932617,-1.0172293821917933,0.061892151832580566
1708438025.7086232,-1.1070226430892944,-1.6808649502196253,-2.526599947606222,2.283076210612915,-1.0172694365130823,0.062387630343437195
1708438025.7106338,-1.1070042848587036,-1.6808296642699183,-2.526607338582174,2.2830073076435546,-1.0172737280475062,0.0629168227314949
1708438025.7126586,-1.1068395376205444,-1.6808787784972132,-2.526641909276144,2.282902880305908,-1.0172293821917933,0.06335591524839401
1708438025.7146153,-1.1067979335784912,-1.6809588871397914,-2.526619259511129,2.282855196590088,-1.0172737280475062,0.06386415660381317
1708438025.7166224,-1.106753945350647,-1.6809703312315882,-2.526619259511129,2.2827817636677246,-1.0172207991229456,0.06431083381175995
1708438025.718619,-1.106677532196045,-1.6810680828490199,-2.526623789464132,2.2827305036732177,-1.017212216054098,0.06481850147247314
1708438025.720631,-1.1065860986709595,-1.6810876331725062,-2.5266431013690394,2.2826248842426757,-1.0172489325152796,0.06532978266477585
1708438025.7226386,-1.1064401865005493,-1.6810981235899867,-2.5266807715045374,2.282639189357422,-1.0173018614398401,0.06581365317106247
1708438025.7246335,-1.1063730716705322,-1.68117155651235,-2.5266807715045374,2.2825345236011962,-1.0172727743731897,0.0663340762257576
1708438025.7266319,-1.1063388586044312,-1.6812221012511195,-2.5267167727099817,2.2824579912373046,-1.0172737280475062,0.06680435687303543
1708438025.728645,-1.1061978340148926,-1.681263109246725,-2.5267003218280237,2.2823409277149658,-1.0172565619098108,0.06731858104467392
1708438025.7306254,-1.106065034866333,-1.6813513241209925,-2.526677672063009,2.2822903829761962,-1.0172565619098108,0.06787919253110886
1708438025.7326148,-1.1059974431991577,-1.681436677972311,-2.52674371400942,2.2821613985249023,-1.0172889868365687,0.06838631629943848
1708438025.7346206,-1.1058082580566406,-1.681441446343893,-2.5267346541034144,2.282144232387207,-1.0173099676715296,0.0688968226313591
1708438025.736635,-1.1057538986206055,-1.681509634057516,-2.5267842451678675,2.2819978433796386,-1.0172727743731897,0.06949785351753235
1708438025.7386649,-1.1056344509124756,-1.6815997562804164,-2.5268035570727747,2.281914635295532,-1.017301384602682,0.0700647383928299
1708438025.7406418,-1.1054739952087402,-1.6816359959044398,-2.526789967213766,2.281801863307617,-1.017325226460592,0.0705391988158226
1708438025.7426503,-1.1053329706192017,-1.6816894016661585,-2.5268307367907923,2.2816166120716552,-1.0173047224627894,0.07114531844854355
1708438025.7446723,-1.1051740646362305,-1.681774755517477,-2.5268500486956995,2.281533403987549,-1.017353359852926,0.07174106687307358
1708438025.7466285,-1.1050268411636353,-1.6818448505797328,-2.526956621800558,2.2814623552509765,-1.0173652807818812,0.07228457182645798
1708438025.7486188,-1.1048171520233154,-1.681955953637594,-2.526931111012594,2.281322165126465,-1.0173566977130335,0.07280193269252777
1708438025.7506256,-1.1046048402786255,-1.6820327244200648,-2.5269625822650355,2.2811950880238037,-1.0173810164081019,0.07341984659433365
1708438025.7526188,-1.104432463645935,-1.6820727787413539,-2.5269957224475306,2.2810584741779785,-1.0174415747271937,0.07399557530879974
1708438025.754651,-1.1042284965515137,-1.6821657619872035,-2.5270348230945032,2.2808562952229003,-1.017404858266012,0.07455363869667053
1708438025.7566147,-1.1040332317352295,-1.682261129418844,-2.527109686528341,2.280778093928955,-1.0173962751971644,0.07513827830553055
1708438025.758609,-1.1038038730621338,-1.682340761224264,-2.5270960966693323,2.280573530788086,-1.0174687544452112,0.07568855583667755
1708438025.7606072,-1.103540062904358,-1.6825038395323695,-2.527172629033224,2.280369682902954,-1.017534081135885,0.07625259459018707
1708438025.7626162,-1.1032671928405762,-1.6826173267760218,-2.5271831194507044,2.2802464204975585,-1.017480198537008,0.07686499506235123
1708438025.7646296,-1.10301673412323,-1.682687898675436,-2.5272026697741907,2.280005379314087,-1.0176056067096155,0.07748964428901672
1708438025.7666128,-1.1027482748031616,-1.6828047237791957,-2.52726394334902,2.279838724727295,-1.0176051298724573,0.07799515128135681
1708438025.7686527,-1.1024357080459595,-1.6829291782774867,-2.5273733774768274,2.279707594508789,-1.0176246801959437,0.07850217074155807
1708438025.770639,-1.1021432876586914,-1.6831103763976039,-2.527372185383932,2.279491110438965,-1.0176928679095667,0.07911171019077301
1708438025.7726457,-1.1018965244293213,-1.6831714115538539,-2.527396027241842,2.2792374330708007,-1.0177367369281214,0.07967500388622284
1708438025.774625,-1.1015597581863403,-1.6833363972105921,-2.5274725596057337,2.2791122633167724,-1.0178206602679651,0.08031071722507477
1708438025.7766175,-1.1011983156204224,-1.6835414371886195,-2.527504269276754,2.278801842326782,-1.0178402105914515,0.08085782825946808
1708438025.7786298,-1.1008965969085693,-1.683676382104391,-2.5275490919696253,2.2785369592854003,-1.017956558858053,0.08138857781887054
1708438025.7806203,-1.1004668474197388,-1.6838928661742152,-2.527588192616598,2.2783383566090087,-1.0180490652667444,0.08206338435411453
1708438025.7826118,-1.1000875234603882,-1.684019228021139,-2.5275865236865442,2.2780138689228515,-1.018116299306051,0.08270246535539627
1708438025.7846413,-1.0996789932250977,-1.6842566929259242,-2.5276930967914026,2.277761383647583,-1.018155876790182,0.08330900967121124
1708438025.7866073,-1.0992909669876099,-1.684399267236227,-2.527762238179342,2.277540369624756,-1.0182159582721155,0.0839308649301529
1708438025.788637,-1.0988551378250122,-1.6846071682372035,-2.5277469793902796,2.2771786886402587,-1.018348519002096,0.08449619263410568
1708438025.7906344,-1.098491907119751,-1.684803148309225,-2.527803961430685,2.2769576746174316,-1.0184086004840296,0.08521255105733871
1708438025.7926064,-1.0980358123779297,-1.6850229702391566,-2.5278685728656214,2.2766567903706054,-1.0184844175921839,0.08575260639190674
1708438025.7946224,-1.0976450443267822,-1.6851841411986292,-2.5279091040240687,2.2763725954243164,-1.0185282866107386,0.08635794371366501
1708438025.7966113,-1.0972086191177368,-1.685434957543844,-2.5279765764819544,2.275975390071533,-1.0186117331134241,0.08695560693740845
1708438025.798632,-1.0967100858688354,-1.6856323681273402,-2.527998749409811,2.2756756979176025,-1.0186589399920862,0.0875224620103836
1708438025.8006256,-1.0962073802947998,-1.685876031915182,-2.528039518986837,2.275258703822754,-1.0187915007220667,0.08815671503543854
1708438025.8026145,-1.0956859588623047,-1.6861454449095667,-2.528177324925558,2.274940176601074,-1.0188549200641077,0.0887499451637268
1708438025.8046255,-1.095133662223816,-1.68642057994985,-2.5281909147845667,2.2745606142231445,-1.018991772328512,0.08932872116565704
1708438025.8066156,-1.0946675539016724,-1.6866709194579066,-2.5282793680774134,2.27413193761792,-1.0190985838519495,0.08995509892702103
1708438025.80862,-1.0940933227539062,-1.6869527302184046,-2.528400723134176,2.273773356074951,-1.0191705862628382,0.09047313034534454
1708438025.8106294,-1.0935966968536377,-1.6872111759581507,-2.5284770170794886,2.2733768659779052,-1.0192740599261683,0.0910416767001152
1708438025.8126137,-1.0929958820343018,-1.68751921276235,-2.5285401980029505,2.2729813295551757,-1.0193827787982386,0.0916212722659111
1708438025.814629,-1.092391014099121,-1.6877614460387171,-2.5286105314837855,2.272569103831909,-1.0194419066058558,0.09219860285520554
1708438025.8166196,-1.09177565574646,-1.68811096767568,-2.528729263936178,2.272097035045288,-1.0195334593402308,0.09273260086774826
1708438025.8186438,-1.0911349058151245,-1.6884361706175746,-2.528787914906637,2.2716283041187744,-1.0196455160724085,0.09337639063596725
1708438025.820658,-1.090442419052124,-1.6887527904906214,-2.528921190892355,2.2711657720753173,-1.019789997731344,0.09392552822828293
1708438025.8226604,-1.0897096395492554,-1.689115663568014,-2.52903396288027,2.270653410548828,-1.0198934713946741,0.09455304592847824
1708438025.8246844,-1.0890140533447266,-1.6894718609251917,-2.5291252771960657,2.270125313396118,-1.0200336615191858,0.09507016092538834
1708438025.8266628,-1.0883463621139526,-1.6897698841490687,-2.5291910807238978,2.269662066096924,-1.0201128164874476,0.09561564028263092
1708438025.8286521,-1.087585687637329,-1.690162797967428,-2.5293167273150843,2.26908461629834,-1.0202205816852015,0.09626378118991852
1708438025.8306599,-1.0868453979492188,-1.6905132732787074,-2.5294070879565638,2.2685867983051757,-1.0203765074359339,0.09682130068540573
1708438025.8326333,-1.086094856262207,-1.6908441982665003,-2.5296111742602747,2.268021269435547,-1.0204961935626429,0.09739016741514206
1708438025.8346212,-1.0852246284484863,-1.6912108860411585,-2.5296605269061487,2.2674171167561035,-1.0206487814532679,0.09796541184186935
1708438025.8366065,-1.0844782590866089,-1.6916271648802699,-2.529820982609884,2.2668072420307617,-1.0207679907428187,0.09854387491941452
1708438025.8386137,-1.0836515426635742,-1.6919881306090296,-2.529929224644796,2.2663137155720214,-1.0209272543536585,0.09904741495847702
1708438025.8406487,-1.0827417373657227,-1.6924530468382777,-2.5300846735583704,2.265676661128662,-1.021099869404928,0.09969990700483322
1708438025.8426366,-1.0819432735443115,-1.6928521595396937,-2.530250136052267,2.2651383119770507,-1.0212424437152308,0.10025452822446823
1708438025.8446417,-1.0809950828552246,-1.6932593784727992,-2.530332390462057,2.264547749156616,-1.0214594046222132,0.1008647233247757
1708438025.8466191,-1.0800421237945557,-1.6936904392638148,-2.5305681864367884,2.263899727458618,-1.0215829054461878,0.10143440216779709
1708438025.8485994,-1.079057216644287,-1.6942202053465785,-2.5306575934039515,2.263157530421875,-1.0217755476581019,0.10198806971311569
1708438025.8506143,-1.0781707763671875,-1.6945802174010218,-2.530806366597311,2.2624987798878173,-1.0219185988055628,0.1025547906756401
1708438025.852628,-1.0771572589874268,-1.6950146160521449,-2.5309203306781214,2.261830969447754,-1.0220416227923792,0.10312420129776001
1708438025.8546207,-1.076145887374878,-1.6954943142332972,-2.5310779253589075,2.261098785991333,-1.0221813360797327,0.10368355363607407
1708438025.8566272,-1.075145959854126,-1.6960145435728968,-2.53127104440798,2.260371609325073,-1.0223572889911097,0.10429371148347855
1708438025.858615,-1.0741101503372192,-1.696432729760641,-2.531348768864767,2.259631319636963,-1.0225127379046839,0.10484088957309723
1708438025.860628,-1.0730087757110596,-1.6969863377013148,-2.531552855168478,2.258896751994751,-1.0227049032794397,0.1054580956697464
1708438025.8626528,-1.0719585418701172,-1.697507997552389,-2.531727139149801,2.258112831706665,-1.0228527227984827,0.10604045540094376
1708438025.8646133,-1.0708181858062744,-1.6980158291258753,-2.531872574483053,2.257351799602173,-1.0230487028705042,0.10651127994060516
1708438025.86663,-1.0697311162948608,-1.6985494099059046,-2.5320540110217493,2.256589575404785,-1.0232518354998987,0.1071164682507515
1708438025.8686044,-1.068593978881836,-1.6991144619383753,-2.532217327748434,2.2556983667561035,-1.0234435240374964,0.10774681717157364
1708438025.8706145,-1.067399263381958,-1.6996146641173304,-2.532404963170187,2.2549683290668945,-1.0236228148089808,0.10828946530818939
1708438025.8726397,-1.0662078857421875,-1.7002202473082484,-2.532581631337301,2.2541209894367675,-1.0238717238055628,0.10878261923789978
1708438025.874633,-1.064988136291504,-1.700730939904684,-2.532724444066183,2.253276749248169,-1.0240386168109339,0.10935609042644501
1708438025.8766408,-1.0637539625167847,-1.7013188801207484,-2.5329507032977503,2.2524120050617675,-1.0242789427386683,0.10995630919933319
1708438025.878675,-1.0625998973846436,-1.701913972894186,-2.533097569142477,2.2515439230152587,-1.0245183149920862,0.1103796660900116
1708438025.8806286,-1.0612900257110596,-1.7025252781310023,-2.5332732836352747,2.2506941991993408,-1.0248025099383753,0.11106781661510468
1708438025.882681,-1.0600714683532715,-1.7031337223448695,-2.5334904829608362,2.249753399486206,-1.025062386189596,0.11150718480348587
1708438025.8846536,-1.0587221384048462,-1.703764101068014,-2.533628288899557,2.248816414470337,-1.025229279194967,0.1121525838971138
1708438025.8866925,-1.0574103593826294,-1.7043916187682093,-2.533858124409811,2.247936649913452,-1.0254491011248987,0.11272649466991425
1708438025.888634,-1.0561264753341675,-1.7050868473448695,-2.5340126196490687,2.247004433269165,-1.025688950215475,0.11332578957080841
1708438025.8906245,-1.0547964572906494,-1.7057706318297328,-2.5342376867877405,2.2460197645374755,-1.0259283224688929,0.11389535665512085
1708438025.892638,-1.053505301475525,-1.7064491711058558,-2.5343919436084192,2.2450193601795654,-1.026147190724508,0.11447309702634811
1708438025.8946326,-1.0521340370178223,-1.7071072063841761,-2.534654204045431,2.2441038328358154,-1.026374642048971,0.11502742022275925
1708438025.896615,-1.0507128238677979,-1.707803865472311,-2.53486138979067,2.2431201177784423,-1.0265949408160608,0.11556484550237656
1708438025.8986163,-1.0493125915527344,-1.708440443078512,-2.5350773970233362,2.2421292501636962,-1.0268638769732874,0.11611827462911606
1708438025.9006233,-1.0478692054748535,-1.7091709576048792,-2.535318676625387,2.2410520750233154,-1.0271108786212366,0.11669020354747772
1708438025.9026184,-1.0464707612991333,-1.709874769250387,-2.535456720982687,2.2400755125233154,-1.0273507277118128,0.11726679652929306
1708438025.9046102,-1.044967770576477,-1.710642000237936,-2.535728995000021,2.2390670019337158,-1.0276220480548304,0.11780032515525818
1708438025.9066389,-1.0434602499008179,-1.7113787136473597,-2.535905186329977,2.2378925520130615,-1.0279062430011194,0.1183636337518692
1708438025.908634,-1.0419437885284424,-1.712125917474264,-2.536203447972433,2.2368437486835937,-1.0281766096698206,0.11893774569034576
1708438025.9106045,-1.0404391288757324,-1.7129084072508753,-2.536386553441183,2.235754891032837,-1.028452221547262,0.11955320090055466
1708438025.9126213,-1.0388314723968506,-1.7136084041991175,-2.536680285130636,2.23466078817334,-1.0287354628192347,0.12005940824747086
1708438025.9146016,-1.0372891426086426,-1.714409967462057,-2.536828581486837,2.233625574702881,-1.029027287160055,0.1206539198756218
1708438025.916612,-1.0356773138046265,-1.7151957950987757,-2.5371018091784876,2.2325193124958496,-1.0292981306659144,0.12116395682096481
1708438025.918592,-1.0340718030929565,-1.7159925899901332,-2.537278477345602,2.2313267427631835,-1.0295785109149378,0.12159150093793869
1708438025.9206135,-1.0324833393096924,-1.71677889446401,-2.537590567265646,2.230236454600952,-1.0298331419574183,0.1221475899219513
1708438025.9226592,-1.0307745933532715,-1.71759094814443,-2.5378287474261683,2.2291320997425537,-1.0301459471331995,0.12268533557653427
1708438025.924687,-1.0290533304214478,-1.718334814111227,-2.5380733648883265,2.227903290385864,-1.0303633848773401,0.12322413176298141
1708438025.926687,-1.027347207069397,-1.7192064724364222,-2.538320843373434,2.226792736644409,-1.030639950429098,0.1237630769610405
1708438025.9286978,-1.0256564617156982,-1.7200314007201136,-2.538548771535055,2.2255191045948486,-1.0309203306781214,0.12433012574911118
1708438025.9306593,-1.023861289024353,-1.720893999139303,-2.538809363042013,2.224337263698242,-1.031191651021139,0.1248365193605423
1708438025.9326189,-1.0220987796783447,-1.7217279873290003,-2.5390644709216517,2.2231218057819824,-1.0314868132220667,0.12538595497608185
1708438025.9346292,-1.0203381776809692,-1.7225696049132289,-2.539325539265768,2.221818132991455,-1.0317819754229944,0.12591631710529327
1708438025.9366145,-1.0185456275939941,-1.7233950100340785,-2.5395923296557825,2.2206193643757324,-1.032159153615133,0.12637744843959808
1708438025.9386497,-1.0167253017425537,-1.7243124447264613,-2.539926830922262,2.2193428713032226,-1.032417122517721,0.12693218886852264
1708438025.9406543,-1.0148918628692627,-1.7251736126341761,-2.5401769320117396,2.2180327612110595,-1.0328205267535608,0.12747129797935486
1708438025.9426365,-1.013039469718933,-1.7261244259276332,-2.540483538304464,2.2166103559681396,-1.0332420508014124,0.12795649468898773
1708438025.9446504,-1.011104941368103,-1.7269851169981898,-2.5406885782824915,2.215345545406006,-1.0335643927203577,0.12851956486701965
1708438025.9466538,-1.0092092752456665,-1.7278648815550746,-2.541009251271383,2.2139758306690673,-1.0338094870196741,0.1290416568517685
1708438025.9486198,-1.0073281526565552,-1.7287818394102992,-2.5412495771991175,2.2126895624348144,-1.0341418425189417,0.12958218157291412
1708438025.9506192,-1.0053538084030151,-1.7297240696349085,-2.541528288518087,2.211266203517578,-1.034433666859762,0.13007932901382446
1708438025.95263,-1.0033432245254517,-1.730739255944723,-2.541844908391134,2.209874315852783,-1.034809414540426,0.13067905604839325
1708438025.9546216,-1.0014395713806152,-1.7316094837584437,-2.542182509099142,2.2085482317158203,-1.0352099577533167,0.13113287091255188
1708438025.9566536,-0.9993554353713989,-1.7326046429076136,-2.5424612204181116,2.2071706491657714,-1.03544789949526,0.13168281316757202
1708438025.9586105,-0.9973922967910767,-1.7335969410338343,-2.542716089879171,2.20577518522229,-1.0357425848590296,0.13221681118011475
1708438025.960641,-0.9953414797782898,-1.7345901928343714,-2.543041531239645,2.2043582636066894,-1.0360506216632288,0.1327836811542511
1708438025.9626148,-0.9933120012283325,-1.7356325588622035,-2.5433204809771937,2.2029222685047607,-1.036353890095846,0.1333393156528473
1708438025.9646227,-0.991203248500824,-1.736589094201559,-2.5436700026141565,2.20143906652417,-1.0367258230792444,0.13384497165679932
1708438025.9666297,-0.9891467690467834,-1.7376676998534144,-2.543945852910177,2.1999448972889404,-1.0370777289019983,0.13442006707191467
1708438025.9686441,-0.9870763421058655,-1.7386318645873011,-2.544166151677267,2.1985019880482177,-1.0374606291400355,0.13490189611911774
1708438025.970616,-0.984938383102417,-1.7396475277342738,-2.544574562703268,2.197068138713501,-1.0378640333758753,0.13546839356422424
1708438025.9726355,-0.9827876091003418,-1.74072327236318,-2.5448909441577356,2.195535822505615,-1.0383089224444788,0.13594505190849304
1708438025.9746664,-0.9806263446807861,-1.741807600060934,-2.5451634565936487,2.194027824992798,-1.0387519041644495,0.13648416101932526
1708438025.9766223,-0.9784202575683594,-1.742854734460348,-2.5454936663257044,2.1925713258930664,-1.0391386190997522,0.13696619868278503
1708438025.9786575,-0.9762420654296875,-1.7439404926695765,-2.5458055178271692,2.1910227972218017,-1.0394819418536585,0.1375730186700821
1708438025.9806502,-0.9740276336669922,-1.7450453243651332,-2.5461130777942103,2.1895498472401123,-1.039840046559469,0.13804319500923157
1708438025.9826384,-0.971843957901001,-1.7461163006224574,-2.54643685022463,2.188058777446411,-1.0402277151690882,0.1386028677225113
1708438025.9846265,-0.9696089029312134,-1.7472430668272914,-2.54676062265505,2.18650667249646,-1.0405634085284632,0.1391412913799286
1708438025.986621,-0.9673890471458435,-1.7482887707152308,-2.547093693410055,2.1849910455891113,-1.0409510771380823,0.13962624967098236
1708438025.9886532,-0.9651411175727844,-1.749340673486227,-2.547384564076559,2.1834890085407714,-1.041208569203512,0.14006899297237396
1708438025.9906406,-0.9630395770072937,-1.7503725490965785,-2.5477128664599817,2.1820170122333984,-1.041560475026266,0.14051172137260437
1708438025.9926462,-0.9607895016670227,-1.7515226803221644,-2.548072878514425,2.180511398906372,-1.0418713728534144,0.14102403819561005
1708438025.9946194,-0.9586454033851624,-1.7526184521117152,-2.548380200062887,2.1789559560963134,-1.042267147694723,0.14150916039943695
1708438025.9966176,-0.9564774632453918,-1.7536608181395472,-2.548758570347921,2.1774141031452636,-1.0427115599261683,0.14192631840705872
1708438025.9986372,-0.9542335867881775,-1.7547041378416957,-2.549023453389303,2.1758524614521484,-1.0430496374713343,0.14239059388637543
1708438026.000623,-0.9520627856254578,-1.7558847866454066,-2.5493653456317347,2.174307270640991,-1.0434587637530726,0.14289338886737823
1708438026.0026193,-0.9497829079627991,-1.75685515026235,-2.549638096486227,2.1726953226276855,-1.043776814137594,0.14348897337913513
1708438026.0046268,-0.947586715221405,-1.7579056225218714,-2.5499632994281214,2.1711501318165283,-1.044180695210592,0.14393757283687592
1708438026.0066187,-0.9453861713409424,-1.7590214214720667,-2.5502589384662073,2.1695281702229003,-1.0445111433612269,0.14439906179904938
1708438026.0086238,-0.9432927370071411,-1.7600990734496058,-2.5506370703326624,2.1680070596882324,-1.0448411146747034,0.14495918154716492
1708438026.010607,-0.9410185813903809,-1.7611428699889125,-2.5509679953204554,2.1665238577076416,-1.0452178160296839,0.1454160362482071
1708438026.0126376,-0.9388665556907654,-1.7622562847533167,-2.5512893835650843,2.165045900935791,-1.0455849806415003,0.1459682285785675
1708438026.0146182,-0.9366450309753418,-1.7633129558958949,-2.5515921751605433,2.1635307508656005,-1.0459559599505823,0.1464672088623047
1708438026.0166054,-0.9344265460968018,-1.7643782101073207,-2.5519309679614466,2.1620804506489257,-1.0463393370257776,0.14699368178844452
1708438026.018613,-0.9321820735931396,-1.7654968700804652,-2.5522337595569056,2.1606265741535644,-1.0467193762408655,0.14747785031795502
1708438026.020634,-0.9299840331077576,-1.766548296014303,-2.5525699297534388,2.1590980726429443,-1.0470741430865687,0.14795996248722076
1708438026.0226524,-0.9277533888816833,-1.767611642877096,-2.5529072920428675,2.157515211696289,-1.0474589506732386,0.14844661951065063
1708438026.024639,-0.9256632924079895,-1.7686215839781703,-2.5532236734973353,2.156022234553955,-1.047833267842428,0.1489463597536087
1708438026.0266216,-0.923413097858429,-1.7697445354857386,-2.5535710493670862,2.154492064113281,-1.0481966177569788,0.14937946200370789
1708438026.0286207,-0.9211868047714233,-1.7707740269102992,-2.5538292566882532,2.1529907423206787,-1.048539940510885,0.14989116787910461
1708438026.0306163,-0.9190197587013245,-1.7718821964659632,-2.554157559071676,2.151400251979492,-1.0489113966571253,0.15036991238594055
1708438026.032635,-0.9167874455451965,-1.7728902302184046,-2.554457489644186,2.149862452144287,-1.0492661635028284,0.15090253949165344
1708438026.0346198,-0.9146046042442322,-1.7740217647948207,-2.5547648111926478,2.148423596019409,-1.0496018568622034,0.15139368176460266
1708438026.0366127,-0.9124364852905273,-1.7750989399352015,-2.5551021734820765,2.146855517024658,-1.0499990622149866,0.15184767544269562
1708438026.0386124,-0.91022127866745,-1.7762214146056117,-2.5554636160479944,2.1453096109577636,-1.050366226826803,0.15232698619365692
1708438026.0406275,-0.9080605506896973,-1.7772566280760707,-2.5557575861560267,2.1438252168842773,-1.0507906118976038,0.15281979739665985
1708438026.0426176,-0.9058026671409607,-1.7783481083311976,-2.5560935179339808,2.1422929006763916,-1.051162068043844,0.15331020951271057
1708438026.0446653,-0.903631865978241,-1.7794362507262171,-2.5564172903644007,2.140835924739502,-1.0515268484698694,0.15374042093753815
1708438026.0466175,-0.9013945460319519,-1.7805191479124964,-2.5567293802844446,2.1392292219349365,-1.0518601576434534,0.15426138043403625
1708438026.048626,-0.899258553981781,-1.7815610371031703,-2.5570691267596644,2.1376802164265136,-1.05229360262026,0.15477150678634644
1708438026.0506103,-0.8970667719841003,-1.7826482258238734,-2.557324473057882,2.1361521917530517,-1.0526168982135218,0.15517717599868774
1708438026.052615,-0.8948824405670166,-1.7837206325926722,-2.5576444307910364,2.134614868755005,-1.053037468587057,0.15570524334907532
1708438026.0546129,-0.8927276730537415,-1.784799715081686,-2.5580135027514856,2.1330606180378417,-1.0533917585956019,0.1562248319387436
1708438026.0566096,-0.8905704617500305,-1.7859064541258753,-2.5583491961108606,2.1316072183796386,-1.0537679831134241,0.15666694939136505
1708438026.0586064,-0.8883886337280273,-1.7869841061034144,-2.558627192174093,2.1300291258045654,-1.0541561285602015,0.1571412831544876
1708438026.060619,-0.8862115740776062,-1.7880217037596644,-2.5589478651629847,2.1285316187092285,-1.0545442740069788,0.15760889649391174
1708438026.0626101,-0.8839853405952454,-1.7890459499754847,-2.5592971483813685,2.126995487804077,-1.054826561604635,0.15806686878204346
1708438026.0646262,-0.8817169070243835,-1.790112157861227,-2.5595551172839563,2.1254336076923828,-1.0551908651935022,0.15858280658721924
