Eg3-git/Classifiers/Data Collection/u6/u6cir4_ur3e_joint_states.csv
time,elbow_joint,shoulder_lift_joint,shoulder_pan_joint,wrist_1_joint,wrist_2_joint,wrist_3_joint
1708438064.3928258,-1.1060118675231934,-1.681406637231344,-2.5265324751483362,2.281740828151367,-1.017193619404928,0.43415969610214233
1708438064.3948345,-1.1060298681259155,-1.68141569713735,-2.5265398661242884,2.2816921907612304,-1.01715594926943,0.4342043995857239
1708438064.3968313,-1.1059709787368774,-1.6813394031920375,-2.526511255894796,2.281712694759033,-1.0171893278705042,0.43420007824897766
1708438064.3988223,-1.105995535850525,-1.68141569713735,-2.5265188852893274,2.2817365366169433,-1.017214600239889,0.43417486548423767
1708438064.4008324,-1.1059620380401611,-1.681364198724264,-2.526520077382223,2.281700773830078,-1.017144028340475,0.43415531516075134
1708438064.402835,-1.1060343980789185,-1.6813975773253382,-2.5265443960772913,2.281733437175415,-1.0171740690814417,0.4342249929904938
1708438064.4048772,-1.105997085571289,-1.6813436947264613,-2.526548687611715,2.281700773830078,-1.017144028340475,0.4342000186443329
1708438064.406857,-1.1059880256652832,-1.681434770623678,-2.526511255894796,2.281700773830078,-1.0172026793109339,0.4342617690563202
1708438064.4088314,-1.1060043573379517,-1.6813813648619593,-2.526511255894796,2.281709595317505,-1.0171530882464808,0.4342610239982605
1708438064.4108381,-1.105979084968567,-1.681427618066305,-2.526548687611715,2.281765862102173,-1.0171454588519495,0.4342685043811798
1708438064.4129527,-1.1060417890548706,-1.6814304790892542,-2.5264976660357874,2.281728907222412,-1.0171573797809046,0.4342729449272156
1708438064.4148915,-1.1059880256652832,-1.681361814538473,-2.526494805012838,2.281712694759033,-1.0171621481524866,0.43424010276794434
1708438064.416863,-1.106062650680542,-1.6813765964903773,-2.526553217564718,2.2816759782978515,-1.0171502272235315,0.4342479705810547
1708438064.4188695,-1.1059709787368774,-1.6813813648619593,-2.5264976660357874,2.2816683489033203,-1.0171454588519495,0.4342392683029175
1708438064.4208517,-1.1059999465942383,-1.6813527546324671,-2.526494805012838,2.281716986293457,-1.0171635786639612,0.43427610397338867
1708438064.42283,-1.1059836149215698,-1.6814304790892542,-2.526548687611715,2.2816640573688964,-1.0171502272235315,0.43427613377571106
1708438064.4248412,-1.1060043573379517,-1.6814137897887171,-2.526520315800802,2.2817374902912597,-1.0171502272235315,0.4342966675758362
1708438064.4268909,-1.1060043573379517,-1.6813932857909144,-2.5265443960772913,2.2817656236835937,-1.017099682484762,0.43427178263664246
1708438064.4289217,-1.105995535850525,-1.681361814538473,-2.526511255894796,2.2816716867634277,-1.0170753637896937,0.4343414604663849
1708438064.4308493,-1.1060237884521484,-1.6813484630980433,-2.526473585759298,2.2816471296497802,-1.0170920530902308,0.4343208074569702
1708438064.4328141,-1.106046199798584,-1.6814304790892542,-2.5265067259417933,2.2816921907612304,-1.0170682112323206,0.43427932262420654
1708438064.4348152,-1.106074571609497,-1.6813775501646937,-2.5265234152423304,2.2816878992268066,-1.0171588102923792,0.43428295850753784
1708438064.4368272,-1.1059880256652832,-1.6813508472838343,-2.5265188852893274,2.281716986293457,-1.0171383062945765,0.4343326985836029
1708438064.438823,-1.1059709787368774,-1.6813732586302699,-2.526565138493673,2.281712694759033,-1.0170963446246546,0.43431976437568665
1708438064.4408252,-1.1059926748275757,-1.681410928765768,-2.5265021959887903,2.2816640573688964,-1.0171144644366663,0.4343230128288269
1708438064.4428124,-1.1060371398925781,-1.681401868859762,-2.526508394871847,2.281700773830078,-1.0170930067645472,0.4343283474445343
1708438064.4448402,-1.1060043573379517,-1.6813436947264613,-2.526499334965841,2.2816759782978515,-1.0170815626727503,0.43432730436325073
1708438064.446808,-1.1059800386428833,-1.6814185581602992,-2.5264902750598353,2.2816878992268066,-1.017097298298971,0.43430349230766296
1708438064.44881,-1.1059880256652832,-1.6813436947264613,-2.5265188852893274,2.281655712718628,-1.0170276800738733,0.43434783816337585
1708438064.4508107,-1.105997085571289,-1.681401868859762,-2.526499334965841,2.2816471296497802,-1.017069164906637,0.4343879818916321
1708438064.4528115,-1.105995535850525,-1.6813975773253382,-2.526461664830343,2.281716986293457,-1.0170882383929651,0.4342775046825409
1708438064.4548583,-1.1060371398925781,-1.681364198724264,-2.5265324751483362,2.281705065364502,-1.0170496145831507,0.4343760311603546
1708438064.4568172,-1.1059428453445435,-1.6813732586302699,-2.5265279451953333,2.2816595274158935,-1.017052952443258,0.4343879818916321
1708438064.4588253,-1.1059701442718506,-1.6813155613341273,-2.526499334965841,2.2816714483448486,-1.0170815626727503,0.43433812260627747
1708438064.4608324,-1.1060327291488647,-1.681401868859762,-2.526473585759298,2.2816802698322753,-1.0170453230487269,0.4343186318874359
1708438064.4628458,-1.1060043573379517,-1.6813975773253382,-2.526499334965841,2.281717224712036,-1.017036263142721,0.434371680021286
1708438064.464851,-1.1059709787368774,-1.6814094982542933,-2.5265067259417933,2.2816802698322753,-1.017036263142721,0.4343748688697815
1708438064.4668417,-1.105995535850525,-1.6813684902586878,-2.526511255894796,2.281716986293457,-1.017036263142721,0.4344033896923065
1708438064.4688647,-1.1059836149215698,-1.6814214191832484,-2.5265324751483362,2.281693382854126,-1.017024342213766,0.4343946874141693
1708438064.4708338,-1.1059746742248535,-1.6813661060728968,-2.526499334965841,2.2816759782978515,-1.017036263142721,0.4343903958797455
1708438064.472866,-1.1059709787368774,-1.681406637231344,-2.526449743901388,2.281688852901123,-1.017057243977682,0.43438270688056946
1708438064.4748483,-1.105995535850525,-1.6813856563963832,-2.526503864918844,2.2816640573688964,-1.0170376936541956,0.43441885709762573
1708438064.4769318,-1.105979084968567,-1.6813904247679652,-2.526454273854391,2.2816683489033203,-1.0170171896563929,0.43448930978775024
1708438064.4788625,-1.1060044765472412,-1.6813904247679652,-2.526475254689352,2.2816759782978515,-1.0169976393329065,0.4344513416290283
1708438064.4808204,-1.1060371398925781,-1.6813436947264613,-2.526553455983297,2.281684561366699,-1.0169885794269007,0.43447619676589966
1708438064.4828498,-1.1060534715652466,-1.6813975773253382,-2.526515785847799,2.281733437175415,-1.0170453230487269,0.43448489904403687
1708438064.4848254,-1.1059576272964478,-1.6814214191832484,-2.526508394871847,2.281684561366699,-1.0170171896563929,0.43445563316345215
1708438064.4868212,-1.1060327291488647,-1.681364198724264,-2.52649170557131,2.281733437175415,-1.0170138517962855,0.4344675838947296
1708438064.4888496,-1.1059836149215698,-1.6813508472838343,-2.526487175618307,2.2816964822956542,-1.0169809500323694,0.4344927966594696
1708438064.4908078,-1.1059576272964478,-1.6813527546324671,-2.526479784642355,2.281672640437744,-1.0169933477984827,0.43446430563926697
1708438064.4928517,-1.1060253381729126,-1.68143953899526,-2.5265324751483362,2.2816638189503173,-1.0169809500323694,0.434488445520401
1708438064.4948235,-1.1059999465942383,-1.6814514599242152,-2.52649170557131,2.281630201930664,-1.0169809500323694,0.43449273705482483
1708438064.496827,-1.1060371398925781,-1.681364198724264,-2.526458803807394,2.2817422586628417,-1.0170019308673304,0.4345328211784363
1708438064.498828,-1.1059702634811401,-1.681460519830221,-2.526458803807394,2.281672640437744,-1.0169933477984827,0.4344959557056427
1708438064.5008204,-1.106046199798584,-1.681434770623678,-2.526473585759298,2.281700773830078,-1.0170186201678675,0.4345121681690216
1708438064.5028422,-1.1059836149215698,-1.681364198724264,-2.526487175618307,2.281672640437744,-1.0170186201678675,0.434512197971344
1708438064.5048556,-1.1059709787368774,-1.681406637231344,-2.526478115712301,2.281672640437744,-1.0170138517962855,0.4344916343688965
1708438064.5068746,-1.1060043573379517,-1.6813527546324671,-2.526466194783346,2.2816471296497802,-1.0169647375689905,0.4344959557056427
1708438064.5088701,-1.1059836149215698,-1.681401868859762,-2.526503864918844,2.2816640573688964,-1.0169933477984827,0.43450355529785156
1708438064.5108924,-1.105979084968567,-1.6813904247679652,-2.526515785847799,2.2816552358814697,-1.0169737974749964,0.43450671434402466
1708438064.5129066,-1.1059999465942383,-1.6814137897887171,-2.52649170557131,2.2816471296497802,-1.0170138517962855,0.4345717132091522
1708438064.5148923,-1.1060253381729126,-1.6813508472838343,-2.526454273854391,2.2816802698322753,-1.0169852415667933,0.4345078766345978
1708438064.516887,-1.105995535850525,-1.6813904247679652,-2.526503864918844,2.2816433149525146,-1.0169571081744593,0.43450677394866943
1708438064.5188806,-1.105997085571289,-1.6814214191832484,-2.526515785847799,2.281688852901123,-1.016949478779928,0.4345276653766632
1708438064.5208583,-1.1060014963150024,-1.681331296960348,-2.526470724736349,2.2816683489033203,-1.017020050679342,0.43451979756355286
1708438064.52288,-1.1060043573379517,-1.6813732586302699,-2.526499334965841,2.2816647726246337,-1.016998593007223,0.43447861075401306
1708438064.524885,-1.1060208082199097,-1.6813723049559535,-2.526517454777853,2.2816683489033203,-1.016928497944967,0.4344819486141205
1708438064.5268586,-1.1060254573822021,-1.6813813648619593,-2.526482645665304,2.2816690641590576,-1.016970459614889,0.43455150723457336
1708438064.528868,-1.1059746742248535,-1.6814304790892542,-2.52649170557131,2.2816433149525146,-1.016989533101217,0.4345233142375946
1708438064.5308857,-1.1059999465942383,-1.681364198724264,-2.52641207376589,2.281688852901123,-1.016949478779928,0.4345189929008484
1708438064.5328627,-1.105966567993164,-1.6813856563963832,-2.526524607335226,2.2816433149525146,-1.016928497944967,0.434551477432251
1708438064.534822,-1.1060134172439575,-1.6814137897887171,-2.526503864918844,2.2816521364399414,-1.0169242064105433,0.4345882534980774
1708438064.5368512,-1.105938196182251,-1.681460519830221,-2.526515785847799,2.2816197115131835,-1.0169332663165491,0.4345233142375946
1708438064.5388837,-1.1059926748275757,-1.68143953899526,-2.526482645665304,2.281592531795166,-1.0169571081744593,0.4345601499080658
1708438064.540852,-1.1060372591018677,-1.681406637231344,-2.526499334965841,2.281526966685913,-1.0169828573810022,0.4345276355743408
1708438064.5428262,-1.1059249639511108,-1.6813599071898402,-2.526449743901388,2.281503363246582,-1.0169361273394983,0.43449822068214417
1708438064.5448203,-1.105954647064209,-1.681422849694723,-2.526496235524313,2.2814826208302,-1.0169332663165491,0.43450677394866943
1708438064.5468268,-1.1059880256652832,-1.6813599071898402,-2.52649170557131,2.281531496638916,-1.0169537703143519,0.4345233142375946
1708438064.5488605,-1.1059836149215698,-1.6813723049559535,-2.52649170557131,2.2815400797077636,-1.016888443623678,0.43452662229537964
1708438064.5508182,-1.1060043573379517,-1.681389947930807,-2.526466194783346,2.2815281587788085,-1.0169122854815882,0.4345717132091522
1708438064.552864,-1.105995535850525,-1.6813856563963832,-2.526458803807394,2.2815238672443847,-1.0169537703143519,0.43453100323677063
1708438064.5548341,-1.10597562789917,-1.6813932857909144,-2.526437822972433,2.2815486627766113,-1.0169418493853968,0.43448615074157715
1708438064.55686,-1.1059702634811401,-1.681401868859762,-2.52643329301943,2.2815043169208984,-1.016916577016012,0.4345233142375946
1708438064.5588372,-1.1059576272964478,-1.6813575230040492,-2.526533905659811,2.2815520006367187,-1.0169509092914026,0.4345717132091522
1708438064.56082,-1.1060208082199097,-1.6814052067198695,-2.526454273854391,2.2815074163624267,-1.0169418493853968,0.434567391872406
1708438064.5628798,-1.1060208082199097,-1.68143953899526,-2.52651292482485,2.281585140819214,-1.0169299284564417,0.4345190227031708
1708438064.564868,-1.1060090065002441,-1.6813599071898402,-2.52649170557131,2.28152243673291,-1.0169346968280237,0.4345276355743408
1708438064.5669024,-1.1059865951538086,-1.6813684902586878,-2.526458803807394,2.2815562921711425,-1.016916577016012,0.4345645606517792
1708438064.5688288,-1.1059800386428833,-1.681422849694723,-2.5264888445483606,2.28153578817334,-1.0168975035296839,0.4345645606517792
1708438064.570836,-1.105995535850525,-1.6813975773253382,-2.526454273854391,2.2815443712421875,-1.016904656087057,0.4346088767051697
1708438064.572868,-1.1060179471969604,-1.681406637231344,-2.526463333760397,2.2815000253864746,-1.0169418493853968,0.434551477432251
1708438064.5748494,-1.1059383153915405,-1.6813932857909144,-2.52649170557131,2.281581326121948,-1.016909424458639,0.434551477432251
1708438064.576889,-1.1059746742248535,-1.6814304790892542,-2.526463333760397,2.281519575709961,-1.0169017950641077,0.4345717132091522
1708438064.5788398,-1.1059880256652832,-1.6813975773253382,-2.5264843145953577,2.281498833293579,-1.0169628302203577,0.4345760643482208
1708438064.5808442,-1.1059880256652832,-1.6814304790892542,-2.52651292482485,2.281507654781006,-1.0168722311602991,0.43460023403167725
1708438064.5828633,-1.105997085571289,-1.681364198724264,-2.526458803807394,2.281519575709961,-1.016888443623678,0.43456315994262695
1708438064.584826,-1.1059999465942383,-1.6813813648619593,-2.526499334965841,2.281538887614868,-1.0169137159930628,0.4345472455024719
1708438064.58686,-1.1060118675231934,-1.6813436947264613,-2.5265007654773157,2.2815520006367187,-1.016921345387594,0.43460023403167725
1708438064.5888283,-1.1059880256652832,-1.6813904247679652,-2.526508394871847,2.2815400797077636,-1.0169060865985315,0.43451476097106934
1708438064.5908442,-1.105954647064209,-1.6814137897887171,-2.526479784642355,2.28158084928479,-1.016900364552633,0.434567391872406
1708438064.5928588,-1.1060000658035278,-1.681364198724264,-2.5264468828784388,2.28158084928479,-1.0169332663165491,0.43454283475875854
1708438064.5948305,-1.1059293746948242,-1.6813484630980433,-2.5265007654773157,2.281543179149292,-1.0169451872455042,0.43454283475875854
1708438064.596877,-1.1059999465942383,-1.681406637231344,-2.5264843145953577,2.2814900118061523,-1.0169060865985315,0.43453100323677063
1708438064.5988433,-1.105995535850525,-1.681427618066305,-2.526470724736349,2.281474991435669,-1.0168975035296839,0.4345601201057434
1708438064.600835,-1.1059880256652832,-1.6814052067198695,-2.526487175618307,2.2815605837055664,-1.0168927351581019,0.43458831310272217
1708438064.6028469,-1.105997085571289,-1.6814185581602992,-2.52651292482485,2.2815520006367187,-1.0169060865985315,0.4345189929008484
1708438064.6048524,-1.1060208082199097,-1.6813599071898402,-2.526442352925436,2.28153578817334,-1.016921345387594,0.43453100323677063
1708438064.6068764,-1.1060179471969604,-1.6813813648619593,-2.5264468828784388,2.281519337291382,-1.016904656087057,0.4345395565032959
1708438064.6088448,-1.1059637069702148,-1.6813813648619593,-2.526421133671896,2.281531496638916,-1.0169466177569788,0.4345717132091522
1708438064.6108284,-1.105979084968567,-1.6814137897887171,-2.526479784642355,2.281498833293579,-1.0169256369220179,0.4345352351665497
1708438064.612904,-1.10597562789917,-1.6814466915526332,-2.5264468828784388,2.281531496638916,-1.016916577016012,0.43456315994262695
1708438064.614884,-1.1059926748275757,-1.681422849694723,-2.526517454777853,2.281569405192993,-1.016900364552633,0.43452656269073486
1708438064.6168528,-1.1059880256652832,-1.6813436947264613,-2.5264468828784388,2.281547709102295,-1.0169256369220179,0.4345395565032959
1708438064.6188664,-1.1060163974761963,-1.6814137897887171,-2.526442352925436,2.2815119463154296,-1.016888443623678,0.43453413248062134
1708438064.6208293,-1.1059502363204956,-1.6813732586302699,-2.5264301935779017,2.2815281587788085,-1.0168841520892542,0.43451547622680664
1708438064.6228337,-1.1059836149215698,-1.6813932857909144,-2.5264468828784388,2.281503363246582,-1.0169137159930628,0.4345557987689972
1708438064.6248386,-1.1060043573379517,-1.6813765964903773,-2.5264678637133997,2.2815682131000976,-1.0169552008258265,0.4345717132091522
1708438064.6268377,-1.105954647064209,-1.6814004383482875,-2.526404682789938,2.281585140819214,-1.016876522694723,0.43454280495643616
1708438064.6288638,-1.1060417890548706,-1.681406637231344,-2.5264888445483606,2.2815725046345214,-1.0169389883624476,0.4345717132091522
1708438064.630894,-1.105938196182251,-1.681364198724264,-2.5264678637133997,2.281597061748169,-1.0169137159930628,0.4344938099384308
1708438064.632837,-1.1059709787368774,-1.6813885174193324,-2.5264559427844446,2.2815894323536376,-1.016909424458639,0.4345352351665497
1708438064.6348412,-1.1060253381729126,-1.6813227138915003,-2.5264228026019495,2.2814900118061523,-1.0169180075274866,0.4345601201057434
1708438064.6368213,-1.1060043573379517,-1.6813932857909144,-2.52649170557131,2.281563921565674,-1.016867462788717,0.4345557987689972
1708438064.6388378,-1.10597562789917,-1.6813675365843714,-2.5264468828784388,2.2815520006367187,-1.0169299284564417,0.43450674414634705
1708438064.640841,-1.1060043573379517,-1.6813975773253382,-2.5264723936664026,2.2816220956989746,-1.0169256369220179,0.4345276355743408
1708438064.6428475,-1.1059746742248535,-1.6814424000182093,-2.5264678637133997,2.2815562921711425,-1.0169180075274866,0.434567391872406
1708438064.6448352,-1.1059709787368774,-1.681422849694723,-2.5264468828784388,2.281522675151489,-1.0169671217547815,0.43458399176597595
1708438064.6468275,-1.1060371398925781,-1.6813551388182582,-2.5264392534839075,2.281526966685913,-1.0168975035296839,0.4345804750919342
1708438064.648822,-1.10597562789917,-1.6814214191832484,-2.5264604727374476,2.2815520006367187,-1.0169332663165491,0.4345557987689972
1708438064.6508315,-1.1059621572494507,-1.681422849694723,-2.5264769236194056,2.2815520006367187,-1.0169389883624476,0.4345395565032959
1708438064.6528127,-1.1060208082199097,-1.6813813648619593,-2.526463333760397,2.281515045756958,-1.0169346968280237,0.434551477432251
1708438064.6548214,-1.1059999465942383,-1.681364198724264,-2.5264723936664026,2.28153578817334,-1.0168927351581019,0.4345717132091522
1708438064.6568646,-1.1060043573379517,-1.6813975773253382,-2.5265007654773157,2.2815725046345214,-1.0169432798968714,0.43450242280960083
1708438064.6588736,-1.1060043573379517,-1.6813904247679652,-2.5264228026019495,2.281563921565674,-1.0169256369220179,0.4344981610774994
1708438064.6608486,-1.1059999465942383,-1.6813732586302699,-2.5264347235309046,2.281559391612671,-1.0169299284564417,0.4345839023590088
1708438064.6629112,-1.1059800386428833,-1.6813732586302699,-2.526437822972433,2.281559391612671,-1.0168927351581019,0.43449050188064575
1708438064.6648357,-1.105966567993164,-1.681434770623678,-2.5264347235309046,2.2815400797077636,-1.0169299284564417,0.4345472455024719
1708438064.666857,-1.1059709787368774,-1.6813813648619593,-2.5264559427844446,2.281608982677124,-1.0169346968280237,0.4345482587814331
1708438064.6688738,-1.1059592962265015,-1.6814094982542933,-2.5264514128314417,2.281576319331787,-1.016909424458639,0.4345438778400421
1708438064.6708488,-1.1059621572494507,-1.681401868859762,-2.5264843145953577,2.28153578817334,-1.0169585386859339,0.4345024526119232
1708438064.6728246,-1.1060091257095337,-1.681361814538473,-2.526479784642355,2.2814814287373046,-1.0168927351581019,0.43453100323677063
1708438064.674853,-1.1059800386428833,-1.6814304790892542,-2.5264256636248987,2.2815727430531005,-1.0169256369220179,0.43455153703689575
1708438064.676876,-1.105995535850525,-1.6813975773253382,-2.5264843145953577,2.281585140819214,-1.016904656087057,0.43454721570014954
1708438064.6788793,-1.1060090065002441,-1.681364198724264,-2.526463333760397,2.2815720277973632,-1.016921345387594,0.43452662229537964
1708438064.6808455,-1.105991005897522,-1.6813932857909144,-2.526479784642355,2.281531496638916,-1.0169790426837366,0.43456315994262695
1708438064.6828582,-1.105966567993164,-1.6813765964903773,-2.526479784642355,2.281576319331787,-1.0169299284564417,0.434567391872406
1708438064.684816,-1.1060118675231934,-1.681401868859762,-2.5264723936664026,2.2815725046345214,-1.0169509092914026,0.4345189929008484
1708438064.6868138,-1.1060162782669067,-1.681422849694723,-2.5264843145953577,2.281585140819214,-1.016909424458639,0.4345190227031708
1708438064.6888244,-1.105979084968567,-1.6814185581602992,-2.5264468828784388,2.281515284175537,-1.0168927351581019,0.4345925748348236
1708438064.6908393,-1.1059999465942383,-1.6813823185362757,-2.5264604727374476,2.2815720277973632,-1.016909424458639,0.4345645010471344
1708438064.6928732,-1.1059621572494507,-1.6813813648619593,-2.5264769236194056,2.2815839487263183,-1.016916577016012,0.4345320165157318
1708438064.6948106,-1.105954647064209,-1.6813885174193324,-2.526419703160421,2.281547709102295,-1.0169747511493128,0.4345352351665497
1708438064.69681,-1.1059620380401611,-1.6813732586302699,-2.5264228026019495,2.281585140819214,-1.0169137159930628,0.43455150723457336
1708438064.6988122,-1.1059472560882568,-1.681406637231344,-2.5264769236194056,2.281559391612671,-1.0169256369220179,0.4345438778400421
1708438064.7008257,-1.1059457063674927,-1.6813885174193324,-2.5264392534839075,2.2815400797077636,-1.016909424458639,0.43451032042503357
1708438064.70282,-1.1059836149215698,-1.681401868859762,-2.5264814535724085,2.2815720277973632,-1.016970459614889,0.4345514476299286
1708438064.704826,-1.1060253381729126,-1.68133606533193,-2.5264273325549524,2.281592531795166,-1.016921345387594,0.4345439076423645
1708438064.7068627,-1.1059621572494507,-1.6813403568663539,-2.5264514128314417,2.2816013532825927,-1.016904656087057,0.43458473682403564
1708438064.7088645,-1.1059709787368774,-1.681434770623678,-2.5264273325549524,2.2815634447285156,-1.0169346968280237,0.4345514476299286
1708438064.710839,-1.1060134172439575,-1.6814185581602992,-2.5264182726489466,2.281597061748169,-1.016937557850973,0.43452760577201843
1708438064.712867,-1.1059880256652832,-1.681427618066305,-2.5264559427844446,2.2815796571918945,-1.0169628302203577,0.4345557987689972
1708438064.714931,-1.1059457063674927,-1.6814257107176722,-2.5264106432544153,2.281604452724121,-1.0169299284564417,0.434560090303421
1708438064.7168527,-1.1059709787368774,-1.681406637231344,-2.5264061133014124,2.281613274211548,-1.0169346968280237,0.4345352351665497
1708438064.7188494,-1.1059926748275757,-1.6814094982542933,-2.5264273325549524,2.281559391612671,-1.0169671217547815,0.43446996808052063
1708438064.720838,-1.1060162782669067,-1.681406637231344,-2.5264318625079554,2.2815019327351074,-1.0169180075274866,0.4345428943634033
1708438064.7228398,-1.1060014963150024,-1.6813632450499476,-2.526419703160421,2.281538887614868,-1.0169346968280237,0.4345233142375946
1708438064.7248623,-1.10597562789917,-1.6813813648619593,-2.5263896624194544,2.28158084928479,-1.0169585386859339,0.4345395565032959
1708438064.726859,-1.1060237884521484,-1.681401868859762,-2.5264559427844446,2.281613274211548,-1.016888443623678,0.4346132278442383
1708438064.7288353,-1.10597562789917,-1.6814137897887171,-2.5264106432544153,2.281585140819214,-1.016909424458639,0.4345233142375946
1708438064.730825,-1.105979084968567,-1.6814466915526332,-2.5264437834369105,2.2815677362629394,-1.0168975035296839,0.4345320463180542
1708438064.7328448,-1.1059746742248535,-1.6813975773253382,-2.5264857451068323,2.2815520006367187,-1.016987148915426,0.43449053168296814
1708438064.7348223,-1.1059880256652832,-1.681401868859762,-2.5264559427844446,2.281592531795166,-1.0169418493853968,0.4345438778400421
1708438064.7368746,-1.1059502363204956,-1.6813684902586878,-2.5264318625079554,2.281550808543823,-1.016900364552633,0.4345438778400421
1708438064.7389038,-1.1059926748275757,-1.6813932857909144,-2.5264182726489466,2.281620903606079,-1.016937557850973,0.4345482587814331
1708438064.7408156,-1.1059709787368774,-1.6813856563963832,-2.5263970533954065,2.281613512630127,-1.0169137159930628,0.43451038002967834
1708438064.742831,-1.1059800386428833,-1.6813765964903773,-2.5264769236194056,2.281576319331787,-1.016904656087057,0.4345024526119232
1708438064.7448277,-1.1060118675231934,-1.681422849694723,-2.5264695326434534,2.281563921565674,-1.0169537703143519,0.4345395565032959
1708438064.7468324,-1.1059836149215698,-1.6813885174193324,-2.5263987223254603,2.2816077905842285,-1.016916577016012,0.4345395565032959
1708438064.7488754,-1.1059836149215698,-1.6813975773253382,-2.5264273325549524,2.281576319331787,-1.0168841520892542,0.43448731303215027
1708438064.7508092,-1.1059880256652832,-1.6813885174193324,-2.5264318625079554,2.281592531795166,-1.0169299284564417,0.43456315994262695
1708438064.7528362,-1.1059880256652832,-1.681455751458639,-2.5264106432544153,2.281608982677124,-1.0168927351581019,0.4345276355743408
1708438064.7548194,-1.1059709787368774,-1.6813813648619593,-2.5264273325549524,2.281592531795166,-1.0169299284564417,0.4345482587814331
1708438064.7568235,-1.1059473752975464,-1.6813813648619593,-2.5265024344073694,2.281555100078247,-1.0169585386859339,0.4345024526119232
1708438064.7588472,-1.105966567993164,-1.6814638576903285,-2.5264106432544153,2.2815677362629394,-1.016916577016012,0.43454065918922424
1708438064.7608082,-1.1059926748275757,-1.6813856563963832,-2.5264468828784388,2.281563921565674,-1.0169122854815882,0.4345525801181793
1708438064.7628133,-1.1060371398925781,-1.6813885174193324,-2.5264151732074183,2.28158084928479,-1.016921345387594,0.43451547622680664
1708438064.7648027,-1.105966567993164,-1.6813842258849085,-2.5264604727374476,2.281576319331787,-1.016965691243307,0.43451979756355286
1708438064.7668107,-1.1059621572494507,-1.6814185581602992,-2.5264139811145228,2.2815958696552734,-1.016916577016012,0.43446677923202515
1708438064.768898,-1.105954647064209,-1.6813675365843714,-2.5264015833484095,2.281636877650879,-1.016921345387594,0.4345438778400421
1708438064.7708511,-1.1059592962265015,-1.6813484630980433,-2.5264228026019495,2.2815674978443603,-1.0168960730182093,0.43451106548309326
1708438064.7728696,-1.1059709787368774,-1.6813932857909144,-2.5264559427844446,2.2815589147755126,-1.016949478779928,0.4345525801181793
1708438064.7748861,-1.1060043573379517,-1.6813599071898402,-2.5264015833484095,2.281604452724121,-1.016965691243307,0.4345601201057434
1708438064.7768242,-1.1059926748275757,-1.6813436947264613,-2.5264468828784388,2.281637116069458,-1.016949478779928,0.4345078766345978
1708438064.7788434,-1.1059880256652832,-1.6813975773253382,-2.5264392534839075,2.281600161189697,-1.0169585386859339,0.4344862103462219
1708438064.7808752,-1.1059709787368774,-1.681401868859762,-2.5264106432544153,2.2816240030476074,-1.0169346968280237,0.43451547622680664
1708438064.7828648,-1.1059293746948242,-1.6813675365843714,-2.5264182726489466,2.28164450704541,-1.016949478779928,0.4345601201057434
1708438064.7848945,-1.1060417890548706,-1.6813813648619593,-2.5264814535724085,2.281616373653076,-1.016921345387594,0.43451547622680664
1708438064.786845,-1.1059457063674927,-1.6814094982542933,-2.5264137426959437,2.281616373653076,-1.0169747511493128,0.4344785511493683
1708438064.7888339,-1.1060208082199097,-1.6813599071898402,-2.5264559427844446,2.2816240030476074,-1.0169332663165491,0.43451547622680664
1708438064.7908206,-1.1059836149215698,-1.681401868859762,-2.5264228026019495,2.2816077905842285,-1.016937557850973,0.434471070766449
1708438064.7928743,-1.1059457063674927,-1.681364198724264,-2.5264347235309046,2.2815796571918945,-1.016949478779928,0.4345526397228241
1708438064.7948482,-1.1060043573379517,-1.6813599071898402,-2.5264528433429163,2.281628294582031,-1.016937557850973,0.4345241189002991
1708438064.7968397,-1.105966567993164,-1.681401868859762,-2.5264106432544153,2.2815634447285156,-1.0169256369220179,0.4345241189002991
1708438064.7988622,-1.105966567993164,-1.6814214191832484,-2.5264347235309046,2.281628294582031,-1.016904656087057,0.43451979756355286
1708438064.8008144,-1.1059592962265015,-1.6813856563963832,-2.5264061133014124,2.281649036998413,-1.0169332663165491,0.43448302149772644
1708438064.8028336,-1.1059709787368774,-1.6814094982542933,-2.5264559427844446,2.281641407603882,-1.016916577016012,0.4344753921031952
1708438064.8048732,-1.1059836149215698,-1.6814185581602992,-2.5264514128314417,2.281637116069458,-1.0169256369220179,0.4345241189002991
1708438064.8068638,-1.105966567993164,-1.6813856563963832,-2.5264678637133997,2.2816197115131835,-1.016937557850973,0.434462308883667
1708438064.8088558,-1.1059836149215698,-1.6814304790892542,-2.5264015833484095,2.2816034990498046,-1.016965691243307,0.4345284700393677
1708438064.8108065,-1.1059502363204956,-1.6814304790892542,-2.5264061133014124,2.2816359239765625,-1.016949478779928,0.434540718793869
1708438064.8128533,-1.105995535850525,-1.681364198724264,-2.5264514128314417,2.28157822668042,-1.0169537703143519,0.4345003664493561
1708438064.8148224,-1.1059337854385376,-1.6814185581602992,-2.5264437834369105,2.281616373653076,-1.0169242064105433,0.43445879220962524
1708438064.8168488,-1.1060043573379517,-1.6814304790892542,-2.526419703160421,2.281686468715332,-1.0169079939471644,0.4344797134399414
1708438064.818847,-1.10597562789917,-1.6814304790892542,-2.5264151732074183,2.2816433149525146,-1.0169451872455042,0.43444693088531494
1708438064.8208427,-1.10597562789917,-1.6813551388182582,-2.5264437834369105,2.281599207515381,-1.016961399708883,0.434492826461792
1708438064.8228705,-1.105995535850525,-1.681394716302389,-2.5264092127429407,2.2816316324421386,-1.016921345387594,0.4344524145126343
1708438064.8248293,-1.1059337854385376,-1.6813885174193324,-2.5265021959887903,2.2816478449055175,-1.0169451872455042,0.4344480335712433
1708438064.826845,-1.1059926748275757,-1.6813975773253382,-2.5264392534839075,2.281685991878174,-1.016949478779928,0.434431791305542
1708438064.8288393,-1.105997085571289,-1.6814590893187464,-2.5264347235309046,2.281716986293457,-1.0169122854815882,0.434444785118103
1708438064.8308687,-1.105995535850525,-1.6813975773253382,-2.5264650026904505,2.281721277827881,-1.0169451872455042,0.43439146876335144
1708438064.8328612,-1.1059880256652832,-1.681394716302389,-2.5264392534839075,2.281662865276001,-1.0169747511493128,0.43443620204925537
1708438064.8348472,-1.105966567993164,-1.681401868859762,-2.5264650026904505,2.281778259868286,-1.0169122854815882,0.4344196617603302
1708438064.8368256,-1.1059999465942383,-1.6814094982542933,-2.5264273325549524,2.2817203241535644,-1.0169585386859339,0.4343748986721039
1708438064.838828,-1.1059926748275757,-1.6813885174193324,-2.5264061133014124,2.2817484575458984,-1.0169451872455042,0.43442389369010925
1708438064.8408341,-1.1059836149215698,-1.6814257107176722,-2.5264392534839075,2.281702681178711,-1.0169242064105433,0.4343871772289276
1708438064.8428483,-1.105979084968567,-1.6813551388182582,-2.5264437834369105,2.2817396360584716,-1.0169451872455042,0.4344196319580078
1708438064.8448372,-1.1059592962265015,-1.681394716302389,-2.5264695326434534,2.2817396360584716,-1.0169523398028772,0.43441203236579895
1708438064.8468502,-1.1059709787368774,-1.6813813648619593,-2.5264483133899134,2.2817084032246093,-1.0169361273394983,0.43439656496047974
1708438064.8488958,-1.1059709787368774,-1.6813813648619593,-2.5264559427844446,2.2816921907612304,-1.0169852415667933,0.4344405233860016
1708438064.850851,-1.1060090065002441,-1.681410928765768,-2.5263941923724573,2.2816998201557617,-1.016965691243307,0.43439146876335144
1708438064.8528416,-1.105979084968567,-1.6813599071898402,-2.5263851324664515,2.28174535810437,-1.016987148915426,0.43440884351730347
1708438064.8548408,-1.1060417890548706,-1.68143953899526,-2.5264151732074183,2.2817203241535644,-1.016998593007223,0.4343586266040802
1708438064.856844,-1.1059880256652832,-1.6814004383482875,-2.5264483133899134,2.28167907773938,-1.0169199148761194,0.43439897894859314
1708438064.8588424,-1.105950117111206,-1.6814166508116664,-2.5264106432544153,2.2817160326191406,-1.0169451872455042,0.434432715177536
1708438064.8608272,-1.10597562789917,-1.681422849694723,-2.5264483133899134,2.2817117410847167,-1.016916577016012,0.4343673288822174
1708438064.8628192,-1.1059457063674927,-1.681406637231344,-2.5264318625079554,2.281740828151367,-1.0169780890094202,0.43441203236579895
1708438064.8648176,-1.1059383153915405,-1.6813436947264613,-2.5264437834369105,2.2817322450825195,-1.017020050679342,0.43439146876335144
1708438064.8668325,-1.10597562789917,-1.6813932857909144,-2.5264604727374476,2.2817396360584716,-1.016970459614889,0.43440887331962585
1708438064.8688743,-1.10597562789917,-1.6814052067198695,-2.5264347235309046,2.2816714483448486,-1.0169571081744593,0.4343792498111725
1708438064.8708289,-1.1059836149215698,-1.6813932857909144,-2.5264318625079554,2.2817739683338623,-1.0169943014727991,0.43439146876335144
1708438064.8728564,-1.1060090065002441,-1.6813856563963832,-2.5264392534839075,2.2817484575458984,-1.0169737974749964,0.43444928526878357
1708438064.874834,-1.1059999465942383,-1.6813885174193324,-2.5264228026019495,2.2816998201557617,-1.0169747511493128,0.43440020084381104
1708438064.876835,-1.1059880256652832,-1.6814514599242152,-2.5264273325549524,2.2817396360584716,-1.0169647375689905,0.4343748986721039
1708438064.8789198,-1.1060208082199097,-1.6814466915526332,-2.5264723936664026,2.2817322450825195,-1.016937557850973,0.43442073464393616
1708438064.8808465,-1.1059836149215698,-1.6814137897887171,-2.5264347235309046,2.2817041116901855,-1.0169737974749964,0.4343717098236084
1708438064.8828647,-1.1059709787368774,-1.6814304790892542,-2.5264437834369105,2.2816998201557617,-1.0169828573810022,0.4343673884868622
1708438064.8849213,-1.1059926748275757,-1.6813813648619593,-2.5264347235309046,2.281700773830078,-1.0169404188739222,0.4343673884868622
1708438064.8868425,-1.105991005897522,-1.6814257107176722,-2.5263970533954065,2.281752749080322,-1.016961399708883,0.4343879520893097
1708438064.8888466,-1.1059502363204956,-1.6813723049559535,-2.5264106432544153,2.2817696767994384,-1.0169933477984827,0.43436741828918457
1708438064.8908377,-1.1059880256652832,-1.681422849694723,-2.5264273325549524,2.2817203241535644,-1.016998593007223,0.43442511558532715
1708438064.8928475,-1.1059926748275757,-1.6814185581602992,-2.526442352925436,2.281740828151367,-1.0169761816607874,0.43440017104148865
1708438064.8948503,-1.1059844493865967,-1.6814137897887171,-2.526424233113424,2.2817084032246093,-1.0169523398028772,0.43436411023139954
1708438064.8968704,-1.1059383153915405,-1.681401868859762,-2.5264228026019495,2.2817279535480957,-1.0169480482684534,0.4343717396259308
1708438064.8988507,-1.1059999465942383,-1.6813813648619593,-2.5264392534839075,2.2816995817371826,-1.0169976393329065,0.4343717098236084
1708438064.9008484,-1.1059880256652832,-1.681406637231344,-2.5264392534839075,2.2817773061939697,-1.0169604460345667,0.4343230128288269
1708438064.902831,-1.1059880256652832,-1.681434770623678,-2.5264769236194056,2.281684561366699,-1.0169852415667933,0.43441322445869446
1708438064.9048622,-1.1059592962265015,-1.6813813648619593,-2.5264228026019495,2.2817041116901855,-1.0170138517962855,0.4343760311603546
1708438064.9068756,-1.1060208082199097,-1.6814137897887171,-2.5263970533954065,2.281707211131714,-1.0170019308673304,0.4343511462211609
1708438064.9088638,-1.1060208082199097,-1.681410928765768,-2.5264678637133997,2.2817041116901855,-1.0169761816607874,0.4343597888946533
1708438064.9108686,-1.1059383153915405,-1.6814214191832484,-2.5264392534839075,2.2817203241535644,-1.0169718901263636,0.4343305230140686
1708438064.912879,-1.1060043573379517,-1.6813527546324671,-2.5264559427844446,2.2817696767994384,-1.0169761816607874,0.4343554675579071
1708438064.9149733,-1.1060090065002441,-1.6814094982542933,-2.5264483133899134,2.281682177180908,-1.0169404188739222,0.43434786796569824
1708438064.9168503,-1.105995535850525,-1.681406637231344,-2.5264604727374476,2.281712694759033,-1.0169695059405726,0.43432727456092834
1708438064.918859,-1.1059999465942383,-1.6813856563963832,-2.5264814535724085,2.2817279535480957,-1.0169437567340296,0.434334933757782
1708438064.9208393,-1.1059592962265015,-1.681410928765768,-2.5264273325549524,2.281752749080322,-1.0170186201678675,0.43436840176582336
1708438064.9228268,-1.105966567993164,-1.6814166508116664,-2.5264976660357874,2.2817084032246093,-1.0170066992389124,0.4343230128288269
1708438064.924845,-1.1059926748275757,-1.6813813648619593,-2.5264392534839075,2.281695528621338,-1.0170438925372522,0.4343435764312744
1708438064.9268246,-1.1060253381729126,-1.6814214191832484,-2.5263987223254603,2.2817441660114746,-1.0170066992389124,0.434343546628952
1708438064.9288602,-1.1059709787368774,-1.6814257107176722,-2.5264483133899134,2.2817084032246093,-1.0169647375689905,0.434343546628952
1708438064.93084,-1.1059709787368774,-1.6813599071898402,-2.5264347235309046,2.2817365366169433,-1.0169976393329065,0.4343467354774475
1708438064.9328887,-1.1059836149215698,-1.6813885174193324,-2.5264843145953577,2.2816998201557617,-1.016989533101217,0.43435221910476685
1708438064.934839,-1.1060043573379517,-1.6814304790892542,-2.526479784642355,2.281712694759033,-1.0170438925372522,0.43438035249710083
1708438064.9368718,-1.105954647064209,-1.6814094982542933,-2.5264151732074183,2.2817084032246093,-1.0169695059405726,0.4343727231025696
1708438064.938855,-1.1059836149215698,-1.6813975773253382,-2.5265005270587366,2.281745119685791,-1.0170052687274378,0.43431538343429565
1708438064.9408567,-1.1059457063674927,-1.6813932857909144,-2.5264559427844446,2.281733198756836,-1.0170138517962855,0.43433594703674316
1708438064.9428818,-1.1059709787368774,-1.6813394031920375,-2.5264604727374476,2.2817322450825195,-1.0169604460345667,0.43435218930244446
1708438064.94483,-1.1059880256652832,-1.6814052067198695,-2.5264228026019495,2.281728907222412,-1.0170138517962855,0.43433162569999695
1708438064.946831,-1.105997085571289,-1.6813904247679652,-2.5264301935779017,2.2817246156879882,-1.0169523398028772,0.4343488812446594
1708438064.9488387,-1.1059218645095825,-1.6813885174193324,-2.5264392534839075,2.2816759782978515,-1.0169933477984827,0.4343445897102356
1708438064.9508686,-1.1059836149215698,-1.6814094982542933,-2.5264437834369105,2.2816878992268066,-1.0170066992389124,0.4343445897102356
1708438064.9528713,-1.1059999465942383,-1.6814424000182093,-2.5264437834369105,2.2817084032246093,-1.0170257727252405,0.43435218930244446
1708438064.9548464,-1.1059621572494507,-1.6813732586302699,-2.5264301935779017,2.2817246156879882,-1.0170019308673304,0.4343402683734894
1708438064.956858,-1.1059709787368774,-1.6813885174193324,-2.5264814535724085,2.2816671568104248,-1.0169852415667933,0.43433162569999695
1708438064.9588249,-1.1059746742248535,-1.6814137897887171,-2.5264514128314417,2.281749649638794,-1.0169604460345667,0.4343402683734894
1708438064.9608274,-1.1060371398925781,-1.6813904247679652,-2.526419703160421,2.2816964822956542,-1.0169737974749964,0.4343565106391907
1708438064.962849,-1.1059457063674927,-1.6813551388182582,-2.5264483133899134,2.281705065364502,-1.0169571081744593,0.43431538343429565
1708438064.964839,-1.1059880256652832,-1.6814304790892542,-2.5264468828784388,2.281728907222412,-1.0169943014727991,0.43432730436325073
1708438064.966856,-1.1059926748275757,-1.6813813648619593,-2.5264256636248987,2.2816595274158935,-1.0169809500323694,0.43435218930244446
1708438064.9688437,-1.1059926748275757,-1.6813904247679652,-2.5264559427844446,2.2816759782978515,-1.0169809500323694,0.43431103229522705
1708438064.9708745,-1.105979084968567,-1.6814214191832484,-2.5264061133014124,2.281700773830078,-1.0169976393329065,0.4343359172344208
1708438064.972886,-1.1059880256652832,-1.6814547977843226,-2.5264363924609583,2.2816952902027587,-1.0169852415667933,0.4343239963054657
1708438064.9748468,-1.1060043573379517,-1.681406637231344,-2.5264318625079554,2.281650944347046,-1.0169852415667933,0.43431970477104187
1708438064.9768693,-1.1059836149215698,-1.6814137897887171,-2.5264273325549524,2.28167907773938,-1.01701528230776,0.4343532919883728
1708438064.978841,-1.1059999465942383,-1.6814257107176722,-2.5264318625079554,2.2816471296497802,-1.0169480482684534,0.43434786796569824
1708438064.98085,-1.1060090065002441,-1.681401868859762,-2.5264769236194056,2.2817420202442626,-1.0169480482684534,0.4343532919883728
1708438064.982921,-1.1059880256652832,-1.6814304790892542,-2.5264392534839075,2.2816833692738037,-1.0169852415667933,0.43432730436325073
1708438064.9848442,-1.105997085571289,-1.6813885174193324,-2.5264514128314417,2.2817084032246093,-1.0169852415667933,0.43428725004196167
1708438064.9868562,-1.1059845685958862,-1.6814094982542933,-2.5264106432544153,2.281693382854126,-1.0170305410968226,0.4342915415763855
1708438064.9888244,-1.1059457063674927,-1.681406637231344,-2.5264392534839075,2.28167907773938,-1.0170138517962855,0.43431970477104187
1708438064.9908323,-1.105979084968567,-1.6813441715636195,-2.5264106432544153,2.2817160326191406,-1.0169761816607874,0.4343445897102356
1708438064.9928582,-1.1059880256652832,-1.681460519830221,-2.5264347235309046,2.2816802698322753,-1.0170186201678675,0.434312105178833
1708438064.9948425,-1.1059746742248535,-1.6814304790892542,-2.5264483133899134,2.281712694759033,-1.0170229117022913,0.4343326687812805
1708438064.996901,-1.1059800386428833,-1.6813351116576136,-2.5264061133014124,2.2816998201557617,-1.016989533101217,0.4343651831150055
1708438064.9988387,-1.105997085571289,-1.6813765964903773,-2.5264061133014124,2.281761570567749,-1.0169647375689905,0.4343371093273163
1708438065.0008225,-1.1059836149215698,-1.6813813648619593,-2.5264228026019495,2.2817084032246093,-1.0170019308673304,0.4343402683734894
1708438065.0028431,-1.1059926748275757,-1.681443830529684,-2.5264692942248743,2.2816683489033203,-1.0169933477984827,0.4343164265155792
1708438065.0048172,-1.1059880256652832,-1.6813932857909144,-2.5264273325549524,2.2816759782978515,-1.0170019308673304,0.43427929282188416
1708438065.0068998,-1.1059621572494507,-1.6813932857909144,-2.5264468828784388,2.2816964822956542,-1.0169976393329065,0.4342958629131317
1708438065.0088282,-1.105979084968567,-1.6813904247679652,-2.5264106432544153,2.281721277827881,-1.0169695059405726,0.4343164265155792
1708438065.0108135,-1.1059592962265015,-1.6814304790892542,-2.5264151732074183,2.28174535810437,-1.0169780890094202,0.43428361415863037
1708438065.012849,-1.1059836149215698,-1.6813599071898402,-2.5264151732074183,2.281749649638794,-1.0169780890094202,0.43434569239616394
1708438065.01482,-1.1059836149215698,-1.6814304790892542,-2.5264228026019495,2.281684561366699,-1.016989533101217,0.434312105178833
1708438065.0168173,-1.1060179471969604,-1.6813885174193324,-2.5264151732074183,2.281646652812622,-1.0170348326312464,0.4342915415763855
1708438065.0188286,-1.1059926748275757,-1.6813904247679652,-2.5264766852008265,2.28172151624646,-1.0169809500323694,0.434287965297699
1708438065.020831,-1.1059836149215698,-1.681401868859762,-2.5263970533954065,2.2817258077808837,-1.0169647375689905,0.4342467784881592
1708438065.0228546,-1.1060090065002441,-1.6813765964903773,-2.5264106432544153,2.2817141252705078,-1.0169976393329065,0.4343077540397644
1708438065.0248253,-1.10597562789917,-1.681422849694723,-2.5264273325549524,2.281660242671631,-1.0169761816607874,0.43427178263664246
1708438065.026864,-1.1059880256652832,-1.6814166508116664,-2.5264559427844446,2.281672640437744,-1.0169809500323694,0.4343164265155792
1708438065.0288227,-1.1059836149215698,-1.6814304790892542,-2.5264015833484095,2.281684561366699,-1.0169943014727991,0.43426308035850525
1708438065.0308394,-1.1059926748275757,-1.681422849694723,-2.5263987223254603,2.281634493465088,-1.0169761816607874,0.43427494168281555
1708438065.032878,-1.1059999465942383,-1.681422849694723,-2.5264812151538294,2.281745119685791,-1.0170138517962855,0.4343046247959137
1708438065.0348325,-1.1060043573379517,-1.681427618066305,-2.5264437834369105,2.281672640437744,-1.0170186201678675,0.4342915117740631
1708438065.036826,-1.10597562789917,-1.6813551388182582,-2.5264151732074183,2.2817258077808837,-1.0169361273394983,0.4343533515930176
1708438065.0388596,-1.105979084968567,-1.6813932857909144,-2.5264604727374476,2.281721277827881,-1.0169561545001429,0.4342305362224579
1708438065.0408232,-1.105997085571289,-1.6813932857909144,-2.5264318625079554,2.2816638189503173,-1.0170229117022913,0.43425554037094116
1708438065.0428407,-1.105995535850525,-1.6814137897887171,-2.5264392534839075,2.281693382854126,-1.0169647375689905,0.43430018424987793
1708438065.0448222,-1.105997085571289,-1.6814304790892542,-2.5264650026904505,2.2816964822956542,-1.0169976393329065,0.434312105178833
1708438065.0468414,-1.1059880256652832,-1.681434770623678,-2.5264273325549524,2.2816640573688964,-1.0169389883624476,0.4343414306640625
1708438065.0488644,-1.1059337854385376,-1.6814257107176722,-2.5264106432544153,2.281737728709839,-1.0170019308673304,0.4343164265155792
1708438065.0508478,-1.1059926748275757,-1.6814333401122035,-2.5264301935779017,2.281672640437744,-1.0169933477984827,0.4343045949935913
1708438065.0528176,-1.1060134172439575,-1.6813813648619593,-2.5264437834369105,2.2817246156879882,-1.0170066992389124,0.43427929282188416
1708438065.0548377,-1.1060134172439575,-1.6813932857909144,-2.5264483133899134,2.2816387849995117,-1.0170229117022913,0.4342510998249054
1708438065.0568419,-1.1060043573379517,-1.6814052067198695,-2.5264106432544153,2.281677170390747,-1.0170229117022913,0.43429234623908997
1708438065.0588298,-1.1059576272964478,-1.6814638576903285,-2.5264106432544153,2.28172151624646,-1.0169480482684534,0.4342392683029175
1708438065.060814,-1.105966567993164,-1.6813961468138636,-2.5264273325549524,2.2817746835895996,-1.0170229117022913,0.43427926301956177
1708438065.0628214,-1.105979084968567,-1.6814214191832484,-2.5264604727374476,2.281672640437744,-1.0170109907733362,0.4342804253101349
1708438065.0648344,-1.1059845685958862,-1.6813885174193324,-2.5264273325549524,2.281688852901123,-1.0169852415667933,0.43427929282188416
1708438065.0668173,-1.105991005897522,-1.6814638576903285,-2.5264814535724085,2.28172151624646,-1.0169675985919397,0.4343089461326599
1708438065.0688326,-1.1060298681259155,-1.681406637231344,-2.5264061133014124,2.281693382854126,-1.0169852415667933,0.4342479705810547
1708438065.0708451,-1.1059681177139282,-1.6814257107176722,-2.5264559427844446,2.2816595274158935,-1.0169976393329065,0.4343208074569702
1708438065.0728316,-1.1059576272964478,-1.6813684902586878,-2.5264151732074183,2.2816383081623535,-1.0170186201678675,0.4343208372592926
1708438065.0748427,-1.1059999465942383,-1.6814547977843226,-2.5264437834369105,2.281693382854126,-1.0170438925372522,0.4342392683029175
1708438065.0768585,-1.1060179471969604,-1.6813975773253382,-2.5263777414904993,2.2816964822956542,-1.016989533101217,0.4343045949935913
1708438065.0788798,-1.105966567993164,-1.681406637231344,-2.5263941923724573,2.281705303783081,-1.0169695059405726,0.4342479407787323
1708438065.0808377,-1.1060118675231934,-1.6813551388182582,-2.5264106432544153,2.2816387849995117,-1.0170348326312464,0.43427178263664246
1708438065.0828657,-1.1059576272964478,-1.6814137897887171,-2.5264301935779017,2.2816802698322753,-1.0170438925372522,0.43427613377571106
1708438065.0848625,-1.1059880256652832,-1.6814137897887171,-2.5263941923724573,2.281693382854126,-1.0170257727252405,0.4342392385005951
1708438065.086837,-1.105966567993164,-1.6814381084837855,-2.5264318625079554,2.281660242671631,-1.0170019308673304,0.4342728853225708
1708438065.08883,-1.1059428453445435,-1.6814137897887171,-2.5264604727374476,2.2816802698322753,-1.0169809500323694,0.43427178263664246
1708438065.0908113,-1.1060298681259155,-1.6814466915526332,-2.5264363924609583,2.281613989467285,-1.0170109907733362,0.4343089163303375
1708438065.092836,-1.1059926748275757,-1.6813394031920375,-2.5263777414904993,2.2816921907612304,-1.0170095602618616,0.43429237604141235
1708438065.094867,-1.105979084968567,-1.6814185581602992,-2.5264228026019495,2.281677170390747,-1.0169809500323694,0.43428802490234375
1708438065.0968165,-1.1060090065002441,-1.681401868859762,-2.5264228026019495,2.281705065364502,-1.0170214811908167,0.43428802490234375
1708438065.0988495,-1.10597562789917,-1.6814094982542933,-2.5264979044543665,2.281705303783081,-1.0169933477984827,0.4342641532421112
1708438065.100829,-1.1060134172439575,-1.6813842258849085,-2.5264437834369105,2.2816595274158935,-1.0170138517962855,0.43429240584373474
1708438065.1028373,-1.105995535850525,-1.6814424000182093,-2.5264933745013636,2.2816433149525146,-1.0170438925372522,0.43425118923187256
1708438065.1048248,-1.1059800386428833,-1.681368967095846,-2.5264092127429407,2.281660242671631,-1.0169976393329065,0.4342804253101349
1708438065.1068237,-1.105997085571289,-1.681410928765768,-2.5264514128314417,2.281634493465088,-1.0170391241656702,0.4342522621154785
1708438065.1088457,-1.1059709787368774,-1.6814304790892542,-2.5264347235309046,2.2816683489033203,-1.0169933477984827,0.43428802490234375
1708438065.1108427,-1.1059457063674927,-1.681401868859762,-2.526416603718893,2.2816683489033203,-1.0169809500323694,0.4342804253101349
1708438065.1128583,-1.1059130430221558,-1.681460519830221,-2.526479784642355,2.281721277827881,-1.0170558134662073,0.43423932790756226
1708438065.1148758,-1.1059880256652832,-1.6814304790892542,-2.5264483133899134,2.2816802698322753,-1.0170214811908167,0.43425554037094116
1708438065.116842,-1.1060073375701904,-1.6813465557494105,-2.5264678637133997,2.281685991878174,-1.0169885794269007,0.4342673420906067
1708438065.118839,-1.1059926748275757,-1.681434770623678,-2.5264888445483606,2.281660242671631,-1.0169437567340296,0.4342226982116699
1708438065.1208165,-1.1059637069702148,-1.6814333401122035,-2.5264723936664026,2.281651421184204,-1.0170095602618616,0.43423059582710266
1708438065.122841,-1.1059845685958862,-1.6813856563963832,-2.526487175618307,2.281705065364502,-1.0169885794269007,0.4342227578163147
1708438065.1248643,-1.105950117111206,-1.6814137897887171,-2.526442352925436,2.2816383081623535,-1.0169885794269007,0.4342598617076874
1708438065.126838,-1.1059709787368774,-1.6813723049559535,-2.5264015833484095,2.2816683489033203,-1.0170348326312464,0.4342436194419861
1708438065.1288521,-1.105954647064209,-1.681455751458639,-2.5264228026019495,2.2816225725361328,-1.0169885794269007,0.4342349171638489
1708438065.1308618,-1.105997085571289,-1.6814724407591761,-2.5264139811145228,2.281634493465088,-1.0170095602618616,0.4342804551124573
1708438065.132872,-1.106013536453247,-1.6814257107176722,-2.5264604727374476,2.281660242671631,-1.0170257727252405,0.43431752920150757
1708438065.1348295,-1.105938196182251,-1.681434770623678,-2.5264843145953577,2.281618281001709,-1.0170005003558558,0.4343045949935913
1708438065.1368425,-1.1059880256652832,-1.6814094982542933,-2.5264182726489466,2.2817141252705078,-1.017029110585348,0.43430095911026
1708438065.138826,-1.10597562789917,-1.6814514599242152,-2.5264604727374476,2.281685991878174,-1.0170138517962855,0.43429234623908997
1708438065.140884,-1.105997085571289,-1.6814094982542933,-2.5264678637133997,2.281705065364502,-1.0170453230487269,0.4342479407787323
1708438065.142892,-1.1059926748275757,-1.6813765964903773,-2.5264092127429407,2.2816240030476074,-1.0170214811908167,0.43433818221092224
1708438065.1448412,-1.1059889793395996,-1.6813975773253382,-2.526437822972433,2.281655712718628,-1.0170376936541956,0.43428802490234375
1708438065.1468685,-1.1059726476669312,-1.6813932857909144,-2.526470724736349,2.281655712718628,-1.0170334021197718,0.43429234623908997
1708438065.148829,-1.1059889793395996,-1.681483884850973,-2.5264559427844446,2.281660242671631,-1.0170095602618616,0.43430095911026
1708438065.1508296,-1.1060090065002441,-1.6813932857909144,-2.5264468828784388,2.2816194730946044,-1.0170052687274378,0.4342847466468811
1708438065.1528513,-1.1059309244155884,-1.6813961468138636,-2.5264256636248987,2.2816225725361328,-1.0170496145831507,0.43431752920150757
1708438065.1548128,-1.1059592962265015,-1.6813885174193324,-2.5264182726489466,2.2816521364399414,-1.0170171896563929,0.43428802490234375
1708438065.1568425,-1.10597562789917,-1.6814500294127406,-2.526508394871847,2.2816316324421386,-1.0170586744891565,0.43427610397338867
1708438065.158825,-1.1058884859085083,-1.6813436947264613,-2.5264723936664026,2.2816387849995117,-1.016979996358053,0.43427178263664246
1708438065.160843,-1.105938196182251,-1.6814166508116664,-2.526487175618307,2.281651421184204,-1.017029110585348,0.43423932790756226
1708438065.1628463,-1.1059517860412598,-1.6814004383482875,-2.5264182726489466,2.2816647726246337,-1.017029110585348,0.43427610397338867
1708438065.1648185,-1.1059772968292236,-1.6814466915526332,-2.526479784642355,2.2815989690968017,-1.0170543829547327,0.43426740169525146
1708438065.1668527,-1.1060060262680054,-1.6814094982542933,-2.5264015833484095,2.2816433149525146,-1.0170005003558558,0.4342598617076874
1708438065.168863,-1.1059064865112305,-1.6814004383482875,-2.5264843145953577,2.2816034990498046,-1.0170171896563929,0.4342183470726013
1708438065.1708858,-1.1059681177139282,-1.6814590893187464,-2.526458803807394,2.2816240030476074,-1.0170543829547327,0.4342598617076874
1708438065.172834,-1.1059184074401855,-1.681422849694723,-2.5264092127429407,2.2816034990498046,-1.017057243977682,0.43429234623908997
1708438065.174838,-1.1059561967849731,-1.6814514599242152,-2.526475254689352,2.281616373653076,-1.017029110585348,0.43427929282188416
1708438065.1768415,-1.1059093475341797,-1.6813932857909144,-2.5264843145953577,2.2815796571918945,-1.0170734564410608,0.43431323766708374
1708438065.1788433,-1.1059274673461914,-1.6813885174193324,-2.526496235524313,2.281543179149292,-1.017041031514303,0.43427932262420654
1708438065.180845,-1.1059318780899048,-1.681364198724264,-2.5264468828784388,2.2815486627766113,-1.017041031514303,0.4342966377735138
1708438065.1829052,-1.1059445142745972,-1.6814547977843226,-2.5265095869647425,2.2814954954334716,-1.0170858542071741,0.4342673718929291
1708438065.1848564,-1.1059534549713135,-1.6814052067198695,-2.5264468828784388,2.281486912364624,-1.017036263142721,0.43431752920150757
1708438065.1868575,-1.1059274673461914,-1.6814052067198695,-2.526454273854391,2.2814838129230957,-1.0170782248126429,0.43427610397338867
1708438065.1888192,-1.1059398651123047,-1.6814638576903285,-2.5264678637133997,2.281508608455322,-1.0170615355121058,0.4342522621154785
1708438065.1908278,-1.1059428453445435,-1.6814424000182093,-2.5264514128314417,2.2815162378498535,-1.0170815626727503,0.43426740169525146
1708438065.1928666,-1.105993628501892,-1.6813675365843714,-2.526475254689352,2.281529350871704,-1.0170906225787562,0.4342349171638489
1708438065.1948493,-1.1059490442276,-1.6814052067198695,-2.526449743901388,2.281475468272827,-1.017048184071676,0.4342510998249054
1708438065.1968546,-1.1059445142745972,-1.6814547977843226,-2.526508394871847,2.2815651136585693,-1.0171144644366663,0.43432945013046265
1708438065.1988413,-1.1059445142745972,-1.6813932857909144,-2.526482645665304,2.281531496638916,-1.017102066670553,0.43431317806243896
1708438065.2008219,-1.105911135673523,-1.681436677972311,-2.526458803807394,2.2815443712421875,-1.017069164906637,0.43425989151000977
1708438065.2028656,-1.1058611869812012,-1.6814137897887171,-2.526461903248922,2.2814957338520507,-1.0171011129962366,0.43428799510002136
1708438065.2048345,-1.1059318780899048,-1.6813842258849085,-2.5264468828784388,2.2815324503132324,-1.0170887152301233,0.4342522621154785
1708438065.2068472,-1.1059080362319946,-1.6814004383482875,-2.526454273854391,2.2815119463154296,-1.0170930067645472,0.4343009293079376
1708438065.208856,-1.105900764465332,-1.6814333401122035,-2.526475254689352,2.281508608455322,-1.0171144644366663,0.4342641830444336
1708438065.2108111,-1.1058449745178223,-1.6814185581602992,-2.526496235524313,2.281569166774414,-1.0171173254596155,0.4342803955078125
1708438065.2128615,-1.1058746576309204,-1.6814381084837855,-2.526494805012838,2.281479521388672,-1.0171082655536097,0.43428364396095276
1708438065.214834,-1.1058746576309204,-1.6814137897887171,-2.526470724736349,2.2814623552509765,-1.0171082655536097,0.4342435598373413
1708438065.216858,-1.1058917045593262,-1.6814214191832484,-2.526546065007345,2.2815281587788085,-1.0170796553241175,0.43431326746940613
1708438065.21895,-1.105879306793213,-1.6814166508116664,-2.526487175618307,2.2815162378498535,-1.0171173254596155,0.43435001373291016
1708438065.2208362,-1.1058917045593262,-1.6814257107176722,-2.52651292482485,2.2815043169208984,-1.0171130339251917,0.43421080708503723
1708438065.2228658,-1.1059008836746216,-1.6814257107176722,-2.526496235524313,2.281451864833496,-1.0171502272235315,0.4342436194419861
1708438065.2248657,-1.1058346033096313,-1.6814381084837855,-2.526479784642355,2.2814835745045166,-1.0171502272235315,0.43423572182655334
1708438065.2268662,-1.1058673858642578,-1.6814052067198695,-2.52643329301943,2.2815000253864746,-1.0171082655536097,0.43423569202423096
1708438065.2288485,-1.105818271636963,-1.6814166508116664,-2.526496235524313,2.2814580637165527,-1.0171693007098597,0.4342803955078125
1708438065.2308493,-1.1059424877166748,-1.6814753017821253,-2.526458803807394,2.2814838129230957,-1.0171707312213343,0.43423569202423096
1708438065.2328968,-1.1058852672576904,-1.6814528904356898,-2.526508394871847,2.2814668852039794,-1.0171650091754358,0.4342891275882721
1708438065.2348762,-1.1058926582336426,-1.6814123592772425,-2.526466194783346,2.281459255809448,-1.017176930104391,0.4342043995857239
1708438065.236859,-1.1058107614517212,-1.6814123592772425,-2.526524845753805,2.2815586763569335,-1.01719838777651,0.43419569730758667
1708438065.238832,-1.1058391332626343,-1.6814333401122035,-2.526454273854391,2.2814711767384033,-1.01719838777651,0.43422821164131165
1708438065.2408557,-1.1058598756790161,-1.6814571819701136,-2.52649170557131,2.2814549642750244,-1.017172638569967,0.4342249929904938
1708438065.2428436,-1.1058316230773926,-1.6814152203001917,-2.526487175618307,2.2814969259449462,-1.017167870198385,0.43425431847572327
1708438065.2448144,-1.1058226823806763,-1.6813661060728968,-2.526499334965841,2.281484289760254,-1.01715594926943,0.4342130720615387
1708438065.246834,-1.1058405637741089,-1.6814004383482875,-2.526499334965841,2.2814549642750244,-1.0171635786639612,0.43416836857795715
1708438065.2488413,-1.105804204940796,-1.6814333401122035,-2.52645713487734,2.281463785762451,-1.017176930104391,0.43419212102890015
1708438065.2508295,-1.1057988405227661,-1.6814123592772425,-2.526508394871847,2.281484289760254,-1.0172131697284144,0.43417274951934814
1708438065.2529085,-1.105828881263733,-1.6814705334105433,-2.526515785847799,2.281505509013794,-1.0171969572650355,0.4341280162334442
1708438065.254816,-1.1058043241500854,-1.6814457378783167,-2.526470724736349,2.281472368831299,-1.0172174612628382,0.4341409206390381
1708438065.2568524,-1.105803370475769,-1.6814905605711878,-2.526499334965841,2.281451864833496,-1.0172341505633753,0.43411609530448914
1708438065.2588665,-1.1057953834533691,-1.681514402429098,-2.526494805012838,2.281533642406128,-1.0172279516803187,0.43412041664123535
1708438065.2608395,-1.105771541595459,-1.6814152203001917,-2.526445213948385,2.2814923959919433,-1.0172088781939905,0.4340846538543701
1708438065.2628424,-1.1057924032211304,-1.681514402429098,-2.526499334965841,2.281444235438965,-1.0172250906573694,0.4341008961200714
1708438065.2648277,-1.105705976486206,-1.681481500665182,-2.526520315800802,2.2814149099537353,-1.0172446409808558,0.43406054377555847
1708438065.2668288,-1.1057641506195068,-1.6815477810301722,-2.526499334965841,2.28147999822583,-1.0172608534442347,0.4340486228466034
1708438065.2688615,-1.1057476997375488,-1.681514402429098,-2.526511255894796,2.2814690309711914,-1.0172699133502405,0.43404102325439453
1708438065.2708523,-1.10574471950531,-1.6815368137755335,-2.5265279451953333,2.281391068095825,-1.0172236601458948,0.43400949239730835
1708438065.2728503,-1.105728268623352,-1.6815296612181605,-2.526515785847799,2.281445189113281,-1.0172517935382288,0.4339311122894287
1708438065.2748406,-1.1057401895523071,-1.6815954647459925,-2.526515785847799,2.2814854818531494,-1.0172861258136194,0.43396466970443726
1708438065.276855,-1.1057238578796387,-1.6815368137755335,-2.5265279451953333,2.2814528185078125,-1.0172651449786585,0.4339287579059601
1708438065.278837,-1.1057610511779785,-1.6815368137755335,-2.5265427271472376,2.281461639995239,-1.0172637144671839,0.4338810443878174
1708438065.2808683,-1.1056740283966064,-1.6815935573973597,-2.5265427271472376,2.2813965517231445,-1.017280403767721,0.4338114559650421
1708438065.282869,-1.1057039499282837,-1.681573053399557,-2.5265546480761927,2.2814571100422363,-1.0172770659076136,0.4338528513908386
1708438065.2848961,-1.1057119369506836,-1.6816450558104457,-2.526604477559225,2.281399889583252,-1.017297093068258,0.43378087878227234
1708438065.2868187,-1.1056948900222778,-1.681589265862936,-2.5265665690051478,2.2814053732105712,-1.0173371473895472,0.43378952145576477
1708438065.288856,-1.1056383848190308,-1.681531091729635,-2.526595417653219,2.281409664744995,-1.0173490683185022,0.4337155222892761
1708438065.2908545,-1.105700969696045,-1.6815711460509242,-2.5266101996051233,2.2813679414936523,-1.0173686186419886,0.43370911478996277
1708438065.292821,-1.1057255268096924,-1.681629320184225,-2.526595417653219,2.281344099635742,-1.0173047224627894,0.43367743492126465
1708438065.2948313,-1.1057010889053345,-1.681592126885885,-2.526602808629171,2.28135268270459,-1.0172837416278284,0.4336252808570862
1708438065.2968686,-1.105639934539795,-1.681592126885885,-2.526586357747213,2.2812909322926025,-1.0173566977130335,0.4335763156414032
1708438065.2988386,-1.1056593656539917,-1.68162264446401,-2.5265982786761683,2.2813376623341064,-1.0173075834857386,0.43357744812965393
1708438065.3008595,-1.10565185546875,-1.6816703281798304,-2.5265937487231653,2.281364603633545,-1.0173447767840784,0.4335382580757141
1708438065.3028617,-1.1055946350097656,-1.681596418420309,-2.526652161275045,2.281336470241211,-1.0173609892474573,0.4334297478199005
1708438065.3048427,-1.1056146621704102,-1.6816045246519984,-2.5266266504870813,2.2812997537800292,-1.0173490683185022,0.4333522319793701
1708438065.3068442,-1.1055872440338135,-1.6816417179503382,-2.5266643206225794,2.2812914091297607,-1.0173943678485315,0.4333500564098358
1708438065.3088593,-1.1056126356124878,-1.6815954647459925,-2.5266056696521204,2.2813257414051513,-1.0174019972430628,0.4333096742630005
1708438065.3108456,-1.1056370735168457,-1.6816135845580042,-2.5266476313220423,2.281242533321045,-1.0173447767840784,0.43317702412605286
1708438065.3128493,-1.105570912361145,-1.681629320184225,-2.5266178289996546,2.2812763887592773,-1.0173657576190394,0.43314918875694275
1708438065.314878,-1.105542540550232,-1.6816464863219203,-2.5265982786761683,2.2812601762958984,-1.0173643271075647,0.4330572485923767
1708438065.3168762,-1.1055635213851929,-1.6816450558104457,-2.5266597906695765,2.2812558847614746,-1.0173595587359827,0.4330386817455292
1708438065.318893,-1.1055679321289062,-1.6816092930235804,-2.5266762415515345,2.2812558847614746,-1.0173972288714808,0.4329548478126526
1708438065.3208456,-1.1055232286453247,-1.6816135845580042,-2.5266385714160364,2.2812678056904296,-1.0174301306353968,0.4328221082687378
1708438065.322848,-1.105544090270996,-1.6816541157164515,-2.5266178289996546,2.2812363344379882,-1.0173595587359827,0.43274205923080444
1708438065.324887,-1.1055576801300049,-1.6816450558104457,-2.5266340414630335,2.2812492090412597,-1.017383877431051,0.4326990842819214
1708438065.3268683,-1.1055151224136353,-1.6816283665099085,-2.5266385714160364,2.281252546901367,-1.017388645802633,0.4325542449951172
1708438065.3288708,-1.105528712272644,-1.6816746197142542,-2.5266476313220423,2.281244917506836,-1.017392937337057,0.43243393301963806
1708438065.3308818,-1.1054706573486328,-1.681690355340475,-2.5266311804400843,2.281228705043457,-1.017416779194967,0.4323585033416748
1708438065.332864,-1.1055034399032593,-1.6816655598082484,-2.5266295115100306,2.2812082010456542,-1.017453972493307,0.4322434365749359
1708438065.3348768,-1.1054884195327759,-1.6816417179503382,-2.5266462008105677,2.281232996577881,-1.0174701849566858,0.43215158581733704
1708438065.336858,-1.1054913997650146,-1.6817041836180628,-2.526656452809469,2.2812043863483886,-1.017388645802633,0.43205392360687256
1708438065.3388495,-1.105467677116394,-1.6816464863219203,-2.5266597906695765,2.2812043863483886,-1.0174091498004358,0.43188413977622986
1708438065.340842,-1.1055257320404053,-1.6816655598082484,-2.5266643206225794,2.2812086778828125,-1.0174287001239222,0.4317111670970917
1708438065.3428893,-1.1054884195327759,-1.6816941700377406,-2.5266884008990687,2.2811967569538574,-1.017432991658346,0.43158823251724243
1708438065.3449113,-1.1054096221923828,-1.6816116772093714,-2.5266507307635706,2.2811967569538574,-1.017449680958883,0.4314562976360321
1708438065.346822,-1.1054738759994507,-1.6816522083678187,-2.5266462008105677,2.281160994166992,-1.0173957983600062,0.43134987354278564
1708438065.3488512,-1.1054482460021973,-1.6816727123656214,-2.5266340414630335,2.281201048488281,-1.0174034277545374,0.43125486373901367
1708438065.3508472,-1.1054903268814087,-1.6816431484618128,-2.5266552607165735,2.281205340022705,-1.0174406210528772,0.43103745579719543
1708438065.3528438,-1.1054494380950928,-1.6816312275328578,-2.5266597906695765,2.2811447817036132,-1.0174077192889612,0.4308777451515198
1708438065.3548367,-1.1054115295410156,-1.6816026173033656,-2.5266626516925257,2.281160994166992,-1.0174568335162562,0.43074366450309753
1708438065.3568575,-1.1054024696350098,-1.6816150150694789,-2.5266671816455286,2.28115360319104,-1.0174406210528772,0.43056273460388184
1708438065.3588343,-1.105420470237732,-1.6817103825011195,-2.5267046133624476,2.2811290460773925,-1.017477814351217,0.43033021688461304
1708438065.3608146,-1.1053696870803833,-1.6817342243590296,-2.5267046133624476,2.2810672956654052,-1.0174616018878382,0.43017885088920593
1708438065.3628507,-1.1053578853607178,-1.6817180118956507,-2.5266507307635706,2.281083508128784,-1.0174616018878382,0.4299066960811615
1708438065.3648536,-1.105366826057434,-1.681699892083639,-2.526679340993063,2.281104250545166,-1.0174525419818323,0.429728239774704
1708438065.366841,-1.1053696870803833,-1.6817089519896449,-2.5266340414630335,2.281088038081787,-1.0174434820758265,0.42951270937919617
1708438065.3689523,-1.1053996086120605,-1.6817165813841761,-2.5266552607165735,2.281080408687256,-1.0174644629107874,0.4292885363101959
1708438065.37086,-1.1054294109344482,-1.6816956005492152,-2.5266972223864954,2.281125946635864,-1.0175064245807093,0.4290938973426819
1708438065.3728797,-1.1053757667541504,-1.6816746197142542,-2.5266626516925257,2.281141920680664,-1.0174806753741663,0.4288814961910248
1708438065.37488,-1.1053475141525269,-1.68168367962026,-2.5266340414630335,2.281109495753906,-1.0175092856036585,0.4286569356918335
1708438065.3768532,-1.105330467224121,-1.6817370853819789,-2.5266972223864954,2.2810932832905273,-1.0174301306353968,0.42846259474754333
1708438065.378839,-1.1053729057312012,-1.681732793847555,-2.526670281087057,2.281081362361572,-1.0174391905414026,0.42817094922065735
1708438065.3808272,-1.1053067445755005,-1.681732793847555,-2.5266884008990687,2.281081362361572,-1.0174525419818323,0.4279220998287201
1708438065.3828545,-1.1053141355514526,-1.681760927239889,-2.5266974608050745,2.281081362361572,-1.0174601713763636,0.4276234209537506
1708438065.3848934,-1.1053037643432617,-1.681765695611471,-2.5266462008105677,2.2810370165058593,-1.0174897352801722,0.4273926913738251
1708438065.3870363,-1.1053156852722168,-1.681845327416891,-2.5266552607165735,2.2810327249714355,-1.0174525419818323,0.42705121636390686
1708438065.3888216,-1.1052948236465454,-1.6817075214781703,-2.5266762415515345,2.28102891027417,-1.0174554030047815,0.42679402232170105
1708438065.3908272,-1.1053200960159302,-1.681728025475973,-2.5266552607165735,2.2810403543659667,-1.0174930731402796,0.42653486132621765
1708438065.3928852,-1.1053156852722168,-1.681765695611471,-2.5266838709460657,2.28102891027417,-1.0174554030047815,0.42627206444740295
1708438065.3948197,-1.1052337884902954,-1.6817871532835902,-2.5267213026629847,2.2809876638599853,-1.0174806753741663,0.4259844422340393
1708438065.396859,-1.105308175086975,-1.6817566357054652,-2.5266040007220667,2.281012697810791,-1.0174525419818323,0.42564812302589417
1708438065.3988187,-1.1053053140640259,-1.681728025475973,-2.52667481104006,2.2809271055408935,-1.0174854437457483,0.42536360025405884
1708438065.4008307,-1.1052680015563965,-1.6817566357054652,-2.526691261922018,2.2809640604206542,-1.0174930731402796,0.4250050485134125
1708438065.40286,-1.105251669883728,-1.6817523441710414,-2.526736084614889,2.2809273439594726,-1.0174720923053187,0.4247501492500305
1708438065.4048226,-1.1052770614624023,-1.6817780933775843,-2.526712242756979,2.280988855952881,-1.0174763838397425,0.4244597256183624
1708438065.4068422,-1.1052560806274414,-1.6817237339415492,-2.5266626516925257,2.2810255724140625,-1.0175092856036585,0.4240146279335022
1708438065.4088702,-1.1052815914154053,-1.6818019352354945,-2.526695791875021,2.280988855952881,-1.0175135771380823,0.4237077236175537
1708438065.4108589,-1.1052390336990356,-1.6817847690977992,-2.526712242756979,2.281000776881836,-1.0174887816058558,0.42332491278648376
1708438065.4128885,-1.1052560806274414,-1.6817523441710414,-2.526686731969015,2.2809530931660156,-1.0174930731402796,0.4229991137981415
1708438065.4148326,-1.1052181720733643,-1.6818062267699183,-2.526703182850973,2.2809931474873046,-1.0175002256976526,0.4226749539375305
1708438065.4168534,-1.1052963733673096,-1.6817714176573695,-2.526712242756979,2.280984564418457,-1.0175045172320765,0.42231571674346924
1708438065.4188528,-1.1052390336990356,-1.6817976437010707,-2.526703182850973,2.2810017305561523,-1.017524544392721,0.42187196016311646
1708438065.4208374,-1.105215311050415,-1.6817599735655726,-2.526691261922018,2.2809769350239257,-1.0175498167621058,0.421510249376297
1708438065.422852,-1.1052815914154053,-1.6818181476988734,-2.526691261922018,2.2809769350239257,-1.0175002256976526,0.4211309552192688
1708438065.4248352,-1.1052273511886597,-1.6817804775633753,-2.526757303868429,2.2809530931660156,-1.017536465321676,0.42068371176719666
1708438065.4268885,-1.1052480936050415,-1.6817928753294886,-2.526749912892477,2.280989809627197,-1.017545525227682,0.42030492424964905
1708438065.4288507,-1.1052154302597046,-1.6817847690977992,-2.52669865289797,2.2809943395802,-1.017573658620016,0.41992518305778503
1708438065.4308276,-1.1052154302597046,-1.6817523441710414,-2.526731793080465,2.2809411722370605,-1.0175111929522913,0.4195016622543335
1708438065.4328785,-1.1052860021591187,-1.6817385158934535,-2.526748243962423,2.280928774470947,-1.0175321737872522,0.4190385043621063
1708438065.4348266,-1.1051989793777466,-1.6817432842650355,-2.526736323033468,2.280916853541992,-1.017573658620016,0.41864439845085144
1708438065.4368384,-1.105207920074463,-1.6817976437010707,-2.526677672063009,2.2809242445179443,-1.0175512472735804,0.41822102665901184
1708438065.438844,-1.1051735877990723,-1.6817804775633753,-2.52674371400942,2.2809457021900634,-1.01756459871401,0.4177737236022949
1708438065.4408212,-1.1051989793777466,-1.6818062267699183,-2.526706043873922,2.2809781271168212,-1.0175188223468226,0.4172455966472626
1708438065.4428153,-1.1052407026290894,-1.6817404232420863,-2.526710573826925,2.2808868128010253,-1.017597500477926,0.41679948568344116
1708438065.444812,-1.1051959991455078,-1.6818348369994105,-2.526727263127462,2.2809080320545654,-1.0175932089435022,0.4163801372051239
1708438065.446873,-1.1051721572875977,-1.6818090877928675,-2.5267842451678675,2.2809125620075683,-1.0175965468036097,0.41594332456588745
1708438065.4488206,-1.1052496433258057,-1.6817714176573695,-2.5267587343799036,2.2809156614490966,-1.0176203886615198,0.4154376685619354
1708438065.450824,-1.1052168607711792,-1.6818181476988734,-2.5267677942859095,2.2808825212666015,-1.0176337401019495,0.4149450361728668
1708438065.4528785,-1.1052004098892212,-1.6818562946715296,-2.5267632643329065,2.280932589168213,-1.017616097127096,0.41447970271110535
1708438065.4548354,-1.105207920074463,-1.6818019352354945,-2.5267677942859095,2.280941887492798,-1.0175994078265589,0.41401445865631104
1708438065.4568608,-1.1051721572875977,-1.6817475757994593,-2.526799027119772,2.2809125620075683,-1.0176532904254358,0.41352370381355286
1708438065.4588623,-1.1051387786865234,-1.6817733250060023,-2.5268035570727747,2.280883713359497,-1.0176814238177698,0.41304919123649597
1708438065.4608295,-1.1051931381225586,-1.6817647419371546,-2.526761595402853,2.2809530931660156,-1.017693344746725,0.41246092319488525
1708438065.4628644,-1.1051417589187622,-1.6817780933775843,-2.5267587343799036,2.280916853541992,-1.017684284840719,0.4119223952293396
1708438065.4648442,-1.1051915884017944,-1.6818019352354945,-2.526789967213766,2.2809242445179443,-1.017684284840719,0.411435604095459
1708438065.466847,-1.105158805847168,-1.6817647419371546,-2.52682334581484,2.280925675029419,-1.0177324453936976,0.4109336733818054
1708438065.468854,-1.1051884889602661,-1.6817599735655726,-2.526832405720846,2.280928774470947,-1.0176919142352503,0.41035348176956177
1708438065.470845,-1.105155110359192,-1.6818720302977503,-2.5268142859088343,2.280895634288452,-1.0177534262286585,0.40976986289024353
1708438065.472844,-1.1052095890045166,-1.6818391285338343,-2.526856247578756,2.2809499937244873,-1.017731014882223,0.4092600643634796
1708438065.4748533,-1.1051884889602661,-1.6817804775633753,-2.526802364979879,2.2809125620075683,-1.0177519957171839,0.40864062309265137
1708438065.47684,-1.105202078819275,-1.6817885837950648,-2.5268517176257532,2.2809573847004394,-1.0177925268756312,0.408135324716568
1708438065.4788625,-1.1051769256591797,-1.6817566357054652,-2.5268052260028284,2.280916853541992,-1.017813507710592,0.40758904814720154
1708438065.480829,-1.1051641702651978,-1.6817509136595667,-2.5268591086017054,2.2808868128010253,-1.0178120771991175,0.4069984555244446
1708438065.4828467,-1.105225920677185,-1.6817847690977992,-2.5268335978137415,2.2809125620075683,-1.0178359190570276,0.4063850939273834
1708438065.4848866,-1.1051677465438843,-1.6817804775633753,-2.5269086996661585,2.280937595958374,-1.0178568998919886,0.40577951073646545
1708438065.486839,-1.105155110359192,-1.6817895374693812,-2.5269163290606897,2.280925675029419,-1.0178731123553675,0.40524619817733765
1708438065.488856,-1.105155110359192,-1.6817385158934535,-2.526911799107687,2.2809488016315917,-1.0178926626788538,0.4046790301799774
1708438065.4908428,-1.1051812171936035,-1.6817523441710414,-2.526907269154684,2.2809125620075683,-1.0178759733783167,0.4040723443031311
1708438065.4928746,-1.1052005290985107,-1.6817976437010707,-2.526886049901144,2.2809457021900634,-1.0178878943072718,0.4034986197948456
1708438065.4948747,-1.1051506996154785,-1.6818062267699183,-2.526919190083639,2.280966206187866,-1.0178960005389612,0.40286269783973694
1708438065.496827,-1.1052095890045166,-1.6817976437010707,-2.526926581059591,2.2809735971638183,-1.0179241339312952,0.4022643566131592
1708438065.4988403,-1.1051796674728394,-1.6817976437010707,-2.526926581059591,2.2808913427540283,-1.0179241339312952,0.4016173481941223
1708438065.5008292,-1.1051597595214844,-1.6817733250060023,-2.5269129912005823,2.280916853541992,-1.0179436842547815,0.4010348320007324
1708438065.502834,-1.1051641702651978,-1.6817523441710414,-2.526938501988546,2.2809457021900634,-1.017979923878805,0.40034711360931396
1708438065.5048325,-1.1051751375198364,-1.6817599735655726,-2.5269506613360804,2.2809368807026367,-1.017979923878805,0.39978110790252686
1708438065.5068314,-1.1051597595214844,-1.6817523441710414,-2.5269911924945276,2.2809411722370605,-1.0179756323443812,0.3992043435573578
1708438065.5088444,-1.1051632165908813,-1.6817509136595667,-2.5270076433764856,2.280907078380249,-1.0180366675006312,0.3985448479652405
1708438065.5108511,-1.1051721572875977,-1.6817599735655726,-2.5269911924945276,2.2809457021900634,-1.0180304686175745,0.3979104161262512
1708438065.5128515,-1.1051812171936035,-1.6818138561644496,-2.5270031134234827,2.2809855180927734,-1.0181258360492151,0.3972874879837036
1708438065.5148673,-1.1051387786865234,-1.6818019352354945,-2.527026955281393,2.2809199529835205,-1.0181081930743616,0.3966173827648163
1708438065.5168817,-1.1051796674728394,-1.6817895374693812,-2.527052942906515,2.2809855180927734,-1.0181034247027796,0.39594703912734985
1708438065.5188892,-1.1051597595214844,-1.6817804775633753,-2.5270348230945032,2.2809769350239257,-1.0180700461017054,0.3952765166759491
1708438065.5208511,-1.1051597595214844,-1.6817027531065882,-2.5270302931415003,2.2809530931660156,-1.018151585255758,0.3946089744567871
1708438065.522845,-1.1051721572875977,-1.6817847690977992,-2.5270841757403772,2.2809769350239257,-1.0181472937213343,0.3939673602581024
1708438065.5248466,-1.1052095890045166,-1.6818391285338343,-2.5270960966693323,2.2810062605091552,-1.0182340780841272,0.39328885078430176
1708438065.5268707,-1.1051641702651978,-1.6817475757994593,-2.5271201769458216,2.280952139491699,-1.0181873480426233,0.3926585912704468
1708438065.5289602,-1.1051931381225586,-1.6817895374693812,-2.5271487871753138,2.2810093599506835,-1.0182402769671839,0.3919472098350525
1708438065.53085,-1.1052095890045166,-1.6817227802672328,-2.5270825068103235,2.2810298639484863,-1.0181778112994593,0.3913372755050659
1708438065.5328991,-1.1051461696624756,-1.6817780933775843,-2.527097527180807,2.2810587125965576,-1.018259350453512,0.3905775249004364
1708438065.5348382,-1.1051164865493774,-1.6817409000792445,-2.527163569127218,2.28105012952771,-1.0182793776141565,0.3899204432964325
1708438065.5368583,-1.1051884889602661,-1.6817318401732386,-2.527139727269308,2.281066341991089,-1.0182703177081507,0.3892464339733124
1708438065.5388973,-1.1052095890045166,-1.6817895374693812,-2.527130667363302,2.281097574824951,-1.0182660261737269,0.38863226771354675
1708438065.540867,-1.1052004098892212,-1.6817475757994593,-2.527180020009176,2.2810115057178955,-1.0183189550982874,0.38789594173431396
1708438065.5428588,-1.1051687002182007,-1.6818272076048792,-2.5271664301501673,2.2810932832905273,-1.018367115651266,0.3872501850128174
1708438065.5451162,-1.1051840782165527,-1.681760927239889,-2.5271831194507044,2.2810770708271484,-1.0183432737933558,0.3865915536880493
1708438065.546847,-1.1051768064498901,-1.6817690334715785,-2.527189079915182,2.281036062831543,-1.0183828512774866,0.3859298825263977
1708438065.548842,-1.1051677465438843,-1.6817780933775843,-2.5272026697741907,2.2810966211506347,-1.018444840108053,0.38523855805397034
1708438065.550822,-1.1051840782165527,-1.681765695611471,-2.5272281805621546,2.2811333376118164,-1.0183942953692835,0.38463294506073
1708438065.5529013,-1.1052331924438477,-1.6817451916136683,-2.527238432561056,2.281141682262085,-1.018425766621725,0.38393017649650574
1708438065.5548458,-1.105207920074463,-1.6817733250060023,-2.527254883443014,2.2811621862598876,-1.0184958616839808,0.3832310438156128
1708438065.5568938,-1.1051506996154785,-1.6817499599852503,-2.527292791997091,2.281165285701416,-1.0185278097735804,0.38261672854423523
1708438065.558859,-1.1051959991455078,-1.6817804775633753,-2.52733022371401,2.2812186914631347,-1.018482510243551,0.38188284635543823
1708438065.5608592,-1.1051254272460938,-1.6817871532835902,-2.5272672812091272,2.2811447817036132,-1.0185096899615687,0.3812812864780426
1708438065.5628846,-1.105155110359192,-1.6817409000792445,-2.5273121039019983,2.281143828029297,-1.0185754934894007,0.3806103467941284
1708438065.564825,-1.1051796674728394,-1.6818062267699183,-2.5273240248309534,2.2811848360249023,-1.0186079184161585,0.37998875975608826
1708438065.5668635,-1.1052168607711792,-1.681791444818014,-2.5272939840899866,2.2812341886707763,-1.018590275441305,0.3793298602104187
1708438065.5688944,-1.1052095890045166,-1.6817451916136683,-2.527317825947897,2.2811848360249023,-1.0186265150653284,0.3786441683769226
1708438065.570879,-1.105117917060852,-1.6817733250060023,-2.5272939840899866,2.2811881738850097,-1.0186026732074183,0.3779555857181549
1708438065.5728855,-1.1052049398422241,-1.681760927239889,-2.527339045201437,2.28121726095166,-1.0186384359942835,0.37726733088493347
1708438065.5748718,-1.1051417589187622,-1.6817542515196742,-2.5273268858539026,2.281195564860962,-1.0186713377581995,0.37657561898231506
1708438065.5769022,-1.1052049398422241,-1.6818062267699183,-2.527355496083395,2.2812320429035644,-1.0186908880816858,0.37590229511260986
1708438065.5788348,-1.1051931381225586,-1.6817208729186,-2.527375046406881,2.2812320429035644,-1.0187023321734827,0.37520745396614075
1708438065.5808406,-1.1052331924438477,-1.6817475757994593,-2.527379576359884,2.2812115389057617,-1.0187342802630823,0.37459883093833923
1708438065.5828762,-1.1052123308181763,-1.6817237339415492,-2.5273600260363978,2.281252546901367,-1.0187667051898401,0.373857319355011
1708438065.584883,-1.1052331924438477,-1.6816936932005824,-2.527375046406881,2.2812601762958984,-1.0187910238849085,0.3732011914253235
1708438065.586884,-1.1052123308181763,-1.6817780933775843,-2.527379576359884,2.281280680293701,-1.0188148657428187,0.3725048005580902
1708438065.5888472,-1.1052331924438477,-1.681711813012594,-2.5273824373828333,2.2812883096882324,-1.018855396901266,0.3718847930431366
1708438065.5908291,-1.1052452325820923,-1.681765695611471,-2.5274081865893763,2.2812957006641845,-1.01884633699526,0.37128785252571106
1708438065.5928843,-1.1052331924438477,-1.6816984615721644,-2.5274155775653284,2.2812794882008056,-1.0188301245318812,0.3705630302429199
1708438065.5948324,-1.1052361726760864,-1.681793829003805,-2.5273945967303675,2.281308813686035,-1.01884633699526,0.36993277072906494
1708438065.5968459,-1.1052004098892212,-1.6817251644530238,-2.527414147053854,2.281308336848877,-1.0188615957843226,0.3692091405391693
1708438065.5988522,-1.105219841003418,-1.6817237339415492,-2.5274277369128626,2.2813612657734375,-1.0189030806170862,0.3684867024421692
1708438065.6008177,-1.1052035093307495,-1.681704660455221,-2.5274396578418177,2.281332178706787,-1.0188644568072718,0.3678278625011444
1708438065.602847,-1.1052407026290894,-1.681678911248678,-2.527430597935812,2.2813688951679687,-1.018914047871725,0.36720189452171326
1708438065.6048186,-1.1052154302597046,-1.6817194424071253,-2.527463499699728,2.2814127641865234,-1.0189350287066858,0.3665143549442291
1708438065.6068501,-1.1052651405334473,-1.6817499599852503,-2.527479950581686,2.281454010600708,-1.0189126173602503,0.3658078908920288
1708438065.608849,-1.1052615642547607,-1.6817566357054652,-2.527437988911764,2.2813753324696044,-1.0189617315875452,0.36513301730155945
1708438065.61087,-1.1052062511444092,-1.6816655598082484,-2.527487341557638,2.2814246851154785,-1.0189946333514612,0.36449670791625977
1708438065.6128886,-1.1052860021591187,-1.6817370853819789,-2.52744704881777,2.281411810512207,-1.0189855734454554,0.36381426453590393
1708438065.6148252,-1.1052273511886597,-1.6817370853819789,-2.5274935404406946,2.2814203935810546,-1.0189765135394495,0.3631707429885864
1708438065.6168518,-1.1052427291870117,-1.6817509136595667,-2.527479950581686,2.2814647394367675,-1.0190380255328577,0.3624764680862427
1708438065.6188543,-1.1052888631820679,-1.681704660455221,-2.5274692217456263,2.2814323145100097,-1.0189855734454554,0.36186346411705017
1708438065.6208777,-1.105225682258606,-1.681704660455221,-2.5275116602527063,2.2814323145100097,-1.018996540700094,0.3611457049846649
1708438065.6228795,-1.105251669883728,-1.6817299328246058,-2.527478281651632,2.2814854818531494,-1.0190618673907679,0.36046382784843445
1708438065.6248722,-1.1052874326705933,-1.6817299328246058,-2.5274952093707483,2.2815305429645996,-1.0190337339984339,0.3597942590713501
1708438065.6268542,-1.105312705039978,-1.6816803417601527,-2.5275116602527063,2.281435652370117,-1.0190218130694788,0.3591804504394531
1708438065.6288543,-1.105263590812683,-1.6817251644530238,-2.5275326410876673,2.281513138408325,-1.0190413633929651,0.3584936857223511
1708438065.6308393,-1.1052874326705933,-1.6816760502257289,-2.5275026003467005,2.281472368831299,-1.0190828482257288,0.35785138607025146
1708438065.632856,-1.105284333229065,-1.6817089519896449,-2.5275281111346644,2.281524820918701,-1.0190485159503382,0.3572051227092743
1708438065.6348493,-1.1053365468978882,-1.6816593609251917,-2.5274952093707483,2.2814838129230957,-1.0190532843219202,0.35661399364471436
1708438065.6368363,-1.105361819267273,-1.6817017994322718,-2.5275638739215296,2.2815162378498535,-1.0191143194781702,0.35597148537635803
1708438065.6388328,-1.1052874326705933,-1.6816851101317347,-2.5275474230395716,2.2814957338520507,-1.0190938154803675,0.35530465841293335
1708438065.640843,-1.1053156852722168,-1.6816493473448695,-2.5275655428515833,2.281486912364624,-1.0190771261798304,0.3547053635120392
1708438065.6428335,-1.105308175086975,-1.6816450558104457,-2.5275564829455774,2.281491203899048,-1.0191429297076624,0.3541533946990967
1708438065.6448524,-1.1052919626235962,-1.6816207371153773,-2.5275264422046106,2.281552954311035,-1.0191219488727015,0.35353800654411316
1708438065.646849,-1.1053439378738403,-1.6816359959044398,-2.5275383631335657,2.281524820918701,-1.019137207661764,0.35289454460144043
1708438065.648865,-1.1053365468978882,-1.681650777856344,-2.5275264422046106,2.2815162378498535,-1.0191009680377405,0.35231971740722656
1708438065.650842,-1.105318546295166,-1.6816045246519984,-2.5275397936450403,2.281503363246582,-1.0191534201251429,0.3517165780067444
1708438065.6528237,-1.1053276062011719,-1.6816555462279261,-2.527550284062521,2.2816025453754882,-1.0191009680377405,0.3511343002319336
1708438065.6548636,-1.1052948236465454,-1.681634088555807,-2.5275309721576136,2.2815443712421875,-1.0191338698016565,0.3505329191684723
1708438065.656861,-1.105360984802246,-1.6816026173033656,-2.5275309721576136,2.281507654781006,-1.0191667715655726,0.3498973250389099
1708438065.6588616,-1.1053565740585327,-1.68162264446401,-2.527562443410055,2.281547709102295,-1.0191624800311487,0.3493058383464813
1708438065.6608236,-1.105365514755249,-1.6816102466978968,-2.5275548140155237,2.2815605837055664,-1.0191295782672327,0.34875819087028503
1708438065.6628299,-1.1053276062011719,-1.6816092930235804,-2.5275264422046106,2.281547709102295,-1.0191744009601038,0.348143070936203
1708438065.664865,-1.1053259372711182,-1.681601186791891,-2.5275309721576136,2.2815682131000976,-1.0191577116595667,0.34758731722831726
1708438065.666865,-1.1053096055984497,-1.6815773449339808,-2.527550284062521,2.2815520006367187,-1.0191457907306116,0.3469950258731842
1708438065.6688843,-1.105342984199524,-1.6815773449339808,-2.5275805632220667,2.281555100078247,-1.0191624800311487,0.34644269943237305
1708438065.6708782,-1.1052976846694946,-1.6816431484618128,-2.527550284062521,2.281538887614868,-1.019186798726217,0.34581834077835083
1708438065.6728377,-1.1054174900054932,-1.6815864048399867,-2.5275355021106165,2.2816263872333984,-1.0191414991961878,0.3452231287956238
1708438065.6748574,-1.1053682565689087,-1.6815639934935511,-2.527512852345602,2.281613274211548,-1.0191205183612269,0.3446853756904602
1708438065.6768436,-1.105371356010437,-1.681531091729635,-2.5275383631335657,2.281588240260742,-1.019191090260641,0.34407439827919006
1708438065.6789014,-1.105366826057434,-1.681589265862936,-2.5275428930865687,2.2815753656574707,-1.0191252867328089,0.34348347783088684
1708438065.680853,-1.105404019355774,-1.6815759144225062,-2.5275428930865687,2.281660719508789,-1.0191777388202112,0.34296706318855286
1708438065.682868,-1.1053757667541504,-1.68162264446401,-2.5275264422046106,2.281616373653076,-1.019182030354635,0.34232550859451294
1708438065.68487,-1.105432391166687,-1.6815773449339808,-2.527541224156515,2.281599207515381,-1.0191577116595667,0.34176671504974365
1708438065.6868806,-1.1054115295410156,-1.681634088555807,-2.5274890104876917,2.2816690641590576,-1.0191119352923792,0.34118443727493286
1708438065.688918,-1.1053932905197144,-1.6815639934935511,-2.5275638739215296,2.2816402155109863,-1.0191577116595667,0.3406546115875244
1708438065.6908445,-1.1054024696350098,-1.6815535030760707,-2.5275760332690638,2.2816359239765625,-1.019186798726217,0.34008052945137024
1708438065.6928437,-1.1053996086120605,-1.6816073856749476,-2.5275519529925745,2.281660242671631,-1.0191414991961878,0.3394733667373657
1708438065.6948423,-1.1054449081420898,-1.6816054783263148,-2.5275099913226526,2.281684561366699,-1.0191577116595667,0.3389747142791748
1708438065.696859,-1.1054645776748657,-1.681568285027975,-2.5275219122516077,2.2816716867634277,-1.019149128590719,0.33837181329727173
1708438065.6988626,-1.1054188013076782,-1.6816464863219203,-2.527550284062521,2.2816340166279296,-1.019182030354635,0.33782511949539185
1708438065.7008586,-1.1054141521453857,-1.6816054783263148,-2.5275803248034876,2.28162591039624,-1.019144360219137,0.33726969361305237
1708438065.7028205,-1.1053978204727173,-1.681634088555807,-2.5275383631335657,2.281712694759033,-1.019132439290182,0.3366911709308624
1708438065.7048228,-1.1054645776748657,-1.6816522083678187,-2.5275219122516077,2.2816921907612304,-1.019149128590719,0.3361234962940216
1708438065.706837,-1.1054645776748657,-1.6816135845580042,-2.5275099913226526,2.281684561366699,-1.019186798726217,0.3356020748615265
1708438065.7088466,-1.1054348945617676,-1.6816026173033656,-2.5275548140155237,2.2816759782978515,-1.0191457907306116,0.33510076999664307
1708438065.7108724,-1.105467677116394,-1.6815759144225062,-2.5275548140155237,2.2816683489033203,-1.0191624800311487,0.33450058102607727
1708438065.7128887,-1.1054303646087646,-1.6816102466978968,-2.5275638739215296,2.2816471296497802,-1.0191534201251429,0.3339259922504425
1708438065.7148626,-1.105467677116394,-1.6815186939635218,-2.5275519529925745,2.281705065364502,-1.0191205183612269,0.33340388536453247
1708438065.7168667,-1.1054422855377197,-1.681584974328512,-2.5275564829455774,2.281672640437744,-1.0191095511065882,0.33288562297821045
1708438065.7188838,-1.105451226234436,-1.6815229854979457,-2.527517382298605,2.2816759782978515,-1.0191085974322718,0.33235591650009155
1708438065.720831,-1.1054869890213013,-1.68158020595693,-2.5275054613696497,2.281716986293457,-1.0191143194781702,0.33179184794425964
1708438065.722833,-1.105512261390686,-1.6815864048399867,-2.5275235811816614,2.281688852901123,-1.0190895239459437,0.33128902316093445
1708438065.724893,-1.105500340461731,-1.6816026173033656,-2.5275309721576136,2.281684561366699,-1.0190680662738245,0.3307170867919922
1708438065.7268546,-1.1055212020874023,-1.6815368137755335,-2.5274935404406946,2.281705065364502,-1.0190652052508753,0.33022359013557434
1708438065.7288415,-1.1055078506469727,-1.6815577946104945,-2.5275355021106165,2.2816597658344726,-1.0191028753863733,0.32972845435142517
1708438065.730837,-1.1054884195327759,-1.681568285027975,-2.5274816195117396,2.281737728709839,-1.019073788319723,0.3292183578014374
1708438065.7328715,-1.1054884195327759,-1.681589265862936,-2.5275099913226526,2.2817041116901855,-1.019057575856344,0.3287392556667328
1708438065.7348506,-1.1055197715759277,-1.6815368137755335,-2.5275190512286585,2.2816683489033203,-1.0190337339984339,0.3281918466091156
1708438065.7368312,-1.1054750680923462,-1.6815639934935511,-2.5275326410876673,2.2816640573688964,-1.0190380255328577,0.32772552967071533
1708438065.7388282,-1.1055421829223633,-1.6815906963744105,-2.5274952093707483,2.2817084032246093,-1.0190590063678187,0.32721173763275146
1708438065.740832,-1.1055078506469727,-1.6815535030760707,-2.5274818579303187,2.2816921907612304,-1.0190098921405237,0.3266548812389374
1708438065.7428443,-1.1055197715759277,-1.6815444431700648,-2.5274906794177454,2.2817246156879882,-1.0190189520465296,0.3263031542301178
1708438065.744869,-1.1055412292480469,-1.6815453968443812,-2.5275161902057093,2.281655712718628,-1.0189321676837366,0.32579505443573
1708438065.7468467,-1.1054987907409668,-1.6815935573973597,-2.5274861494647425,2.2816638189503173,-1.0189779440509241,0.32534053921699524
1708438065.7488313,-1.1055197715759277,-1.6815039120116175,-2.527473751698629,2.281677170390747,-1.01898700395693,0.3249020576477051
1708438065.750857,-1.105532169342041,-1.681592126885885,-2.527466360722677,2.2817041116901855,-1.0189421812640589,0.3244222402572632
1708438065.7528725,-1.1055457592010498,-1.6815864048399867,-2.5274527708636683,2.281733198756836,-1.018904987965719,0.3240238428115845
1708438065.7548294,-1.1055277585983276,-1.681568285027975,-2.527525250111715,2.2816802698322753,-1.0188940207110804,0.3236258029937744
1708438065.7568715,-1.1055188179016113,-1.6815115414061488,-2.527461830769674,2.2816340166279296,-1.0189231077777308,0.3231869041919708
1708438065.7588532,-1.1055396795272827,-1.6815577946104945,-2.527417008076803,2.2816759782978515,-1.0188778082477015,0.32276108860969543
1708438065.7608259,-1.1055017709732056,-1.6815577946104945,-2.527433458958761,2.281721277827881,-1.0188496748553675,0.32232558727264404
1708438065.762837,-1.1055232286453247,-1.6815625629820765,-2.527437988911764,2.281655712718628,-1.0189045111285608,0.3219515383243561
1708438065.7648387,-1.105506181716919,-1.681535383264059,-2.5274186770068567,2.281712694759033,-1.0188139120685022,0.3215118646621704
1708438065.766844,-1.1055396795272827,-1.6816159687437953,-2.5274186770068567,2.281712694759033,-1.0187729040728968,0.3210887014865875
1708438065.7688274,-1.1055649518966675,-1.6815906963744105,-2.5274110476123255,2.28162591039624,-1.0187447706805628,0.320730596780777
1708438065.7708447,-1.105509877204895,-1.6815229854979457,-2.5274065176593226,2.281655712718628,-1.0187209288226526,0.32028263807296753
1708438065.7728386,-1.1055142879486084,-1.6815444431700648,-2.5273810068713587,2.2817084032246093,-1.0187299887286585,0.3199080526828766
1708438065.7748508,-1.1055887937545776,-1.6815229854979457,-2.5274155775653284,2.281684561366699,-1.0187433401690882,0.3195618987083435
1708438065.7768645,-1.1055188179016113,-1.6815577946104945,-2.5273945967303675,2.281618281001709,-1.0187104384051722,0.3192349672317505
1708438065.7788398,-1.1055396795272827,-1.6815453968443812,-2.5273659865008753,2.281705065364502,-1.018648926411764,0.31882762908935547
1708438065.780867,-1.1055798530578613,-1.6815906963744105,-2.527363125477926,2.281697912807129,-1.0186784903155726,0.31853732466697693
1708438065.7828481,-1.105597734451294,-1.6815115414061488,-2.527376715336935,2.281693382854126,-1.0186956564532679,0.31817758083343506
1708438065.7848256,-1.1056007146835327,-1.6815368137755335,-2.527355496083395,2.2816683489033203,-1.0186145941363733,0.3178388774394989
1708438065.78687,-1.10555899143219,-1.681573053399557,-2.527367655430929,2.281672640437744,-1.018569294606344,0.3175158202648163
1708438065.7888315,-1.1055723428726196,-1.681573053399557,-2.527339045201437,2.281677170390747,-1.018574062977926,0.31718093156814575
1708438065.7908177,-1.1055516004562378,-1.6814948521056117,-2.527329985295431,2.2816478449055175,-1.0185425917254847,0.31686994433403015
1708438065.7928438,-1.1055470705032349,-1.6815229854979457,-2.527384106312887,2.2816471296497802,-1.0185545126544397,0.3165340721607208
1708438065.7948353,-1.1055887937545776,-1.6815368137755335,-2.5273104349719446,2.2816478449055175,-1.0185545126544397,0.3162197172641754
1708438065.7968595,-1.1055426597595215,-1.6815577946104945,-2.5272865931140345,2.281709595317505,-1.0185468832599085,0.31595832109451294
1708438065.7988229,-1.1055887937545776,-1.6815039120116175,-2.5273268858539026,2.2817258077808837,-1.0184481779681605,0.315642386674881
1708438065.8008423,-1.105575442314148,-1.6815082035460414,-2.5272820631610315,2.2816151815601806,-1.0184572378741663,0.3153539001941681
1708438065.8028474,-1.105593204498291,-1.6815625629820765,-2.5273075739489954,2.2816387849995117,-1.018449608479635,0.3150954246520996
1708438065.8048298,-1.1054928302764893,-1.6815935573973597,-2.5273001829730433,2.28168170034375,-1.0184453169452112,0.31484824419021606
1708438065.80685,-1.1055798530578613,-1.6815773449339808,-2.5272746721850794,2.281660242671631,-1.0184677282916468,0.31459811329841614
1708438065.808834,-1.1055887937545776,-1.6815444431700648,-2.5272911230670374,2.281606360072754,-1.0184109846698206,0.31432613730430603
1708438065.8108623,-1.1056126356124878,-1.6816235981383265,-2.5272627512561243,2.2816197115131835,-1.0184200445758265,0.31414374709129333
1708438065.8128617,-1.105570912361145,-1.681507249871725,-2.527245823537008,2.2816802698322753,-1.0183780829059046,0.31386369466781616
1708438065.814822,-1.1055426597595215,-1.6815368137755335,-2.5272792021380823,2.2816240030476074,-1.018411938344137,0.3136391341686249
1708438065.8168461,-1.1055842638015747,-1.6815535030760707,-2.527196470891134,2.2816120821186523,-1.0183494726764124,0.31347012519836426
1708438065.8188388,-1.1054973602294922,-1.6815906963744105,-2.527221981679098,2.281628294582031,-1.0183137098895472,0.3133249282836914
1708438065.8208714,-1.1055679321289062,-1.6815277538695277,-2.527280871068136,2.281600161189697,-1.018338982258932,0.3130914568901062
1708438065.8228793,-1.1056007146835327,-1.6815625629820765,-2.527210060750143,2.281600161189697,-1.0182855764972132,0.3128913938999176
1708438065.8248563,-1.1055545806884766,-1.6815773449339808,-2.52718168893923,2.281592531795166,-1.0183013121234339,0.3127325773239136
1708438065.82685,-1.1055917739868164,-1.6814872227110804,-2.5272071997271937,2.2815443712421875,-1.0183313528644007,0.31256794929504395
1708438065.8288527,-1.1055679321289062,-1.6815954647459925,-2.5271619001971644,2.281503363246582,-1.0182750860797327,0.31245437264442444
1708438065.83083,-1.105514407157898,-1.681584974328512,-2.5271952787982386,2.281508608455322,-1.0182793776141565,0.3123108446598053
1708438065.8328636,-1.105575442314148,-1.6815906963744105,-2.5272071997271937,2.2814923959919433,-1.018243137990133,0.312198281288147
1708438065.8348734,-1.1055470705032349,-1.6815368137755335,-2.5272207895862024,2.281463785762451,-1.018247429524557,0.31206709146499634
1708438065.8368518,-1.1056007146835327,-1.6815864048399867,-2.5272327105151575,2.281517429942749,-1.0182884375201624,0.3119221031665802
1708438065.8388286,-1.1055635213851929,-1.6815773449339808,-2.5271499792682093,2.281459255809448,-1.0182059446917933,0.3118588626384735
1708438065.8408644,-1.1055723428726196,-1.6815864048399867,-2.527126137410299,2.281451864833496,-1.018219296132223,0.31175151467323303
1708438065.8428404,-1.105544090270996,-1.6816407642760218,-2.527175490056173,2.281451864833496,-1.018182102833883,0.31167638301849365
1708438065.8448346,-1.1055351495742798,-1.6815535030760707,-2.527180020009176,2.2814885812946777,-1.018186394368307,0.3116047978401184
1708438065.8468685,-1.1055188179016113,-1.68162264446401,-2.52714711824526,2.2813941675373535,-1.0181830565081995,0.31154924631118774
1708438065.8488474,-1.1054898500442505,-1.6815029583373011,-2.52710205713381,2.281407518977783,-1.0181787649737757,0.3114805519580841
1708438065.8508537,-1.1055351495742798,-1.6815229854979457,-2.527109448109762,2.281439943904541,-1.0181430021869105,0.3114297389984131
1708438065.8528364,-1.1055197715759277,-1.681589265862936,-2.527156178151266,2.2814289766499023,-1.0181549231158655,0.31146425008773804
1708438065.8548317,-1.1055142879486084,-1.681535383264059,-2.527123037968771,2.2814408975788574,-1.0181339422809046,0.31142666935920715
1708438065.8568215,-1.1055232286453247,-1.681540151635641,-2.5270944277392786,2.2814203935810546,-1.0181592146502894,0.31140708923339844
1708438065.8588254,-1.1055412292480469,-1.681568285027975,-2.527144257222311,2.2814172941395263,-1.0181635061847132,0.31137433648109436
1708438065.8608346,-1.1055107116699219,-1.6816116772093714,-2.527123037968771,2.2813398081013183,-1.0181310812579554,0.3113788068294525
1708438065.8628201,-1.1055576801300049,-1.6816054783263148,-2.527064386998312,2.281380816096924,-1.0181472937213343,0.3114851415157318
1708438065.8648267,-1.1055197715759277,-1.6815878353514613,-2.5270989576922815,2.2813288408466796,-1.0181143919574183,0.31151634454727173
