Eg3-git/Classifiers/Data Collection/u6/u6cir1_ur3e_joint_states.csv
time,elbow_joint,shoulder_lift_joint,shoulder_pan_joint,wrist_1_joint,wrist_2_joint,wrist_3_joint
1708438001.730513,-1.10626220703125,-1.6811896763243617,-2.52682334581484,2.2821075159260253,-1.017566982899801,0.2545033097267151
1708438001.7324874,-1.1063454151153564,-1.6812521419920863,-2.5267871061908167,2.282116098994873,-1.017587963734762,0.2544945180416107
1708438001.7345002,-1.1063023805618286,-1.6811863384642542,-2.526839796696798,2.282078667277954,-1.0175684134112757,0.25445321202278137
1708438001.7365162,-1.106296420097351,-1.6812387905516566,-2.5268035570727747,2.282120628947876,-1.017543141041891,0.2544914186000824
1708438001.7386959,-1.1062666177749634,-1.6812135181822718,-2.52686053911318,2.2821037012287597,-1.0175474325763147,0.2545318901538849
1708438001.7404854,-1.1062994003295898,-1.6812354526915492,-2.526799027119772,2.2821037012287597,-1.017604176198141,0.25450676679611206
1708438001.7425082,-1.1063202619552612,-1.6812063656248988,-2.526832405720846,2.2821530538746337,-1.0175965468036097,0.25451111793518066
1708438001.7444952,-1.10626220703125,-1.6812063656248988,-2.526811424885885,2.282116098994873,-1.0175474325763147,0.25456446409225464
1708438001.7465067,-1.1062785387039185,-1.6812435589232386,-2.526799027119772,2.2821037012287597,-1.0175798575030726,0.2545318603515625
1708438001.7485108,-1.1062785387039185,-1.6811896763243617,-2.526790205632345,2.2821413713642578,-1.0175560156451624,0.2545481324195862
1708438001.7504938,-1.1062994003295898,-1.6811896763243617,-2.526769224797384,2.2821037012287597,-1.0175970236407679,0.25455257296562195
1708438001.752501,-1.1062577962875366,-1.681202074090475,-2.5267751852618616,2.282120628947876,-1.0176170508014124,0.2545512318611145
1708438001.7544909,-1.1062874794006348,-1.6811982593932093,-2.526820484791891,2.282164974803589,-1.0175884405719202,0.2545349597930908
1708438001.7565303,-1.1062874794006348,-1.6811567745604457,-2.526773754750387,2.282082958812378,-1.0175560156451624,0.25449448823928833
1708438001.7585254,-1.1062383651733398,-1.6812106571593226,-2.526832167302267,2.282099171275757,-1.0176332632647913,0.2544826865196228
1708438001.7604961,-1.1062949895858765,-1.6811853847899378,-2.526820484791891,2.282139940852783,-1.0175073782550257,0.25451990962028503
1708438001.7625058,-1.1062755584716797,-1.6811853847899378,-2.526799027119772,2.2821122842976074,-1.0175812880145472,0.25451868772506714
1708438001.764502,-1.106279969215393,-1.6811615429320277,-2.526832167302267,2.2821037012287597,-1.017592732106344,0.25452741980552673
1708438001.766503,-1.1062918901443481,-1.6812311611571253,-2.526820484791891,2.282116098994873,-1.0175483862506312,0.2545393407344818
1708438001.768527,-1.1062438488006592,-1.6811939678587855,-2.5268307367907923,2.282054825420044,-1.0176299254046839,0.25451430678367615
1708438001.7705245,-1.106279969215393,-1.681202074090475,-2.526811424885885,2.282120628947876,-1.0175603071795862,0.2545349597930908
1708438001.7725286,-1.1062829494476318,-1.6811405620970667,-2.52683669725527,2.282078667277954,-1.0175560156451624,0.25452300906181335
1708438001.774492,-1.106221318244934,-1.6811820469298304,-2.526757303868429,2.282136841411255,-1.017585579548971,0.2545155882835388
1708438001.776511,-1.1062473058700562,-1.6812221012511195,-2.52682334581484,2.2820755678364257,-1.0175603071795862,0.25451114773750305
1708438001.7784972,-1.106284499168396,-1.6811853847899378,-2.526815954838888,2.282087488765381,-1.0175769964801233,0.25449803471565247
1708438001.7805026,-1.1062427759170532,-1.6812149486937464,-2.526818815861837,2.282094879741333,-1.01756459871401,0.2544651925563812
1708438001.7825081,-1.106233835220337,-1.6811734638609828,-2.526781145726339,2.2820917802998046,-1.0175769964801233,0.25454819202423096
1708438001.7845006,-1.1062755584716797,-1.6811939678587855,-2.526815954838888,2.2821168142506103,-1.0175235907184046,0.25452303886413574
1708438001.786522,-1.1062800884246826,-1.6812478504576625,-2.526815954838888,2.282054825420044,-1.0175440947162073,0.25452303886413574
1708438001.7885175,-1.106279969215393,-1.6812387905516566,-2.526818815861837,2.2821292120167236,-1.0175970236407679,0.25452739000320435
1708438001.790504,-1.1062772274017334,-1.6812178097166957,-2.526815954838888,2.2820755678364257,-1.0175483862506312,0.25451868772506714
1708438001.7924948,-1.106268048286438,-1.6811982593932093,-2.526794497166769,2.282062216395996,-1.01756459871401,0.25453057885169983
1708438001.794511,-1.106256365776062,-1.6811820469298304,-2.52682334581484,2.2820679384418945,-1.0175235907184046,0.25449803471565247
1708438001.7964902,-1.106268048286438,-1.6812192402281703,-2.526794497166769,2.2821122842976074,-1.0175727049456995,0.25450238585472107
1708438001.798517,-1.1062302589416504,-1.681209226647848,-2.526799027119772,2.2821003633686523,-1.017552677785055,0.2545349597930908
1708438001.80049,-1.1062018871307373,-1.6812178097166957,-2.526827875767843,2.2820679384418945,-1.0175202528582972,0.25451111793518066
1708438001.802488,-1.1062273979187012,-1.681202074090475,-2.526806894932882,2.282059355373047,-1.0175970236407679,0.25451430678367615
1708438001.8045063,-1.1062318086624146,-1.6812106571593226,-2.526832167302267,2.2821048933216552,-1.0175278822528284,0.25448569655418396
1708438001.806488,-1.1062183380126953,-1.6812221012511195,-2.5268412272082728,2.282087488765381,-1.0175603071795862,0.25451868772506714
1708438001.8085196,-1.106215476989746,-1.6811939678587855,-2.5268035570727747,2.2820755678364257,-1.0175688902484339,0.25452178716659546
1708438001.810514,-1.1062065362930298,-1.6812106571593226,-2.526790205632345,2.2820841509052734,-1.0176094214068812,0.25454244017601013
1708438001.8125067,-1.1062229871749878,-1.6812240085997523,-2.52677828470339,2.2820960718342285,-1.0175688902484339,0.25456348061561584
1708438001.8145142,-1.1061991453170776,-1.6811734638609828,-2.526820484791891,2.2821003633686523,-1.0175440947162073,0.2545590400695801
1708438001.816523,-1.1061826944351196,-1.6811977825560511,-2.526815954838888,2.282071276302002,-1.0175731817828577,0.2545349895954132
1708438001.8185139,-1.1062288284301758,-1.6811977825560511,-2.526806894932882,2.282071276302002,-1.0175688902484339,0.2545306086540222
1708438001.820508,-1.1061782836914062,-1.6812149486937464,-2.526832167302267,2.282022400493286,-1.0175398031817835,0.25456348061561584
1708438001.822489,-1.1062318086624146,-1.6812063656248988,-2.5267706553088587,2.282038612956665,-1.0175483862506312,0.2545590400695801
1708438001.8244889,-1.1061663627624512,-1.6812063656248988,-2.526820246373312,2.2821048933216552,-1.01756459871401,0.25457853078842163
1708438001.8265264,-1.106187105178833,-1.6812635860838832,-2.5268078486071985,2.2821411329456787,-1.0175483862506312,0.25452932715415955
1708438001.8284967,-1.106187105178833,-1.6811777553954066,-2.5268293062793177,2.2820755678364257,-1.0175440947162073,0.2545468807220459
1708438001.8305287,-1.1062407493591309,-1.6811896763243617,-2.526815954838888,2.282042904491089,-1.01756459871401,0.2546035647392273
1708438001.8324838,-1.106209635734558,-1.6811615429320277,-2.5267871061908167,2.2820679384418945,-1.0175235907184046,0.2545503079891205
1708438001.8345017,-1.1061633825302124,-1.6812502346434535,-2.5267825762378138,2.2820517259785156,-1.017552677785055,0.25457096099853516
1708438001.8364809,-1.1061887741088867,-1.6811853847899378,-2.526794497166769,2.282048388118408,-1.0175560156451624,0.25457096099853516
1708438001.8385096,-1.106199026107788,-1.6812478504576625,-2.526811424885885,2.2820917802998046,-1.017552677785055,0.25457853078842163
1708438001.8405151,-1.1061933040618896,-1.6812178097166957,-2.5268035570727747,2.282088442439697,-1.0175560156451624,0.2545948028564453
1708438001.842501,-1.1061724424362183,-1.6812387905516566,-2.52682334581484,2.2821168142506103,-1.017585579548971,0.2545696794986725
1708438001.8445206,-1.1061797142028809,-1.6811896763243617,-2.526832167302267,2.2821003633686523,-1.0175603071795862,0.2545872628688812
1708438001.8464954,-1.1062215566635132,-1.6812149486937464,-2.5267751852618616,2.2820603090473632,-1.0175159613238733,0.25458288192749023
1708438001.848502,-1.1061633825302124,-1.6812311611571253,-2.526790205632345,2.2820190626331787,-1.01756459871401,0.2546025812625885
1708438001.8505254,-1.1061797142028809,-1.6812592945494593,-2.52677828470339,2.282081051463745,-1.0175898710833948,0.25457853078842163
1708438001.8524868,-1.1061797142028809,-1.6812387905516566,-2.5268123785602015,2.281999035472534,-1.017552677785055,0.25462451577186584
1708438001.8545034,-1.1061344146728516,-1.6812387905516566,-2.5268576780902308,2.2820560175129394,-1.0175321737872522,0.25456222891807556
1708438001.8564885,-1.1062005758285522,-1.6811977825560511,-2.5267797152148646,2.282088442439697,-1.0175030867206019,0.25461581349372864
1708438001.858484,-1.1061298847198486,-1.6812502346434535,-2.5268078486071985,2.2820603090473632,-1.0175560156451624,0.2545991539955139
1708438001.860495,-1.106218695640564,-1.6811977825560511,-2.5268035570727747,2.282076521510742,-1.0175235907184046,0.25458723306655884
1708438001.8625023,-1.1061598062515259,-1.681202074090475,-2.526844088231222,2.2819859224506835,-1.01756459871401,0.25458723306655884
1708438001.8645077,-1.1061344146728516,-1.6812221012511195,-2.5267916361438196,2.281994505519531,-1.0175321737872522,0.2546232342720032
1708438001.8665116,-1.1061344146728516,-1.6811896763243617,-2.526811424885885,2.282048388118408,-1.0175483862506312,0.25458598136901855
1708438001.8685014,-1.106139063835144,-1.6812263927855433,-2.526799027119772,2.282007856959961,-1.017552677785055,0.2545577883720398
1708438001.8705437,-1.1061888933181763,-1.6811853847899378,-2.52675444284548,2.282036705608032,-1.0175560156451624,0.25458288192749023
1708438001.8724954,-1.106127142906189,-1.6811939678587855,-2.52677828470339,2.282015247935913,-1.0175603071795862,0.2545653283596039
1708438001.8745074,-1.106197714805603,-1.6812435589232386,-2.526832405720846,2.2820066648670654,-1.01756459871401,0.254648357629776
1708438001.8764977,-1.1061418056488037,-1.681160112420553,-2.526794497166769,2.2819947439381103,-1.01756459871401,0.25461453199386597
1708438001.8785145,-1.1061344146728516,-1.6812178097166957,-2.5267916361438196,2.2820164400288085,-1.0175483862506312,0.25459155440330505
1708438001.8805263,-1.106139063835144,-1.6812063656248988,-2.526799027119772,2.2819339472004394,-1.0175812880145472,0.2545948028564453
1708438001.8824995,-1.1061724424362183,-1.6811820469298304,-2.52677828470339,2.281967802638672,-1.0175202528582972,0.2545948028564453
1708438001.8844988,-1.1061359643936157,-1.681258340875143,-2.526794497166769,2.2819558817097167,-1.0175407568561,0.2546026110649109
1708438001.8865552,-1.1061227321624756,-1.6811934910216273,-2.526778046284811,2.2818900781818847,-1.0175884405719202,0.2545948326587677
1708438001.8885114,-1.1061315536499023,-1.6811734638609828,-2.526832167302267,2.281912012691162,-1.0175192991839808,0.25458288192749023
1708438001.890496,-1.1060943603515625,-1.681225915948385,-2.5267751852618616,2.281904383296631,-1.0175569693194788,0.25461140275001526
1708438001.8924787,-1.1061315536499023,-1.6812135181822718,-2.5268123785602015,2.281883879298828,-1.01756459871401,0.25461140275001526
1708438001.894508,-1.1061524152755737,-1.6812502346434535,-2.526749912892477,2.2818631368824462,-1.0175440947162073,0.25462326407432556
1708438001.8964958,-1.1060987710952759,-1.6812674007811488,-2.526766363774435,2.2818924623676757,-1.0175159613238733,0.25463202595710754
1708438001.8985078,-1.106144905090332,-1.6811567745604457,-2.526794497166769,2.2818631368824462,-1.0175440947162073,0.25461143255233765
1708438001.900495,-1.1061196327209473,-1.681230207482809,-2.526737991963522,2.2819086748310546,-1.017536465321676,0.2545740604400635
1708438001.9024951,-1.106139063835144,-1.6812344990172328,-2.5267468134509485,2.281876249904297,-1.0175159613238733,0.25462010502815247
1708438001.9044936,-1.1061434745788574,-1.6812178097166957,-2.5267587343799036,2.2818426328846435,-1.0175731817828577,0.25462767481803894
1708438001.9065044,-1.1061360836029053,-1.6812459431090296,-2.5267632643329065,2.2818307119556884,-1.0175603071795862,0.2545948028564453
1708438001.9084916,-1.106101632118225,-1.6812135181822718,-2.5267959276782435,2.2818426328846435,-1.0174954573260706,0.25458285212516785
1708438001.9104853,-1.106156826019287,-1.6812459431090296,-2.526766363774435,2.281895800227783,-1.017585579548971,0.2545621693134308
1708438001.9125245,-1.1061612367630005,-1.6812435589232386,-2.5267587343799036,2.2819456297108154,-1.0175483862506312,0.25461575388908386
1708438001.9144852,-1.1061360836029053,-1.6812221012511195,-2.5267797152148646,2.2818924623676757,-1.0175159613238733,0.25462326407432556
1708438001.916493,-1.1061033010482788,-1.6812502346434535,-2.5267468134509485,2.281871958369873,-1.0175603071795862,0.2546277344226837
1708438001.9185052,-1.106110692024231,-1.681230207482809,-2.5268123785602015,2.281904383296631,-1.017536465321676,0.2546232342720032
1708438001.9205163,-1.1060868501663208,-1.681230207482809,-2.5267513434039515,2.2818543153950195,-1.0175073782550257,0.2546527087688446
1708438001.9225335,-1.1061077117919922,-1.6812545261778773,-2.5267258326159876,2.281949444408081,-1.0175278822528284,0.2545653283596039
1708438001.924513,-1.1061152219772339,-1.6812178097166957,-2.5267751852618616,2.2819294172474365,-1.0175398031817835,0.2545991539955139
1708438001.9265006,-1.1061359643936157,-1.6812387905516566,-2.5268078486071985,2.281949444408081,-1.017552677785055,0.254578560590744
1708438001.9285088,-1.1060987710952759,-1.6812178097166957,-2.5267677942859095,2.2818643289753417,-1.0175688902484339,0.25458595156669617
1708438001.930513,-1.1060616970062256,-1.6812178097166957,-2.5267797152148646,2.2818469244190673,-1.0175569693194788,0.254643976688385
1708438001.932524,-1.106177568435669,-1.681176324883932,-2.5267797152148646,2.281916304225586,-1.0175440947162073,0.25457409024238586
1708438001.9345026,-1.1060824394226074,-1.6811806164183558,-2.526733462010519,2.281855745906494,-1.01756459871401,0.25462329387664795
1708438001.9365258,-1.1061033010482788,-1.681230207482809,-2.5267558733569544,2.281855745906494,-1.0175440947162073,0.2545948028564453
1708438001.938487,-1.1061687469482422,-1.681176324883932,-2.5267677942859095,2.2819132047840576,-1.017585579548971,0.25457853078842163
1708438001.9404802,-1.1061404943466187,-1.6812416515746058,-2.5267391840564173,2.2818643289753417,-1.0175440947162073,0.25456222891807556
1708438001.9424875,-1.106083869934082,-1.6812416515746058,-2.5267558733569544,2.2819132047840576,-1.0175159613238733,0.25461140275001526
1708438001.9445035,-1.1060987710952759,-1.6812478504576625,-2.5267632643329065,2.2818381029316406,-1.0175321737872522,0.2545991539955139
1708438001.9465091,-1.1061315536499023,-1.6812387905516566,-2.5267468134509485,2.281839295024536,-1.0175440947162073,0.25461578369140625
1708438001.9485013,-1.1061359643936157,-1.6812416515746058,-2.5267513434039515,2.2818869787403564,-1.0175321737872522,0.2546035349369049
1708438001.9505277,-1.1060988903045654,-1.681209226647848,-2.526781145726339,2.2818924623676757,-1.0175321737872522,0.25462639331817627
1708438001.9525127,-1.1061240434646606,-1.681209226647848,-2.5267184416400355,2.2818750578114013,-1.0175321737872522,0.25463953614234924
1708438001.9545274,-1.1060749292373657,-1.6812459431090296,-2.5267184416400355,2.2818848329731445,-1.0175440947162073,0.25463515520095825
1708438001.9565377,-1.1061196327209473,-1.681230207482809,-2.526694122944967,2.281904383296631,-1.017524544392721,0.2546483874320984
1708438001.9585197,-1.1061686277389526,-1.6812459431090296,-2.52667481104006,2.281888170833252,-1.0175493399249476,0.2546232342720032
1708438001.960479,-1.1061166524887085,-1.6812135181822718,-2.526641909276144,2.281848116511963,-1.0175045172320765,0.25459036231040955
1708438001.9625068,-1.1061240434646606,-1.6811934910216273,-2.5266626516925257,2.2818848329731445,-1.017552677785055,0.25461578369140625
1708438001.964505,-1.1061434745788574,-1.6812063656248988,-2.5266597906695765,2.281900091762207,-1.0175202528582972,0.25457853078842163
1708438001.9665186,-1.1061524152755737,-1.6812216244139613,-2.5266760031329554,2.2818924623676757,-1.0175440947162073,0.2546026110649109
1708438001.9684978,-1.106066107749939,-1.6811934910216273,-2.526646439229147,2.281928225154541,-1.0175560156451624,0.25462770462036133
1708438001.9704928,-1.1061359643936157,-1.681237360040182,-2.5266147295581263,2.2819077211567382,-1.0175321737872522,0.2545490562915802
1708438001.972507,-1.1061315536499023,-1.6811977825560511,-2.5266805330859583,2.281888170833252,-1.017524544392721,0.25459036231040955
1708438001.9744933,-1.1060987710952759,-1.6812745533385218,-2.5266431013690394,2.28186742841687,-1.017552677785055,0.25458288192749023
1708438001.9765077,-1.1061404943466187,-1.681258340875143,-2.5266342798816126,2.2818631368824462,-1.0175202528582972,0.2546069622039795
1708438001.9785032,-1.1061493158340454,-1.681291242639059,-2.5266597906695765,2.281867666835449,-1.017585579548971,0.2545653283596039
1708438001.9805083,-1.1061152219772339,-1.6812674007811488,-2.5266881624804896,2.2818795877644042,-1.017524544392721,0.25462770462036133
1708438001.9825277,-1.1061121225357056,-1.6812135181822718,-2.5266013781176966,2.281904383296631,-1.017585579548971,0.2545982301235199
1708438001.9844966,-1.106095790863037,-1.681204458276266,-2.5266640822040003,2.281871958369873,-1.017585579548971,0.2545948028564453
1708438001.986526,-1.1061285734176636,-1.6812001667418421,-2.5266671816455286,2.281883879298828,-1.0175321737872522,0.2546364367008209
1708438001.9885135,-1.1060868501663208,-1.6812416515746058,-2.5266805330859583,2.281888170833252,-1.0175569693194788,0.25458163022994995
1708438001.9905064,-1.1060913801193237,-1.6812168560423792,-2.5266972223864954,2.281916304225586,-1.0175440947162073,0.25461140275001526
1708438001.9925256,-1.1061152219772339,-1.6812626324095667,-2.5266760031329554,2.2819077211567382,-1.0175483862506312,0.2546100616455078
1708438001.9944935,-1.106110692024231,-1.681225915948385,-2.5266507307635706,2.2819456297108154,-1.0175398031817835,0.25461888313293457
1708438001.996478,-1.1061077117919922,-1.6812659702696742,-2.5266552607165735,2.2819205957600097,-1.0175159613238733,0.2546517848968506
1708438001.9985054,-1.1061656475067139,-1.6811801395811976,-2.5266507307635706,2.2818967539020996,-1.0175321737872522,0.2546026110649109
1708438002.0005035,-1.1060987710952759,-1.6812344990172328,-2.5266838709460657,2.281855507487915,-1.0174997488604944,0.2545982301235199
1708438002.0024955,-1.1060585975646973,-1.6811887226500453,-2.5266881624804896,2.281888170833252,-1.0175450483905237,0.25459036231040955
1708438002.0044887,-1.1061240434646606,-1.681230207482809,-2.5266626516925257,2.2819205957600097,-1.0175321737872522,0.25461140275001526
1708438002.006496,-1.1060987710952759,-1.6812416515746058,-2.5266385714160364,2.281871958369873,-1.0175407568561,0.2545948028564453
1708438002.0084898,-1.1061524152755737,-1.6812879047789515,-2.5266431013690394,2.281932516688965,-1.0175321737872522,0.25456222891807556
1708438002.0105307,-1.1061404943466187,-1.6812836132445277,-2.5266671816455286,2.281895800227783,-1.0175202528582972,0.25461578369140625
1708438002.0125256,-1.1061285734176636,-1.681263109246725,-2.526646439229147,2.2818795877644042,-1.0175040403949183,0.25461888313293457
1708438002.0145159,-1.1061077117919922,-1.6812125645079554,-2.5266431013690394,2.281895800227783,-1.0175483862506312,0.25461888313293457
1708438002.0165198,-1.106095790863037,-1.6812793217101039,-2.5266297499286097,2.281873865718506,-1.0175569693194788,0.2545982301235199
1708438002.0185273,-1.1060659885406494,-1.681258340875143,-2.5266476313220423,2.281895800227783,-1.0175116697894495,0.25462770462036133
1708438002.0205078,-1.1061240434646606,-1.6811887226500453,-2.5267046133624476,2.281895800227783,-1.017552677785055,0.25461140275001526
1708438002.0225554,-1.1060749292373657,-1.681204458276266,-2.5266881624804896,2.2818795877644042,-1.0175440947162073,0.25461888313293457
1708438002.0245018,-1.1061196327209473,-1.6811844311156214,-2.526641909276144,2.281895800227783,-1.017536465321676,0.25463080406188965
1708438002.0264885,-1.106095790863037,-1.681286474267477,-2.5266552607165735,2.281895800227783,-1.0175483862506312,0.25461140275001526
1708438002.0284956,-1.1061240434646606,-1.681209226647848,-2.5266626516925257,2.2818915086933593,-1.017508331929342,0.25464296340942383
1708438002.0305107,-1.1061196327209473,-1.681237360040182,-2.526658360158102,2.2818631368824462,-1.0175040403949183,0.2546561360359192
1708438002.0325139,-1.1061315536499023,-1.6812216244139613,-2.526646439229147,2.2819251257130126,-1.0175774733172815,0.2545948028564453
1708438002.0345135,-1.1061315536499023,-1.6812745533385218,-2.5267046133624476,2.281895800227783,-1.0175688902484339,0.2546069324016571
1708438002.0364778,-1.1061315536499023,-1.6812550030150355,-2.526646439229147,2.281912012691162,-1.017552677785055,0.2546277344226837
1708438002.0385022,-1.1061151027679443,-1.6812330685057582,-2.526641909276144,2.281900091762207,-1.0175202528582972,0.2546069622039795
1708438002.0405064,-1.1060868501663208,-1.681225915948385,-2.5266717115985315,2.281928225154541,-1.0175483862506312,0.25463515520095825
1708438002.0424979,-1.1061768531799316,-1.681230207482809,-2.526646439229147,2.2819413381763916,-1.0175159613238733,0.2545982301235199
1708438002.0445113,-1.1061598062515259,-1.681270261804098,-2.5266507307635706,2.2819370466419677,-1.017524544392721,0.2546026110649109
1708438002.0464928,-1.1061315536499023,-1.681291242639059,-2.5266552607165735,2.281961365337036,-1.0175159613238733,0.2545982301235199
1708438002.0484772,-1.106122612953186,-1.6812502346434535,-2.526679340993063,2.2818469244190673,-1.0175483862506312,0.254610151052475
1708438002.0504982,-1.1060943603515625,-1.681291242639059,-2.5267046133624476,2.2819525438496093,-1.0175202528582972,0.2545534074306488
1708438002.0525124,-1.1061033010482788,-1.6812497578062953,-2.5266552607165735,2.281900091762207,-1.017552677785055,0.2545982301235199
1708438002.0544925,-1.1060824394226074,-1.6812330685057582,-2.5266552607165735,2.2818705278583984,-1.017536465321676,0.2545991539955139
1708438002.0564847,-1.1061478853225708,-1.6812330685057582,-2.5266507307635706,2.281895800227783,-1.0175898710833948,0.25461891293525696
1708438002.0584915,-1.106127142906189,-1.6812569103636683,-2.5266266504870813,2.281912012691162,-1.0175407568561,0.2545948028564453
1708438002.0604854,-1.1061643362045288,-1.6812416515746058,-2.5266507307635706,2.281945152873657,-1.0175569693194788,0.254648357629776
1708438002.062479,-1.1061135530471802,-1.6812659702696742,-2.5266881624804896,2.28190199911084,-1.017536465321676,0.2546026110649109
1708438002.0644822,-1.1061724424362183,-1.681225915948385,-2.5266760031329554,2.2819525438496093,-1.0175483862506312,0.25462770462036133
1708438002.066489,-1.106122612953186,-1.6812283001341761,-2.5266717115985315,2.281945152873657,-1.0175688902484339,0.25461140275001526
1708438002.0685058,-1.106139063835144,-1.6812168560423792,-2.526646439229147,2.281923933620117,-1.0175278822528284,0.25457853078842163
1708438002.0705125,-1.1061931848526,-1.681230207482809,-2.5266717115985315,2.2819408613392334,-1.017552677785055,0.2546026110649109
1708438002.0724947,-1.1061135530471802,-1.6812416515746058,-2.5266671816455286,2.2819971281239013,-1.017552677785055,0.25459039211273193
1708438002.0744908,-1.106101632118225,-1.6812416515746058,-2.5266597906695765,2.2819077211567382,-1.0175483862506312,0.25464391708374023
1708438002.076486,-1.106139063835144,-1.681270261804098,-2.5266717115985315,2.2819644647785644,-1.0175202528582972,0.25457853078842163
1708438002.0784981,-1.1061344146728516,-1.6812330685057582,-2.5266838709460657,2.2819570738026123,-1.0175483862506312,0.2545652985572815
1708438002.0804975,-1.10615074634552,-1.681230207482809,-2.5266838709460657,2.281965895290039,-1.0175483862506312,0.25459036231040955
1708438002.082499,-1.106209635734558,-1.681225915948385,-2.5266760031329554,2.2819408613392334,-1.017552677785055,0.2545608878135681
1708438002.084494,-1.106197714805603,-1.6812330685057582,-2.5267046133624476,2.2819363313862304,-1.0175440947162073,0.2545829117298126
1708438002.0865636,-1.10615074634552,-1.681237360040182,-2.5266252199756067,2.2819062906452636,-1.0175898710833948,0.2545696496963501
1708438002.0884907,-1.1061179637908936,-1.681204458276266,-2.526707712803976,2.2818900781818847,-1.0175483862506312,0.2546277344226837
1708438002.0905018,-1.1061813831329346,-1.6812626324095667,-2.526646439229147,2.2819852071949462,-1.017585579548971,0.254615843296051
1708438002.0924861,-1.1061797142028809,-1.681230207482809,-2.5266881624804896,2.28192321836438,-1.017512623463766,0.2545991837978363
1708438002.0944836,-1.1061553955078125,-1.6812745533385218,-2.52667481104006,2.2819408613392334,-1.0175483862506312,0.2545948028564453
1708438002.0964763,-1.10615074634552,-1.681225915948385,-2.5267372767077845,2.281919403667114,-1.0175278822528284,0.25457850098609924
1708438002.0985043,-1.1061553955078125,-1.6812416515746058,-2.526679340993063,2.2819408613392334,-1.0175202528582972,0.2545872628688812
1708438002.1004956,-1.10615074634552,-1.6812387905516566,-2.526695791875021,2.28192321836438,-1.0175688902484339,0.25458285212516785
1708438002.1024873,-1.1062140464782715,-1.6812502346434535,-2.5267120043383997,2.2820133405872802,-1.0174997488604944,0.25457096099853516
1708438002.1045287,-1.1061633825302124,-1.6812344990172328,-2.5266881624804896,2.281958981151245,-1.0175398031817835,0.25453367829322815
1708438002.1064913,-1.1062260866165161,-1.6812669239439906,-2.526645008717672,2.281963511104248,-1.0175398031817835,0.25458288192749023
1708438002.1085033,-1.1062215566635132,-1.6811677418150843,-2.526715103779928,2.2819852071949462,-1.0175440947162073,0.25457528233528137
1708438002.1104825,-1.1061960458755493,-1.6812545261778773,-2.5267329851733606,2.281975432033203,-1.01756459871401,0.25458723306655884
1708438002.1124995,-1.1062215566635132,-1.6812135181822718,-2.526691261922018,2.2820002275654296,-1.0175159613238733,0.25452932715415955
1708438002.1145184,-1.1062288284301758,-1.6812502346434535,-2.526703182850973,2.2820164400288085,-1.0175030867206019,0.25456660985946655
1708438002.1164868,-1.1062169075012207,-1.6812502346434535,-2.5267284552203577,2.2820603090473632,-1.0175483862506312,0.25456348061561584
1708438002.1184855,-1.1062079668045044,-1.681209226647848,-2.5266626516925257,2.282010956401489,-1.0176013151751917,0.25455036759376526
1708438002.1205008,-1.1061707735061646,-1.6812955341734828,-2.526665989552633,2.282073660487793,-1.0175321737872522,0.25456658005714417
1708438002.1225028,-1.1062124967575073,-1.6812502346434535,-2.5267000834094446,2.2820398050495605,-1.0175841490374964,0.2545459568500519
1708438002.1245146,-1.1061872243881226,-1.6811958752074183,-2.526703182850973,2.2820841509052734,-1.0175684134112757,0.2545960545539856
1708438002.1264951,-1.1062288284301758,-1.681230207482809,-2.526740614567892,2.2820755678364257,-1.0175970236407679,0.2545590400695801
1708438002.1284826,-1.1061887741088867,-1.6811934910216273,-2.5267284552203577,2.282087488765381,-1.0175884405719202,0.25457534193992615
1708438002.1304963,-1.106248140335083,-1.681209226647848,-2.526670519505636,2.282054825420044,-1.0175517241107386,0.2546035349369049
1708438002.1325197,-1.1061872243881226,-1.681225915948385,-2.526719633732931,2.282121105785034,-1.0175560156451624,0.25453805923461914
1708438002.1345232,-1.106215476989746,-1.681209226647848,-2.5267120043383997,2.2821122842976074,-1.0175440947162073,0.2545054256916046
1708438002.136552,-1.106256365776062,-1.6812049351134242,-2.5267000834094446,2.2820798593708496,-1.0175727049456995,0.25456786155700684
1708438002.1385143,-1.1062437295913696,-1.6812416515746058,-2.526715103779928,2.2820603090473632,-1.0175355116473597,0.25454241037368774
1708438002.1404974,-1.1062697172164917,-1.681225915948385,-2.5267165342914026,2.282054825420044,-1.0175727049456995,0.2545468807220459
1708438002.1425014,-1.1062273979187012,-1.6812836132445277,-2.526682202016012,2.2821122842976074,-1.0175483862506312,0.2545349597930908
1708438002.1445,-1.1062393188476562,-1.6812836132445277,-2.526731793080465,2.282121105785034,-1.0175970236407679,0.25448575615882874
1708438002.1464872,-1.1062273979187012,-1.6812216244139613,-2.526719633732931,2.282059355373047,-1.0175440947162073,0.25456348061561584
1708438002.1485167,-1.1062363386154175,-1.6812502346434535,-2.526691261922018,2.2820722299763183,-1.0176013151751917,0.25452613830566406
1708438002.150485,-1.1062273979187012,-1.681237360040182,-2.526653830205099,2.2820841509052734,-1.0175603071795862,0.25452739000320435
1708438002.1525025,-1.1062182188034058,-1.6812344990172328,-2.5267558733569544,2.282059355373047,-1.0175603071795862,0.25451868772506714
1708438002.15449,-1.1062653064727783,-1.6812459431090296,-2.526748005543844,2.2821003633686523,-1.0175769964801233,0.2545405924320221
1708438002.1564822,-1.1062183380126953,-1.681237360040182,-2.526677910481588,2.282088442439697,-1.0175603071795862,0.25450336933135986
1708438002.1585097,-1.1062065362930298,-1.681225915948385,-2.5267062822925013,2.2820755678364257,-1.0176013151751917,0.25447824597358704
1708438002.1605031,-1.1062363386154175,-1.6812659702696742,-2.5267303625689905,2.2820960718342285,-1.0175684134112757,0.2544901371002197
1708438002.1625078,-1.1061766147613525,-1.681258340875143,-2.5267601648913782,2.2821411329456787,-1.0176008383380335,0.2544989585876465
1708438002.1644993,-1.1062726974487305,-1.6812497578062953,-2.5267751852618616,2.2821037012287597,-1.0175841490374964,0.25450772047042847
1708438002.1664994,-1.1063143014907837,-1.6812459431090296,-2.5267885367022913,2.282099171275757,-1.017571274434225,0.25447070598602295
1708438002.1684992,-1.1062607765197754,-1.6812502346434535,-2.52683669725527,2.2820755678364257,-1.017587963734762,0.2545032799243927
1708438002.170535,-1.106256365776062,-1.681254049340719,-2.526757303868429,2.2820309835621337,-1.0176170508014124,0.2544553875923157
1708438002.1725247,-1.106256365776062,-1.6812669239439906,-2.526724640523092,2.2821168142506103,-1.0176051298724573,0.25445446372032166
1708438002.174507,-1.1062473058700562,-1.6812416515746058,-2.5267916361438196,2.282066746348999,-1.0175440947162073,0.2545033097267151
1708438002.176523,-1.1061902046203613,-1.681204458276266,-2.52682334581484,2.2821122842976074,-1.0175483862506312,0.2544707655906677
1708438002.1785097,-1.106279969215393,-1.6812502346434535,-2.526856009160177,2.2820960718342285,-1.0175569693194788,0.2545199394226074
1708438002.1805017,-1.1062363386154175,-1.6812416515746058,-2.5268145243274134,2.282059355373047,-1.0175727049456995,0.25449138879776
1708438002.1825247,-1.1062302589416504,-1.6812001667418421,-2.52682334581484,2.282099171275757,-1.0175560156451624,0.25445446372032166
1708438002.1845071,-1.106256365776062,-1.6811887226500453,-2.526818815861837,2.282087488765381,-1.01756459871401,0.25440964102745056
1708438002.1865811,-1.106209397315979,-1.6812387905516566,-2.52682334581484,2.28202669202771,-1.0175483862506312,0.25450021028518677
1708438002.1884818,-1.1062592267990112,-1.6812178097166957,-2.5268471876727503,2.2820960718342285,-1.0175483862506312,0.2544707655906677
1708438002.190497,-1.1062437295913696,-1.6812502346434535,-2.526806894932882,2.282082958812378,-1.017524544392721,0.2544870376586914
1708438002.1924763,-1.1062346696853638,-1.6812178097166957,-2.526856009160177,2.2821079927631835,-1.017552677785055,0.25449138879776
1708438002.1944876,-1.1062109470367432,-1.6812716923155726,-2.5268026033984583,2.2820755678364257,-1.0175483862506312,0.2544882893562317
1708438002.196487,-1.1062517166137695,-1.6812354526915492,-2.52682334581484,2.2820960718342285,-1.0175603071795862,0.25450894236564636
1708438002.1984959,-1.1062393188476562,-1.6811734638609828,-2.526827875767843,2.2821122842976074,-1.01756459871401,0.25446638464927673
1708438002.2005014,-1.1062427759170532,-1.681230207482809,-2.526848618184225,2.282120628947876,-1.0175641218768519,0.2544378936290741
1708438002.2025385,-1.1062771081924438,-1.6812502346434535,-2.526799027119772,2.282071276302002,-1.0175517241107386,0.2544422149658203
1708438002.2044861,-1.106256365776062,-1.6812283001341761,-2.526827875767843,2.282087488765381,-1.0176094214068812,0.2544839382171631
1708438002.2065194,-1.1062257289886475,-1.681230207482809,-2.526815954838888,2.2821079927631835,-1.0176170508014124,0.25445884466171265
1708438002.208485,-1.1062592267990112,-1.681209226647848,-2.526815954838888,2.282120628947876,-1.0175922552691858,0.2544553875923157
1708438002.2105157,-1.1062229871749878,-1.6812216244139613,-2.52682334581484,2.2820755678364257,-1.0175955931292933,0.25446319580078125
1708438002.2125013,-1.1062935590744019,-1.6812001667418421,-2.5267706553088587,2.282087488765381,-1.017604176198141,0.2544707655906677
1708438002.2145078,-1.106225848197937,-1.6812344990172328,-2.526773754750387,2.2821037012287597,-1.0176203886615198,0.2544882893562317
1708438002.2164981,-1.1062229871749878,-1.681209226647848,-2.526806894932882,2.282090588206909,-1.0176127592669886,0.25442594289779663
1708438002.218529,-1.1062607765197754,-1.6812344990172328,-2.526832405720846,2.2820960718342285,-1.0176246801959437,0.2544184923171997
1708438002.22053,-1.1062393188476562,-1.6812168560423792,-2.526827875767843,2.282094879741333,-1.0176571051227015,0.25443029403686523
1708438002.2225165,-1.1062607765197754,-1.681270261804098,-2.5268035570727747,2.2820917802998046,-1.0175474325763147,0.2544465959072113
1708438002.2245014,-1.1062771081924438,-1.681225915948385,-2.5267825762378138,2.2821530538746337,-1.0176246801959437,0.2544926702976227
1708438002.226517,-1.1062473058700562,-1.6812135181822718,-2.52682334581484,2.282038612956665,-1.017559830342428,0.2545120418071747
1708438002.228539,-1.106256365776062,-1.6812745533385218,-2.526820246373312,2.282066746348999,-1.017585579548971,0.254467636346817
1708438002.2305458,-1.106268048286438,-1.6812416515746058,-2.526827875767843,2.2820917802998046,-1.017613712941305,0.25445103645324707
1708438002.2325253,-1.1062437295913696,-1.681225915948385,-2.5268035570727747,2.2820960718342285,-1.0175841490374964,0.2544794976711273
1708438002.234509,-1.1062517166137695,-1.6812497578062953,-2.526806894932882,2.2821037012287597,-1.0175474325763147,0.25447511672973633
1708438002.236507,-1.106296420097351,-1.681254049340719,-2.52682334581484,2.2820753294178466,-1.0176084677325647,0.2544303238391876
1708438002.2385075,-1.1062427759170532,-1.6811830006041468,-2.5267768541919153,2.282128019923828,-1.0176170508014124,0.2544422149658203
1708438002.240499,-1.1062473058700562,-1.6812502346434535,-2.526827637349264,2.282034083003662,-1.017599884663717,0.25445884466171265
1708438002.2424982,-1.106256365776062,-1.6812344990172328,-2.526827875767843,2.282144232387207,-1.0176127592669886,0.2544110119342804
1708438002.2444997,-1.1062771081924438,-1.6812221012511195,-2.526790205632345,2.282099171275757,-1.0176451841937464,0.2544465661048889
1708438002.2465107,-1.1062346696853638,-1.681237360040182,-2.5268247763263147,2.2820917802998046,-1.0176084677325647,0.2544839680194855
1708438002.2485428,-1.106305480003357,-1.6812416515746058,-2.526799027119772,2.2821079927631835,-1.0176246801959437,0.254472017288208
1708438002.2505066,-1.1062229871749878,-1.681230207482809,-2.526799027119772,2.282116098994873,-1.0176246801959437,0.2543976902961731
1708438002.2524664,-1.106279969215393,-1.681258340875143,-2.526839796696798,2.2820591169544677,-1.01764423051943,0.25443026423454285
1708438002.2545052,-1.106284499168396,-1.6812626324095667,-2.526848618184225,2.2821249204822998,-1.017566982899801,0.25445103645324707
1708438002.2565088,-1.106213927268982,-1.6812788448729457,-2.526820246373312,2.282087488765381,-1.0176528135882776,0.2544676959514618
1708438002.2584887,-1.1062726974487305,-1.6813041172423304,-2.52683669725527,2.2821079927631835,-1.017599884663717,0.25445103645324707
1708438002.260489,-1.1062772274017334,-1.6812216244139613,-2.526815954838888,2.2820798593708496,-1.0176332632647913,0.25450459122657776
1708438002.2624874,-1.1062346696853638,-1.681225915948385,-2.52682334581484,2.282071276302002,-1.0175884405719202,0.25443026423454285
1708438002.2644875,-1.106279969215393,-1.6812216244139613,-2.526818815861837,2.2821411329456787,-1.0176127592669886,0.2544664442539215
1708438002.2664833,-1.1062517166137695,-1.6812135181822718,-2.526785675679342,2.282087488765381,-1.0175922552691858,0.2544465959072113
1708438002.2684782,-1.1062755584716797,-1.6812344990172328,-2.526832167302267,2.282038612956665,-1.0176203886615198,0.2544839084148407
1708438002.2705152,-1.1062517166137695,-1.6812716923155726,-2.526815954838888,2.282120628947876,-1.0176170508014124,0.2544839084148407
1708438002.2725108,-1.1062755584716797,-1.6812502346434535,-2.526818815861837,2.282066746348999,-1.0175684134112757,0.254439115524292
1708438002.2745082,-1.1062346696853638,-1.6812178097166957,-2.526844088231222,2.282111807460449,-1.0176008383380335,0.254439115524292
1708438002.276512,-1.1062592267990112,-1.681225915948385,-2.526856009160177,2.2820636469074707,-1.0176008383380335,0.25439777970314026
1708438002.278513,-1.106279969215393,-1.6811934910216273,-2.526773754750387,2.2821079927631835,-1.017599884663717,0.25447946786880493
1708438002.2805412,-1.1062393188476562,-1.6812502346434535,-2.526818815861837,2.282082958812378,-1.0176084677325647,0.2544465959072113
1708438002.2824943,-1.1062302589416504,-1.6812168560423792,-2.526839796696798,2.282087488765381,-1.0176375547992151,0.2544478476047516
1708438002.284531,-1.1062636375427246,-1.681209226647848,-2.526757303868429,2.2821122842976074,-1.0176203886615198,0.25446319580078125
1708438002.2865252,-1.106284499168396,-1.6812387905516566,-2.526848618184225,2.2821122842976074,-1.017599884663717,0.2544763684272766
1708438002.288512,-1.1062427759170532,-1.6812135181822718,-2.526853148137228,2.2820960718342285,-1.017604176198141,0.25446322560310364
1708438002.290501,-1.1063023805618286,-1.681225915948385,-2.526844088231222,2.282059355373047,-1.017616097127096,0.2544676661491394
1708438002.2924976,-1.1062517166137695,-1.6812459431090296,-2.526782814656393,2.2820474344440917,-1.017604176198141,0.254439115524292
1708438002.2944825,-1.1062473058700562,-1.681181093255514,-2.526790205632345,2.2820755678364257,-1.0175836722003382,0.25445884466171265
1708438002.2964761,-1.106268048286438,-1.681225915948385,-2.526799027119772,2.2820917802998046,-1.0176237265216272,0.25446411967277527
1708438002.2984974,-1.1062183380126953,-1.6811806164183558,-2.52683669725527,2.282111807460449,-1.0176528135882776,0.25445976853370667
1708438002.3004887,-1.106221318244934,-1.681225915948385,-2.526799027119772,2.2821037012287597,-1.0176733175860804,0.2544347643852234
1708438002.3024995,-1.1062636375427246,-1.681270261804098,-2.52682334581484,2.2820917802998046,-1.01764423051943,0.25446319580078125
1708438002.3044863,-1.1062726974487305,-1.681270261804098,-2.5267871061908167,2.282164974803589,-1.0176928679095667,0.2544970214366913
1708438002.3064818,-1.1063008308410645,-1.6811887226500453,-2.5268247763263147,2.2820917802998046,-1.0176313559161585,0.25445103645324707
1708438002.308524,-1.1062383651733398,-1.681303163568014,-2.5268033186541956,2.282111807460449,-1.0176690260516565,0.2544347643852234
1708438002.3105204,-1.106213927268982,-1.6812416515746058,-2.52683669725527,2.2821037012287597,-1.0176118055926722,0.2544465959072113
1708438002.3125591,-1.1062636375427246,-1.6812216244139613,-2.526820246373312,2.2821122842976074,-1.0176528135882776,0.25446319580078125
1708438002.3145065,-1.1062711477279663,-1.6812502346434535,-2.526811424885885,2.282099171275757,-1.017632309590475,0.25450021028518677
1708438002.3164954,-1.1062726974487305,-1.6812502346434535,-2.526785675679342,2.2821037012287597,-1.017587963734762,0.2544421851634979
1708438002.318485,-1.1062517166137695,-1.681230207482809,-2.526827875767843,2.282042904491089,-1.0176408926593226,0.2544882893562317
1708438002.3205132,-1.106256365776062,-1.6812745533385218,-2.526848618184225,2.2821037012287597,-1.017616097127096,0.25447946786880493
1708438002.3226135,-1.1062607765197754,-1.681202074090475,-2.5268738905536097,2.282116098994873,-1.0176451841937464,0.254467636346817
1708438002.3245106,-1.1062437295913696,-1.6812216244139613,-2.526790205632345,2.282059355373047,-1.017632309590475,0.25447073578834534
1708438002.3265324,-1.1062273979187012,-1.6811853847899378,-2.5268099943744105,2.2820917802998046,-1.0176485220538538,0.2544465959072113
1708438002.3285282,-1.1062517166137695,-1.6812178097166957,-2.526769463215963,2.2821037012287597,-1.0175965468036097,0.2544347643852234
1708438002.3305223,-1.1062302589416504,-1.6812788448729457,-2.5268078486071985,2.282136841411255,-1.0176733175860804,0.25445976853370667
1708438002.3325505,-1.1062273979187012,-1.6812459431090296,-2.526794497166769,2.282125397319458,-1.0176408926593226,0.25443339347839355
1708438002.3344944,-1.1062393188476562,-1.6811806164183558,-2.526790205632345,2.2821292120167236,-1.0176127592669886,0.254439115524292
1708438002.3365226,-1.1062860488891602,-1.681258340875143,-2.52686053911318,2.282087488765381,-1.0176332632647913,0.2544882893562317
1708438002.3385537,-1.1062363386154175,-1.6812330685057582,-2.526832167302267,2.2820960718342285,-1.0175793806659144,0.2544465661048889
1708438002.340544,-1.1062229871749878,-1.6812502346434535,-2.52682334581484,2.2821037012287597,-1.0175836722003382,0.254472017288208
1708438002.342493,-1.1062755584716797,-1.6811977825560511,-2.526811424885885,2.2820917802998046,-1.0176203886615198,0.25446319580078125
1708438002.3444953,-1.1062302589416504,-1.6812836132445277,-2.526790205632345,2.2821079927631835,-1.0176604429828089,0.25441843271255493
1708438002.346516,-1.1062273979187012,-1.681209226647848,-2.526794497166769,2.2820755678364257,-1.0176203886615198,0.2544870376586914
1708438002.3484886,-1.1062183380126953,-1.681230207482809,-2.526832167302267,2.282038612956665,-1.0176408926593226,0.254434734582901
1708438002.3504744,-1.106256365776062,-1.6812344990172328,-2.526806894932882,2.2821006017872314,-1.0176246801959437,0.2544347643852234
1708438002.3525314,-1.1062607765197754,-1.6812626324095667,-2.526827875767843,2.2820591169544677,-1.017632309590475,0.25445881485939026
1708438002.3544905,-1.1062020063400269,-1.681209226647848,-2.5267871061908167,2.2820679384418945,-1.017632309590475,0.254443496465683
1708438002.3565,-1.1062726974487305,-1.681254049340719,-2.526815954838888,2.2820841509052734,-1.017632309590475,0.2544839680194855
1708438002.3584852,-1.106284499168396,-1.6812178097166957,-2.526806894932882,2.2820960718342285,-1.0176118055926722,0.2544914186000824
1708438002.3604908,-1.1062273979187012,-1.6812626324095667,-2.526806894932882,2.2820636469074707,-1.0176656881915491,0.254467636346817
1708438002.362497,-1.1062273979187012,-1.6812659702696742,-2.526799027119772,2.282087488765381,-1.017616097127096,0.25450021028518677
1708438002.364485,-1.1062273979187012,-1.6812344990172328,-2.526820246373312,2.282109184856079,-1.0176408926593226,0.25440651178359985
1708438002.3665457,-1.106268048286438,-1.6812430820860804,-2.5267706553088587,2.282082958812378,-1.01764423051943,0.25445103645324707
1708438002.3684916,-1.1062607765197754,-1.6812459431090296,-2.526761833821432,2.2821037012287597,-1.0176194349872034,0.2544957995414734
1708438002.370532,-1.1062482595443726,-1.6812216244139613,-2.526865069066183,2.282088442439697,-1.0175836722003382,0.25445881485939026
1708438002.372552,-1.1062393188476562,-1.6812178097166957,-2.526806894932882,2.2820679384418945,-1.017616097127096,0.25446319580078125
1708438002.3745077,-1.1062229871749878,-1.681230207482809,-2.526773754750387,2.2820841509052734,-1.0175836722003382,0.2544228434562683
1708438002.3765469,-1.106289029121399,-1.6812330685057582,-2.526848618184225,2.2820517259785156,-1.0176084677325647,0.25445443391799927
1708438002.3785017,-1.1062651872634888,-1.681230207482809,-2.526832167302267,2.2820679384418945,-1.0176690260516565,0.25445103645324707
1708438002.3804967,-1.1062681674957275,-1.681225915948385,-2.5268078486071985,2.2820679384418945,-1.0176203886615198,0.25452539324760437
1708438002.38251,-1.1062005758285522,-1.6812502346434535,-2.5267706553088587,2.2821337419697265,-1.0176366011248987,0.25450029969215393
1708438002.3845146,-1.106213927268982,-1.6812049351134242,-2.526794497166769,2.2821003633686523,-1.0176203886615198,0.2544957995414734
1708438002.3866155,-1.1062018871307373,-1.6812001667418421,-2.526832405720846,2.2821037012287597,-1.0176366011248987,0.25439324975013733
1708438002.388504,-1.1062346696853638,-1.681258340875143,-2.5267825762378138,2.282111807460449,-1.017632309590475,0.2544422447681427
1708438002.3904908,-1.1062482595443726,-1.6812955341734828,-2.526794497166769,2.282066746348999,-1.0176084677325647,0.2544826567173004
1708438002.3924782,-1.1062110662460327,-1.6812344990172328,-2.526811424885885,2.282034083003662,-1.0176366011248987,0.254439115524292
1708438002.3945048,-1.1062183380126953,-1.6812387905516566,-2.526844088231222,2.282078667277954,-1.0176203886615198,0.2544794976711273
1708438002.3964746,-1.106256365776062,-1.6812344990172328,-2.5268412272082728,2.2820841509052734,-1.0176246801959437,0.2544794976711273
1708438002.3985004,-1.1062473058700562,-1.681225915948385,-2.5267797152148646,2.2821037012287597,-1.017604176198141,0.2544794976711273
1708438002.400482,-1.1062482595443726,-1.681237360040182,-2.5267916361438196,2.2820355135151367,-1.0175626913653772,0.25445103645324707
1708438002.4025235,-1.1062318086624146,-1.6812063656248988,-2.526749912892477,2.2820636469074707,-1.017604176198141,0.25445881485939026
1708438002.4044962,-1.1062346696853638,-1.6812135181822718,-2.526773754750387,2.2821079927631835,-1.0176246801959437,0.25445106625556946
1708438002.4064934,-1.1062229871749878,-1.6812178097166957,-2.526782814656393,2.2820841509052734,-1.0176170508014124,0.25444215536117554
1708438002.4084907,-1.1062318086624146,-1.681237360040182,-2.5267871061908167,2.2820960718342285,-1.0175755659686487,0.2544839382171631
1708438002.4105284,-1.1062393188476562,-1.6812416515746058,-2.526782814656393,2.282142325038574,-1.017543141041891,0.2545033395290375
1708438002.412556,-1.1062482595443726,-1.6812759838499964,-2.5267871061908167,2.282054825420044,-1.0176008383380335,0.2544677257537842
1708438002.41454,-1.106256365776062,-1.681230207482809,-2.526815954838888,2.282088442439697,-1.0175755659686487,0.2544720768928528
1708438002.416529,-1.1061782836914062,-1.681230207482809,-2.526827637349264,2.282076521510742,-1.0175603071795862,0.2544794976711273
1708438002.4185305,-1.1062363386154175,-1.6812135181822718,-2.5267825762378138,2.282054825420044,-1.017592732106344,0.25445881485939026
1708438002.4205315,-1.1062110662460327,-1.681270261804098,-2.5267797152148646,2.2820474344440917,-1.0175398031817835,0.25445443391799927
1708438002.4225025,-1.1062228679656982,-1.681230207482809,-2.526815954838888,2.282081051463745,-1.0175321737872522,0.2544839680194855
1708438002.4244983,-1.1062273979187012,-1.681254049340719,-2.526799027119772,2.2820767599293212,-1.0175727049456995,0.25447073578834534
1708438002.426503,-1.1062393188476562,-1.6812221012511195,-2.526773754750387,2.282081051463745,-1.017536465321676,0.2544421851634979
1708438002.428506,-1.1062229871749878,-1.6812178097166957,-2.526761833821432,2.2820722299763183,-1.0175483862506312,0.25445008277893066
1708438002.4305193,-1.1062607765197754,-1.6812001667418421,-2.5267751852618616,2.2820278841206054,-1.0175731817828577,0.2544575333595276
1708438002.4324884,-1.1062607765197754,-1.6812626324095667,-2.5268004576312464,2.282121105785034,-1.0175483862506312,0.2545033395290375
1708438002.4345233,-1.1063189506530762,-1.6812836132445277,-2.526794497166769,2.2820517259785156,-1.017592732106344,0.2545033395290375
1708438002.4365022,-1.1062110662460327,-1.6812459431090296,-2.5268035570727747,2.2820603090473632,-1.0175970236407679,0.25443777441978455
1708438002.4384995,-1.106213927268982,-1.681258340875143,-2.526749912892477,2.282022400493286,-1.0175560156451624,0.25451213121414185
1708438002.4404957,-1.1062393188476562,-1.6812135181822718,-2.5267706553088587,2.2820722299763183,-1.0176051298724573,0.25449010729789734
1708438002.4425013,-1.1062393188476562,-1.681237360040182,-2.5267587343799036,2.2820278841206054,-1.0176213423358362,0.2545076906681061
1708438002.4445162,-1.1061782836914062,-1.681230207482809,-2.5267706553088587,2.282054825420044,-1.0175641218768519,0.25447511672973633
1708438002.4464955,-1.1062273979187012,-1.6811958752074183,-2.5267916361438196,2.2820798593708496,-1.01756459871401,0.254487007856369
1708438002.4484906,-1.1062363386154175,-1.6812626324095667,-2.5267425219165247,2.2820235925861816,-1.0175483862506312,0.2545449435710907
1708438002.4504807,-1.1062393188476562,-1.681230207482809,-2.5267587343799036,2.2820235925861816,-1.0175560156451624,0.2545199692249298
1708438002.4525158,-1.1061855554580688,-1.6812178097166957,-2.5267425219165247,2.282064600581787,-1.017592732106344,0.2545570135116577
1708438002.4544883,-1.1062482595443726,-1.681230207482809,-2.5267916361438196,2.2820517259785156,-1.017552677785055,0.2544870376586914
1708438002.4564757,-1.1062065362930298,-1.681209226647848,-2.5268123785602015,2.2820321756550292,-1.0175159613238733,0.2544421851634979
1708438002.4584758,-1.1062228679656982,-1.6812173328795375,-2.526717011128561,2.282129688853882,-1.0175688902484339,0.2545033395290375
1708438002.4604783,-1.1062346696853638,-1.6812178097166957,-2.5267797152148646,2.2820560175129394,-1.0175450483905237,0.254487007856369
1708438002.4624708,-1.1062437295913696,-1.681230207482809,-2.5267916361438196,2.2820841509052734,-1.0175040403949183,0.2545243203639984
1708438002.4644818,-1.1062697172164917,-1.681237360040182,-2.5267706553088587,2.282052918071411,-1.0175331274615687,0.2544826567173004
1708438002.4664848,-1.1062318086624146,-1.681258340875143,-2.5267425219165247,2.2820021349140625,-1.017512623463766,0.2544870674610138
1708438002.4684925,-1.106215476989746,-1.681209226647848,-2.5267632643329065,2.2820233541676025,-1.017508331929342,0.25446635484695435
1708438002.4705095,-1.1062437295913696,-1.6812459431090296,-2.5267303625689905,2.2820278841206054,-1.0175612608539026,0.2544499635696411
1708438002.472547,-1.1061991453170776,-1.6812049351134242,-2.5267558733569544,2.2820440965839843,-1.0175331274615687,0.25446635484695435
1708438002.4745235,-1.1062607765197754,-1.6812135181822718,-2.5267391840564173,2.282015247935913,-1.0174759070025843,0.25452741980552673
1708438002.4765332,-1.1062229871749878,-1.6812178097166957,-2.5267930666552942,2.2820321756550292,-1.017508331929342,0.2545156180858612
1708438002.478527,-1.1062726974487305,-1.6812545261778773,-2.5267346541034144,2.282003565425537,-1.0175169149981897,0.2544737756252289
1708438002.4805121,-1.1061946153640747,-1.6812459431090296,-2.5267227331744593,2.2820440965839843,-1.017463509236471,0.25444555282592773
1708438002.482506,-1.1062482595443726,-1.6811896763243617,-2.526731793080465,2.2820603090473632,-1.0175002256976526,0.2544957995414734
1708438002.484503,-1.1061811447143555,-1.681230207482809,-2.526731793080465,2.282010956401489,-1.0174959341632288,0.2545155882835388
1708438002.486533,-1.1061946153640747,-1.6812416515746058,-2.526740614567892,2.282019777888916,-1.017512623463766,0.2545318901538849
1708438002.4885309,-1.1062318086624146,-1.681230207482809,-2.526715103779928,2.2819740015217285,-1.017473045979635,0.25447818636894226
1708438002.4905257,-1.1062607765197754,-1.681230207482809,-2.5267210642444056,2.2820440965839843,-1.017451588307516,0.2544794976711273
1708438002.492527,-1.106256365776062,-1.6812178097166957,-2.526637379323141,2.282052918071411,-1.0174687544452112,0.25440651178359985
1708438002.4945343,-1.1062273979187012,-1.6812626324095667,-2.526670519505636,2.282007856959961,-1.017451588307516,0.2544720470905304
1708438002.4964852,-1.1062393188476562,-1.681258340875143,-2.5266342798816126,2.2819620805927734,-1.0174558798419397,0.25445541739463806
1708438002.498496,-1.1062273979187012,-1.6812344990172328,-2.5266342798816126,2.281995936031006,-1.0174601713763636,0.2544196546077728
1708438002.5004904,-1.106199026107788,-1.6812216244139613,-2.5267253557788294,2.281991644496582,-1.017480198537008,0.2544196546077728
1708438002.5025282,-1.106191635131836,-1.681258340875143,-2.5266597906695765,2.281991644496582,-1.0175088087665003,0.2543497383594513
1708438002.50448,-1.1061872243881226,-1.681254049340719,-2.5266714731799524,2.282003565425537,-1.0174439589129847,0.25438839197158813
1708438002.5064926,-1.1062018871307373,-1.6812497578062953,-2.5266805330859583,2.2819558817097167,-1.0174644629107874,0.2543315887451172
1708438002.5084877,-1.106209397315979,-1.681230207482809,-2.5266552607165735,2.2820121484943847,-1.0174482504474085,0.2543272078037262
1708438002.5104966,-1.106203556060791,-1.681258340875143,-2.5266597906695765,2.2820045190998535,-1.0174558798419397,0.25425824522972107
1708438002.5125241,-1.106215476989746,-1.681230207482809,-2.5266385714160364,2.2819601732441406,-1.0174654165851038,0.2542847692966461
1708438002.5145144,-1.1062183380126953,-1.681237360040182,-2.5266223589526575,2.2819644647785644,-1.0174525419818323,0.2542116641998291
1708438002.516494,-1.1062393188476562,-1.6812173328795375,-2.5266507307635706,2.2819852071949462,-1.0174568335162562,0.25413864850997925
1708438002.5185232,-1.1062407493591309,-1.6812001667418421,-2.5266059080706995,2.2818988996693115,-1.0174287001239222,0.25410255789756775
1708438002.5204928,-1.1062065362930298,-1.6812330685057582,-2.5266640822040003,2.2819151121326904,-1.017444912587301,0.2541158199310303
1708438002.5225563,-1.1062110662460327,-1.6812416515746058,-2.5266760031329554,2.2819570738026123,-1.017416779194967,0.2540721893310547
1708438002.5245013,-1.1062772274017334,-1.6812125645079554,-2.5266268889056605,2.2819031912037353,-1.017449204121725,0.2539917528629303
1708438002.5265467,-1.106256365776062,-1.6812001667418421,-2.5266838709460657,2.281982107753418,-1.017404858266012,0.2539318799972534
1708438002.5284965,-1.1062482595443726,-1.6812659702696742,-2.5266597906695765,2.281871958369873,-1.0173724333392542,0.2539210021495819
1708438002.5304956,-1.1062482595443726,-1.681237360040182,-2.5266223589526575,2.281928225154541,-1.0174005667315882,0.2537999749183655
1708438002.5325484,-1.1062393188476562,-1.6812330685057582,-2.5266223589526575,2.2819363313862304,-1.0173643271075647,0.25370699167251587
1708438002.5345132,-1.1062363386154175,-1.6812502346434535,-2.5266507307635706,2.2819687563129882,-1.0173729101764124,0.2536068856716156
1708438002.5365262,-1.1061991453170776,-1.6812416515746058,-2.526656452809469,2.2819644647785644,-1.0173524061786097,0.2535065710544586
1708438002.5384877,-1.1062346696853638,-1.6812659702696742,-2.5266671816455286,2.281919403667114,-1.0173481146441858,0.2534344792366028
1708438002.5404737,-1.1062407493591309,-1.6812416515746058,-2.5266507307635706,2.2819852071949462,-1.0174058119403284,0.2533431947231293
1708438002.5425093,-1.1062363386154175,-1.6812216244139613,-2.5266881624804896,2.281919403667114,-1.0173686186419886,0.2532684803009033
1708438002.5444787,-1.1061991453170776,-1.681237360040182,-2.5266597906695765,2.2819570738026123,-1.0173810164081019,0.25318455696105957
1708438002.546497,-1.1062407493591309,-1.681282182733053,-2.5266552607165735,2.281919403667114,-1.0173895994769495,0.25300347805023193
1708438002.5484846,-1.1061782836914062,-1.6812745533385218,-2.526635710393087,2.2819205957600097,-1.0173729101764124,0.2528297007083893
1708438002.5505087,-1.1061872243881226,-1.681237360040182,-2.5266760031329554,2.2819570738026123,-1.0173729101764124,0.2527638077735901
1708438002.5525706,-1.1061618328094482,-1.6812197170653285,-2.526651922856466,2.281867666835449,-1.0173810164081019,0.2525990605354309
1708438002.5544999,-1.1062244176864624,-1.681258340875143,-2.5266016165362757,2.2819031912037353,-1.0173566977130335,0.25244665145874023
1708438002.556501,-1.1061663627624512,-1.6812416515746058,-2.5266760031329554,2.281883879298828,-1.0173481146441858,0.2522953748703003
1708438002.5585206,-1.1062363386154175,-1.6812616787352503,-2.526646439229147,2.281883879298828,-1.0173566977130335,0.25217577815055847
1708438002.56053,-1.1061632633209229,-1.6812745533385218,-2.5266552607165735,2.2819205957600097,-1.0173361937152308,0.2520451843738556
1708438002.5625272,-1.106191635131836,-1.681230207482809,-2.5266311804400843,2.2819363313862304,-1.0173609892474573,0.25190144777297974
1708438002.5645103,-1.1061797142028809,-1.6812745533385218,-2.5266509691821497,2.2818795877644042,-1.0173166433917444,0.2517476975917816
1708438002.5665314,-1.1061991453170776,-1.681326528588766,-2.5266431013690394,2.281857653255127,-1.0173285643206995,0.2515096664428711
1708438002.5685008,-1.1062215566635132,-1.6812945804991664,-2.5266223589526575,2.2819077211567382,-1.0173166433917444,0.2513461410999298
1708438002.5705044,-1.1061254739761353,-1.6812659702696742,-2.5266509691821497,2.2819086748310546,-1.0173447767840784,0.2510722875595093
1708438002.5725489,-1.1061463356018066,-1.6813036404051722,-2.5266266504870813,2.281860037440918,-1.0173166433917444,0.2509271800518036
1708438002.574518,-1.1061434745788574,-1.6812945804991664,-2.5266760031329554,2.2818924623676757,-1.0173242727862757,0.25066959857940674
1708438002.576542,-1.1061842441558838,-1.6812659702696742,-2.5266640822040003,2.2819251257130126,-1.0173199812518519,0.25051528215408325
1708438002.5784922,-1.10615074634552,-1.681315084496969,-2.526646439229147,2.281871958369873,-1.0173285643206995,0.25025030970573425
1708438002.5805178,-1.1061769723892212,-1.6813222370543421,-2.5266509691821497,2.2818307119556884,-1.0172961393939417,0.25002747774124146
1708438002.5825078,-1.10615074634552,-1.681288858453268,-2.5266552607165735,2.281871958369873,-1.0173566977130335,0.2497997134923935
1708438002.5845072,-1.106118083000183,-1.681288858453268,-2.5266640822040003,2.2818805414387207,-1.0173328558551233,0.2495272308588028
1708438002.586535,-1.1061434745788574,-1.681316991845602,-2.5266385714160364,2.281883879298828,-1.0173524061786097,0.24925482273101807
1708438002.5885143,-1.1061315536499023,-1.6813255749144496,-2.5266760031329554,2.281871958369873,-1.017325226460592,0.24898666143417358
1708438002.5904942,-1.106110692024231,-1.681368967095846,-2.5266311804400843,2.281848116511963,-1.0173652807818812,0.24870827794075012
1708438002.5924919,-1.106139063835144,-1.6813942394652308,-2.5266223589526575,2.281826897258423,-1.0173772017108362,0.24843573570251465
1708438002.5945084,-1.106139063835144,-1.681333681146139,-2.526656452809469,2.281832380885742,-1.0173328558551233,0.24814856052398682
1708438002.5964901,-1.1061062812805176,-1.6813990078368128,-2.5266016165362757,2.2818237978168945,-1.0173772017108362,0.2478986382484436
1708438002.598525,-1.106110692024231,-1.6813770733275355,-2.5266342798816126,2.2817749220081787,-1.0173242727862757,0.2475825399160385
1708438002.600489,-1.1060779094696045,-1.681389947930807,-2.5266342798816126,2.281820459956787,-1.0173609892474573,0.2472052425146103
1708438002.6025329,-1.1061599254608154,-1.6814094982542933,-2.5266640822040003,2.2818118768879394,-1.0173285643206995,0.24688805639743805
1708438002.6045067,-1.1061687469482422,-1.6814137897887171,-2.5265939871417444,2.2818118768879394,-1.0173609892474573,0.24655237793922424
1708438002.6064963,-1.1061077117919922,-1.6814586124815882,-2.5266147295581263,2.2817792135426025,-1.0173404852496546,0.24617695808410645
1708438002.6085038,-1.1061033010482788,-1.6814137897887171,-2.5266311804400843,2.281792326564453,-1.017353359852926,0.24578921496868134
1708438002.610493,-1.1061404943466187,-1.6814171276488246,-2.526607338582174,2.2817553716846923,-1.017341438923971,0.24538347125053406
1708438002.6125135,-1.106144905090332,-1.6814052067198695,-2.5266640822040003,2.2818454939075927,-1.0173123518573206,0.24503318965435028
1708438002.6145325,-1.106132984161377,-1.6814543209471644,-2.5266104380237024,2.2818378645130615,-1.0173285643206995,0.24460220336914062
1708438002.6165128,-1.1060794591903687,-1.6813932857909144,-2.5266147295581263,2.281804247493408,-1.0173209349261683,0.24414551258087158
1708438002.6185231,-1.1060913801193237,-1.6814128361144007,-2.526635710393087,2.2817396360584716,-1.017353359852926,0.2437727451324463
1708438002.6205478,-1.1061210632324219,-1.6814257107176722,-2.5266030470477503,2.2817279535480957,-1.0173242727862757,0.24329213798046112
1708438002.622497,-1.1061331033706665,-1.6814257107176722,-2.526619259511129,2.2817117410847167,-1.017325226460592,0.24288062751293182
1708438002.6245337,-1.106083869934082,-1.681387563745016,-2.526656452809469,2.2817365366169433,-1.017303768788473,0.2424222230911255
1708438002.6264906,-1.106071949005127,-1.6814333401122035,-2.5266640822040003,2.281717224712036,-1.0173166433917444,0.24187998473644257
1708438002.6285586,-1.1060476303100586,-1.6814094982542933,-2.526651922856466,2.281662865276001,-1.0172842184649866,0.2414371520280838
1708438002.6305323,-1.1060595512390137,-1.6814457378783167,-2.526684824620382,2.281716986293457,-1.017329517995016,0.24100947380065918
1708438002.6325274,-1.1059985160827637,-1.6814214191832484,-2.5266552607165735,2.2816433149525146,-1.0173371473895472,0.2405017465353012
1708438002.6345077,-1.1059865951538086,-1.6813932857909144,-2.526623551045553,2.281697912807129,-1.0172675291644495,0.2399473935365677
1708438002.6365058,-1.105974555015564,-1.6814257107176722,-2.5266311804400843,2.2816077905842285,-1.017280403767721,0.2394205629825592
1708438002.6385145,-1.1059880256652832,-1.6814247570433558,-2.5266311804400843,2.2816521364399414,-1.0173209349261683,0.23892168700695038
1708438002.6405115,-1.1059926748275757,-1.6814290485777796,-2.526635710393087,2.281594677562378,-1.0173004309283655,0.23837091028690338
1708438002.6425865,-1.1059709787368774,-1.6814466915526332,-2.5266385714160364,2.2816120821186523,-1.017329517995016,0.23783224821090698
1708438002.6444929,-1.10597562789917,-1.6814171276488246,-2.5266147295581263,2.2815915781208496,-1.0173175970660608,0.2372976839542389
1708438002.6464915,-1.1059561967849731,-1.6814376316466273,-2.5266640822040003,2.281600161189697,-1.0173209349261683,0.23670218884944916
1708438002.6485276,-1.105885624885559,-1.6814247570433558,-2.526619259511129,2.281555100078247,-1.0172761122332972,0.2361508011817932
1708438002.6504972,-1.1059609651565552,-1.6814128361144007,-2.5266760031329554,2.2815894323536376,-1.017313305531637,0.2355976104736328
1708438002.6525471,-1.1059398651123047,-1.6814457378783167,-2.5266805330859583,2.2815651136585693,-1.0173457304583948,0.23502497375011444
1708438002.6545024,-1.1059080362319946,-1.6814748249449671,-2.5266266504870813,2.281498833293579,-1.017297093068258,0.23435348272323608
1708438002.6565263,-1.1059036254882812,-1.6814824543394984,-2.526619259511129,2.281519337291382,-1.0173047224627894,0.23376211524009705
1708438002.6584992,-1.1058917045593262,-1.681448598901266,-2.526656452809469,2.281536741847656,-1.017280403767721,0.2331407219171524
1708438002.6604874,-1.1058346033096313,-1.6814290485777796,-2.526635710393087,2.2814342218586425,-1.0173047224627894,0.23246878385543823
1708438002.662504,-1.1058435440063477,-1.6814829311766566,-2.526646439229147,2.281550093288086,-1.017280403767721,0.23183365166187286
1708438002.664485,-1.1058763265609741,-1.6815349064269007,-2.5266059080706995,2.28147999822583,-1.0172928015338343,0.23124819993972778
1708438002.6664867,-1.1058316230773926,-1.6814609966673792,-2.5266597906695765,2.281463785762451,-1.0172885099994105,0.23059265315532684
1708438002.6685274,-1.1058452129364014,-1.681493421594137,-2.526635710393087,2.281444235438965,-1.0173175970660608,0.2298678457736969
1708438002.6705012,-1.1058332920074463,-1.6815430126585902,-2.526623551045553,2.281444235438965,-1.0172885099994105,0.22922071814537048
1708438002.6724956,-1.1058077812194824,-1.681497713128561,-2.5265865961657923,2.2814692693897705,-1.0172479788409632,0.2285832166671753
1708438002.6744936,-1.1058496236801147,-1.6815010509886683,-2.5266223589526575,2.2814692693897705,-1.017301384602682,0.22793066501617432
1708438002.6764872,-1.1057552099227905,-1.6815258465208949,-2.5265985170947474,2.281428022975586,-1.0173175970660608,0.2272062748670578
1708438002.6785228,-1.1057342290878296,-1.6815253696837367,-2.526607338582174,2.2813710409351806,-1.017297093068258,0.22653163969516754
1708438002.6805053,-1.1057357788085938,-1.6814805469908656,-2.5265820662127894,2.281384153957031,-1.0172846953021448,0.2258995771408081
1708438002.6825156,-1.1056904792785645,-1.681512018243307,-2.526660982762472,2.281360312099121,-1.017325226460592,0.2251826822757721
1708438002.6844907,-1.1057119369506836,-1.6816069088377894,-2.526583258305685,2.281397266978882,-1.017297093068258,0.22450432181358337
1708438002.6865082,-1.1056785583496094,-1.6815411053099574,-2.5266147295581263,2.281380816096924,-1.0172675291644495,0.22380957007408142
1708438002.6885314,-1.1056832075119019,-1.6815535030760707,-2.526595417653219,2.2813333707996826,-1.0172842184649866,0.2230820506811142
1708438002.6904974,-1.1057209968566895,-1.6815535030760707,-2.526590887700216,2.2813822466083984,-1.0173175970660608,0.22233960032463074
1708438002.692493,-1.1056265830993652,-1.6816336117186488,-2.526611868535177,2.2813376623341064,-1.017301384602682,0.22159269452095032
1708438002.694496,-1.1056429147720337,-1.6816355190672816,-2.526578728352682,2.2813002306171875,-1.0172928015338343,0.2208845466375351
1708438002.6964874,-1.1056071519851685,-1.6815968952574671,-2.526557747517721,2.2812632757374267,-1.0172598997699183,0.22005046904087067
1708438002.6985002,-1.105639934539795,-1.6815926037230433,-2.5265985170947474,2.2812070089527587,-1.0173090139972132,0.21925540268421173
1708438002.7004945,-1.1056416034698486,-1.6816092930235804,-2.5265665690051478,2.281244917506836,-1.0173090139972132,0.21853546798229218
1708438002.702573,-1.1055961847305298,-1.681622167626852,-2.5266147295581263,2.281228705043457,-1.0172889868365687,0.21773453056812286
1708438002.704487,-1.1055798530578613,-1.6815883121886195,-2.526632610951559,2.281134768123291,-1.0172885099994105,0.21693241596221924
1708438002.7064967,-1.1055798530578613,-1.6816050014891566,-2.526611868535177,2.2812375265308837,-1.0172761122332972,0.21618670225143433
1708438002.70849,-1.1055516004562378,-1.6816655598082484,-2.526583258305685,2.2811524110981445,-1.0172761122332972,0.21533040702342987
1708438002.710489,-1.1055105924606323,-1.6816894016661585,-2.526578728352682,2.2811197477528076,-1.017297093068258,0.21450862288475037
1708438002.7125044,-1.1054660081863403,-1.6816727123656214,-2.5266414324389856,2.281104250545166,-1.0172770659076136,0.213722825050354
1708438002.7145066,-1.1054586172103882,-1.6816569767394007,-2.526590887700216,2.281104250545166,-1.0172479788409632,0.21282610297203064
1708438002.716484,-1.1054222583770752,-1.681692739526266,-2.526611868535177,2.281092329616211,-1.0172727743731897,0.21207621693611145
1708438002.7184815,-1.1054764986038208,-1.6816970310606898,-2.526557747517721,2.281076117152832,-1.017297093068258,0.2111627161502838
1708438002.7204752,-1.1053978204727173,-1.6817208729186,-2.526595417653219,2.281047745341919,-1.0172932783709925,0.21032924950122833
1708438002.722518,-1.1054097414016724,-1.6817628345885218,-2.526599947606222,2.2810446459003906,-1.0172598997699183,0.20941737294197083
1708438002.724534,-1.1053906679153442,-1.6817413769164027,-2.526595417653219,2.28107397138562,-1.0173099676715296,0.20854271948337555
1708438002.7265153,-1.1054141521453857,-1.68178190807485,-2.526607338582174,2.2810420232960205,-1.017268482838766,0.2076970338821411
1708438002.7285237,-1.1053504943847656,-1.6817075214781703,-2.526628080998556,2.280963822002075,-1.0172479788409632,0.2067663073539734
1708438002.7304974,-1.105342984199524,-1.6817494831480921,-2.526628080998556,2.280960722560547,-1.0172565619098108,0.2059365212917328
1708438002.7325313,-1.105314016342163,-1.68180574993276,-2.526623789464132,2.2809242445179443,-1.0173338095294397,0.20504440367221832
1708438002.7344878,-1.1053365468978882,-1.6817733250060023,-2.526632610951559,2.2809037405201416,-1.0172889868365687,0.2041793018579483
1708438002.7365174,-1.1053439378738403,-1.681756158868307,-2.526599947606222,2.2809156614490966,-1.0172846953021448,0.20332154631614685
1708438002.7385707,-1.105308175086975,-1.681784292260641,-2.526587788258688,2.280891104335449,-1.0172889868365687,0.20243996381759644
1708438002.740554,-1.1052665710449219,-1.6817671261229457,-2.5265665690051478,2.28085105001416,-1.0173056761371058,0.201496422290802
1708438002.7425165,-1.1052300930023193,-1.6817871532835902,-2.526583258305685,2.280872030849121,-1.0172770659076136,0.20061518251895905
1708438002.7445037,-1.1052225828170776,-1.6818376980223597,-2.5266087690936487,2.2808236318775634,-1.017264191304342,0.19975362718105316
1708438002.7465293,-1.1052361726760864,-1.6818248234190882,-2.5265710989581507,2.2808398443409423,-1.0172565619098108,0.19880370795726776
1708438002.7485282,-1.1051454544067383,-1.681833406487936,-2.526604239140646,2.280857487315796,-1.0172885099994105,0.19795097410678864
1708438002.7504997,-1.105158805847168,-1.6818071804442347,-2.526604239140646,2.2808000284382324,-1.0173099676715296,0.19703447818756104
1708438002.7525494,-1.1051417589187622,-1.681901594201559,-2.5265665690051478,2.280780478114746,-1.0173261801349085,0.1961861103773117
1708438002.754496,-1.1051641702651978,-1.6818529568114222,-2.526578728352682,2.2807904916950683,-1.017252270375387,0.19523146748542786
1708438002.7565134,-1.105155110359192,-1.6818930111327113,-2.5265966097461146,2.2807323175617675,-1.0172727743731897,0.19438239932060242
1708438002.7584949,-1.1050912141799927,-1.6818810902037562,-2.526583258305685,2.2807041841694335,-1.017268482838766,0.19351248443126678
1708438002.7604887,-1.1051241159439087,-1.681871076623434,-2.5265665690051478,2.2806922632404785,-1.017301384602682,0.19261038303375244
1708438002.7625473,-1.1050639152526855,-1.681875844995016,-2.5265591780291956,2.280700846309326,-1.0172565619098108,0.19173191487789154
1708438002.764499,-1.105035662651062,-1.6819092235960902,-2.526533905659811,2.2806803423115234,-1.0172446409808558,0.19089527428150177
1708438002.7665427,-1.1049953699111938,-1.6818767986693324,-2.5265429655658167,2.2806526857563476,-1.0173056761371058,0.18994320929050446
1708438002.7684813,-1.105035662651062,-1.6819902859129847,-2.526587788258688,2.280583305949829,-1.0172718206988733,0.189080148935318
1708438002.770479,-1.1050087213516235,-1.681981702844137,-2.5265710989581507,2.280665798778198,-1.0172727743731897,0.1882646232843399
1708438002.7725081,-1.1049753427505493,-1.6819735966124476,-2.526562277470724,2.2805508810230712,-1.017301384602682,0.18732737004756927
1708438002.774502,-1.1049481630325317,-1.6819287739195765,-2.5265665690051478,2.2805887895771484,-1.0172846953021448,0.1864377111196518
1708438002.7765348,-1.104889988899231,-1.6819802723326625,-2.5265546480761927,2.280581160182617,-1.0173099676715296,0.18564510345458984
1708438002.778525,-1.1049154996871948,-1.681997915307516,-2.5265265146838587,2.28058569013562,-1.017297093068258,0.18471087515354156
1708438002.7805045,-1.1049035787582397,-1.6820126972594203,-2.5265517870532435,2.2805730539509277,-1.0172598997699183,0.18389102816581726
1708438002.7825053,-1.104825496673584,-1.682009836236471,-2.526505772267477,2.2805415826984863,-1.0172889868365687,0.1829226166009903
1708438002.7845132,-1.1048626899719238,-1.6819716892638148,-2.5265966097461146,2.28048483907666,-1.017268482838766,0.1821538209915161
1708438002.78652,-1.1048389673233032,-1.6820689640440882,-2.5265546480761927,2.28046099721875,-1.0172770659076136,0.18127726018428802
1708438002.788513,-1.1047987937927246,-1.6819998226561488,-2.5265472571002405,2.2804934221455078,-1.017301384602682,0.18040236830711365
1708438002.7905135,-1.10477876663208,-1.682016511956686,-2.5265429655658167,2.2803713518330078,-1.0172761122332972,0.17949923872947693
1708438002.7925067,-1.1047431230545044,-1.6820365391173304,-2.526529375706808,2.2803355890461425,-1.0172565619098108,0.1786821484565735
1708438002.79455,-1.1047401428222656,-1.6821052036681117,-2.526587788258688,2.280397577876709,-1.0172889868365687,0.17783142626285553
1708438002.7964919,-1.1047238111495972,-1.6820737324156703,-2.526545826588766,2.2803401189991455,-1.0172727743731897,0.17698654532432556
1708438002.7985296,-1.1047163009643555,-1.68212952236318,-2.5265665690051478,2.2803162771412353,-1.017301384602682,0.17611540853977203
1708438002.8005161,-1.1046620607376099,-1.6820923290648402,-2.5265665690051478,2.2803219991871337,-1.017297093068258,0.1752653270959854
1708438002.8024998,-1.104668140411377,-1.6821042499937953,-2.5266087690936487,2.2802888590046386,-1.0172479788409632,0.17442281544208527
1708438002.8044813,-1.1046562194824219,-1.6821280918517054,-2.526604477559225,2.28030173360791,-1.0172479788409632,0.17358838021755219
1708438002.8064728,-1.104591727256775,-1.6821772060790003,-2.526587788258688,2.280196114177368,-1.017280403767721,0.17281211912631989
1708438002.8085074,-1.1045304536819458,-1.68214811901235,-2.5265384356128138,2.2802015978046875,-1.0172479788409632,0.17193977534770966
1708438002.8104875,-1.1045515537261963,-1.6821681461729945,-2.526562277470724,2.2801973062702636,-1.0172932783709925,0.17116190493106842
1708438002.812506,-1.1045031547546387,-1.6821347675719203,-2.5266011396991175,2.2801448541828613,-1.0172727743731897,0.17030775547027588
1708438002.8145149,-1.1044913530349731,-1.682204385797018,-2.5265966097461146,2.2801822858997802,-1.017301384602682,0.1694723665714264
1708438002.8165097,-1.1044764518737793,-1.6821915111937464,-2.5265546480761927,2.280108614558838,-1.0172928015338343,0.16870006918907166
1708438002.818511,-1.1043976545333862,-1.6822520695128382,-2.5265384356128138,2.2801009851643066,-1.0173209349261683,0.16783802211284637
1708438002.8205495,-1.1043950319290161,-1.6822687588133753,-2.5265665690051478,2.2800521093555908,-1.017297093068258,0.16703343391418457
1708438002.8225174,-1.1043920516967773,-1.6823417148985804,-2.5265501181231897,2.2799994188496093,-1.0173090139972132,0.16634607315063477
1708438002.824503,-1.1043274402618408,-1.6823326549925746,-2.526620690022604,2.2800051408955078,-1.0173209349261683,0.16559948027133942
1708438002.826523,-1.1042723655700684,-1.6823069057860316,-2.526604239140646,2.280017061824463,-1.017325226460592,0.16483983397483826
1708438002.8285134,-1.1042470932006836,-1.6823975048460902,-2.5265799204455774,2.2799035745808105,-1.01735765138735,0.1640908122062683
1708438002.8305326,-1.1042569875717163,-1.6824032268919886,-2.526587788258688,2.279949350947998,-1.0173371473895472,0.16346168518066406
1708438002.832512,-1.1041431427001953,-1.6824599705138148,-2.526620690022604,2.279897375697754,-1.0173285643206995,0.16273382306098938
1708438002.8345048,-1.1041103601455688,-1.6824590168394984,-2.526607338582174,2.279803438777588,-1.017331902180807,0.16201075911521912
1708438002.8365128,-1.104047179222107,-1.6825081310667933,-2.526628080998556,2.27974717199292,-1.0173609892474573,0.1613805890083313
1708438002.8384962,-1.1039619445800781,-1.682572980920309,-2.526616160069601,2.2797764974781494,-1.0173447767840784,0.16067227721214294
1708438002.8405054,-1.1039588451385498,-1.6825515232481898,-2.5265665690051478,2.2797013956257324,-1.0173566977130335,0.16003209352493286
1708438002.8425128,-1.1038914918899536,-1.6826073131956996,-2.526616160069601,2.2796355920979003,-1.0173643271075647,0.15938504040241241
1708438002.844513,-1.1038641929626465,-1.6825906238951625,-2.526644531880514,2.279620571727417,-1.0174220244037073,0.15868154168128967
1708438002.846488,-1.1037949323654175,-1.6827074489989222,-2.526635710393087,2.2796174722858886,-1.017360035573141,0.15806283056735992
1708438002.848485,-1.1037192344665527,-1.6826702557005824,-2.5266431013690394,2.279549761409424,-1.017444912587301,0.15741291642189026
1708438002.850491,-1.103647232055664,-1.6827684841551722,-2.5266850630389612,2.2794689375111084,-1.017449204121725,0.15676186978816986
1708438002.852509,-1.103525996208191,-1.68278231243276,-2.5266431013690394,2.279470129604004,-1.01746112505068,0.15611401200294495
1708438002.8544953,-1.10348379611969,-1.6828552685179652,-2.5267046133624476,2.2793163496204834,-1.0174439589129847,0.1555510312318802
1708438002.8565028,-1.1033546924591064,-1.68286194423818,-2.526679340993063,2.2793049055286865,-1.0174973646747034,0.1549837291240692
1708438002.858493,-1.1033200025558472,-1.682934900323385,-2.5266626516925257,2.27922169744458,-1.0174763838397425,0.15427790582180023
1708438002.86053,-1.103215217590332,-1.6829868755736292,-2.5267329851733606,2.279182119960449,-1.017517391835348,0.1537362039089203
1708438002.8625345,-1.1030337810516357,-1.6830231151976527,-2.526703182850973,2.279060049647949,-1.0175212065326136,0.15321126580238342
1708438002.8644915,-1.1029832363128662,-1.6830798588194789,-2.5267227331744593,2.2790087896534423,-1.0175288359271448,0.15265125036239624
1708438002.8665118,-1.1028296947479248,-1.6830746136107386,-2.526727263127462,2.2789499002644042,-1.0175450483905237,0.15212582051753998
1708438002.8685129,-1.1026604175567627,-1.6831714115538539,-2.5267677942859095,2.27877585470166,-1.0175970236407679,0.15161573886871338
1708438002.8704855,-1.102582335472107,-1.6832801304259242,-2.5268247763263147,2.278668089503906,-1.017552677785055,0.15105576813220978
1708438002.8725054,-1.1024094820022583,-1.683314939538473,-2.526820246373312,2.278583450908325,-1.0175884405719202,0.1504787802696228
1708438002.8744946,-1.102232575416565,-1.6833626232542933,-2.526876989995138,2.278533621425293,-1.0176008383380335,0.1500016152858734
1708438002.876498,-1.1021384000778198,-1.683439394036764,-2.5268517176257532,2.2783796030231933,-1.0176408926593226,0.14949150383472443
1708438002.8785172,-1.1019995212554932,-1.6835104427733363,-2.5269160906421106,2.2783211904713134,-1.0176809469806116,0.1490001082420349
1708438002.8805215,-1.1017769575119019,-1.6835619411864222,-2.526923720036642,2.2781740862080078,-1.0176485220538538,0.14854934811592102
1708438002.8825128,-1.1016498804092407,-1.6836396656432093,-2.526984993611471,2.278078241939209,-1.0176928679095667,0.1481032371520996
1708438002.8845384,-1.1014366149902344,-1.6837107143797816,-2.5270090738879603,2.2779123026081542,-1.0176637808429163,0.14767174422740936
1708438002.886523,-1.1012823581695557,-1.6837746105589808,-2.5269957224475306,2.2778114515491943,-1.0177086035357874,0.14725042879581451
1708438002.888554,-1.101090669631958,-1.6838656864561976,-2.527076546345846,2.277688665980957,-1.0177400747882288,0.1468622088432312
1708438002.8905118,-1.100876808166504,-1.6839987240233363,-2.5271077791797083,2.2775532442280273,-1.0177486578570765,0.14646872878074646
1708438002.8925045,-1.1006779670715332,-1.68408264736318,-2.5271440188037317,2.277308865184448,-1.0178378264056605,0.146056666970253
1708438002.8944807,-1.1004382371902466,-1.6842066250243128,-2.52714711824526,2.2771646219440917,-1.017853085194723,0.1456599235534668
1708438002.8964918,-1.1001924276351929,-1.6842581234373988,-2.527179781590597,2.277057572002075,-1.0179007689105433,0.14532209932804108
1708438002.8985496,-1.0999783277511597,-1.6843487224974574,-2.5271876494037073,2.2768499094196777,-1.0179045836078089,0.14502546191215515
1708438002.9004838,-1.0997246503829956,-1.6844645939269007,-2.5272563139544886,2.276639862651489,-1.0179317633258265,0.1446668952703476
1708438002.902498,-1.0995054244995117,-1.6845609150328578,-2.527210299168722,2.276521607036255,-1.0179956595050257,0.14427226781845093
1708438002.9044943,-1.0991758108139038,-1.6847130260863246,-2.5273402372943323,2.276341124171875,-1.018088165913717,0.144040048122406
1708438002.9064987,-1.098965048789978,-1.6848489246764125,-2.527339045201437,2.2761973577686767,-1.018116299306051,0.14372003078460693
1708438002.9085214,-1.0986568927764893,-1.6849714718260707,-2.52733022371401,2.275965376491211,-1.018151585255758,0.14347177743911743
1708438002.910501,-1.0983344316482544,-1.6850577793517054,-2.5274365584002894,2.2756919103809814,-1.0182116667376917,0.14323249459266663
1708438002.9125369,-1.0980260372161865,-1.6852971516051234,-2.5274887720691126,2.275472803706787,-1.0182836691485804,0.14299941062927246
1708438002.9145296,-1.0976718664169312,-1.685390134850973,-2.527482811604635,2.275216742152832,-1.0184367338763636,0.14282432198524475
1708438002.9164805,-1.0973527431488037,-1.6855713329710902,-2.52757698694338,2.2750255304523925,-1.0184391180621546,0.14259397983551025
1708438002.9185371,-1.0970287322998047,-1.6857224903502406,-2.527599875126974,2.274745150203369,-1.0184791723834437,0.14237448573112488
1708438002.9205024,-1.0965818166732788,-1.6858817539610804,-2.5276358763324183,2.27447692930188,-1.018571678792135,0.14224115014076233
1708438002.9225104,-1.0962804555892944,-1.6861311397948207,-2.5277167002307337,2.274172230357788,-1.0185664335833948,0.14206194877624512
1708438002.9245608,-1.0957809686660767,-1.686293741265768,-2.527698818837301,2.273876591319702,-1.0187323729144495,0.14185261726379395
1708438002.926528,-1.0954269170761108,-1.686465402642721,-2.52781588235964,2.27360646306958,-1.0187957922564905,0.14174960553646088
1708438002.9285495,-1.0949543714523315,-1.6867090664305628,-2.527856175099508,2.273266478175781,-1.0188186804400843,0.14167597889900208
1708438002.9305198,-1.0945371389389038,-1.6869164905943812,-2.527907435094015,2.2728940683552246,-1.018890682850973,0.1415567547082901
1708438002.9325445,-1.0939849615097046,-1.6871491871275843,-2.528013531361715,2.2726070123859863,-1.0189550558673304,0.14140725135803223
1708438002.9345446,-1.0935827493667603,-1.6873909435667933,-2.528010908757345,2.272181196803711,-1.019027058278219,0.14130671322345734
1708438002.936529,-1.0930660963058472,-1.6876150570311488,-2.528121534978048,2.2718700605579834,-1.0190747419940394,0.14127707481384277
1708438002.9384832,-1.0925085544586182,-1.6878544292845667,-2.5281968752490442,2.2714783388325195,-1.0191791693316858,0.14126183092594147
1708438002.9405231,-1.0920103788375854,-1.6881300411620082,-2.5282281080829065,2.271179361934326,-1.0192425886737269,0.1411929726600647
1708438002.94253,-1.091387391090393,-1.6883932552733363,-2.528353993092672,2.270751639003418,-1.0193827787982386,0.14114533364772797
1708438002.9445302,-1.0907998085021973,-1.688747068444723,-2.528446976338522,2.2703189092823486,-1.019463364277975,0.14118264615535736
1708438002.9464972,-1.0902209281921387,-1.6889883480467738,-2.5284276644336146,2.2699038225361328,-1.0195344130145472,0.14116327464580536
1708438002.9484882,-1.0895885229110718,-1.6892343960204066,-2.5285072962390345,2.2694331842609863,-1.0195768515216272,0.14120380580425262
1708438002.9505079,-1.0889105796813965,-1.6896034679808558,-2.5286527315722864,2.2689854341694335,-1.0197137037860315,0.14130839705467224
1708438002.9525204,-1.088354468345642,-1.6899191341795863,-2.5287662188159388,2.268542929286621,-1.0197890440570276,0.14133064448833466
1708438002.9545512,-1.0876436233520508,-1.6901871166624964,-2.528787676488058,2.2680458265491943,-1.0198882261859339,0.14143553376197815
1708438002.956513,-1.0869148969650269,-1.6905213795103968,-2.5288925806628626,2.267561598415039,-1.019951645527975,0.1415608525276184
1708438002.958507,-1.086223840713501,-1.690885683099264,-2.528997246419088,2.267000837916992,-1.020165745412008,0.14157170057296753
1708438002.9605076,-1.0854846239089966,-1.6911989651122035,-2.5290632883654993,2.2665268617817382,-1.0202487150775355,0.1416207253932953
1708438002.9625037,-1.0847514867782593,-1.6915832958617152,-2.529201332722799,2.265930100078247,-1.0203807989703577,0.1417476236820221
1708438002.9644895,-1.0839635133743286,-1.6919595203795375,-2.5293121973620813,2.2653702932545166,-1.0204642454730433,0.14180177450180054
1708438002.9665089,-1.0831886529922485,-1.6922694645323695,-2.529405180607931,2.264864130611084,-1.0206077734576624,0.14196468889713287
1708438002.9684958,-1.082384705543518,-1.692730566064352,-2.529505793248312,2.264249010677002,-1.0207322279559534,0.14205124974250793
1708438002.970488,-1.0815526247024536,-1.6931387386717738,-2.529666010533468,2.263678475017212,-1.020883862172262,0.14209653437137604
1708438002.9725585,-1.0806751251220703,-1.6934849224486292,-2.529762093220846,2.2630490499683837,-1.0209992567645472,0.14230233430862427
1708438002.974499,-1.0798094272613525,-1.6939484081664027,-2.529807154332296,2.2623891073414306,-1.0210836569415491,0.14243833720684052
1708438002.9765322,-1.0789244174957275,-1.6943723164000453,-2.529994312916891,2.2617835241505126,-1.0212190786944788,0.14265111088752747
1708438002.9784753,-1.077944278717041,-1.694733282128805,-2.5300591627704065,2.261061354274414,-1.0213263670550745,0.1427808254957199
1708438002.9804902,-1.0770502090454102,-1.695230623284811,-2.53020149866213,2.2604684072681884,-1.0214794317828577,0.1429678350687027
1708438002.9824743,-1.076086401939392,-1.695590158502096,-2.5303455034839075,2.259763641948364,-1.0215628782855433,0.1431995928287506
1708438002.9844775,-1.0751093626022339,-1.6960541210570277,-2.530402485524313,2.2590436178394775,-1.02165395418276,0.14345677196979523
1708438002.9864964,-1.0741468667984009,-1.6965342960753382,-2.5306063334094446,2.258364124889038,-1.0217292944537562,0.1436588615179062
1708438002.9884808,-1.0731226205825806,-1.6969925365843714,-2.530700985585348,2.2576398092457275,-1.0219019095050257,0.14384417235851288
1708438002.990509,-1.0721075534820557,-1.6974474392332972,-2.530795399342672,2.2568511205860595,-1.0220583120929163,0.14415057003498077
1708438002.9925096,-1.0710457563400269,-1.6979786358275355,-2.5309484640704554,2.2561094003864746,-1.0221813360797327,0.1444018930196762
1708438002.9944775,-1.0699259042739868,-1.6985508404173792,-2.5310922304736536,2.2553574281879882,-1.0223410765277308,0.14466208219528198
1708438002.996493,-1.0688588619232178,-1.699073930779928,-2.531290117894308,2.2545463281818847,-1.0224807898150843,0.14492808282375336
1708438002.9984884,-1.0678164958953857,-1.6995684109129847,-2.531402651463644,2.2537411886402587,-1.022677246724264,0.1452522724866867
1708438003.0004814,-1.0666649341583252,-1.7001263103880824,-2.5315375963794153,2.2529117304035644,-1.0228245894061487,0.14553578197956085
1708438003.0024867,-1.065492033958435,-1.7006250820555628,-2.531639639531271,2.25214330732312,-1.0229681173907679,0.14583943784236908
1708438003.0044875,-1.0643655061721802,-1.7012082539000453,-2.531792465840475,2.2512542444416503,-1.0231149832354944,0.14619578421115875
1708438003.0064824,-1.0631940364837646,-1.70172180751943,-2.531941000615255,2.2503418165394287,-1.023339573537008,0.1464892029762268
1708438003.0084772,-1.0619802474975586,-1.7023493252196253,-2.5321133772479456,2.2494095998951416,-1.0234950224505823,0.14683513343334198
1708438003.0104737,-1.0607852935791016,-1.7029110393919886,-2.5322826544391077,2.248509331340454,-1.023658577595846,0.14709264039993286
1708438003.0124884,-1.059507966041565,-1.7036243877806605,-2.5323639551745813,2.2476400572010498,-1.023846451436178,0.14747285842895508
1708438003.0145123,-1.0582749843597412,-1.7041570148863734,-2.5325244108783167,2.2467283445545654,-1.0240057150470179,0.14782468974590302
1708438003.0165277,-1.0570329427719116,-1.7048326931395472,-2.5326595942126673,2.245828075999878,-1.0242036024676722,0.1481107771396637
1708438003.018501,-1.0557202100753784,-1.7054010830321253,-2.5328331629382532,2.244778795833252,-1.0243781248675745,0.14852812886238098
1708438003.020488,-1.0544253587722778,-1.7060443363585414,-2.5329726378070276,2.243917151088379,-1.024574104939596,0.14888602495193481
1708438003.0225077,-1.0531013011932373,-1.7067333660521449,-2.5330916086779993,2.242945118541382,-1.0247324148761194,0.14919589459896088
1708438003.0245674,-1.0517276525497437,-1.7073613605894984,-2.5332518259631556,2.241954727763794,-1.0249126593219202,0.14962546527385712
1708438003.0264812,-1.0503437519073486,-1.708076616326803,-2.533448044453756,2.2409695821949462,-1.0250771681415003,0.14999665319919586
1708438003.0285308,-1.049055576324463,-1.708705564538473,-2.5335875193225306,2.2399470049091796,-1.0253623167621058,0.15037231147289276
1708438003.0305061,-1.0475603342056274,-1.7094165287413539,-2.533710781727926,2.238962097758911,-1.025451962147848,0.15069305896759033
1708438003.0325077,-1.0461291074752808,-1.710095068017477,-2.5339654127704065,2.2379066187092285,-1.0256789366351526,0.15113765001296997
1708438003.0345316,-1.0446711778640747,-1.7108708820738734,-2.534137550984518,2.2367912965961914,-1.0259197394000452,0.15152975916862488
1708438003.0365,-1.0431798696517944,-1.7115498981871546,-2.5342519919024866,2.235736055965088,-1.0261438528644007,0.1519041657447815
1708438003.0384898,-1.0416990518569946,-1.712285657922262,-2.534419838582174,2.2346314626881103,-1.0263031164752405,0.15231256186962128
1708438003.0405104,-1.040181040763855,-1.7129751644530238,-2.5346866289721888,2.2335404592701416,-1.0265305677997034,0.1527155339717865
1708438003.0424871,-1.0387147665023804,-1.7137047253050746,-2.5348036924945276,2.232437773341797,-1.0266698042498987,0.15311849117279053
1708438003.0444932,-1.0371516942977905,-1.7144295177855433,-2.534976307545797,2.231297178859375,-1.0268781820880335,0.1535222828388214
1708438003.0464926,-1.0355043411254883,-1.7152348957457484,-2.5352142492877405,2.2301837640949707,-1.027013127003805,0.15394911170005798
1708438003.0485024,-1.033964991569519,-1.7160083256163539,-2.5353196302997034,2.2289790350147705,-1.0271971861468714,0.1543232500553131
1708438003.0504956,-1.0323666334152222,-1.7167641125121058,-2.535516087208883,2.2278079229542236,-1.027376953755514,0.1547473669052124
1708438003.0525055,-1.0306997299194336,-1.7175456486144007,-2.5357540289508265,2.226607008571289,-1.0275281111346644,0.1551664173603058
1708438003.054516,-1.029043436050415,-1.7183157406248988,-2.5359044710742396,2.2253944116779785,-1.027707878743307,0.1556513011455536
1708438003.0565069,-1.0273610353469849,-1.719088693658346,-2.536084238682882,2.224172754878662,-1.0278790632831019,0.15605428814888
1708438003.0585341,-1.025659441947937,-1.719891210595602,-2.536285463963644,2.2228972154804687,-1.0281484762774866,0.15651211142539978
1708438003.0605052,-1.0239105224609375,-1.7207833729186,-2.536475960408346,2.2216483789631347,-1.0283969084369105,0.15694017708301544
1708438003.0625193,-1.0221915245056152,-1.7215191326537074,-2.5366318861590784,2.2203902441212158,-1.0286453405963343,0.15738794207572937
1708438003.0644898,-1.020462155342102,-1.7224074802794398,-2.536844555531637,2.219146652812622,-1.0288227240191858,0.15782660245895386
1708438003.0664809,-1.0186822414398193,-1.7232114277281703,-2.537006680165426,2.2178191381641845,-1.029029671345846,0.15825799107551575
1708438003.0684915,-1.0168943405151367,-1.7240830860533656,-2.537280861531393,2.2165071207233886,-1.0292976538287562,0.15866810083389282
1708438003.0704834,-1.0150842666625977,-1.7249661884703578,-2.5374444166766565,2.215282126063965,-1.0296276251422327,0.15919756889343262
1708438003.0725176,-1.0132381916046143,-1.7257710895934046,-2.537635151539938,2.2138377863117675,-1.0298298040973108,0.15960939228534698
1708438003.0745208,-1.011329174041748,-1.726631303826803,-2.5378852526294153,2.2125226694294433,-1.0301216284381312,0.16005270183086395
1708438003.0764897,-1.0095089673995972,-1.727527757684225,-2.5380516687976282,2.2112113672443847,-1.0303719679461878,0.16057780385017395
1708438003.078522,-1.0075956583023071,-1.7283913097777308,-2.538227144871847,2.2098042207905273,-1.0306204001056116,0.16099044680595398
1708438003.0804915,-1.0056560039520264,-1.729307313958639,-2.538471762334005,2.20844475805249,-1.030794922505514,0.16146749258041382
1708438003.0825162,-1.0037527084350586,-1.7302071056761683,-2.5386932531939905,2.2070109087177734,-1.0310400168048304,0.16188207268714905
1708438003.0845268,-1.0018116235733032,-1.7311812839903773,-2.5389166514026087,2.2055672842213134,-1.0312908331500452,0.16235104203224182
1708438003.0865006,-0.999820351600647,-1.7321611843504847,-2.5391162077533167,2.2041444021412353,-1.0314849058734339,0.16279096901416779
1708438003.0885336,-0.9978095889091492,-1.7331420383849085,-2.5393202940570276,2.202667160625122,-1.0317004362689417,0.16326108574867249
1708438003.090574,-0.9957786798477173,-1.7340814075865687,-2.5395365397082728,2.201274796123169,-1.0319531599627894,0.16373048722743988
1708438003.0925107,-0.9938158392906189,-1.734981199304098,-2.539726797734396,2.1997713285633544,-1.0321763197528284,0.16419407725334167
1708438003.094497,-0.9917668700218201,-1.7360221348204554,-2.539926354085104,2.1982568937489013,-1.0323956648456019,0.16473111510276794
1708438003.096494,-0.9897419214248657,-1.737013956109518,-2.540161673222677,2.19678704320874,-1.0326359907733362,0.16515344381332397
1708438003.0985029,-0.9876702427864075,-1.737967153588766,-2.5403628985034388,2.195246143932007,-1.0328190962420862,0.16564135253429413
1708438003.100496,-0.9855582118034363,-1.7390209637083949,-2.5406487623797815,2.1937448221394042,-1.0330670515643519,0.16611585021018982
1708438003.102494,-0.9834655523300171,-1.7400804958739222,-2.5408526102649134,2.192213936442993,-1.033306900654928,0.16657394170761108
1708438003.1045258,-0.9813662767410278,-1.7410317860045375,-2.5410922209369105,2.1906840044208984,-1.0335701147662562,0.16703225672245026
1708438003.1064768,-0.9791663289070129,-1.7420135937132777,-2.5412877241717737,2.1891252237507324,-1.0338500181781214,0.16760237514972687
1708438003.1085224,-0.9770078063011169,-1.7431565723814906,-2.5414918104754847,2.1875828939625244,-1.0341466108905237,0.16802603006362915
1708438003.11049,-0.9747517704963684,-1.7442194424071253,-2.541739050542013,2.1859513956257324,-1.034416977559225,0.16860796511173248
1708438003.1124945,-0.9725763201713562,-1.7452784977354945,-2.541959826146261,2.1844000059315185,-1.0347617308246058,0.16907048225402832
1708438003.1144907,-0.970368504524231,-1.7463256321349085,-2.5421579519854944,2.1827947336384277,-1.0350115934955042,0.169500932097435
1708438003.1164815,-0.9681760668754578,-1.7474194965758265,-2.542443815861837,2.1812078195759277,-1.0352962652789515,0.1699543297290802
1708438003.1185215,-0.9659269452095032,-1.7484313450255335,-2.5426064173327845,2.179596109981201,-1.035562817250387,0.1705152541399002
1708438003.120535,-0.9637956619262695,-1.7495795689024867,-2.5428758303271692,2.1780428129383544,-1.0357449690448206,0.17090336978435516
1708438003.1225398,-0.9615947008132935,-1.7504965267577113,-2.543072525654928,2.1765028673359375,-1.0360372702227991,0.17134065926074982
1708438003.1244974,-0.959414541721344,-1.7516447506346644,-2.543253723775045,2.174898548717163,-1.0362651983844202,0.1717955768108368
1708438003.1265225,-0.9571517109870911,-1.7526985607542933,-2.54352838197817,2.1733223634907226,-1.0365460554706019,0.1722182333469391
1708438003.1285117,-0.954994261264801,-1.7537423572936,-2.543760601674215,2.1716555792042236,-1.0367773214923304,0.17262057960033417
1708438003.130516,-0.9527424573898315,-1.7548047504820765,-2.543960158024923,2.1700894075581054,-1.036950413380758,0.17305606603622437
1708438003.1325,-0.9505313038825989,-1.7558661899962367,-2.5441506544696253,2.168407126063965,-1.0372193495379847,0.1735280305147171
1708438003.1345243,-0.9483230710029602,-1.756907125512594,-2.5443905035602015,2.1668025690266113,-1.0375240484820765,0.17400412261486053
1708438003.136499,-0.9461647272109985,-1.7579690418639125,-2.5446229616748255,2.165146751994751,-1.03776723543276,0.17444570362567902
1708438003.138499,-0.9439579248428345,-1.7590085468687953,-2.5448299090014856,2.1635843950458984,-1.0379779974566858,0.174929678440094
1708438003.1405084,-0.9417612552642822,-1.7600671253600062,-2.5450578371631067,2.16205541669812,-1.0382831732379358,0.17534691095352173
1708438003.1424966,-0.9395732283592224,-1.7611214123167933,-2.545288864766256,2.1603991228291015,-1.0385296980487269,0.17582879960536957
1708438003.1444907,-0.9373762011528015,-1.7621809444823207,-2.545547072087423,2.158869190807007,-1.0388010183917444,0.17623768746852875
1708438003.1464913,-0.935161292552948,-1.7632304630675257,-2.54574162164797,2.1572794157215576,-1.0390518347369593,0.17665529251098633
1708438003.1485088,-0.932947039604187,-1.7642842731871546,-2.5460074583636683,2.155644341106079,-1.039276425038473,0.1771807074546814
1708438003.150475,-0.9307634830474854,-1.7653595409789027,-2.546197477971212,2.1540421682545166,-1.039551083241598,0.17766831815242767
1708438003.1525173,-0.9285388588905334,-1.7663785419859828,-2.5464211145984095,2.1524461942860107,-1.0398076216327112,0.17808330059051514
1708438003.1545227,-0.9263861179351807,-1.7674108944334925,-2.5466793219195765,2.15088073789563,-1.0400307814227503,0.17851021885871887
1708438003.1565166,-0.9241474866867065,-1.7684856853880824,-2.54693848291506,2.1492721277424316,-1.040229622517721,0.1789248287677765
1708438003.158511,-0.9219558238983154,-1.7695113621153773,-2.547149960194723,2.147660418147705,-1.0404532591449183,0.17937226593494415
1708438003.1604977,-0.9198063015937805,-1.7705780468382777,-2.547406021748678,2.1461030679890136,-1.0407045523272913,0.17987650632858276
1708438003.1625545,-0.9175269603729248,-1.771630426446432,-2.5475967566119593,2.1444706159779052,-1.0409730116473597,0.18029120564460754
1708438003.1645231,-0.9153835773468018,-1.772623678246969,-2.5478366057025355,2.142888231868408,-1.0412090460406702,0.18070019781589508
1708438003.1665483,-0.9131631851196289,-1.7737113438048304,-2.5480645338641565,2.141289158458374,-1.0414274374591272,0.18115249276161194
1708438003.1684942,-0.9109270572662354,-1.7747441730894984,-2.5482686201678675,2.1396681505390625,-1.0416510740863245,0.181644469499588
1708438003.1704795,-0.9086512327194214,-1.775768896142477,-2.5485623518573206,2.1381069856831054,-1.0419796148883265,0.1821122169494629
1708438003.17251,-0.9065306186676025,-1.7768703899779261,-2.548774067555563,2.136518641109131,-1.0422466436969202,0.18253839015960693
1708438003.1744995,-0.9043693542480469,-1.7778674564757289,-2.548988405858175,2.1349782186695556,-1.0425141493426722,0.18302364647388458
1708438003.1765473,-0.902169942855835,-1.7789446316161097,-2.549253765736715,2.1334077554890136,-1.0427568594561976,0.18343238532543182
1708438003.1785226,-0.8999888896942139,-1.779973646203512,-2.549506966267721,2.131789370174072,-1.043004337941305,0.1838337630033493
1708438003.1805215,-0.8978022933006287,-1.7810598812498988,-2.5496512095080774,2.1302730280109863,-1.0432689825641077,0.18432770669460297
1708438003.1824965,-0.895632266998291,-1.7821055851378382,-2.549880568181173,2.128614588374756,-1.0435040632831019,0.18477410078048706
1708438003.184527,-0.8934112191200256,-1.7831675014891566,-2.5500877539264124,2.127037449473999,-1.043711010609762,0.18522173166275024
1708438003.1865344,-0.8912808895111084,-1.7841993770995082,-2.5503528753863733,2.1254915434071044,-1.0439828077899378,0.18562734127044678
1708438003.188515,-0.8890306949615479,-1.7852398357787074,-2.5505808035479944,2.1238228517719726,-1.0442879835711878,0.18610751628875732
1708438003.1905096,-0.8867831826210022,-1.7863146267332972,-2.55076247850527,2.122197313899658,-1.0445101896869105,0.18656259775161743
1708438003.192501,-0.8846251964569092,-1.787363191644186,-2.5510576407061976,2.1205832201191406,-1.0447819868670862,0.18697607517242432
1708438003.194487,-0.8824491500854492,-1.7884098492064417,-2.5512571970569056,2.1190058427998046,-1.0450251738177698,0.1874985694885254
1708438003.196473,-0.880215585231781,-1.7894350490965785,-2.5514655748950403,2.1173884111591796,-1.0452688376056116,0.18792514503002167
1708438003.1984804,-0.8780620098114014,-1.7904726467528285,-2.5517171064959925,2.1158763605305175,-1.0455454031573694,0.18832668662071228
1708438003.2004793,-0.8758330941200256,-1.791518350640768,-2.551903311406271,2.1143290239521484,-1.0457919279681605,0.1887112259864807
1708438003.2024667,-0.8736598491668701,-1.7925635776915492,-2.552136007939474,2.1126860815235595,-1.0460637251483362,0.1892259567975998
