Eg3-git/Classifiers/Data Collection/u6/u6cir5_ur3e_joint_states.csv
time,elbow_joint,shoulder_lift_joint,shoulder_pan_joint,wrist_1_joint,wrist_2_joint,wrist_3_joint
1708438084.6369495,-1.114037036895752,-1.676974435845846,-2.5262485186206263,2.290011091823242,-1.016573731099264,0.10805875062942505
1708438084.638937,-1.114048957824707,-1.6769873104491175,-2.5262473265277308,2.29004351675,-1.016639534627096,0.1081075668334961
1708438084.6409304,-1.1140028238296509,-1.6769501171507777,-2.5262635389911097,2.289977713222168,-1.016590420399801,0.10811536759138107
1708438084.6429927,-1.1140533685684204,-1.6769715748228968,-2.5262516180621546,2.29004351675,-1.0165813604937952,0.10811102390289307
1708438084.6449387,-1.1140742301940918,-1.6769467792906703,-2.5262070337878626,2.290039225215576,-1.016568962727682,0.10807856172323227
1708438084.6469488,-1.1141070127487183,-1.676967283288473,-2.5262635389911097,2.2899905878254394,-1.016639534627096,0.10816419124603271
1708438084.648936,-1.1140652894973755,-1.6769830189146937,-2.5262396971331995,2.290017529124878,-1.0166633764850062,0.10809442400932312
1708438084.6509318,-1.1140652894973755,-1.6769305668272914,-2.5262070337878626,2.29004351675,-1.016639534627096,0.10811537504196167
1708438084.6529014,-1.1140445470809937,-1.6769339046873988,-2.5262113253222864,2.290033741588257,-1.0165727774249476,0.1080784797668457
1708438084.654908,-1.114065408706665,-1.6769749126830042,-2.5262396971331995,2.2899820047565917,-1.016623322163717,0.10812295973300934
1708438084.6569161,-1.1140445470809937,-1.6769424877562464,-2.5261860529529017,2.2900144296833496,-1.0166471640216272,0.10814046114683151
1708438084.6589172,-1.1140117645263672,-1.6769253216185511,-2.5261786619769495,2.2900263506123046,-1.0166099707232874,0.10814046114683151
1708438084.6609018,-1.114048957824707,-1.6769210300841273,-2.5261903444873255,2.290039225215576,-1.0166381041156214,0.10812729597091675
1708438084.6629195,-1.114044427871704,-1.6769620380797328,-2.526198212300436,2.2900382715412597,-1.0166142622577112,0.10814355313777924
1708438084.664911,-1.1140742301940918,-1.6769381962218226,-2.5262559095965784,2.2900144296833496,-1.0166352430926722,0.10809877514839172
1708438084.6669247,-1.1140742301940918,-1.676953455010885,-2.5262027422534388,2.2899820047565917,-1.0166423956500452,0.10813163965940475
1708438084.6689258,-1.114060878753662,-1.6769544086852015,-2.5261741320239466,2.2900587755390625,-1.016618553792135,0.10816419124603271
1708438084.6709101,-1.1140414476394653,-1.6769424877562464,-2.5262721220599573,2.2899905878254394,-1.016592804585592,0.10817646235227585
1708438084.6729052,-1.114048957824707,-1.6769176922240199,-2.526193920766012,2.29006735860791,-1.0165861288653772,0.10809007287025452
1708438084.6749353,-1.114048957824707,-1.6769176922240199,-2.5262442270862024,2.2900640207478027,-1.0166352430926722,0.10809876769781113
1708438084.6769273,-1.1140563488006592,-1.6770030460753382,-2.5262234846698206,2.2900144296833496,-1.0165556112872522,0.10812730342149734
1708438084.6789682,-1.1140036582946777,-1.6770206890501917,-2.5262473265277308,2.2900144296833496,-1.0165975729571741,0.10812416672706604
1708438084.6809597,-1.1140326261520386,-1.676974435845846,-2.526219193135397,2.2899862962910156,-1.016568962727682,0.10816855728626251
1708438084.6830006,-1.1140817403793335,-1.6770240269102992,-2.5262723604785364,2.290015383357666,-1.0166352430926722,0.10815227031707764
1708438084.6849473,-1.1140698194503784,-1.67694153408193,-2.5262473265277308,2.290027304286621,-1.016623322163717,0.10813599824905396
1708438084.6869404,-1.1140564680099487,-1.6769620380797328,-2.5262277762042444,2.290027304286621,-1.0166423956500452,0.10814794898033142
1708438084.6889458,-1.1140861511230469,-1.6769663296141566,-2.526219193135397,2.2900842863270263,-1.0166352430926722,0.10812728852033615
1708438084.6909554,-1.1140280961990356,-1.6769706211485804,-2.5261948744403284,2.290071650142334,-1.0166142622577112,0.10814791917800903
1708438084.6929903,-1.1140117645263672,-1.6769958935179652,-2.5262396971331995,2.2899820047565917,-1.0166142622577112,0.10818836092948914
1708438084.6949663,-1.1140727996826172,-1.6769706211485804,-2.52621037164797,2.2900101381489257,-1.0166142622577112,0.10812844336032867
1708438084.6969218,-1.114037036895752,-1.6769348583617152,-2.5262234846698206,2.2900842863270263,-1.0166052023517054,0.10815668106079102
1708438084.6989536,-1.1140028238296509,-1.6769987545409144,-2.526243034993307,2.290051146144531,-1.0166099707232874,0.10813921689987183
1708438084.7009532,-1.1140652894973755,-1.6769424877562464,-2.5262635389911097,2.2900144296833496,-1.0166633764850062,0.10813601315021515
1708438084.7029421,-1.1140326261520386,-1.6769706211485804,-2.526181761418478,2.2900759416767578,-1.0166261831866663,0.10813475400209427
1708438084.7049592,-1.1140326261520386,-1.6769963703551234,-2.5261903444873255,2.290039225215576,-1.016618553792135,0.10816854238510132
1708438084.7069209,-1.1140563488006592,-1.6769620380797328,-2.526264731084005,2.290001316661499,-1.0165975729571741,0.10813048481941223
1708438084.7089453,-1.114048957824707,-1.6769901714720667,-2.5262561480151575,2.290031595821045,-1.0166061560260218,0.10813599824905396
1708438084.7109363,-1.1140445470809937,-1.6769424877562464,-2.5262354055987757,2.290047808284424,-1.0166052023517054,0.10814793407917023
1708438084.712915,-1.1140698194503784,-1.6769381962218226,-2.5262561480151575,2.290023012752197,-1.0165975729571741,0.10816419124603271
1708438084.7149684,-1.1140251159667969,-1.6769501171507777,-2.526226584111349,2.2900349336811523,-1.0165813604937952,0.10812296718358994
1708438084.716918,-1.1140400171279907,-1.6769501171507777,-2.5262308756457728,2.2899982172199707,-1.016618553792135,0.10814794898033142
1708438084.7189145,-1.1140533685684204,-1.6769381962218226,-2.526219193135397,2.2900306421467285,-1.016573731099264,0.10813166201114655
1708438084.7209487,-1.1140161752700806,-1.6769958935179652,-2.5262485186206263,2.290039225215576,-1.0166142622577112,0.10816766321659088
1708438084.7229018,-1.1140578985214233,-1.6769873104491175,-2.5262723604785364,2.290051146144531,-1.0165813604937952,0.10813165456056595
1708438084.7249045,-1.1140861511230469,-1.6769305668272914,-2.5262561480151575,2.290051146144531,-1.0165975729571741,0.10813921689987183
1708438084.7269158,-1.1140326261520386,-1.6769210300841273,-2.526231114064352,2.290022059077881,-1.016568962727682,0.10817646235227585
1708438084.7289824,-1.1140772104263306,-1.6769587002196253,-2.5262070337878626,2.2900263506123046,-1.016627613698141,0.10818835347890854
1708438084.730984,-1.1140251159667969,-1.676957746545309,-2.5262396971331995,2.290005846614502,-1.016594711934225,0.10810668021440506
1708438084.7329655,-1.1140207052230835,-1.6769587002196253,-2.5262277762042444,2.289993925685547,-1.0166304747210901,0.10816418379545212
1708438084.7349427,-1.1140036582946777,-1.6769467792906703,-2.5262485186206263,2.2900068002888183,-1.0165770689593714,0.10818076133728027
1708438084.7369335,-1.1140280961990356,-1.6769629917540492,-2.5262354055987757,2.2900187212177734,-1.0166061560260218,0.10815984010696411
1708438084.7389617,-1.114048957824707,-1.6769339046873988,-2.5261860529529017,2.290031595821045,-1.016618553792135,0.10813046246767044
1708438084.7409382,-1.1140280961990356,-1.6769873104491175,-2.526219193135397,2.2900187212177734,-1.0166061560260218,0.10817209631204605
1708438084.7429533,-1.1140578985214233,-1.6769873104491175,-2.5262070337878626,2.290017529124878,-1.016618553792135,0.10812298208475113
1708438084.7450168,-1.11405348777771,-1.6769501171507777,-2.5261786619769495,2.2899862962910156,-1.0166061560260218,0.10813922435045242
1708438084.7469459,-1.1140698194503784,-1.6770154438414515,-2.5261741320239466,2.289989634151123,-1.0166099707232874,0.10813482105731964
1708438084.748937,-1.114037036895752,-1.6769620380797328,-2.5261991659747522,2.289965792293213,-1.0166304747210901,0.10814672708511353
1708438084.7509267,-1.1140533685684204,-1.676979204217428,-2.5262396971331995,2.290027304286621,-1.0165603796588343,0.10819273442029953
1708438084.7529843,-1.1140698194503784,-1.6769916019835414,-2.5262113253222864,2.2900799947926025,-1.0166352430926722,0.10819706320762634
1708438084.7549384,-1.114037036895752,-1.6770197353758753,-2.526214663182394,2.290022059077881,-1.016601864491598,0.10812604427337646
1708438084.7569408,-1.1140326261520386,-1.6770111523070277,-2.5262234846698206,2.290055437678955,-1.0166423956500452,0.10817088186740875
1708438084.7589412,-1.1140326261520386,-1.6769620380797328,-2.5261860529529017,2.2900349336811523,-1.0166319052325647,0.10818390548229218
1708438084.7609265,-1.1140072345733643,-1.67694153408193,-2.5262323061572474,2.2900144296833496,-1.0165861288653772,0.10816331207752228
1708438084.7629175,-1.1140564680099487,-1.6769663296141566,-2.5262070337878626,2.2900144296833496,-1.016623322163717,0.10813921689987183
1708438084.7649868,-1.1140400171279907,-1.6769458256163539,-2.5261829535113733,2.2900425630756835,-1.0166061560260218,0.10819272696971893
1708438084.7669282,-1.1140356063842773,-1.6769176922240199,-2.5261948744403284,2.2900349336811523,-1.0165780226336878,0.10819582641124725
1708438084.7689488,-1.1140280961990356,-1.6769544086852015,-2.5261786619769495,2.289977713222168,-1.016594711934225,0.10819582641124725
1708438084.7709324,-1.1140891313552856,-1.676981588403219,-2.526161019002096,2.290022059077881,-1.0165861288653772,0.10813356190919876
1708438084.7729242,-1.1140698194503784,-1.676936765710348,-2.5262485186206263,2.29006735860791,-1.016564671193258,0.10817956924438477
1708438084.7749074,-1.114060878753662,-1.6769176922240199,-2.526189629231588,2.290039225215576,-1.0165861288653772,0.10821130871772766
1708438084.7769692,-1.1140652894973755,-1.6769587002196253,-2.5262439886676233,2.2900499540516357,-1.0166195074664515,0.10823595523834229
1708438084.778953,-1.114060878753662,-1.6769987545409144,-2.526181761418478,2.2900468546101074,-1.016568962727682,0.10823917388916016
1708438084.7809367,-1.1141071319580078,-1.6769381962218226,-2.5262070337878626,2.2900306421467285,-1.016601864491598,0.1082477867603302
1708438084.7829268,-1.1140072345733643,-1.6769458256163539,-2.5261698404895228,2.2900630670734863,-1.0165861288653772,0.10817843675613403
1708438084.784931,-1.114060878753662,-1.6769176922240199,-2.5262027422534388,2.2900263506123046,-1.0165570417987269,0.10822290182113647
1708438084.786971,-1.1140742301940918,-1.6769873104491175,-2.5262485186206263,2.2900144296833496,-1.016594711934225,0.10823038220405579
1708438084.7889423,-1.114048957824707,-1.677007337609762,-2.5262635389911097,2.2900499540516357,-1.0165618101703089,0.10828831791877747
1708438084.7909474,-1.1140698194503784,-1.6769944630064906,-2.5261903444873255,2.2900306421467285,-1.016594711934225,0.10822291672229767
1708438084.7929807,-1.114048957824707,-1.6769987545409144,-2.5262070337878626,2.2900630670734863,-1.0165780226336878,0.10823917388916016
1708438084.7949736,-1.114060878753662,-1.67694153408193,-2.526181761418478,2.290071650142334,-1.0165661017047327,0.1082589253783226
1708438084.7969644,-1.1140936613082886,-1.67700256923818,-2.5261698404895228,2.2900544840046386,-1.0165618101703089,0.10823917388916016
1708438084.7989433,-1.1140936613082886,-1.6769706211485804,-2.5262156168567103,2.2900263506123046,-1.0166037718402308,0.10822606831789017
1708438084.8009386,-1.1140847206115723,-1.6769253216185511,-2.5262113253222864,2.290005846614502,-1.016590420399801,0.10825109481811523
1708438084.8029923,-1.1140936613082886,-1.6770240269102992,-2.5261829535113733,2.2900587755390625,-1.0165823141681116,0.108258917927742
1708438084.8049357,-1.1140354871749878,-1.6769706211485804,-2.5262277762042444,2.2900349336811523,-1.016564671193258,0.10828828066587448
1708438084.8069952,-1.114037036895752,-1.6769587002196253,-2.5261991659747522,2.2900425630756835,-1.0165451208697718,0.10829579830169678
1708438084.8089955,-1.1140891313552856,-1.6769620380797328,-2.5261741320239466,2.2900306421467285,-1.0165618101703089,0.10825544595718384
1708438084.8109288,-1.114060878753662,-1.6769091091551722,-2.526219908391134,2.2900101381489257,-1.0165870825396937,0.10829577594995499
1708438084.81297,-1.114060878753662,-1.6769749126830042,-2.5262234846698206,2.2900468546101074,-1.0165661017047327,0.10827087610960007
1708438084.8149576,-1.1140191555023193,-1.6769706211485804,-2.5262323061572474,2.2900263506123046,-1.0165303389178675,0.10830803960561752
1708438084.816994,-1.11405348777771,-1.6770154438414515,-2.5261948744403284,2.290005846614502,-1.0165007750140589,0.10823356360197067
1708438084.8189566,-1.1140638589859009,-1.676913400689596,-2.5261829535113733,2.290055437678955,-1.0165751616107386,0.10828709602355957
1708438084.8209343,-1.1140474081039429,-1.6769944630064906,-2.5261948744403284,2.29006735860791,-1.0165093580829065,0.1082795113325119
1708438084.822983,-1.1140564680099487,-1.6769663296141566,-2.526219908391134,2.290023012752197,-1.0165141264544886,0.10827399045228958
1708438084.8249326,-1.1140773296356201,-1.6769544086852015,-2.5261829535113733,2.290023012752197,-1.0164945761310022,0.10827834159135818
1708438084.8269703,-1.1140966415405273,-1.6769424877562464,-2.5262070337878626,2.290013237590454,-1.0165064970599573,0.10829925537109375
1708438084.8290057,-1.1140445470809937,-1.6770311794676722,-2.526219908391134,2.2900630670734863,-1.0164855162249964,0.10829925537109375
1708438084.830981,-1.1140519380569458,-1.6770111523070277,-2.526198212300436,2.2900306421467285,-1.016461197529928,0.10827082395553589
1708438084.8329756,-1.1140564680099487,-1.6770111523070277,-2.5261829535113733,2.290071411723755,-1.0164945761310022,0.10830800235271454
1708438084.834994,-1.114060878753662,-1.6769701443114222,-2.5261786619769495,2.2900306421467285,-1.016498867665426,0.10829491913318634
1708438084.836954,-1.1140892505645752,-1.6769372425475062,-2.5261786619769495,2.290071650142334,-1.016486946736471,0.10826641321182251
1708438084.8389857,-1.1141055822372437,-1.6770078144469203,-2.5261948744403284,2.290022059077881,-1.01646596590151,0.10833177715539932
1708438084.8409433,-1.1140727996826172,-1.6769458256163539,-2.5261710325824183,2.290011091823242,-1.01646596590151,0.1083199679851532
1708438084.8429904,-1.1140847206115723,-1.6769830189146937,-2.5262120405780237,2.290062590236328,-1.0164783636676233,0.10831117630004883
1708438084.8449626,-1.114098072052002,-1.6769458256163539,-2.526179615651266,2.2900499540516357,-1.016519848500387,0.10829925537109375
1708438084.8469431,-1.114109992980957,-1.6769873104491175,-2.5261710325824183,2.290005846614502,-1.0164945761310022,0.10831877589225769
1708438084.8489199,-1.1140966415405273,-1.6769663296141566,-2.5262396971331995,2.2900630670734863,-1.01646596590151,0.10833177715539932
1708438084.8509312,-1.1140936613082886,-1.6769706211485804,-2.526187245045797,2.290013237590454,-1.016519848500387,0.10832628607749939
1708438084.852931,-1.114075779914856,-1.6770111523070277,-2.526236597691671,2.29006735860791,-1.016491715108053,0.10837623476982117
1708438084.8549356,-1.1140683889389038,-1.676979204217428,-2.526219193135397,2.2900101381489257,-1.0164583365069788,0.10835158824920654
1708438084.8569603,-1.1141175031661987,-1.6769987545409144,-2.5261829535113733,2.2900382715412597,-1.016461197529928,0.10840802639722824
1708438084.8589506,-1.114075779914856,-1.6769787273802699,-2.5261622110949915,2.2900468546101074,-1.016454044972555,0.10835450887680054
1708438084.8609433,-1.1141129732131958,-1.677012105981344,-2.5261991659747522,2.290017529124878,-1.0164745489703577,0.10836648941040039
1708438084.8629546,-1.1140519380569458,-1.6769544086852015,-2.526187245045797,2.2901038366505126,-1.0164702574359339,0.10835018008947372
1708438084.864953,-1.114059329032898,-1.6769339046873988,-2.5261710325824183,2.2900842863270263,-1.0164583365069788,0.10837826132774353
1708438084.867051,-1.1140936613082886,-1.6770240269102992,-2.526187245045797,2.290041370982788,-1.016421143208639,0.10836644470691681
1708438084.8689616,-1.1141130924224854,-1.6769339046873988,-2.526187245045797,2.290005846614502,-1.0164464155780237,0.10839136689901352
1708438084.8709388,-1.1140892505645752,-1.6769873104491175,-2.5261622110949915,2.290013237590454,-1.01646596590151,0.10834583640098572
1708438084.8729587,-1.114075779914856,-1.6769830189146937,-2.526203457509176,2.2900587755390625,-1.0164626280414026,0.10835333913564682
1708438084.8749173,-1.1140803098678589,-1.6769958935179652,-2.5262070337878626,2.2900587755390625,-1.0164254347430628,0.10837077349424362
1708438084.8769193,-1.1140382289886475,-1.6769706211485804,-2.5261786619769495,2.290051146144531,-1.0164583365069788,0.10837827622890472
1708438084.8790412,-1.114092230796814,-1.6769467792906703,-2.5261948744403284,2.2899982172199707,-1.0164583365069788,0.1083827018737793
1708438084.8809495,-1.1141256093978882,-1.6769663296141566,-2.526175324116842,2.2900587755390625,-1.0164344946490687,0.10836644470691681
1708438084.8829913,-1.1141085624694824,-1.6769629917540492,-2.526191536580221,2.290051146144531,-1.0164135138141077,0.10840678215026855
1708438084.8849735,-1.1140875816345215,-1.676957746545309,-2.526187245045797,2.290062590236328,-1.0164015928851526,0.1083751693367958
1708438084.8870072,-1.1141085624694824,-1.6769706211485804,-2.5261548201190394,2.290033741588257,-1.0163944403277796,0.10841114819049835
1708438084.88896,-1.114092230796814,-1.6769339046873988,-2.5261548201190394,2.2900468546101074,-1.0164135138141077,0.10839928686618805
1708438084.8909464,-1.1141085624694824,-1.6769944630064906,-2.5261710325824183,2.2900382715412597,-1.0164645353900355,0.10838618129491806
1708438084.8930013,-1.114158272743225,-1.6769830189146937,-2.5261548201190394,2.2900349336811523,-1.0164597670184534,0.10839926451444626
1708438084.8949332,-1.1141085624694824,-1.6769544086852015,-2.5261667410479944,2.2900263506123046,-1.0164182821856897,0.10839053988456726
1708438084.8969858,-1.1141209602355957,-1.6769663296141566,-2.526175324116842,2.290051146144531,-1.0163973013507288,0.10834139585494995
1708438084.8989356,-1.1141209602355957,-1.6769830189146937,-2.5261881987201136,2.290066881770752,-1.0164182821856897,0.10839489847421646
1708438084.9009445,-1.1141345500946045,-1.6769873104491175,-2.5261710325824183,2.290066881770752,-1.0164645353900355,0.10841111838817596
1708438084.902978,-1.11410391330719,-1.6769749126830042,-2.5261383692370813,2.290066881770752,-1.0164063612567347,0.10838185995817184
1708438084.9049597,-1.114087462425232,-1.6769830189146937,-2.526147190724508,2.2900544840046386,-1.0164225737201136,0.10837828367948532
1708438084.90698,-1.1141209602355957,-1.6769501171507777,-2.5261710325824183,2.2900587755390625,-1.0163939634906214,0.10838621854782104
1708438084.9089434,-1.1141345500946045,-1.6769381962218226,-2.5261829535113733,2.290071411723755,-1.0163987318622034,0.10838618874549866
1708438084.9109292,-1.1141328811645508,-1.6769706211485804,-2.526147190724508,2.2900468546101074,-1.0164240042315882,0.10843934118747711
1708438084.9129555,-1.1141209602355957,-1.676979204217428,-2.526167694722311,2.2900263506123046,-1.0164030233966272,0.10838179290294647
1708438084.914953,-1.1141536235809326,-1.6769987545409144,-2.526224438344137,2.2900630670734863,-1.0163701216327112,0.10838622599840164
1708438084.9169488,-1.1141537427902222,-1.6769706211485804,-2.5261459986316126,2.2900499540516357,-1.0163582007037562,0.10840245336294174
1708438084.9189417,-1.1141085624694824,-1.6769749126830042,-2.5261428991900843,2.2900799947926025,-1.0163267294513147,0.10840553790330887
1708438084.9209576,-1.1141165494918823,-1.6769958935179652,-2.526191536580221,2.290051146144531,-1.0163548628436487,0.10839809477329254
1708438084.922933,-1.1141372919082642,-1.6769381962218226,-2.5261710325824183,2.2900587755390625,-1.016346279774801,0.10840996354818344
1708438084.9249413,-1.1141301393508911,-1.676913400689596,-2.526187245045797,2.2900263506123046,-1.0163252989398401,0.10846027731895447
1708438084.926935,-1.114140272140503,-1.6769305668272914,-2.5261829535113733,2.2900993066975097,-1.0163548628436487,0.10842618346214294
1708438084.9289684,-1.1140904426574707,-1.6769629917540492,-2.526175324116842,2.290041370982788,-1.016334358845846,0.10840995609760284
1708438084.9309614,-1.1141656637191772,-1.677012105981344,-2.526184145604269,2.2900382715412597,-1.0163386503802698,0.10841870307922363
1708438084.9330134,-1.1141085624694824,-1.676957746545309,-2.526167694722311,2.290095015163086,-1.0163520018206995,0.10842621326446533
1708438084.9349618,-1.1141611337661743,-1.6770154438414515,-2.526135269795553,2.290066881770752,-1.0163057486163538,0.10841435194015503
1708438084.9369514,-1.1141374111175537,-1.6769749126830042,-2.5261064211474817,2.2900208669849853,-1.016322437916891,0.10840131342411041
1708438084.9389546,-1.1141358613967896,-1.6769787273802699,-2.526139561329977,2.290033741588257,-1.0162561575519007,0.10845903307199478
1708438084.9409785,-1.114099383354187,-1.6769620380797328,-2.526102129613058,2.290066881770752,-1.0162985960589808,0.10839371383190155
1708438084.943011,-1.1141372919082642,-1.6769749126830042,-2.5260947386371058,2.290062590236328,-1.0163148085223597,0.10850782692432404
1708438084.944959,-1.1141611337661743,-1.6769706211485804,-2.5261152426349085,2.2900499540516357,-1.0162866751300257,0.10845592617988586
1708438084.9469955,-1.1141284704208374,-1.676979204217428,-2.526059691105978,2.290025158519409,-1.0163191000567835,0.10842623561620712
1708438084.948971,-1.1141358613967896,-1.6769339046873988,-2.526088062916891,2.2900499540516357,-1.0162742773639124,0.10842302441596985
1708438084.9509413,-1.1141895055770874,-1.6769544086852015,-2.526010576878683,2.290074511165283,-1.0163191000567835,0.10839684307575226
1708438084.9529514,-1.1141656637191772,-1.6769916019835414,-2.5260348955737513,2.290037079448364,-1.0163448492633265,0.10849162936210632
1708438084.9549363,-1.1141358613967896,-1.6769305668272914,-2.526099983845846,2.2900876241871337,-1.0163071791278284,0.10849153995513916
1708438084.9569373,-1.1141165494918823,-1.6769501171507777,-2.526088062916891,2.290074511165283,-1.0163105169879358,0.10845471918582916
1708438084.9589472,-1.1141477823257446,-1.6769944630064906,-2.526083771382467,2.2900864320942382,-1.0162985960589808,0.10842620581388474
1708438084.960925,-1.1141523122787476,-1.67694153408193,-2.5260849634753626,2.290118857020996,-1.0163329283343714,0.10844278335571289
1708438084.9629521,-1.1141819953918457,-1.676957746545309,-2.526015106831686,2.2900778490253906,-1.0162323156939905,0.10849158465862274
1708438084.9649234,-1.1141149997711182,-1.6769219837584437,-2.526043478642599,2.290102644557617,-1.0162909666644495,0.10843844711780548
1708438084.9669375,-1.1141477823257446,-1.6769458256163539,-2.5260477701770228,2.2901384073444824,-1.0163071791278284,0.10849594324827194
1708438084.968933,-1.1141984462738037,-1.6769873104491175,-2.5260849634753626,2.2901133733936767,-1.0162952581988733,0.10852852463722229
1708438084.9709198,-1.1142014265060425,-1.6769944630064906,-2.526006285344259,2.2901789385029296,-1.0162504355060022,0.10845907777547836
1708438084.9729145,-1.1141939163208008,-1.6769663296141566,-2.5260313192950647,2.2901834684559326,-1.0162580649005335,0.1084175556898117
1708438084.9749303,-1.114168643951416,-1.6770240269102992,-2.526043478642599,2.2902158933826904,-1.0162580649005335,0.10849152505397797
1708438084.9769413,-1.1141849756240845,-1.6769458256163539,-2.526010815297262,2.2901951509663085,-1.01628286043276,0.10845034569501877
1708438084.9790654,-1.1142059564590454,-1.6769830189146937,-2.5260313192950647,2.2901779848286132,-1.0163162390338343,0.10845903307199478
1708438084.9809754,-1.1141642332077026,-1.6769587002196253,-2.525998655949728,2.2901856142231445,-1.0162537733661097,0.10847096145153046
1708438084.9829617,-1.1141448020935059,-1.6769176922240199,-2.5260313192950647,2.290214701289795,-1.016287628804342,0.10843412578105927
1708438084.9849298,-1.114180564880371,-1.6769057712950648,-2.526043478642599,2.290158434505127,-1.016242806111471,0.10845039039850235
1708438084.9869637,-1.1141760349273682,-1.6770202122130335,-2.5260806719409388,2.290154142970703,-1.0162413755999964,0.10847528278827667
1708438084.9889412,-1.114180564880371,-1.6769706211485804,-2.526006285344259,2.290182276363037,-1.016287628804342,0.10843845456838608
1708438084.9909253,-1.1142123937606812,-1.6769663296141566,-2.525994364415304,2.290182276363037,-1.016263786946432,0.10847528278827667
1708438084.9929662,-1.1141849756240845,-1.676979204217428,-2.5260313192950647,2.290210409755371,-1.0162175337420862,0.10843409597873688
1708438084.9949634,-1.1141761541366577,-1.6769706211485804,-2.5260313192950647,2.2901996809193115,-1.016263786946432,0.10847420990467072
1708438084.9969554,-1.1141788959503174,-1.676967283288473,-2.5260520617114466,2.29020278036084,-1.016313378010885,0.10847526788711548
1708438084.9989462,-1.114209532737732,-1.6769544086852015,-2.5260477701770228,2.290198488826416,-1.0162518660174769,0.10847097635269165
1708438085.0009265,-1.114237666130066,-1.6769916019835414,-2.5260477701770228,2.290166063899658,-1.016230885182516,0.10849152505397797
1708438085.0029674,-1.1141878366470337,-1.6769749126830042,-2.5260019938098353,2.2901736932941894,-1.016242806111471,0.10850344598293304
1708438085.004979,-1.1141895055770874,-1.6769339046873988,-2.5260313192950647,2.290194197291992,-1.016242806111471,0.10843414813280106
1708438085.0069644,-1.114200472831726,-1.677007337609762,-2.526059691105978,2.29020278036084,-1.0162351767169397,0.10845903307199478
1708438085.0090609,-1.1142103672027588,-1.6769467792906703,-2.526027027760641,2.2902516561695556,-1.0162189642535608,0.1084698885679245
1708438085.011003,-1.1142048835754395,-1.6769663296141566,-2.526043478642599,2.2901856142231445,-1.016209904347555,0.10844604671001434
1708438085.0130246,-1.1141968965530396,-1.6769629917540492,-2.5260477701770228,2.29020278036084,-1.0162518660174769,0.10845470428466797
1708438085.0150292,-1.1141715049743652,-1.6770287952818812,-2.5259977022754114,2.290154142970703,-1.0162280241595667,0.10843845456838608
1708438085.0169563,-1.1142467260360718,-1.6769339046873988,-2.526027027760641,2.2902232843586425,-1.0161903540240687,0.10843410342931747
1708438085.0189548,-1.1142168045043945,-1.676913400689596,-2.526010815297262,2.2902189928242187,-1.0161789099322718,0.1085067167878151
1708438085.0209453,-1.1141878366470337,-1.6769176922240199,-2.526043478642599,2.2902189928242187,-1.0161288420306605,0.10847421735525131
1708438085.0229254,-1.114200472831726,-1.6769787273802699,-2.526043478642599,2.2901779848286132,-1.0161832014666956,0.10847854614257812
1708438085.0249343,-1.1142184734344482,-1.6769987545409144,-2.5260313192950647,2.290158434505127,-1.0161832014666956,0.1084904670715332
1708438085.0269525,-1.114209532737732,-1.6769381962218226,-2.5260520617114466,2.29022662221875,-1.0161965529071253,0.10842547565698624
1708438085.0290537,-1.1142048835754395,-1.6769262752928675,-2.526027027760641,2.2901779848286132,-1.0162037054644983,0.10848720371723175
1708438085.0309596,-1.1142048835754395,-1.6769958935179652,-2.5260565916644495,2.290194197291992,-1.0161708037005823,0.10844604671001434
1708438085.0329914,-1.114200472831726,-1.6769663296141566,-2.526043478642599,2.290182276363037,-1.0161741415606897,0.10849152505397797
1708438085.0349305,-1.1142168045043945,-1.676979204217428,-2.525998655949728,2.290170355434082,-1.0161498228656214,0.10847095400094986
1708438085.0369406,-1.1141878366470337,-1.6769916019835414,-2.5259864966021937,2.290166063899658,-1.0161750952350062,0.10848720371723175
1708438085.038963,-1.1142423152923584,-1.6769544086852015,-2.5260239283191126,2.290174646968506,-1.0161379019366663,0.10851863771677017
1708438085.0409594,-1.1142003536224365,-1.676957746545309,-2.5259864966021937,2.2901951509663085,-1.0161708037005823,0.10849479585886002
1708438085.0430052,-1.114200472831726,-1.6769348583617152,-2.5260356108294886,2.290182276363037,-1.0161617437945765,0.10842985659837723
1708438085.0449603,-1.114162564277649,-1.6769544086852015,-2.5260356108294886,2.29020278036084,-1.0161832014666956,0.10849152505397797
1708438085.0469677,-1.114237666130066,-1.6769663296141566,-2.5260074774371546,2.2902189928242187,-1.0161140600787562,0.10844604671001434
1708438085.0489585,-1.114185094833374,-1.6769916019835414,-2.5260401407824915,2.2901908594318847,-1.0161832014666956,0.10848613828420639
1708438085.0509157,-1.1142168045043945,-1.676929613152975,-2.526027027760641,2.290198488826416,-1.0161469618426722,0.10842980444431305
1708438085.0529294,-1.1142123937606812,-1.6769219837584437,-2.5259864966021937,2.2902189928242187,-1.0161750952350062,0.1084175556898117
1708438085.054924,-1.1142123937606812,-1.6769458256163539,-2.5259953180896204,2.2901715475269775,-1.0161665121661585,0.10846662521362305
1708438085.056913,-1.1141788959503174,-1.6769749126830042,-2.5260444323169153,2.2901996809193115,-1.0161545912372034,0.10848286002874374
1708438085.0589237,-1.1142287254333496,-1.6769706211485804,-2.5260160605060022,2.29020278036084,-1.0161307493792933,0.10841678828001022
1708438085.0609047,-1.114169955253601,-1.6769458256163539,-2.5259910265551966,2.290186567897461,-1.0161750952350062,0.10843845456838608
1708438085.0629141,-1.1142332553863525,-1.6769219837584437,-2.5259910265551966,2.2901908594318847,-1.0161379019366663,0.10846229642629623
1708438085.0649457,-1.1142168045043945,-1.6769830189146937,-2.5260282198535364,2.290174646968506,-1.0161798636065882,0.10847095400094986
1708438085.0669463,-1.114169955253601,-1.6769587002196253,-2.5260282198535364,2.290186567897461,-1.0161498228656214,0.10849478095769882
1708438085.0689254,-1.114249587059021,-1.6770154438414515,-2.526015106831686,2.2902232843586425,-1.016163174306051,0.10847095400094986
1708438085.0709083,-1.1141959428787231,-1.676929613152975,-2.5260325113879603,2.29020278036084,-1.0161588827716272,0.1084948182106018
1708438085.0729187,-1.114158034324646,-1.6769339046873988,-2.5259953180896204,2.290198488826416,-1.016156021748678,0.10852402448654175
1708438085.0749285,-1.1142467260360718,-1.6769339046873988,-2.5259953180896204,2.2901908594318847,-1.016139332448141,0.10847528278827667
1708438085.0769205,-1.1141870021820068,-1.6769176922240199,-2.5260401407824915,2.2902232843586425,-1.016123119984762,0.10843412578105927
1708438085.0789807,-1.1142467260360718,-1.6769873104491175,-2.5260029474841517,2.2901415067860107,-1.016135040913717,0.10847095400094986
1708438085.0809753,-1.1142287254333496,-1.676913400689596,-2.5260193983661097,2.2901415067860107,-1.0160859266864222,0.10846228897571564
1708438085.0829692,-1.1142287254333496,-1.6769749126830042,-2.5259626547442835,2.290170355434082,-1.0161188284503382,0.10843739658594131
1708438085.0849855,-1.1142361164093018,-1.6769706211485804,-2.5260444323169153,2.2901789385029296,-1.0161188284503382,0.10851863771677017
1708438085.0869606,-1.1142048835754395,-1.6769381962218226,-2.5259910265551966,2.290170355434082,-1.016172234212057,0.1084904745221138
1708438085.0889444,-1.1142139434814453,-1.6769467792906703,-2.5260401407824915,2.2901627260395507,-1.016111199055807,0.10848613828420639
1708438085.0909379,-1.1142168045043945,-1.6769987545409144,-2.52598220506777,2.2901384073444824,-1.016123119984762,0.10845796763896942
1708438085.0929513,-1.1142332553863525,-1.6769987545409144,-2.5259791056262415,2.290137215251587,-1.016106907521383,0.10848288238048553
1708438085.0949757,-1.1142168045043945,-1.6769262752928675,-2.5260117689715784,2.2901996809193115,-1.016144100819723,0.10847854614257812
1708438085.0970178,-1.1142123937606812,-1.6769873104491175,-2.5260444323169153,2.290174646968506,-1.0161321798907679,0.1084904670715332
1708438085.0989301,-1.1141788959503174,-1.6769143543639125,-2.525998655949728,2.2901951509663085,-1.0160978476153772,0.10848287492990494
1708438085.1009426,-1.1142048835754395,-1.6769749126830042,-2.5259996096240442,2.290170355434082,-1.016083065663473,0.1084536463022232
1708438085.1029925,-1.1141959428787231,-1.6769186458983363,-2.5259953180896204,2.2901715475269775,-1.0161407629596155,0.10843845456838608
1708438085.104998,-1.1142078638076782,-1.6769706211485804,-2.5260160605060022,2.2901834684559326,-1.0161646048175257,0.10846662521362305
1708438085.1069546,-1.114249587059021,-1.6768843136229457,-2.5259864966021937,2.290158434505127,-1.016078297291891,0.10853596776723862
1708438085.1089408,-1.1142168045043945,-1.6769434414305628,-2.5259953180896204,2.290121002788208,-1.0161321798907679,0.10848613828420639
1708438085.1109393,-1.1142168045043945,-1.6769587002196253,-2.5259953180896204,2.2902039724537353,-1.0160992781268519,0.10847419500350952
1708438085.1129458,-1.114249587059021,-1.6769544086852015,-2.5259702841388147,2.2901908594318847,-1.016111199055807,0.10850238800048828
1708438085.114934,-1.1142287254333496,-1.6769963703551234,-2.5260031859027308,2.290174646968506,-1.016094986592428,0.10848180949687958
1708438085.1169426,-1.1142197847366333,-1.6769544086852015,-2.5259833971606653,2.2901503282734375,-1.0161035696612757,0.10850238800048828
1708438085.1189353,-1.114221215248108,-1.6770240269102992,-2.5259791056262415,2.290116711253784,-1.016094986592428,0.10844607651233673
1708438085.1209347,-1.114237666130066,-1.6769544086852015,-2.526003901158468,2.290174646968506,-1.0161274115191858,0.10850238800048828
1708438085.1229541,-1.1141581535339355,-1.6770030460753382,-2.525975529347555,2.290170355434082,-1.0160992781268519,0.1085110679268837
1708438085.1249268,-1.1141924858093262,-1.6769987545409144,-2.5259624163257044,2.2901834684559326,-1.016062084828512,0.10851864516735077
1708438085.1269376,-1.1142197847366333,-1.6769381962218226,-2.5259953180896204,2.2902039724537353,-1.0161274115191858,0.10849475115537643
1708438085.1289885,-1.114233136177063,-1.6769663296141566,-2.5259462038623255,2.2900895315357666,-1.0160711447345179,0.1085110455751419
1708438085.1309695,-1.114237666130066,-1.6769749126830042,-2.525971237813131,2.2901546198078613,-1.0160992781268519,0.10850238800048828
1708438085.1329644,-1.1141505241394043,-1.6769873104491175,-2.5259678999530237,2.2901384073444824,-1.0160754362689417,0.10848287492990494
1708438085.1349797,-1.114233136177063,-1.6769629917540492,-2.525919262562887,2.290121002788208,-1.0161173979388636,0.10850672423839569
1708438085.1369631,-1.1142258644104004,-1.67694153408193,-2.5258992354022425,2.2901717859455566,-1.0160992781268519,0.10846559703350067
1708438085.1389747,-1.1142168045043945,-1.676983495751852,-2.5259440580951136,2.2901133733936767,-1.0160711447345179,0.10849367082118988
1708438085.1409647,-1.1142659187316895,-1.67694153408193,-2.5259278456317347,2.2901920515247802,-1.0160916487323206,0.10851539671421051
1708438085.1429694,-1.1141959428787231,-1.677007337609762,-2.525874201451437,2.2901503282734375,-1.0160992781268519,0.10846557468175888
1708438085.1450512,-1.1142048835754395,-1.6769339046873988,-2.5258992354022425,2.290135069484375,-1.0160992781268519,0.10850239545106888
1708438085.1470666,-1.1142139434814453,-1.6769706211485804,-2.52590781847109,2.290151281947754,-1.016074005757467,0.10846228897571564
1708438085.148941,-1.114146113395691,-1.6769620380797328,-2.5258784929858606,2.2901341158100585,-1.0160916487323206,0.10848181694746017
1708438085.1509242,-1.114221215248108,-1.6769701443114222,-2.5258947054492396,2.290151281947754,-1.0161245504962366,0.10843629390001297
1708438085.1529782,-1.114209532737732,-1.6769944630064906,-2.5258873144732874,2.2901503282734375,-1.016083065663473,0.10851863771677017
1708438085.1549346,-1.1141760349273682,-1.676979204217428,-2.5259247461902063,2.2901059824177246,-1.0160992781268519,0.1084698885679245
1708438085.1569564,-1.1142303943634033,-1.6769701443114222,-2.5258992354022425,2.2900983530231933,-1.0161035696612757,0.10848614573478699
1708438085.158977,-1.114209532737732,-1.6769987545409144,-2.5258784929858606,2.2900983530231933,-1.0160711447345179,0.10846114903688431
1708438085.1609461,-1.114146113395691,-1.6769458256163539,-2.5259116331683558,2.2901200491138916,-1.0161126295672815,0.10853523015975952
1708438085.162966,-1.1142048835754395,-1.6769587002196253,-2.5258668104754847,2.2900757032581787,-1.0160797278033655,0.10849368572235107
1708438085.164969,-1.1141597032546997,-1.6769501171507777,-2.5259204546557825,2.290051146144531,-1.0161035696612757,0.10846991091966629
1708438085.1669571,-1.1141761541366577,-1.6770068607726039,-2.525849167500631,2.289973421687744,-1.0160711447345179,0.1085067167878151
1708438085.1689332,-1.1141550540924072,-1.6769100628294886,-2.5259035269366663,2.2899743753620605,-1.016083065663473,0.10853518545627594
1708438085.1709409,-1.1142139434814453,-1.6769587002196253,-2.5259116331683558,2.2899369436451416,-1.0160754362689417,0.10851427167654037
1708438085.1729512,-1.1142048835754395,-1.6769706211485804,-2.525907341633932,2.2899467188068847,-1.0160587469684046,0.10854270309209824
1708438085.174952,-1.1142139434814453,-1.6769424877562464,-2.5259559790240687,2.28995863973584,-1.0160754362689417,0.10854710638523102
1708438085.1769495,-1.1142103672027588,-1.6769587002196253,-2.5259767214404505,2.29000370084729,-1.0161035696612757,0.10849806666374207
1708438085.178966,-1.114180564880371,-1.6769715748228968,-2.5259116331683558,2.2899467188068847,-1.0160844961749476,0.10852213948965073
1708438085.1809366,-1.114209532737732,-1.67694153408193,-2.5259323755847376,2.289897842998169,-1.0160630385028284,0.10852211713790894
1708438085.1829567,-1.1142184734344482,-1.6769987545409144,-2.525898520146505,2.289942427272461,-1.0160587469684046,0.10846879333257675
1708438085.1849334,-1.1141477823257446,-1.6769424877562464,-2.525907341633932,2.2899467188068847,-1.0160630385028284,0.10850124061107635
1708438085.1869478,-1.1141895055770874,-1.6769663296141566,-2.5259116331683558,2.2899293142506103,-1.0160916487323206,0.10853088647127151
1708438085.1889424,-1.114180564880371,-1.6769381962218226,-2.5259116331683558,2.289999170894287,-1.0161083380328577,0.10851102322340012
1708438085.19093,-1.1141775846481323,-1.6769787273802699,-2.5259321371661585,2.2899791437336425,-1.016111199055807,0.10850556939840317
1708438085.1929705,-1.1141656637191772,-1.6770225963988246,-2.5259204546557825,2.289942427272461,-1.0160420576678675,0.10854598134756088
1708438085.1949365,-1.114119529724121,-1.6769663296141566,-2.525949780141012,2.289949818248413,-1.0160663763629358,0.10858312994241714
1708438085.1970294,-1.1141849756240845,-1.6769339046873988,-2.5259321371661585,2.289966030711792,-1.0160258452044886,0.1085708886384964
1708438085.198951,-1.1141939163208008,-1.6770154438414515,-2.525907341633932,2.2899948793598632,-1.0160663763629358,0.10852532088756561
1708438085.2009273,-1.1141700744628906,-1.676953455010885,-2.5259397665606897,2.289975805873535,-1.0160258452044886,0.10857006162405014
1708438085.2029843,-1.1141358613967896,-1.6769787273802699,-2.5259247461902063,2.2899834352680664,-1.0161245504962366,0.10856573283672333
1708438085.2049358,-1.114185094833374,-1.6769339046873988,-2.5259035269366663,2.289938135738037,-1.0160587469684046,0.10862722247838974
1708438085.2069864,-1.1141284704208374,-1.6769544086852015,-2.5258784929858606,2.2899510103413085,-1.0160754362689417,0.10862648487091064
1708438085.2089546,-1.114119529724121,-1.6769982777037562,-2.525903050099508,2.289970560664795,-1.0161245504962366,0.10858528316020966
1708438085.210969,-1.1141283512115479,-1.6769629917540492,-2.5258784929858606,2.2899066644855957,-1.016078297291891,0.1086055114865303
1708438085.2129653,-1.1141448020935059,-1.6769339046873988,-2.5258947054492396,2.28995863973584,-1.0160873571978968,0.10857774317264557
1708438085.2149887,-1.1141372919082642,-1.677011629144186,-2.5259161631213587,2.289902372951172,-1.0161083380328577,0.10862647742033005
1708438085.2169623,-1.1141209602355957,-1.676974435845846,-2.5259161631213587,2.2898947435566406,-1.0161083380328577,0.10859688371419907
1708438085.218936,-1.1141629219055176,-1.6769944630064906,-2.5259323755847376,2.289914293880127,-1.0160754362689417,0.10865454375743866
1708438085.220935,-1.1140995025634766,-1.677007337609762,-2.525923554097311,2.2898904520222167,-1.0160377661334437,0.10865125805139542
1708438085.2229044,-1.1140966415405273,-1.6769381962218226,-2.5259278456317347,2.2898990350910644,-1.0161035696612757,0.10860991477966309
1708438085.2249131,-1.1141372919082642,-1.6769544086852015,-2.5259116331683558,2.289874239558838,-1.0161126295672815,0.10860119760036469
1708438085.226914,-1.1140830516815186,-1.6769491634764613,-2.525857988988058,2.289874716395996,-1.0160587469684046,0.10856473445892334
1708438085.228934,-1.11410391330719,-1.6769787273802699,-2.5258947054492396,2.2898284631916503,-1.0160587469684046,0.10864271223545074
1708438085.2309678,-1.1140623092651367,-1.6769787273802699,-2.525923554097311,2.289874716395996,-1.0160916487323206,0.10864271223545074
1708438085.2329483,-1.114075779914856,-1.6769620380797328,-2.5258949438678187,2.289841576213501,-1.0160587469684046,0.10858526825904846
1708438085.234934,-1.1140711307525635,-1.676974435845846,-2.5259116331683558,2.2898458677479248,-1.0161364714251917,0.10867078602313995
1708438085.237066,-1.1140384674072266,-1.6770392856993617,-2.525874201451437,2.2898871141621093,-1.016083065663473,0.10864591598510742
1708438085.2389574,-1.1140546798706055,-1.6769663296141566,-2.5258947054492396,2.289895935649536,-1.0160873571978968,0.1086917445063591
1708438085.2409656,-1.114075779914856,-1.6769944630064906,-2.5258904139148157,2.289829655284546,-1.0161364714251917,0.10865022987127304
1708438085.2429512,-1.114092230796814,-1.6769458256163539,-2.525907341633932,2.2898828226276855,-1.0160754362689417,0.10862207412719727
1708438085.2449381,-1.1141085624694824,-1.6769787273802699,-2.5259278456317347,2.2898458677479248,-1.0160577932940882,0.10864590108394623
1708438085.2469368,-1.1140966415405273,-1.6769944630064906,-2.5259278456317347,2.289829655284546,-1.0161083380328577,0.10862649977207184
1708438085.2490425,-1.1140546798706055,-1.6769701443114222,-2.525923554097311,2.28987900793042,-1.016078297291891,0.10863830894231796
1708438085.2509305,-1.114075779914856,-1.6769787273802699,-2.5258942286120813,2.2899209696003417,-1.0161126295672815,0.1086055114865303
1708438085.2529116,-1.1140891313552856,-1.6769987545409144,-2.5258992354022425,2.289867325420044,-1.0160916487323206,0.10859256982803345
1708438085.254938,-1.1140847206115723,-1.6770311794676722,-2.5259278456317347,2.289853973979614,-1.0160873571978968,0.10865455865859985
1708438085.2569191,-1.1140803098678589,-1.6769663296141566,-2.525923554097311,2.289907856578491,-1.0160587469684046,0.1086091548204422
1708438085.2589724,-1.1141085624694824,-1.6769620380797328,-2.525886122380392,2.2898990350910644,-1.0160797278033655,0.10865343362092972
1708438085.2609353,-1.1140801906585693,-1.676985879937643,-2.525923554097311,2.289907856578491,-1.0160711447345179,0.10859264433383942
1708438085.2629242,-1.1140475273132324,-1.6769701443114222,-2.525935475026266,2.2898658949085693,-1.0160873571978968,0.10863399505615234
1708438085.2649295,-1.114044427871704,-1.6770435772337855,-2.525935475026266,2.2899109560200195,-1.0160587469684046,0.10862968116998672
1708438085.2669399,-1.1140891313552856,-1.6769458256163539,-2.5259605089770716,2.2898458677479248,-1.0160992781268519,0.10866210609674454
1708438085.2689795,-1.1140682697296143,-1.6770030460753382,-2.5259116331683558,2.289862795467041,-1.0160420576678675,0.10862647742033005
1708438085.270922,-1.1140698194503784,-1.6769944630064906,-2.525923554097311,2.289858503932617,-1.0160964171039026,0.10864591598510742
1708438085.2729194,-1.1140772104263306,-1.6769324741759242,-2.525951687489645,2.289853973979614,-1.0160916487323206,0.10862096399068832
1708438085.2749443,-1.1140356063842773,-1.676974435845846,-2.5259397665606897,2.289867325420044,-1.0160711447345179,0.10865894705057144
1708438085.2769306,-1.114060878753662,-1.6769944630064906,-2.525931183491842,2.28987900793042,-1.0160496870623987,0.10862968116998672
1708438085.278972,-1.1140772104263306,-1.6769987545409144,-2.5259810129748743,2.289862795467041,-1.0160873571978968,0.10861344635486603
1708438085.2809868,-1.1140652894973755,-1.6769458256163539,-2.5258904139148157,2.2898546892353515,-1.0161126295672815,0.10868734121322632
1708438085.2829795,-1.1140936613082886,-1.6770268879332484,-2.5259605089770716,2.289825363750122,-1.0160797278033655,0.1086416020989418
1708438085.2849612,-1.1140519380569458,-1.6769491634764613,-2.5258942286120813,2.2898759084888916,-1.016062084828512,0.10861776024103165
1708438085.2869768,-1.1140817403793335,-1.6770068607726039,-2.5259636084186,2.2898871141621093,-1.0161202589618128,0.10859688371419907
1708438085.2889965,-1.1140652894973755,-1.6769987545409144,-2.5259104410754603,2.2898878294178466,-1.0161245504962366,0.10864591598510742
1708438085.290964,-1.1140683889389038,-1.676974435845846,-2.5259323755847376,2.2898241716572265,-1.0160754362689417,0.10861341655254364
1708438085.2929568,-1.114065408706665,-1.6769787273802699,-2.525923554097311,2.289862795467041,-1.016083065663473,0.1086055338382721
1708438085.294969,-1.1140936613082886,-1.676929613152975,-2.525907341633932,2.289900465602539,-1.016078297291891,0.10857336223125458
1708438085.2970548,-1.114026665687561,-1.6769658527769984,-2.5259559790240687,2.289813442821167,-1.0160992781268519,0.10865125805139542
1708438085.2989507,-1.1140400171279907,-1.6769901714720667,-2.525914971028463,2.289837046260498,-1.0160468260394495,0.10859256982803345
1708438085.3009536,-1.1140533685684204,-1.6769944630064906,-2.5259278456317347,2.2898871141621093,-1.0160663763629358,0.10859823226928711
1708438085.3029938,-1.114048957824707,-1.6770068607726039,-2.525951687489645,2.289858503932617,-1.0160873571978968,0.10862646996974945
1708438085.3049698,-1.1140817403793335,-1.6770068607726039,-2.5259104410754603,2.289867325420044,-1.016078297291891,0.10860912501811981
1708438085.3069365,-1.1140817403793335,-1.6769830189146937,-2.525951687489645,2.2898003297993164,-1.0160964171039026,0.10862648487091064
1708438085.3089716,-1.1140773296356201,-1.6769987545409144,-2.5259116331683558,2.2898616033741455,-1.016094986592428,0.1086675375699997
1708438085.310939,-1.1140564680099487,-1.676957746545309,-2.525959316884176,2.2898828226276855,-1.016062084828512,0.10860989987850189
1708438085.3129563,-1.1140356063842773,-1.676985879937643,-2.525951687489645,2.289932890529297,-1.0161245504962366,0.10861779004335403
1708438085.3149376,-1.1140563488006592,-1.6769944630064906,-2.5259223620044153,2.289832754726074,-1.0160916487323206,0.10866747796535492
1708438085.316949,-1.1140862703323364,-1.6770197353758753,-2.525959316884176,2.2898616033741455,-1.0161202589618128,0.10865569859743118
1708438085.3189518,-1.1140861511230469,-1.6769787273802699,-2.5258899370776575,2.2898658949085693,-1.0160496870623987,0.10861773788928986
1708438085.320925,-1.1140698194503784,-1.6769701443114222,-2.525951687489645,2.289916678065918,-1.0161245504962366,0.10862650722265244
1708438085.322958,-1.1140578985214233,-1.6770030460753382,-2.5259678999530237,2.289853973979614,-1.0161083380328577,0.10863503068685532
1708438085.3249347,-1.1140519380569458,-1.676953455010885,-2.525919262562887,2.2898871141621093,-1.0161531607257288,0.10861849039793015
1708438085.3269439,-1.1140625476837158,-1.6769372425475062,-2.5259724299060267,2.2899209696003417,-1.0160916487323206,0.10863830149173737
1708438085.328999,-1.114014744758606,-1.6769787273802699,-2.525943104420797,2.2899033266254882,-1.016083065663473,0.10859400033950806
1708438085.3309748,-1.1140280961990356,-1.676985879937643,-2.5259605089770716,2.28987900793042,-1.016090218220846,0.10863830894231796
1708438085.3329678,-1.1140488386154175,-1.6769501171507777,-2.5259678999530237,2.289883537883423,-1.016094986592428,0.10867941379547119
1708438085.3349774,-1.1140564680099487,-1.6769873104491175,-2.5258942286120813,2.2899109560200195,-1.0161202589618128,0.10863832384347916
1708438085.3369482,-1.1140817403793335,-1.6769787273802699,-2.525907341633932,2.289919539088867,-1.016090218220846,0.10860548913478851
1708438085.3389592,-1.1140772104263306,-1.6769706211485804,-2.525935475026266,2.2898871141621093,-1.016090218220846,0.10860686749219894
1708438085.3409877,-1.1140519380569458,-1.6770111523070277,-2.525914971028463,2.289935751552246,-1.0160697142230433,0.10864382982254028
1708438085.3429737,-1.1140772104263306,-1.6769939861693324,-2.525951687489645,2.2898658949085693,-1.0161321798907679,0.10856582969427109
1708438085.344959,-1.1140400171279907,-1.6769787273802699,-2.525935475026266,2.2898990350910644,-1.016123119984762,0.10864370316267014
1708438085.347001,-1.114098072052002,-1.6770111523070277,-2.5259440580951136,2.2899152475544433,-1.0160992781268519,0.10859400033950806
1708438085.3489678,-1.1140280961990356,-1.6769830189146937,-2.525951687489645,2.28987900793042,-1.016078297291891,0.10861413925886154
1708438085.3509655,-1.1140326261520386,-1.677007337609762,-2.5259678999530237,2.289874239558838,-1.016090218220846,0.10855351388454437
1708438085.3529563,-1.1140772104263306,-1.6769987545409144,-2.525959316884176,2.2898990350910644,-1.0161154905902308,0.10859064012765884
1708438085.354961,-1.11405348777771,-1.6770030460753382,-2.5259886423694056,2.289916678065918,-1.0160873571978968,0.10859821736812592
1708438085.3569326,-1.114048957824707,-1.6770111523070277,-2.525947395955221,2.2899033266254882,-1.016111199055807,0.10860686004161835
1708438085.3589337,-1.1140773296356201,-1.676957746545309,-2.5259507338153284,2.289900465602539,-1.0161321798907679,0.10854915529489517
1708438085.3609183,-1.1140727996826172,-1.6769706211485804,-2.525951687489645,2.2899228769489746,-1.016090218220846,0.1085449680685997
1708438085.3629467,-1.1140638589859009,-1.6770240269102992,-2.5259550253497522,2.2898616033741455,-1.0160992781268519,0.10860686004161835
1708438085.36494,-1.1140683889389038,-1.6769706211485804,-2.5259550253497522,2.2898904520222167,-1.0160992781268519,0.10856156051158905
1708438085.366936,-1.1140236854553223,-1.676957746545309,-2.5259636084186,2.289837284679077,-1.016094986592428,0.1085503101348877
1708438085.368951,-1.1140803098678589,-1.6770030460753382,-2.525971237813131,2.2898916441151123,-1.016144100819723,0.10859502851963043
1708438085.3709524,-1.1141010522842407,-1.6769501171507777,-2.525968138371603,2.2899347978779296,-1.0160978476153772,0.10855785757303238
1708438085.3729742,-1.1140847206115723,-1.6770068607726039,-2.5259462038623255,2.289919539088867,-1.016144100819723,0.10852104425430298
1708438085.3749332,-1.1141434907913208,-1.6769987545409144,-2.525980059300558,2.2899228769489746,-1.0161188284503382,0.1085091233253479
1708438085.37697,-1.1141010522842407,-1.67700256923818,-2.525980059300558,2.2899228769489746,-1.0160577932940882,0.10858742147684097
1708438085.3789685,-1.1140892505645752,-1.6770111523070277,-2.526008431111471,2.2899510103413085,-1.016144100819723,0.10852217674255371
1708438085.3809893,-1.114150881767273,-1.676929613152975,-2.525971237813131,2.2898785310932617,-1.016151253377096,0.10854710638523102
1708438085.3829956,-1.1140519380569458,-1.6769830189146937,-2.5259669462787073,2.289959593410156,-1.016123119984762,0.10848935693502426
1708438085.3849804,-1.1140892505645752,-1.6769701443114222,-2.5259581247912806,2.2899834352680664,-1.016135040913717,0.10842554271221161
1708438085.3869648,-1.1141055822372437,-1.6769916019835414,-2.5260074774371546,2.289930506343506,-1.016135040913717,0.10847093909978867
1708438085.3889556,-1.1141389608383179,-1.676981588403219,-2.5260611216174524,2.2899347978779296,-1.0161469618426722,0.10845470428466797
1708438085.3909445,-1.1140711307525635,-1.6770154438414515,-2.526027027760641,2.2899629312702636,-1.0161307493792933,0.10845039039850235
1708438085.3929853,-1.1140801906585693,-1.6769424877562464,-2.526022736226217,2.2899553018757324,-1.0161379019366663,0.10841759294271469
1708438085.394964,-1.1140711307525635,-1.6770068607726039,-2.526027027760641,2.2899510103413085,-1.0161188284503382,0.10842545330524445
1708438085.396967,-1.1141175031661987,-1.6770068607726039,-2.5260477701770228,2.289970560664795,-1.0161307493792933,0.10844278335571289
1708438085.3989592,-1.1140803098678589,-1.6769544086852015,-2.526083771382467,2.289945526713989,-1.016151253377096,0.10846662521362305
1708438085.4009671,-1.1141130924224854,-1.6769219837584437,-2.5260632673846644,2.289961739177368,-1.016102139149801,0.10845901817083359
1708438085.4029868,-1.1140503883361816,-1.6769987545409144,-2.5260632673846644,2.2899786668964843,-1.0161469618426722,0.10838623344898224
1708438085.4049616,-1.1140803098678589,-1.677007337609762,-2.526095692311422,2.289965792293213,-1.016102139149801,0.10844278335571289
1708438085.406983,-1.1141129732131958,-1.6770268879332484,-2.526088062916891,2.289965792293213,-1.016167942677633,0.10845901817083359
1708438085.40897,-1.1141129732131958,-1.6769701443114222,-2.526116434727804,2.290051146144531,-1.0161140600787562,0.10843062400817871
1708438085.4109669,-1.1140966415405273,-1.6769544086852015,-2.526099983845846,2.2899982172199707,-1.0161469618426722,0.10842301696538925
1708438085.4129999,-1.1141209602355957,-1.6769091091551722,-2.526059691105978,2.2899982172199707,-1.0161603132831019,0.10836967080831528
1708438085.4149897,-1.1141209602355957,-1.6769620380797328,-2.526092592869894,2.2899982172199707,-1.0161140600787562,0.10837078094482422
1708438085.4169765,-1.114075779914856,-1.6769873104491175,-2.5260990301715296,2.290071411723755,-1.016151253377096,0.10839926451444626
1708438085.418949,-1.1140921115875244,-1.6769372425475062,-2.5260632673846644,2.2900587755390625,-1.016167942677633,0.10843173414468765
1708438085.4209332,-1.1140966415405273,-1.6769944630064906,-2.526043478642599,2.290023012752197,-1.0161946455584925,0.1083827018737793
1708438085.422942,-1.1141165494918823,-1.6769987545409144,-2.526076141987936,2.290059729213379,-1.0161832014666956,0.10839926451444626
1708438085.4249272,-1.1141256093978882,-1.6769544086852015,-2.526076141987936,2.2900425630756835,-1.0161989370929163,0.10837078094482422
1708438085.4269605,-1.114099383354187,-1.6769381962218226,-2.5261088053332728,2.290029450053833,-1.0162323156939905,0.10836206376552582
1708438085.42899,-1.1141537427902222,-1.67700256923818,-2.526071850453512,2.290055437678955,-1.0162232557879847,0.10835454612970352
1708438085.4309547,-1.1141239404678345,-1.676985879937643,-2.526067558919088,2.2900349336811523,-1.0162351767169397,0.10837511718273163
1708438085.4329739,-1.1140949726104736,-1.67700256923818,-2.5260348955737513,2.2900842863270263,-1.0162351767169397,0.10832206904888153
1708438085.4349716,-1.1140949726104736,-1.67694153408193,-2.5260968844043177,2.2900425630756835,-1.0161903540240687,0.10839556157588959
1708438085.4369888,-1.1141372919082642,-1.6769587002196253,-2.526071850453512,2.2900382715412597,-1.0162385145770472,0.10836748778820038
1708438085.4389658,-1.1141419410705566,-1.6769620380797328,-2.526076141987936,2.2900499540516357,-1.016242806111471,0.10836020857095718
1708438085.4409475,-1.11410391330719,-1.6769381962218226,-2.5260751883136194,2.2900468546101074,-1.0162518660174769,0.10829814523458481
1708438085.4429607,-1.1141537427902222,-1.6768881283202113,-2.5260348955737513,2.2900382715412597,-1.0162761847125452,0.10835158079862595
1708438085.4449294,-1.1141448020935059,-1.6769944630064906,-2.52605110803713,2.290041370982788,-1.016242806111471,0.10833172500133514
1708438085.446961,-1.114162802696228,-1.676920553246969,-2.526104513798849,2.290045662517212,-1.016226593648092,0.10830254852771759
1708438085.449003,-1.11410391330719,-1.677035471002096,-2.5260923544513147,2.290083094234131,-1.0162470976458948,0.10832741111516953
1708438085.4509385,-1.1141239404678345,-1.6769501171507777,-2.526071850453512,2.2900425630756835,-1.0162070433246058,0.10831117630004883
1708438085.4529598,-1.114107608795166,-1.6769987545409144,-2.526083771382467,2.290092869395874,-1.016263786946432,0.10829925537109375
1708438085.454947,-1.1141940355300903,-1.6769620380797328,-2.5260806719409388,2.28998510419812,-1.016226593648092,0.10831549018621445
1708438085.4569633,-1.1141700744628906,-1.6769043407835902,-2.526092592869894,2.2900263506123046,-1.0162189642535608,0.10827517509460449
1708438085.4589567,-1.114119529724121,-1.676929613152975,-2.52605110803713,2.290066881770752,-1.016291920338766,0.10831224173307419
1708438085.4609308,-1.1141939163208008,-1.6769830189146937,-2.5260632673846644,2.290095015163086,-1.0162337462054651,0.10826325416564941
1708438085.462949,-1.1141730546951294,-1.6769620380797328,-2.526088062916891,2.2900587755390625,-1.016287628804342,0.10827948898077011
1708438085.4649377,-1.1141209602355957,-1.6770240269102992,-2.5260348955737513,2.2900499540516357,-1.0162504355060022,0.10824666917324066
1708438085.466962,-1.1141358613967896,-1.6769372425475062,-2.5260923544513147,2.2900582987019042,-1.0162008444415491,0.10825896263122559
1708438085.4689412,-1.114168643951416,-1.6769873104491175,-2.526022736226217,2.290074511165283,-1.0162504355060022,0.10822616517543793
1708438085.4709454,-1.1141358613967896,-1.6769787273802699,-2.526055399571554,2.2900540071674804,-1.0162413755999964,0.10819829255342484
1708438085.4729493,-1.1141865253448486,-1.6769544086852015,-2.526043478642599,2.2900993066975097,-1.0163000265704554,0.10826326906681061
1708438085.4749289,-1.1141358613967896,-1.6769701443114222,-2.5260313192950647,2.290071411723755,-1.01628286043276,0.10820996761322021
1708438085.4769506,-1.1141775846481323,-1.6769944630064906,-2.5260139147387903,2.290041370982788,-1.0163252989398401,0.10827517509460449
1708438085.4789696,-1.114103078842163,-1.6769620380797328,-2.526071850453512,2.2901200491138916,-1.01628286043276,0.10826326906681061
1708438085.4809508,-1.114168643951416,-1.6769830189146937,-2.5261369387256067,2.290078802699707,-1.0162366072284144,0.10820990800857544
1708438085.4829733,-1.114168643951416,-1.6770154438414515,-2.526095692311422,2.2901200491138916,-1.0162785688983362,0.10818181931972504
1708438085.4849453,-1.1141730546951294,-1.6769424877562464,-2.5260632673846644,2.290062590236328,-1.0162456671344202,0.10820707678794861
1708438085.486974,-1.1141403913497925,-1.6769706211485804,-2.526071850453512,2.290066881770752,-1.0162127653705042,0.10822296142578125
1708438085.4889452,-1.114152193069458,-1.6769381962218226,-2.526071850453512,2.290078802699707,-1.0163071791278284,0.10823486745357513
1708438085.4909503,-1.114103078842163,-1.6769663296141566,-2.5260914007769983,2.2900544840046386,-1.01628286043276,0.10823488980531693
1708438085.4929464,-1.1141269207000732,-1.6769501171507777,-2.5260632673846644,2.290037079448364,-1.0162337462054651,0.10823488235473633
1708438085.494958,-1.1141523122787476,-1.6769544086852015,-2.52605110803713,2.290090723628662,-1.0162504355060022,0.10823149234056473
1708438085.496978,-1.1141775846481323,-1.6770111523070277,-2.526083771382467,2.290045662517212,-1.0162628332721155,0.10822294652462006
1708438085.4989476,-1.1141477823257446,-1.6769873104491175,-2.5260589758502405,2.2901081281849365,-1.01628286043276,0.10825897008180618
1708438085.5009773,-1.1141939163208008,-1.6769901714720667,-2.526095692311422,2.2900778490253906,-1.01628286043276,0.10821422189474106
1708438085.5029576,-1.1141358613967896,-1.6769458256163539,-2.5260828177081507,2.290106936092041,-1.0162413755999964,0.10823922604322433
1708438085.5049667,-1.1141448020935059,-1.6769749126830042,-2.5260914007769983,2.2901155191608886,-1.0162671248065394,0.10821133852005005
1708438085.5069306,-1.1141597032546997,-1.676953455010885,-2.5260794798480433,2.2900659280964355,-1.0162537733661097,0.10825540125370026
1708438085.508958,-1.1141120195388794,-1.6769458256163539,-2.5260871092425745,2.290106936092041,-1.0163210074054163,0.10821862518787384
1708438085.5109649,-1.1141730546951294,-1.6769830189146937,-2.5260589758502405,2.290106936092041,-1.0162909666644495,0.10821134597063065
1708438085.5129685,-1.1141656637191772,-1.6769381962218226,-2.5260589758502405,2.290106936092041,-1.016254727040426,0.10819480568170547
1708438085.5149596,-1.1141642332077026,-1.6769944630064906,-2.5260871092425745,2.290118857020996,-1.0162866751300257,0.10818279534578323
1708438085.5169659,-1.1142014265060425,-1.6769620380797328,-2.5260632673846644,2.290130777949951,-1.0163000265704554,0.10823585838079453
1708438085.5189655,-1.114164113998413,-1.67700256923818,-2.526034657155172,2.2901920515247802,-1.0162909666644495,0.1081785336136818
1708438085.5209148,-1.1141523122787476,-1.6769381962218226,-2.5260096232043665,2.2901179033466796,-1.0163071791278284,0.10818721354007721
1708438085.5229518,-1.1141550540924072,-1.6769706211485804,-2.526067558919088,2.290186567897461,-1.0163028875934046,0.10820704698562622
1708438085.5249271,-1.1141849756240845,-1.6769587002196253,-2.5260794798480433,2.290174646968506,-1.0162866751300257,0.10820702463388443
1708438085.526937,-1.1142184734344482,-1.676953455010885,-2.526083771382467,2.290214701289795,-1.0162938276873987,0.10821559280157089
1708438085.5289981,-1.1141730546951294,-1.6770397625365199,-2.526071850453512,2.2902070718952636,-1.0163477102862757,0.10822725296020508
1708438085.5310135,-1.1141849756240845,-1.676974435845846,-2.526067558919088,2.2902189928242187,-1.0163386503802698,0.10825636982917786
1708438085.5329952,-1.1141924858093262,-1.6769663296141566,-2.526055399571554,2.2901789385029296,-1.0163267294513147,0.10821998119354248
1708438085.5349874,-1.114185094833374,-1.6769501171507777,-2.526034657155172,2.290158434505127,-1.0163386503802698,0.10818717628717422
1708438085.5369904,-1.114180564880371,-1.67694153408193,-2.5260468165027063,2.29020278036084,-1.0163267294513147,0.10816659778356552
1708438085.5389707,-1.1141642332077026,-1.6769663296141566,-2.526104513798849,2.290182276363037,-1.0163639227496546,0.10816335678100586
1708438085.540927,-1.114180564880371,-1.6769587002196253,-2.5260794798480433,2.2902189928242187,-1.016313378010885,0.10823149234056473
1708438085.5429833,-1.114185094833374,-1.6769501171507777,-2.5260632673846644,2.290198488826416,-1.0163176695453089,0.10820767283439636
1708438085.5449677,-1.1142014265060425,-1.6769944630064906,-2.526055399571554,2.2902070718952636,-1.0163429419146937,0.10823724418878555
1708438085.5470233,-1.1142228841781616,-1.6769587002196253,-2.526104513798849,2.290186567897461,-1.0163806120501917,0.10817096382379532
1708438085.5489554,-1.1141849756240845,-1.6769749126830042,-2.526066605244772,2.290174646968506,-1.0163267294513147,0.10818831622600555
1708438085.5509362,-1.1141730546951294,-1.6769706211485804,-2.526104513798849,2.290186567897461,-1.016322437916891,0.10816335678100586
1708438085.5529315,-1.1141715049743652,-1.6769663296141566,-2.5261369387256067,2.290182276363037,-1.016322437916891,0.10815904289484024
1708438085.5549247,-1.114168643951416,-1.6769620380797328,-2.526055399571554,2.290260000819824,-1.0164087454425257,0.10816764831542969
1708438085.5569253,-1.1142230033874512,-1.6769262752928675,-2.5260794798480433,2.2901531892963867,-1.0162938276873987,0.1081676334142685
1708438085.5589437,-1.114180564880371,-1.6769381962218226,-2.5260706583606165,2.290186567897461,-1.016329590474264,0.10817525535821915
1708438085.5609286,-1.1142139434814453,-1.6769749126830042,-2.5260303656207483,2.2901789385029296,-1.016334358845846,0.10816335678100586
1708438085.5629418,-1.114185094833374,-1.676974435845846,-2.526083771382467,2.29020278036084,-1.0163715521441858,0.1081467941403389
1708438085.5649307,-1.114209532737732,-1.6769587002196253,-2.5260751883136194,2.2901617723652343,-1.016350571309225,0.10821201652288437
1708438085.5669472,-1.1142014265060425,-1.6769491634764613,-2.5260751883136194,2.290170355434082,-1.0163715521441858,0.10818826407194138
1708438085.5689695,-1.1142139434814453,-1.6769916019835414,-2.5260751883136194,2.2901789385029296,-1.0163429419146937,0.10817956179380417
1708438085.5709355,-1.114180564880371,-1.6769830189146937,-2.526067558919088,2.2902394968220214,-1.016383473073141,0.10815904289484024
1708438085.5729413,-1.1141761541366577,-1.6769629917540492,-2.5260794798480433,2.2901908594318847,-1.0163548628436487,0.10823287069797516
1708438085.5749426,-1.1141924858093262,-1.6769987545409144,-2.5260794798480433,2.290154142970703,-1.0163582007037562,0.10817956924438477
1708438085.576964,-1.1141715049743652,-1.676974435845846,-2.5261033217059534,2.2901736932941894,-1.016350571309225,0.10817096382379532
1708438085.5789497,-1.1142139434814453,-1.6769916019835414,-2.526083771382467,2.290214701289795,-1.0163429419146937,0.10818389058113098
1708438085.5809846,-1.1141387224197388,-1.6769749126830042,-2.526055399571554,2.290186567897461,-1.0163667837726038,0.10822071135044098
1708438085.5829391,-1.114168643951416,-1.6769944630064906,-2.526071850453512,2.290170355434082,-1.0163429419146937,0.10816333442926407
1708438085.584967,-1.1142213344573975,-1.6769501171507777,-2.5260794798480433,2.290194197291992,-1.016383473073141,0.10816764831542969
1708438085.5869617,-1.114185094833374,-1.6770397625365199,-2.5260337034808558,2.2902113634296875,-1.016395394002096,0.10817203670740128
1708438085.5889487,-1.1141849756240845,-1.6770154438414515,-2.5261076132403772,2.2902189928242187,-1.016383473073141,0.10815473645925522
1708438085.5909529,-1.114200472831726,-1.6769544086852015,-2.5260751883136194,2.2901899057575683,-1.0163787047015589,0.10813487321138382
1708438085.5930026,-1.114180564880371,-1.6769219837584437,-2.526116196309225,2.290182276363037,-1.0163996855365198,0.10819579660892487
1708438085.5949788,-1.1141715049743652,-1.6769620380797328,-2.5260589758502405,2.290166063899658,-1.0163667837726038,0.10817956924438477
1708438085.5969656,-1.1141715049743652,-1.6769916019835414,-2.5260990301715296,2.2901672559925537,-1.0163324514972132,0.10816333442926407
1708438085.598958,-1.1141924858093262,-1.6769544086852015,-2.526067558919088,2.290174646968506,-1.016374413167135,0.10817096382379532
1708438085.6009448,-1.114209532737732,-1.6769339046873988,-2.5260990301715296,2.290170355434082,-1.0163877646075647,0.1081547662615776
1708438085.6029577,-1.1141834259033203,-1.6769544086852015,-2.5260794798480433,2.2901736932941894,-1.0163582007037562,0.10816337168216705
1708438085.6049616,-1.1141713857650757,-1.6769501171507777,-2.5260751883136194,2.2901415067860107,-1.0163667837726038,0.10819478332996368
1708438085.6069682,-1.1141939163208008,-1.6769176922240199,-2.5260632673846644,2.2901672559925537,-1.0163787047015589,0.10820341110229492
1708438085.6089854,-1.1141642332077026,-1.6769467792906703,-2.526095692311422,2.290116711253784,-1.0164197126971644,0.10815548896789551
1708438085.611033,-1.1141358613967896,-1.677011629144186,-2.526067558919088,2.2901457983204345,-1.0163534323321741,0.10817956924438477
1708438085.6130326,-1.1141642332077026,-1.6769787273802699,-2.5260871092425745,2.2901457983204345,-1.0163653532611292,0.10816334187984467
1708438085.615023,-1.1142122745513916,-1.6769587002196253,-2.5260794798480433,2.290224476451538,-1.0164077917682093,0.10816653072834015
1708438085.616999,-1.1142185926437378,-1.6769830189146937,-2.5260468165027063,2.2901908594318847,-1.0164197126971644,0.10815902054309845
1708438085.6189904,-1.1141642332077026,-1.67700256923818,-2.526067558919088,2.2901920515247802,-1.0163729826556605,0.10817525535821915
1708438085.6209633,-1.1141730546951294,-1.6769458256163539,-2.5260794798480433,2.290137215251587,-1.0164197126971644,0.10824451595544815
1708438085.622985,-1.1141403913497925,-1.67694153408193,-2.5260914007769983,2.2901384073444824,-1.0163973013507288,0.10824348777532578
1708438085.6249735,-1.1141775846481323,-1.676974435845846,-2.526067558919088,2.2901674944111328,-1.0163820425616663,0.10820341110229492
1708438085.6269438,-1.114156723022461,-1.6769701443114222,-2.5260465780841272,2.2901920515247802,-1.0163653532611292,0.10820702463388443
1708438085.6289358,-1.1141403913497925,-1.6769944630064906,-2.5260914007769983,2.2901951509663085,-1.0164406935321253,0.10822725296020508
1708438085.6310294,-1.114156723022461,-1.6769944630064906,-2.526099983845846,2.2901341158100585,-1.0164030233966272,0.10821997374296188
1708438085.6329775,-1.1141374111175537,-1.6770435772337855,-2.5260632673846644,2.2901179033466796,-1.0164149443255823,0.1082155704498291
1708438085.634996,-1.1141372919082642,-1.676985879937643,-2.5260794798480433,2.290069265956543,-1.0164240042315882,0.10823045670986176
1708438085.6369665,-1.1141464710235596,-1.67700256923818,-2.526111904774801,2.290118857020996,-1.0163987318622034,0.10820341110229492
1708438085.6389751,-1.1140339374542236,-1.6770183048644007,-2.5260751883136194,2.2900702196308593,-1.0163863340960901,0.10829252004623413
1708438085.640954,-1.114126443862915,-1.6770826778807582,-2.526111904774801,2.2900263506123046,-1.0164287726031702,0.10823486000299454
1708438085.6429584,-1.114048957824707,-1.6770621738829554,-2.526099983845846,2.2900144296833496,-1.0164106527911585,0.10831228643655777
1708438085.6450353,-1.1140519380569458,-1.6771275005736292,-2.5260828177081507,2.2899862962910156,-1.0164240042315882,0.10829572379589081
1708438085.6469712,-1.1140847206115723,-1.6770655117430628,-2.5261076132403772,2.2899960714527587,-1.0163820425616663,0.10828269273042679
1708438085.6489522,-1.1140564680099487,-1.677110334435934,-2.5261195341693323,2.2899293142506103,-1.0163534323321741,0.10830364376306534
1708438085.650936,-1.114037036895752,-1.677138467828268,-2.526161257420675,2.289910002345703,-1.016346279774801,0.10829925537109375
1708438085.6529832,-1.114048957824707,-1.6771589718260707,-2.5260794798480433,2.2899390894123535,-1.0163582007037562,0.10829140990972519
1708438085.6549425,-1.1140036582946777,-1.6771241627135218,-2.526111904774801,2.2898871141621093,-1.016383473073141,0.10832742601633072
1708438085.6569371,-1.1140117645263672,-1.6772142849364222,-2.526111904774801,2.2898496824451904,-1.0164273420916956,0.10828269273042679
1708438085.658946,-1.1140251159667969,-1.6771732769408167,-2.5260501543628138,2.289834185237549,-1.0164240042315882,0.10833501815795898
1708438085.6609275,-1.113972544670105,-1.6772343120970667,-2.5260871092425745,2.289806051845215,-1.0164316336261194,0.1083230972290039
1708438085.6629424,-1.113956093788147,-1.677241941491598,-2.5260632673846644,2.289801760310791,-1.0164316336261194,0.10839664191007614
1708438085.664936,-1.1139694452285767,-1.6772505245604457,-2.5260632673846644,2.2897772031971435,-1.0164197126971644,0.10834367573261261
1708438085.6669593,-1.1139367818832397,-1.677253862420553,-2.5261076132403772,2.289745970363281,-1.0164030233966272,0.10835591703653336
1708438085.6689444,-1.1139333248138428,-1.6772614918150843,-2.5260914007769983,2.289689465160034,-1.0164268652545374,0.10842515528202057
1708438085.6709378,-1.1138767004013062,-1.6773106060423792,-2.5260379950152796,2.289698286647461,-1.0163772741900843,0.10837509483098984
1708438085.6730065,-1.113863229751587,-1.6773654423155726,-2.5260751883136194,2.2896737295338134,-1.0164063612567347,0.10837510973215103
1708438085.6749332,-1.1139005422592163,-1.677333494225973,-2.526067558919088,2.2896620470234375,-1.0164106527911585,0.1083664670586586
1708438085.676955,-1.1138324737548828,-1.677317281762594,-2.5260751883136194,2.289651079768799,-1.0164225737201136,0.10842303186655045
1708438085.678951,-1.1138112545013428,-1.6774145565428675,-2.5261076132403772,2.289576931590698,-1.0163820425616663,0.10841552168130875
1708438085.6809785,-1.1138160228729248,-1.6773129902281703,-2.5260708967791956,2.2895867067524414,-1.0163820425616663,0.10843062400817871
1708438085.6829717,-1.1138041019439697,-1.6773983440794886,-2.5260914007769983,2.2895542818256835,-1.0163820425616663,0.10847637057304382
1708438085.684959,-1.1137683391571045,-1.6773768864073695,-2.526111904774801,2.289547844524048,-1.0164435545550745,0.10845581442117691
1708438085.686975,-1.113699197769165,-1.6774097881712855,-2.5261076132403772,2.289485378856323,-1.0163896719561976,0.10845903307199478
1708438085.6889715,-1.1137217283248901,-1.6774865589537562,-2.5260632673846644,2.2895147043415527,-1.0163820425616663,0.10845470428466797
1708438085.690953,-1.113709807395935,-1.6774493656554164,-2.5260751883136194,2.2894465166279296,-1.0163944403277796,0.10841444134712219
1708438085.6929576,-1.1136527061462402,-1.677396913568014,-2.5260751883136194,2.289421959514282,-1.0164268652545374,0.10846556723117828
1708438085.694953,-1.113612413406372,-1.6774293384947718,-2.526083771382467,2.289443178767822,-1.0163896719561976,0.10849909484386444
1708438085.6969924,-1.1135975122451782,-1.6774779758849085,-2.5260751883136194,2.289313240642212,-1.0163896719561976,0.10847096145153046
1708438085.6990013,-1.113507628440857,-1.6774727306761683,-2.5260914007769983,2.2893099027821044,-1.0163944403277796,0.10850238800048828
1708438085.7009425,-1.1135166883468628,-1.6774898968138636,-2.526088062916891,2.289327307338379,-1.0164316336261194,0.10849479585886002
1708438085.7029507,-1.113501787185669,-1.677530427972311,-2.526099983845846,2.289254828090332,-1.0163863340960901,0.10853954404592514
1708438085.7049797,-1.1134282350540161,-1.6775008640685023,-2.526055399571554,2.289221687907837,-1.0164030233966272,0.10850238800048828
1708438085.7069762,-1.1133544445037842,-1.6775132618346156,-2.526100222264425,2.2891084390827636,-1.0163701216327112,0.10854269564151764
1708438085.7089846,-1.1133651733398438,-1.6775418720641078,-2.5260914007769983,2.289163752193115,-1.0164268652545374,0.10850129276514053
1708438085.710933,-1.113279104232788,-1.6775695286192835,-2.5261033217059534,2.2891031938740234,-1.0163987318622034,0.10854272544384003
1708438085.7129445,-1.1133142709732056,-1.677572866479391,-2.5260751883136194,2.289071245784424,-1.0163772741900843,0.10857880115509033
1708438085.714988,-1.113210678100586,-1.6775552235045375,-2.5260589758502405,2.289003534907959,-1.0164106527911585,0.10857883840799332
1708438085.7169313,-1.1132184267044067,-1.677633901635641,-2.5260751883136194,2.288942499751709,-1.0163987318622034,0.10858631879091263
1708438085.7189672,-1.1131938695907593,-1.6776043377318324,-2.5260871092425745,2.288886232967041,-1.0164316336261194,0.10865892469882965
1708438085.72095,-1.1130948066711426,-1.6776124439635218,-2.5261076132403772,2.288919611568115,-1.0163653532611292,0.10858955979347229
1708438085.7229488,-1.113077163696289,-1.6776982746519984,-2.5260871092425745,2.288822813625,-1.0164268652545374,0.10859685391187668
1708438085.7249455,-1.112978219985962,-1.6777335606017054,-2.526123825703756,2.288832588786743,-1.0163987318622034,0.10868741571903229
1708438085.7269523,-1.1130006313323975,-1.677720685998434,-2.526123825703756,2.288738890285156,-1.0164030233966272,0.10861340165138245
1708438085.7289574,-1.1129858493804932,-1.67777742962026,-2.526123825703756,2.2886668878742675,-1.0164077917682093,0.10866215825080872
1708438085.7309453,-1.11286461353302,-1.6777569256224574,-2.5261109511004847,2.2886180120655517,-1.0163491407977503,0.10863721370697021
1708438085.7329752,-1.112869143486023,-1.677781721154684,-2.5260825792895716,2.288562222118042,-1.0163853804217737,0.10866999626159668
1708438085.7349694,-1.1128110885620117,-1.6778389416136683,-2.5260663668261927,2.288538618678711,-1.0164240042315882,0.10870686173439026
1708438085.736965,-1.1127936840057373,-1.6778537235655726,-2.526128355656759,2.2885195451923828,-1.0163896719561976,0.10869815945625305
1708438085.7389643,-1.112687349319458,-1.677824159661764,-2.526029411946432,2.288458986873291,-1.0163729826556605,0.10867440700531006
1708438085.7409832,-1.1126524209976196,-1.6779047451415003,-2.5260501543628138,2.288411779994629,-1.0163701216327112,0.10871471464633942
1708438085.7429495,-1.1126359701156616,-1.6779047451415003,-2.526095692311422,2.2883173662373046,-1.0164526144610804,0.10871471464633942
1708438085.7449396,-1.1125684976577759,-1.6779362163939417,-2.5260632673846644,2.2883185583302,-1.0164197126971644,0.10871471464633942
1708438085.7469733,-1.11250901222229,-1.677931924859518,-2.5260751883136194,2.28825490056958,-1.0164149443255823,0.1087222620844841
1708438085.7489622,-1.112456202507019,-1.677976747552389,-2.526095692311422,2.2881991106220703,-1.0164316336261194,0.10868515819311142
1708438085.7509513,-1.1124534606933594,-1.67802157024526,-2.5260751883136194,2.2881547647663574,-1.0163944403277796,0.1087457463145256
1708438085.7529373,-1.1124149560928345,-1.6780616245665492,-2.5260632673846644,2.2881344991871337,-1.0163772741900843,0.10869389027357101
1708438085.7549355,-1.1122987270355225,-1.6780573330321253,-2.5260422865497034,2.2880751329609375,-1.0163820425616663,0.10872222483158112
1708438085.7569213,-1.1123141050338745,-1.6780835590758265,-2.5260663668261927,2.2880887228199462,-1.0164197126971644,0.10867662727832794
1708438085.758944,-1.1121830940246582,-1.6780554256834925,-2.526099983845846,2.28798691808667,-1.0164197126971644,0.10875009000301361
1708438085.7609324,-1.1121892929077148,-1.678108354608053,-2.5260751883136194,2.287996693248413,-1.0164240042315882,0.10871793329715729
1708438085.762926,-1.1120754480361938,-1.6781403026976527,-2.5261076132403772,2.287890835399292,-1.0164316336261194,0.10875368118286133
1708438085.764988,-1.1119943857192993,-1.6781474552550257,-2.5260871092425745,2.287839575404785,-1.0164268652545374,0.10873713344335556
1708438085.76695,-1.1120078563690186,-1.678187986413473,-2.5260501543628138,2.2878123956867675,-1.0164359251605433,0.10874153673648834
1708438085.768961,-1.1119409799575806,-1.6782118282713832,-2.526095692311422,2.2877771097370605,-1.0164030233966272,0.10875004529953003
1708438085.7709503,-1.1119047403335571,-1.678321977654928,-2.5260794798480433,2.2876671987720947,-1.0164015928851526,0.10873846709728241
1708438085.7729316,-1.111868977546692,-1.6783162556090296,-2.5260914007769983,2.2876240450092773,-1.0164149443255823,0.1087016835808754
1708438085.7749486,-1.1118128299713135,-1.678319593469137,-2.5260751883136194,2.2875546652027587,-1.0163653532611292,0.1087828129529953
1708438085.7769415,-1.1117453575134277,-1.6783434353270472,-2.526123825703756,2.287503166789673,-1.016369644795553,0.10874152183532715
1708438085.7789617,-1.1117095947265625,-1.6783472500243128,-2.5260828177081507,2.2874600130268554,-1.016390625630514,0.10871361196041107
1708438085.780965,-1.111665964126587,-1.678338190118307,-2.5260708967791956,2.287407560939453,-1.0163610617267054,0.10873415321111679
1708438085.782989,-1.1115775108337402,-1.6784564457335414,-2.5260990301715296,2.2873598772236328,-1.0163987318622034,0.1087094247341156
1708438085.7849593,-1.1115163564682007,-1.6784349880614222,-2.5261033217059534,2.287287874812744,-1.0163787047015589,0.10872560739517212
1708438085.786975,-1.1114308834075928,-1.6785327396788539,-2.5261076132403772,2.287202759380005,-1.0163820425616663,0.10872983932495117
1708438085.7889671,-1.1114548444747925,-1.6785651646056117,-2.5261357466327112,2.287196322078369,-1.016374413167135,0.10877090692520142
1708438085.7909806,-1.1113722324371338,-1.678530832330221,-2.5261314550982874,2.287144823665283,-1.016374413167135,0.1087016835808754
1708438085.7929504,-1.1113287210464478,-1.6785475216307582,-2.5261195341693323,2.2870349127003173,-1.01636249223818,0.10876309871673584
1708438085.794953,-1.1112074851989746,-1.6786071262755335,-2.526062075291769,2.2869841295429687,-1.0163987318622034,0.10870599746704102
1708438085.7969398,-1.1112253665924072,-1.6786471805968226,-2.5261076132403772,2.28691212713208,-1.0164077917682093,0.10870169848203659
1708438085.798946,-1.1111400127410889,-1.6786428890623988,-2.526128355656759,2.2868799406239013,-1.0163863340960901,0.10866568237543106
1708438085.8009274,-1.1110632419586182,-1.678683420220846,-2.5260708967791956,2.2868243890949707,-1.016390625630514,0.1086491197347641
1708438085.802946,-1.111015796661377,-1.6787635288634242,-2.5261314550982874,2.28680865346875,-1.0163372198687952,0.10864908993244171
1708438085.8049564,-1.1109765768051147,-1.6787268124022425,-2.526132647191183,2.286696596736572,-1.0163701216327112,0.10863830149173737
1708438085.8069596,-1.1109408140182495,-1.6787392101683558,-2.5260871092425745,2.286660833949707,-1.0163853804217737,0.10860912501811981
1708438085.8089595,-1.1108896732330322,-1.6787706814207972,-2.5261314550982874,2.286559744472168,-1.0163701216327112,0.10860991477966309
1708438085.8109338,-1.1108081340789795,-1.678847452203268,-2.5260663668261927,2.286531849498413,-1.0163653532611292,0.10860119760036469
1708438085.8129714,-1.110748052597046,-1.6788550815977992,-2.5260947386371058,2.286456270808838,-1.0164077917682093,0.10858528316020966
1708438085.8149471,-1.1107378005981445,-1.6788836918272914,-2.5260751883136194,2.2864529329487304,-1.016390625630514,0.10855712741613388
1708438085.8169904,-1.110628366470337,-1.6788751087584437,-2.52611214319338,2.2863895136066894,-1.0163653532611292,0.10856158286333084
1708438085.8189473,-1.110547423362732,-1.6788622341551722,-2.5261109511004847,2.28635756551709,-1.016390625630514,0.10851672291755676
1708438085.8209617,-1.1105625629425049,-1.6789313755431117,-2.526095692311422,2.2862207132526855,-1.0163582007037562,0.1085091233253479
1708438085.8229876,-1.1104894876480103,-1.6789876423277796,-2.5261152426349085,2.286201162929199,-1.0164030233966272,0.10849691927433014
1708438085.82494,-1.1104457378387451,-1.6789618931212367,-2.5260828177081507,2.286144180888794,-1.0163653532611292,0.10856765508651733
1708438085.8269649,-1.110381007194519,-1.6789423427977503,-2.5261152426349085,2.286067171687744,-1.0164077917682093,0.10847854614257812
1708438085.82893,-1.1103122234344482,-1.679014345208639,-2.5261314550982874,2.286019964809082,-1.016374413167135,0.10844278335571289
1708438085.8309808,-1.110244631767273,-1.6790429554381312,-2.5260990301715296,2.2859553533741455,-1.0163491407977503,0.10843493789434433
1708438085.8329897,-1.1102172136306763,-1.6790429554381312,-2.5261076132403772,2.285960837001465,-1.016383473073141,0.10839815437793732
1708438085.8349307,-1.1101443767547607,-1.6790415249266566,-2.526140276585714,2.285900517100952,-1.0163772741900843,0.1084359660744667
1708438085.8369682,-1.1100959777832031,-1.6791230640807093,-2.5260751883136194,2.2858444887348632,-1.0163582007037562,0.10836206376552582
1708438085.83895,-1.1100739240646362,-1.67907776455068,-2.5260794798480433,2.2857722479053955,-1.0164240042315882,0.10828191041946411
1708438085.8409371,-1.110059142112732,-1.679150720635885,-2.526165548955099,2.285741015071533,-1.0163701216327112,0.10832308232784271
1708438085.8429537,-1.1099646091461182,-1.6791745624937953,-2.5261359850512903,2.285655899638794,-1.0164359251605433,0.1082502231001854
1708438085.8449833,-1.1099416017532349,-1.6791492901244105,-2.5260990301715296,2.2856289583393554,-1.0163772741900843,0.10825540870428085
1708438085.8469942,-1.1098906993865967,-1.6792708835997523,-2.5260751883136194,2.2855569559284667,-1.0163653532611292,0.10819046199321747
1708438085.8489752,-1.1098707914352417,-1.679253717462057,-2.5260914007769983,2.285524769420288,-1.0164030233966272,0.10819149017333984
1708438085.850937,-1.1098096370697021,-1.679265638391012,-2.526095692311422,2.2854031759449462,-1.016395394002096,0.10817525535821915
1708438085.8529801,-1.1097784042358398,-1.679326673547262,-2.5260871092425745,2.285355969066284,-1.0163701216327112,0.10809025168418884
1708438085.8549378,-1.109721302986145,-1.679354806939596,-2.526140276585714,2.2853314119526367,-1.0164359251605433,0.10814034938812256
1708438085.856959,-1.1096701622009277,-1.679448743859762,-2.5261076132403772,2.285273237819336,-1.0163987318622034,0.10805116593837738
1708438085.8589382,-1.1096270084381104,-1.6793934307494105,-2.5260751883136194,2.285294933910034,-1.0164030233966272,0.10801947861909866
1708438085.860936,-1.109569787979126,-1.679446359673971,-2.5261033217059534,2.285189314479492,-1.0164197126971644,0.10802499204874039
1708438085.8629587,-1.1095296144485474,-1.6794940433897914,-2.5260945002185267,2.285156174296997,-1.0163820425616663,0.10793612152338028
1708438085.8649375,-1.1094366312026978,-1.6794940433897914,-2.526102129613058,2.285097761745117,-1.0163787047015589,0.10787604004144669
1708438085.866963,-1.1093593835830688,-1.6795498333373011,-2.526090208684103,2.285073443050049,-1.0164197126971644,0.10783994942903519
1708438085.8689356,-1.109311819076538,-1.6795174084105433,-2.5261152426349085,2.2850019174763183,-1.0163787047015589,0.10779229551553726
1708438085.8709507,-1.1092936992645264,-1.6795650921263636,-2.5261152426349085,2.2849342065998535,-1.0164077917682093,0.1077728196978569
1708438085.8729556,-1.1092489957809448,-1.6796499691405238,-2.526085917149679,2.284909887904785,-1.0163372198687952,0.10768914222717285
1708438085.8749692,-1.1092188358306885,-1.6795689068236292,-2.526114050542013,2.2848750787922363,-1.0164030233966272,0.1076325923204422
1708438085.8769596,-1.1091078519821167,-1.679678579370016,-2.5261765162097376,2.2847770887562255,-1.0164197126971644,0.1075521931052208
1708438085.8789518,-1.1090692281723022,-1.6796938381590785,-2.526179615651266,2.284778280849121,-1.0164387861834925,0.10754561424255371
1708438085.8809474,-1.1090328693389893,-1.6797048054137171,-2.5261839071856897,2.2847181993671875,-1.0164197126971644,0.10747602581977844
1708438085.8830066,-1.1089614629745483,-1.6797696552672328,-2.526196066533224,2.284571810359619,-1.0164359251605433,0.10744576901197433
1708438085.884965,-1.1089013814926147,-1.679760595361227,-2.5262156168567103,2.2846056657978515,-1.0164268652545374,0.10737685859203339
1708438085.8870087,-1.1088570356369019,-1.6797720394530238,-2.5262561480151575,2.28452913343396,-1.0164063612567347,0.10734552145004272
1708438085.8889859,-1.1087976694107056,-1.6798373661436976,-2.526280943547384,2.284461184138916,-1.0164063612567347,0.10724092274904251
1708438085.8909495,-1.1087539196014404,-1.6798488102354945,-2.5262067953692835,2.2844204145618896,-1.0164030233966272,0.10727129876613617
1708438085.893,-1.108672857284546,-1.6798445187010707,-2.5262888113604944,2.284327908153198,-1.0164106527911585,0.1071944609284401
1708438085.894979,-1.1085679531097412,-1.6799541912474574,-2.5262396971331995,2.2842890459248046,-1.0164106527911585,0.10707360506057739
1708438085.8970113,-1.108525037765503,-1.6798860035338343,-2.5262635389911097,2.284256859416626,-1.0164597670184534,0.10703110694885254
1708438085.8989558,-1.1084455251693726,-1.67999329189443,-2.526250664387838,2.284161015147827,-1.0164507071124476,0.10695068538188934
1708438085.9009502,-1.1083637475967407,-1.6800242863097132,-2.526287619267599,2.2841903406330566,-1.0164583365069788,0.10691925138235092
1708438085.9029472,-1.1082680225372314,-1.6801253757872523,-2.526336733494894,2.284085674876831,-1.0164702574359339,0.10690382868051529
1708438085.904948,-1.1082340478897095,-1.680145879785055,-2.526304070149557,2.284005804652832,-1.0165365378009241,0.1067747101187706
1708438085.906972,-1.1081292629241943,-1.6801444492735804,-2.5263150374041956,2.2839218813129882,-1.0165141264544886,0.10670372098684311
1708438085.9089508,-1.1080281734466553,-1.6802250347533167,-2.5263193289386194,2.2838939863392334,-1.0165260473834437,0.10666787624359131
1708438085.9109373,-1.107968807220459,-1.680216451684469,-2.5263553301440638,2.2838141161152343,-1.0165675322162073,0.1065787747502327
1708438085.9129624,-1.1078976392745972,-1.6802479229369105,-2.5263474623309534,2.28376214086499,-1.0165618101703089,0.10653118789196014
1708438085.9149904,-1.107781171798706,-1.680312295953268,-2.5263968149768274,2.2836944299885253,-1.0165780226336878,0.1064591109752655
1708438085.9169443,-1.1076518297195435,-1.6803838215269984,-2.5264325777636927,2.283646746272705,-1.016627613698141,0.10644833743572235
1708438085.9189427,-1.107581377029419,-1.6804529629149378,-2.526407543812887,2.2834483820148925,-1.0166099707232874,0.10643287748098373
1708438085.920956,-1.1074917316436768,-1.680455823937887,-2.5264359156238,2.2834295469471435,-1.0166752974139612,0.10631558299064636
1708438085.9229507,-1.107320785522461,-1.680551668206686,-2.5264316240893763,2.283325119609497,-1.016665283833639,0.10623196512460709
1708438085.9249418,-1.1071840524673462,-1.680619855920309,-2.526447121297018,2.283245487804077,-1.016726318989889,0.10616446286439896
1708438085.926958,-1.1070690155029297,-1.6806961498656214,-2.526482884083883,2.2830838400074462,-1.0167668501483362,0.1061536893248558
1708438085.9289372,-1.1069567203521729,-1.680728097955221,-2.526531998311178,2.283066435451172,-1.0167906920062464,0.10607294738292694
1708438085.9309368,-1.106878399848938,-1.6807953319945277,-2.5265679995166224,2.283027334804199,-1.0168312231646937,0.10597296059131622
1708438085.933009,-1.1067179441452026,-1.680859705010885,-2.5265429655658167,2.282893105144165,-1.0168340841876429,0.10596541315317154
1708438085.9349442,-1.106576681137085,-1.6809116802611292,-2.526578966771261,2.2827982145496826,-1.0168283621417444,0.10588609427213669
1708438085.9369867,-1.106436014175415,-1.68095125774526,-2.526619259511129,2.2826742368885498,-1.0168612639056605,0.10579341650009155
1708438085.938948,-1.1063170433044434,-1.6810347042479457,-2.526647392903463,2.2825378614613037,-1.0169432798968714,0.10573399066925049
1708438085.9409683,-1.1061283349990845,-1.681131979028219,-2.5266552607165735,2.282421274776123,-1.016904656087057,0.10564112663269043
1708438085.942938,-1.105963945388794,-1.6811381779112757,-2.5267282168017786,2.2823261457630615,-1.016900364552633,0.10557838529348373
1708438085.9449444,-1.1058000326156616,-1.681230207482809,-2.5267391840564173,2.2822109895893554,-1.0170066992389124,0.1055067628622055
1708438085.946957,-1.1055948734283447,-1.6813508472838343,-2.5267513434039515,2.2820257383533935,-1.0170272032367151,0.10545118153095245
1708438085.9489481,-1.1054599285125732,-1.681471963922018,-2.5268076101886194,2.281959219569824,-1.0170748869525355,0.10541953891515732
1708438085.9509277,-1.1052721738815308,-1.6815139255919398,-2.526832167302267,2.2818075853535156,-1.017127815877096,0.1053030788898468
1708438085.9529326,-1.1050641536712646,-1.6816588840880335,-2.526839558278219,2.2816385465809326,-1.0171249548541468,0.10523911565542221
1708438085.9549298,-1.1048427820205688,-1.681784292260641,-2.5268874804126185,2.2815181451984863,-1.01719838777651,0.10518794506788254
1708438085.9569325,-1.1046513319015503,-1.681821962396139,-2.526928249989645,2.281395359630249,-1.0172832647906702,0.10514549911022186
1708438085.9589384,-1.1044150590896606,-1.681925436059469,-2.526963774357931,2.2812341886707763,-1.0173433462726038,0.1050400361418724
1708438085.9609408,-1.1041792631149292,-1.6820908985533656,-2.5270443598376673,2.2810706335255126,-1.0174139181720179,0.10497692972421646
1708438085.962915,-1.1039317846298218,-1.6821495495238246,-2.5270512739764612,2.280841513270996,-1.0175111929522913,0.10490494966506958
1708438085.9649663,-1.103642225265503,-1.6822740040221156,-2.527083698903219,2.280707283610962,-1.0176189581500452,0.10480932891368866
1708438085.9669242,-1.1033942699432373,-1.6824175320067347,-2.527167860661642,2.2805189329334716,-1.0176695028888147,0.10469313710927963
1708438085.968932,-1.1030621528625488,-1.6825820408263148,-2.52717096010317,2.280287190074585,-1.0177043120013636,0.10465399920940399
1708438085.9709256,-1.1028398275375366,-1.6827174625792445,-2.5272401014911097,2.2800726133533935,-1.017822567616598,0.10455736517906189
1708438085.972943,-1.1025031805038452,-1.6828576527037562,-2.527348581944601,2.279909773463867,-1.0178688208209437,0.10449392348527908
1708438085.974935,-1.1022189855575562,-1.6830417118468226,-2.52737266222109,2.2796849447437744,-1.017966095601217,0.10441800206899643
1708438085.976945,-1.101763367652893,-1.6831971607603968,-2.527412716542379,2.2794577318378906,-1.018040959035055,0.10437560081481934
1708438085.978927,-1.1014604568481445,-1.6833230457701625,-2.5274720827685755,2.2792183595844726,-1.0181248823748987,0.10421393811702728
1708438085.9809442,-1.101060390472412,-1.6835233173766078,-2.527504030858175,2.2789179521748046,-1.0181964079486292,0.10418306291103363
1708438085.9829712,-1.1007375717163086,-1.68371643642568,-2.5276127497302454,2.2787105280109863,-1.0183456579791468,0.10407869517803192
1708438085.9849834,-1.100308895111084,-1.6838742695250453,-2.5276601950274866,2.27842561780896,-1.018409554158346,0.10404813289642334
1708438085.9869392,-1.099912405014038,-1.684120317498678,-2.5277448336230677,2.2781874376484375,-1.0185001532184046,0.10392770916223526
1708438085.9889712,-1.0995339155197144,-1.6842576466002406,-2.5278363863574427,2.277935667628906,-1.0186126867877405,0.10386427491903305
1708438085.9909422,-1.0991108417510986,-1.684469839135641,-2.5279017130481165,2.2776266771503906,-1.0186999479876917,0.10380478948354721
1708438085.9929373,-1.0985876321792603,-1.684725900689596,-2.5279791990863245,2.277287407512329,-1.0188406149493616,0.10365575551986694
1708438085.9949627,-1.0980911254882812,-1.6849333248534144,-2.5280805269824427,2.27700321256604,-1.0189688841449183,0.10360889881849289
1708438085.9969637,-1.0976322889328003,-1.6851688824095667,-2.528135124837057,2.2766188818165283,-1.0191128889666956,0.10350898653268814
1708438085.9989605,-1.0970793962478638,-1.685453554193014,-2.5282321611987513,2.2763165670582275,-1.0191414991961878,0.10340119153261185
1708438086.0009665,-1.0965633392333984,-1.685704847375387,-2.5283480326281946,2.275862618083618,-1.0192773977862757,0.10330885648727417
1708438086.0029628,-1.0960524082183838,-1.685906549493307,-2.5284600893603724,2.27558080732312,-1.01947528520693,0.10323350131511688
1708438086.0049698,-1.095491886138916,-1.6861945591368617,-2.5285726229297083,2.27517215787854,-1.0195921103106897,0.10316216945648193
1708438086.0069509,-1.0949180126190186,-1.686442037621969,-2.528668467198507,2.274796648616455,-1.0197652021991175,0.10306656360626221
1708438086.0089548,-1.0943232774734497,-1.6867701015868128,-2.5288124720202845,2.274343891734741,-1.019830052052633,0.10294241458177567
1708438086.0109494,-1.0937438011169434,-1.6870252094664515,-2.5289366880999964,2.2739240366169433,-1.0199855009662073,0.10280217975378036
1708438086.0130005,-1.0930827856063843,-1.687319894830221,-2.5290163199054163,2.273432417506836,-1.0201576391803187,0.10266624391078949
1708438086.014962,-1.0924348831176758,-1.68768372158193,-2.5291603247271937,2.2729801374622802,-1.0203293005572718,0.10257578641176224
1708438086.0170293,-1.0917638540267944,-1.6879869900145472,-2.5292964617358606,2.2725576597401123,-1.0205095450030726,0.10252925008535385
1708438086.018963,-1.0910090208053589,-1.68829407314443,-2.529412333165304,2.2720348077961425,-1.0206578413592737,0.10240417718887329
1708438086.0209546,-1.0903302431106567,-1.6886245212950648,-2.529593292866842,2.2714566427418212,-1.020808521901266,0.10230530798435211
1708438086.0229738,-1.0895735025405884,-1.689005514184469,-2.529701058064596,2.2710422712513427,-1.0210254828082483,0.10215630382299423
1708438086.0249565,-1.0888243913650513,-1.6893936596312464,-2.529844109212057,2.270521803493164,-1.021233383809225,0.10202469676733017
1708438086.026959,-1.0880540609359741,-1.6897317371764125,-2.5299673716174524,2.2699896532246093,-1.0213716665851038,0.10192126035690308
1708438086.0289757,-1.087247610092163,-1.6901394329466761,-2.530127827321188,2.269447012538574,-1.0215767065631312,0.10181234776973724
1708438086.0309508,-1.086421012878418,-1.6905390224852503,-2.5302966276751917,2.268892450923584,-1.0218451658831995,0.10173086822032928
1708438086.0330012,-1.0855590105056763,-1.6909142933287562,-2.530398193989889,2.2683300214954834,-1.0219762961017054,0.10158195346593857
1708438086.0349371,-1.0848037004470825,-1.6912843189635218,-2.530616585408346,2.2677244383045654,-1.0221918264972132,0.10147083550691605
1708438086.036948,-1.0838524103164673,-1.6916882000365199,-2.5307768026935022,2.267145796413086,-1.022367302571432,0.10134731978178024
1708438086.0389745,-1.0830302238464355,-1.6921359501280726,-2.530911986027853,2.2665249544331054,-1.0225675741778772,0.10121562331914902
1708438086.0409489,-1.0820611715316772,-1.6925465069212855,-2.531182352696554,2.265906496638916,-1.0227296988116663,0.10106770694255829
1708438086.0429678,-1.0811086893081665,-1.6930271587767542,-2.5313058535205286,2.2652222353168945,-1.0229538122760218,0.10096433758735657
1708438086.044954,-1.0802030563354492,-1.6934377155699671,-2.5314396063434046,2.264544649715088,-1.0231698195086878,0.10081744939088821
1708438086.046972,-1.0791776180267334,-1.6938706837096156,-2.531660858784811,2.263892813319824,-1.0233810583697718,0.100697822868824
1708438086.0489883,-1.078221082687378,-1.6943704090514125,-2.531864945088522,2.2632405000874023,-1.0236733595477503,0.10056176781654358
1708438086.0509324,-1.0771654844284058,-1.694873949090475,-2.532046143208639,2.2626120287128906,-1.0239504019366663,0.1004139855504036
1708438086.052952,-1.0761666297912598,-1.6953650913634242,-2.5322282950030726,2.2619189459034423,-1.0241406599627894,0.10024194419384003
1708438086.0549238,-1.0750681161880493,-1.6958395443358363,-2.5324423948871058,2.261216087932251,-1.0243805090533655,0.10017605125904083
1708438086.0569453,-1.0740662813186646,-1.6962977848448695,-2.532595698033468,2.260500116939209,-1.0246976057635706,0.09997059404850006
1708438086.0589757,-1.072879672050476,-1.6968137226500453,-2.53284722963442,2.259760542506836,-1.024940315877096,0.09984336793422699
1708438086.060964,-1.071725606918335,-1.6973597011961878,-2.5330002943622034,2.2590040403553466,-1.0251920858966272,0.09974822402000427
1708438086.0629704,-1.0706347227096558,-1.6979028187193812,-2.533259932194845,2.258232756251953,-1.0255125204669397,0.09961238503456116
1708438086.0649822,-1.0695054531097412,-1.698477407495016,-2.5333786646472376,2.257411404246948,-1.025766674672262,0.09940076619386673
1708438086.0669627,-1.0683791637420654,-1.699118276635641,-2.5336483160602015,2.256632013911865,-1.0260751883136194,0.09929715842008591
1708438086.0689623,-1.0671828985214233,-1.699634691277975,-2.533879343663351,2.2558702665516357,-1.0263341108905237,0.0991797000169754
1708438086.0709589,-1.0659313201904297,-1.7002574406065882,-2.534123484288351,2.254976673717163,-1.0265362898456019,0.0989622250199318
1708438086.0729582,-1.0647075176239014,-1.700811048547262,-2.5342915693866175,2.2541567522236328,-1.026837174092428,0.09882202744483948
1708438086.0749307,-1.0633957386016846,-1.7014724216856898,-2.53457481065859,2.2532853323170166,-1.0271084944354456,0.09867550432682037
1708438086.0769691,-1.062184453010559,-1.702062269250387,-2.5347638765918177,2.2524091440388183,-1.0273717085467737,0.09847847372293472
1708438086.0789616,-1.0608761310577393,-1.7027017078795375,-2.535027567540304,2.251522942180298,-1.0276349226581019,0.09833579510450363
1708438086.0809362,-1.0596003532409668,-1.7033473453917445,-2.535236183797018,2.2506636816212158,-1.0279811064349573,0.09819656610488892
1708438086.0829697,-1.0582785606384277,-1.7039643726744593,-2.5354772249804896,2.249682589168213,-1.028259579335348,0.09799680858850479
1708438086.0849419,-1.0569359064102173,-1.7046362362303675,-2.5357263723956507,2.2487379747578125,-1.0285990873919886,0.09783351421356201
1708438086.086991,-1.055578351020813,-1.7053185902037562,-2.535981003438131,2.2477912145802,-1.0289061705218714,0.09769532829523087
1708438086.0889668,-1.05423903465271,-1.7059809170165003,-2.536177937184469,2.246861143703125,-1.0292418638812464,0.09749004244804382
1708438086.090944,-1.052830457687378,-1.7065898380675257,-2.5364490191089075,2.2458459573933105,-1.029602352772848,0.09740082174539566
1708438086.092984,-1.0515111684799194,-1.7073618374266566,-2.5366981665240687,2.2449824052998046,-1.0299199263202112,0.09713577479124069
1708438086.0949414,-1.0500543117523193,-1.7080546818175257,-2.536948267613546,2.2439982134052734,-1.0302718321429651,0.0969516858458519
1708438086.0970159,-1.0486243963241577,-1.7087732754149378,-2.5372305552112024,2.243015690440796,-1.0306146780597132,0.09678079187870026
1708438086.0989661,-1.047143578529358,-1.709447523156637,-2.537551466618673,2.24191062032666,-1.0310304800616663,0.09658081084489822
1708438086.1009386,-1.045629858970642,-1.7101975880064906,-2.5377748648272913,2.240935965175293,-1.0313766638385218,0.09644705802202225
1708438086.1029646,-1.0440833568572998,-1.71095671276235,-2.5379908720599573,2.2398664194294433,-1.0317214171039026,0.0962514877319336
