Eg3-git/Classifiers/Data Collection/u6/u6star2_ur3e_joint_states.csv
time,elbow_joint,shoulder_lift_joint,shoulder_pan_joint,wrist_1_joint,wrist_2_joint,wrist_3_joint
1708437925.3640935,-1.1059999465942383,-1.6814872227110804,-2.5258455912219446,2.2814218240925292,-1.0158446470843714,0.39947065711021423
1708437925.3661375,-1.1060194969177246,-1.6814199886717738,-2.5258153120623987,2.2813514906116943,-1.0157955328570765,0.3994631767272949
1708437925.3680782,-1.105979323387146,-1.681441446343893,-2.525806252156393,2.281381054515503,-1.0158398787127894,0.3994925022125244
1708437925.3700817,-1.1060400009155273,-1.6814457378783167,-2.5258198420154017,2.2813922601887207,-1.0158446470843714,0.3994631767272949
1708437925.3720744,-1.1060400009155273,-1.6813918552794398,-2.5257988611804407,2.2813514906116943,-1.0157864729510706,0.3994349539279938
1708437925.3740923,-1.1060324907302856,-1.681465288201803,-2.525806252156393,2.2813588815876464,-1.0158193747149866,0.39945438504219055
1708437925.3760808,-1.1060400009155273,-1.6815020046629847,-2.525885883961813,2.2813765245625,-1.0158026854144495,0.3994632065296173
1708437925.3780944,-1.1060324907302856,-1.6814738712706507,-2.52580172220339,2.281388445491455,-1.0158355871783655,0.39949166774749756
1708437925.3800814,-1.1060237884521484,-1.6814457378783167,-2.5258033911334437,2.2813145357319335,-1.0158026854144495,0.3994917571544647
1708437925.382079,-1.1060400009155273,-1.6813918552794398,-2.525848690663473,2.2813262182423095,-1.0158327261554163,0.39943498373031616
1708437925.3841043,-1.1060357093811035,-1.6814500294127406,-2.525806252156393,2.281372233028076,-1.0158117453204554,0.39947184920310974
1708437925.38615,-1.1059826612472534,-1.6814905605711878,-2.5257869402514856,2.281356020564697,-1.0158446470843714,0.3994872570037842
1708437925.3881083,-1.1060400009155273,-1.6814080677428187,-2.525832001362936,2.281397266978882,-1.0158446470843714,0.3994632065296173
1708437925.390111,-1.1060194969177246,-1.6814199886717738,-2.525860611592428,2.2813708025166015,-1.0158398787127894,0.39945128560066223
1708437925.3920932,-1.1060237884521484,-1.6814786396422328,-2.525810782109396,2.2814175325581054,-1.0157998243915003,0.39943814277648926
1708437925.394095,-1.1060118675231934,-1.6814257107176722,-2.525810782109396,2.2814366060444335,-1.0158074537860315,0.39945560693740845
1708437925.3960817,-1.1060606241226196,-1.6814004383482875,-2.525806252156393,2.2814530569263916,-1.0158074537860315,0.3994806110858917
1708437925.3980992,-1.1060519218444824,-1.6813842258849085,-2.525794331227438,2.281388445491455,-1.0158355871783655,0.39944374561309814
1708437925.400081,-1.1059956550598145,-1.6814786396422328,-2.5258365313159388,2.281383438701294,-1.0158475081073206,0.3994227349758148
1708437925.4021084,-1.105979323387146,-1.6814457378783167,-2.525848690663473,2.2814041811176757,-1.0158193747149866,0.3994600176811218
1708437925.4040964,-1.1060194969177246,-1.6814290485777796,-2.5257914702044886,2.2814172941395263,-1.0158069769488733,0.3994643986225128
1708437925.4060755,-1.1060150861740112,-1.6814333401122035,-2.525848690663473,2.2814292150684814,-1.0158446470843714,0.3994227349758148
1708437925.408075,-1.1060118675231934,-1.6814094982542933,-2.52580172220339,2.2813708025166015,-1.0158732573138636,0.3993946611881256
1708437925.4100914,-1.1060400009155273,-1.6814547977843226,-2.525848690663473,2.2813588815876464,-1.0158651510821741,0.39943933486938477
1708437925.4120817,-1.1060400009155273,-1.681436677972311,-2.5258365313159388,2.281372233028076,-1.0158355871783655,0.3994271755218506
1708437925.4140902,-1.1060314178466797,-1.6814857921996058,-2.5258033911334437,2.281383438701294,-1.0158446470843714,0.39939025044441223
1708437925.4161193,-1.1059826612472534,-1.6814457378783167,-2.525832001362936,2.281442566508911,-1.0158565680133265,0.3994271755218506
1708437925.4180784,-1.1060487031936646,-1.6814247570433558,-2.525810782109396,2.2813922601887207,-1.0158026854144495,0.3994358777999878
1708437925.4200711,-1.1060280799865723,-1.6814609966673792,-2.5258243719684046,2.2814292150684814,-1.0158446470843714,0.3994033634662628
1708437925.4220722,-1.1060194969177246,-1.6814547977843226,-2.5258153120623987,2.2813920217701416,-1.0158312956439417,0.39936181902885437
1708437925.424076,-1.1060807704925537,-1.6814199886717738,-2.525818411503927,2.2813796240040283,-1.0158599058734339,0.39945682883262634
1708437925.4260724,-1.1060400009155273,-1.6814528904356898,-2.525857750569479,2.2813877302357177,-1.0157983938800257,0.3993836045265198
1708437925.4280884,-1.1060314178466797,-1.6814500294127406,-2.525832001362936,2.2813965517231445,-1.0158608595477503,0.399394690990448
1708437925.4300737,-1.1060519218444824,-1.6814829311766566,-2.525860611592428,2.281409903163574,-1.0158312956439417,0.39938244223594666
1708437925.4321058,-1.1060638427734375,-1.6814772091307582,-2.525874201451437,2.2813965517231445,-1.0158475081073206,0.39941638708114624
1708437925.4340925,-1.1060595512390137,-1.681441446343893,-2.525832001362936,2.2814323145100097,-1.0158780256854456,0.39934560656547546
1708437925.436126,-1.1060150861740112,-1.6814786396422328,-2.52584416071047,2.2814053732105712,-1.0158641974078577,0.3993748724460602
1708437925.4381225,-1.1059988737106323,-1.6814905605711878,-2.525860611592428,2.2814010816761474,-1.0158847014056605,0.3993867337703705
1708437925.4401114,-1.1060682535171509,-1.681441446343893,-2.525851551686422,2.2814292150684814,-1.0158689657794397,0.39935141801834106
1708437925.4420927,-1.1060150861740112,-1.6815110645689906,-2.525827471409933,2.2813750940510253,-1.0158355871783655,0.3994152843952179
1708437925.4441104,-1.1060682535171509,-1.6813918552794398,-2.525857750569479,2.2814323145100097,-1.0158355871783655,0.3994283378124237
1708437925.4461262,-1.1060237884521484,-1.681469579736227,-2.525869671498434,2.2813708025166015,-1.0158312956439417,0.39946112036705017
1708437925.4481013,-1.1060850620269775,-1.6814290485777796,-2.52586800256838,2.2813922601887207,-1.0158475081073206,0.3993542492389679
1708437925.450085,-1.1060563325881958,-1.6814829311766566,-2.525810782109396,2.2813965517231445,-1.0157941023456019,0.3994402289390564
1708437925.452095,-1.1060152053833008,-1.6814080677428187,-2.525851551686422,2.281384153957031,-1.0158355871783655,0.39939552545547485
1708437925.454104,-1.1060563325881958,-1.6814457378783167,-2.5258365313159388,2.2814246851154785,-1.0158475081073206,0.39941641688346863
1708437925.4561105,-1.1060150861740112,-1.6814247570433558,-2.525853220616476,2.2813877302357177,-1.0158355871783655,0.3993673324584961
1708437925.4581122,-1.105991244316101,-1.6814829311766566,-2.525848690663473,2.2814203935810546,-1.015817944203512,0.3993759751319885
1708437925.460097,-1.1059945821762085,-1.6814123592772425,-2.5258424917804163,2.2814084726520996,-1.0158847014056605,0.39934274554252625
1708437925.4620936,-1.1060606241226196,-1.681441446343893,-2.525810782109396,2.2813796240040283,-1.0158355871783655,0.39937925338745117
1708437925.4640813,-1.1060280799865723,-1.6814424000182093,-2.525810782109396,2.2814411359974365,-1.0158355871783655,0.39933833479881287
1708437925.466081,-1.1060150861740112,-1.6814457378783167,-2.5258365313159388,2.2814127641865234,-1.0158312956439417,0.39929813146591187
1708437925.4680817,-1.1060357093811035,-1.6814290485777796,-2.5258153120623987,2.2813796240040283,-1.0158804098712366,0.3993673324584961
1708437925.4700754,-1.1060357093811035,-1.6814094982542933,-2.5258753935443323,2.2813922601887207,-1.0158312956439417,0.39933907985687256
1708437925.472082,-1.1060563325881958,-1.6815110645689906,-2.5258470217334192,2.2814056116291503,-1.0158889929400843,0.3993673324584961
1708437925.4740927,-1.1060150861740112,-1.681441446343893,-2.525893513356344,2.2813877302357177,-1.0158432165728968,0.3994084894657135
1708437925.476093,-1.1060314178466797,-1.6814052067198695,-2.5258198420154017,2.2813796240040283,-1.0158599058734339,0.3993542790412903
1708437925.4780872,-1.1060150861740112,-1.6814037762083949,-2.52582294145693,2.2814292150684814,-1.0158312956439417,0.3993348479270935
1708437925.480081,-1.106071949005127,-1.6814857921996058,-2.525794331227438,2.2814337450214843,-1.0158889929400843,0.3993922472000122
1708437925.4820726,-1.1060031652450562,-1.6814614735045375,-2.525851551686422,2.2814010816761474,-1.015801254902975,0.39934346079826355
1708437925.4841063,-1.1060270071029663,-1.6814247570433558,-2.525835100804464,2.2813922601887207,-1.0158355871783655,0.3993835747241974
1708437925.4861064,-1.1060194969177246,-1.6814872227110804,-2.525818411503927,2.2814175325581054,-1.0158641974078577,0.3993673324584961
1708437925.4880934,-1.1060519218444824,-1.6814123592772425,-2.525806252156393,2.2814175325581054,-1.0158565680133265,0.39935141801834106
1708437925.4900782,-1.1060357093811035,-1.681432386437887,-2.525860611592428,2.2813750940510253,-1.0158475081073206,0.3993348479270935
1708437925.4921067,-1.1060476303100586,-1.681441446343893,-2.525818411503927,2.281470699901245,-1.01585561433901,0.39937156438827515
1708437925.494101,-1.1060400009155273,-1.6814738712706507,-2.525860611592428,2.2813588815876464,-1.0158312956439417,0.39934277534484863
1708437925.4961102,-1.1060075759887695,-1.6814247570433558,-2.525860611592428,2.2814292150684814,-1.0158599058734339,0.3994120657444
1708437925.4981241,-1.1060638427734375,-1.6815110645689906,-2.525839630757467,2.2813922601887207,-1.0158804098712366,0.3993673324584961
1708437925.5001302,-1.1060314178466797,-1.6814247570433558,-2.525851551686422,2.2813631731220703,-1.0158475081073206,0.3993673622608185
1708437925.502069,-1.1060638427734375,-1.6814915142455042,-2.525813881550924,2.2814292150684814,-1.0158265272723597,0.3993185758590698
1708437925.5041096,-1.1060444116592407,-1.681497713128561,-2.52582294145693,2.2814084726520996,-1.0158432165728968,0.3993922472000122
1708437925.5060897,-1.1060194969177246,-1.6814457378783167,-2.525856081639425,2.2813750940510253,-1.0158689657794397,0.3993836045265198
1708437925.5081148,-1.1060357093811035,-1.6814333401122035,-2.525851551686422,2.2814175325581054,-1.0158475081073206,0.3993673324584961
1708437925.5100787,-1.1060031652450562,-1.681469579736227,-2.525839630757467,2.2814203935810546,-1.01585561433901,0.3992980122566223
1708437925.5120807,-1.1060237884521484,-1.681436677972311,-2.52586800256838,2.2813796240040283,-1.0158599058734339,0.3993922472000122
1708437925.5140884,-1.1060031652450562,-1.6815153561034144,-2.525872532521383,2.2814041811176757,-1.0158265272723597,0.39934349060058594
1708437925.516097,-1.1059988737106323,-1.6814481220641078,-2.525851551686422,2.2813750940510253,-1.0158780256854456,0.3993348479270935
1708437925.518083,-1.1060161590576172,-1.6814857921996058,-2.5258365313159388,2.2814246851154785,-1.0158804098712366,0.3993600606918335
1708437925.5200806,-1.105979323387146,-1.6814500294127406,-2.52582294145693,2.2814411359974365,-1.0158265272723597,0.39935213327407837
1708437925.5220807,-1.1059880256652832,-1.6814857921996058,-2.525856081639425,2.2814041811176757,-1.0158475081073206,0.39934781193733215
1708437925.524097,-1.1060400009155273,-1.681479116479391,-2.525885883961813,2.2814127641865234,-1.0158880392657679,0.3992903232574463
1708437925.526078,-1.1060280799865723,-1.6814376316466273,-2.5258305708514612,2.281388445491455,-1.0159085432635706,0.39931532740592957
1708437925.5281103,-1.106032371520996,-1.6814199886717738,-2.525848690663473,2.281388445491455,-1.0158880392657679,0.39937156438827515
1708437925.5300727,-1.1060367822647095,-1.6814915142455042,-2.5258305708514612,2.2814084726520996,-1.015834156666891,0.3992980122566223
1708437925.5320747,-1.1060205698013306,-1.681469579736227,-2.525806252156393,2.2814172941395263,-1.015883747731344,0.39931100606918335
1708437925.5340667,-1.1059956550598145,-1.6814571819701136,-2.525856081639425,2.2813965517231445,-1.0158894697772425,0.3993556499481201
1708437925.536149,-1.1060444116592407,-1.6814247570433558,-2.525839630757467,2.2813631731220703,-1.015890900288717,0.39937305450439453
1708437925.5381012,-1.1060118675231934,-1.6814786396422328,-2.525877062474386,2.2813588815876464,-1.015862290059225,0.39934349060058594
1708437925.5400963,-1.105979323387146,-1.6814609966673792,-2.525818411503927,2.281409903163574,-1.0158599058734339,0.3993630111217499
1708437925.5420897,-1.1060161590576172,-1.6814609966673792,-2.525856081639425,2.2813679414936523,-1.0158756414996546,0.39938032627105713
1708437925.5440965,-1.1059750318527222,-1.6814738712706507,-2.5258305708514612,2.2814010816761474,-1.0158804098712366,0.39934781193733215
1708437925.5460904,-1.1060075759887695,-1.681432386437887,-2.52582294145693,2.2814218240925292,-1.0158599058734339,0.39931532740592957
1708437925.5481381,-1.106008768081665,-1.6814547977843226,-2.5258262793170374,2.281454487437866,-1.0158599058734339,0.3993922472000122
1708437925.550108,-1.1059539318084717,-1.6814786396422328,-2.525827471409933,2.2814175325581054,-1.0159128347979944,0.39933907985687256
1708437925.5520983,-1.1060118675231934,-1.6814905605711878,-2.525885883961813,2.2813965517231445,-1.015867058430807,0.39931100606918335
1708437925.5540788,-1.1059956550598145,-1.6814290485777796,-2.525851551686422,2.2813877302357177,-1.0158537069903772,0.39934349060058594
1708437925.556066,-1.105991244316101,-1.681481500665182,-2.525900904332296,2.2813679414936523,-1.015923802052633,0.3993759751319885
1708437925.5580842,-1.1060118675231934,-1.6814738712706507,-2.5258424917804163,2.281384153957031,-1.0159075895892542,0.39937156438827515
1708437925.5600824,-1.1060194969177246,-1.681443830529684,-2.525839630757467,2.2814203935810546,-1.0158970991717737,0.3993600606918335
1708437925.5620763,-1.105991244316101,-1.681436677972311,-2.525860611592428,2.281463308925293,-1.015911881123678,0.39935141801834106
1708437925.5640817,-1.1059869527816772,-1.6814571819701136,-2.525881592427389,2.281392975444458,-1.015895191823141,0.39935141801834106
1708437925.5661173,-1.1060324907302856,-1.6814948521056117,-2.52586800256838,2.2814382749744873,-1.0158794561969202,0.3993348479270935
1708437925.5680904,-1.1059880256652832,-1.681436677972311,-2.5258215109454554,2.2813588815876464,-1.0159152189837855,0.39938783645629883
1708437925.5700853,-1.1059880256652832,-1.6814528904356898,-2.525860611592428,2.2813514906116943,-1.015949551259176,0.39932283759117126
1708437925.572066,-1.1059880256652832,-1.681493421594137,-2.52584416071047,2.281388445491455,-1.015923802052633,0.39935213327407837
1708437925.5740886,-1.1059505939483643,-1.6814948521056117,-2.525881592427389,2.2813631731220703,-1.015932861958639,0.39931532740592957
1708437925.576078,-1.1059925556182861,-1.6814571819701136,-2.5258753935443323,2.281384153957031,-1.0158661047564905,0.39938780665397644
1708437925.5780857,-1.1059880256652832,-1.681441446343893,-2.525851551686422,2.2814053732105712,-1.015857998524801,0.3993348181247711
1708437925.580081,-1.1060205698013306,-1.681436677972311,-2.525856081639425,2.2813965517231445,-1.0158942381488245,0.39933156967163086
1708437925.5820813,-1.1059668064117432,-1.6815153561034144,-2.525827471409933,2.281356020564697,-1.015895191823141,0.39935216307640076
1708437925.5840802,-1.1059799194335938,-1.6814457378783167,-2.5258305708514612,2.2814218240925292,-1.015911881123678,0.3993348181247711
1708437925.5861142,-1.1059880256652832,-1.6814786396422328,-2.5258589426623743,2.2813796240040283,-1.0158703962909144,0.39937159419059753
1708437925.5881004,-1.1059880256652832,-1.6814657650389613,-2.525818411503927,2.2814010816761474,-1.0158537069903772,0.3993600606918335
1708437925.590105,-1.1059342622756958,-1.681443830529684,-2.5258470217334192,2.2813796240040283,-1.0159032980548304,0.39934781193733215
1708437925.5921216,-1.105971097946167,-1.681481500665182,-2.525839630757467,2.2813352781483154,-1.015911881123678,0.3993348181247711
1708437925.5940924,-1.1059843301773071,-1.6814729175963343,-2.5258305708514612,2.281372233028076,-1.0159357229815882,0.39937156438827515
1708437925.5961022,-1.10599684715271,-1.681432386437887,-2.525797192250387,2.281381054515503,-1.0158942381488245,0.39935213327407837
1708437925.5980976,-1.1059679985046387,-1.681469579736227,-2.5258305708514612,2.281364603633545,-1.0159152189837855,0.3993687331676483
1708437925.6000814,-1.1059386730194092,-1.681469579736227,-2.5258305708514612,2.281409903163574,-1.015890900288717,0.39933058619499207
1708437925.6021078,-1.10599684715271,-1.6814609966673792,-2.525839630757467,2.2813679414936523,-1.0158794561969202,0.39938029646873474
1708437925.6040845,-1.10597562789917,-1.681493421594137,-2.5258753935443323,2.2813514906116943,-1.015886131917135,0.39933907985687256
1708437925.6060753,-1.1059843301773071,-1.6814738712706507,-2.525813881550924,2.281397266978882,-1.0158942381488245,0.3993630111217499
1708437925.6080954,-1.105959415435791,-1.6814280949034632,-2.5258470217334192,2.281343861217163,-1.015923802052633,0.39934706687927246
1708437925.6100912,-1.105971097946167,-1.6815110645689906,-2.525905434285299,2.281372233028076,-1.015923802052633,0.39936304092407227
1708437925.6120896,-1.1059637069702148,-1.6815020046629847,-2.52586800256838,2.281348391170166,-1.0158775488482874,0.39940404891967773
1708437925.6140904,-1.105947494506836,-1.6815186939635218,-2.525839630757467,2.281339569682739,-1.0159042517291468,0.3993673324584961
1708437925.616095,-1.1059800386428833,-1.681530614892477,-2.525860611592428,2.2813514906116943,-1.0159195105182093,0.3993759751319885
1708437925.6180735,-1.1059186458587646,-1.6814609966673792,-2.52582294145693,2.2813679414936523,-1.0159357229815882,0.3993760049343109
1708437925.620071,-1.105972409248352,-1.681469579736227,-2.52582294145693,2.281376762981079,-1.0159075895892542,0.39932724833488464
1708437925.6220672,-1.1059386730194092,-1.6814705334105433,-2.5258634726153772,2.2813514906116943,-1.0159075895892542,0.39938461780548096
1708437925.6240811,-1.1059355735778809,-1.681481500665182,-2.52580172220339,2.281372233028076,-1.0159075895892542,0.39937299489974976
1708437925.6260715,-1.1059679985046387,-1.681469579736227,-2.5258305708514612,2.281372233028076,-1.0158775488482874,0.39933910965919495
1708437925.6280897,-1.1059931516647339,-1.6814991436400355,-2.525860611592428,2.2814017969318847,-1.0159314314471644,0.3993760049343109
1708437925.6300802,-1.1059606075286865,-1.681497713128561,-2.52580172220339,2.281348391170166,-1.0159195105182093,0.3992902934551239
1708437925.6320753,-1.1059398651123047,-1.681436677972311,-2.525856081639425,2.281384153957031,-1.0159567038165491,0.39938464760780334
1708437925.634083,-1.1059398651123047,-1.6815272770323695,-2.52584416071047,2.2813190656849365,-1.0158818403827112,0.39932286739349365
1708437925.6361344,-1.1059317588806152,-1.6814457378783167,-2.525839630757467,2.281360312099121,-1.0159195105182093,0.3993023931980133
1708437925.6381266,-1.1059443950653076,-1.681469579736227,-2.525851551686422,2.281348391170166,-1.0159404913531702,0.39935141801834106
1708437925.6401176,-1.1059311628341675,-1.6814614735045375,-2.525877062474386,2.281369133586548,-1.0159357229815882,0.3993185758590698
1708437925.6421392,-1.1059067249298096,-1.6814614735045375,-2.5258305708514612,2.2813352781483154,-1.0159075895892542,0.39938458800315857
1708437925.6441185,-1.1059398651123047,-1.681469579736227,-2.525860611592428,2.281332178706787,-1.0158818403827112,0.39933907985687256
1708437925.6460958,-1.1059398651123047,-1.681436677972311,-2.525818411503927,2.281381054515503,-1.0159271399127405,0.39935141801834106
1708437925.6480868,-1.1059560775756836,-1.6814786396422328,-2.525909725819723,2.281320257777832,-1.015890900288717,0.39931532740592957
1708437925.65009,-1.1059398651123047,-1.681481500665182,-2.525832001362936,2.281372233028076,-1.0159075895892542,0.39934277534484863
1708437925.652106,-1.1059355735778809,-1.681469579736227,-2.525851551686422,2.281344099635742,-1.015890900288717,0.39937740564346313
1708437925.6541038,-1.1059486865997314,-1.681436677972311,-2.52582294145693,2.2813853460499267,-1.015883747731344,0.39932286739349365
1708437925.6561065,-1.1059560775756836,-1.6814481220641078,-2.525905434285299,2.2813572126575927,-1.015890900288717,0.39932724833488464
1708437925.6581106,-1.1059317588806152,-1.681469579736227,-2.525851551686422,2.28135268270459,-1.015923802052633,0.3993644118309021
1708437925.6601067,-1.1059112548828125,-1.6814562282957972,-2.525893513356344,2.2813765245625,-1.0159195105182093,0.39932724833488464
1708437925.6621132,-1.1059067249298096,-1.6814562282957972,-2.52586800256838,2.281348391170166,-1.0159104506122034,0.39932629466056824
1708437925.6640985,-1.1059355735778809,-1.6815139255919398,-2.525856081639425,2.2812911707111816,-1.0159032980548304,0.399286150932312
1708437925.6660974,-1.1059530973434448,-1.6814481220641078,-2.525877062474386,2.281261845225952,-1.0158985296832483,0.39934349060058594
1708437925.6680737,-1.1059317588806152,-1.681469579736227,-2.5258305708514612,2.281332178706787,-1.015890900288717,0.39937156438827515
1708437925.670081,-1.1059768199920654,-1.681432386437887,-2.5258470217334192,2.2813734251209716,-1.015911881123678,0.39934349060058594
1708437925.672076,-1.1059486865997314,-1.6814786396422328,-2.5258217493640345,2.2813572126575927,-1.0158985296832483,0.3993556499481201
1708437925.6740992,-1.1059443950653076,-1.6814948521056117,-2.525893513356344,2.281320257777832,-1.0159404913531702,0.399342805147171
1708437925.6760836,-1.1059398651123047,-1.6815053425230921,-2.52586800256838,2.281324549312256,-1.015886131917135,0.3993023931980133
1708437925.6780841,-1.1059398651123047,-1.681469579736227,-2.5258589426623743,2.281344099635742,-1.0159285704242151,0.3994040787220001
1708437925.6800702,-1.1059274673461914,-1.6814571819701136,-2.52582294145693,2.281303806895874,-1.0159195105182093,0.39929908514022827
1708437925.6820643,-1.1059560775756836,-1.6815172634520472,-2.525851551686422,2.2812911707111816,-1.0159404913531702,0.39930248260498047
1708437925.684066,-1.1059067249298096,-1.681443830529684,-2.5258470217334192,2.2813853460499267,-1.015932861958639,0.39931100606918335
1708437925.6860898,-1.105899453163147,-1.681465288201803,-2.525872532521383,2.2813171583363037,-1.015923802052633,0.39932724833488464
1708437925.6880832,-1.1059486865997314,-1.6815391979613246,-2.525810782109396,2.281336470241211,-1.0159357229815882,0.3993965685367584
1708437925.6900885,-1.1058950424194336,-1.681497713128561,-2.525909725819723,2.281315727824829,-1.015923802052633,0.3993966281414032
1708437925.6920772,-1.1059354543685913,-1.6814772091307582,-2.5258379618274134,2.2813336092182617,-1.0159152189837855,0.39934346079826355
1708437925.6941018,-1.1059443950653076,-1.6814891300597132,-2.525900904332296,2.2812585073658447,-1.0159404913531702,0.39933907985687256
1708437925.6960769,-1.1059517860412598,-1.6814772091307582,-2.525888744984762,2.2813288408466796,-1.0159152189837855,0.3993435204029083
1708437925.6980784,-1.1059186458587646,-1.6815110645689906,-2.525806252156393,2.281324549312256,-1.0159075895892542,0.39934709668159485
1708437925.7001,-1.105883002281189,-1.681481500665182,-2.5258262793170374,2.2812749582478027,-1.0159357229815882,0.39933159947395325
1708437925.7020774,-1.1059229373931885,-1.6814199886717738,-2.525839630757467,2.2812675672718505,-1.0159195105182093,0.3992862403392792
1708437925.7041206,-1.1059398651123047,-1.6814609966673792,-2.52584416071047,2.281309052104614,-1.015911881123678,0.39932724833488464
1708437925.7060783,-1.1059486865997314,-1.6814948521056117,-2.5258424917804163,2.2812720972248535,-1.0159357229815882,0.39934349060058594
1708437925.7080798,-1.1059398651123047,-1.6814772091307582,-2.525872532521383,2.281285210246704,-1.0159357229815882,0.39937925338745117
1708437925.7100754,-1.1059274673461914,-1.68141569713735,-2.5258095900165003,2.281273289317749,-1.0158613363849085,0.3993673026561737
1708437925.7120817,-1.105883002281189,-1.681497713128561,-2.5258305708514612,2.281261368388794,-1.0159075895892542,0.39934349060058594
1708437925.7141027,-1.1059186458587646,-1.681436677972311,-2.52584416071047,2.281228705043457,-1.0159314314471644,0.3993023633956909
1708437925.7160704,-1.105861783027649,-1.6815186939635218,-2.525835100804464,2.281207962627075,-1.015857998524801,0.3993600904941559
1708437925.7180943,-1.1059529781341553,-1.681481500665182,-2.525884453450338,2.281207962627075,-1.0158985296832483,0.39937925338745117
1708437925.7200997,-1.1059155464172363,-1.681497713128561,-2.525921646748678,2.2812256056019287,-1.015923802052633,0.39934349060058594
1708437925.7220774,-1.1059398651123047,-1.681443830529684,-2.525851551686422,2.281228705043457,-1.0158818403827112,0.3993348479270935
1708437925.7240853,-1.1059242486953735,-1.6814562282957972,-2.5258634726153772,2.2812256056019287,-1.01591664949526,0.39937594532966614
1708437925.726083,-1.1059648990631104,-1.681436677972311,-2.5258470217334192,2.2813114362904052,-1.0158942381488245,0.399352103471756
1708437925.7281082,-1.1058905124664307,-1.6814481220641078,-2.525818411503927,2.2812582689472656,-1.0159075895892542,0.39930665493011475
1708437925.7301023,-1.1058861017227173,-1.681443830529684,-2.525839630757467,2.2812656599232177,-1.0158994833575647,0.39934349060058594
1708437925.732117,-1.105961799621582,-1.6814562282957972,-2.525860611592428,2.281179113979004,-1.0159075895892542,0.39932724833488464
1708437925.7340863,-1.1058993339538574,-1.6814280949034632,-2.525884453450338,2.2812482553669433,-1.015911881123678,0.39933058619499207
1708437925.7360773,-1.105858564376831,-1.6814528904356898,-2.52580172220339,2.281179113979004,-1.0158880392657679,0.39935213327407837
1708437925.7381034,-1.1059155464172363,-1.6814280949034632,-2.525813881550924,2.2812198835560302,-1.0159285704242151,0.3993600308895111
1708437925.7400994,-1.1059486865997314,-1.6815186939635218,-2.525856081639425,2.2812318044849853,-1.0158985296832483,0.39934349060058594
1708437925.7420902,-1.1059530973434448,-1.6815139255919398,-2.525851551686422,2.281240625972412,-1.0158794561969202,0.39933913946151733
1708437925.7441022,-1.1059067249298096,-1.6815229854979457,-2.525856081639425,2.281256838435791,-1.0158703962909144,0.3993563950061798
1708437925.7460797,-1.1059398651123047,-1.6814433536925257,-2.525839630757467,2.281332178706787,-1.0159195105182093,0.39940401911735535
1708437925.7480867,-1.1059486865997314,-1.681465288201803,-2.525856081639425,2.281249447459839,-1.0159075895892542,0.39935868978500366
1708437925.7500753,-1.105894923210144,-1.6814857921996058,-2.525872532521383,2.281228705043457,-1.0159032980548304,0.3993600308895111
1708437925.752116,-1.1059112548828125,-1.6814481220641078,-2.525835100804464,2.2812363344379882,-1.015886131917135,0.39937156438827515
1708437925.7540693,-1.1059274673461914,-1.6815153561034144,-2.525839630757467,2.2812155920216064,-1.015862290059225,0.399352103471756
1708437925.7560673,-1.1059274673461914,-1.681436677972311,-2.5258262793170374,2.2812155920216064,-1.015886131917135,0.3993348777294159
1708437925.7580986,-1.1059443950653076,-1.6814772091307582,-2.525835100804464,2.281261368388794,-1.015895191823141,0.39933058619499207
1708437925.7601037,-1.1059274673461914,-1.681465288201803,-2.525921646748678,2.281249447459839,-1.0158746878253382,0.39934349060058594
1708437925.7620723,-1.1059573888778687,-1.6814772091307582,-2.5258424917804163,2.281195564860962,-1.015890900288717,0.39934778213500977
1708437925.764075,-1.1058573722839355,-1.6815020046629847,-2.525856081639425,2.281216784114502,-1.0159404913531702,0.3993630111217499
1708437925.7660828,-1.1059573888778687,-1.681465288201803,-2.525860611592428,2.281212492580078,-1.0159075895892542,0.39932289719581604
1708437925.7681112,-1.1059155464172363,-1.681481500665182,-2.5258424917804163,2.2812363344379882,-1.01591664949526,0.39935141801834106
1708437925.7700744,-1.1059443950653076,-1.681465288201803,-2.525877062474386,2.281252546901367,-1.01591664949526,0.3993845582008362
1708437925.7720733,-1.1059693098068237,-1.681465288201803,-2.525839630757467,2.281232996577881,-1.0159195105182093,0.39933061599731445
1708437925.7740757,-1.1059443950653076,-1.681481500665182,-2.525893274937765,2.281273289317749,-1.0158880392657679,0.39932286739349365
1708437925.77609,-1.1059067249298096,-1.6814800701537074,-2.5258427301989954,2.2812656599232177,-1.015857998524801,0.3993643522262573
1708437925.778073,-1.1059112548828125,-1.6814609966673792,-2.5258262793170374,2.2812318044849853,-1.0159075895892542,0.39934349060058594
1708437925.7801476,-1.1059398651123047,-1.6815020046629847,-2.52586800256838,2.281240625972412,-1.0158994833575647,0.39931103587150574
1708437925.782078,-1.1058573722839355,-1.6814609966673792,-2.525851551686422,2.281216784114502,-1.015911881123678,0.39935213327407837
1708437925.7840784,-1.1059155464172363,-1.6814481220641078,-2.525872532521383,2.281240625972412,-1.0159195105182093,0.399416983127594
1708437925.7860732,-1.1059486865997314,-1.681497713128561,-2.52586800256838,2.281228705043457,-1.0159085432635706,0.3993600606918335
1708437925.7881286,-1.1059274673461914,-1.6815349064269007,-2.525818411503927,2.2812701898762207,-1.0158746878253382,0.39932286739349365
1708437925.7900808,-1.1059486865997314,-1.6814609966673792,-2.52586800256838,2.2812155920216064,-1.0158794561969202,0.399383544921875
1708437925.7920995,-1.1058903932571411,-1.6814800701537074,-2.525877062474386,2.2812983232685546,-1.0159032980548304,0.3993358612060547
1708437925.794081,-1.1059198379516602,-1.6815229854979457,-2.525888744984762,2.281212492580078,-1.015886131917135,0.39935141801834106
1708437925.7960753,-1.1059486865997314,-1.6814843616881312,-2.5258753935443323,2.281285210246704,-1.0159209410296839,0.3993643522262573
1708437925.7980826,-1.1059443950653076,-1.6815129719176234,-2.525797192250387,2.2812656599232177,-1.015867058430807,0.39933905005455017
1708437925.800115,-1.1059317588806152,-1.6814609966673792,-2.525884453450338,2.281244917506836,-1.015883747731344,0.3993556499481201
1708437925.80208,-1.1059287786483765,-1.6814304790892542,-2.52584416071047,2.281268759364746,-1.0158994833575647,0.39935144782066345
1708437925.8040702,-1.1059112548828125,-1.681432386437887,-2.5258424917804163,2.2812375265308837,-1.01589280763735,0.3993673026561737
1708437925.8060753,-1.1059606075286865,-1.6815020046629847,-2.525865141545431,2.281195564860962,-1.0158994833575647,0.39937594532966614
1708437925.8080673,-1.1059573888778687,-1.6814528904356898,-2.525835100804464,2.281240625972412,-1.015867058430807,0.39940938353538513
1708437925.81007,-1.1058831214904785,-1.6814857921996058,-2.525856081639425,2.281249447459839,-1.0158994833575647,0.3993348777294159
1708437925.8121045,-1.1059155464172363,-1.6815010509886683,-2.5258753935443323,2.281216784114502,-1.0159209410296839,0.3993477523326874
1708437925.8140807,-1.1059443950653076,-1.6815139255919398,-2.525818411503927,2.281228705043457,-1.015932861958639,0.39930251240730286
1708437925.8160837,-1.1059560775756836,-1.681509634057516,-2.52584416071047,2.281232996577881,-1.0158713499652308,0.39938023686408997
1708437925.8181183,-1.1059198379516602,-1.6814519367613734,-2.525851551686422,2.281277580852173,-1.015862290059225,0.3993358612060547
1708437925.8200717,-1.1059573888778687,-1.681497713128561,-2.52584416071047,2.281249447459839,-1.0158422628985804,0.39939212799072266
1708437925.8220768,-1.1059155464172363,-1.6815186939635218,-2.525884453450338,2.281228705043457,-1.015867058430807,0.3993110954761505
1708437925.824096,-1.1058861017227173,-1.681493421594137,-2.525884453450338,2.281228705043457,-1.0158880392657679,0.39930659532546997
1708437925.8260806,-1.1059529781341553,-1.681530614892477,-2.5258260408984583,2.281240625972412,-1.01589280763735,0.3993600308895111
1708437925.828086,-1.1059317588806152,-1.681481500665182,-2.5258379618274134,2.2812582689472656,-1.01585561433901,0.3993673324584961
1708437925.8300686,-1.1059036254882812,-1.6814891300597132,-2.525806252156393,2.281240625972412,-1.0158713499652308,0.39933910965919495
1708437925.8320918,-1.1059529781341553,-1.681509634057516,-2.525860611592428,2.281207962627075,-1.01585561433901,0.3993673026561737
1708437925.8341343,-1.1059486865997314,-1.681509634057516,-2.525848690663473,2.281256838435791,-1.0158756414996546,0.39935141801834106
1708437925.836078,-1.1058499813079834,-1.681502481500143,-2.52584416071047,2.281216784114502,-1.0158804098712366,0.39937594532966614
1708437925.838123,-1.1059112548828125,-1.6814609966673792,-2.525872532521383,2.281179113979004,-1.0158355871783655,0.39935997128486633
1708437925.8401222,-1.1059112548828125,-1.681493421594137,-2.52584416071047,2.281244917506836,-1.0158312956439417,0.39932727813720703
1708437925.8421001,-1.1058950424194336,-1.6815339527525843,-2.5258305708514612,2.281224413509033,-1.0158565680133265,0.39934349060058594
1708437925.844111,-1.1059198379516602,-1.6815515957274378,-2.5258634726153772,2.281216784114502,-1.0158517996417444,0.39929813146591187
1708437925.8461041,-1.1059361696243286,-1.681509634057516,-2.525809351597921,2.2812155920216064,-1.0158265272723597,0.39932727813720703
1708437925.8481042,-1.1059355735778809,-1.68143953899526,-2.525839630757467,2.2812656599232177,-1.0158475081073206,0.39934346079826355
1708437925.850094,-1.1059242486953735,-1.681514402429098,-2.525813881550924,2.281256838435791,-1.0158398787127894,0.39934349060058594
1708437925.852143,-1.1059317588806152,-1.6814891300597132,-2.5258634726153772,2.281277580852173,-1.015817944203512,0.39934778213500977
1708437925.854095,-1.1058993339538574,-1.681521554986471,-2.5258198420154017,2.281224413509033,-1.0158689657794397,0.3993600606918335
1708437925.856092,-1.1059486865997314,-1.6815172634520472,-2.525839630757467,2.28127305089917,-1.0158312956439417,0.3993835747241974
1708437925.8581238,-1.1059186458587646,-1.6814843616881312,-2.525872532521383,2.281252546901367,-1.0158103148089808,0.39932727813720703
1708437925.8601143,-1.1059024333953857,-1.6814962826170863,-2.525851551686422,2.281244917506836,-1.0158355871783655,0.39934349060058594
1708437925.862115,-1.1059229373931885,-1.6814729175963343,-2.525789801274435,2.281232996577881,-1.0158026854144495,0.39933061599731445
1708437925.8641098,-1.1059648990631104,-1.681509634057516,-2.525851551686422,2.281289501781128,-1.0158432165728968,0.39931434392929077
1708437925.8661058,-1.1059274673461914,-1.6814891300597132,-2.525748078023092,2.2812318044849853,-1.0158160368548792,0.3993435204029083
1708437925.868159,-1.1059229373931885,-1.6815172634520472,-2.525827471409933,2.2812763887592773,-1.0158689657794397,0.39934349060058594
1708437925.8700798,-1.1058950424194336,-1.6814638576903285,-2.525856081639425,2.281256838435791,-1.0158265272723597,0.3993305563926697
1708437925.872072,-1.1059155464172363,-1.681493421594137,-2.525818411503927,2.2812155920216064,-1.0158355871783655,0.3993186950683594
1708437925.8740885,-1.1059024333953857,-1.681509634057516,-2.525860611592428,2.2812155920216064,-1.0158355871783655,0.39933156967163086
1708437925.8760722,-1.1059529781341553,-1.6815110645689906,-2.525872532521383,2.281244917506836,-1.0158475081073206,0.39933156967163086
1708437925.8780992,-1.1059024333953857,-1.681530614892477,-2.52584416071047,2.281277580852173,-1.0157907644854944,0.39936867356300354
1708437925.8800735,-1.1059361696243286,-1.681521554986471,-2.52584416071047,2.2812275129505615,-1.0158608595477503,0.399352103471756
1708437925.8820796,-1.1058950424194336,-1.681493421594137,-2.5258305708514612,2.281228705043457,-1.0158327261554163,0.39937156438827515
1708437925.8840947,-1.1059398651123047,-1.681530614892477,-2.525818411503927,2.2812601762958984,-1.0158355871783655,0.3993435204029083
1708437925.8860855,-1.1059229373931885,-1.6815020046629847,-2.525856081639425,2.281273289317749,-1.0157821814166468,0.3993600308895111
1708437925.8881333,-1.1059067249298096,-1.681497713128561,-2.525860611592428,2.2812275129505615,-1.0158517996417444,0.39935141801834106
1708437925.8900993,-1.1059398651123047,-1.6815387211241664,-2.525865141545431,2.281289501781128,-1.0157740751849573,0.3993600606918335
1708437925.892109,-1.1059361696243286,-1.681465288201803,-2.525827471409933,2.281264467830322,-1.0158074537860315,0.3993673324584961
1708437925.8940995,-1.1059486865997314,-1.6815010509886683,-2.525872532521383,2.2812363344379882,-1.0158312956439417,0.39933058619499207
1708437925.8960862,-1.1059112548828125,-1.6814772091307582,-2.525806252156393,2.2812394338795166,-1.0157693068133753,0.3993401527404785
1708437925.8981059,-1.1058741807937622,-1.681509634057516,-2.525865141545431,2.281297131175659,-1.0158265272723597,0.3993600904941559
1708437925.900109,-1.1059274673461914,-1.681497713128561,-2.525818411503927,2.2812763887592773,-1.0158517996417444,0.39934784173965454
1708437925.9021318,-1.1059155464172363,-1.681509634057516,-2.525877062474386,2.281285210246704,-1.0158193747149866,0.39934781193733215
1708437925.904084,-1.1059112548828125,-1.6814729175963343,-2.5258153120623987,2.281289501781128,-1.0158193747149866,0.39934349060058594
1708437925.9060795,-1.105894923210144,-1.681509634057516,-2.525872532521383,2.281277580852173,-1.0158517996417444,0.3993401825428009
1708437925.9080772,-1.1058993339538574,-1.6815186939635218,-2.525789801274435,2.281252546901367,-1.0158398787127894,0.39932727813720703
1708437925.9100778,-1.1059274673461914,-1.6814595661559046,-2.525835100804464,2.2812482553669433,-1.0158398787127894,0.3993196487426758
1708437925.9120748,-1.1059398651123047,-1.681509634057516,-2.525860611592428,2.281252546901367,-1.0158117453204554,0.3993563950061798
1708437925.914085,-1.1059186458587646,-1.6814891300597132,-2.52582294145693,2.2811779218861084,-1.0158475081073206,0.39937594532966614
1708437925.916102,-1.1059155464172363,-1.681497713128561,-2.525827471409933,2.281244917506836,-1.0158398787127894,0.39933156967163086
1708437925.918109,-1.1059317588806152,-1.681530614892477,-2.525856081639425,2.281292601222656,-1.0158489386187952,0.39931103587150574
1708437925.9200826,-1.1058937311172485,-1.6815172634520472,-2.52584416071047,2.281252546901367,-1.0158279577838343,0.3993643522262573
1708437925.9220836,-1.1059443950653076,-1.6814891300597132,-2.52582294145693,2.2812601762958984,-1.0158236662494105,0.39935141801834106
1708437925.9240806,-1.105961799621582,-1.681493421594137,-2.525848690663473,2.2812275129505615,-1.0157907644854944,0.399352103471756
1708437925.9260805,-1.105861783027649,-1.6815010509886683,-2.525860611592428,2.2812556463428955,-1.0158236662494105,0.3993358612060547
1708437925.9280908,-1.1059529781341553,-1.6815129719176234,-2.525835100804464,2.281268759364746,-1.0158641974078577,0.3993563950061798
1708437925.9300969,-1.1059274673461914,-1.681493421594137,-2.5258198420154017,2.281277580852173,-1.0158355871783655,0.3993600308895111
1708437925.932086,-1.1059112548828125,-1.6814857921996058,-2.525810782109396,2.2812763887592773,-1.0158866087542933,0.39932727813720703
1708437925.9340923,-1.1059067249298096,-1.6814857921996058,-2.525835100804464,2.281252546901367,-1.0158608595477503,0.3993033766746521
1708437925.9360747,-1.1059529781341553,-1.681514402429098,-2.525860611592428,2.281252546901367,-1.0158446470843714,0.3993401825428009
1708437925.9381237,-1.1059443950653076,-1.6814609966673792,-2.525794331227438,2.281285210246704,-1.0158193747149866,0.39929911494255066
1708437925.940088,-1.1059486865997314,-1.6814772091307582,-2.525839630757467,2.281264467830322,-1.0158475081073206,0.3993358612060547
1708437925.9421062,-1.1059443950653076,-1.681497713128561,-2.525856081639425,2.2812394338795166,-1.0158193747149866,0.39927828311920166
1708437925.9440966,-1.1059155464172363,-1.6815349064269007,-2.525792900715963,2.2812601762958984,-1.0157907644854944,0.399372935295105
1708437925.946099,-1.1058862209320068,-1.681481500665182,-2.525853220616476,2.2812601762958984,-1.0158517996417444,0.3993563950061798
1708437925.948117,-1.1058743000030518,-1.681521554986471,-2.5258153120623987,2.281289501781128,-1.0158236662494105,0.39933159947395325
1708437925.9500983,-1.1059274673461914,-1.6815139255919398,-2.525785271321432,2.281264467830322,-1.0157955328570765,0.39934781193733215
1708437925.9521122,-1.1059186458587646,-1.6815172634520472,-2.52580172220339,2.2812318044849853,-1.0158446470843714,0.399372935295105
1708437925.954115,-1.1059648990631104,-1.6814562282957972,-2.525789801274435,2.281256838435791,-1.0158489386187952,0.39931535720825195
1708437925.9561074,-1.1059404611587524,-1.681526323358053,-2.52582294145693,2.281285210246704,-1.0158236662494105,0.3993358612060547
1708437925.9580789,-1.1059067249298096,-1.6815430126585902,-2.525797192250387,2.2812601762958984,-1.0158026854144495,0.3993608355522156
1708437925.9600804,-1.1059398651123047,-1.681549688378805,-2.525818411503927,2.281264467830322,-1.0157907644854944,0.3993358612060547
1708437925.9620743,-1.1059274673461914,-1.681493421594137,-2.525851551686422,2.281268759364746,-1.0158279577838343,0.39937299489974976
1708437925.9641137,-1.1059274673461914,-1.6814562282957972,-2.525780741368429,2.281301422710083,-1.0158312956439417,0.3993563950061798
1708437925.9660742,-1.1059443950653076,-1.6814519367613734,-2.525839630757467,2.2812394338795166,-1.0157907644854944,0.399328351020813
1708437925.9680717,-1.1059229373931885,-1.6815139255919398,-2.52580172220339,2.281284971828125,-1.0158608595477503,0.39934349060058594
1708437925.970079,-1.1058787107467651,-1.681526323358053,-2.525827471409933,2.2812513548084716,-1.0158279577838343,0.3993121087551117
1708437925.972085,-1.105923056602478,-1.681547304193014,-2.525818411503927,2.281264467830322,-1.0158432165728968,0.3993077278137207
1708437925.9740913,-1.105961799621582,-1.681509634057516,-2.525856081639425,2.2812720972248535,-1.0158146063434046,0.3993600606918335
1708437925.9760847,-1.1059573888778687,-1.681526323358053,-2.525789801274435,2.281285210246704,-1.0158489386187952,0.3992868661880493
1708437925.9780843,-1.1058905124664307,-1.6814800701537074,-2.52584416071047,2.281297131175659,-1.0157941023456019,0.3992706537246704
1708437925.9800863,-1.1059229373931885,-1.6815010509886683,-2.525865141545431,2.2813259798237304,-1.0158160368548792,0.3993077576160431
1708437925.9820774,-1.1059099435806274,-1.681493421594137,-2.525832001362936,2.2813171583363037,-1.0158475081073206,0.39924243092536926
1708437925.9840996,-1.1059361696243286,-1.6815053425230921,-2.525839630757467,2.2812763887592773,-1.0158398787127894,0.3992868661880493
1708437925.986071,-1.1059317588806152,-1.6814729175963343,-2.52584416071047,2.281264467830322,-1.0158026854144495,0.399372935295105
1708437925.9881124,-1.1058905124664307,-1.681497713128561,-2.525827471409933,2.281313343639038,-1.0157955328570765,0.3992793560028076
1708437925.9900792,-1.1059443950653076,-1.681558748284811,-2.5258365313159388,2.2813045221516113,-1.0158026854144495,0.3992868661880493
1708437925.9920828,-1.1059186458587646,-1.6815010509886683,-2.525877062474386,2.2812720972248535,-1.0158026854144495,0.3993164300918579
1708437925.9941018,-1.1059443950653076,-1.6815053425230921,-2.525827471409933,2.281317635173462,-1.0158193747149866,0.39929041266441345
1708437925.9960895,-1.1059606075286865,-1.6815387211241664,-2.52577788034548,2.281280680293701,-1.0157783667193812,0.3993076682090759
1708437925.9980996,-1.1059404611587524,-1.6815010509886683,-2.5258153120623987,2.2813002306171875,-1.0158026854144495,0.3992868959903717
1708437926.0001152,-1.1059361696243286,-1.6814729175963343,-2.525794331227438,2.2812513548084716,-1.0158236662494105,0.3992955684661865
1708437926.002081,-1.1059318780899048,-1.681481500665182,-2.525869671498434,2.2811905580708007,-1.0158889929400843,0.39927932620048523
1708437926.004091,-1.1059443950653076,-1.681509634057516,-2.52582294145693,2.2812675672718505,-1.0157983938800257,0.39925870299339294
1708437926.0060859,-1.1059354543685913,-1.681493421594137,-2.525810782109396,2.281292601222656,-1.0158432165728968,0.3993445932865143
1708437926.0081255,-1.1059693098068237,-1.681526323358053,-2.52582294145693,2.2812556463428955,-1.0158074537860315,0.3993077278137207
1708437926.0100827,-1.1059229373931885,-1.6814857921996058,-2.525827471409933,2.2812513548084716,-1.0158446470843714,0.3993164300918579
1708437926.0120933,-1.1059143543243408,-1.681521554986471,-2.52584416071047,2.281313343639038,-1.0158026854144495,0.3993121087551117
1708437926.0140963,-1.1059398651123047,-1.6814962826170863,-2.5257988611804407,2.2813002306171875,-1.0158279577838343,0.39927938580513
1708437926.0160804,-1.1059398651123047,-1.6815172634520472,-2.5258153120623987,2.281334562892578,-1.0158279577838343,0.39928361773490906
1708437926.0181303,-1.1059398651123047,-1.6814891300597132,-2.5258365313159388,2.281254215831421,-1.0158074537860315,0.39931532740592957
1708437926.0201073,-1.1059274673461914,-1.6814891300597132,-2.525860611592428,2.281258745784424,-1.0158160368548792,0.39931216835975647
1708437926.0220966,-1.1059443950653076,-1.681481500665182,-2.525785271321432,2.2812630373188476,-1.0158236662494105,0.3993121087551117
1708437926.0241106,-1.1059606075286865,-1.6815797291197718,-2.5258365313159388,2.281292601222656,-1.0158489386187952,0.3993402123451233
1708437926.0260932,-1.1059067249298096,-1.6815172634520472,-2.525853220616476,2.281297131175659,-1.0158146063434046,0.39924246072769165
1708437926.0281003,-1.1059311628341675,-1.6814857921996058,-2.52582294145693,2.2812883096882324,-1.0158117453204554,0.3992760181427002
1708437926.0300796,-1.1059274673461914,-1.681469579736227,-2.525827471409933,2.2812911707111816,-1.0158117453204554,0.39925986528396606
1708437926.03208,-1.1059443950653076,-1.6814843616881312,-2.525839630757467,2.2813302713581542,-1.0158446470843714,0.39928364753723145
1708437926.0341122,-1.1059199571609497,-1.6814905605711878,-2.525827471409933,2.281309052104614,-1.0157907644854944,0.39928796887397766
1708437926.0360754,-1.1059768199920654,-1.681526323358053,-2.525818411503927,2.281317635173462,-1.0158193747149866,0.3992554843425751
1708437926.0381594,-1.1059067249298096,-1.6814681492247523,-2.525877062474386,2.2812468248554687,-1.0158236662494105,0.3992760479450226
1708437926.040101,-1.1059355735778809,-1.6815339527525843,-2.5258033911334437,2.281282587642334,-1.0158026854144495,0.3992804288864136
1708437926.042138,-1.1059274673461914,-1.6815139255919398,-2.525848690663473,2.2812792497822265,-1.0158446470843714,0.3992598056793213
1708437926.0441298,-1.1059155464172363,-1.6814562282957972,-2.525869433079855,2.2812792497822265,-1.0158475081073206,0.39927175641059875
1708437926.0461032,-1.1059229373931885,-1.6814562282957972,-2.525797192250387,2.28129951536145,-1.0157983938800257,0.39928045868873596
1708437926.0481093,-1.1059530973434448,-1.6814843616881312,-2.525806252156393,2.2813452917286376,-1.0157983938800257,0.3992389738559723
1708437926.0500953,-1.1059155464172363,-1.6814962826170863,-2.525806252156393,2.281381054515503,-1.0158026854144495,0.39927172660827637
1708437926.0521145,-1.105931282043457,-1.6814681492247523,-2.525785271321432,2.281344099635742,-1.0158117453204554,0.3992554843425751
1708437926.0541024,-1.1059398651123047,-1.6815053425230921,-2.525827471409933,2.281475229854248,-1.0157983938800257,0.3992270231246948
1708437926.0561311,-1.1059274673461914,-1.6815039120116175,-2.5258262793170374,2.2813965517231445,-1.0158117453204554,0.3992879092693329
1708437926.0581074,-1.1058787107467651,-1.6815086803831996,-2.525856081639425,2.2814172941395263,-1.0157955328570765,0.3992598056793213
1708437926.0601377,-1.1059650182724,-1.6815339527525843,-2.52584416071047,2.2814218240925292,-1.0158355871783655,0.399222731590271
1708437926.0620978,-1.1059274673461914,-1.6815010509886683,-2.525835100804464,2.2814337450214843,-1.0158689657794397,0.3992314338684082
1708437926.0641072,-1.1059311628341675,-1.681526323358053,-2.52582294145693,2.2814411359974365,-1.0158236662494105,0.39929670095443726
1708437926.066083,-1.1059317588806152,-1.681509634057516,-2.525881592427389,2.2814172941395263,-1.0158384482013147,0.39929670095443726
1708437926.0681117,-1.1059242486953735,-1.6815129719176234,-2.525827471409933,2.2814010816761474,-1.0158475081073206,0.3992346525192261
1708437926.0700805,-1.1059812307357788,-1.681554456750387,-2.525813881550924,2.2814084726520996,-1.0158446470843714,0.3992314338684082
1708437926.0720792,-1.1059650182724,-1.6815430126585902,-2.525839630757467,2.2813588815876464,-1.0158236662494105,0.3992641866207123
1708437926.0740886,-1.1059517860412598,-1.681526323358053,-2.5258305708514612,2.281372233028076,-1.0158074537860315,0.39926740527153015
1708437926.0760822,-1.1059268712997437,-1.6815387211241664,-2.525810782109396,2.2813877302357177,-1.0158117453204554,0.3992151916027069
1708437926.078092,-1.1059398651123047,-1.6814800701537074,-2.525909964238302,2.2814127641865234,-1.0158398787127894,0.3992760181427002
1708437926.080076,-1.1059843301773071,-1.6814843616881312,-2.5258470217334192,2.281478090877197,-1.0158355871783655,0.3992804288864136
1708437926.082091,-1.1059443950653076,-1.6815172634520472,-2.52582294145693,2.2814323145100097,-1.0158265272723597,0.39925551414489746
1708437926.0840924,-1.1059443950653076,-1.681493421594137,-2.525848690663473,2.2814246851154785,-1.0158074537860315,0.3992432653903961
1708437926.0860796,-1.1059398651123047,-1.6814857921996058,-2.525856081639425,2.2814323145100097,-1.0158517996417444,0.39925119280815125
1708437926.0881317,-1.1059274673461914,-1.681509634057516,-2.525848690663473,2.2814454275318603,-1.0158355871783655,0.39927172660827637
1708437926.0901008,-1.1059560775756836,-1.681521554986471,-2.5258260408984583,2.2813631731220703,-1.0158641974078577,0.39921078085899353
1708437926.092127,-1.105931282043457,-1.681521554986471,-2.525856081639425,2.2814127641865234,-1.0158599058734339,0.39923468232154846
1708437926.0941007,-1.1059229373931885,-1.6815339527525843,-2.525881592427389,2.2813753324696044,-1.0158432165728968,0.399222731590271
1708437926.0961084,-1.1059560775756836,-1.681521554986471,-2.525851551686422,2.2813877302357177,-1.01585561433901,0.3992151916027069
1708437926.0981035,-1.1059229373931885,-1.6815010509886683,-2.525848690663473,2.2814041811176757,-1.0158517996417444,0.39925193786621094
1708437926.1001174,-1.105972409248352,-1.6815053425230921,-2.525851551686422,2.2814203935810546,-1.0158641974078577,0.39925625920295715
1708437926.1020935,-1.105947494506836,-1.681497713128561,-2.525860611592428,2.2813922601887207,-1.015806023274557,0.39925193786621094
1708437926.104116,-1.1059931516647339,-1.6815053425230921,-2.525872532521383,2.2814056116291503,-1.0158475081073206,0.3992598056793213
1708437926.1061232,-1.105988621711731,-1.681509634057516,-2.52580172220339,2.2813631731220703,-1.0157983938800257,0.3992727994918823
1708437926.1081438,-1.1059229373931885,-1.6815129719176234,-2.5258095900165003,2.2814127641865234,-1.0158475081073206,0.39923572540283203
1708437926.1100984,-1.1059355735778809,-1.6814681492247523,-2.525848690663473,2.2813796240040283,-1.015834156666891,0.3992195129394531
1708437926.1120994,-1.1059637069702148,-1.6815053425230921,-2.525818411503927,2.281416102046631,-1.0158222357379358,0.39920759201049805
1708437926.1141036,-1.1059443950653076,-1.6814772091307582,-2.525872532521383,2.2814041811176757,-1.0158398787127894,0.3992879390716553
1708437926.1160882,-1.1059274673461914,-1.6815391979613246,-2.525839630757467,2.281416102046631,-1.0158804098712366,0.39930418133735657
1708437926.1181016,-1.1059443950653076,-1.6815053425230921,-2.525860611592428,2.2813922601887207,-1.0158599058734339,0.3992641866207123
1708437926.1200976,-1.1059398651123047,-1.681554456750387,-2.525856081639425,2.2813500601002197,-1.015862290059225,0.39925193786621094
1708437926.1220822,-1.1059268712997437,-1.681497713128561,-2.525839630757467,2.2814127641865234,-1.0158970991717737,0.39924001693725586
1708437926.1240916,-1.1059722900390625,-1.6815172634520472,-2.5258470217334192,2.2813965517231445,-1.0158713499652308,0.3992476463317871
1708437926.1260767,-1.10597562789917,-1.6815010509886683,-2.525832001362936,2.281487150783203,-1.01585561433901,0.3992195129394531
1708437926.1281,-1.1059560775756836,-1.681526323358053,-2.52590519586672,2.2814246851154785,-1.0158756414996546,0.3992476463317871
1708437926.130091,-1.10597562789917,-1.6814729175963343,-2.525872532521383,2.281409903163574,-1.0158641974078577,0.39925551414489746
1708437926.1320915,-1.1059931516647339,-1.6815453968443812,-2.525835100804464,2.2813619810291748,-1.0158794561969202,0.39924871921539307
1708437926.134087,-1.105959415435791,-1.6815430126585902,-2.525877062474386,2.2814454275318603,-1.0159075895892542,0.3992314338684082
1708437926.1360986,-1.1058818101882935,-1.6815139255919398,-2.5258827845202845,2.2813588815876464,-1.01591664949526,0.39926421642303467
1708437926.138089,-1.1059229373931885,-1.6814891300597132,-2.525851551686422,2.2813500601002197,-1.0158713499652308,0.3992151916027069
1708437926.1401086,-1.1059722900390625,-1.681549688378805,-2.5258918444262903,2.2814528185078125,-1.0159285704242151,0.39922380447387695
1708437926.1421027,-1.1059637069702148,-1.6814352474608363,-2.525884453450338,2.2814084726520996,-1.0159195105182093,0.3992389440536499
1708437926.144128,-1.1059229373931885,-1.6815053425230921,-2.5258589426623743,2.2814249235340576,-1.0158703962909144,0.3992727994918823
1708437926.1460907,-1.105923056602478,-1.6815129719176234,-2.525851551686422,2.2814246851154785,-1.015923802052633,0.3992598056793213
1708437926.1481023,-1.1058950424194336,-1.6815053425230921,-2.5258305708514612,2.2813545900532226,-1.0159271399127405,0.3992727994918823
1708437926.1501,-1.1059355735778809,-1.6814891300597132,-2.525851551686422,2.2813545900532226,-1.0159223715411585,0.39924323558807373
1708437926.1521263,-1.1059311628341675,-1.6814772091307582,-2.525884453450338,2.281416102046631,-1.0159552733050745,0.3992152214050293
1708437926.1541333,-1.1059024333953857,-1.6814843616881312,-2.5258963743792933,2.2813965517231445,-1.0159223715411585,0.39927172660827637
1708437926.156108,-1.1059768199920654,-1.6815053425230921,-2.525905434285299,2.2813796240040283,-1.0159762541400355,0.3992302715778351
1708437926.1581004,-1.1059229373931885,-1.6814843616881312,-2.5258827845202845,2.2814366060444335,-1.0159390608416956,0.3992966413497925
1708437926.1601305,-1.105972409248352,-1.681526323358053,-2.5258963743792933,2.2814292150684814,-1.0159271399127405,0.39925119280815125
1708437926.1620765,-1.1059517860412598,-1.6815053425230921,-2.5258589426623743,2.2814530569263916,-1.0159433523761194,0.39928364753723145
1708437926.164097,-1.1059443950653076,-1.6814891300597132,-2.5258873144732874,2.2814246851154785,-1.0159643332110804,0.39927494525909424
1708437926.1660807,-1.1059679985046387,-1.681530614892477,-2.5258918444262903,2.281372233028076,-1.0159342924701136,0.3993358910083771
1708437926.1681178,-1.1059398651123047,-1.6815010509886683,-2.5258589426623743,2.2814292150684814,-1.0160005728351038,0.3992868661880493
1708437926.170084,-1.1059430837631226,-1.6815053425230921,-2.5259128252612513,2.2813965517231445,-1.0159714857684534,0.39938464760780334
1708437926.1720831,-1.1059679985046387,-1.681509634057516,-2.5258753935443323,2.2814056116291503,-1.0159791151629847,0.39932724833488464
1708437926.1740856,-1.1060055494308472,-1.6815430126585902,-2.5258799234973353,2.2813922601887207,-1.0160077253924769,0.3993835151195526
1708437926.176082,-1.1059679985046387,-1.681554456750387,-2.5258737246142786,2.2814485269733886,-1.015991512929098,0.39937156438827515
1708437926.1780818,-1.1059269905090332,-1.6814843616881312,-2.5259252230273646,2.281383438701294,-1.0160077253924769,0.39940333366394043
1708437926.1800938,-1.1059560775756836,-1.6815053425230921,-2.5259116331683558,2.2813708025166015,-1.0160110632525843,0.3994077742099762
1708437926.182082,-1.105947494506836,-1.681530614892477,-2.525923554097311,2.2814084726520996,-1.016003433858053,0.39944371581077576
1708437926.1840765,-1.1059398651123047,-1.6814772091307582,-2.5259161631213587,2.2814218240925292,-1.016036335621969,0.3994426131248474
1708437926.186089,-1.105972409248352,-1.6815010509886683,-2.5259116331683558,2.2813965517231445,-1.0159991423236292,0.3995197117328644
1708437926.1881094,-1.105972409248352,-1.681530614892477,-2.525968376790182,2.2813965517231445,-1.016015354787008,0.3995230197906494
1708437926.190101,-1.1059517860412598,-1.6815430126585902,-2.525930945073263,2.2813665109821777,-1.0159900824176233,0.39962390065193176
1708437926.192097,-1.1059229373931885,-1.681493421594137,-2.525968376790182,2.2813631731220703,-1.0160272757159632,0.3996264338493347
1708437926.1941032,-1.1059311628341675,-1.6814891300597132,-2.525980297719137,2.2814084726520996,-1.0160511175738733,0.39969608187675476
1708437926.1961033,-1.1059560775756836,-1.6815053425230921,-2.525951925908224,2.2813750940510253,-1.0160554091082972,0.39971911907196045
1708437926.198093,-1.1059473752975464,-1.6815387211241664,-2.525963846837179,2.2814172941395263,-1.0160301367389124,0.39982783794403076
1708437926.2000747,-1.1059268712997437,-1.681497713128561,-2.525933806096212,2.2814292150684814,-1.0160663763629358,0.39987972378730774
1708437926.202084,-1.1059592962265015,-1.6814876995482386,-2.525996987019674,2.2813750940510253,-1.0161169211017054,0.39991915225982666
1708437926.2040982,-1.1059560775756836,-1.6815172634520472,-2.525954786931173,2.2813920217701416,-1.016062084828512,0.39999082684516907
1708437926.2060943,-1.1059355735778809,-1.6815349064269007,-2.525992457066671,2.2814010816761474,-1.0161169211017054,0.40004637837409973
1708437926.2081063,-1.1059398651123047,-1.6815053425230921,-2.525971237813131,2.2814203935810546,-1.0160873571978968,0.4001552164554596
1708437926.210076,-1.1059560775756836,-1.6814891300597132,-2.525933806096212,2.2814041811176757,-1.0160754362689417,0.40020206570625305
1708437926.2120786,-1.1059560775756836,-1.6814843616881312,-2.5259743372546595,2.281372233028076,-1.016094986592428,0.40031421184539795
1708437926.21409,-1.1058950424194336,-1.681521554986471,-2.5259788672076624,2.2814053732105712,-1.016139332448141,0.40045130252838135
1708437926.2160923,-1.105972409248352,-1.6814843616881312,-2.5259833971606653,2.2814010816761474,-1.0161188284503382,0.40052610635757446
1708437926.2181275,-1.1059637069702148,-1.6815172634520472,-2.5260539690600794,2.2813922601887207,-1.0161274115191858,0.4006090462207794
1708437926.2200975,-1.1059560775756836,-1.6815430126585902,-2.5260043779956263,2.2814203935810546,-1.0161188284503382,0.40073302388191223
1708437926.222074,-1.105947494506836,-1.6815010509886683,-2.5259833971606653,2.2813631731220703,-1.016163174306051,0.4008573591709137
1708437926.224101,-1.105988621711731,-1.681493421594137,-2.5260492006884974,2.2814292150684814,-1.0161097685443323,0.4010095000267029
1708437926.2260883,-1.1059679985046387,-1.6814962826170863,-2.5260239283191126,2.2813965517231445,-1.0161798636065882,0.40112486481666565
1708437926.2281249,-1.1059186458587646,-1.681443830529684,-2.5260029474841517,2.281388445491455,-1.016163174306051,0.4012730121612549
1708437926.2300835,-1.10597562789917,-1.681465288201803,-2.5259907881366175,2.2813965517231445,-1.0161336104022425,0.40144580602645874
1708437926.2320962,-1.1059430837631226,-1.681509634057516,-2.5260403792010706,2.281383438701294,-1.0161588827716272,0.4015852212905884
1708437926.2341151,-1.1059398651123047,-1.6814562282957972,-2.5260358492480677,2.2814411359974365,-1.0161903540240687,0.4016670286655426
1708437926.2360864,-1.1059486865997314,-1.6815053425230921,-2.5260193983661097,2.2813922601887207,-1.0162232557879847,0.4018515944480896
1708437926.2381008,-1.105988621711731,-1.6814562282957972,-2.5260193983661097,2.2814127641865234,-1.0162442366229456,0.4020119607448578
1708437926.2400944,-1.1059099435806274,-1.681526323358053,-2.526026789342062,2.2813965517231445,-1.0162189642535608,0.4022362530231476
1708437926.2421257,-1.1059398651123047,-1.6814772091307582,-2.5260193983661097,2.2813965517231445,-1.016226593648092,0.40239161252975464
1708437926.2441502,-1.105931282043457,-1.681521554986471,-2.526052538548605,2.2813922601887207,-1.016280476246969,0.40258297324180603
1708437926.2461088,-1.1059398651123047,-1.681521554986471,-2.526043478642599,2.2813965517231445,-1.016226593648092,0.40279099345207214
1708437926.248086,-1.1059268712997437,-1.681509634057516,-2.5260313192950647,2.2813965517231445,-1.016291920338766,0.4029422998428345
1708437926.250105,-1.1059473752975464,-1.6815296612181605,-2.526076618825094,2.281345768565796,-1.0162456671344202,0.4031287133693695
1708437926.2520852,-1.1059637069702148,-1.681526323358053,-2.5260148684131067,2.2814573484608154,-1.0162132422076624,0.4032876789569855
1708437926.2541208,-1.105931282043457,-1.681547304193014,-2.525993887578146,2.2814218240925292,-1.0163114706622522,0.4035767912864685
1708437926.256106,-1.1059560775756836,-1.6815129719176234,-2.526052538548605,2.2813708025166015,-1.016254727040426,0.4038042426109314
1708437926.2581475,-1.1059268712997437,-1.681521554986471,-2.526005808507101,2.2814010816761474,-1.0162537733661097,0.4040447175502777
1708437926.2601113,-1.1059274673461914,-1.6814519367613734,-2.525989357625143,2.2813588815876464,-1.0162952581988733,0.40429192781448364
1708437926.2621083,-1.1059112548828125,-1.6815515957274378,-2.526043478642599,2.2813708025166015,-1.0163028875934046,0.40459194779396057
1708437926.2641249,-1.1059679985046387,-1.681521554986471,-2.526055399571554,2.281454249019287,-1.0163357893573206,0.40477705001831055
1708437926.2661064,-1.105976939201355,-1.681509634057516,-2.526055399571554,2.2813753324696044,-1.0163310209857386,0.40506109595298767
1708437926.2680943,-1.1059355735778809,-1.6815430126585902,-2.526076618825094,2.2814041811176757,-1.0163267294513147,0.4054272770881653
1708437926.270077,-1.1059398651123047,-1.6814962826170863,-2.526034418736593,2.2814337450214843,-1.0163105169879358,0.4056563079357147
1708437926.2720752,-1.1059355735778809,-1.6815673313536585,-2.526072088872091,2.2814041811176757,-1.0163639227496546,0.4059807360172272
1708437926.2740855,-1.1059606075286865,-1.6815172634520472,-2.526055399571554,2.2814530569263916,-1.0163877646075647,0.4062553644180298
1708437926.2760768,-1.1059186458587646,-1.6815010509886683,-2.526067558919088,2.2813383775898437,-1.0162928740130823,0.4065913259983063
1708437926.278076,-1.1059606075286865,-1.6815387211241664,-2.5260630289660853,2.2813469606586914,-1.0163310209857386,0.40693846344947815
1708437926.2800753,-1.1059517860412598,-1.6815430126585902,-2.5261152426349085,2.281384153957031,-1.016374413167135,0.4072931110858917
1708437926.2820737,-1.1058950424194336,-1.6815172634520472,-2.5260914007769983,2.281388445491455,-1.016350571309225,0.4076535105705261
1708437926.2840679,-1.1059486865997314,-1.681547304193014,-2.5260704199420374,2.2813753324696044,-1.016383473073141,0.40802016854286194
1708437926.2860587,-1.1059560775756836,-1.681554456750387,-2.5261123816119593,2.2814041811176757,-1.0163582007037562,0.4083622694015503
1708437926.2881203,-1.1059443950653076,-1.6815411053099574,-2.5261243025409144,2.281454249019287,-1.0163996855365198,0.40874648094177246
1708437926.2901,-1.1059199571609497,-1.6815296612181605,-2.5260749498950403,2.2813545900532226,-1.0164030233966272,0.40911728143692017
1708437926.2921557,-1.1059067249298096,-1.6816278896727503,-2.5261152426349085,2.281384153957031,-1.0163772741900843,0.4095088839530945
1708437926.2940972,-1.1059112548828125,-1.6815577946104945,-2.5260823408709925,2.2814010816761474,-1.016390625630514,0.4099486768245697
1708437926.2961237,-1.1059155464172363,-1.6816159687437953,-2.5260868708239954,2.281384153957031,-1.016390625630514,0.41035473346710205
1708437926.2981045,-1.1059317588806152,-1.6815444431700648,-2.5260987917529505,2.2813853460499267,-1.0164030233966272,0.4107866585254669
1708437926.3001213,-1.1058704853057861,-1.6816626987852992,-2.5261152426349085,2.2814053732105712,-1.0164182821856897,0.41118869185447693
1708437926.3020945,-1.1059155464172363,-1.6816092930235804,-2.5261016527758997,2.2813679414936523,-1.0163863340960901,0.4116848111152649
1708437926.304087,-1.105896234512329,-1.6816159687437953,-2.5261107126819056,2.2813426691242675,-1.0163896719561976,0.41215163469314575
1708437926.306107,-1.1058787107467651,-1.6816002331175746,-2.52614409128298,2.2813631731220703,-1.0164640585528772,0.41265130043029785
1708437926.3080904,-1.1059242486953735,-1.6816283665099085,-2.526139561329977,2.2814175325581054,-1.0164716879474085,0.41302430629730225
1708437926.310091,-1.1059155464172363,-1.6816331348814906,-2.526176993046896,2.281360312099121,-1.0164640585528772,0.41352394223213196
1708437926.3120835,-1.1058874130249023,-1.681636472741598,-2.5261650721179407,2.2813796240040283,-1.0164302031146448,0.4139997661113739
1708437926.3140817,-1.105896234512329,-1.6816894016661585,-2.526184384022848,2.281356020564697,-1.0164287726031702,0.4144578278064728
1708437926.3160696,-1.1058217287063599,-1.6816760502257289,-2.526200834904806,2.281339569682739,-1.0164745489703577,0.41499781608581543
1708437926.318125,-1.1058423519134521,-1.681652685204977,-2.5261171499835413,2.281360312099121,-1.0165393988238733,0.41549164056777954
1708437926.3201206,-1.1058835983276367,-1.6816760502257289,-2.52616793314089,2.2813679414936523,-1.0165064970599573,0.41604673862457275
1708437926.3220925,-1.10588800907135,-1.6816727123656214,-2.526172463093893,2.28135268270459,-1.0165064970599573,0.4165867865085602
1708437926.3240907,-1.1058554649353027,-1.6816760502257289,-2.526175324116842,2.2814149099537353,-1.0165217558490198,0.4171738028526306
1708437926.3260775,-1.1058554649353027,-1.6817165813841761,-2.5262280146228235,2.281348391170166,-1.0165451208697718,0.41769200563430786
1708437926.3281212,-1.1058673858642578,-1.6817208729186,-2.526208225880758,2.281381054515503,-1.0165541807757776,0.4182709753513336
1708437926.3300893,-1.105851173400879,-1.6817251644530238,-2.526154343281881,2.2813407617756347,-1.016599480305807,0.41884151101112366
1708437926.3321269,-1.1058684587478638,-1.6817413769164027,-2.5261455217944544,2.281339569682739,-1.016552750264303,0.4194399416446686
1708437926.3340921,-1.1058034896850586,-1.6817180118956507,-2.5262113253222864,2.2813779550739746,-1.016590420399801,0.42008763551712036
1708437926.3360984,-1.1058239936828613,-1.681704660455221,-2.5262234846698206,2.2812957006641845,-1.016594711934225,0.4206888675689697
1708437926.3381076,-1.1057746410369873,-1.6817409000792445,-2.5262489954577845,2.281308336848877,-1.016627613698141,0.4212673306465149
1708437926.340127,-1.105771541595459,-1.6817251644530238,-2.5262399355517786,2.2812675672718505,-1.0166061560260218,0.42183318734169006
1708437926.3420963,-1.1057746410369873,-1.6817075214781703,-2.5262683073626917,2.28123061239209,-1.016601864491598,0.4224402606487274
1708437926.3441236,-1.1057140827178955,-1.681758543054098,-2.5261932055102747,2.281289501781128,-1.0166142622577112,0.4231609106063843
1708437926.3461156,-1.10575532913208,-1.6817251644530238,-2.5262144247638147,2.28117482244458,-1.0165842215167444,0.4237629771232605
1708437926.3481166,-1.1057151556015015,-1.6817504368224085,-2.526284996663229,2.281179113979004,-1.0166543165790003,0.4244415760040283
1708437926.3500998,-1.1056989431381226,-1.6816884479918421,-2.526259247456686,2.2812375265308837,-1.0166052023517054,0.4250546395778656
1708437926.3521214,-1.1056462526321411,-1.6816956005492152,-2.526300017033712,2.2812132078358154,-1.0166786352740687,0.42581436038017273
1708437926.3541234,-1.1056671142578125,-1.681732793847555,-2.526283327733175,2.2811643320270996,-1.0166786352740687,0.4265456795692444
1708437926.3560946,-1.1056714057922363,-1.681758543054098,-2.526320997868673,2.2812043863483886,-1.0167072455035608,0.42723986506462097
1708437926.3580887,-1.1056756973266602,-1.6817165813841761,-2.5263283888446253,2.2811478811451416,-1.0166567007647913,0.4280279278755188
1708437926.3600981,-1.1056442260742188,-1.6817366085448207,-2.5263028780566614,2.2811478811451416,-1.0166938940631312,0.42868107557296753
1708437926.3620818,-1.1056486368179321,-1.6817413769164027,-2.5263193289386194,2.281186266536377,-1.016738239918844,0.42941814661026
1708437926.3640857,-1.1056442260742188,-1.6817451916136683,-2.5263193289386194,2.2811285692402343,-1.0166967550860804,0.4301532208919525
1708437926.366075,-1.1055667400360107,-1.681765695611471,-2.5263386408435267,2.2810463148304443,-1.0167058149920862,0.43094485998153687
1708437926.3681169,-1.1055755615234375,-1.6817690334715785,-2.5264020601855677,2.2811247545429687,-1.0167458693133753,0.4316568970680237
1708437926.370089,-1.1055798530578613,-1.6817523441710414,-2.526350800191061,2.281063957805298,-1.0167949835406702,0.43236246705055237
1708437926.3720741,-1.1055235862731934,-1.6817566357054652,-2.526400391255514,2.281080408687256,-1.0167906920062464,0.433106005191803
1708437926.3740747,-1.105499029159546,-1.681760927239889,-2.526393000279562,2.2810727792927246,-1.0168150107013147,0.43388333916664124
1708437926.3760724,-1.105510950088501,-1.681789060632223,-2.526350800191061,2.2810157972523193,-1.0168269316302698,0.43468624353408813
1708437926.3780847,-1.1054959297180176,-1.6818014583983363,-2.5263822714435022,2.2810239034840087,-1.016838852559225,0.43549197912216187
1708437926.3801033,-1.10543954372406,-1.6817714176573695,-2.526466433201925,2.2809907633015136,-1.0167925993548792,0.4362586438655853
1708437926.38209,-1.1054489612579346,-1.6818062267699183,-2.5264318625079554,2.280963822002075,-1.0169108549701136,0.43708914518356323
1708437926.3840919,-1.1053895950317383,-1.6818047962584437,-2.5264437834369105,2.2809311586567382,-1.0169137159930628,0.4378887414932251
1708437926.3860924,-1.105431318283081,-1.681803365746969,-2.5264318625079554,2.280988855952881,-1.0169017950641077,0.43868157267570496
1708437926.3881204,-1.1054189205169678,-1.681836267510885,-2.5264468828784388,2.2810062605091552,-1.0169466177569788,0.43956509232521057
1708437926.3901014,-1.105372667312622,-1.6818005047240199,-2.5264514128314417,2.280894919032715,-1.0169828573810022,0.4403616487979889
1708437926.3921058,-1.1052732467651367,-1.681866308251852,-2.5264843145953577,2.280895634288452,-1.0169809500323694,0.44121211767196655
1708437926.3941061,-1.1053156852722168,-1.6818887195982875,-2.526499334965841,2.2809125620075683,-1.0170095602618616,0.4420596659183502
1708437926.3960848,-1.1052550077438354,-1.6818930111327113,-2.526499334965841,2.28086440145459,-1.0170214811908167,0.44295716285705566
1708437926.398095,-1.1052799224853516,-1.6819020710387171,-2.526524845753805,2.2808398443409423,-1.0170124212848108,0.44375312328338623
1708437926.40011,-1.1052348613739014,-1.6819006405272425,-2.5265279451953333,2.2808162409016113,-1.0170992056476038,0.44475269317626953
1708437926.4020872,-1.1051949262619019,-1.6819168529906214,-2.5265324751483362,2.2807997900196533,-1.0170601050006312,0.44551217555999756
1708437926.4040997,-1.105191707611084,-1.6819411716856898,-2.5265143553363245,2.2807158666798095,-1.017097298298971,0.4464503228664398
1708437926.4060795,-1.1052002906799316,-1.6818872890868128,-2.5265892187701624,2.2807816702076416,-1.0171621481524866,0.4473499357700348
1708437926.4080827,-1.1051552295684814,-1.6819201908507289,-2.5265756289111536,2.2807323175617675,-1.0172069708453577,0.44825589656829834
1708437926.41009,-1.1051197052001953,-1.681911130944723,-2.5265427271472376,2.280678911800049,-1.017242733632223,0.44920215010643005
1708437926.4120927,-1.1051446199417114,-1.6819607220091761,-2.5265637079821985,2.280688925380371,-1.0171926657306116,0.45014646649360657
1708437926.4140778,-1.1051132678985596,-1.681939264337057,-2.526583258305685,2.280672712916992,-1.0172088781939905,0.4510728716850281
1708437926.4160814,-1.1050530672073364,-1.6819726429381312,-2.526620928441183,2.280635042781494,-1.0172784964190882,0.4520474672317505
1708437926.4181461,-1.1050032377243042,-1.6820084057249964,-2.526656691228048,2.2806569772907714,-1.0172489325152796,0.4528953731060028
1708437926.420109,-1.1050056219100952,-1.682016988793844,-2.5265982786761683,2.280665798778198,-1.0173090139972132,0.4537936747074127
1708437926.422102,-1.1049474477767944,-1.6820279560484828,-2.5266688505755823,2.2805961805531005,-1.0173419157611292,0.4547881782054901
1708437926.424091,-1.1049156188964844,-1.682016511956686,-2.5266552607165735,2.28058569013562,-1.0172713438617151,0.4556933641433716
1708437926.42608,-1.1049168109893799,-1.6820603809752406,-2.5266597906695765,2.2805775839039306,-1.0173404852496546,0.45663896203041077
1708437926.4281173,-1.1048674583435059,-1.6820842228331507,-2.5267048517810267,2.280548020000122,-1.0173686186419886,0.45769330859184265
1708437926.4300878,-1.1048479080200195,-1.6820727787413539,-2.526712242756979,2.280503674144409,-1.017392937337057,0.45861804485321045
1708437926.4320846,-1.1047909259796143,-1.6820622883238734,-2.526757303868429,2.2804884153553466,-1.0173795858966272,0.45964229106903076
1708437926.4340763,-1.1048166751861572,-1.6821252308287562,-2.526769463215963,2.2804760175892334,-1.0174124876605433,0.4606148898601532
1708437926.4360805,-1.1047801971435547,-1.6821118793883265,-2.5267346541034144,2.2804714876362304,-1.017482105885641,0.46162867546081543
1708437926.4381223,-1.1047152280807495,-1.6821981869139613,-2.5267468134509485,2.280449076289795,-1.0174568335162562,0.4625709354877472
1708437926.4401305,-1.1047325134277344,-1.6820866070189417,-2.5268080870257776,2.28043715536084,-1.0175021330462855,0.4635651707649231
1708437926.4421058,-1.1046993732452393,-1.6821681461729945,-2.526848856602804,2.2804385858723144,-1.0175002256976526,0.46449747681617737
1708437926.4441433,-1.1047049760818481,-1.6822120151915492,-2.526836935673849,2.2803889948078613,-1.0175288359271448,0.46552303433418274
1708437926.4461157,-1.1046562194824219,-1.682183404962057,-2.526848856602804,2.280365152949951,-1.017508331929342,0.4664492905139923
1708437926.4481246,-1.1046154499053955,-1.6821915111937464,-2.526839796696798,2.2803336816975097,-1.0175884405719202,0.4674428403377533
1708437926.4500968,-1.1045680046081543,-1.6822453937926234,-2.5268846193896692,2.280325098628662,-1.0176008383380335,0.4684164822101593
1708437926.452102,-1.1045397520065308,-1.6822849712767542,-2.5269132296191614,2.2802769380756835,-1.0176647345172327,0.4693528115749359
1708437926.4541202,-1.104536533355713,-1.6823002300658167,-2.5268710295306605,2.280245466823242,-1.0175908247577112,0.4702928066253662
1708437926.456098,-1.1045165061950684,-1.6822434864439906,-2.5268831888781946,2.2802411752888183,-1.0176919142352503,0.4712699353694916
1708437926.4581044,-1.1044515371322632,-1.682307859460348,-2.5268996397601526,2.280237837428711,-1.0177295843707483,0.47226834297180176
1708437926.4601042,-1.1043819189071655,-1.682361742059225,-2.526973311101095,2.280242367381714,-1.0177443663226526,0.47326740622520447
1708437926.4621253,-1.1043552160263062,-1.6822873554625453,-2.526919190083639,2.2801734644123535,-1.017735783253805,0.4743058681488037
1708437926.4641356,-1.104343295097351,-1.682368894616598,-2.526947561894552,2.2801734644123535,-1.017829720173971,0.47531837224960327
1708437926.4661188,-1.10432767868042,-1.6823064289488734,-2.5269461313830774,2.2801238733479003,-1.0178568998919886,0.47628316283226013
1708437926.4680977,-1.1042757034301758,-1.6823932133116664,-2.5270167032824915,2.280104084605835,-1.0178268591510218,0.47723057866096497
1708437926.4701078,-1.1042680740356445,-1.6824165783324183,-2.526994053517477,2.2800978857227783,-1.0179207960711878,0.47815921902656555
1708437926.4720924,-1.104219913482666,-1.6823307476439417,-2.5270348230945032,2.2800282674976806,-1.0179241339312952,0.4791555106639862
1708437926.4740887,-1.1041754484176636,-1.682415624658102,-2.527060333882467,2.280041380519531,-1.0179479757892054,0.48020854592323303
1708437926.4760773,-1.1041595935821533,-1.6824199161925257,-2.5270960966693323,2.279977007503174,-1.0179956595050257,0.48127055168151855
1708437926.4781075,-1.1041196584701538,-1.6824070415892542,-2.5270677248584192,2.2800094324299316,-1.0179756323443812,0.4822673201560974
1708437926.4800823,-1.1040763854980469,-1.6823579273619593,-2.5270915667163294,2.2799123960682373,-1.0180485884295862,0.48330867290496826
1708437926.4821005,-1.1039987802505493,-1.6824470959105433,-2.5270870367633265,2.27991692602124,-1.0180233160602015,0.4842759370803833
1708437926.484097,-1.103983759880066,-1.6824847660460414,-2.5270853678332728,2.279852791423462,-1.018083397542135,0.4853211045265198
1708437926.4860737,-1.1040011644363403,-1.6824828586974085,-2.527097527180807,2.2798704343983154,-1.01813251176943,0.4863422214984894
1708437926.488092,-1.1039605140686035,-1.6824995479979457,-2.527175490056173,2.2798165517994384,-1.018139664326803,0.48732995986938477
1708437926.4901135,-1.1038917303085327,-1.6825605831541957,-2.52714711824526,2.2797514635273437,-1.018179718648092,0.48835521936416626
1708437926.4920874,-1.10389244556427,-1.682535310784811,-2.527175490056173,2.279747648830078,-1.0181668440448206,0.4893832504749298
1708437926.4941094,-1.103819727897644,-1.682568689385885,-2.5271862188922327,2.279777689571045,-1.0182283560382288,0.4903799891471863
1708437926.4961402,-1.1037553548812866,-1.6825419865050257,-2.5272372404681605,2.2797252374836425,-1.0182388464557093,0.49148130416870117
1708437926.498108,-1.1037726402282715,-1.6825949154295863,-2.5271907488452356,2.279639883632324,-1.0182579199420374,0.49241065979003906
1708437926.5001018,-1.1036994457244873,-1.6825791798033656,-2.527285401021139,2.279686375255249,-1.0183523336993616,0.49345287680625916
1708437926.5020907,-1.10365629196167,-1.6826311550536097,-2.527259413396017,2.279604359264038,-1.018318001423971,0.4944559931755066
1708437926.504096,-1.1036124229431152,-1.6826392612852992,-2.527241293584005,2.279596729869507,-1.0184076468097132,0.49547475576400757
1708437926.5060792,-1.1035398244857788,-1.6827122173705042,-2.5272911230670374,2.279548330897949,-1.018397633229391,0.49645984172821045
1708437926.508074,-1.1035109758377075,-1.6826955280699671,-2.5273149649249476,2.2794667917438964,-1.0185092131244105,0.4974394738674164
1708437926.510078,-1.1034601926803589,-1.6827684841551722,-2.527334515248434,2.279496594066284,-1.0184991995440882,0.4984842538833618
1708437926.5120745,-1.103386402130127,-1.6827627621092738,-2.527376715336935,2.2794274526783447,-1.0185111204730433,0.49952560663223267
1708437926.51409,-1.1034040451049805,-1.68278231243276,-2.527417246495382,2.279425783748291,-1.0185263792621058,0.5005004405975342
1708437926.5160925,-1.1033563613891602,-1.6828228435912074,-2.5274201075183313,2.2794272142597656,-1.0185993353473108,0.5014495849609375
1708437926.5181346,-1.1033287048339844,-1.6828319034972132,-2.5273523966418665,2.279341383571289,-1.018574062977926,0.5024704337120056
1708437926.5201006,-1.103297472000122,-1.6828915081419886,-2.527409617100851,2.279320641154907,-1.0186026732074183,0.5034385323524475
1708437926.5220935,-1.1031798124313354,-1.6828748188414515,-2.5274561087237757,2.2792975145527343,-1.0186546484576624,0.504443883895874
1708437926.5240946,-1.1031477451324463,-1.6829067669310511,-2.527491871510641,2.279261751765869,-1.0186875502215784,0.5054406523704529
1708437926.5260675,-1.1031121015548706,-1.6829306087889613,-2.527482811604635,2.279155893916748,-1.0187237898456019,0.5064047574996948
1708437926.5280874,-1.1030312776565552,-1.682972093621725,-2.5275071302997034,2.2791897493549804,-1.018730942402975,0.507411003112793
1708437926.5301046,-1.1029678583145142,-1.6829501591124476,-2.5275383631335657,2.279064579600952,-1.0187833944903772,0.5084081292152405
1708437926.5321171,-1.102923035621643,-1.6830102405943812,-2.527588192616598,2.2790981966206054,-1.0188234488116663,0.509413480758667
1708437926.5341012,-1.1029093265533447,-1.6830798588194789,-2.527623955403463,2.279005690211914,-1.0188301245318812,0.5103868842124939
1708437926.5361254,-1.1027759313583374,-1.6831690273680628,-2.5276406447040003,2.2789203363605957,-1.0188911596881312,0.5113387107849121
1708437926.5381448,-1.1027488708496094,-1.6831423244872035,-2.5276556650744837,2.2788476186939697,-1.018914047871725,0.5124483108520508
1708437926.5400982,-1.1026475429534912,-1.6831680736937464,-2.5276270548449915,2.278836413020752,-1.0189793745623987,0.513399600982666
1708437926.5420983,-1.102559208869934,-1.6831337414183558,-2.5277257601367396,2.2787932592579345,-1.0189526716815394,0.5144297480583191
1708437926.544109,-1.1024914979934692,-1.683235307733053,-2.527674976979391,2.27874939023938,-1.0190218130694788,0.5153941512107849
1708437926.546109,-1.1023908853530884,-1.683241983453268,-2.527698818837301,2.278698607082031,-1.0190203825580042,0.5162736773490906
1708437926.5482178,-1.1022982597351074,-1.6833034954466761,-2.527698818837301,2.2786411482044677,-1.0190895239459437,0.517323911190033
1708437926.5501113,-1.102246880531311,-1.6832901440062464,-2.5277679602252405,2.2785321909138183,-1.0191534201251429,0.518312394618988
1708437926.5521147,-1.1021314859390259,-1.6833378277220667,-2.5277379194842737,2.2784437376209716,-1.0191734472857874,0.519241213798523
1708437926.5541463,-1.102035641670227,-1.683394571343893,-2.527803961430685,2.2784289556690673,-1.0192387739764612,0.5203571915626526
1708437926.5560853,-1.1019794940948486,-1.6834422550597132,-2.527778450642721,2.2783211904713134,-1.0192626158343714,0.5212351083755493
1708437926.5580857,-1.1018544435501099,-1.6834403477110804,-2.5278895537005823,2.2782890039631347,-1.019268814717428,0.5222610831260681
1708437926.5601015,-1.101799726486206,-1.683521410027975,-2.5278099218951624,2.2782372671314697,-1.0193303267108362,0.5232208967208862
1708437926.5620856,-1.1016963720321655,-1.6836229763426722,-2.5279043356524866,2.2781295019337158,-1.0193865934955042,0.5242441296577454
1708437926.5640793,-1.101534366607666,-1.6836382351317347,-2.527879063283102,2.278052969569824,-1.019376579915182,0.5252246260643005
1708437926.5660896,-1.1015077829360962,-1.6836582622923792,-2.527872864400045,2.278038664455078,-1.0194528738604944,0.5261304974555969
1708437926.5681422,-1.101362705230713,-1.6837173900999964,-2.5279975573169153,2.2779132562824707,-1.0195172468768519,0.5270256996154785
1708437926.5700853,-1.101259469985962,-1.6838318310179652,-2.5279510656939905,2.2778422075458984,-1.0195873419391077,0.5280084609985352
1708437926.572079,-1.1011303663253784,-1.6838418445982875,-2.5279465357409876,2.277782602901123,-1.0196264425860804,0.528952956199646
1708437926.5740862,-1.1010282039642334,-1.683967729608053,-2.5279868284808558,2.277669830913208,-1.019620720540182,0.5299060940742493
1708437926.5761037,-1.1009362936019897,-1.6839367351927699,-2.5280228296863,2.2775532442280273,-1.0197127501117151,0.5308511853218079
1708437926.5780811,-1.1007628440856934,-1.6839877567686976,-2.5280633608447474,2.2774457174488525,-1.0197775999652308,0.5317114591598511
1708437926.5801141,-1.10066819190979,-1.6840893230833949,-2.5280588308917444,2.2773453432270507,-1.019801441823141,0.5325672030448914
1708437926.5821002,-1.1005284786224365,-1.6841417751707972,-2.528118912373678,2.2772583204456787,-1.0198200384723108,0.5335630774497986
1708437926.5841107,-1.1003906726837158,-1.6842380962767542,-2.5281382242785853,2.2771619993397216,-1.0198853651629847,0.5344591736793518
1708437926.5860875,-1.1002479791641235,-1.6843105755248011,-2.5281625429736536,2.277053042049072,-1.019904915486471,0.5354372262954712
1708437926.5880907,-1.1000465154647827,-1.684373518029684,-2.5282238165484827,2.27692095815625,-1.0199692885028284,0.5362818241119385
1708437926.5901096,-1.0999081134796143,-1.6843840084471644,-2.528210226689474,2.276825113887451,-1.01996356645693,0.537216067314148
1708437926.5921035,-1.0997835397720337,-1.684495588342184,-2.5282867590533655,2.2767793375202636,-1.0200932661639612,0.5381420850753784
1708437926.5941138,-1.0995993614196777,-1.6845947704710902,-2.5283318201648157,2.276590033168457,-1.0200966040240687,0.5390101671218872
1708437926.596086,-1.0993894338607788,-1.6845876179137171,-2.528334919606344,2.276535673732422,-1.020149056111471,0.5398802757263184
1708437926.5981066,-1.0992711782455444,-1.6846996746458949,-2.5284085909472864,2.276418610210083,-1.0201757589923304,0.5407171845436096
1708437926.6000998,-1.0991120338439941,-1.6847430668272914,-2.5284984747516077,2.276261492366455,-1.0202491919146937,0.5416064262390137
1708437926.602093,-1.0988821983337402,-1.6849004230894984,-2.528454605733053,2.2761217790791015,-1.020287815724508,0.542492687702179
1708437926.6041021,-1.0986378192901611,-1.6849719486632289,-2.5285072962390345,2.275991602534912,-1.020339314137594,0.5434268712997437
1708437926.606093,-1.0984615087509155,-1.6850882969298304,-2.528546396886007,2.2758213716694335,-1.0204690138446253,0.5443238019943237
1708437926.6080852,-1.098238229751587,-1.6851517162718714,-2.5285537878619593,2.2756005960651855,-1.0204632917987269,0.5451838374137878
1708437926.6100893,-1.0980758666992188,-1.6852389774718226,-2.5285969416247767,2.275503082866333,-1.0205028692828577,0.5460860729217529
1708437926.612073,-1.0978353023529053,-1.6853519878783167,-2.528696123753683,2.275350256557129,-1.0205753485309046,0.5468875765800476
1708437926.6140862,-1.097631573677063,-1.685441633264059,-2.5287488142596644,2.2751003938862304,-1.0206640402423304,0.547757625579834
1708437926.6160955,-1.0974191427230835,-1.6855675182738246,-2.528825346623556,2.2750188547321777,-1.020715061818258,0.5485379099845886
1708437926.6181247,-1.0971843004226685,-1.6856571636595667,-2.5288518110858362,2.2748047548481445,-1.0207880179034632,0.5494073033332825
1708437926.6200843,-1.0969069004058838,-1.6858064136900843,-2.52885085741152,2.274657650584839,-1.0208357016192835,0.550264835357666
1708437926.6220865,-1.0966435670852661,-1.6858936748900355,-2.528924051915304,2.2744082647510986,-1.0209038893329065,0.5510790348052979
1708437926.6240838,-1.0963866710662842,-1.6860281429686488,-2.5289347807513636,2.2742342191883544,-1.021015469227926,0.5520009994506836
1708437926.6260655,-1.0961403846740723,-1.6861440143980921,-2.528999153767721,2.2740463453480224,-1.0210307280169886,0.5527762770652771
1708437926.6281426,-1.0958353281021118,-1.6863213978209437,-2.5290470759021204,2.273768587703369,-1.0211237112628382,0.5536454319953918
1708437926.6300726,-1.0955756902694702,-1.6864816151061,-2.529135529194967,2.273618145579956,-1.0211980978595179,0.5545339584350586
1708437926.6321287,-1.0952757596969604,-1.68664612392568,-2.529152218495504,2.273402376765869,-1.0212209860431116,0.5552614331245422
1708437926.6341112,-1.0949589014053345,-1.6867572269835414,-2.529252592717306,2.273207111949585,-1.0213049093829554,0.5560703873634338
1708437926.6360683,-1.0946508646011353,-1.6869007549681605,-2.5292585531817835,2.2729667860218505,-1.0214675108539026,0.5569652915000916
1708437926.6380906,-1.0943061113357544,-1.6870681248106898,-2.529311243687765,2.2727998930164794,-1.0215352217303675,0.5577148795127869
1708437926.6400907,-1.0939580202102661,-1.68725647548818,-2.5294042269336146,2.272531433696411,-1.0215862433062952,0.5584762692451477
1708437926.6420698,-1.0936317443847656,-1.6873823604979457,-2.529414478932516,2.2722720342823486,-1.0216549078570765,0.5592463612556458
1708437926.6441133,-1.0932457447052002,-1.6875955067076625,-2.529560152684347,2.2719954687305908,-1.021700684224264,0.5600320100784302
1708437926.6460974,-1.0928901433944702,-1.6877385578551234,-2.5296171347247522,2.271808548564575,-1.021817986165182,0.5608742833137512
1708437926.6481094,-1.0925390720367432,-1.6879760227599085,-2.5296650568591517,2.2715071874805908,-1.0218780676471155,0.5615675449371338
1708437926.650136,-1.092166543006897,-1.6881424389281214,-2.529708449040548,2.2712156015583496,-1.0219443480121058,0.5623527765274048
1708437926.6520958,-1.0918155908584595,-1.6883369884886683,-2.529829804097311,2.2709845739552,-1.0220935980426233,0.5630457997322083
1708437926.654085,-1.0913792848587036,-1.688505312005514,-2.529855553303854,2.270728512401245,-1.022181812916891,0.5637755990028381
1708437926.6560931,-1.0909708738327026,-1.6887780628600062,-2.5299411455737513,2.2704409795948486,-1.0222614447223108,0.5644980072975159
1708437926.658101,-1.0905386209487915,-1.6889845333495082,-2.53001314798464,2.270071192378662,-1.0224335829364222,0.5652648210525513
1708437926.6601536,-1.0900421142578125,-1.6891757450499476,-2.530088011418478,2.269751711482666,-1.0225499312030237,0.5660146474838257
1708437926.6621037,-1.0895824432373047,-1.6894484959044398,-2.5301314035998743,2.2693888384052734,-1.0226128737079065,0.566711962223053
1708437926.6640975,-1.089126467704773,-1.6896630726256312,-2.5302274862872522,2.2690421777912597,-1.0226953665362757,0.5674214959144592
1708437926.6661103,-1.088691234588623,-1.6899243793883265,-2.530299488698141,2.268686218852661,-1.0228527227984827,0.5681895613670349
1708437926.6681492,-1.0882080793380737,-1.6900774441161097,-2.5303970018969935,2.2683638769337158,-1.0229271093951624,0.5688912272453308
1708437926.67008,-1.0877522230148315,-1.6903301678099574,-2.530501667653219,2.2680527406879882,-1.023020092641012,0.5695449113845825
1708437926.6720798,-1.0872069597244263,-1.6905604801573695,-2.530541006718771,2.2676755624958496,-1.0231145063983362,0.5702846050262451
1708437926.6741235,-1.0866867303848267,-1.6908790073790492,-2.5305753389941614,2.267299099559448,-1.023252312337057,0.5708923935890198
1708437926.6760938,-1.086159586906433,-1.691080709496969,-2.5306969324695032,2.2669190603443603,-1.0233195463763636,0.571562647819519
1708437926.678118,-1.08567214012146,-1.6913801632323207,-2.530804459248678,2.2665719228931884,-1.0234811941729944,0.5722569823265076
1708437926.6800823,-1.0850551128387451,-1.6916142902769984,-2.5309293905841272,2.2661518293568115,-1.0235918203936976,0.5729567408561707
1708437926.6820745,-1.08449125289917,-1.6918813190855921,-2.530979935322897,2.2657551008411865,-1.0237310568438929,0.5736058354377747
1708437926.6841192,-1.0839354991912842,-1.6922017536559046,-2.531092707310812,2.2653366762348632,-1.0238302389727991,0.5742151737213135
1708437926.6860726,-1.0832899808883667,-1.692465444604391,-2.5311930815326136,2.2649075227924804,-1.0239961783038538,0.574977695941925
1708437926.6880999,-1.0827038288116455,-1.6927334270873011,-2.5312894026385706,2.2645951944538574,-1.0240586439715784,0.5756162405014038
1708437926.6900966,-1.0821361541748047,-1.693024297753805,-2.5313642660724085,2.264092131251953,-1.0241783300982874,0.5762009620666504
1708437926.6920981,-1.081435203552246,-1.693319936791891,-2.5314765612231653,2.2636477190205078,-1.0243757406817835,0.5769369602203369
1708437926.6941307,-1.0807996988296509,-1.6936594448485316,-2.5315921942340296,2.2632083135792236,-1.0244792143451136,0.5775090456008911
1708437926.696089,-1.0801160335540771,-1.6940018139281214,-2.5317330996142786,2.2626966673084716,-1.024647061024801,0.5781609416007996
1708437926.6980855,-1.0793877840042114,-1.6943146191039027,-2.5318079630481165,2.262244625682495,-1.0248516241656702,0.578726589679718
1708437926.7000868,-1.0787421464920044,-1.6946898899474085,-2.5319188276873987,2.2616709905811767,-1.0249984900103968,0.5793038010597229
1708437926.702086,-1.0779415369033813,-1.695049902001852,-2.53210956255068,2.261176272029541,-1.0250676313983362,0.5799068212509155
1708437926.704096,-1.0771886110305786,-1.6953026256956996,-2.532188955937521,2.2606565195270996,-1.025233570729391,0.5805302858352661
1708437926.7061248,-1.0764529705047607,-1.6956616840758265,-2.532311741505758,2.260178490276001,-1.0253894964801233,0.5810914635658264
1708437926.708063,-1.0756816864013672,-1.6960169277586878,-2.532440964375631,2.2596091467091064,-1.0255120436297815,0.5816866159439087
1708437926.7100961,-1.0748810768127441,-1.6964270077147425,-2.5325680414782923,2.259118004436157,-1.0256393591510218,0.5822777152061462
1708437926.712091,-1.0740694999694824,-1.6968542538084925,-2.5326910654651087,2.258495731944702,-1.025799576436178,0.5828633308410645
1708437926.7140946,-1.0732426643371582,-1.6972280941405238,-2.532848898564474,2.257969780559204,-1.0260193983661097,0.5834742188453674
1708437926.7160997,-1.0723869800567627,-1.6976963482298792,-2.532968823109762,2.257389946574829,-1.026163403187887,0.5841165781021118
1708437926.7181087,-1.0714818239212036,-1.6980873546996058,-2.5331485907184046,2.2567409712025146,-1.0263384024249476,0.5846670866012573
1708437926.720127,-1.0706216096878052,-1.6985389194884242,-2.533301655446188,2.256117029781006,-1.0265887419330042,0.5851929187774658
1708437926.7220826,-1.069767951965332,-1.698960920373434,-2.533408228551046,2.2555009561726074,-1.0266979376422327,0.5857466459274292
1708437926.7240818,-1.068810224533081,-1.6994482479491175,-2.5335446039782923,2.2548999029346923,-1.0268853346454065,0.586362361907959
1708437926.726086,-1.067891001701355,-1.6998421154417933,-2.533717219029562,2.2542106348225097,-1.0271599928485315,0.5868512392044067
1708437926.7281203,-1.066941499710083,-1.7003866634764613,-2.5338802973376673,2.2534896570393066,-1.0273502508746546,0.5874147415161133
1708437926.730081,-1.0659966468811035,-1.7008120022215785,-2.53402287164797,2.2528597551533203,-1.0276129881488245,0.5880011320114136
1708437926.7320735,-1.0650190114974976,-1.7013031444945277,-2.534196917210714,2.252089663142822,-1.0278146902667444,0.5885728001594543
1708437926.7340817,-1.0639616250991821,-1.7018877468504847,-2.534342114125387,2.251370354289673,-1.0279930273639124,0.5890821218490601
1708437926.7360656,-1.063010573387146,-1.7022954426207484,-2.5345941225634974,2.2506629663654785,-1.0282743612872522,0.58958899974823
1708437926.7380767,-1.0619539022445679,-1.7029339275755824,-2.534724775944845,2.249894543285034,-1.028513256703512,0.5900877714157104
1708437926.740139,-1.0608799457550049,-1.7034384212889613,-2.5348671118365687,2.2491671282001953,-1.0286715666400355,0.5906401872634888
1708437926.7420928,-1.059848427772522,-1.7039534054198207,-2.535072628651754,2.248403950328491,-1.0289290587054651,0.5911215543746948
1708437926.7440906,-1.0586955547332764,-1.7044955692686976,-2.535252634678976,2.247574730510376,-1.029135529194967,0.5916768908500671
1708437926.7461119,-1.0575377941131592,-1.7050544224181117,-2.5354626814471644,2.246844931239746,-1.0293224493609827,0.5921183228492737
1708437926.7481267,-1.0564191341400146,-1.7056738338866175,-2.5355871359454554,2.246065540904663,-1.0295699278460901,0.5926865935325623
1708437926.7500865,-1.055275797843933,-1.706264158288473,-2.535809103642599,2.245265169734619,-1.029830280934469,0.5931887030601501
1708437926.752118,-1.0541093349456787,-1.706855913201803,-2.536029640828268,2.2444607454487304,-1.0300572554217737,0.5936382412910461
1708437926.754105,-1.052882432937622,-1.7075344524779261,-2.5361719767199915,2.2436622816273193,-1.0303056875811976,0.5940770506858826
1708437926.7561002,-1.0517200231552124,-1.7080995045103968,-2.536339823399679,2.2428132730671386,-1.0305255095111292,0.5945233106613159
1708437926.7580776,-1.0504249334335327,-1.708703180352682,-2.536539141331808,2.241928740138672,-1.0307939688311976,0.5950270295143127
1708437926.7600775,-1.049206256866455,-1.709268709222311,-2.536776129399435,2.2411321836658935,-1.0310934225665491,0.5954810976982117
1708437926.762067,-1.0478322505950928,-1.7099210224547328,-2.537038866673605,2.240161581630371,-1.0314047972308558,0.5960013270378113
1708437926.7640872,-1.0465378761291504,-1.7105299435057582,-2.5372353235827845,2.239234133357666,-1.0317257086383265,0.5964635014533997
1708437926.7660787,-1.0451984405517578,-1.7112204037108363,-2.5374422709094446,2.2383240896412353,-1.0320280233966272,0.5969306826591492
1708437926.7681105,-1.0438528060913086,-1.7119299374022425,-2.5377028624164026,2.23735158025708,-1.0323436895953577,0.5974655747413635
1708437926.770086,-1.0425431728363037,-1.7125851116576136,-2.537863556538717,2.2364560800739746,-1.0326216856585901,0.5978713035583496
1708437926.7720838,-1.041167974472046,-1.713255067864889,-2.538140598927633,2.2354938226887207,-1.0329015890704554,0.5983427166938782
1708437926.7740662,-1.0397769212722778,-1.7139321766295375,-2.538325373326437,2.2345241743275146,-1.0332101027118128,0.5987488031387329
1708437926.776071,-1.0383275747299194,-1.7145940266051234,-2.538585964833395,2.2336148458668212,-1.0334561506854456,0.5992211103439331
1708437926.7780654,-1.0368932485580444,-1.715353628198141,-2.5387900511371058,2.2325076299854736,-1.033731762562887,0.599699854850769
1708437926.7800634,-1.035399317741394,-1.716104646722311,-2.5390091578113,2.2315289217182617,-1.0340727011310022,0.6001013517379761
1708437926.7820764,-1.0339657068252563,-1.7167712650694789,-2.53928786913027,2.230523033733032,-1.0343387762652796,0.6005650162696838
1708437926.784088,-1.0324245691299438,-1.7175466022887171,-2.539548699055807,2.2295114237019042,-1.0346468130694788,0.6009917259216309
1708437926.7860675,-1.030869722366333,-1.718271394769186,-2.5398219267474573,2.228458805675171,-1.03491717973818,0.601464033126831
1708437926.7881198,-1.0293998718261719,-1.7190305195250453,-2.5400574843036097,2.2274247842976074,-1.0352748076068323,0.6018738746643066
1708437926.7901063,-1.027807354927063,-1.7197839222350062,-2.540292803441183,2.2263471323200683,-1.035635773335592,0.602288544178009
1708437926.7921014,-1.0261735916137695,-1.7205759487547816,-2.5405567328082483,2.225137158031128,-1.0359419027911585,0.6027108430862427
1708437926.7941144,-1.0245776176452637,-1.7213369808592738,-2.540795389805929,2.224083824748657,-1.036325756703512,0.6031506657600403
1708437926.7960782,-1.022931694984436,-1.7221423588194789,-2.541055981312887,2.2230004507252197,-1.0366576353656214,0.6035205125808716
1708437926.798087,-1.0213513374328613,-1.7229539356627406,-2.5413077513324183,2.221886559123657,-1.0369880835162562,0.6039686799049377
1708437926.8000927,-1.0196808576583862,-1.723732133904928,-2.5416258017169397,2.2207342821308593,-1.037314240132467,0.6043875813484192
1708437926.8021142,-1.0179903507232666,-1.7246281109251917,-2.5419209639178675,2.2195700842091064,-1.0377228895770472,0.6047697067260742
1708437926.8041453,-1.0163005590438843,-1.7254163227477015,-2.542213741933004,2.218392773265503,-1.0381105581866663,0.6051766872406006
1708437926.8060794,-1.0145741701126099,-1.7262054882445277,-2.542480770741598,2.217216654414795,-1.0384162108050745,0.6055464744567871
1708437926.8080697,-1.0128118991851807,-1.7270509205260218,-2.5427234808551233,2.215956135387085,-1.0388014952289026,0.6059784293174744
1708437926.8100638,-1.0110100507736206,-1.7279182873167933,-2.543048922215597,2.2148031431385498,-1.0391276518451136,0.6063615679740906
1708437926.8121002,-1.0092843770980835,-1.7288390598692835,-2.5433624426471155,2.2135960298725585,-1.0394824186908167,0.6067773103713989
1708437926.8140907,-1.007422685623169,-1.7297116718687953,-2.5436251799212855,2.2123865324207763,-1.0398667494403284,0.60712730884552
1708437926.816132,-1.005640983581543,-1.73061003307485,-2.543941322957174,2.211158438319824,-1.0402172247516077,0.607506513595581
1708437926.8180864,-1.0038172006607056,-1.7314979038634242,-2.544245783482687,2.209833546275757,-1.0406697432147425,0.6079461574554443
1708437926.8200655,-1.00191068649292,-1.7324325046935023,-2.54455811182131,2.2085904318043212,-1.04103929201235,0.6083086133003235
1708437926.822084,-1.000056505203247,-1.733349939385885,-2.5448368231402796,2.2073356348225097,-1.041431728993551,0.6087329983711243
1708437926.8240798,-0.9981163740158081,-1.7342835865416468,-2.5451529661761683,2.2060467439838867,-1.0418599287616175,0.6090299487113953
1708437926.8260677,-0.9962334632873535,-1.7352763615050257,-2.545452896748678,2.2047523695179443,-1.0422881285296839,0.609393298625946
1708437926.8281035,-0.9943336248397827,-1.7362176380553187,-2.5458295981036585,2.203442259425781,-1.0427187124835413,0.6096961498260498
1708437926.83006,-0.9923902750015259,-1.7371498546996058,-2.5461369196521204,2.202089710826538,-1.0430925528155726,0.610031247138977
1708437926.8320687,-0.9904738664627075,-1.7381040058531703,-2.546457831059591,2.2007431226917724,-1.043495003377096,0.6104077696800232
1708437926.834076,-0.9884614944458008,-1.7391306362547816,-2.5467680136310022,2.1993765073963623,-1.043894116078512,0.6106733083724976
1708437926.8360672,-0.9865135550498962,-1.740080019036764,-2.5470755735980433,2.1980759340473632,-1.0443103949176233,0.6111063361167908
1708437926.8381138,-0.9844333529472351,-1.7411109409727992,-2.547436539326803,2.1965769964405517,-1.0447328726397913,0.6114524006843567
