Eg3-git/Classifiers/Data Collection/u6/u6star5_ur3e_joint_states.csv
time,elbow_joint,shoulder_lift_joint,shoulder_pan_joint,wrist_1_joint,wrist_2_joint,wrist_3_joint
1708437976.6003685,-1.1050162315368652,-1.6819912395873011,-2.5262866655932825,2.2805768686481933,-1.016637150441305,0.3307480812072754
1708437976.6023817,-1.1050207614898682,-1.6820484600462855,-2.526315991078512,2.280581160182617,-1.0166943709002894,0.3307480812072754
1708437976.6043568,-1.1050281524658203,-1.6820322475829066,-2.5262954870807093,2.280593081111572,-1.0166938940631312,0.3306996822357178
1708437976.6063416,-1.1050444841384888,-1.6820250950255335,-2.5263193289386194,2.2806331354328613,-1.0166829268084925,0.33072879910469055
1708437976.6083822,-1.1050117015838623,-1.682049413720602,-2.5262954870807093,2.2806388574787597,-1.0166619459735315,0.33074474334716797
1708437976.6104019,-1.1049878597259521,-1.6820818386473597,-2.5262702147113245,2.280621214503906,-1.0166743437396448,0.3307318389415741
1708437976.6123538,-1.1050326824188232,-1.6820279560484828,-2.5262585322009485,2.2805918890186767,-1.0166743437396448,0.3307274281978607
1708437976.6143482,-1.1050565242767334,-1.681979318658346,-2.526320521031515,2.2806126314350585,-1.0166872183429163,0.3307480812072754
1708437976.6163766,-1.1050519943237305,-1.6819759807982386,-2.526344362889425,2.2806169229694824,-1.0167024771319788,0.3307114839553833
1708437976.618359,-1.1050474643707275,-1.6820365391173304,-2.5263031164752405,2.2806050020405273,-1.0167272726642054,0.3307808041572571
1708437976.6203501,-1.1050809621810913,-1.6820279560484828,-2.5262911955462855,2.280621214503906,-1.0166786352740687,0.330704003572464
1708437976.622368,-1.1050944328308105,-1.6820365391173304,-2.5262823740588587,2.2806331354328613,-1.0166457335101526,0.33076465129852295
1708437976.624344,-1.1050763130187988,-1.6820293865599574,-2.526311699544088,2.2805799680897216,-1.0166576544391077,0.33071592450141907
1708437976.6263778,-1.105071783065796,-1.6820084057249964,-2.5262911955462855,2.2806288438984375,-1.0166500250445765,0.330704003572464
1708437976.6283464,-1.105042815208435,-1.682016988793844,-2.52633244196047,2.2806126314350585,-1.0166586081134241,0.3307361900806427
1708437976.63034,-1.1050763130187988,-1.6820126972594203,-2.5262747446643274,2.280611200923584,-1.0166338125811976,0.33071592450141907
1708437976.6323385,-1.105059266090393,-1.6820365391173304,-2.52633244196047,2.2806858259388427,-1.0166986624347132,0.33080989122390747
1708437976.6343873,-1.1051239967346191,-1.6819921932616175,-2.5262911955462855,2.2806245523640136,-1.0166500250445765,0.33071592450141907
1708437976.6363494,-1.1051090955734253,-1.6819964847960414,-2.5263074080096644,2.2806450563618164,-1.0166338125811976,0.33068743348121643
1708437976.638335,-1.1051210165023804,-1.682061334649557,-2.5262540022479456,2.280672712916992,-1.0166986624347132,0.33077651262283325
1708437976.6403773,-1.1051329374313354,-1.6820293865599574,-2.5262790361987513,2.280693216914795,-1.0166786352740687,0.33078184723854065
1708437976.642339,-1.1050719022750854,-1.6820041141905726,-2.526299778615133,2.280635042781494,-1.0166457335101526,0.3307361602783203
1708437976.6443818,-1.105104684829712,-1.6820255718626917,-2.5262954870807093,2.280717058772705,-1.0166705290423792,0.33072876930236816
1708437976.6463752,-1.105128526687622,-1.6820007763304652,-2.5262702147113245,2.280721350307129,-1.0166133085833948,0.33071258664131165
1708437976.6483517,-1.1051031351089478,-1.6819755039610804,-2.526238743458883,2.280717058772705,-1.0166414419757288,0.3307202160358429
1708437976.6503637,-1.1051105260849,-1.6820126972594203,-2.5262635389911097,2.2807041841694335,-1.0166662375079554,0.3307362496852875
1708437976.65233,-1.1051194667816162,-1.6819521389403285,-2.5262418429004114,2.280733509654663,-1.0166619459735315,0.33074042201042175
1708437976.654351,-1.1051313877105713,-1.6820298633971156,-2.526243034993307,2.2807742792316894,-1.0166414419757288,0.3307446837425232
1708437976.656339,-1.1051642894744873,-1.6819349728026332,-2.5262799898730677,2.280745192165039,-1.0166586081134241,0.3307245075702667
1708437976.6583498,-1.1051687002182007,-1.6819774113097132,-2.5262473265277308,2.280787153834961,-1.0166586081134241,0.3307480812072754
1708437976.6603446,-1.1051597595214844,-1.6819526157774867,-2.526165548955099,2.280765934581421,-1.0166295210467737,0.3306884765625
1708437976.6623473,-1.1051932573318481,-1.6819354496397914,-2.5261903444873255,2.2806965547749023,-1.0166338125811976,0.33073750138282776
1708437976.6643543,-1.105126976966858,-1.6819735966124476,-2.5261991659747522,2.280690832729004,-1.0166381041156214,0.3307202458381653
1708437976.6663718,-1.1051721572875977,-1.6819354496397914,-2.526187245045797,2.2807440000721435,-1.0166662375079554,0.33070820569992065
1708437976.6683488,-1.1051688194274902,-1.6819573841490687,-2.5261903444873255,2.2806996542164306,-1.016670052205221,0.33074188232421875
1708437976.670348,-1.1052095890045166,-1.6819569073119105,-2.526195828114645,2.2806834417530517,-1.0167067686664026,0.3307299017906189
1708437976.6723938,-1.1051721572875977,-1.681969781915182,-2.5261786619769495,2.2807366090961914,-1.0166743437396448,0.3306766152381897
1708437976.6743398,-1.105155110359192,-1.6819201908507289,-2.5261622110949915,2.2807609277912597,-1.0166857878314417,0.3306765556335449
1708437976.676374,-1.1051840782165527,-1.6818920574583949,-2.5261417070971888,2.280756636256836,-1.0167067686664026,0.3306885063648224
1708437976.6783714,-1.1051795482635498,-1.6819325886168421,-2.5261548201190394,2.2807277876087646,-1.0166829268084925,0.330649197101593
1708437976.6803718,-1.1051721572875977,-1.681915899316305,-2.5261829535113733,2.280772848720215,-1.0166657606707972,0.33062317967414856
1708437976.6823406,-1.1052004098892212,-1.6819125614561976,-2.526212278996603,2.280772848720215,-1.0166338125811976,0.33060377836227417
1708437976.6843588,-1.1052005290985107,-1.6819502315916957,-2.526175324116842,2.28078476964917,-1.0166500250445765,0.3306449055671692
1708437976.686367,-1.1052497625350952,-1.6819569073119105,-2.5261710325824183,2.2807485300251464,-1.0166543165790003,0.3306775987148285
1708437976.688335,-1.1051959991455078,-1.6819211445250453,-2.5262113253222864,2.2807234960743408,-1.0166872183429163,0.33062002062797546
1708437976.6903443,-1.1052124500274658,-1.681941648522848,-2.5261383692370813,2.2807697492786865,-1.0166381041156214,0.33060377836227417
1708437976.692365,-1.1052287817001343,-1.6819125614561976,-2.5262077490436,2.2807933527180175,-1.0166218916522425,0.3306124210357666
1708437976.694373,-1.10520339012146,-1.6818634472289027,-2.5261829535113733,2.2807528215595703,-1.01662522951235,0.3306199610233307
1708437976.6963973,-1.1052287817001343,-1.6818887195982875,-2.5261786619769495,2.2807816702076416,-1.0166133085833948,0.3306448757648468
1708437976.698396,-1.1052109003067017,-1.681863924066061,-2.526175324116842,2.2807440000721435,-1.0166013876544397,0.3306405544281006
1708437976.7003787,-1.1052407026290894,-1.6818844280638636,-2.526191536580221,2.2807978826710205,-1.0166218916522425,0.3306567966938019
1708437976.702381,-1.1052560806274414,-1.681925436059469,-2.5261786619769495,2.2807366090961914,-1.0166056791888636,0.3306199908256531
1708437976.7043607,-1.105224370956421,-1.681859632531637,-2.5261786619769495,2.280718966121338,-1.0166423956500452,0.3306567966938019
1708437976.706348,-1.1052436828613281,-1.6819330654540003,-2.5261622110949915,2.2807440000721435,-1.0166500250445765,0.33061671257019043
1708437976.7083898,-1.1052436828613281,-1.6818553409972132,-2.526203457509176,2.2807440000721435,-1.0166013876544397,0.33063623309135437
1708437976.7103524,-1.1052980422973633,-1.6818400822081507,-2.5261667410479944,2.2807223039814453,-1.0166261831866663,0.33060377836227417
1708437976.7123513,-1.1052844524383545,-1.6818963489928187,-2.5261710325824183,2.2807609277912597,-1.0166176001178187,0.33059585094451904
1708437976.714368,-1.1052154302597046,-1.6818553409972132,-2.5261622110949915,2.2807890611835937,-1.0166013876544397,0.33067333698272705
1708437976.716394,-1.1052607297897339,-1.681941648522848,-2.5261829535113733,2.2807609277912597,-1.0166261831866663,0.33056336641311646
1708437976.718388,-1.1052680015563965,-1.6818767986693324,-2.5261340777026575,2.280764265651367,-1.0166218916522425,0.33066457509994507
1708437976.720412,-1.1053082942962646,-1.6818810902037562,-2.5262077490436,2.280764027232788,-1.0166838804828089,0.3306199908256531
1708437976.7223902,-1.1052753925323486,-1.681859632531637,-2.526175324116842,2.280747814769409,-1.0166500250445765,0.33067765831947327
1708437976.7244322,-1.1052589416503906,-1.6818553409972132,-2.526219908391134,2.280780478114746,-1.0167153517352503,0.3306199908256531
1708437976.7263653,-1.1052634716033936,-1.6818753681578578,-2.526228729878561,2.280796690578125,-1.0166133085833948,0.3306448757648468
1708437976.7283452,-1.1052844524383545,-1.6819092235960902,-2.5261579195605677,2.2807890611835937,-1.0166457335101526,0.33067765831947327
1708437976.7303672,-1.1052918434143066,-1.6818558178343714,-2.5261548201190394,2.2807771402546386,-1.0166705290423792,0.3306123912334442
1708437976.732404,-1.1052709817886353,-1.6818844280638636,-2.5262323061572474,2.280776186580322,-1.0166543165790003,0.3306329548358917
1708437976.7343524,-1.1052664518356323,-1.6818725071349085,-2.526187245045797,2.2807716566273193,-1.0166586081134241,0.33067765831947327
1708437976.7363608,-1.105312705039978,-1.6818348369994105,-2.526203457509176,2.280820532436035,-1.0166133085833948,0.3306286334991455
1708437976.73836,-1.1052664518356323,-1.6819020710387171,-2.526219908391134,2.280764027232788,-1.0166261831866663,0.33061128854751587
1708437976.7403545,-1.1052963733673096,-1.681836267510885,-2.5261741320239466,2.280772848720215,-1.0166133085833948,0.330649197101593
1708437976.742344,-1.105229139328003,-1.681868692437643,-2.526203457509176,2.2808000284382324,-1.0166500250445765,0.3306199908256531
1708437976.7443423,-1.1053202152252197,-1.6818157635130824,-2.5261829535113733,2.280800982112549,-1.016646687184469,0.3306211233139038
1708437976.7463622,-1.1053082942962646,-1.681859632531637,-2.526195828114645,2.2807673650928955,-1.0166619459735315,0.330649197101593
1708437976.7483425,-1.1053200960159302,-1.681840559045309,-2.5261786619769495,2.2808260160633544,-1.0166586081134241,0.3306318521499634
1708437976.7503366,-1.1052948236465454,-1.6818090877928675,-2.526203457509176,2.280829353923462,-1.0166218916522425,0.3306318521499634
1708437976.752332,-1.1053545475006104,-1.6817623577513636,-2.5262077490436,2.2807702261158447,-1.016707722340719,0.3306123912334442
1708437976.7543344,-1.105323076248169,-1.6818319759764613,-2.5261667410479944,2.280857487315796,-1.0166543165790003,0.3306567966938019
1708437976.7563367,-1.1052992343902588,-1.6818090877928675,-2.5262077490436,2.28083245336499,-1.0166338125811976,0.3306373357772827
1708437976.758441,-1.1053156852722168,-1.681784292260641,-2.5262439886676233,2.2808355528065185,-1.016646687184469,0.33060377836227417
1708437976.7604055,-1.1053656339645386,-1.681774755517477,-2.526187245045797,2.2808729845234375,-1.0166295210467737,0.3306199908256531
1708437976.76237,-1.1053276062011719,-1.6818253002562464,-2.5261710325824183,2.2808686929890136,-1.0166705290423792,0.33060014247894287
1708437976.7644029,-1.1052902936935425,-1.6818295917906703,-2.5261710325824183,2.2808524805256347,-1.0166586081134241,0.33066028356552124
1708437976.766365,-1.1053366661071777,-1.6818491421141566,-2.526191536580221,2.280876322383545,-1.0166662375079554,0.33059585094451904
1708437976.7683635,-1.1053200960159302,-1.6818090877928675,-2.5262156168567103,2.280937595958374,-1.0166381041156214,0.3306243121623993
1708437976.7703817,-1.1052693128585815,-1.681756158868307,-2.5262439886676233,2.28085105001416,-1.016662899647848,0.3306156098842621
1708437976.7723706,-1.105306625366211,-1.6817928753294886,-2.526219908391134,2.280879421825073,-1.0165799299823206,0.33065247535705566
1708437976.7744133,-1.105323076248169,-1.6817676029601039,-2.526187245045797,2.280958815211914,-1.016674820576803,0.3306448757648468
1708437976.7763646,-1.1053321361541748,-1.68180574993276,-2.5262323061572474,2.2809125620075683,-1.0166705290423792,0.3306286334991455
1708437976.7783434,-1.1053440570831299,-1.6817928753294886,-2.526187245045797,2.280872030849121,-1.0166013876544397,0.3305709660053253
1708437976.7803671,-1.1053730249404907,-1.6818133793272914,-2.5261829535113733,2.280921383494995,-1.0166500250445765,0.3306611180305481
1708437976.7823417,-1.1053519248962402,-1.6818167171873988,-2.5262485186206263,2.280941887492798,-1.0166586081134241,0.3305807113647461
1708437976.7843857,-1.1053473949432373,-1.6818534336485804,-2.5262156168567103,2.2809013563343505,-1.0166381041156214,0.3305676281452179
1708437976.7863374,-1.1053519248962402,-1.681833406487936,-2.5261903444873255,2.280937595958374,-1.0166381041156214,0.33058279752731323
1708437976.78848,-1.1053893566131592,-1.6817919216551722,-2.5261948744403284,2.280904455775879,-1.0166099707232874,0.330653578042984
1708437976.7904189,-1.1053348779678345,-1.6817475757994593,-2.5261829535113733,2.2808882433125,-1.0166176001178187,0.33063623309135437
1708437976.7923317,-1.105306625366211,-1.681784292260641,-2.5262485186206263,2.280883713359497,-1.0166543165790003,0.330653578042984
1708437976.7943945,-1.1053611040115356,-1.6818210087218226,-2.526203457509176,2.2808882433125,-1.0166304747210901,0.3306373655796051
1708437976.796348,-1.1053593158721924,-1.681840559045309,-2.5261948744403284,2.2809087473103027,-1.0166218916522425,0.33057960867881775
1708437976.7983346,-1.105366826057434,-1.681829114953512,-2.526203457509176,2.280937595958374,-1.01662522951235,0.3306654095649719
1708437976.8003318,-1.1054130792617798,-1.6818133793272914,-2.526161019002096,2.2809457021900634,-1.0166338125811976,0.3306123912334442
1708437976.8023264,-1.1053638458251953,-1.6818376980223597,-2.5262113253222864,2.2809499937244873,-1.0166586081134241,0.33059585094451904
1708437976.8043518,-1.1053215265274048,-1.681756158868307,-2.5261786619769495,2.2809125620075683,-1.0166586081134241,0.3306611180305481
1708437976.8063338,-1.1053801774978638,-1.6818005047240199,-2.526198212300436,2.280862970943115,-1.016646687184469,0.33061668276786804
1708437976.808392,-1.1054176092147827,-1.6818005047240199,-2.5261786619769495,2.2808882433125,-1.0166261831866663,0.3306123912334442
1708437976.8103738,-1.105359435081482,-1.6817676029601039,-2.5261903444873255,2.280899925822876,-1.0166662375079554,0.33061671257019043
1708437976.8123672,-1.105359435081482,-1.6818005047240199,-2.5262070337878626,2.280928774470947,-1.0166543165790003,0.3305915594100952
1708437976.8143764,-1.1053920984268188,-1.681796213189596,-2.5261948744403284,2.2809130388447265,-1.0166586081134241,0.3306329548358917
1708437976.816415,-1.105359435081482,-1.6818047962584437,-2.5262277762042444,2.280970736140869,-1.0166900793658655,0.3306405246257782
1708437976.8183913,-1.1053565740585327,-1.6818210087218226,-2.5262277762042444,2.280933066005371,-1.0166619459735315,0.33060380816459656
1708437976.8203502,-1.1053712368011475,-1.6818047962584437,-2.526219908391134,2.280872030849121,-1.0166457335101526,0.33060377836227417
1708437976.8223743,-1.1053348779678345,-1.6817676029601039,-2.5262156168567103,2.280867500896118,-1.016670052205221,0.3306329548358917
1708437976.8243783,-1.1053303480148315,-1.6817885837950648,-2.5262113253222864,2.280916853541992,-1.0166218916522425,0.3305872678756714
1708437976.8263595,-1.1053638458251953,-1.6818005047240199,-2.526236597691671,2.280895634288452,-1.0166829268084925,0.3306373357772827
1708437976.8283405,-1.105330467224121,-1.6818376980223597,-2.5262156168567103,2.280904455775879,-1.0166915098773401,0.3306329548358917
1708437976.830356,-1.105359435081482,-1.6818295917906703,-2.526203457509176,2.280899925822876,-1.0166705290423792,0.33059585094451904
1708437976.8323696,-1.105338454246521,-1.6817718944945277,-2.5261948744403284,2.280941887492798,-1.0166533629046839,0.3306373357772827
1708437976.8343678,-1.1053475141525269,-1.6817928753294886,-2.5261860529529017,2.280975266093872,-1.0166381041156214,0.33067333698272705
1708437976.836338,-1.1053876876831055,-1.6817885837950648,-2.5262234846698206,2.280937595958374,-1.0166500250445765,0.3306416869163513
1708437976.8383415,-1.105342984199524,-1.6817604504027308,-2.5262234846698206,2.2809457021900634,-1.0166619459735315,0.3306210935115814
1708437976.840354,-1.1053683757781982,-1.6817919216551722,-2.5261948744403284,2.2809299665638427,-1.0166176001178187,0.3306405544281006
1708437976.8423388,-1.1053475141525269,-1.6818090877928675,-2.5262070337878626,2.280937595958374,-1.0166304747210901,0.33060014247894287
1708437976.8443756,-1.1053757667541504,-1.681812425652975,-2.5262070337878626,2.28095452367749,-1.0166586081134241,0.3306167721748352
1708437976.846345,-1.1054130792617798,-1.681784292260641,-2.5261948744403284,2.2808882433125,-1.0166295210467737,0.3306123912334442
1708437976.8483543,-1.105342984199524,-1.6818005047240199,-2.5262561480151575,2.280933066005371,-1.0166791121112269,0.33062857389450073
1708437976.850381,-1.1053967475891113,-1.681838174859518,-2.5261991659747522,2.280933066005371,-1.0166261831866663,0.33062976598739624
1708437976.8523362,-1.1053876876831055,-1.6817800007262171,-2.5262604395495813,2.2808882433125,-1.0166915098773401,0.33064916729927063
1708437976.85435,-1.105383276939392,-1.6818701229491175,-2.5262604395495813,2.280916853541992,-1.0166381041156214,0.3306243121623993
1708437976.8563375,-1.1053802967071533,-1.6817885837950648,-2.5262113253222864,2.280860109920166,-1.0166962782489222,0.3306373357772827
1708437976.8583791,-1.1053847074508667,-1.6818005047240199,-2.5262234846698206,2.2809344965168457,-1.0165923277484339,0.33067840337753296
1708437976.8604436,-1.1053920984268188,-1.6817885837950648,-2.5262354055987757,2.280899925822876,-1.0166500250445765,0.33064916729927063
1708437976.8623717,-1.1053593158721924,-1.6818133793272914,-2.5262680689441126,2.280941887492798,-1.0166786352740687,0.33057641983032227
1708437976.864369,-1.1053385734558105,-1.6818047962584437,-2.5262323061572474,2.2809457021900634,-1.0166133085833948,0.3305548131465912
1708437976.8663423,-1.1053920984268188,-1.6817676029601039,-2.5262234846698206,2.280941887492798,-1.016597096120016,0.3306373357772827
1708437976.8683634,-1.1053712368011475,-1.6818491421141566,-2.5262308756457728,2.280941887492798,-1.0166176001178187,0.33066216111183167
1708437976.8703427,-1.1053757667541504,-1.6818005047240199,-2.5262396971331995,2.28095452367749,-1.0166423956500452,0.3306373655796051
1708437976.8723378,-1.105354905128479,-1.6818090877928675,-2.5262473265277308,2.280921383494995,-1.0166414419757288,0.33057957887649536
1708437976.8743792,-1.1053847074508667,-1.6817761860289515,-2.5262766520129603,2.280982657069824,-1.0166705290423792,0.3306373357772827
1708437976.87635,-1.1053565740585327,-1.6817394695677699,-2.5262518564807337,2.2809457021900634,-1.0166338125811976,0.33060452342033386
1708437976.8783681,-1.1053473949432373,-1.6817928753294886,-2.5262766520129603,2.2809080320545654,-1.0166533629046839,0.33060455322265625
1708437976.8803596,-1.1053757667541504,-1.6817647419371546,-2.5262845198260706,2.280916853541992,-1.0166786352740687,0.3306167423725128
1708437976.882347,-1.1053682565689087,-1.6818210087218226,-2.526222292576925,2.280855579967163,-1.0166500250445765,0.33059585094451904
1708437976.8843682,-1.105333924293518,-1.6818376980223597,-2.526254955922262,2.280916853541992,-1.0166295210467737,0.33062002062797546
1708437976.8863568,-1.1053565740585327,-1.6818210087218226,-2.5262680689441126,2.2809130388447265,-1.016670052205221,0.33059585094451904
1708437976.8883755,-1.105342984199524,-1.681812425652975,-2.5262308756457728,2.2808882433125,-1.0166543165790003,0.3306535482406616
1708437976.890393,-1.1053638458251953,-1.6817718944945277,-2.5262799898730677,2.280891104335449,-1.0166662375079554,0.3306448459625244
1708437976.8923564,-1.1053184270858765,-1.681796213189596,-2.526254717503683,2.280941887492798,-1.0166657606707972,0.33063292503356934
1708437976.894366,-1.1053893566131592,-1.6818005047240199,-2.52630860010256,2.2808882433125,-1.0166743437396448,0.33060458302497864
1708437976.896374,-1.105314016342163,-1.6818248234190882,-2.526344362889425,2.280925675029419,-1.016670052205221,0.3305753469467163
1708437976.8984053,-1.1053638458251953,-1.6818210087218226,-2.526320521031515,2.2809011179157714,-1.0167349020587366,0.3306080996990204
1708437976.9003568,-1.1053682565689087,-1.6818539104857386,-2.526339832936422,2.2809368807026367,-1.0166896025287073,0.33063292503356934
1708437976.902356,-1.1053730249404907,-1.6818167171873988,-2.5263517538653772,2.2809499937244873,-1.0166686216937464,0.3306124210357666
1708437976.9043834,-1.1053729057312012,-1.6817475757994593,-2.526372734700338,2.280921383494995,-1.016670052205221,0.33059585094451904
1708437976.9063382,-1.105359435081482,-1.681812425652975,-2.5263224283801478,2.2809011179157714,-1.0166657606707972,0.330559104681015
1708437976.9083645,-1.1053847074508667,-1.6817928753294886,-2.5263105074511927,2.2809464174458007,-1.0166743437396448,0.3306448459625244
1708437976.9103398,-1.105342984199524,-1.6818462810912074,-2.5263269583331507,2.2809507089802246,-1.016702953969137,0.3306448459625244
1708437976.9124126,-1.1053863763809204,-1.6818090877928675,-2.5263641516314905,2.280883713359497,-1.0166576544391077,0.33060455322265625
1708437976.914363,-1.1053593158721924,-1.6818376980223597,-2.5263763109790247,2.280855579967163,-1.016670052205221,0.33066537976264954
1708437976.9163907,-1.1053473949432373,-1.6818376980223597,-2.5263474623309534,2.2809125620075683,-1.016670052205221,0.3306210935115814
1708437976.91843,-1.1053565740585327,-1.6817885837950648,-2.526367489491598,2.2808729845234375,-1.0166814962970179,0.33064916729927063
1708437976.9204001,-1.1053638458251953,-1.681784292260641,-2.526371781026022,2.280862970943115,-1.0166743437396448,0.3306567668914795
1708437976.92235,-1.1053440570831299,-1.6818295917906703,-2.5263553301440638,2.2809011179157714,-1.0167110602008265,0.3306286334991455
1708437976.9243705,-1.1053519248962402,-1.6818376980223597,-2.52635103860964,2.28086440145459,-1.0167229811297815,0.33060017228126526
1708437976.9263594,-1.1053894758224487,-1.681784292260641,-2.526334349309103,2.280839367503784,-1.0167067686664026,0.33062002062797546
1708437976.9283795,-1.1053303480148315,-1.6818005047240199,-2.526367489491598,2.28086440145459,-1.016698185597555,0.33060455322265625
1708437976.9303408,-1.1053565740585327,-1.6817676029601039,-2.526367489491598,2.2808968263813476,-1.0167024771319788,0.3306286334991455
1708437976.9323368,-1.1053067445755005,-1.681812425652975,-2.526363197957174,2.280921383494995,-1.0167024771319788,0.3306243419647217
1708437976.9343715,-1.105269193649292,-1.6818534336485804,-2.5263553301440638,2.2808968263813476,-1.0167067686664026,0.3306210935115814
1708437976.936353,-1.1053202152252197,-1.6818319759764613,-2.5263431707965296,2.2808937269398193,-1.016677204762594,0.330645889043808
1708437976.938342,-1.1052874326705933,-1.681796213189596,-2.5263806025134485,2.28085105001416,-1.0167067686664026,0.3306448459625244
1708437976.9403422,-1.1052948236465454,-1.6818376980223597,-2.526330057774679,2.280860109920166,-1.0166896025287073,0.3306080996990204
1708437976.942356,-1.1052948236465454,-1.6817928753294886,-2.526330057774679,2.280860109920166,-1.01671010652651,0.33062002062797546
1708437976.944364,-1.1052918434143066,-1.6818047962584437,-2.5263968149768274,2.280898256892822,-1.0167396704303187,0.3306567668914795
1708437976.9463587,-1.105312705039978,-1.6818081341185511,-2.526367489491598,2.2808849054523925,-1.0167706648456019,0.33062005043029785
1708437976.9483955,-1.105308175086975,-1.6817919216551722,-2.5263138453113,2.2809011179157714,-1.0167220274554651,0.3306081295013428
1708437976.9503636,-1.105262041091919,-1.6818210087218226,-2.526334349309103,2.2809011179157714,-1.0167177359210413,0.3306286334991455
1708437976.9523742,-1.1052799224853516,-1.6818376980223597,-2.5263641516314905,2.2808355528065185,-1.0167620817767542,0.3306080996990204
1708437976.954335,-1.1053082942962646,-1.6818047962584437,-2.5264087359057825,2.2808398443409423,-1.0167134443866175,0.3306449055671692
1708437976.9563692,-1.10529363155365,-1.6818090877928675,-2.52635103860964,2.2809056478687744,-1.016738239918844,0.330596923828125
1708437976.9584537,-1.105263590812683,-1.681833406487936,-2.5263763109790247,2.2808000284382324,-1.0166972319232386,0.33063292503356934
1708437976.9604354,-1.1052753925323486,-1.6818119488158167,-2.526310745869772,2.280869885081909,-1.0167577902423304,0.3306697607040405
1708437976.9623797,-1.1053144931793213,-1.6817718944945277,-2.5263553301440638,2.2808355528065185,-1.0167177359210413,0.3305548131465912
1708437976.964394,-1.105247139930725,-1.6818424663939417,-2.5263925234424036,2.2808281618305664,-1.0167458693133753,0.33067408204078674
1708437976.9664237,-1.1052844524383545,-1.6818167171873988,-2.526379410420553,2.280824823970459,-1.0167577902423304,0.3305676579475403
1708437976.9684198,-1.1052300930023193,-1.6817676029601039,-2.52638823190798,2.2808455663868408,-1.016794506703512,0.33062535524368286
1708437976.9703622,-1.1052545309066772,-1.681796213189596,-2.5263519922839563,2.2807673650928955,-1.0167816321002405,0.3306567668914795
1708437976.9723904,-1.1052815914154053,-1.681838174859518,-2.52635103860964,2.2808455663868408,-1.0167773405658167,0.33060452342033386
1708437976.9744174,-1.1052136421203613,-1.681803365746969,-2.5263224283801478,2.280752344722412,-1.0167730490313929,0.3306373357772827
1708437976.9763596,-1.105231761932373,-1.6818167171873988,-2.5263388792621058,2.280718966121338,-1.0167773405658167,0.33065783977508545
1708437976.9783502,-1.1052786111831665,-1.681840559045309,-2.5263431707965296,2.2807609277912597,-1.0168340841876429,0.33064916729927063
1708437976.980344,-1.105231761932373,-1.6818005047240199,-2.526330057774679,2.2807397085377197,-1.0168102423297327,0.3306243121623993
1708437976.9823492,-1.1052436828613281,-1.6818448505797328,-2.5263763109790247,2.2807528215595703,-1.0167935530291956,0.33056771755218506
1708437976.9844453,-1.1052136421203613,-1.6818210087218226,-2.5263596216784876,2.2807697492786865,-1.0168102423297327,0.330640584230423
1708437976.986362,-1.1052390336990356,-1.6818038425841273,-2.5263431707965296,2.280712767238281,-1.0167892614947718,0.33060455322265625
1708437976.9883509,-1.105236291885376,-1.6818448505797328,-2.5263596216784876,2.2807084757038574,-1.0168221632586878,0.3306124210357666
1708437976.9903944,-1.1051733493804932,-1.6818167171873988,-2.5263388792621058,2.280782862300537,-1.016784969960348,0.33063292503356934
1708437976.9923377,-1.105219841003418,-1.6818200550475062,-2.526367489491598,2.2807366090961914,-1.0167730490313929,0.3306492269039154
1708437976.9943788,-1.105149745941162,-1.6817957363524378,-2.52635103860964,2.280700846309326,-1.0168102423297327,0.3306535482406616
1708437976.9963439,-1.1052005290985107,-1.6818658314146937,-2.5263879934894007,2.280700846309326,-1.0167935530291956,0.33061671257019043
1708437976.9983463,-1.105224370956421,-1.6818295917906703,-2.526363197957174,2.2806877332874755,-1.0168145338641565,0.330644816160202
1708437977.0003433,-1.1052168607711792,-1.681829114953512,-2.526375118886129,2.280709429378174,-1.0168102423297327,0.3306243419647217
1708437977.002361,-1.1051959991455078,-1.681831499139303,-2.5264206568347376,2.2806965547749023,-1.0168059507953089,0.3306405246257782
1708437977.0043447,-1.1052378416061401,-1.6818529568114222,-2.526375118886129,2.280697746867798,-1.016817871724264,0.33063626289367676
1708437977.0063393,-1.1051840782165527,-1.681857248345846,-2.526367489491598,2.280721350307129,-1.0168383757220667,0.33062541484832764
1708437977.0084085,-1.1050968170166016,-1.681862016717428,-2.526363197957174,2.280749722118042,-1.0168426672564905,0.33063292503356934
1708437977.0103524,-1.1051768064498901,-1.6817871532835902,-2.5263925234424036,2.280717058772705,-1.016817871724264,0.33059588074684143
1708437977.0123794,-1.1051433086395264,-1.6818462810912074,-2.5263879934894007,2.280737801189087,-1.016817871724264,0.33063623309135437
1708437977.014349,-1.1051478385925293,-1.6818419895567835,-2.5263827482806605,2.280681534404419,-1.0168221632586878,0.33062002062797546
1708437977.0163581,-1.105143427848816,-1.6818167171873988,-2.526379410420553,2.280693216914795,-1.0168059507953089,0.3306124210357666
1708437977.0183463,-1.1051732301712036,-1.6818911037840785,-2.526375118886129,2.2806307512470703,-1.016829792653219,0.3306610584259033
1708437977.020367,-1.1051105260849,-1.6818496189513148,-2.5263999144183558,2.280677004451416,-1.0168331305133265,0.33057108521461487
1708437977.0223646,-1.105177640914917,-1.6818005047240199,-2.526403252278463,2.2807227808186035,-1.0168545881854456,0.33065348863601685
1708437977.0243542,-1.105116605758667,-1.6818253002562464,-2.5263662973987024,2.28070513784375,-1.0168049971209925,0.3306567668914795
1708437977.0263371,-1.1051493883132935,-1.6818119488158167,-2.526379410420553,2.2807020384022216,-1.016857926045553,0.33063292503356934
1708437977.028351,-1.1051239967346191,-1.6817990742125453,-2.526330057774679,2.2806600767322998,-1.0168622175799769,0.33064916729927063
1708437977.0303428,-1.105161190032959,-1.6818248234190882,-2.5263596216784876,2.2806946474262695,-1.016857926045553,0.3306243121623993
1708437977.0323536,-1.1051210165023804,-1.6818701229491175,-2.526400152836935,2.2806569772907714,-1.0168984572040003,0.33060383796691895
1708437977.0343568,-1.1051329374313354,-1.6818038425841273,-2.5263214747058313,2.2806126314350585,-1.016951862965719,0.3306080996990204
1708437977.0363479,-1.1051076650619507,-1.6818119488158167,-2.526391331349508,2.2806569772907714,-1.0168493429767054,0.33066457509994507
1708437977.0383372,-1.10512113571167,-1.6818114719786585,-2.526363197957174,2.28062026082959,-1.0168941656695765,0.33061566948890686
1708437977.0403533,-1.1050792932510376,-1.681862016717428,-2.5263999144183558,2.280590696925781,-1.0169222990619105,0.33065247535705566
1708437977.0423346,-1.1051239967346191,-1.6818448505797328,-2.526383701954977,2.2805844980427246,-1.0169222990619105,0.3306567668914795
1708437977.0443323,-1.105083703994751,-1.6818529568114222,-2.52638823190798,2.280632181758545,-1.0169222990619105,0.33063626289367676
1708437977.0463402,-1.1051210165023804,-1.6818248234190882,-2.526379410420553,2.280571385020874,-1.016881291066305,0.3306567668914795
1708437977.0483496,-1.1050503253936768,-1.6819020710387171,-2.5263553301440638,2.2805680471607666,-1.0169017950641077,0.3306567966938019
1708437977.0503304,-1.1050293445587158,-1.6818529568114222,-2.5264163653003138,2.2806083399006347,-1.0169170538531702,0.33068951964378357
1708437977.0523374,-1.1051045656204224,-1.681864400903219,-2.5264206568347376,2.2805918890186767,-1.0169008413897913,0.33064916729927063
1708437977.0543287,-1.1051090955734253,-1.681836267510885,-2.526391331349508,2.280559464091919,-1.0169299284564417,0.33062756061553955
1708437977.0563362,-1.1050838232040405,-1.681864400903219,-2.526395622883932,2.28062550603833,-1.0169137159930628,0.3306863307952881
1708437977.0583675,-1.1050763130187988,-1.6818930111327113,-2.526391331349508,2.2805768686481933,-1.0168855826007288,0.33068084716796875
1708437977.0603921,-1.105014681816101,-1.6818825207152308,-2.526358668004171,2.2805511194416503,-1.0168898741351526,0.33066463470458984
1708437977.062355,-1.1050854921340942,-1.6818529568114222,-2.5264044443713587,2.280609293574951,-1.01689321199526,0.33064377307891846
1708437977.064353,-1.1050355434417725,-1.6819125614561976,-2.526375118886129,2.280621214503906,-1.0168855826007288,0.3306480944156647
1708437977.0663671,-1.1050900220870972,-1.6818510494627894,-2.5263999144183558,2.280559464091919,-1.0169504324542444,0.33068951964378357
1708437977.0683706,-1.1050236225128174,-1.6818915806212367,-2.526342217122213,2.2805511194416503,-1.016881291066305,0.3306560516357422
1708437977.0703676,-1.1050519943237305,-1.6818977795042933,-2.526367489491598,2.280581160182617,-1.0169666449176233,0.3306818902492523
1708437977.0723705,-1.1050325632095337,-1.6819244823851527,-2.5263543764697474,2.280548020000122,-1.0169137159930628,0.33062759041786194
1708437977.0744014,-1.1050400733947754,-1.6819244823851527,-2.5263705889331263,2.280593081111572,-1.0169017950641077,0.3307057321071625
1708437977.0763474,-1.105031132698059,-1.6819611988463343,-2.526363197957174,2.280581160182617,-1.0169060865985315,0.330639511346817
1708437977.0783768,-1.1049983501434326,-1.6819783649840296,-2.526395622883932,2.2805654245563964,-1.0168646017657679,0.33066901564598083
1708437977.080353,-1.1050281524658203,-1.6819216213622035,-2.5263543764697474,2.2805556493946533,-1.0169103781329554,0.33067330718040466
1708437977.0823758,-1.105007290840149,-1.6819573841490687,-2.5263500849353235,2.280618115062378,-1.0169060865985315,0.33065247535705566
1708437977.084353,-1.1050028800964355,-1.6819616756834925,-2.5263870398150843,2.2805110651203613,-1.016909424458639,0.3306307792663574
1708437977.0863726,-1.1050281524658203,-1.6820279560484828,-2.526395622883932,2.280597372645996,-1.0169017950641077,0.3306560516357422
1708437977.0884023,-1.1050653457641602,-1.681944032708639,-2.526375118886129,2.2806050020405273,-1.0169051329242151,0.3306480944156647
1708437977.0903916,-1.105007290840149,-1.6819125614561976,-2.526363197957174,2.2806107240864257,-1.0169137159930628,0.3306722640991211
1708437977.0923684,-1.1050400733947754,-1.6819459400572718,-2.526403252278463,2.2805730539509277,-1.0169623533831995,0.33071327209472656
1708437977.0944054,-1.1050206422805786,-1.6819411716856898,-2.526363197957174,2.2804948526569824,-1.0169017950641077,0.33066797256469727
1708437977.0963683,-1.1050772666931152,-1.6819950542845667,-2.5264368692981165,2.2805730539509277,-1.0169060865985315,0.33071327209472656
1708437977.0983765,-1.1050609350204468,-1.681944032708639,-2.526395622883932,2.280531807536743,-1.0168898741351526,0.330639511346817
1708437977.1003819,-1.1050162315368652,-1.6819483242430628,-2.5263662973987024,2.280606194133423,-1.0168855826007288,0.3307046890258789
1708437977.1023672,-1.105007290840149,-1.681944032708639,-2.526367489491598,2.2805556493946533,-1.0168731848346155,0.3307046890258789
1708437977.1043684,-1.1050519943237305,-1.6819650135436,-2.526325766240255,2.2805887895771484,-1.0168769995318812,0.3307202458381653
1708437977.1063445,-1.1050609350204468,-1.6819349728026332,-2.526342217122213,2.28058569013562,-1.0169060865985315,0.3307274580001831
1708437977.1083713,-1.1050809621810913,-1.6819650135436,-2.5263705889331263,2.280568762416504,-1.0168975035296839,0.33069103956222534
1708437977.110405,-1.1050281524658203,-1.6819302044310511,-2.5263543764697474,2.280531807536743,-1.0169060865985315,0.3307437002658844
1708437977.1123805,-1.1050400733947754,-1.6819325886168421,-2.526367489491598,2.2805773454853515,-1.0169137159930628,0.33078405261039734
1708437977.1143878,-1.1050772666931152,-1.681944032708639,-2.52641207376589,2.2805818754383544,-1.0168898741351526,0.3307073712348938
1708437977.1163704,-1.1049953699111938,-1.6819020710387171,-2.526403252278463,2.2805768686481933,-1.0169017950641077,0.3307840824127197
1708437977.1183724,-1.105007290840149,-1.6819411716856898,-2.5264044443713587,2.280606194133423,-1.0169256369220179,0.33079707622528076
1708437977.120377,-1.1050490140914917,-1.6819325886168421,-2.5263543764697474,2.280536337489746,-1.01689321199526,0.3307689130306244
1708437977.1223824,-1.1049909591674805,-1.681969781915182,-2.526371781026022,2.28058569013562,-1.016921345387594,0.33074724674224854
1708437977.124387,-1.104970097541809,-1.6819187603392542,-2.5264087359057825,2.280536337489746,-1.016937557850973,0.33080923557281494
1708437977.126374,-1.1050564050674438,-1.6819788418211878,-2.526383701954977,2.280548020000122,-1.016937557850973,0.3308049142360687
1708437977.1283603,-1.1050446033477783,-1.681939264337057,-2.52641207376589,2.280634565944336,-1.016909424458639,0.3307591676712036
1708437977.1303499,-1.1050400733947754,-1.681944032708639,-2.526342217122213,2.2806431490131835,-1.0169051329242151,0.3307840824127197
1708437977.1323407,-1.1050251722335815,-1.681969781915182,-2.52641207376589,2.2806107240864257,-1.0168855826007288,0.3307919502258301
1708437977.1343825,-1.1050162315368652,-1.6819573841490687,-2.5263870398150843,2.280536337489746,-1.0169222990619105,0.3307926654815674
1708437977.1363487,-1.1050444841384888,-1.6819201908507289,-2.526395622883932,2.2806312280842285,-1.01689321199526,0.3307919502258301
1708437977.1383693,-1.105057954788208,-1.6819035015501917,-2.5264325777636927,2.28058569013562,-1.016881291066305,0.3307676911354065
1708437977.1403828,-1.1050400733947754,-1.681894441644186,-2.5264163653003138,2.280589981670044,-1.016937557850973,0.33084169030189514
1708437977.1423557,-1.1050118207931519,-1.6819292507567347,-2.5263879934894007,2.2806312280842285,-1.016855541859762,0.3308081328868866
1708437977.1443481,-1.1050148010253906,-1.6819483242430628,-2.526423756276266,2.2805730539509277,-1.0169060865985315,0.33079198002815247
1708437977.146375,-1.1050370931625366,-1.6818915806212367,-2.5263589064227503,2.280581160182617,-1.016909424458639,0.33080387115478516
1708437977.1483474,-1.1049864292144775,-1.681985994378561,-2.5263589064227503,2.280543728465698,-1.0169060865985315,0.3308156132698059
1708437977.1503665,-1.1049953699111938,-1.6819154224791468,-2.526367489491598,2.280581160182617,-1.0168898741351526,0.33083629608154297
1708437977.15236,-1.1050400733947754,-1.6820112667479457,-2.526363197957174,2.2805730539509277,-1.016860310231344,0.33085349202156067
1708437977.154368,-1.1049745082855225,-1.6819459400572718,-2.5263870398150843,2.280556841487549,-1.0168612639056605,0.33082452416419983
1708437977.1563654,-1.105019211769104,-1.681939264337057,-2.5263827482806605,2.280581160182617,-1.0169151465045374,0.33083200454711914
1708437977.1584163,-1.1050519943237305,-1.681911130944723,-2.526444737111227,2.2805611330219726,-1.0168941656695765,0.33082452416419983
1708437977.160367,-1.1050117015838623,-1.6819201908507289,-2.526400152836935,2.280613823527954,-1.0168569723712366,0.3308575749397278
1708437977.1623511,-1.1050370931625366,-1.6819740734496058,-2.526391331349508,2.280568762416504,-1.0168817679034632,0.33079472184181213
1708437977.1643817,-1.1049953699111938,-1.68192782024526,-2.526379410420553,2.280589981670044,-1.0168731848346155,0.3308289647102356
1708437977.1663742,-1.1050162315368652,-1.681936880151266,-2.5263870398150843,2.280536337489746,-1.0168855826007288,0.3308858573436737
1708437977.1683724,-1.1050326824188232,-1.6819201908507289,-2.526342217122213,2.2805611330219726,-1.0168569723712366,0.33083128929138184
1708437977.1703906,-1.105023741722107,-1.6819483242430628,-2.526395622883932,2.280556841487549,-1.0168898741351526,0.3308156430721283
1708437977.1723588,-1.105007290840149,-1.6819573841490687,-2.5264206568347376,2.28052727758374,-1.0168898741351526,0.33082303404808044
1708437977.1743817,-1.1050281524658203,-1.6819607220091761,-2.5263999144183558,2.28058569013562,-1.0169027487384241,0.3308814465999603
1708437977.1763623,-1.1050400733947754,-1.681936880151266,-2.526379410420553,2.2805818754383544,-1.0168774763690394,0.3308895230293274
1708437977.1783533,-1.1049745082855225,-1.681911130944723,-2.5263999144183558,2.2805556493946533,-1.0168975035296839,0.3308485448360443
1708437977.18036,-1.1050162315368652,-1.6819573841490687,-2.5263879934894007,2.280601902598999,-1.0168407599078577,0.3308561146259308
1708437977.1823518,-1.1050326824188232,-1.6819235287108363,-2.526334349309103,2.280568762416504,-1.0168407599078577,0.33085164427757263
1708437977.1843886,-1.105007290840149,-1.681969781915182,-2.5263968149768274,2.280559940929077,-1.0168288389789026,0.33081740140914917
1708437977.1863682,-1.105007290840149,-1.681944032708639,-2.526363197957174,2.280564232463501,-1.016886059437887,0.33086803555488586
1708437977.1883686,-1.1050444841384888,-1.6819573841490687,-2.526400152836935,2.2805988031574707,-1.016857926045553,0.3308590054512024
1708437977.1903644,-1.1050325632095337,-1.68192782024526,-2.526367489491598,2.280606194133423,-1.0168665091144007,0.3308352530002594
1708437977.1923523,-1.105019211769104,-1.6819411716856898,-2.526363197957174,2.2805818754383544,-1.0168870131122034,0.3308635652065277
1708437977.194388,-1.1049790382385254,-1.6819154224791468,-2.5264087359057825,2.280601902598999,-1.016801659260885,0.3308382034301758
1708437977.196357,-1.1050236225128174,-1.6819635830321253,-2.5264044443713587,2.280593081111572,-1.016829792653219,0.3309290111064911
1708437977.1983469,-1.1050236225128174,-1.6819154224791468,-2.526330057774679,2.2805449205585937,-1.0168469587909144,0.3309290409088135
1708437977.2003512,-1.1050817966461182,-1.681936880151266,-2.526367489491598,2.2805067735859375,-1.0167930761920374,0.33090105652809143
1708437977.2023585,-1.1050446033477783,-1.6819573841490687,-2.5263639132129114,2.280593081111572,-1.0168092886554163,0.33089521527290344
1708437977.2043705,-1.105007290840149,-1.6819726429381312,-2.52635103860964,2.2805942732044677,-1.0168383757220667,0.3308698534965515
1708437977.2063518,-1.1050118207931519,-1.6819349728026332,-2.526334349309103,2.280519886607788,-1.0168264547931116,0.3308788239955902
1708437977.2083926,-1.1050653457641602,-1.6819607220091761,-2.5263760725604456,2.280564232463501,-1.0167973677264612,0.3309353291988373
1708437977.2103534,-1.1050326824188232,-1.6819573841490687,-2.5263474623309534,2.280556841487549,-1.016817871724264,0.33097705245018005
1708437977.212364,-1.1050490140914917,-1.6819302044310511,-2.5263763109790247,2.280564232463501,-1.0168145338641565,0.33092308044433594
1708437977.2143524,-1.105007290840149,-1.6819936237730921,-2.52638823190798,2.2805730539509277,-1.016817871724264,0.33094725012779236
1708437977.2164145,-1.1050325632095337,-1.6819201908507289,-2.5263388792621058,2.280613823527954,-1.0168350378619593,0.33096805214881897
1708437977.2183888,-1.105069875717163,-1.681939264337057,-2.52635103860964,2.280593081111572,-1.0167611281024378,0.3310040533542633
1708437977.2203584,-1.1050162315368652,-1.681944032708639,-2.5263269583331507,2.280536337489746,-1.0167534987079065,0.33103713393211365
1708437977.2224042,-1.105068325996399,-1.6819483242430628,-2.5263388792621058,2.28054062902417,-1.0167978445636194,0.3310609757900238
1708437977.224404,-1.1050325632095337,-1.681990762750143,-2.5263269583331507,2.2806431490131835,-1.0167492071734827,0.3310025632381439
1708437977.2263815,-1.1050281524658203,-1.6819774113097132,-2.526379410420553,2.280622645015381,-1.0167654196368616,0.3310025632381439
1708437977.2283711,-1.105035662651062,-1.6819788418211878,-2.526367489491598,2.280589981670044,-1.016700569783346,0.33105048537254333
1708437977.2303686,-1.1050772666931152,-1.6819740734496058,-2.526346747075216,2.280564232463501,-1.0167296568499964,0.33109545707702637
1708437977.2324038,-1.1050728559494019,-1.6819244823851527,-2.526322666798727,2.280568762416504,-1.016778294240133,0.3311520218849182
1708437977.2343447,-1.1050609350204468,-1.6818858585753382,-2.5263596216784876,2.280564232463501,-1.0167220274554651,0.3310821056365967
1708437977.236386,-1.1050444841384888,-1.6819774113097132,-2.5263431707965296,2.280548020000122,-1.0166972319232386,0.33112677931785583
1708437977.2383535,-1.1049953699111938,-1.681955953637594,-2.5263925234424036,2.280630035991333,-1.0167058149920862,0.331179141998291
1708437977.2403593,-1.105035662651062,-1.6819459400572718,-2.5263388792621058,2.280593081111572,-1.0167425314532679,0.33122411370277405
1708437977.242345,-1.105019211769104,-1.6819607220091761,-2.5263224283801478,2.28058569013562,-1.016698185597555,0.3312032222747803
1708437977.2443562,-1.105035662651062,-1.681899210015768,-2.526371781026022,2.2805730539509277,-1.0166857878314417,0.3312794268131256
1708437977.2463489,-1.104970097541809,-1.6819235287108363,-2.5263763109790247,2.280556841487549,-1.0166900793658655,0.33129993081092834
1708437977.2483573,-1.1049820184707642,-1.681969781915182,-2.5263641516314905,2.280548020000122,-1.0166743437396448,0.3313676416873932
1708437977.250359,-1.1050281524658203,-1.6819325886168421,-2.5263355414019983,2.280618115062378,-1.0166829268084925,0.3313750624656677
1708437977.2523563,-1.1050162315368652,-1.6819526157774867,-2.5263269583331507,2.28058569013562,-1.0166857878314417,0.3313872814178467
1708437977.2543657,-1.105007290840149,-1.6819411716856898,-2.526383701954977,2.280606194133423,-1.0166414419757288,0.33142295479774475
1708437977.256349,-1.1050444841384888,-1.681939264337057,-2.5262823740588587,2.28058569013562,-1.0166586081134241,0.3314352035522461
1708437977.2584283,-1.105053424835205,-1.681911130944723,-2.5263312498675745,2.280559940929077,-1.0166662375079554,0.3314661979675293
1708437977.260361,-1.1050400733947754,-1.6819726429381312,-2.5263269583331507,2.2805942732044677,-1.0166381041156214,0.3315141201019287
1708437977.262352,-1.105035662651062,-1.6819154224791468,-2.5263312498675745,2.2805768686481933,-1.0166500250445765,0.3315635919570923
1708437977.2643628,-1.1050028800964355,-1.681955953637594,-2.5263400713550013,2.280568762416504,-1.0166218916522425,0.3316326141357422
1708437977.2663753,-1.1050281524658203,-1.6819526157774867,-2.5263074080096644,2.280531807536743,-1.0166133085833948,0.33164292573928833
1708437977.268377,-1.1050444841384888,-1.6819650135436,-2.5263193289386194,2.280559940929077,-1.0166218916522425,0.33171480894088745
1708437977.2703984,-1.1050564050674438,-1.6819573841490687,-2.5262745062457483,2.280568762416504,-1.0166500250445765,0.3317282795906067
1708437977.2723696,-1.1050728559494019,-1.68198885540151,-2.526327912007467,2.2805556493946533,-1.0166304747210901,0.331746369600296
1708437977.2743833,-1.1050370931625366,-1.682014604608053,-2.5263312498675745,2.2806050020405273,-1.016662899647848,0.33174481987953186
1708437977.2763453,-1.1050281524658203,-1.6819874248900355,-2.5262954870807093,2.280556841487549,-1.0166099707232874,0.3318180441856384
1708437977.278355,-1.1050446033477783,-1.6819306812682093,-2.5263193289386194,2.280568762416504,-1.0166261831866663,0.33183765411376953
1708437977.2803853,-1.104966402053833,-1.681981702844137,-2.5262747446643274,2.28058569013562,-1.016618553792135,0.33191385865211487
1708437977.2823617,-1.1050326824188232,-1.681976934472555,-2.5263031164752405,2.2805449205585937,-1.0165818373309534,0.3319990932941437
1708437977.2843657,-1.1049953699111938,-1.68198885540151,-2.526278082524435,2.280606194133423,-1.0165775457965296,0.3319796323776245
1708437977.286357,-1.1050564050674438,-1.6820126972594203,-2.526311699544088,2.280496044749878,-1.0165694395648401,0.3320740759372711
1708437977.2883441,-1.1050565242767334,-1.6819845638670863,-2.5263031164752405,2.280528708095215,-1.0166271368609827,0.33219075202941895
1708437977.2903643,-1.105031132698059,-1.6819950542845667,-2.526267115269796,2.280503674144409,-1.0165975729571741,0.3322714865207672
1708437977.292361,-1.105031132698059,-1.6820265255370082,-2.526283327733175,2.280528708095215,-1.01654559770693,0.3323223292827606
1708437977.2943628,-1.1050281524658203,-1.6819802723326625,-2.5262461344348353,2.280556841487549,-1.0165975729571741,0.33241379261016846
1708437977.296387,-1.1050400733947754,-1.6819964847960414,-2.526243034993307,2.280574246043823,-1.0165661017047327,0.3325018286705017
1708437977.298375,-1.1050490140914917,-1.6819755039610804,-2.526250425969259,2.280503674144409,-1.016573731099264,0.33261406421661377
1708437977.3003702,-1.1050043106079102,-1.681955953637594,-2.526226584111349,2.2805329996296386,-1.016590420399801,0.33263513445854187
1708437977.302364,-1.1050355434417725,-1.6819726429381312,-2.5262518564807337,2.280500574702881,-1.0166190306292933,0.3327771723270416
1708437977.3043685,-1.105074405670166,-1.6819964847960414,-2.526193920766012,2.2804717260548095,-1.0165379683123987,0.3328477740287781
1708437977.3063788,-1.1049953699111938,-1.681985994378561,-2.5262113253222864,2.2805017667957763,-1.0165661017047327,0.333018034696579
1708437977.308389,-1.1049953699111938,-1.6819964847960414,-2.5262280146228235,2.28048483907666,-1.0165303389178675,0.3331664502620697
1708437977.3103678,-1.1050043106079102,-1.6820455990233363,-2.526177231465475,2.280480309123657,-1.0165618101703089,0.33329784870147705
1708437977.3123555,-1.1049753427505493,-1.6820126972594203,-2.5262354055987757,2.2805253702351074,-1.0165746847735804,0.3333760201931
1708437977.3143713,-1.1049879789352417,-1.6820174656310023,-2.5261948744403284,2.2804760175892334,-1.0165618101703089,0.33352744579315186
1708437977.3163812,-1.10496187210083,-1.6820217571654261,-2.5262277762042444,2.2804478841968994,-1.0165250937091272,0.3336423337459564
1708437977.318357,-1.1050251722335815,-1.6819902859129847,-2.5261948744403284,2.2804314333149414,-1.016533676777975,0.3338087201118469
1708437977.3203876,-1.1049834489822388,-1.6820084057249964,-2.5261829535113733,2.2804979520985107,-1.0165694395648401,0.33394789695739746
1708437977.3223653,-1.104992389678955,-1.6820036373534144,-2.526219908391134,2.280424042338989,-1.0165250937091272,0.3341121971607208
1708437977.3243895,-1.1050015687942505,-1.6819621525206507,-2.5262156168567103,2.280428572291992,-1.0165956656085413,0.3342636227607727
1708437977.3263752,-1.1050043106079102,-1.6819993458189906,-2.5261991659747522,2.280465288753174,-1.0165413061725062,0.3344802260398865
1708437977.328379,-1.105034351348877,-1.6820455990233363,-2.526203457509176,2.280456705684326,-1.0165541807757776,0.33463191986083984
1708437977.330398,-1.104988932609558,-1.6820455990233363,-2.5261948744403284,2.2804695802875976,-1.01654559770693,0.3347857594490051
1708437977.3323426,-1.1049680709838867,-1.6819874248900355,-2.5262277762042444,2.280440493220947,-1.0166104475604456,0.33499833941459656
1708437977.334359,-1.1049425601959229,-1.6819993458189906,-2.5262156168567103,2.280465288753174,-1.016517464314596,0.33521848917007446
1708437977.3363557,-1.1049753427505493,-1.682016511956686,-2.526181761418478,2.2804946142384033,-1.0166147390948694,0.33538463711738586
1708437977.338349,-1.1049437522888184,-1.6820322475829066,-2.526219908391134,2.2803959089466552,-1.0165703932391565,0.33551934361457825
1708437977.3403563,-1.1049561500549316,-1.6820255718626917,-2.5262277762042444,2.2804784017750244,-1.016573731099264,0.3358137905597687
1708437977.3423517,-1.1049726009368896,-1.6820413074889125,-2.526236597691671,2.280404730434082,-1.0165861288653772,0.33599627017974854
1708437977.344364,-1.1049437522888184,-1.6819993458189906,-2.5262070337878626,2.2804133135029296,-1.0165866057025355,0.3362077474594116
1708437977.3463767,-1.1049273014068604,-1.6820394001402796,-2.5262323061572474,2.2804457384296875,-1.0165990034686487,0.3364759087562561
1708437977.3483548,-1.1049363613128662,-1.6820441685118617,-2.526219193135397,2.280409021968506,-1.0166104475604456,0.3367122411727905
1708437977.350369,-1.1049199104309082,-1.6820575199522914,-2.5261784235583704,2.2804133135029296,-1.0165818373309534,0.33689311146736145
1708437977.3523467,-1.1048825979232788,-1.681985994378561,-2.526219908391134,2.2804013925739746,-1.016590420399801,0.33722808957099915
1708437977.3543649,-1.1049407720565796,-1.6820279560484828,-2.5262559095965784,2.2803844648548584,-1.016590420399801,0.3374677896499634
1708437977.3563437,-1.1049244403839111,-1.6820279560484828,-2.526236597691671,2.280423327083252,-1.01666766801943,0.33771926164627075
1708437977.3583665,-1.1049288511276245,-1.6820322475829066,-2.526214663182394,2.2803782659718017,-1.0166915098773401,0.337911993265152
1708437977.3604155,-1.1048882007598877,-1.6819902859129847,-2.526198212300436,2.280345602626465,-1.0166423956500452,0.3381754755973816
1708437977.362394,-1.1048508882522583,-1.6820279560484828,-2.5262025038348597,2.2803162771412353,-1.016646687184469,0.3384632170200348
1708437977.3643887,-1.1048133373260498,-1.6820365391173304,-2.5262323061572474,2.280329390163086,-1.0166872183429163,0.33878815174102783
1708437977.3664062,-1.1048389673233032,-1.6820413074889125,-2.5262070337878626,2.2802843290516357,-1.0166543165790003,0.33916547894477844
1708437977.3683627,-1.1048598289489746,-1.6821056805052699,-2.5262354055987757,2.280329390163086,-1.0166414419757288,0.33940184116363525
1708437977.3703759,-1.1048105955123901,-1.681985994378561,-2.5262723604785364,2.2802843290516357,-1.0166943709002894,0.33973899483680725
1708437977.3723714,-1.1048598289489746,-1.6821233234801234,-2.526243034993307,2.2802974420734863,-1.0166381041156214,0.3400692343711853
1708437977.3743825,-1.1048433780670166,-1.682030817071432,-2.526214663182394,2.2803050714680175,-1.0166619459735315,0.3404195308685303
1708437977.3763726,-1.1048240661621094,-1.6820231876769007,-2.5262680689441126,2.2802726465412597,-1.0166338125811976,0.34072044491767883
1708437977.3783607,-1.1048332452774048,-1.682047029534811,-2.526267115269796,2.2802693086811523,-1.0166662375079554,0.34105727076530457
1708437977.3804085,-1.104804277420044,-1.6820441685118617,-2.5262680689441126,2.2802931505390625,-1.0166786352740687,0.3414357602596283
1708437977.3823624,-1.104783296585083,-1.6820818386473597,-2.526259247456686,2.2802530962177734,-1.0166786352740687,0.3418430685997009
1708437977.3843691,-1.1047759056091309,-1.6820441685118617,-2.5262635389911097,2.2803148466297607,-1.0166900793658655,0.3422020375728607
1708437977.3863707,-1.1047356128692627,-1.6820394001402796,-2.52627140680422,2.2802368837543945,-1.0166533629046839,0.34252822399139404
1708437977.3883774,-1.1047312021255493,-1.682101388970846,-2.5263150374041956,2.280245466823242,-1.0167143980609339,0.34295809268951416
1708437977.3903828,-1.1047565937042236,-1.6820641956725062,-2.5263236204730433,2.2802368837543945,-1.016726318989889,0.3433648645877838
1708437977.392359,-1.1047520637512207,-1.6820889912047328,-2.5263193289386194,2.280294342631958,-1.0167220274554651,0.3437257409095764
1708437977.3943698,-1.1047163009643555,-1.682079931298727,-2.5263269583331507,2.280285521144531,-1.0167620817767542,0.34412646293640137
1708437977.3964024,-1.1047582626342773,-1.68206848720693,-2.526310745869772,2.280217333430908,-1.0167534987079065,0.34456267952919006
1708437977.398373,-1.1047163009643555,-1.6821090183653773,-2.5263763109790247,2.2802292543598632,-1.0168188253985804,0.3450172245502472
1708437977.4003675,-1.104663610458374,-1.682122369805807,-2.5263431707965296,2.2802292543598632,-1.016763989125387,0.345473974943161
1708437977.4023514,-1.1047009229660034,-1.6821252308287562,-2.5263968149768274,2.2802092271992187,-1.0168340841876429,0.3459484875202179
1708437977.4043725,-1.104668140411377,-1.682079931298727,-2.52635103860964,2.280237837428711,-1.0168665091144007,0.3463955521583557
1708437977.4063585,-1.1046726703643799,-1.68212952236318,-2.5264325777636927,2.280200405711792,-1.016829792653219,0.3468087613582611
1708437977.4083607,-1.1046234369277954,-1.6821042499937953,-2.526391331349508,2.2802046972462158,-1.016886059437887,0.3472844958305359
1708437977.41038,-1.1046488285064697,-1.6821352444090785,-2.5263870398150843,2.2802046972462158,-1.0168984572040003,0.3477593958377838
1708437977.4123864,-1.1045916080474854,-1.6821071110167445,-2.5263827482806605,2.2801691728779296,-1.016918961201803,0.3482951819896698
1708437977.414408,-1.104615330696106,-1.6821571789183558,-2.526423756276266,2.2801973062702636,-1.0168975035296839,0.34880536794662476
1708437977.4163496,-1.1045842170715332,-1.682223459283346,-2.526407543812887,2.2801779943653564,-1.0169699827777308,0.34929656982421875
1708437977.4183605,-1.1045887470245361,-1.6821571789183558,-2.5264108816729944,2.2802135187336425,-1.0169695059405726,0.3499099910259247
1708437977.4203844,-1.1045558452606201,-1.6821638546385707,-2.526418749486105,2.280240221614502,-1.0170181433307093,0.3504590690135956
1708437977.4224107,-1.1045722961425781,-1.6821772060790003,-2.526409927998678,2.2801810938068847,-1.0170095602618616,0.35101914405822754
1708437977.4243982,-1.104576826095581,-1.6821967564024867,-2.526475254689352,2.280153437251709,-1.017118279133932,0.351614385843277
1708437977.42649,-1.1045230627059937,-1.6821853123106898,-2.526463333760397,2.2801248270222167,-1.017118279133932,0.35214319825172424
1708437977.4283733,-1.1045122146606445,-1.6821919880309046,-2.526463333760397,2.2801448541828613,-1.0171173254596155,0.35273152589797974
1708437977.4304054,-1.104434609413147,-1.6822344265379847,-2.526450220738546,2.280108614558838,-1.0171735922442835,0.3533596694469452
1708437977.4323816,-1.1044883728027344,-1.6822415790953578,-2.5264862219439905,2.2801129060932617,-1.0171735922442835,0.353941947221756
1708437977.4343452,-1.10443913936615,-1.682221075097555,-2.526508156453268,2.2800966936298828,-1.0171893278705042,0.35460054874420166
1708437977.4364097,-1.104434847831726,-1.6822077236571253,-2.526532236729757,2.280080481166504,-1.0172293821917933,0.35525277256965637
1708437977.4383502,-1.1044902801513672,-1.6822320423521937,-2.526544157658712,2.2801260191151123,-1.0172446409808558,0.3559100329875946
1708437977.4403536,-1.1044323444366455,-1.6821867428221644,-2.5265396277057093,2.2800652223774414,-1.0173056761371058,0.35661646723747253
1708437977.442365,-1.1043994426727295,-1.6822644672789515,-2.5265472571002405,2.280050202006958,-1.017264191304342,0.3572613000869751
1708437977.4443371,-1.1043965816497803,-1.6822644672789515,-2.526562277470724,2.2800370889851074,-1.017329517995016,0.357942134141922
1708437977.446365,-1.1044055223464966,-1.6822897396483363,-2.5266128222094935,2.280045910472534,-1.0173004309283655,0.358600914478302
1708437977.4483519,-1.1043274402618408,-1.6822434864439906,-2.526595417653219,2.2800256448933105,-1.0173361937152308,0.35933634638786316
1708437977.450333,-1.104301929473877,-1.6823183498778285,-2.5265780130969446,2.2800137239643554,-1.0173686186419886,0.3600219190120697
1708437977.4523745,-1.104356288909912,-1.682230135003561,-2.5266104380237024,2.2800094324299316,-1.0173481146441858,0.3608105480670929
1708437977.4543476,-1.1042499542236328,-1.6823016605772914,-2.526647392903463,2.279960795039795,-1.0174339453326624,0.3614756166934967
1708437977.4563792,-1.1042962074279785,-1.682291646996969,-2.526668373738424,2.2799650865742187,-1.0174296537982386,0.36220070719718933
1708437977.4584365,-1.1042932271957397,-1.6823331318297328,-2.5266509691821497,2.2799574571796875,-1.0174253622638147,0.3629896938800812
1708437977.4603972,-1.1042388677597046,-1.6823121509947718,-2.526680294667379,2.2799135881611328,-1.0174124876605433,0.3637019991874695
1708437977.4623637,-1.1041896343231201,-1.6823035679259242,-2.5266955534564417,2.2799288469501953,-1.017423454915182,0.3645242750644684
1708437977.4644063,-1.104219675064087,-1.6823226414122523,-2.5267282168017786,2.2799298006245117,-1.0175297896014612,0.3652483820915222
1708437977.4663684,-1.1042122840881348,-1.6822945080199183,-2.526719395314352,2.279905005092285,-1.0175002256976526,0.3659908175468445
1708437977.4683702,-1.1041765213012695,-1.6824118099608363,-2.526736084614889,2.279897375697754,-1.0175202528582972,0.3667279779911041
1708437977.4703596,-1.1041384935379028,-1.6823555431761683,-2.526759926472799,2.2798616129108886,-1.017536465321676,0.3675061762332916
1708437977.4723592,-1.1041029691696167,-1.6823398075499476,-2.526797119771139,2.279881163234375,-1.0175769964801233,0.3683626353740692
1708437977.4744205,-1.104123830795288,-1.6823889217772425,-2.526766363774435,2.2798492151447753,-1.0176170508014124,0.36914247274398804
1708437977.4763963,-1.104123830795288,-1.6823708019652308,-2.526745859776632,2.2798778253742675,-1.017632309590475,0.3699655830860138
1708437977.4783764,-1.1040880680084229,-1.682420393029684,-2.526790205632345,2.2798492151447753,-1.0176571051227015,0.3707425892353058
1708437977.4804134,-1.1041061878204346,-1.6824075184264125,-2.5268407503711146,2.2798210817524414,-1.017717186604635,0.3715684711933136
1708437977.4823492,-1.1040854454040527,-1.682443758050436,-2.5268364588366907,2.2797929483601074,-1.0176594893084925,0.3724609613418579
1708437977.4843705,-1.1040235757827759,-1.682380815545553,-2.5268810431109827,2.2797810274311523,-1.017733399068014,0.3733604848384857
1708437977.4863503,-1.104020595550537,-1.6824647388853968,-2.5268667379962366,2.279747648830078,-1.0177486578570765,0.3741655945777893
1708437977.4883482,-1.1040370464324951,-1.682455678979391,-2.526884142552511,2.2797652918049316,-1.017707649861471,0.37501275539398193
1708437977.4904313,-1.1039389371871948,-1.682472368279928,-2.5268710295306605,2.2797695833393554,-1.0177682081805628,0.3758046329021454
1708437977.4923835,-1.103934407234192,-1.6824890575804652,-2.5268340746508997,2.279740257854126,-1.0177715460406702,0.3766843378543854
1708437977.4944305,-1.1039559841156006,-1.6825219593443812,-2.5268340746508997,2.2797576624104003,-1.017824951802389,0.3775841295719147
1708437977.4963868,-1.1038988828659058,-1.6824828586974085,-2.5268831888781946,2.279721899623535,-1.0178163687335413,0.3783787488937378
1708437977.498451,-1.103912353515625,-1.6824737987914027,-2.5269277731524866,2.279656334514282,-1.017865006123678,0.37923675775527954
1708437977.5004048,-1.1038341522216797,-1.6825114689269007,-2.5269387404071253,2.279648705119751,-1.0178921858416956,0.380147784948349
1708437977.5024178,-1.103843331336975,-1.682531019250387,-2.526914660130636,2.2797233301350097,-1.0178917090045374,0.38097700476646423
1708437977.504408,-1.1038075685501099,-1.682577749291891,-2.52698785463442,2.279616041774414,-1.017928425465719,0.3819047510623932
1708437977.5063663,-1.1037949323654175,-1.6825753651061,-2.526943031941549,2.2796456056782226,-1.0179641882525843,0.3828481435775757
1708437977.5084093,-1.1037949323654175,-1.682580133477682,-2.5269551912890833,2.2795893388935546,-1.0179641882525843,0.38377872109413147
1708437977.5104213,-1.1037802696228027,-1.682580133477682,-2.5269628206836146,2.2796055513569335,-1.0180042425738733,0.38479018211364746
1708437977.5123963,-1.1037518978118896,-1.6825925312437953,-2.526970688496725,2.279618425960205,-1.0179994742022913,0.3856702744960785
1708437977.5143838,-1.1037280559539795,-1.6826120815672816,-2.5269911924945276,2.279561682338379,-1.0180395285235804,0.3866366147994995
1708437977.5163803,-1.103711724281311,-1.6826282940306605,-2.527043883000509,2.279569073314331,-1.018076244984762,0.38763490319252014
1708437977.518359,-1.103654384613037,-1.6826235256590785,-2.5270686785327356,2.279505415553711,-1.018038574849264,0.38862037658691406
1708437977.520353,-1.1036978960037231,-1.6826073131956996,-2.527076307927267,2.2795421320148925,-1.0181077162372034,0.38957861065864563
1708437977.5223606,-1.103641390800476,-1.6826311550536097,-2.527100149785177,2.2795020776936035,-1.018066708241598,0.390514999628067
1708437977.5243852,-1.103645920753479,-1.6826478443541468,-2.5271242300616663,2.2795108991810302,-1.018094841633932,0.39141759276390076
1708437977.526422,-1.1035915613174438,-1.6826549969115199,-2.5271242300616663,2.279458208675049,-1.0181720892535608,0.3924151062965393
1708437977.5283523,-1.1035631895065308,-1.682704587975973,-2.5271437803851526,2.2794181543537597,-1.0181353727923792,0.3934507668018341
1708437977.5304418,-1.1035274267196655,-1.6827241382994593,-2.5271316210376185,2.2794181543537597,-1.0181635061847132,0.3943820297718048
1708437977.5323787,-1.1035374402999878,-1.6827684841551722,-2.5271440188037317,2.2794357973286132,-1.0181463400470179,0.39541926980018616
1708437977.534366,-1.1035284996032715,-1.6827241382994593,-2.527118746434347,2.279336853618286,-1.018219296132223,0.3963797688484192
1708437977.5363564,-1.1034808158874512,-1.6827627621092738,-2.527139488850729,2.279329462642334,-1.018247429524557,0.3974500000476837
1708437977.538371,-1.1034643650054932,-1.6827508411803187,-2.527163569127218,2.2793490129658203,-1.0182064215289515,0.3983973562717438
1708437977.540364,-1.1034183502197266,-1.6827908955016078,-2.5271340052234095,2.2793499666401367,-1.0182793776141565,0.3995085060596466
1708437977.542386,-1.1034291982650757,-1.6827627621092738,-2.52717096010317,2.2792605596729736,-1.0183032194720667,0.4005708396434784
1708437977.5443645,-1.1034202575683594,-1.6827999554076136,-2.5271995703326624,2.2792486387440185,-1.0183723608600062,0.4016120135784149
1708437977.546368,-1.1033517122268677,-1.6827990017332972,-2.52720290819277,2.279261751765869,-1.0183594862567347,0.40262076258659363
1708437977.5483525,-1.1033698320388794,-1.6827947101988734,-2.5272441546069544,2.279237909907959,-1.0183833281146448,0.4037640690803528
1708437977.5503557,-1.1033498048782349,-1.6828228435912074,-2.5272679964648646,2.2792128759571533,-1.0184109846698206,0.40480995178222656
1708437977.552352,-1.103279709815979,-1.6828438244261683,-2.5272472540484827,2.2791897493549804,-1.0184066931353968,0.4058689773082733
1708437977.55438,-1.1032978296279907,-1.6828347645201625,-2.527276102696554,2.2792224127003173,-1.018484894429342,0.40692269802093506
1708437977.5563602,-1.1032688617706299,-1.6828466854491175,-2.527276102696554,2.279198570842407,-1.0184467474566858,0.40794456005096436
1708437977.5583608,-1.1031986474990845,-1.6828838787474574,-2.5272954146014612,2.279125137920044,-1.0184953848468226,0.40894386172294617
1708437977.5603864,-1.1031808853149414,-1.6828786335387171,-2.527299706135885,2.279068871135376,-1.0185187498675745,0.41004428267478943
1708437977.5623612,-1.1031855344772339,-1.6828986606993617,-2.5272703806506556,2.279108925456665,-1.0185025374041956,0.4111092984676361
1708437977.564383,-1.1031074523925781,-1.6829515896239222,-2.5273073355304163,2.2790896135517578,-1.0185306707965296,0.4121874272823334
1708437977.566362,-1.1031416654586792,-1.6828977070250453,-2.5273030439959925,2.279050751323364,-1.0185554663287562,0.4132395386695862
1708437977.56837,-1.1030890941619873,-1.6829425297179164,-2.527322594319479,2.2790581422993164,-1.018599812184469,0.4143175780773163
1708437977.5703754,-1.103051781654358,-1.6829215488829554,-2.52736741701235,2.2789980608173828,-1.01857835451235,0.415402352809906
1708437977.5724068,-1.1030488014221191,-1.6829716167845667,-2.5273311773883265,2.278973026866577,-1.0185988585101526,0.41645190119743347
1708437977.5743625,-1.103013038635254,-1.6829668484129847,-2.5273552576648157,2.2790157037922363,-1.0186384359942835,0.4176273047924042
1708437977.5763724,-1.102929711341858,-1.682962556878561,-2.527350966130392,2.2789453703114013,-1.01866323152651,0.4187973141670227
1708437977.5783484,-1.1029644012451172,-1.6830102405943812,-2.527322594319479,2.278902216548584,-1.018691364918844,0.4199008047580719
1708437977.5804317,-1.1029151678085327,-1.6830278835692347,-2.52739125887026,2.2788728910633544,-1.0186908880816858,0.42110389471054077
1708437977.5823703,-1.1028958559036255,-1.683042665521139,-2.5274317900287073,2.2788404661365966,-1.0186980406390589,0.42211392521858215
1708437977.5843635,-1.1029047966003418,-1.6830598316588343,-2.5273738543139856,2.2788826662250976,-1.0187633673297327,0.42325571179389954
1708437977.586352,-1.1028282642364502,-1.6830579243102015,-2.527424160634176,2.2788960176655273,-1.0187624136554163,0.4244260787963867
1708437977.5883503,-1.1028536558151245,-1.6830703220763148,-2.5274153391467493,2.2787813383289794,-1.0188401381122034,0.4254826307296753
1708437977.5903602,-1.1027427911758423,-1.6830655537047328,-2.5274437109576624,2.2788140016743164,-1.0188477675067347,0.4265792667865753
1708437977.5923822,-1.1027562618255615,-1.6831685505309046,-2.5274720827685755,2.27874939023938,-1.0187776724444788,0.4276639521121979
1708437977.5943718,-1.1027324199676514,-1.6831098995604457,-2.5274556318866175,2.278705044383667,-1.018818203602926,0.42881184816360474
1708437977.5963426,-1.1026915311813354,-1.683146139184469,-2.5274794737445276,2.278787537212036,-1.0188258329974573,0.42989248037338257
1708437977.5983524,-1.1026813983917236,-1.6831370792784632,-2.527454678212301,2.2786781030842285,-1.0189116636859339,0.43103691935539246
1708437977.6003997,-1.1026813983917236,-1.6831580601134242,-2.527466599141256,2.2787207800098876,-1.0188692251788538,0.4321576654911041
1708437977.6024191,-1.1026530265808105,-1.6831685505309046,-2.527478281651632,2.278707428569458,-1.018860165272848,0.4333341121673584
1708437977.6043549,-1.1026077270507812,-1.6832267246642054,-2.527527634297506,2.2787045675465087,-1.0189302603351038,0.4345043897628784
1708437977.6063492,-1.1025391817092896,-1.6832434139647425,-2.52751595178713,2.2786056238361816,-1.0188677946673792,0.4355758726596832
1708437977.6083703,-1.1025282144546509,-1.6832300625243128,-2.5274952093707483,2.278589888209961,-1.0189421812640589,0.43671518564224243
1708437977.610362,-1.1025328636169434,-1.6833001575865687,-2.5275514761554163,2.278589888209961,-1.018954102193014,0.4377562403678894
1708437977.6123664,-1.102459192276001,-1.6832581959166468,-2.5275147596942347,2.2785627084919433,-1.0189703146563929,0.438874214887619
1708437977.614374,-1.1024819612503052,-1.6833034954466761,-2.5275843779193323,2.278543635005615,-1.0189736525165003,0.4399932026863098
1708437977.6163614,-1.1024563312530518,-1.6832825146117152,-2.527522389088766,2.278519554729126,-1.0189855734454554,0.4410877525806427
1708437977.6183527,-1.1024335622787476,-1.6832992039122523,-2.527538601552145,2.278433247203491,-1.0189898649798792,0.4422016739845276
1708437977.6203558,-1.1023679971694946,-1.6833349666991175,-2.527566973363058,2.278425856227539,-1.0189641157733362,0.44325366616249084
1708437977.622364,-1.1023861169815063,-1.6833092174925746,-2.527616087590353,2.2784387308308105,-1.0190661589251917,0.4443211257457733
1708437977.624393,-1.1023361682891846,-1.6832882366576136,-2.527583424245016,2.278358145351074,-1.0190499464618128,0.4454466700553894
1708437977.6263907,-1.102291464805603,-1.6833421192564906,-2.527583424245016,2.2783493238636474,-1.0191109816180628,0.4465320408344269
1708437977.6283748,-1.1022676229476929,-1.683361669579977,-2.5276532808886927,2.2783254820057373,-1.019057575856344,0.44765377044677734
1708437977.6304464,-1.102238655090332,-1.6833697758116664,-2.527607504521505,2.278264208430908,-1.019085709248678,0.4487888813018799
1708437977.6323502,-1.1022210121154785,-1.6833979092040003,-2.5275986830340784,2.2783023554035644,-1.0190685431109827,0.44992905855178833
1708437977.634364,-1.1022210121154785,-1.6833979092040003,-2.5276313463794153,2.278258963222168,-1.0191424528705042,0.4510543942451477
1708437977.6363623,-1.1021808385849,-1.6834126911559046,-2.5276511351214808,2.27830354749646,-1.0191534201251429,0.45227012038230896
1708437977.6383579,-1.102107286453247,-1.6834427318968714,-2.5276475588427942,2.2782296377369384,-1.0191414991961878,0.45337241888046265
1708437977.6403575,-1.1021206378936768,-1.6834670505919398,-2.5276475588427942,2.2781857687183837,-1.0191448370562952,0.45440587401390076
1708437977.6423507,-1.102150559425354,-1.6834408245482386,-2.5277000109301966,2.2781783777424316,-1.0192344824420374,0.4554963707923889
1708437977.644387,-1.1020561456680298,-1.683462759057516,-2.527646843587057,2.2781383234211425,-1.019217316304342,0.4565434753894806
1708437977.6463737,-1.1020441055297852,-1.6835109196104945,-2.527646843587057,2.2781094747730712,-1.0191972891436976,0.4576478898525238
1708437977.6483514,-1.1020457744598389,-1.6834975681700648,-2.527686897908346,2.278106375331543,-1.0192297140704554,0.4588497281074524
1708437977.6503582,-1.1020522117614746,-1.683493276635641,-2.5276172796832483,2.278045578593872,-1.019266430531637,0.45993709564208984
1708437977.6523652,-1.1019811630249023,-1.683526178399557,-2.5276783148394983,2.278099938029907,-1.0192449728595179,0.46112629771232605
1708437977.6543648,-1.101940393447876,-1.6834923229613246,-2.527698818837301,2.2780017095753173,-1.0192773977862757,0.46229565143585205
1708437977.6563766,-1.1019032001495361,-1.6835409603514613,-2.5277393499957483,2.277977867717407,-1.0192893187152308,0.46334779262542725
1708437977.6584003,-1.1019421815872192,-1.6835576496519984,-2.5276899973498743,2.2780071932026367,-1.019357983266012,0.46450480818748474
1708437977.660391,-1.101871132850647,-1.6835490665831507,-2.52771503130068,2.277902289027832,-1.0193136374102991,0.4656594395637512
1708437977.6623597,-1.1018445491790771,-1.6835562191405238,-2.5277350584613245,2.2779759603687744,-1.0193050543414515,0.4667418301105499
1708437977.6643982,-1.1018445491790771,-1.68359436611318,-2.5277188459979456,2.2779227930256347,-1.0193212668048304,0.4679645895957947
1708437977.6663842,-1.10182523727417,-1.6836010418333949,-2.5277631918536585,2.2779034811207275,-1.0193656126605433,0.4689769744873047
1708437977.6684,-1.1018128395080566,-1.6836143932738246,-2.5277589003192347,2.2778538900562744,-1.0193894545184534,0.47009220719337463
1708437977.6703732,-1.1017816066741943,-1.683633943597311,-2.5277720133410853,2.2777439790913085,-1.0194104353534144,0.47113722562789917
1708437977.672413,-1.1017367839813232,-1.6835829220213832,-2.527766529713766,2.2777902322956542,-1.0194299856769007,0.47226080298423767
1708437977.674401,-1.1017078161239624,-1.683633943597311,-2.5277751127826136,2.2778138357349853,-1.019393269215719,0.4733526408672333
1708437977.676374,-1.1017334461212158,-1.6836654148497523,-2.527754608784811,2.2777914243885498,-1.019465748463766,0.4744439423084259
1708437977.6783826,-1.101652979850769,-1.6836372814574183,-2.5278080145465296,2.2777301508137207,-1.0194128195392054,0.4755208194255829
1708437977.6803868,-1.1016439199447632,-1.6836401424803675,-2.527782980595724,2.2777625757404785,-1.019477669392721,0.4765554368495941
1708437977.6823769,-1.101616621017456,-1.6836282215514125,-2.527799193059103,2.277702971095703,-1.0194767157184046,0.4777037501335144
1708437977.6843622,-1.1015883684158325,-1.6837016544737757,-2.5277534166919153,2.277649088496826,-1.0195301214801233,0.4788067936897278
1708437977.6863744,-1.1015615463256836,-1.6837130985655726,-2.527782980595724,2.277669830913208,-1.0194767157184046,0.47994619607925415
1708437977.6883695,-1.1015571355819702,-1.683671613732809,-2.5278189818011683,2.277641697520874,-1.0195096174823206,0.48102840781211853
1708437977.6903489,-1.1015044450759888,-1.683725496331686,-2.527823273335592,2.27758972227063,-1.019501034413473,0.4822315573692322
1708437977.6924345,-1.1014997959136963,-1.6837378940977992,-2.5278027693377894,2.2775532442280273,-1.0194924513446253,0.48339179158210754
1708437977.694388,-1.1015270948410034,-1.683819433251852,-2.5278144518481653,2.277570887202881,-1.0194924513446253,0.48440539836883545
1708437977.6964297,-1.1014606952667236,-1.6837378940977992,-2.5278144518481653,2.2775470453449707,-1.019512955342428,0.48555469512939453
1708437977.6983619,-1.1014289855957031,-1.6837121448912562,-2.5278471151935022,2.27751009046521,-1.019524876271383,0.48667994141578674
1708437977.700379,-1.1013977527618408,-1.6837970219054164,-2.5278223196612757,2.277468367213867,-1.0195162932025355,0.4877559244632721
1708437977.7024088,-1.1014305353164673,-1.6837836704649867,-2.5278549830066126,2.277503176326416,-1.019557301198141,0.4887889325618744
1708437977.704389,-1.1013977527618408,-1.6838051281371058,-2.5278506914721888,2.277470751399658,-1.0195639769183558,0.4898398518562317
1708437977.706395,-1.1013569831848145,-1.6837884388365687,-2.5278549830066126,2.2774674135395507,-1.0195239225970667,0.49097752571105957
1708437977.708452,-1.1013048887252808,-1.6837345562376917,-2.5278711954699915,2.277418776149414,-1.0195849577533167,0.4920673966407776
1708437977.7103615,-1.1012684106826782,-1.68381991008901,-2.527879063283102,2.2774318891712646,-1.0196216742144983,0.49312394857406616
1708437977.7123644,-1.1012548208236694,-1.683812757531637,-2.5278952757464808,2.2774030405231933,-1.0195964018451136,0.49422040581703186
1708437977.7143939,-1.1012372970581055,-1.683812757531637,-2.527890984212057,2.2774030405231933,-1.0196293036090296,0.4953100383281708
1708437977.7163668,-1.1012238264083862,-1.6838823757567347,-2.52785832086672,2.277351065272949,-1.0196412245379847,0.49638164043426514
1708437977.718384,-1.1011970043182373,-1.683878084222311,-2.527870480214254,2.277310295695923,-1.0196574370013636,0.4974827766418457
1708437977.7203636,-1.1012271642684937,-1.6838437519469203,-2.5278833548175257,2.2773071962543945,-1.019632641469137,0.4985436499118805
1708437977.7223682,-1.10113525390625,-1.6838394604124964,-2.527886692677633,2.2772866922565917,-1.0196402708636683,0.49968165159225464
1708437977.7243624,-1.1011533737182617,-1.68388094524526,-2.527886692677633,2.2772671419331054,-1.019644562398092,0.5007126331329346
1708437977.7263489,-1.101096749305725,-1.6838180027403773,-2.527907196675436,2.2772220808216552,-1.0196273962603968,0.5016805529594421
1708437977.7283726,-1.1011221408843994,-1.6839171848692835,-2.5279224554644983,2.277275725001953,-1.0196803251849573,0.5026865005493164
1708437977.7303753,-1.1010440587997437,-1.6838957271971644,-2.527951780949728,2.2771939474293212,-1.0196684042560022,0.5037139058113098
1708437977.7323732,-1.1010366678237915,-1.6839333973326625,-2.52793533006777,2.2772199350544433,-1.0197213331805628,0.5047305822372437
1708437977.7343535,-1.1010156869888306,-1.6839457950987757,-2.5279105345355433,2.2771705824085693,-1.0197084585772913,0.5057990550994873
1708437977.7363513,-1.1009927988052368,-1.6839906177916468,-2.527926746998922,2.2771875101276855,-1.0196803251849573,0.5067944526672363
1708437977.738355,-1.1009927988052368,-1.6839367351927699,-2.527951780949728,2.2771469789692382,-1.0196717421161097,0.5078049898147583
1708437977.7403486,-1.1009639501571655,-1.6839128933348597,-2.527942959462301,2.277163191432617,-1.0197327772723597,0.5088410377502441
1708437977.742354,-1.1009522676467896,-1.6839233837523402,-2.5279386679278772,2.277138872737549,-1.0197446982013147,0.5099244117736816
1708437977.744357,-1.1009418964385986,-1.6839233837523402,-2.5279510656939905,2.277090235347412,-1.0197370688067835,0.5108911395072937
1708437977.7463975,-1.1009373664855957,-1.6839648685851039,-2.527942959462301,2.277151270503662,-1.0197165648089808,0.511963963508606
1708437977.7483878,-1.1009209156036377,-1.6839682064452113,-2.5279510656939905,2.2771193224140625,-1.019752327595846,0.5129604339599609
1708437977.750351,-1.1009055376052856,-1.683988710443014,-2.5279467741595667,2.2770954805561523,-1.0197599569903772,0.5140694379806519
1708437977.752385,-1.1008892059326172,-1.6840101681151332,-2.5279672781573694,2.2770706850239257,-1.0197599569903772,0.5150976777076721
1708437977.7543619,-1.1008683443069458,-1.6839753590025843,-2.5279834906207483,2.2770461279102783,-1.0198052565204065,0.5160939693450928
1708437977.7563467,-1.1008445024490356,-1.6839968166747035,-2.527949873601095,2.277026816005371,-1.0197232405291956,0.5170532464981079
1708437977.7583873,-1.100812554359436,-1.6840340099730433,-2.527958695088522,2.277026816005371,-1.0197966734515589,0.5180888175964355
1708437977.7603896,-1.1008052825927734,-1.6840578518309535,-2.527954165135519,2.2770680624195556,-1.019792381917135,0.519095778465271
1708437977.7623596,-1.1007888317108154,-1.6840535602965296,-2.5279868284808558,2.2769660192677,-1.019792381917135,0.5200657248497009
1708437977.7643797,-1.1007769107818604,-1.6840230427184046,-2.5279791990863245,2.2770072656818847,-1.01978046098818,0.5211259722709656
1708437977.7663643,-1.1007903814315796,-1.6840321026244105,-2.5279911200152796,2.2769791322895507,-1.0197961966144007,0.5221644043922424
1708437977.7683802,-1.1007977724075317,-1.6841188869872035,-2.527954165135519,2.2769266802021484,-1.0198243300067347,0.5231873393058777
1708437977.770365,-1.1007411479949951,-1.6840774021544398,-2.527933661137716,2.276930971736572,-1.0198081175433558,0.524204671382904
1708437977.7723656,-1.1007411479949951,-1.683981557885641,-2.5280073324786585,2.2768820959278564,-1.0198329130755823,0.5252388119697571
1708437977.7744095,-1.1007168292999268,-1.6840411625304164,-2.527966324483053,2.2768875795551757,-1.0198124090777796,0.5263264179229736
1708437977.776359,-1.1007004976272583,-1.6841055355467738,-2.528015200291769,2.276923342342041,-1.019799534474508,0.5273014903068542
1708437977.7783737,-1.1007004976272583,-1.6840607128539027,-2.528015200291769,2.276899500484131,-1.0198491255389612,0.5284340977668762
1708437977.780381,-1.1007020473480225,-1.6840969524779261,-2.5280185381518763,2.2768964010426025,-1.0198686758624476,0.5293946862220764
1708437977.7823696,-1.100664734840393,-1.684068342248434,-2.5279935042010706,2.2768582540699462,-1.0198567549334925,0.5304268002510071
1708437977.7843668,-1.1006855964660645,-1.6840726337828578,-2.528039280568258,2.2768756586262207,-1.0198643843280237,0.5314155220985413
1708437977.78635,-1.1007020473480225,-1.6841160259642542,-2.527973715459005,2.2768146234699707,-1.0198114554034632,0.5323891043663025
1708437977.7883556,-1.1006572246551514,-1.684059282342428,-2.528071943913595,2.2768587309071044,-1.0198600927936,0.5333986282348633
1708437977.7903864,-1.1006709337234497,-1.6841136417784632,-2.5280349890338343,2.276843710536621,-1.0199130217181605,0.5343884825706482
1708437977.792381,-1.100595474243164,-1.6841327152647914,-2.528051201497213,2.2767786222645263,-1.0198481718646448,0.5353816747665405
1708437977.7943807,-1.1006419658660889,-1.6841045818724574,-2.5280469099627894,2.276831789607666,-1.0198805967914026,0.5363582968711853
1708437977.796353,-1.1006118059158325,-1.6841088734068812,-2.528051201497213,2.2768124777027587,-1.0199125448810022,0.5373471975326538
1708437977.7983658,-1.100610613822937,-1.6840864620604457,-2.528076235448019,2.276791735286377,-1.0198677221881312,0.5382870435714722
1708437977.8003726,-1.1005687713623047,-1.6841045818724574,-2.5280469099627894,2.2768241602131347,-1.01992112794985,0.539314329624176
1708437977.8023555,-1.1006135940551758,-1.6841374836363734,-2.5280380884753626,2.276775999660156,-1.0198515097247522,0.5402531623840332
1708437977.8043737,-1.1005643606185913,-1.6840912304320277,-2.528088156376974,2.2767879205891113,-1.01992112794985,0.5412757396697998
1708437977.806374,-1.1006062030792236,-1.6841703854002894,-2.5280469099627894,2.276775999660156,-1.019900147114889,0.5423178672790527
1708437977.8084059,-1.1005733013153076,-1.6841641865172328,-2.528112236653463,2.2767554956623535,-1.0198753515826624,0.5433397889137268
1708437977.8103662,-1.1005897521972656,-1.6841494045653285,-2.5281077067004603,2.2767392831989746,-1.01988393465151,0.5442950129508972
1708437977.812378,-1.1005659103393555,-1.6841985187926234,-2.5281077067004603,2.2767554956623535,-1.0198996702777308,0.5453321933746338
1708437977.8143625,-1.1005579233169556,-1.6842013798155726,-2.528050247822897,2.276764078731201,-1.0199287573443812,0.5463904142379761
1708437977.816363,-1.1005399227142334,-1.684126993218893,-2.5280960241900843,2.276784821147583,-1.0199406782733362,0.5473099946975708
1708437977.8183408,-1.1005579233169556,-1.6841360531248988,-2.528037134801046,2.2767597871967773,-1.0199688116656702,0.5483652353286743
1708437977.8203652,-1.1005750894546509,-1.684171815911764,-2.5280423800097864,2.2766915994831542,-1.0199602285968226,0.5492992997169495
1708437977.8223658,-1.1005207300186157,-1.6841594181456507,-2.5280829111682337,2.276674671764038,-1.0199440161334437,0.5502851009368896
1708437977.8243847,-1.1005505323410034,-1.6841851673521937,-2.528057638798849,2.276674671764038,-1.0199440161334437,0.5512094497680664
1708437977.8264244,-1.100529670715332,-1.6841970882811488,-2.528050247822897,2.2767154413410644,-1.0199525992022913,0.5522078275680542
1708437977.8284285,-1.1005505323410034,-1.6842295132079066,-2.528062168751852,2.2766715723225097,-1.0199764410602015,0.5530828237533569
1708437977.8303561,-1.1004968881607056,-1.6841970882811488,-2.5280707518206995,2.27671663343396,-1.0199688116656702,0.5540922284126282
1708437977.8323476,-1.1004887819290161,-1.684188028375143,-2.528074089680807,2.2766963678547363,-1.0199278036700647,0.5550941824913025
1708437977.834381,-1.1005088090896606,-1.684171815911764,-2.5280707518206995,2.276700420970581,-1.0199678579913538,0.5560957193374634
1708437977.8363478,-1.1005058288574219,-1.684188028375143,-2.5280664602862757,2.276704712505005,-1.0199525992022913,0.5570111870765686
1708437977.8383765,-1.1004633903503418,-1.684188028375143,-2.5281198660479944,2.2767209249683837,-1.0199840704547327,0.5579396486282349
1708437977.8403633,-1.1005222797393799,-1.684220930139059,-2.5280707518206995,2.2766877847858886,-1.019951645527975,0.5589556694030762
1708437977.8423638,-1.1004769802093506,-1.6841627560057582,-2.5281243960009974,2.276695891017578,-1.0199840704547327,0.5599288940429688
1708437977.8443651,-1.1004436016082764,-1.684188028375143,-2.528057638798849,2.276655359859131,-1.0199883619891565,0.5609263777732849
1708437977.8463893,-1.1004843711853027,-1.684183736840719,-2.52807861963381,2.276674671764038,-1.0199764410602015,0.5618100166320801
1708437977.848366,-1.1004606485366821,-1.6841675243773402,-2.5280948320971888,2.2766758638569335,-1.0199711958514612,0.562768816947937
1708437977.8503623,-1.1005313396453857,-1.6841761074461878,-2.52807861963381,2.276656313533447,-1.0199878851519983,0.5636803507804871
1708437977.8523667,-1.1004905700683594,-1.6841703854002894,-2.5281320253955286,2.2766758638569335,-1.0200122038470667,0.5646246671676636
1708437977.854394,-1.1004815101623535,-1.684220930139059,-2.528111282979147,2.276655359859131,-1.019975487385885,0.56546550989151
1708437977.8563714,-1.1004934310913086,-1.6841956577696742,-2.5280991236316126,2.276639147395752,-1.0199797789203089,0.5664079189300537
1708437977.858358,-1.1004934310913086,-1.6841865978636683,-2.528123203908102,2.2766477304645996,-1.0200203100787562,0.567252516746521
1708437977.8604512,-1.1004815101623535,-1.684183736840719,-2.528070036564962,2.2766434389301757,-1.0199626127826136,0.5681334137916565
1708437977.8624372,-1.100485920906067,-1.6842414341368617,-2.5280948320971888,2.276602192515991,-1.0199678579913538,0.5691273808479309
1708437977.864432,-1.1004770994186401,-1.684220930139059,-2.5280991236316126,2.276602192515991,-1.0199549833880823,0.570044755935669
1708437977.8663688,-1.1004650592803955,-1.684183736840719,-2.528106991444723,2.276677055949829,-1.0199711958514612,0.5709224939346313
1708437977.8683977,-1.1004815101623535,-1.684211870233053,-2.528069798146383,2.2766520219990234,-1.0200160185443323,0.5717675089836121
1708437977.8703792,-1.1004934310913086,-1.684232851068014,-2.5281274954425257,2.276688976878784,-1.020003620778219,0.5727332234382629
1708437977.872428,-1.1004934310913086,-1.6842028103270472,-2.5281155745135706,2.2766920763203125,-1.0200122038470667,0.5736667513847351
1708437977.8743882,-1.1004887819290161,-1.6841908893980921,-2.5280895868884485,2.276700897807739,-1.0200203100787562,0.5746254324913025
1708437977.8764894,-1.1005070209503174,-1.6841908893980921,-2.528102699910299,2.276639147395752,-1.0200079123126429,0.5755656361579895
1708437977.8783567,-1.1004770994186401,-1.684138914147848,-2.528123203908102,2.27661840497937,-1.0200203100787562,0.5764288902282715
1708437977.8803751,-1.1005104780197144,-1.6842028103270472,-2.528098169957296,2.2766315180012207,-1.0200160185443323,0.5773470401763916
1708437977.882394,-1.1004786491394043,-1.6842147312560023,-2.528180185948507,2.2765988546558837,-1.0200160185443323,0.5782974362373352
1708437977.8843734,-1.100465178489685,-1.6842495403685511,-2.5281439463244837,2.2766477304645996,-1.0200355688678187,0.5791330337524414
1708437977.8866284,-1.100497841835022,-1.6841956577696742,-2.5280938784228724,2.2766315180012207,-1.0199864546405237,0.5800555944442749
1708437977.888364,-1.1004815101623535,-1.6842700443663539,-2.528114620839254,2.276627226466797,-1.0200117270099085,0.5809924602508545
1708437977.890379,-1.100502371788025,-1.684183736840719,-2.528135124837057,2.276655359859131,-1.0200160185443323,0.5819327235221863
1708437977.8924084,-1.1004979610443115,-1.6842042408385218,-2.528102699910299,2.2766238886066894,-1.0200203100787562,0.5828147530555725
1708437977.8943896,-1.1004769802093506,-1.6841298542418421,-2.528158966694967,2.2766639429279785,-1.0199950377093714,0.5836313366889954
1708437977.8963895,-1.1004951000213623,-1.684183736840719,-2.528147045766012,2.2766596513935546,-1.020036522542135,0.5846368074417114
1708437977.8983815,-1.1004695892333984,-1.684211870233053,-2.528142754231588,2.2766520219990234,-1.0200160185443323,0.5855181217193604
1708437977.9003887,-1.1004650592803955,-1.6841699085631312,-2.5281546751605433,2.2766195970722656,-1.020026985798971,0.5864350199699402
1708437977.9024005,-1.1004769802093506,-1.6841908893980921,-2.528180185948507,2.2766758638569335,-1.0200679937945765,0.5874249935150146
1708437977.9044015,-1.100472331047058,-1.6841761074461878,-2.528147045766012,2.276655359859131,-1.0200193564044397,0.588347315788269
1708437977.906371,-1.1004360914230347,-1.6841985187926234,-2.528135124837057,2.276656313533447,-1.0200560728656214,0.5892976522445679
1708437977.9083626,-1.1004831790924072,-1.684188028375143,-2.528135124837057,2.2766315180012207,-1.020015064870016,0.5901954770088196
1708437977.910383,-1.1004695892333984,-1.6842042408385218,-2.528142754231588,2.276611014003418,-1.0200355688678187,0.5912027359008789
1708437977.9123788,-1.1004571914672852,-1.6841656170287074,-2.528114620839254,2.2766520219990234,-1.0200355688678187,0.5920776128768921
1708437977.9144025,-1.1004570722579956,-1.6842028103270472,-2.5281501452075403,2.276627226466797,-1.0200679937945765,0.5930374264717102
1708437977.9163792,-1.1004033088684082,-1.684211870233053,-2.528167788182394,2.2766477304645996,-1.0200842062579554,0.5938867926597595
1708437977.918381,-1.100461721420288,-1.6842194996275843,-2.5281384626971644,2.2766801553913574,-1.0200637022601526,0.594747006893158
1708437977.9203665,-1.100437879562378,-1.6842810116209925,-2.5281670729266565,2.2766358095356445,-1.0200756231891077,0.5956279039382935
1708437977.922365,-1.1004005670547485,-1.6843258343138636,-2.528175655995504,2.2766682344624023,-1.020026985798971,0.5966005325317383
1708437977.9243867,-1.1003632545471191,-1.6842972240843714,-2.528153959904806,2.276656313533447,-1.0201285521136683,0.5974196791648865
1708437977.9263976,-1.1003975868225098,-1.6842719517149867,-2.528208319340841,2.276644392604492,-1.0200637022601526,0.5982775688171387
1708437977.9284194,-1.1003767251968384,-1.6843120060362757,-2.5281832853900355,2.2766963678547363,-1.0200918356524866,0.5991476774215698
1708437977.9304001,-1.1003811359405518,-1.684307714501852,-2.52815825143923,2.2766119676777343,-1.02004319826235,0.6000260710716248
1708437977.9323623,-1.100356936454773,-1.684307714501852,-2.5281832853900355,2.2765907484241943,-1.0201042334186,0.6009848117828369
1708437977.9343586,-1.1002882719039917,-1.6843120060362757,-2.5282159487353724,2.276599093074463,-1.020038906727926,0.6018164157867432
1708437977.9364002,-1.100297212600708,-1.6843348942198695,-2.5281670729266565,2.2766153055378417,-1.0200508276568812,0.6027608513832092
1708437977.9383795,-1.1002070903778076,-1.6843677959837855,-2.5282321611987513,2.276595039958618,-1.0201028029071253,0.6036382913589478
1708437977.9403749,-1.100183367729187,-1.6843840084471644,-2.528174702321188,2.2765626150318603,-1.0201199690448206,0.6045465469360352
1708437977.9423892,-1.1002252101898193,-1.6843840084471644,-2.5282233397113245,2.276543303126953,-1.0201042334186,0.6054234504699707
1708437977.9443686,-1.1001560688018799,-1.6844154796996058,-2.5282352606402796,2.276482029552124,-1.0201156775103968,0.6063471436500549
1708437977.9463649,-1.1001696586608887,-1.684439321557516,-2.5282681624041956,2.2765399652668457,-1.0201028029071253,0.6072510480880737
1708437977.9484098,-1.1001338958740234,-1.6844903431334437,-2.5282233397113245,2.2765249448963623,-1.0201399962054651,0.608174204826355
1708437977.950355,-1.100117564201355,-1.6844846210875453,-2.5282071272479456,2.276508017177246,-1.0201237837420862,0.6090509295463562
1708437977.9524384,-1.1000618934631348,-1.68449129680776,-2.528210465108053,2.2764431673237304,-1.0201109091388147,0.6098933219909668
1708437977.954371,-1.1000545024871826,-1.6845113239684046,-2.5282474199878138,2.276414318675659,-1.0201314131366175,0.6108126640319824
1708437977.956346,-1.0999685525894165,-1.6845470867552699,-2.528259340916769,2.2763869005390625,-1.0201433340655726,0.6116559505462646
1708437977.958376,-1.099989414215088,-1.6845842800536097,-2.5282629171954554,2.2763964372822265,-1.0201681295977991,0.6125790476799011
1708437977.9603665,-1.0998873710632324,-1.6846162281432093,-2.528271738682882,2.27634779989209,-1.0201833883868616,0.6133966445922852
1708437977.9624214,-1.0998798608779907,-1.6845909557738246,-2.5282703081714075,2.2762996393391113,-1.0201800505267542,0.6142833828926086
1708437977.9643703,-1.0998443365097046,-1.6846357784666957,-2.5282867590533655,2.276259585017822,-1.0201671759234827,0.6151438355445862
1708437977.966394,-1.0997931957244873,-1.6847402058043421,-2.5282779375659388,2.2762157159992675,-1.020134750996725,0.6160714030265808
1708437977.9683802,-1.0997239351272583,-1.6847402058043421,-2.5283029715167444,2.276150627727173,-1.0201876799212855,0.6168210506439209
1708437977.9703882,-1.0997092723846436,-1.6847521267332972,-2.528273646031515,2.2761306005665283,-1.0201757589923304,0.6177101135253906
1708437977.9723766,-1.099652647972107,-1.6848107777037562,-2.5283270517932337,2.276134892100952,-1.0201714674579065,0.6185716390609741
1708437977.9743977,-1.0995877981185913,-1.6848508320250453,-2.528310839329855,2.2760917383381347,-1.020134750996725,0.6194080114364624
1708437977.9764035,-1.0995867252349854,-1.6849447689452113,-2.5283315817462366,2.276059790248535,-1.0202038923846644,0.6203287839889526
1708437977.9783654,-1.0994796752929688,-1.684911390344137,-2.52833062807192,2.276040239925049,-1.0201991240130823,0.6211578249931335
1708437977.9803636,-1.0993748903274536,-1.6849585972227992,-2.5284157435046595,2.2759720522114257,-1.0202315489398401,0.6220353245735168
1708437977.9823427,-1.0993237495422363,-1.6850606403746546,-2.528386894856588,2.2759033876606445,-1.0202716032611292,0.6229410171508789
1708437977.9843643,-1.0992517471313477,-1.685071130792135,-2.5283544699298304,2.275843067760132,-1.0202596823321741,0.6238237023353577
1708437977.9863703,-1.0991886854171753,-1.6850782833495082,-2.5283950010882776,2.275892897243164,-1.0202587286578577,0.6246010065078735
1708437977.9883916,-1.0990674495697021,-1.685145994225973,-2.528418842946188,2.2757884699055175,-1.020348850880758,0.6253891587257385
1708437977.9903736,-1.0988918542861938,-1.6852146587767542,-2.5284350554095667,2.2757322031208496,-1.0203598181353968,0.6262193918228149
1708437977.9923906,-1.0989006757736206,-1.6853119335570277,-2.5284841696368616,2.275642080897949,-1.0203717390643519,0.6269482374191284
1708437977.994399,-1.0987274646759033,-1.6853271923460902,-2.528503958378927,2.275571508998535,-1.0203750769244593,0.6278226971626282
1708437977.996392,-1.0986406803131104,-1.6853906116881312,-2.5285115877734583,2.2754623132893066,-1.0204318205462855,0.6286571025848389
1708437977.9983878,-1.0984658002853394,-1.685437341729635,-2.5285027662860315,2.275423451060913,-1.0204351584063929,0.6294107437133789
1708437978.0003626,-1.0983928442001343,-1.6855112514891566,-2.5285354296313685,2.2753020960041503,-1.0204179922686976,0.630240797996521
1708437978.0023491,-1.0982353687286377,-1.6855293713011683,-2.528555218373434,2.2752601343342285,-1.0204790274249476,0.6310743093490601
1708437978.0043566,-1.0980420112609863,-1.6855555973448695,-2.528599802647726,2.2751235204884033,-1.020560089741842,0.6318873763084412
1708437978.0063527,-1.097914218902588,-1.6856724224486292,-2.528623644505636,2.27501027166333,-1.0204985777484339,0.6326578259468079
1708437978.0083811,-1.0977258682250977,-1.6857778034605921,-2.5286274592029017,2.2749106126972656,-1.0205310026751917,0.633475124835968
1708437978.01038,-1.0975096225738525,-1.6858984432616175,-2.528646771107809,2.274700565929077,-1.0205429236041468,0.6342525482177734
1708437978.0124097,-1.0973321199417114,-1.6859823666014613,-2.528736178074972,2.274589701289795,-1.0206154028521937,0.6351217031478882
1708437978.0143697,-1.0971795320510864,-1.686056753198141,-2.5286904017077845,2.274528666133545,-1.0206602255450647,0.6359356641769409
1708437978.0163662,-1.0969334840774536,-1.6861406765379847,-2.528750483189718,2.274305744762085,-1.0205658117877405,0.6367334127426147
1708437978.0184073,-1.0966964960098267,-1.6862203083434046,-2.52879506746401,2.2741715151020507,-1.0206311384784144,0.6375259757041931
1708437978.0203643,-1.0965020656585693,-1.6863652668394984,-2.5288682619677942,2.2739950853535156,-1.0206268469439905,0.638355553150177
1708437978.0223544,-1.0962969064712524,-1.68642057994985,-2.5288997332202356,2.2738141256519775,-1.0206268469439905,0.6390507817268372
1708437978.0243855,-1.0959978103637695,-1.6865612469115199,-2.528842274342672,2.273602171535156,-1.0206711927997034,0.6399326324462891
1708437978.0263653,-1.0956957340240479,-1.6866737804808558,-2.528914753590719,2.2734238344379882,-1.020642105733053,0.640677273273468
1708437978.0284576,-1.0954129695892334,-1.6868258915343226,-2.5289347807513636,2.273230953807495,-1.0207236448871058,0.6414153575897217
1708437978.030363,-1.09515380859375,-1.6869703731932582,-2.528937880192892,2.272986336345337,-1.020715061818258,0.6421242356300354
1708437978.032361,-1.0948556661605835,-1.687068601647848,-2.529015604649679,2.2728120523640136,-1.0207746664630335,0.6429764628410339
1708437978.034385,-1.0944846868515015,-1.6872149906554164,-2.5290468374835413,2.272587938899658,-1.0207942167865198,0.6437116265296936
1708437978.0363748,-1.0941370725631714,-1.6873680553831996,-2.5290544668780726,2.2722744184681396,-1.020862881337301,0.6445136666297913
1708437978.0383606,-1.0937682390213013,-1.6875478229918421,-2.5291484037982386,2.2720438677021484,-1.0208423773394983,0.6452630758285522
1708437978.0403683,-1.0934168100357056,-1.6877032719054164,-2.5291877428637903,2.271749659175537,-1.0209348837481897,0.6460607647895813
1708437978.0423534,-1.0930202007293701,-1.6878920994200648,-2.5292072931872767,2.27150742589917,-1.0209749380694788,0.6467218399047852
1708437978.0443845,-1.0925747156143188,-1.6880623302855433,-2.529226843510763,2.2712651926228027,-1.021010700856344,0.6475985646247864
1708437978.0463686,-1.0921472311019897,-1.6882955036559046,-2.5292955080615442,2.2708749014088134,-1.0210545698748987,0.6483802795410156
1708437978.048359,-1.0917075872421265,-1.6884814701476039,-2.5293262640582483,2.2705511289783935,-1.0211265722857874,0.6491338610649109
1708437978.0503697,-1.0912339687347412,-1.6887370548644007,-2.529440704976217,2.270277186031006,-1.0212023893939417,0.6498479247093201
1708437978.0523715,-1.090733528137207,-1.688974996606344,-2.5294352213488978,2.269850893611572,-1.0212872664081019,0.6506969928741455
1708437978.0543714,-1.0903071165084839,-1.6891590557494105,-2.5294962565051478,2.269554777736328,-1.0213220755206507,0.6513711810112
1708437978.0563607,-1.089836835861206,-1.6894332371153773,-2.5295608679400843,2.269256039256714,-1.0213983694659632,0.6521127820014954
1708437978.0583825,-1.0892506837844849,-1.689688344995016,-2.529644552861349,2.268822594279907,-1.0213845411883753,0.6528313159942627
1708437978.0604248,-1.0887224674224854,-1.6899029217162074,-2.5296347776996058,2.268446846599243,-1.0214617888080042,0.6536045074462891
1708437978.0624454,-1.0882354974746704,-1.6901704273619593,-2.529724423085348,2.2680715757557373,-1.0215261618243616,0.6543034315109253
1708437978.0643647,-1.087654709815979,-1.6905104122557582,-2.5297918955432337,2.267655296916626,-1.0215371290790003,0.6550725102424622
1708437978.0663517,-1.0870826244354248,-1.6907540760436,-2.5298102537738245,2.2672311502644042,-1.0216215292560022,0.655718982219696
1708437978.06837,-1.086429476737976,-1.6910621128477992,-2.5298834482776087,2.2667910295673828,-1.0216730276690882,0.656448483467102
1708437978.070371,-1.0858300924301147,-1.6913453541197718,-2.5299630800830286,2.2663063245960693,-1.0217331091510218,0.6571462154388428
1708437978.0724065,-1.0851540565490723,-1.6916777096190394,-2.530039374028341,2.2658163744160156,-1.0218132177936,0.6578279137611389
1708437978.074387,-1.0844634771347046,-1.6919542751707972,-2.5300994555102747,2.265395088786743,-1.0218928495990198,0.6584690809249878
