Eg3-git/Classifiers/Data Collection/u6/u6star3_ur3e_joint_states.csv
time,elbow_joint,shoulder_lift_joint,shoulder_pan_joint,wrist_1_joint,wrist_2_joint,wrist_3_joint
1708437942.9081597,-1.10635244846344,-1.6812178097166957,-2.526395622883932,2.2819766241260986,-1.0168941656695765,0.32288944721221924
1708437942.9102278,-1.1062819957733154,-1.6812507114806117,-2.5263705889331263,2.2819394308277587,-1.0168564955340784,0.3229299485683441
1708437942.9121792,-1.1063156127929688,-1.681225915948385,-2.526395622883932,2.2819363313862304,-1.0168941656695765,0.3229101896286011
1708437942.9141703,-1.106307029724121,-1.6811891994872035,-2.5263827482806605,2.281942530269287,-1.0168684164630335,0.32287609577178955
1708437942.9161575,-1.106283187866211,-1.6811849079527796,-2.5264163653003138,2.282017870540283,-1.0168536345111292,0.3229101896286011
1708437942.9181557,-1.1062908172607422,-1.6812087498106898,-2.526391331349508,2.2819394308277587,-1.0169227758990687,0.32290276885032654
1708437942.9201636,-1.1063563823699951,-1.681230207482809,-2.526428286229269,2.2819601732441406,-1.0168193022357386,0.32286426424980164
1708437942.9221463,-1.1062960624694824,-1.6811982593932093,-2.526391331349508,2.2819809156605224,-1.0168731848346155,0.32285237312316895
1708437942.9241774,-1.1062908172607422,-1.681230207482809,-2.526403252278463,2.2819482523151855,-1.0169017950641077,0.3228806257247925
1708437942.9262087,-1.10627019405365,-1.6811777553954066,-2.526407543812887,2.28192321836438,-1.0168612639056605,0.3228687047958374
1708437942.9282384,-1.1063437461853027,-1.6812268696227015,-2.52641207376589,2.281963272685669,-1.0168684164630335,0.32288503646850586
1708437942.9302082,-1.106278896331787,-1.6812592945494593,-2.5263999144183558,2.2819525438496093,-1.0168536345111292,0.3229224383831024
1708437942.9322023,-1.106307029724121,-1.681237360040182,-2.526357714329855,2.2819148737141113,-1.0168941656695765,0.3229013681411743
1708437942.9342175,-1.106360673904419,-1.6812435589232386,-2.5263870398150843,2.2820004659840087,-1.0168855826007288,0.322888046503067
1708437942.9362109,-1.106283187866211,-1.6812178097166957,-2.5263782183276575,2.281918688411377,-1.0169032255755823,0.3228924572467804
1708437942.9381833,-1.106295108795166,-1.6812106571593226,-2.526423756276266,2.2819763857075195,-1.0168655554400843,0.3229224383831024
1708437942.9401846,-1.1063232421875,-1.6812087498106898,-2.5263944307910364,2.2819763857075195,-1.0168898741351526,0.3228731155395508
1708437942.9421916,-1.10635244846344,-1.6812416515746058,-2.526411835347311,2.281918688411377,-1.0169180075274866,0.32291361689567566
1708437942.9441776,-1.106295108795166,-1.6812221012511195,-2.526407543812887,2.2818571764179687,-1.0168989340411585,0.32289695739746094
1708437942.9461586,-1.1063083410263062,-1.6811939678587855,-2.5263989607440394,2.2819928365894775,-1.0168855826007288,0.322844535112381
1708437942.9481895,-1.1063199043273926,-1.6812459431090296,-2.52641207376589,2.281994267100952,-1.0169180075274866,0.32291802763938904
1708437942.950233,-1.1062819957733154,-1.6812459431090296,-2.526371781026022,2.2819105821796875,-1.0168445746051233,0.322888046503067
1708437942.9522338,-1.1063448190689087,-1.681197305718893,-2.526440445576803,2.2819062906452636,-1.0168975035296839,0.32288944721221924
1708437942.9541864,-1.1063481569290161,-1.6811820469298304,-2.5263999144183558,2.2819437223621826,-1.0168731848346155,0.32290470600128174
1708437942.9561687,-1.1062908172607422,-1.681202074090475,-2.526379410420553,2.2819394308277587,-1.0169227758990687,0.32288503646850586
1708437942.958193,-1.1063027381896973,-1.681197305718893,-2.526403252278463,2.281994267100952,-1.0168641249286097,0.3229013681411743
1708437942.9602175,-1.1062994003295898,-1.6812135181822718,-2.526395622883932,2.2819439607807617,-1.0168941656695765,0.322864294052124
1708437942.9622068,-1.1062908172607422,-1.6811806164183558,-2.5263620058642786,2.281967802638672,-1.0169108549701136,0.3228611946105957
1708437942.9641902,-1.106307029724121,-1.6812344990172328,-2.526403252278463,2.2819558817097167,-1.0168402830706995,0.3228611946105957
1708437942.9661696,-1.1063441038131714,-1.6811939678587855,-2.5263870398150843,2.2819720941730957,-1.0168855826007288,0.32285982370376587
1708437942.9681942,-1.1062994003295898,-1.6811896763243617,-2.526407543812887,2.2819320398518066,-1.0169060865985315,0.32291802763938904
1708437942.9701703,-1.1063232421875,-1.6812435589232386,-2.5264359156238,2.28192321836438,-1.0169270674334925,0.3228701055049896
1708437942.9721627,-1.106295108795166,-1.6812435589232386,-2.5264316240893763,2.2819647031971435,-1.0168989340411585,0.32285237312316895
1708437942.974178,-1.106307029724121,-1.6811849079527796,-2.5264151732074183,2.28192321836438,-1.0168684164630335,0.3229013681411743
1708437942.9761577,-1.106318712234497,-1.6812344990172328,-2.526419464741842,2.2819017606922607,-1.0168941656695765,0.32284796237945557
1708437942.978174,-1.1062819957733154,-1.6812120876707972,-2.5264325777636927,2.2819809156605224,-1.0169108549701136,0.32289084792137146
1708437942.9802563,-1.1063437461853027,-1.6811896763243617,-2.5264316240893763,2.281967802638672,-1.0169060865985315,0.3229224383831024
1708437942.9821804,-1.1062657833099365,-1.681197305718893,-2.5263782183276575,2.2819885450550537,-1.0168808142291468,0.32289695739746094
1708437942.9842057,-1.1063306331634521,-1.6811596355833949,-2.526456658040182,2.282017870540283,-1.0168522039996546,0.3228820264339447
1708437942.9861689,-1.1063156127929688,-1.6812435589232386,-2.5263708273517054,2.2819883066364746,-1.0168731848346155,0.322864294052124
1708437942.988175,-1.1063232421875,-1.6811863384642542,-2.5263870398150843,2.2820002275654296,-1.0168855826007288,0.3229057788848877
1708437942.9901648,-1.106253981590271,-1.6812063656248988,-2.5264151732074183,2.2819763857075195,-1.0169108549701136,0.32290470600128174
1708437942.9921732,-1.1063437461853027,-1.6812435589232386,-2.526403252278463,2.2819482523151855,-1.016869846974508,0.32283905148506165
1708437942.994172,-1.1063649654388428,-1.6812221012511195,-2.5263662973987024,2.2819971281239013,-1.0169017950641077,0.32293134927749634
1708437942.9961941,-1.1063475608825684,-1.681193014184469,-2.5263989607440394,2.281967802638672,-1.0169227758990687,0.32287612557411194
1708437942.9981768,-1.1063200235366821,-1.6812435589232386,-2.526403252278463,2.2819763857075195,-1.0168941656695765,0.3228806257247925
1708437943.0001662,-1.106311321258545,-1.6812221012511195,-2.526407543812887,2.2819885450550537,-1.0168612639056605,0.3228701055049896
1708437943.0022216,-1.1063438653945923,-1.6812550030150355,-2.5263739267932337,2.281967802638672,-1.0168855826007288,0.3228490650653839
1708437943.0041761,-1.106295108795166,-1.681202074090475,-2.5264108816729944,2.2819720941730957,-1.0169017950641077,0.3228938579559326
1708437943.0061736,-1.1063481569290161,-1.6812154255309046,-2.526407543812887,2.2819601732441406,-1.0168774763690394,0.3228938579559326
1708437943.0081608,-1.1062982082366943,-1.6811849079527796,-2.526395622883932,2.2820090490528564,-1.0169523398028772,0.3229101896286011
1708437943.0102117,-1.106307029724121,-1.681230207482809,-2.526428286229269,2.2819720941730957,-1.0168941656695765,0.322864294052124
1708437943.0121818,-1.1063275337219238,-1.6812344990172328,-2.5263989607440394,2.2819060522266845,-1.0168684164630335,0.3228357136249542
1708437943.0141861,-1.1062830686569214,-1.6812178097166957,-2.526403252278463,2.281995936031006,-1.0169227758990687,0.322864294052124
1708437943.0161643,-1.1063232421875,-1.681155344048971,-2.526403252278463,2.281979723567627,-1.0168684164630335,0.32285237312316895
1708437943.0181706,-1.1062896251678467,-1.6812178097166957,-2.526379410420553,2.2819720941730957,-1.0169017950641077,0.32287752628326416
1708437943.0201802,-1.1063432693481445,-1.6812178097166957,-2.5264063517199915,2.281951351756714,-1.0168975035296839,0.3228774964809418
1708437943.022168,-1.1063026189804077,-1.681176324883932,-2.5263989607440394,2.282012386912964,-1.0168774763690394,0.32287752628326416
1708437943.0241935,-1.1063232421875,-1.6812344990172328,-2.5263870398150843,2.281930609340332,-1.0168564955340784,0.32287752628326416
1708437943.026226,-1.1063520908355713,-1.681202074090475,-2.526428286229269,2.2819971281239013,-1.0168941656695765,0.3228731155395508
1708437943.028179,-1.1063638925552368,-1.6812135181822718,-2.5263870398150843,2.2819394308277587,-1.0169060865985315,0.3228149712085724
1708437943.030204,-1.1063027381896973,-1.6812344990172328,-2.5263870398150843,2.2820121484943847,-1.0169270674334925,0.3228490650653839
1708437943.0322406,-1.1063563823699951,-1.6812135181822718,-2.52641207376589,2.2820285993763427,-1.0168731848346155,0.32287752628326416
1708437943.034198,-1.1063520908355713,-1.6812087498106898,-2.5263708273517054,2.281975193614624,-1.0168774763690394,0.3228820264339447
1708437943.0362146,-1.1063776016235352,-1.6811849079527796,-2.526423756276266,2.281963272685669,-1.0169180075274866,0.3228401243686676
1708437943.0381973,-1.106384515762329,-1.6812311611571253,-2.526403252278463,2.281979723567627,-1.0168989340411585,0.322844535112381
1708437943.040176,-1.1064008474349976,-1.6812221012511195,-2.526423756276266,2.2820090490528564,-1.0168855826007288,0.32289835810661316
1708437943.0421793,-1.1063768863677979,-1.6812435589232386,-2.526423756276266,2.281963272685669,-1.0168684164630335,0.32283270359039307
1708437943.0442307,-1.1063140630722046,-1.6812197170653285,-2.5263620058642786,2.2820166784473876,-1.0168641249286097,0.3228030502796173
1708437943.0462227,-1.1063430309295654,-1.6811610660948695,-2.526428286229269,2.282007856959961,-1.0168564955340784,0.32288503646850586
1708437943.0481675,-1.1063756942749023,-1.6811806164183558,-2.5264435450183313,2.281975193614624,-1.0168898741351526,0.3228611946105957
1708437943.0501869,-1.1063475608825684,-1.6812221012511195,-2.5263705889331263,2.281958981151245,-1.0169060865985315,0.32281938195228577
1708437943.0521898,-1.1063475608825684,-1.6812359295287074,-2.526423756276266,2.281995936031006,-1.0168898741351526,0.3228701055049896
1708437943.0541673,-1.1063714027404785,-1.6812507114806117,-2.5264108816729944,2.282036705608032,-1.0168612639056605,0.3228687345981598
1708437943.056159,-1.1063637733459473,-1.6811939678587855,-2.5263989607440394,2.2819840151020507,-1.0169017950641077,0.3228820860385895
1708437943.058163,-1.1063388586044312,-1.681176324883932,-2.526407543812887,2.2820002275654296,-1.0168941656695765,0.32289835810661316
1708437943.0602124,-1.1063876152038574,-1.6812311611571253,-2.526379410420553,2.282019777888916,-1.0168941656695765,0.32288646697998047
1708437943.0621638,-1.1062917709350586,-1.6811806164183558,-2.526456658040182,2.282015247935913,-1.0168641249286097,0.3229191303253174
1708437943.0641732,-1.1063833236694336,-1.6811820469298304,-2.5263989607440394,2.2820285993763427,-1.0168855826007288,0.3228445053100586
1708437943.0661519,-1.10639226436615,-1.6811849079527796,-2.5263870398150843,2.282057448024414,-1.0168774763690394,0.32284149527549744
1708437943.0681577,-1.1063920259475708,-1.6811891994872035,-2.526419464741842,2.2820121484943847,-1.0168898741351526,0.3228687644004822
1708437943.0701501,-1.1063421964645386,-1.6812402210631312,-2.526444737111227,2.282085581416748,-1.0169017950641077,0.3228118419647217
1708437943.0721593,-1.1064244508743286,-1.6811686954894007,-2.5263870398150843,2.281991644496582,-1.0168989340411585,0.3229101896286011
1708437943.0741436,-1.1063997745513916,-1.6812435589232386,-2.526436154042379,2.281982584590576,-1.0168731848346155,0.322758287191391
1708437943.0761516,-1.1063421964645386,-1.6811891994872035,-2.5263827482806605,2.28202406942334,-1.0169060865985315,0.3228894770145416
1708437943.0781426,-1.1063787937164307,-1.6811939678587855,-2.5263662973987024,2.28202406942334,-1.0168898741351526,0.32290276885032654
1708437943.0801516,-1.1063820123672485,-1.6811891994872035,-2.526403252278463,2.2820398050495605,-1.0169389883624476,0.32287320494651794
1708437943.0822392,-1.106432557106018,-1.6812268696227015,-2.526419464741842,2.2820440965839843,-1.0168402830706995,0.322835773229599
1708437943.0842009,-1.1064409017562866,-1.6811939678587855,-2.526456658040182,2.2820722299763183,-1.0169108549701136,0.3228490352630615
1708437943.0861933,-1.10640287399292,-1.6811729870238246,-2.5263589064227503,2.2820603090473632,-1.0168612639056605,0.3228744566440582
1708437943.088163,-1.1063952445983887,-1.6811891994872035,-2.5263999144183558,2.2820471960255126,-1.0169017950641077,0.322866827249527
1708437943.0901637,-1.1064319610595703,-1.681202074090475,-2.5263989607440394,2.2820929723927,-1.0169180075274866,0.3228820562362671
1708437943.0921633,-1.1064366102218628,-1.6811729870238246,-2.5263827482806605,2.2820636469074707,-1.0168941656695765,0.3229313790798187
1708437943.094172,-1.1064366102218628,-1.6811891994872035,-2.5263870398150843,2.28206650793042,-1.016876522694723,0.32284897565841675
1708437943.0961847,-1.1064484119415283,-1.6811744175352992,-2.526357714329855,2.282050295467041,-1.0168564955340784,0.3228643238544464
1708437943.0982099,-1.1064233779907227,-1.6811820469298304,-2.526407543812887,2.2820960718342285,-1.0168898741351526,0.32287901639938354
1708437943.1001735,-1.1063885688781738,-1.6811939678587855,-2.5263543764697474,2.282086058253906,-1.0168522039996546,0.32286569476127625
1708437943.102169,-1.1064811944961548,-1.6812111339964808,-2.526440445576803,2.2821037012287597,-1.0168898741351526,0.322820782661438
1708437943.1042094,-1.1063939332962036,-1.6812087498106898,-2.526444737111227,2.2821037012287597,-1.0168641249286097,0.322870135307312
1708437943.1061642,-1.106485366821289,-1.681202074090475,-2.5263825098620813,2.28206650793042,-1.0168808142291468,0.3227997124195099
1708437943.1081595,-1.1064811944961548,-1.6812197170653285,-2.526386801396505,2.2821249204822998,-1.0168808142291468,0.322820782661438
1708437943.1101913,-1.1064319610595703,-1.6811863384642542,-2.526403252278463,2.282153292293213,-1.0168774763690394,0.32282519340515137
1708437943.1121576,-1.106423258781433,-1.6811863384642542,-2.5263989607440394,2.2821294504353027,-1.0168927351581019,0.3228296935558319
1708437943.1141896,-1.1064146757125854,-1.6811806164183558,-2.5263989607440394,2.282094641322754,-1.0168445746051233,0.32283708453178406
1708437943.1161578,-1.1064276695251465,-1.6812311611571253,-2.5263543764697474,2.2821072775074462,-1.0168941656695765,0.32280755043029785
1708437943.118168,-1.1063933372497559,-1.6811777553954066,-2.5263870398150843,2.282153292293213,-1.0169060865985315,0.32279670238494873
1708437943.1201532,-1.1064352989196777,-1.6811939678587855,-2.5264151732074183,2.282099171275757,-1.0169060865985315,0.3228490650653839
1708437943.1221578,-1.1064643859863281,-1.6811982593932093,-2.526419464741842,2.282128019923828,-1.0169060865985315,0.3228534460067749
1708437943.1241627,-1.1064811944961548,-1.6812268696227015,-2.5264151732074183,2.2821029859730224,-1.0168941656695765,0.32283711433410645
1708437943.126214,-1.1064763069152832,-1.6811777553954066,-2.5263944307910364,2.2821237283894042,-1.0169299284564417,0.3228040933609009
1708437943.1281953,-1.106434941291809,-1.6811658344664515,-2.526423756276266,2.282132311458252,-1.0168731848346155,0.32280412316322327
1708437943.1302087,-1.1064515113830566,-1.6811582050719203,-2.5264206568347376,2.282164974803589,-1.0169313589679163,0.3227759003639221
1708437943.1322274,-1.10651695728302,-1.6811567745604457,-2.5263903776751917,2.282144232387207,-1.0168898741351526,0.32278478145599365
1708437943.1342192,-1.1064796447753906,-1.6811777553954066,-2.526391331349508,2.2821695047565917,-1.0168898741351526,0.32282519340515137
1708437943.1362004,-1.106434941291809,-1.6811863384642542,-2.526395622883932,2.282144232387207,-1.0168445746051233,0.3228130638599396
1708437943.1382296,-1.106499195098877,-1.6812030277647914,-2.526363197957174,2.2821029859730224,-1.0169108549701136,0.32279670238494873
1708437943.1402073,-1.1064975261688232,-1.6811405620970667,-2.526395622883932,2.2821356493183593,-1.0168479124652308,0.32275184988975525
1708437943.1421826,-1.1064547300338745,-1.6811582050719203,-2.526407543812887,2.282184525127075,-1.0168774763690394,0.32280996441841125
1708437943.1441731,-1.106471061706543,-1.6811863384642542,-2.5264325777636927,2.2821191984364013,-1.0168865362750452,0.3227728307247162
1708437943.1462026,-1.1065667867660522,-1.6811658344664515,-2.526375118886129,2.28214876234021,-1.0169180075274866,0.3227531909942627
1708437943.1481895,-1.1064385175704956,-1.6811195812621058,-2.526428286229269,2.2821268278309326,-1.0168731848346155,0.32269972562789917
1708437943.150238,-1.1065196990966797,-1.6811777553954066,-2.5263870398150843,2.282200737590454,-1.0168941656695765,0.32268789410591125
1708437943.1522038,-1.1064622402191162,-1.6811891994872035,-2.5263989607440394,2.28217260419812,-1.0168612639056605,0.32269224524497986
1708437943.154225,-1.1065154075622559,-1.6811939678587855,-2.526379410420553,2.2821430402943115,-1.0168684164630335,0.32274559140205383
1708437943.1561959,-1.1064666509628296,-1.6811777553954066,-2.5263870398150843,2.282118006343506,-1.0168731848346155,0.3227129280567169
1708437943.1582208,-1.1065489053726196,-1.6811539135374964,-2.526407543812887,2.282181425685547,-1.0168564955340784,0.322701096534729
1708437943.1602497,-1.106553316116333,-1.6811891994872035,-2.526428286229269,2.2822083669849853,-1.0168731848346155,0.3227252662181854
1708437943.1622002,-1.1064989566802979,-1.6811744175352992,-2.5263989607440394,2.2821518617817382,-1.0169194380389612,0.32269227504730225
1708437943.1641798,-1.106532335281372,-1.6811629734435023,-2.526367489491598,2.2821475702473144,-1.0169151465045374,0.3227055072784424
1708437943.1661642,-1.1065154075622559,-1.6811405620970667,-2.526375118886129,2.2821757036396484,-1.0168898741351526,0.3227262496948242
1708437943.1681688,-1.106501817703247,-1.6811777553954066,-2.526379410420553,2.2821683126636962,-1.0168731848346155,0.32267725467681885
1708437943.170197,-1.1065107583999634,-1.6812030277647914,-2.526375118886129,2.2821237283894042,-1.0168374220477503,0.3226802945137024
1708437943.1721635,-1.1065196990966797,-1.6811524830260218,-2.526403252278463,2.2821475702473144,-1.0168774763690394,0.3227262496948242
1708437943.174157,-1.1065647602081299,-1.6811205349364222,-2.526428286229269,2.282200737590454,-1.0169227758990687,0.322701096534729
1708437943.17617,-1.1065397262573242,-1.6811672649779261,-2.526391331349508,2.2821518617817382,-1.0168731848346155,0.3227262496948242
1708437943.1781685,-1.1065188646316528,-1.6811701260008753,-2.5263708273517054,2.2821919161030273,-1.0168989340411585,0.32272958755493164
1708437943.180167,-1.1064980030059814,-1.6811658344664515,-2.526419464741842,2.2821833330341796,-1.0168808142291468,0.32268476486206055
1708437943.1822882,-1.106560230255127,-1.6811372242369593,-2.526428286229269,2.2822295862385253,-1.016869846974508,0.32271432876586914
1708437943.18421,-1.1065311431884766,-1.6811820469298304,-2.526342217122213,2.282179995174072,-1.0168655554400843,0.322701096534729
1708437943.186261,-1.1065022945404053,-1.6812111339964808,-2.526363197957174,2.282200737590454,-1.0169032255755823,0.3227306604385376
1708437943.1882224,-1.1065798997879028,-1.6811686954894007,-2.526383701954977,2.2822038370319824,-1.0168731848346155,0.3227340877056122
1708437943.190169,-1.1065062284469604,-1.6811820469298304,-2.526391331349508,2.2822038370319824,-1.0168684164630335,0.32272183895111084
1708437943.1921747,-1.106572151184082,-1.6811863384642542,-2.526375118886129,2.2822083669849853,-1.0168898741351526,0.3227055072784424
1708437943.1941798,-1.1065561771392822,-1.68119539837026,-2.526383701954977,2.2821833330341796,-1.0168855826007288,0.3226891756057739
1708437943.1961942,-1.106544017791748,-1.6811701260008753,-2.52635103860964,2.2821788030811767,-1.0168817679034632,0.32272183895111084
1708437943.1982045,-1.1065559387207031,-1.6812030277647914,-2.526395622883932,2.2821714121052246,-1.0168402830706995,0.3227055072784424
1708437943.200204,-1.1065959930419922,-1.6811911068358363,-2.526379410420553,2.282223864192627,-1.0168989340411585,0.3227055072784424
1708437943.2021868,-1.1065397262573242,-1.6811491451659144,-2.5263944307910364,2.282240076656006,-1.0168774763690394,0.3226891756057739
1708437943.2041612,-1.1065680980682373,-1.6811744175352992,-2.5263620058642786,2.2822064596363525,-1.0168564955340784,0.32273849844932556
1708437943.2061589,-1.1065343618392944,-1.6811701260008753,-2.526423756276266,2.282268448466919,-1.016869846974508,0.32272183895111084
1708437943.208214,-1.1065635681152344,-1.6811701260008753,-2.5263870398150843,2.282275839442871,-1.0168989340411585,0.3226816654205322
1708437943.210182,-1.1065311431884766,-1.6811658344664515,-2.526375118886129,2.282259626979492,-1.0168655554400843,0.32272183895111084
1708437943.212156,-1.1065473556518555,-1.6812030277647914,-2.52641207376589,2.2822345930286865,-1.0168493429767054,0.3226684331893921
1708437943.2141697,-1.1065797805786133,-1.6812111339964808,-2.526403252278463,2.2822672563740234,-1.0168817679034632,0.3227055072784424
1708437943.216199,-1.1065635681152344,-1.6811491451659144,-2.526363197957174,2.2823003965565185,-1.0168240706073206,0.3226935863494873
1708437943.2181787,-1.1065959930419922,-1.6811658344664515,-2.526379410420553,2.2822539049335937,-1.0169060865985315,0.3227340877056122
1708437943.2201617,-1.1065917015075684,-1.6811329327025355,-2.5263999144183558,2.2822672563740234,-1.0168774763690394,0.32271742820739746
1708437943.2221668,-1.1065678596496582,-1.6811863384642542,-2.526375118886129,2.2822834688374023,-1.0168655554400843,0.3227024972438812
1708437943.2241724,-1.1065635681152344,-1.6811891994872035,-2.526375118886129,2.2823285299488525,-1.0168536345111292,0.3226684331893921
1708437943.2262132,-1.1065678596496582,-1.6811610660948695,-2.526395622883932,2.2822834688374023,-1.0168283621417444,0.3227340877056122
1708437943.228218,-1.1065797805786133,-1.6811658344664515,-2.526383701954977,2.2822462755390625,-1.0168941656695765,0.32274287939071655
1708437943.2301698,-1.1065590381622314,-1.6811701260008753,-2.526407543812887,2.2822508054920654,-1.0168731848346155,0.3227055072784424
1708437943.2322025,-1.1065884828567505,-1.6811701260008753,-2.526334349309103,2.282341642970703,-1.0168774763690394,0.3226684331893921
1708437943.2342203,-1.1065473556518555,-1.6811672649779261,-2.526375118886129,2.2822539049335937,-1.0168283621417444,0.3226684331893921
1708437943.2361991,-1.1065754890441895,-1.681204458276266,-2.526363197957174,2.2822746473499755,-1.0168655554400843,0.32272183895111084
1708437943.2382293,-1.106550693511963,-1.6812073192992152,-2.526379410420553,2.2822508054920654,-1.0168193022357386,0.3227262496948242
1708437943.2401855,-1.1065797805786133,-1.6811582050719203,-2.526391331349508,2.2822958666035156,-1.0168240706073206,0.3226979970932007
1708437943.2421894,-1.1066123247146606,-1.6811539135374964,-2.5263999144183558,2.282263918513916,-1.0168564955340784,0.3227188289165497
1708437943.2441719,-1.1065635681152344,-1.681216379205221,-2.526395622883932,2.282247706050537,-1.0168493429767054,0.32270991802215576
1708437943.2462063,-1.1065473556518555,-1.6811114750304164,-2.526363197957174,2.282271547908447,-1.0168612639056605,0.3226816654205322
1708437943.2482197,-1.1065754890441895,-1.6811939678587855,-2.5264368692981165,2.2823003965565185,-1.0168536345111292,0.322701096534729
1708437943.2501576,-1.1066079139709473,-1.6811491451659144,-2.5264206568347376,2.2823375898548584,-1.0168655554400843,0.32274284958839417
1708437943.2521684,-1.1065669059753418,-1.6811539135374964,-2.5263705889331263,2.282292290324829,-1.0168326536761683,0.3226979970932007
1708437943.2541459,-1.1065505743026733,-1.6811911068358363,-2.526383701954977,2.2822553354450683,-1.0168865362750452,0.32270991802215576
1708437943.256141,-1.1065959930419922,-1.6811701260008753,-2.5263870398150843,2.2822553354450683,-1.0168536345111292,0.32272180914878845
1708437943.258145,-1.1065797805786133,-1.6811405620970667,-2.5263620058642786,2.2823092180439453,-1.0168402830706995,0.32265183329582214
1708437943.26017,-1.1065831184387207,-1.6811791859068812,-2.526367489491598,2.2823049265095214,-1.016869846974508,0.3227218985557556
1708437943.2621396,-1.1065797805786133,-1.6811672649779261,-2.526371781026022,2.282275839442871,-1.0168374220477503,0.3226935863494873
1708437943.2641747,-1.1065959930419922,-1.6811372242369593,-2.5263589064227503,2.2822958666035156,-1.0168207327472132,0.3226935863494873
1708437943.2661493,-1.1065711975097656,-1.6811582050719203,-2.526375118886129,2.282287760371826,-1.0168402830706995,0.3227011263370514
1708437943.2681649,-1.1065797805786133,-1.6812240085997523,-2.526395622883932,2.282287760371826,-1.0168817679034632,0.3227340877056122
1708437943.2701793,-1.1065874099731445,-1.6812240085997523,-2.526423756276266,2.2822553354450683,-1.0168536345111292,0.32266849279403687
1708437943.27222,-1.1066291332244873,-1.681183477441305,-2.526379410420553,2.2823003965565185,-1.0168536345111292,0.3227055072784424
1708437943.27418,-1.1065874099731445,-1.681150575677389,-2.5264206568347376,2.282292290324829,-1.0168746153460901,0.32273852825164795
1708437943.276181,-1.1066217422485352,-1.6811286411681117,-2.526383701954977,2.2822181421467285,-1.0168941656695765,0.3226891756057739
1708437943.2781584,-1.1065635681152344,-1.6811610660948695,-2.526358668004171,2.2822434145161132,-1.0168865362750452,0.3226650059223175
1708437943.2801576,-1.1065460443496704,-1.681133886376852,-2.5263870398150843,2.282247706050537,-1.0168564955340784,0.3226979970932007
1708437943.28229,-1.1066036224365234,-1.6811629734435023,-2.526375118886129,2.282287760371826,-1.0168746153460901,0.32261911034584045
1708437943.2842016,-1.1065874099731445,-1.6811582050719203,-2.5263589064227503,2.2822958666035156,-1.0168493429767054,0.32271432876586914
1708437943.2862096,-1.1065917015075684,-1.6811539135374964,-2.526363197957174,2.2823120790668945,-1.016869846974508,0.32267725467681885
1708437943.2882035,-1.1065592765808105,-1.681124826470846,-2.5264325777636927,2.2822834688374023,-1.0168774763690394,0.3226935863494873
1708437943.2901971,-1.1065948009490967,-1.681150575677389,-2.5263989607440394,2.2822627264210205,-1.0168655554400843,0.3226235508918762
1708437943.2922053,-1.1065711975097656,-1.681155344048971,-2.526391331349508,2.2822553354450683,-1.0168326536761683,0.3227130174636841
1708437943.2942083,-1.1065785884857178,-1.6811448536314906,-2.526383701954977,2.2822462755390625,-1.016869846974508,0.32272323966026306
1708437943.2962265,-1.1065669059753418,-1.6811791859068812,-2.526391331349508,2.2822388845631103,-1.0168817679034632,0.32273852825164795
1708437943.298221,-1.1065505743026733,-1.6811672649779261,-2.5263870398150843,2.2822388845631103,-1.0168612639056605,0.322702556848526
1708437943.3001747,-1.1065754890441895,-1.681183477441305,-2.526367489491598,2.2822553354450683,-1.016857926045553,0.32267725467681885
1708437943.3021708,-1.1066123247146606,-1.6811582050719203,-2.52641207376589,2.2822672563740234,-1.016869846974508,0.32268476486206055
1708437943.304204,-1.1065473556518555,-1.681129594842428,-2.5263500849353235,2.2822672563740234,-1.0168493429767054,0.3226605951786041
1708437943.3061721,-1.1065505743026733,-1.6811791859068812,-2.526363197957174,2.282280369395874,-1.0168326536761683,0.32271429896354675
1708437943.3081784,-1.1065797805786133,-1.6811791859068812,-2.5263379255877894,2.2823211389729003,-1.016899887715475,0.3227306306362152
1708437943.310176,-1.1065548658370972,-1.6811582050719203,-2.526372019444601,2.282271547908447,-1.0168121496783655,0.3226935863494873
1708437943.312179,-1.1065797805786133,-1.681253572503561,-2.5263827482806605,2.2822834688374023,-1.0168493429767054,0.3226935863494873
1708437943.3141763,-1.1065831184387207,-1.681199689904684,-2.5264325777636927,2.282263918513916,-1.0168817679034632,0.32265618443489075
1708437943.3161678,-1.1065473556518555,-1.6811610660948695,-2.5263705889331263,2.28227607786145,-1.0168817679034632,0.32274726033210754
1708437943.3181584,-1.106584072113037,-1.6811090908446253,-2.5263989607440394,2.2822345930286865,-1.0168536345111292,0.3227055072784424
1708437943.320154,-1.1066123247146606,-1.6811491451659144,-2.5263870398150843,2.282329960460327,-1.016890827809469,0.3226979672908783
1708437943.3221467,-1.106584072113037,-1.6811415157713832,-2.526428286229269,2.2823211389729003,-1.0169194380389612,0.32264426350593567
1708437943.3242085,-1.1066079139709473,-1.6812030277647914,-2.5263999144183558,2.2822672563740234,-1.0168445746051233,0.3226650059223175
1708437943.3261824,-1.1065711975097656,-1.6811415157713832,-2.526363197957174,2.2822434145161132,-1.016869846974508,0.3226979970932007
1708437943.328207,-1.1065917015075684,-1.681133886376852,-2.5263379255877894,2.2823092180439453,-1.016890827809469,0.3226816654205322
1708437943.3301997,-1.1065505743026733,-1.681084772149557,-2.526375118886129,2.2822508054920654,-1.0169032255755823,0.32265618443489075
1708437943.3322048,-1.1066080331802368,-1.681133886376852,-2.526371781026022,2.2822553354450683,-1.0168374220477503,0.3226605951786041
1708437943.3342173,-1.1066036224365234,-1.681199689904684,-2.5263870398150843,2.282263918513916,-1.0168865362750452,0.3226649761199951
1708437943.3362274,-1.1065592765808105,-1.681129594842428,-2.526346747075216,2.282271547908447,-1.0169032255755823,0.3226979970932007
1708437943.3382208,-1.1065218448638916,-1.6811629734435023,-2.526379410420553,2.282287760371826,-1.016869846974508,0.3226517140865326
1708437943.3402019,-1.1065874099731445,-1.681133886376852,-2.5264490286456507,2.282287760371826,-1.0168445746051233,0.32267725467681885
1708437943.3421783,-1.1066046953201294,-1.6811911068358363,-2.526419464741842,2.2822388845631103,-1.016869846974508,0.32265758514404297
1708437943.3441935,-1.1065754890441895,-1.681124826470846,-2.526395622883932,2.2822345930286865,-1.0168564955340784,0.3226935863494873
1708437943.3461847,-1.1065754890441895,-1.681124826470846,-2.5264325777636927,2.2823003965565185,-1.0168774763690394,0.32265618443489075
1708437943.3482287,-1.1065764427185059,-1.6812240085997523,-2.526346747075216,2.282287760371826,-1.016928497944967,0.3227024972438812
1708437943.3501744,-1.1065800189971924,-1.6811791859068812,-2.526330057774679,2.2822434145161132,-1.0168898741351526,0.3226935863494873
1708437943.3521795,-1.1065669059753418,-1.6811672649779261,-2.5263379255877894,2.2821943002888183,-1.0168417135821741,0.32266947627067566
1708437943.354167,-1.1065592765808105,-1.6811205349364222,-2.526367489491598,2.2822300630756835,-1.0168612639056605,0.32267725467681885
1708437943.356183,-1.1065678596496582,-1.6811415157713832,-2.5264163653003138,2.2822300630756835,-1.0168536345111292,0.32266947627067566
1708437943.35821,-1.1065311431884766,-1.68119539837026,-2.5263589064227503,2.282292290324829,-1.0168522039996546,0.3227024972438812
1708437943.360238,-1.1066253185272217,-1.6811582050719203,-2.5263782183276575,2.282247706050537,-1.0168493429767054,0.3226816654205322
1708437943.3621624,-1.1065386533737183,-1.6811629734435023,-2.526367489491598,2.2822150427052,-1.0168989340411585,0.32267725467681885
1708437943.3641937,-1.1066046953201294,-1.6811791859068812,-2.526395622883932,2.2823054033466796,-1.0168731848346155,0.3226605951786041
1708437943.3661618,-1.1065635681152344,-1.6811791859068812,-2.526375118886129,2.282271547908447,-1.0168731848346155,0.3226979970932007
1708437943.3681576,-1.1065797805786133,-1.6811133823790492,-2.5263827482806605,2.282284660930298,-1.0169032255755823,0.32263684272766113
1708437943.370157,-1.1065635681152344,-1.6811047993102015,-2.5263662973987024,2.282247706050537,-1.0168564955340784,0.32269057631492615
1708437943.372155,-1.1065884828567505,-1.6811744175352992,-2.526363197957174,2.282231493587158,-1.0168731848346155,0.3226891756057739
1708437943.374152,-1.106584072113037,-1.6812287769713343,-2.5263870398150843,2.2821943002888183,-1.0168817679034632,0.32268616557121277
1708437943.3761485,-1.1065549850463867,-1.6811744175352992,-2.526379410420553,2.2822281557270507,-1.0169108549701136,0.32268616557121277
1708437943.3781629,-1.1065592765808105,-1.6811133823790492,-2.5263500849353235,2.282263918513916,-1.0168731848346155,0.32264426350593567
1708437943.3801925,-1.1066004037857056,-1.681183477441305,-2.5263708273517054,2.282268448466919,-1.016857926045553,0.3226935863494873
1708437943.3822393,-1.106572151184082,-1.6811877689757289,-2.5263925234424036,2.2822553354450683,-1.0168865362750452,0.32264867424964905
1708437943.384175,-1.1065354347229004,-1.6811415157713832,-2.526379410420553,2.2822388845631103,-1.0168402830706995,0.32273969054222107
1708437943.3862045,-1.1065797805786133,-1.6811162434019984,-2.526379410420553,2.2822269636341552,-1.0169075171100062,0.32267725467681885
1708437943.3881733,-1.1065919399261475,-1.6811672649779261,-2.5264044443713587,2.2822150427052,-1.0168655554400843,0.32268616557121277
1708437943.3901703,-1.1065797805786133,-1.681129594842428,-2.526379410420553,2.282296581859253,-1.0168855826007288,0.32268476486206055
1708437943.392165,-1.1065853834152222,-1.6811701260008753,-2.526367489491598,2.2822446066090087,-1.0169270674334925,0.322711318731308
1708437943.3941712,-1.1065473556518555,-1.6811744175352992,-2.5263589064227503,2.2823054033466796,-1.0168941656695765,0.3226245939731598
1708437943.3962152,-1.1065711975097656,-1.6811372242369593,-2.526383701954977,2.2822107511707763,-1.0168774763690394,0.32266950607299805
1708437943.398178,-1.1065430641174316,-1.681150575677389,-2.526407543812887,2.2822226720997314,-1.0168898741351526,0.3226650059223175
1708437943.4001517,-1.1065764427185059,-1.6811582050719203,-2.526379410420553,2.282268448466919,-1.0168774763690394,0.32269057631492615
1708437943.4021714,-1.1065917015075684,-1.6811582050719203,-2.5263879934894007,2.282231493587158,-1.0168941656695765,0.32263684272766113
1708437943.404162,-1.1065809726715088,-1.6811462841429652,-2.526379410420553,2.282247706050537,-1.0169313589679163,0.3226664960384369
1708437943.406168,-1.1065224409103394,-1.6811415157713832,-2.52635103860964,2.2821988302418212,-1.0168359915362757,0.32266950607299805
1708437943.4081595,-1.1065678596496582,-1.6811658344664515,-2.526395622883932,2.282256527537964,-1.0168898741351526,0.3226949870586395
1708437943.4101658,-1.1065844297409058,-1.681150575677389,-2.526391331349508,2.2822491365620117,-1.0169151465045374,0.3226531744003296
1708437943.412158,-1.1065192222595215,-1.6811381779112757,-2.5263870398150843,2.282231493587158,-1.0169180075274866,0.3226323425769806
1708437943.414166,-1.1065635681152344,-1.6811877689757289,-2.526423994694845,2.282190724010132,-1.0169017950641077,0.3226783275604248
1708437943.4161704,-1.1065765619277954,-1.6811629734435023,-2.5263999144183558,2.2822269636341552,-1.0169108549701136,0.3226739168167114
1708437943.4181826,-1.1065397262573242,-1.6811629734435023,-2.526403252278463,2.282211943263672,-1.0168927351581019,0.32264867424964905
1708437943.42017,-1.1065516471862793,-1.6811863384642542,-2.5263589064227503,2.2822150427052,-1.0169103781329554,0.3226412534713745
1708437943.4221547,-1.106530785560608,-1.6811658344664515,-2.5264163653003138,2.282284660930298,-1.0169060865985315,0.3226605951786041
1708437943.4241626,-1.1065559387207031,-1.6811448536314906,-2.526395622883932,2.282174273128174,-1.0169256369220179,0.3226379156112671
1708437943.426168,-1.1065232753753662,-1.6811629734435023,-2.5264490286456507,2.282211943263672,-1.0169599691974085,0.3226783275604248
1708437943.4281955,-1.1065726280212402,-1.681155344048971,-2.526423756276266,2.2822326856800537,-1.0169137159930628,0.3226456642150879
1708437943.430174,-1.1065062284469604,-1.681133886376852,-2.5263705889331263,2.2822446066090087,-1.0169180075274866,0.32265758514404297
1708437943.4322264,-1.106494665145874,-1.6811286411681117,-2.5264044443713587,2.282223864192627,-1.0169346968280237,0.32265758514404297
1708437943.4341784,-1.1065647602081299,-1.6812206707396449,-2.5263827482806605,2.282181902522705,-1.016888443623678,0.3226126432418823
1708437943.4361858,-1.1065022945404053,-1.6811701260008753,-2.526379410420553,2.282190724010132,-1.0169714132892054,0.3226949870586395
1708437943.4381783,-1.106506586074829,-1.6811448536314906,-2.5264163653003138,2.2821788030811767,-1.0169509092914026,0.32266199588775635
1708437943.4401715,-1.106532335281372,-1.6811491451659144,-2.526419464741842,2.2821668821522216,-1.0169833342181605,0.3226590156555176
1708437943.4421768,-1.1065149307250977,-1.681129594842428,-2.5264652411090296,2.2821995454975585,-1.016949478779928,0.32265016436576843
1708437943.444162,-1.106510877609253,-1.681124826470846,-2.526423756276266,2.2821518617817382,-1.0169451872455042,0.3226126432418823
1708437943.4461927,-1.1065154075622559,-1.6811672649779261,-2.5263620058642786,2.2821072775074462,-1.016937557850973,0.3226546049118042
1708437943.4481876,-1.1065107583999634,-1.6811672649779261,-2.5263662973987024,2.282078428859375,-1.016998593007223,0.322576642036438
1708437943.450164,-1.106506586074829,-1.681183477441305,-2.5263424555407923,2.282094641322754,-1.0169780890094202,0.3225918710231781
1708437943.4521658,-1.106510877609253,-1.6811133823790492,-2.5263944307910364,2.282120628947876,-1.0169361273394983,0.3226260244846344
1708437943.4541728,-1.1065528392791748,-1.6811205349364222,-2.5264368692981165,2.282005711192749,-1.0169780890094202,0.3225603997707367
1708437943.4561567,-1.106506586074829,-1.6811372242369593,-2.5263946692096155,2.2821037012287597,-1.0169695059405726,0.32263484597206116
1708437943.458183,-1.1065278053283691,-1.6811329327025355,-2.526391331349508,2.282153292293213,-1.016998593007223,0.32258108258247375
1708437943.4601605,-1.1065528392791748,-1.681150575677389,-2.5263879934894007,2.2820517259785156,-1.016989533101217,0.3226066827774048
1708437943.4621437,-1.1064903736114502,-1.6810876331725062,-2.526407543812887,2.28206650793042,-1.0169571081744593,0.3225201964378357
1708437943.4641578,-1.1065154075622559,-1.681129594842428,-2.5263827482806605,2.2821006017872314,-1.016998593007223,0.3225706219673157
1708437943.4661486,-1.106494665145874,-1.6811429462828578,-2.5263989607440394,2.282082720393799,-1.0169780890094202,0.32254135608673096
1708437943.4681585,-1.1065154075622559,-1.6811205349364222,-2.526367489491598,2.282078428859375,-1.0169523398028772,0.32252904772758484
1708437943.4701648,-1.1065369844436646,-1.6811539135374964,-2.526391331349508,2.282087488765381,-1.016961399708883,0.3225052058696747
1708437943.4721699,-1.1064631938934326,-1.6811911068358363,-2.526403252278463,2.282078428859375,-1.0169943014727991,0.322542279958725
1708437943.474174,-1.106499195098877,-1.6811157665648402,-2.5263662973987024,2.2820755678364257,-1.0169780890094202,0.32251712679862976
1708437943.4761722,-1.106545329093933,-1.6811629734435023,-2.526403252278463,2.282169743175171,-1.0170186201678675,0.32251274585723877
1708437943.4781785,-1.1064342260360718,-1.6811539135374964,-2.52641207376589,2.282054825420044,-1.0169523398028772,0.32253339886665344
1708437943.4801743,-1.106441617012024,-1.6811791859068812,-2.526428286229269,2.282099171275757,-1.0170066992389124,0.32251402735710144
1708437943.4821897,-1.1065120697021484,-1.681199689904684,-2.526423756276266,2.282121105785034,-1.0169571081744593,0.3225500285625458
1708437943.4842415,-1.106532335281372,-1.6811162434019984,-2.5263989607440394,2.2821294504353027,-1.0169695059405726,0.32248106598854065
1708437943.4861927,-1.1064667701721191,-1.6811744175352992,-2.526391331349508,2.282078428859375,-1.0169361273394983,0.3225170969963074
1708437943.4882374,-1.1064342260360718,-1.6811701260008753,-2.52641207376589,2.2820591169544677,-1.016989533101217,0.32257941365242004
1708437943.4901752,-1.1064839363098145,-1.681155344048971,-2.526375118886129,2.2821249204822998,-1.0169480482684534,0.32253479957580566
1708437943.4921885,-1.1064796447753906,-1.6811911068358363,-2.526407543812887,2.282116098994873,-1.0170186201678675,0.3225378692150116
1708437943.4941697,-1.106494665145874,-1.681176324883932,-2.5263989607440394,2.2821575838276367,-1.0169604460345667,0.32256779074668884
1708437943.496215,-1.1064634323120117,-1.6811672649779261,-2.5264163653003138,2.282094879741333,-1.0170019308673304,0.322517067193985
1708437943.4982095,-1.1065154075622559,-1.6811701260008753,-2.526407543812887,2.28214876234021,-1.0169943014727991,0.3225705623626709
1708437943.5001771,-1.106499195098877,-1.6811491451659144,-2.526407543812887,2.2820755678364257,-1.0169943014727991,0.3225705623626709
1708437943.502174,-1.1065154075622559,-1.6811415157713832,-2.526407543812887,2.282087488765381,-1.0169571081744593,0.3225184679031372
1708437943.5041757,-1.106471061706543,-1.6811791859068812,-2.5263662973987024,2.282116098994873,-1.0169976393329065,0.322537899017334
1708437943.5061677,-1.1065154075622559,-1.681150575677389,-2.526407543812887,2.282116098994873,-1.016961399708883,0.32253479957580566
1708437943.5081792,-1.106532335281372,-1.6811448536314906,-2.526391331349508,2.2821037012287597,-1.0169809500323694,0.32250964641571045
1708437943.5101562,-1.1064796447753906,-1.681124826470846,-2.5263705889331263,2.2821079927631835,-1.0169604460345667,0.32253336906433105
1708437943.512166,-1.1064385175704956,-1.681096693078512,-2.526375118886129,2.2821037012287597,-1.0169571081744593,0.3225589990615845
1708437943.5141678,-1.1064839363098145,-1.681133886376852,-2.526375118886129,2.2821037012287597,-1.0169695059405726,0.3225215673446655
1708437943.5161526,-1.1065369844436646,-1.6811181507506312,-2.5263589064227503,2.282087488765381,-1.0169361273394983,0.32251274585723877
1708437943.5181499,-1.1064796447753906,-1.6811133823790492,-2.5264151732074183,2.282125158900879,-1.0169943014727991,0.3225303888320923
1708437943.5201635,-1.106471061706543,-1.6811658344664515,-2.5264108816729944,2.282120628947876,-1.0169604460345667,0.3225215673446655
1708437943.5221741,-1.1064558029174805,-1.68119539837026,-2.526391331349508,2.2821079927631835,-1.016998593007223,0.3225303888320923
1708437943.5241868,-1.106499195098877,-1.6811658344664515,-2.526407543812887,2.2821006017872314,-1.0170272032367151,0.322488933801651
1708437943.5261745,-1.1064677238464355,-1.6811043224730433,-2.5263827482806605,2.2821456628986816,-1.0169718901263636,0.32254230976104736
1708437943.528202,-1.1064796447753906,-1.6811539135374964,-2.526423756276266,2.2821168142506103,-1.0170186201678675,0.32250073552131653
1708437943.5302012,-1.1064472198486328,-1.68119539837026,-2.5264151732074183,2.2821037012287597,-1.0170186201678675,0.322537899017334
1708437943.5322196,-1.1064472198486328,-1.6811205349364222,-2.526407543812887,2.2821003633686523,-1.0169647375689905,0.3225259780883789
1708437943.53421,-1.1064720153808594,-1.6811629734435023,-2.5264435450183313,2.28209034978833,-1.016989533101217,0.322537899017334
1708437943.5362213,-1.1064677238464355,-1.681133886376852,-2.5263989607440394,2.2821575838276367,-1.0170019308673304,0.322517067193985
1708437943.538211,-1.1064547300338745,-1.6811877689757289,-2.526395622883932,2.282132311458252,-1.0169695059405726,0.3225215673446655
1708437943.5402591,-1.1064634323120117,-1.6811744175352992,-2.526428286229269,2.282071037883423,-1.0169737974749964,0.32247665524482727
1708437943.5421965,-1.1064547300338745,-1.681150575677389,-2.526407543812887,2.282078428859375,-1.0170019308673304,0.32254230976104736
1708437943.5442095,-1.106471061706543,-1.681124826470846,-2.5263870398150843,2.282120628947876,-1.0170186201678675,0.32253479957580566
1708437943.5461745,-1.1064763069152832,-1.681155344048971,-2.5263662973987024,2.282082720393799,-1.0170066992389124,0.32254230976104736
1708437943.5481968,-1.1065207719802856,-1.6811100445189417,-2.526440445576803,2.282111807460449,-1.0170062224017542,0.3225259780883789
1708437943.550283,-1.1064926385879517,-1.6811381779112757,-2.5263989607440394,2.282054825420044,-1.0170348326312464,0.322517067193985
1708437943.5522118,-1.1064634323120117,-1.6811629734435023,-2.5263989607440394,2.28206650793042,-1.017036263142721,0.3225259780883789
1708437943.5541654,-1.1064547300338745,-1.6811162434019984,-2.526423994694845,2.282125158900879,-1.0169394651996058,0.3225303888320923
1708437943.5561855,-1.1065164804458618,-1.6810876331725062,-2.5263989607440394,2.28214876234021,-1.0169695059405726,0.3225749731063843
1708437943.5581632,-1.1064720153808594,-1.6811672649779261,-2.5263827482806605,2.282099171275757,-1.0170019308673304,0.3224889039993286
1708437943.5601904,-1.1064796447753906,-1.6811133823790492,-2.526423756276266,2.2821079927631835,-1.0169976393329065,0.3225184679031372
1708437943.562156,-1.1064385175704956,-1.6811429462828578,-2.526423756276266,2.282099171275757,-1.0170095602618616,0.32253479957580566
1708437943.5641716,-1.1064223051071167,-1.681133886376852,-2.526403252278463,2.282132311458252,-1.0169933477984827,0.3225545585155487
1708437943.5661488,-1.1065250635147095,-1.681150575677389,-2.5264151732074183,2.282111807460449,-1.0169523398028772,0.3225184679031372
1708437943.5681574,-1.1064807176589966,-1.681129594842428,-2.5263989607440394,2.282094879741333,-1.0169852415667933,0.3225545585155487
1708437943.5701494,-1.1065539121627808,-1.681150575677389,-2.5263946692096155,2.2821621137806396,-1.0169761816607874,0.3225215673446655
1708437943.572155,-1.1064720153808594,-1.681122442285055,-2.5264108816729944,2.28214876234021,-1.0169943014727991,0.3225215673446655
1708437943.5741484,-1.1065034866333008,-1.6811047993102015,-2.5263827482806605,2.28209034978833,-1.0169976393329065,0.3225184679031372
1708437943.576153,-1.106471061706543,-1.6811043224730433,-2.5263989607440394,2.282111807460449,-1.0170062224017542,0.32250213623046875
1708437943.578155,-1.1065250635147095,-1.681150575677389,-2.5264273325549524,2.282128019923828,-1.0169933477984827,0.322517067193985
1708437943.5801673,-1.1064558029174805,-1.6811415157713832,-2.5264230410205286,2.282144232387207,-1.016961399708883,0.3225215673446655
1708437943.5822103,-1.1064720153808594,-1.681129594842428,-2.526419464741842,2.282099171275757,-1.0170019308673304,0.322493314743042
1708437943.584223,-1.1065154075622559,-1.6811582050719203,-2.5264316240893763,2.2821237283894042,-1.0169761816607874,0.3225303888320923
1708437943.5861752,-1.1064308881759644,-1.6811133823790492,-2.5264316240893763,2.2821037012287597,-1.0169809500323694,0.32251405715942383
1708437943.588194,-1.1064882278442383,-1.681155344048971,-2.5264392534839075,2.282082720393799,-1.0169604460345667,0.3225545585155487
1708437943.590175,-1.1065326929092407,-1.6811181507506312,-2.5264151732074183,2.282153292293213,-1.0169809500323694,0.3225545585155487
1708437943.5921805,-1.1064472198486328,-1.6811415157713832,-2.526423756276266,2.2821037012287597,-1.0169885794269007,0.32249772548675537
1708437943.5941665,-1.1064677238464355,-1.6811181507506312,-2.526464287434713,2.282094879741333,-1.0169852415667933,0.32248106598854065
1708437943.5961854,-1.1064763069152832,-1.681133886376852,-2.526423756276266,2.282094879741333,-1.0170138517962855,0.32250523567199707
1708437943.5982416,-1.1064796447753906,-1.6811672649779261,-2.5264435450183313,2.2821683126636962,-1.0170186201678675,0.3225437104701996
1708437943.6001859,-1.1064634323120117,-1.6811758480467738,-2.526403252278463,2.28214876234021,-1.0169604460345667,0.3225259780883789
1708437943.6021614,-1.1064504384994507,-1.6811462841429652,-2.5263989607440394,2.2821268278309326,-1.017043415700094,0.3225303888320923
1708437943.6041708,-1.1064839363098145,-1.6811090908446253,-2.5264316240893763,2.282160683269165,-1.0170019308673304,0.32253339886665344
1708437943.6061559,-1.106499195098877,-1.6811672649779261,-2.5264063517199915,2.282153292293213,-1.0169718901263636,0.3225347697734833
1708437943.6081617,-1.1064720153808594,-1.6811672649779261,-2.5264151732074183,2.282116098994873,-1.0170019308673304,0.3224889039993286
1708437943.6101596,-1.1065120697021484,-1.6811181507506312,-2.5264316240893763,2.282120628947876,-1.0169842878924769,0.3225303888320923
1708437943.6121867,-1.1065701246261597,-1.6811472378172816,-2.5264108816729944,2.2821518617817382,-1.0170138517962855,0.3224964141845703
1708437943.6141977,-1.1064796447753906,-1.681100984612936,-2.5264599959002894,2.2821237283894042,-1.0170186201678675,0.3225184679031372
1708437943.6161942,-1.1064796447753906,-1.6811520061888636,-2.526418749486105,2.2821103769489746,-1.0169480482684534,0.3225303888320923
1708437943.6181653,-1.1064547300338745,-1.681129594842428,-2.5264230410205286,2.282160683269165,-1.0169976393329065,0.32250073552131653
1708437943.620184,-1.1065154075622559,-1.681133886376852,-2.526447836552755,2.2821621137806396,-1.0169976393329065,0.3225511312484741
1708437943.622154,-1.1064504384994507,-1.681084772149557,-2.5264316240893763,2.2821237283894042,-1.0169852415667933,0.3225545585155487
1708437943.6241648,-1.1065326929092407,-1.6811381779112757,-2.526397768651144,2.2821268278309326,-1.0169761816607874,0.32254230976104736
1708437943.626161,-1.106528401374817,-1.681176324883932,-2.5264151732074183,2.282132549876831,-1.016989533101217,0.32249772548675537
1708437943.6282585,-1.106528401374817,-1.681084772149557,-2.5264316240893763,2.2821637827106933,-1.0169852415667933,0.32253342866897583
1708437943.630207,-1.1064677238464355,-1.6811181507506312,-2.5264676252948206,2.282128019923828,-1.0169976393329065,0.3225458264350891
1708437943.632197,-1.106499195098877,-1.681150575677389,-2.5264304319964808,2.2821976381489257,-1.0170272032367151,0.3224889039993286
1708437943.6341906,-1.1064180135726929,-1.6811629734435023,-2.526393238698141,2.2821575838276367,-1.0169523398028772,0.32251402735710144
1708437943.6362107,-1.1064504384994507,-1.681084772149557,-2.5264230410205286,2.282139940852783,-1.0169852415667933,0.3225545585155487
1708437943.6382012,-1.1065154075622559,-1.6811267338194789,-2.5264151732074183,2.28211156904187,-1.0169809500323694,0.3224889039993286
1708437943.6401734,-1.106499195098877,-1.6811381779112757,-2.5264926592456263,2.28209034978833,-1.0170019308673304,0.32254230976104736
1708437943.642163,-1.1065154075622559,-1.6811181507506312,-2.5264838377581995,2.2821311193653564,-1.0170095602618616,0.3225216269493103
1708437943.644171,-1.1064622402191162,-1.6811672649779261,-2.5264108816729944,2.2821921545216064,-1.0169852415667933,0.32251405715942383
1708437943.6461797,-1.1065154075622559,-1.6811267338194789,-2.5264151732074183,2.2821311193653564,-1.0169761816607874,0.3225545883178711
1708437943.64822,-1.1065369844436646,-1.681084772149557,-2.5264838377581995,2.282217188472412,-1.0170257727252405,0.3225184381008148
1708437943.6502013,-1.106537103652954,-1.6811100445189417,-2.526414219533102,2.282139940852783,-1.0169695059405726,0.32251405715942383
1708437943.6521628,-1.1065154075622559,-1.6811100445189417,-2.5264273325549524,2.2821268278309326,-1.0170019308673304,0.3225722312927246
1708437943.6541488,-1.1064547300338745,-1.6811596355833949,-2.52649695078005,2.2821876245686035,-1.0169809500323694,0.3224932849407196
1708437943.656156,-1.1064989566802979,-1.681124826470846,-2.5264151732074183,2.282139940852783,-1.016989533101217,0.32254675030708313
1708437943.6581454,-1.1064504384994507,-1.6811672649779261,-2.526447836552755,2.282179995174072,-1.0170186201678675,0.32253792881965637
1708437943.6601472,-1.1065605878829956,-1.6811381779112757,-2.5264480749713343,2.282188816661499,-1.016951862965719,0.32250523567199707
1708437943.6621466,-1.1065332889556885,-1.681133886376852,-2.5264557043658655,2.2822083669849853,-1.0170186201678675,0.32249772548675537
1708437943.6641593,-1.1064943075180054,-1.681133886376852,-2.5264230410205286,2.2821222978779296,-1.0170109907733362,0.32250526547431946
1708437943.6661475,-1.1065559387207031,-1.6811181507506312,-2.5264435450183313,2.2820984560200195,-1.0169852415667933,0.3224933445453644
1708437943.6681733,-1.106536626815796,-1.681129594842428,-2.5264514128314417,2.2821594911762695,-1.0169652144061487,0.32250073552131653
1708437943.6701705,-1.106510877609253,-1.6811381779112757,-2.52643067041506,2.2821268278309326,-1.0169761816607874,0.3225215673446655
1708437943.6721773,-1.106577754020691,-1.681105752984518,-2.5264273325549524,2.2821311193653564,-1.0170138517962855,0.32255998253822327
1708437943.6741462,-1.1064666509628296,-1.6810933552184046,-2.5264392534839075,2.282129927272461,-1.0169695059405726,0.32253342866897583
1708437943.6761646,-1.106577754020691,-1.6811100445189417,-2.5264514128314417,2.2822207647510986,-1.0169852415667933,0.3225545585155487
1708437943.6781588,-1.1065324544906616,-1.6810890636839808,-2.5264838377581995,2.282085342998169,-1.0169695059405726,0.32248446345329285
1708437943.6801753,-1.1065278053283691,-1.681131502191061,-2.526409927998678,2.2821876245686035,-1.0170257727252405,0.3225170373916626
1708437943.6821885,-1.106494665145874,-1.6811100445189417,-2.5264273325549524,2.2821964460560302,-1.0170186201678675,0.3225545585155487
1708437943.6842155,-1.1065765619277954,-1.681084772149557,-2.5264065901385706,2.2821225362965087,-1.0170186201678675,0.32253339886665344
1708437943.6861813,-1.1065232753753662,-1.681131502191061,-2.526372734700338,2.2822040754505615,-1.0169933477984827,0.3225259780883789
1708437943.68822,-1.106572151184082,-1.6810933552184046,-2.5264514128314417,2.2822207647510986,-1.0169852415667933,0.3225511312484741
1708437943.6901734,-1.106584072113037,-1.6810933552184046,-2.5264392534839075,2.2821919161030273,-1.0169809500323694,0.3225511312484741
1708437943.6921682,-1.1065022945404053,-1.681084772149557,-2.526447121297018,2.282235785121582,-1.0170348326312464,0.3225511312484741
1708437943.694172,-1.1065516471862793,-1.6810561619200648,-2.526388947163717,2.282223864192627,-1.0170138517962855,0.322537899017334
1708437943.696197,-1.106560230255127,-1.681100984612936,-2.5264392534839075,2.282247706050537,-1.0169523398028772,0.3225882351398468
1708437943.6982305,-1.1065354347229004,-1.6810652218260707,-2.5264392534839075,2.282346172923706,-1.0170062224017542,0.32253342866897583
1708437943.700194,-1.1065592765808105,-1.6811357937254847,-2.5264676252948206,2.2823330599018554,-1.0170019308673304,0.3225259482860565
1708437943.7021646,-1.1065559387207031,-1.6810699901976527,-2.5264599959002894,2.2823211389729003,-1.0169852415667933,0.322537899017334
1708437943.7041595,-1.1065267324447632,-1.6810652218260707,-2.5264435450183313,2.282298966045044,-1.0170062224017542,0.3225170373916626
1708437943.70615,-1.106572151184082,-1.6810771427550257,-2.526414457951681,2.2823197084614257,-1.0169809500323694,0.32254230976104736
1708437943.7081585,-1.1065267324447632,-1.6809960804381312,-2.526459042225973,2.282310886973999,-1.0170019308673304,0.322537899017334
1708437943.7101538,-1.1065797805786133,-1.680986066857809,-2.526409927998678,2.282359762782715,-1.0170019308673304,0.3225259780883789
1708437943.7121642,-1.1065919399261475,-1.6810304127135218,-2.5264645258532923,2.2823685842701416,-1.0170186201678675,0.3225546181201935
1708437943.714182,-1.1065505743026733,-1.680981298486227,-2.5264065901385706,2.282346649760864,-1.016989533101217,0.32250073552131653
1708437943.7161708,-1.106554627418518,-1.680997987786764,-2.526414219533102,2.282360001201294,-1.0170138517962855,0.3225259780883789
1708437943.7181485,-1.1065418720245361,-1.6810232601561488,-2.526475254689352,2.282339258784912,-1.0169885794269007,0.3225083351135254
1708437943.720153,-1.106529951095581,-1.681051870385641,-2.5264349619494837,2.2823523718067626,-1.016989533101217,0.3225184679031372
1708437943.722148,-1.1065592765808105,-1.6810275516905726,-2.5264304319964808,2.282339258784912,-1.0169718901263636,0.32253342866897583
1708437943.724163,-1.1065993309020996,-1.6810275516905726,-2.52649695078005,2.282376213664673,-1.0170186201678675,0.3225259780883789
1708437943.7261443,-1.1065311431884766,-1.6809660396971644,-2.5264557043658655,2.2823523718067626,-1.0170186201678675,0.32254230976104736
1708437943.7281926,-1.1066248416900635,-1.6809903583922328,-2.5264840761767786,2.2823642927357177,-1.0170109907733362,0.32254230976104736
1708437943.730222,-1.1065797805786133,-1.6809383831419886,-2.5264645258532923,2.282327099437378,-1.0170109907733362,0.32251405715942383
1708437943.73221,-1.1065844297409058,-1.6809569797911585,-2.526442591344015,2.282388134593628,-1.0169695059405726,0.32254573702812195
1708437943.7342286,-1.1065800189971924,-1.6809612713255824,-2.526418749486105,2.2823642927357177,-1.0170062224017542,0.3225705623626709
1708437943.7362497,-1.1065678596496582,-1.6809293232359828,-2.526458803807394,2.2823967176624755,-1.016961399708883,0.3225545585155487
1708437943.7382092,-1.106554627418518,-1.6809307537474574,-2.5265210310565394,2.2823850351520996,-1.0169652144061487,0.32255005836486816
1708437943.7401874,-1.1066036224365234,-1.6809455356993617,-2.526475254689352,2.2824181753345947,-1.0170272032367151,0.32253479957580566
1708437943.7421775,-1.1065874099731445,-1.6809503040709437,-2.526475254689352,2.2823731142231445,-1.0169761816607874,0.32254132628440857
1708437943.7441642,-1.1065948009490967,-1.6809455356993617,-2.526458803807394,2.282376213664673,-1.0169976393329065,0.3225184679031372
1708437943.7462614,-1.1066253185272217,-1.6809874973692835,-2.526442829762594,2.282343550319336,-1.0169652144061487,0.32254672050476074
1708437943.7482061,-1.1065874099731445,-1.6809569797911585,-2.526447121297018,2.282367392177246,-1.0169652144061487,0.322537899017334
1708437943.750216,-1.106607437133789,-1.680979391137594,-2.526466433201925,2.2823805051990966,-1.0169809500323694,0.32250523567199707
1708437943.7522182,-1.1065993309020996,-1.6809455356993617,-2.5264108816729944,2.2823359209248046,-1.0169885794269007,0.32254230976104736
1708437943.7541907,-1.106623649597168,-1.6809703312315882,-2.5264795462237757,2.282388134593628,-1.0169761816607874,0.32250523567199707
1708437943.7561748,-1.1066031455993652,-1.6809994182982386,-2.5264435450183313,2.282383604640625,-1.0170095602618616,0.32254672050476074
1708437943.758174,-1.1066193580627441,-1.6809503040709437,-2.5264676252948206,2.282409353847168,-1.0169523398028772,0.32256338000297546
1708437943.7602499,-1.1066604852676392,-1.681014200250143,-2.5264230410205286,2.28237168371167,-1.0170019308673304,0.32253339886665344
1708437943.7621953,-1.106594443321228,-1.6809741459288539,-2.5264645258532923,2.2823962408253173,-1.0170229117022913,0.3225545585155487
1708437943.7641747,-1.1066147089004517,-1.6809569797911585,-2.5264959971057337,2.2823211389729003,-1.0170257727252405,0.3225290775299072
1708437943.7661638,-1.106623649597168,-1.6810113392271937,-2.5264514128314417,2.2824176984974365,-1.0170138517962855,0.3225511312484741
1708437943.7681568,-1.1066031455993652,-1.6810065708556117,-2.5264795462237757,2.282388134593628,-1.0169652144061487,0.3225290775299072
1708437943.7701843,-1.1066886186599731,-1.680965086022848,-2.5264304319964808,2.282363100642822,-1.0170376936541956,0.32255005836486816
1708437943.7721572,-1.1066713333129883,-1.6809741459288539,-2.5264676252948206,2.282355471248291,-1.016989533101217,0.3225705623626709
1708437943.7741578,-1.1066340208053589,-1.680965086022848,-2.526508871709005,2.2823332983204345,-1.0169480482684534,0.3225545287132263
1708437943.7761512,-1.1066962480545044,-1.6809526882567347,-2.526463333760397,2.2823495107838134,-1.0169761816607874,0.32250964641571045
1708437943.7782185,-1.1067081689834595,-1.680948396722311,-2.5264349619494837,2.282367392177246,-1.0169809500323694,0.3225749135017395
1708437943.780176,-1.106675624847412,-1.680932184258932,-2.526463333760397,2.2823304372974853,-1.0170062224017542,0.32253339886665344
1708437943.7821686,-1.1066594123840332,-1.6809545956053675,-2.526475254689352,2.282363100642822,-1.0169976393329065,0.32256603240966797
1708437943.7842135,-1.106691837310791,-1.681009908715719,-2.5264230410205286,2.2823828893848876,-1.0169852415667933,0.3225589692592621
1708437943.7862437,-1.1067005395889282,-1.6809545956053675,-2.526447121297018,2.2823917108723144,-1.0170019308673304,0.3225215673446655
1708437943.7881827,-1.1066551208496094,-1.6809569797911585,-2.5264721552478235,2.2824086385914306,-1.0169976393329065,0.32254230976104736
1708437943.7902317,-1.106663703918457,-1.6809364757933558,-2.5264514128314417,2.282400532359741,-1.0170186201678675,0.32252469658851624
1708437943.7921731,-1.106663703918457,-1.6809569797911585,-2.526447836552755,2.2823828893848876,-1.0170019308673304,0.3225290775299072
1708437943.7941935,-1.1066302061080933,-1.6809994182982386,-2.5264557043658655,2.282379313106201,-1.0169852415667933,0.32254230976104736
1708437943.796185,-1.1066474914550781,-1.6809498272337855,-2.526497189198629,2.2824665743061523,-1.0170138517962855,0.32254672050476074
1708437943.7981765,-1.1066431999206543,-1.680936952630514,-2.526508871709005,2.2823826509663085,-1.0169852415667933,0.32259872555732727
1708437943.8002121,-1.1066389083862305,-1.6810203991331996,-2.5264185110675257,2.2823917108723144,-1.0169652144061487,0.3225823938846588
1708437943.8022184,-1.106691837310791,-1.6809569797911585,-2.526418749486105,2.2823094564625244,-1.0170095602618616,0.3225705921649933
1708437943.804177,-1.1066398620605469,-1.6809569797911585,-2.526418749486105,2.2824131685444335,-1.0170138517962855,0.32257938385009766
1708437943.806179,-1.1066474914550781,-1.6809903583922328,-2.5264392534839075,2.282388134593628,-1.0169695059405726,0.3225291073322296
1708437943.808163,-1.106651782989502,-1.6809412441649378,-2.5264557043658655,2.28237168371167,-1.0170186201678675,0.3225633502006531
1708437943.8101695,-1.1066020727157593,-1.6809946499266566,-2.5264914671527308,2.2823213773914794,-1.0169809500323694,0.3225705325603485
1708437943.812166,-1.1066594123840332,-1.6809612713255824,-2.526447121297018,2.2823759752460937,-1.0170062224017542,0.32254672050476074
1708437943.814189,-1.106634497642517,-1.6810065708556117,-2.526458803807394,2.2823917108723144,-1.0169761816607874,0.3225705921649933
1708437943.8161821,-1.1066508293151855,-1.6810156307616175,-2.526426140462057,2.2824413019367675,-1.0170391241656702,0.322542279958725
1708437943.8181648,-1.1066670417785645,-1.6809784374632777,-2.526414219533102,2.282362862224243,-1.0169523398028772,0.322542279958725
1708437943.8201587,-1.1067121028900146,-1.6809946499266566,-2.5264840761767786,2.282399817104004,-1.0169437567340296,0.3225291073322296
1708437943.8221662,-1.1066464185714722,-1.6809364757933558,-2.5264676252948206,2.2824503618427734,-1.016961399708883,0.32259124517440796
1708437943.8241653,-1.1067081689834595,-1.6809693775572718,-2.5265045801745813,2.28235833227124,-1.0169761816607874,0.3224963843822479
1708437943.8261576,-1.1067326068878174,-1.6810156307616175,-2.5264795462237757,2.2823871809193115,-1.0169852415667933,0.322517067193985
1708437943.828167,-1.1066789627075195,-1.6810232601561488,-2.526447121297018,2.2824219900318603,-1.0170186201678675,0.32257065176963806
1708437943.830192,-1.106675624847412,-1.6809784374632777,-2.5264020601855677,2.282426281566284,-1.0170391241656702,0.3225378692150116
1708437943.832172,-1.106691837310791,-1.6809784374632777,-2.526459042225973,2.2823657232471923,-1.0169933477984827,0.3225545585155487
1708437943.8342013,-1.1067249774932861,-1.6809832058348597,-2.526508871709005,2.2823657232471923,-1.0169809500323694,0.32258689403533936
1708437943.8362098,-1.1066464185714722,-1.6809832058348597,-2.5264392534839075,2.2824296194263916,-1.0170138517962855,0.32254672050476074
1708437943.838183,-1.1066875457763672,-1.6809607944884242,-2.5264883677112024,2.2823962408253173,-1.0169604460345667,0.32254132628440857
1708437943.8401995,-1.1067081689834595,-1.6809612713255824,-2.52649695078005,2.2823538023182373,-1.0169737974749964,0.32256609201431274
1708437943.8421783,-1.1066906452178955,-1.6809994182982386,-2.5264557043658655,2.2823962408253173,-1.0170138517962855,0.32255005836486816
1708437943.8441813,-1.1066832542419434,-1.6809741459288539,-2.526487175618307,2.2823657232471923,-1.0169761816607874,0.32255005836486816
1708437943.8461983,-1.1066683530807495,-1.6809479198851527,-2.5264392534839075,2.282374783153198,-1.0169604460345667,0.32257503271102905
1708437943.848214,-1.1067124605178833,-1.6810113392271937,-2.526475254689352,2.282399817104004,-1.0169852415667933,0.3225705623626709
1708437943.8503478,-1.1066551208496094,-1.6809741459288539,-2.5264840761767786,2.2823871809193115,-1.0169976393329065,0.32253339886665344
1708437943.8521898,-1.1066994667053223,-1.6810275516905726,-2.526470963154928,2.28235833227124,-1.0170214811908167,0.3225412964820862
1708437943.8541784,-1.1066670417785645,-1.6810113392271937,-2.5264840761767786,2.2823917108723144,-1.0169933477984827,0.32250523567199707
1708437943.8561983,-1.1066548824310303,-1.6809569797911585,-2.5264251867877405,2.2824086385914306,-1.0170348326312464,0.322537899017334
1708437943.8581696,-1.1066951751708984,-1.6809874973692835,-2.526475254689352,2.2823702532001953,-1.0169761816607874,0.3225545585155487
1708437943.8601673,-1.1066302061080933,-1.6809503040709437,-2.526536289845602,2.2823702532001953,-1.0170052687274378,0.32255005836486816
1708437943.8621683,-1.1066994667053223,-1.6809784374632777,-2.526458803807394,2.282400532359741,-1.0170348326312464,0.32254132628440857
1708437943.8641763,-1.1067336797714233,-1.680965086022848,-2.526508156453268,2.282438202495239,-1.0170305410968226,0.32250523567199707
1708437943.8661642,-1.1066551208496094,-1.6809917889037074,-2.5264950434314173,2.282379313106201,-1.0170095602618616,0.32253339886665344
1708437943.8681746,-1.106691837310791,-1.6809336147704066,-2.526536528264181,2.2824160295673828,-1.0170257727252405,0.3225823938846588
1708437943.8701642,-1.1066744327545166,-1.6809612713255824,-2.526503626500265,2.282379313106201,-1.0170257727252405,0.32255005836486816
1708437943.8721735,-1.1066269874572754,-1.6810080013670863,-2.5265970865832728,2.28235833227124,-1.0170257727252405,0.322615385055542
1708437943.8741596,-1.1066757440567017,-1.6809693775572718,-2.5265026728259485,2.2823828893848876,-1.0169718901263636,0.32253339886665344
1708437943.8761656,-1.1066627502441406,-1.6809903583922328,-2.526527706776754,2.2824131685444335,-1.0170214811908167,0.3225749731063843
1708437943.878161,-1.1066713333129883,-1.6809741459288539,-2.5265677610980433,2.2823962408253173,-1.0170171896563929,0.32252466678619385
1708437943.8801775,-1.1066508293151855,-1.6809455356993617,-2.52651030222048,2.282388134593628,-1.0170305410968226,0.3225545585155487
1708437943.882159,-1.1066389083862305,-1.6809455356993617,-2.5265234152423304,2.282363100642822,-1.016975227986471,0.32254230976104736
1708437943.8841584,-1.1066389083862305,-1.6810199222960414,-2.5265710989581507,2.282359762782715,-1.0170496145831507,0.32251274585723877
1708437943.8862102,-1.1066639423370361,-1.6809784374632777,-2.526506010686056,2.282374783153198,-1.0170496145831507,0.3225705623626709
1708437943.888216,-1.1066683530807495,-1.6810065708556117,-2.5265753904925745,2.282363100642822,-1.0170615355121058,0.3225215673446655
1708437943.8902159,-1.1066713333129883,-1.680993219415182,-2.5265710989581507,2.2824176984974365,-1.017069164906637,0.3225290775299072
1708437943.8921714,-1.1066385507583618,-1.681051870385641,-2.526554886494772,2.282355471248291,-1.0170858542071741,0.3225545585155487
1708437943.8941853,-1.1066474914550781,-1.680986066857809,-2.5265796820269983,2.2823871809193115,-1.0170648733722132,0.32251274585723877
1708437943.8962033,-1.1066431999206543,-1.681009908715719,-2.526588503514425,2.2823304372974853,-1.0170601050006312,0.3225259780883789
1708437943.8982053,-1.106663703918457,-1.6809693775572718,-2.526566807423727,2.2823142248341064,-1.0170815626727503,0.32254573702812195
1708437943.9002757,-1.1066101789474487,-1.6810533008971156,-2.5265710989581507,2.282367392177246,-1.0171144644366663,0.32250964641571045
1708437943.902195,-1.1066266298294067,-1.680977006951803,-2.5265753904925745,2.282346649760864,-1.0171216169940394,0.32258379459381104
1708437943.904204,-1.1066772937774658,-1.6810022793211878,-2.526611630116598,2.282359762782715,-1.0171292463885706,0.3225291073322296
1708437943.9061937,-1.1066398620605469,-1.6809903583922328,-2.526562277470724,2.282327099437378,-1.0171502272235315,0.32255563139915466
1708437943.9081743,-1.106652021408081,-1.6809741459288539,-2.526566807423727,2.2823421198078613,-1.017144028340475,0.3225290775299072
1708437943.9101644,-1.1065785884857178,-1.6810065708556117,-2.526554886494772,2.282306595439575,-1.0171740690814417,0.3225215673446655
1708437943.9121618,-1.1065993309020996,-1.680986066857809,-2.526562277470724,2.282376213664673,-1.017144028340475,0.3225545585155487
1708437943.9142013,-1.1066328287124634,-1.681009431878561,-2.5265875498401087,2.282322807902954,-1.017148796712057,0.3225259780883789
1708437943.9161966,-1.10660719871521,-1.681014200250143,-2.526591126118795,2.2824176984974365,-1.0172236601458948,0.3225259780883789
1708437943.918166,-1.1065754890441895,-1.6809741459288539,-2.5266366640674036,2.2823642927357177,-1.017214600239889,0.32251405715942383
1708437943.9201713,-1.1065782308578491,-1.680972238580221,-2.526599709187643,2.2822696405598144,-1.0172103087054651,0.32250964641571045
1708437943.9221628,-1.1065831184387207,-1.680977006951803,-2.526623551045553,2.282298966045044,-1.0171759764300745,0.3225066363811493
1708437943.9241638,-1.1065635681152344,-1.6809612713255824,-2.526591126118795,2.2823728758045654,-1.0172413031207483,0.32248106598854065
1708437943.9261684,-1.106554627418518,-1.6810633144774378,-2.526619259511129,2.282343550319336,-1.0172250906573694,0.32255569100379944
1708437943.9281642,-1.106554627418518,-1.6809693775572718,-2.5266030470477503,2.282327337855957,-1.0172446409808558,0.32248246669769287
1708437943.9301991,-1.1065678596496582,-1.6810113392271937,-2.526668373738424,2.282303495998047,-1.0172565619098108,0.32253479957580566
1708437943.9322047,-1.1065188646316528,-1.6810304127135218,-2.5266431013690394,2.282298966045044,-1.0172637144671839,0.3225392997264862
1708437943.9341888,-1.1065397262573242,-1.6809741459288539,-2.526647392903463,2.2823359209248046,-1.0173285643206995,0.32250523567199707
1708437943.936192,-1.106501817703247,-1.681026121179098,-2.5265942255603235,2.282237692470215,-1.0173328558551233,0.32250073552131653
1708437943.9382124,-1.1065369844436646,-1.680997987786764,-2.526668373738424,2.2822834688374023,-1.0173566977130335,0.3224780559539795
1708437943.940224,-1.1064989566802979,-1.681059022943014,-2.5266268889056605,2.282325430507324,-1.0173524061786097,0.32248997688293457
1708437943.9421923,-1.1065188646316528,-1.6810351810851039,-2.52665621439089,2.282259626979492,-1.017388645802633,0.3224889039993286
1708437943.9441981,-1.1065757274627686,-1.681009431878561,-2.5266552607165735,2.282280369395874,-1.017404858266012,0.3225303888320923
1708437943.946198,-1.1065397262573242,-1.681042810479635,-2.5266640822040003,2.2822388845631103,-1.0173633734332483,0.32251545786857605
1708437943.9482055,-1.1065369844436646,-1.681014200250143,-2.526646439229147,2.2823256689259033,-1.0174034277545374,0.32253924012184143
1708437943.9501722,-1.106449842453003,-1.6810342274107875,-2.5266955534564417,2.282247706050537,-1.017465893422262,0.32255563139915466
1708437943.9521751,-1.1064661741256714,-1.68103088955068,-2.5267043749438685,2.2822107511707763,-1.0174687544452112,0.3225066363811493
1708437943.9541914,-1.106489896774292,-1.681014200250143,-2.5266955534564417,2.2821995454975585,-1.0174434820758265,0.32249772548675537
1708437943.9561722,-1.1064661741256714,-1.681026121179098,-2.526703182850973,2.282263918513916,-1.017484490071432,0.3225347399711609
1708437943.9581957,-1.1064304113388062,-1.6810342274107875,-2.526727263127462,2.282231493587158,-1.0175002256976526,0.3225184679031372
1708437943.9602082,-1.106423020362854,-1.6810184917845667,-2.526731554661886,2.2822653490253906,-1.0175002256976526,0.322497695684433
1708437943.9621696,-1.1064647436141968,-1.6810218296446742,-2.526771847401754,2.282240076656006,-1.0175288359271448,0.322537899017334
1708437943.964191,-1.1064141988754272,-1.681042810479635,-2.5267556349383753,2.282203121776245,-1.0175407568561,0.3225304186344147
1708437943.9661744,-1.1064319610595703,-1.680993219415182,-2.5267303625689905,2.2822446066090087,-1.017524544392721,0.3225678503513336
1708437943.968195,-1.1064141988754272,-1.681042810479635,-2.5267751852618616,2.282211943263672,-1.017536465321676,0.3225304186344147
1708437943.9701843,-1.1064116954803467,-1.6810499630370082,-2.526766363774435,2.2821687895008544,-1.0175274054156702,0.3225245475769043
1708437943.9721766,-1.1064071655273438,-1.6810680828490199,-2.5268033186541956,2.282141848201416,-1.0175769964801233,0.3225545883178711
1708437943.9741926,-1.1063296794891357,-1.6810451946654261,-2.526782814656393,2.2821876245686035,-1.0175798575030726,0.322552889585495
1708437943.976187,-1.1063296794891357,-1.6810533008971156,-2.5267871061908167,2.2821919161030273,-1.0175684134112757,0.3225766122341156
1708437943.9782093,-1.1063296794891357,-1.6810819111266078,-2.526827637349264,2.282158060664795,-1.0175922552691858,0.3226678669452667
1708437943.9801638,-1.1063430309295654,-1.6811267338194789,-2.526855770741598,2.2821549612232666,-1.017665211354391,0.3226916193962097
1708437943.9821763,-1.1063305139541626,-1.681122442285055,-2.52682334581484,2.282134457225464,-1.0176366011248987,0.32266056537628174
1708437943.9841974,-1.106327772140503,-1.681133886376852,-2.5268471876727503,2.282120628947876,-1.0176885763751429,0.32268619537353516
1708437943.9862018,-1.1062859296798706,-1.68117155651235,-2.5268059412585657,2.282156153316162,-1.017656151448385,0.3226965367794037
1708437943.9882123,-1.1062859296798706,-1.6811539135374964,-2.526867930089132,2.282111807460449,-1.0176590124713343,0.32271289825439453
1708437943.9901912,-1.1062517166137695,-1.6811491451659144,-2.526856009160177,2.282087488765381,-1.0176623503314417,0.3227817714214325
1708437943.9921985,-1.1063158512115479,-1.6811286411681117,-2.5268548170672815,2.282082958812378,-1.0176876227008265,0.3227803409099579
1708437943.9941814,-1.1062666177749634,-1.6811939678587855,-2.5268753210650843,2.282029553050659,-1.0177491346942347,0.322820782661438
1708437943.9961839,-1.1062591075897217,-1.6812135181822718,-2.5268753210650843,2.2820886808582763,-1.0177596251117151,0.32287755608558655
1708437943.9981842,-1.1062920093536377,-1.6812674007811488,-2.5268753210650843,2.282087488765381,-1.0178583304034632,0.32291364669799805
1708437944.0001938,-1.1063202619552612,-1.6811896763243617,-2.526878897343771,2.2820841509052734,-1.0178449789630335,0.32298508286476135
1708437944.0021825,-1.1062681674957275,-1.681263109246725,-2.5268951098071497,2.2820517259785156,-1.0178759733783167,0.32305821776390076
1708437944.0041876,-1.1062517166137695,-1.6813003025450648,-2.5268951098071497,2.2820352750965576,-1.0179136435138147,0.32315412163734436
1708437944.0061703,-1.1061928272247314,-1.68127503017568,-2.526878897343771,2.2820679384418945,-1.0179360548602503,0.3232347071170807
1708437944.0081766,-1.106256365776062,-1.6812793217101039,-2.526907269154684,2.2820841509052734,-1.0179479757892054,0.3232860565185547
1708437944.0101633,-1.1062109470367432,-1.6812993488707484,-2.52686578432192,2.2820021349140625,-1.0179675261126917,0.32338622212409973
1708437944.012237,-1.1062698364257812,-1.6813427410521449,-2.5268941561328333,2.2820603090473632,-1.0180004278766077,0.32344889640808105
1708437944.0141845,-1.106191635131836,-1.6812769375243128,-2.526923481618063,2.282052918071411,-1.0180318991290491,0.3235488533973694
1708437944.016166,-1.1061797142028809,-1.6813179455199183,-2.526910368596212,2.2819947439381103,-1.0180156866656702,0.3236849904060364
1708437944.0181522,-1.1061553955078125,-1.6813298664488734,-2.5269463698016565,2.282057448024414,-1.0180471579181116,0.32378867268562317
1708437944.0201533,-1.1061632633209229,-1.6813670597472132,-2.5269299189196985,2.2820121484943847,-1.0180709997760218,0.3239426612854004
1708437944.0221426,-1.1061480045318604,-1.6813298664488734,-2.5269792715655726,2.2819740015217285,-1.0180843512164515,0.3240385949611664
1708437944.0241559,-1.1061122417449951,-1.6813045940794886,-2.5269835630999964,2.281951351756714,-1.01813251176943,0.3241191804409027
1708437944.0261524,-1.10610032081604,-1.6813866100706996,-2.5270000139819544,2.2820252615162353,-1.0181635061847132,0.3242805600166321
1708437944.028169,-1.1060221195220947,-1.6813122234740199,-2.5270074049579065,2.281977816218994,-1.0181754271136683,0.32446610927581787
1708437944.0301888,-1.1060267686843872,-1.6813732586302699,-2.526994530354635,2.2819031912037353,-1.0181754271136683,0.3245425522327423
1708437944.0322146,-1.1060118675231934,-1.681345125237936,-2.527071777974264,2.281932755107544,-1.0181635061847132,0.32471171021461487
1708437944.0341876,-1.1060091257095337,-1.68133606533193,-2.527076307927267,2.281920834178589,-1.0181549231158655,0.3248492181301117
1708437944.036262,-1.105922818183899,-1.681406637231344,-2.527039353047506,2.281900091762207,-1.0181635061847132,0.3250752389431
1708437944.0381818,-1.1059445142745972,-1.6813732586302699,-2.5270138422595423,2.2818524080463867,-1.0181501547442835,0.3252216875553131
1708437944.040191,-1.1058990955352783,-1.6813484630980433,-2.5271154085742396,2.2819012838551025,-1.0181997458087366,0.3254026472568512
1708437944.0421896,-1.1058673858642578,-1.681401868859762,-2.52712852159609,2.281871958369873,-1.0181620756732386,0.3255705237388611
1708437944.0441663,-1.1058270931243896,-1.6813856563963832,-2.5271273295031946,2.2817985254475097,-1.0181873480426233,0.3257453441619873
1708437944.0461712,-1.1057953834533691,-1.6814257107176722,-2.5271440188037317,2.2817792135426025,-1.0182164351092737,0.3259323239326477
1708437944.0481696,-1.105705976486206,-1.6813460789122523,-2.527155939732687,2.2817880350300292,-1.018203083668844,0.32607877254486084
1708437944.0501997,-1.1057268381118774,-1.6814786396422328,-2.527139488850729,2.2817610937305908,-1.0182073752032679,0.3262374699115753
1708437944.0522158,-1.105716586112976,-1.6814290485777796,-2.527179781590597,2.2816952902027587,-1.0182889143573206,0.32649916410446167
1708437944.054153,-1.1056846380233765,-1.6814614735045375,-2.52717096010317,2.2816995817371826,-1.0182269255267542,0.3267206847667694
1708437944.0561569,-1.1056264638900757,-1.681481500665182,-2.527175251637594,2.281677170390747,-1.0182669798480433,0.32694828510284424
1708437944.058161,-1.105582594871521,-1.6815067730345667,-2.5272203127490442,2.2816478449055175,-1.0182884375201624,0.32706788182258606
1708437944.0601478,-1.1056052446365356,-1.681493421594137,-2.5271909872638147,2.2815794187733154,-1.0182750860797327,0.3273504972457886
1708437944.0621717,-1.1055232286453247,-1.6815339527525843,-2.527186457310812,2.281600161189697,-1.0182941595660608,0.3275659680366516
1708437944.0641713,-1.1055151224136353,-1.6815773449339808,-2.5272560755359095,2.28153578817334,-1.018334690724508,0.32773515582084656
1708437944.0661547,-1.105434775352478,-1.681626935998434,-2.5272517840014856,2.2815074163624267,-1.0183551947223108,0.32798802852630615
1708437944.068194,-1.105435848236084,-1.68165983776235,-2.5272637049304407,2.281475468272827,-1.0184252897845667,0.3282482624053955
1708437944.0701587,-1.1053156852722168,-1.6817027531065882,-2.527242962514059,2.28144280492749,-1.0184200445758265,0.3284696638584137
1708437944.0721781,-1.1053214073181152,-1.6817146740355433,-2.52727181116213,2.2814323145100097,-1.0184152762042444,0.3287467062473297
1708437944.074159,-1.1052948236465454,-1.6817251644530238,-2.5272298494922083,2.2814411359974365,-1.0184600988971155,0.32905030250549316
1708437944.0761662,-1.1052336692810059,-1.6817871532835902,-2.527299944554464,2.281426115626953,-1.0184930006610315,0.3292941451072693
1708437944.0781565,-1.105248212814331,-1.6817409000792445,-2.5273073355304163,2.2812952238270263,-1.0184958616839808,0.32957375049591064
1708437944.0801554,-1.1051461696624756,-1.6818138561644496,-2.5272868315326136,2.281282587642334,-1.0184615294085901,0.3298241198062897
1708437944.0821702,-1.1051075458526611,-1.6818529568114222,-2.527339045201437,2.2812601762958984,-1.0185068289386194,0.33004677295684814
1708437944.0841815,-1.105071783065796,-1.6819139919676722,-2.5273237864123743,2.281240625972412,-1.0185797850238245,0.33042967319488525
1708437944.0862029,-1.1049699783325195,-1.6819502315916957,-2.5273433367358606,2.2812043863483886,-1.0186079184161585,0.3307095170021057
1708437944.0881956,-1.10486900806427,-1.6819845638670863,-2.5273762384997767,2.281172915095947,-1.01857835451235,0.33108654618263245
1708437944.0902092,-1.1048717498779297,-1.6819874248900355,-2.5274089018451136,2.281099720592163,-1.0186026732074183,0.33146199584007263
1708437944.0921829,-1.1047532558441162,-1.6820980511107386,-2.527395788823263,2.281035824412964,-1.0186713377581995,0.33175963163375854
1708437944.0941906,-1.1046828031539917,-1.6821705303587855,-2.5274153391467493,2.2809993463703613,-1.0186741987811487,0.33214882016181946
1708437944.0962331,-1.1045899391174316,-1.6821614704527796,-2.5273662249194544,2.2809111314960937,-1.0186908880816858,0.33249762654304504
1708437944.0981843,-1.10445237159729,-1.682221075097555,-2.527444903050558,2.280871792430542,-1.018714729939596,0.3328028619289398
1708437944.100272,-1.1043647527694702,-1.6822148762144984,-2.5274067560779017,2.280804319972656,-1.0187342802630823,0.33319950103759766
1708437944.1021976,-1.1042900085449219,-1.6823169193663539,-2.5274067560779017,2.280698223704956,-1.0187419096576136,0.3335318863391876
1708437944.1042104,-1.1041988134384155,-1.6823274097838343,-2.5274797121631067,2.280651255244873,-1.0188100973712366,0.3339540660381317
1708437944.1061704,-1.1040656566619873,-1.6823679409422816,-2.5274677912341517,2.2806007105061035,-1.0187729040728968,0.3342786133289337
1708437944.1081696,-1.103966236114502,-1.6824695072569789,-2.527454678212301,2.2805048662373046,-1.018839184437887,0.3347201347351074
1708437944.1101575,-1.1038341522216797,-1.6825086079039515,-2.52751595178713,2.280428333873413,-1.0188091436969202,0.3350868821144104
1708437944.1122026,-1.1037027835845947,-1.6825596294798792,-2.527572218571798,2.2803475099750976,-1.0188630262957972,0.3354724943637848
1708437944.114187,-1.1035406589508057,-1.6826492748656214,-2.527522150670187,2.280207319850586,-1.0188701788531702,0.33585304021835327
1708437944.1161673,-1.1033676862716675,-1.6827284298338832,-2.527616087590353,2.2801646429249267,-1.0189030806170862,0.3362869322299957
1708437944.118168,-1.1032253503799438,-1.6828013859190882,-2.5276029745685022,2.2800113397785644,-1.0188615957843226,0.33672869205474854
1708437944.120198,-1.1030575037002563,-1.6828648052611292,-2.5276718775378626,2.2798754411884765,-1.0189030806170862,0.3371175229549408
1708437944.1221719,-1.1029224395751953,-1.6829692325987757,-2.5276389757739466,2.2797795969196777,-1.0189393202411097,0.33752939105033875
1708437944.1241722,-1.1026766300201416,-1.6830207310118617,-2.5276511351214808,2.2796193796345214,-1.018914047871725,0.3378942608833313
1708437944.1261604,-1.1025285720825195,-1.683117528954977,-2.5277231375323694,2.2795039850422363,-1.018904987965719,0.33836427330970764
1708437944.1281643,-1.102357268333435,-1.68312468151235,-2.5277677218066614,2.27936236440625,-1.0189421812640589,0.3387908637523651
1708437944.1301885,-1.1021655797958374,-1.6831985912718714,-2.5278123060809534,2.2792116838642578,-1.0189498106585901,0.3392758369445801
1708437944.1322083,-1.1018997430801392,-1.6833797893919886,-2.5278309027301233,2.2790750700184326,-1.0189946333514612,0.33970531821250916
1708437944.1341975,-1.1016918420791626,-1.6833979092040003,-2.5278471151935022,2.27889530240979,-1.0190098921405237,0.3401741683483124
1708437944.1362169,-1.1014636754989624,-1.6835395298399867,-2.527907196675436,2.278752489680908,-1.0190590063678187,0.34060055017471313
1708437944.1381977,-1.1012024879455566,-1.6836806736388148,-2.5279279390918177,2.2785369592854003,-1.0190752188311976,0.3410604000091553
1708437944.1402452,-1.1009931564331055,-1.6837836704649867,-2.5279718081103724,2.278379364604614,-1.0191400686847132,0.3415167033672333
1708437944.1422133,-1.1007081270217896,-1.6838752231993617,-2.5279629866229456,2.278252049083374,-1.0191710630999964,0.3419928252696991
1708437944.1442263,-1.1004317998886108,-1.6840349636473597,-2.528019730244772,2.2779828745075683,-1.0191696325885218,0.3424314558506012
1708437944.1462297,-1.1001638174057007,-1.684134145776266,-2.52806002298464,2.2778231340595703,-1.0192597548114222,0.34294307231903076
1708437944.1482112,-1.0998213291168213,-1.6842743359007777,-2.5281406084643763,2.277632876033447,-1.0192821661578577,0.3433573544025421
1708437944.1501799,-1.0995310544967651,-1.684493204156393,-2.5280991236316126,2.2773517805286865,-1.019285027180807,0.34389084577560425
1708437944.15218,-1.0992231369018555,-1.6845604381956996,-2.528167788182394,2.277132435435913,-1.0193541685687464,0.34432321786880493
1708437944.1541793,-1.098882794380188,-1.6846972904601039,-2.528202835713522,2.2768277364918212,-1.0194051901446741,0.34490537643432617
1708437944.156209,-1.098523736000061,-1.6849433384337367,-2.528198544179098,2.2766081529804687,-1.0195353666888636,0.34537041187286377
1708437944.1582255,-1.0981708765029907,-1.6850978336729945,-2.528337065373556,2.2762951093861084,-1.019501034413473,0.34586626291275024
1708437944.1602073,-1.0978045463562012,-1.6852771244444789,-2.5283270517932337,2.2760070997425537,-1.0196684042560022,0.3463481664657593
1708437944.1622212,-1.0974488258361816,-1.6854239902892054,-2.528386894856588,2.275767965907715,-1.0196669737445276,0.34683141112327576
1708437944.1642091,-1.0970733165740967,-1.6856128178038539,-2.528358761464254,2.2755212026783447,-1.0196803251849573,0.34731337428092957
1708437944.1661725,-1.0967587232589722,-1.6858116588988246,-2.528418842946188,2.2751757341572265,-1.0197418371783655,0.34780895709991455
1708437944.1681538,-1.096300482749939,-1.685986658135885,-2.528508249913351,2.2748748499104003,-1.019801441823141,0.3483240306377411
1708437944.1701765,-1.095876693725586,-1.686202188531393,-2.5285070578204554,2.2745987611958007,-1.0198496023761194,0.34883391857147217
1708437944.1721568,-1.0954532623291016,-1.6864639721312464,-2.5286040941821497,2.274274988765381,-1.0199263731585901,0.34932515025138855
1708437944.1741672,-1.0950262546539307,-1.6866589985289515,-2.5286105314837855,2.273967667216919,-1.0199888388263147,0.34980708360671997
1708437944.1761887,-1.0945498943328857,-1.6869307957091273,-2.5286999384509485,2.273677034968994,-1.0200651327716272,0.35030972957611084
1708437944.1781738,-1.0940220355987549,-1.6871725521483363,-2.52881366411318,2.2733422952839355,-1.02012807527651,0.35086244344711304
1708437944.1801915,-1.0935410261154175,-1.6873561344542445,-2.528766695653097,2.272953911418579,-1.0201919714557093,0.35136085748672485
1708437944.1822,-1.0930367708206177,-1.6875869236388148,-2.528811518345968,2.2725602823444824,-1.0202520529376429,0.35190537571907043
1708437944.1841612,-1.0925379991531372,-1.6878930530943812,-2.5289443174945276,2.272293968791626,-1.0203865210162562,0.3523828089237213
1708437944.186181,-1.0920292139053345,-1.6881429157652796,-2.5289717356311243,2.2718610006519775,-1.020379368458883,0.352866530418396
1708437944.1883132,-1.0914324522018433,-1.68847717861318,-2.5290523211108606,2.2715179163166503,-1.020459000264303,0.35336029529571533
1708437944.1901839,-1.0908184051513672,-1.6887966595091761,-2.5291364828692835,2.2710694509693603,-1.020569149647848,0.3539532423019409
1708437944.192225,-1.0902559757232666,-1.6891151867308558,-2.5291505495654505,2.2706467348286132,-1.0206692854510706,0.3544566333293915
1708437944.1941643,-1.089656114578247,-1.6893540821471156,-2.529255215321676,2.270096703166626,-1.020780388508932,0.3549453318119049
1708437944.1961656,-1.0889760255813599,-1.689705034295553,-2.5293598810779017,2.269646330470703,-1.0208643118487757,0.35549286007881165
1708437944.1982439,-1.0883609056472778,-1.690033575097555,-2.5294111410724085,2.269164724940918,-1.0209882895099085,0.3559761941432953
1708437944.200177,-1.0877134799957275,-1.6903768978514613,-2.529527727757589,2.2686521249958496,-1.021048370991842,0.35649704933166504
1708437944.2021966,-1.0870693922042847,-1.690679212609762,-2.529644552861349,2.2682298856922607,-1.0211322943316858,0.3570435345172882
1708437944.2041757,-1.086356520652771,-1.6910754642882289,-2.529701058064596,2.267742081279419,-1.0211918989764612,0.3576257526874542
1708437944.2061567,-1.0856328010559082,-1.69140686611318,-2.5297799746142786,2.2672504621693115,-1.0212672392474573,0.3580859899520874
1708437944.2081618,-1.0849169492721558,-1.6918298206725062,-2.5298877398120325,2.266709728831909,-1.0213630835162562,0.3586387038230896
1708437944.2101681,-1.0841331481933594,-1.6922131977477015,-2.5300079027758997,2.266107960338257,-1.0214794317828577,0.359104186296463
1708437944.2122014,-1.0833159685134888,-1.6925155125060023,-2.53010064760317,2.2655739027210693,-1.0215829054461878,0.35966092348098755
1708437944.2141922,-1.0825743675231934,-1.692972322503561,-2.530200783406393,2.264932556743286,-1.0216625372516077,0.3601505756378174
1708437944.21617,-1.0817266702651978,-1.6933862171568812,-2.5303078333484095,2.2644097047993164,-1.0217950979815882,0.3606824576854706
1708437944.2181768,-1.0808290243148804,-1.6938024959959925,-2.5303917566882532,2.2637690740772705,-1.0218704382525843,0.36115938425064087
1708437944.2201636,-1.0800130367279053,-1.694193025628561,-2.5305400530444544,2.2631818491169433,-1.0219500700580042,0.3616998493671417
1708437944.2221613,-1.0791059732437134,-1.6946364841856898,-2.5306478182422083,2.2625533777424316,-1.0221346060382288,0.362246036529541
1708437944.2241755,-1.0782403945922852,-1.695099493066305,-2.5307679812060755,2.261856957072876,-1.0222209135638636,0.3627656102180481
1708437944.226165,-1.0772759914398193,-1.6955086193480433,-2.5308476130114954,2.2612060743519287,-1.0223706404315394,0.36330896615982056
1708437944.2281995,-1.0763771533966064,-1.696012636224264,-2.5309837500201624,2.2605435091206054,-1.0225008169757288,0.3637821078300476
1708437944.2301736,-1.0753763914108276,-1.6965047321715296,-2.531107012425558,2.259821577663086,-1.0225790182696741,0.36435797810554504
1708437944.2321982,-1.0743688344955444,-1.6969315014281214,-2.531247679387228,2.259118004436157,-1.0228012243853968,0.36482349038124084
1708437944.2342026,-1.0733685493469238,-1.6974460087218226,-2.53135592142214,2.2584430414387207,-1.022888485585348,0.3653533458709717
1708437944.2362714,-1.07237708568573,-1.6979085407652796,-2.531488005314962,2.257763310069702,-1.0230935255633753,0.36589372158050537
1708437944.23832,-1.0713341236114502,-1.6984607181944789,-2.531652275715963,2.257002993220947,-1.0232322851764124,0.3664412796497345
1708437944.2402046,-1.070241093635559,-1.69897522548818,-2.5317397753344935,2.2562808233448486,-1.0233634153949183,0.36692285537719727
1708437944.242198,-1.0691230297088623,-1.6995512447752894,-2.5318966547595423,2.2554730611988525,-1.0235231558429163,0.3674751818180084
1708437944.2442014,-1.0680612325668335,-1.7001310787596644,-2.532088581715719,2.2546371656605224,-1.0236995855914515,0.36796003580093384
1708437944.2461793,-1.0669595003128052,-1.7006436787047328,-2.5321791807757776,2.253828211421631,-1.0238302389727991,0.3684541583061218
1708437944.2481782,-1.0658351182937622,-1.7012225590147914,-2.5323153177844446,2.2530523973652343,-1.024010960255758,0.36900636553764343
1708437944.2501984,-1.0646635293960571,-1.7018100223936976,-2.5325008074389856,2.2521838384815673,-1.024163071309225,0.36947643756866455
1708437944.2522256,-1.063555359840393,-1.70241179088735,-2.532656971608297,2.2513457971760253,-1.02433950105776,0.3699014484882355
1708437944.2541585,-1.0623221397399902,-1.7030517063536585,-2.5328171888934534,2.2504073816486816,-1.024538818989889,0.3704177737236023
1708437944.2561557,-1.0611251592636108,-1.703707834283346,-2.532891337071554,2.24955861150708,-1.0247319380389612,0.3710120618343353
1708437944.2581606,-1.0599509477615356,-1.7042671642699183,-2.5330680052386683,2.248572750682495,-1.024912182484762,0.37148553133010864
1708437944.2602134,-1.0586607456207275,-1.704968114892477,-2.5331957975970667,2.2476565080830078,-1.0250948111163538,0.37194302678108215
1708437944.262182,-1.0574437379837036,-1.7055846653380335,-2.533363405858175,2.2467617231556396,-1.0252497831927698,0.37247005105018616
1708437944.264164,-1.0561295747756958,-1.7062269649901332,-2.533551279698507,2.2458371359058837,-1.0254090468036097,0.3729866147041321
1708437944.2661593,-1.0548378229141235,-1.7069069347777308,-2.5336950461017054,2.2449685770222167,-1.0256450811969202,0.3734592795372009
1708437944.2681754,-1.0535385608673096,-1.7076360187926234,-2.5339251200305384,2.243943615550659,-1.0258219877826136,0.3739880621433258
1708437944.2701676,-1.0521860122680664,-1.7083026371397914,-2.5340517202960413,2.242928906078003,-1.0260170141803187,0.37449508905410767
1708437944.2721713,-1.0508540868759155,-1.7089425526061,-2.5342233816729944,2.2419962125965576,-1.0261996428119105,0.3749904930591583
1708437944.2741811,-1.049487829208374,-1.7096950016417445,-2.534441057835714,2.241036816234253,-1.0264537970172327,0.37546050548553467
1708437944.276152,-1.0480209589004517,-1.710369726220602,-2.534579579030172,2.24007432043042,-1.0265629927264612,0.3758496940135956
1708437944.2781665,-1.0465617179870605,-1.711130281487936,-2.534771744404928,2.239008589381836,-1.0268328825580042,0.3764020502567291
1708437944.2801712,-1.0452008247375488,-1.71193327526235,-2.5349677244769495,2.2379118639179687,-1.027022663746969,0.3768807053565979
1708437944.282178,-1.0437414646148682,-1.7127334080138148,-2.5351153055774134,2.2368690210529785,-1.0272472540484827,0.3774285912513733
1708437944.2841885,-1.042237639427185,-1.7134176693358363,-2.5353103319751185,2.2358383375355224,-1.027433220540182,0.3778744339942932
1708437944.286259,-1.0407874584197998,-1.7141477070250453,-2.5355480352984827,2.234738989467285,-1.0276754538165491,0.37834689021110535
1708437944.2881968,-1.0392122268676758,-1.7149259052672328,-2.535710398350851,2.2336553770252685,-1.027820889149801,0.37889131903648376
1708437944.2902055,-1.0377012491226196,-1.715768953362936,-2.535952631627218,2.232538624400757,-1.0280440489398401,0.3793568015098572
1708437944.2921917,-1.036083698272705,-1.7165466747679652,-2.536119524632589,2.2314087587543945,-1.0282281080829065,0.3798358738422394
1708437944.2941823,-1.034544587135315,-1.717386385003561,-2.5363157431231897,2.230282946223877,-1.0284608046161097,0.38030576705932617
1708437944.2961974,-1.032989263534546,-1.7181688747801722,-2.5365317503558558,2.2290898996540527,-1.0286973158465784,0.3808458745479584
1708437944.2981837,-1.0313224792480469,-1.719022890130514,-2.536698881779806,2.227926416988037,-1.0288918654071253,0.38133007287979126
1708437944.3002257,-1.029663324356079,-1.719861169854635,-2.5369442144977015,2.2267510133930664,-1.0290711561786097,0.3817726969718933
1708437944.3021984,-1.0280512571334839,-1.7206784687437953,-2.5371480623828333,2.2255498605915527,-1.0292776266681116,0.3822273015975952
1708437944.3041816,-1.0263680219650269,-1.7215591869749964,-2.5374253431903284,2.224355621928833,-1.0295971075641077,0.38263800740242004
1708437944.306181,-1.024571180343628,-1.7223617039122523,-2.5376039187060755,2.2231852251240234,-1.0298436323748987,0.38313183188438416
1708437944.3081794,-1.0228787660598755,-1.7232729397215785,-2.537851397191183,2.221904678935669,-1.030109707509176,0.38361212611198425
1708437944.3101628,-1.0211536884307861,-1.724142690698141,-2.5380433241473597,2.2206408220478515,-1.0303424040423792,0.38406258821487427
1708437944.3122358,-1.0193586349487305,-1.7250987492003382,-2.5383127371417444,2.2193750578114013,-1.0305894056903284,0.3845699429512024
1708437944.3141882,-1.0176070928573608,-1.7259146175780238,-2.538442675267355,2.2180751997181396,-1.0309231917010706,0.3850371539592743
1708437944.3161733,-1.0158458948135376,-1.7268825970091761,-2.5387075583087366,2.2167998987385253,-1.031205956135885,0.38548287749290466
1708437944.318174,-1.0139555931091309,-1.7278124294676722,-2.5389071146594446,2.215447350139282,-1.0315478483783167,0.3859802782535553
1708437944.3202183,-1.0121384859085083,-1.7287379703917445,-2.539154831563131,2.2141570287891845,-1.0317838827716272,0.3864637017250061
1708437944.322177,-1.0102899074554443,-1.7296840153136195,-2.539452616368429,2.2127532201954345,-1.0321357885943812,0.3868962824344635
1708437944.3241866,-1.008378505706787,-1.730645319024557,-2.5396180788623255,2.211418791408203,-1.0323589483844202,0.38739749789237976
1708437944.3261645,-1.0064597129821777,-1.7317096195616664,-2.539870325719015,2.210066004390381,-1.0326631704913538,0.3878316581249237
1708437944.3281755,-1.0045677423477173,-1.7326375446715296,-2.540090624486105,2.2087136942097167,-1.0329058806048792,0.3882608711719513
1708437944.3301847,-1.0025886297225952,-1.733668943444723,-2.5403390566455286,2.2073792654224853,-1.0331361929522913,0.3887235224246979
1708437944.3322191,-1.0006211996078491,-1.7345997295775355,-2.540586773549215,2.2059332567402343,-1.0333917776690882,0.3892325162887573
1708437944.3342226,-0.9986185431480408,-1.73563875774526,-2.5408266226397913,2.20451466619458,-1.0336945692645472,0.3896591067314148
1708437944.336229,-0.9966626167297363,-1.7366649113097132,-2.5410621801959437,2.2029971319385986,-1.0339039007769983,0.39005762338638306
1708437944.3382308,-0.9946327805519104,-1.7377258739867152,-2.5413599650012415,2.2016047674366455,-1.0341060797320765,0.3905304968357086
1708437944.3402734,-0.9927363991737366,-1.7387625179686488,-2.541574780141012,2.2001585203358154,-1.0343621412860315,0.39102140069007874
1708437944.3421998,-0.9906159043312073,-1.7398177585997523,-2.5418432394610804,2.198593779201172,-1.0347273985492151,0.39140617847442627
1708437944.3441982,-0.9886294603347778,-1.7408668003477992,-2.542107168828146,2.197148247356079,-1.0349777380572718,0.39183422923088074
1708437944.3461895,-0.9865297079086304,-1.7419072590269984,-2.542363230382101,2.1956495481678466,-1.0353220144854944,0.39218008518218994
1708437944.3482215,-0.9844340085983276,-1.7430077991881312,-2.542598072682516,2.194243832225464,-1.0356782118426722,0.3926154375076294
1708437944.350258,-0.9822851419448853,-1.7441731892027796,-2.542870585118429,2.1927012640186767,-1.0360420385943812,0.3930603265762329
1708437944.3522165,-0.980128824710846,-1.7452761135497035,-2.5431628862964075,2.1911133962818603,-1.0363324324237269,0.3935180902481079
1708437944.3542018,-0.9779775738716125,-1.7463613949217738,-2.54339844385256,2.1896118360706787,-1.036647144948141,0.39390382170677185
1708437944.356227,-0.9757875800132751,-1.7475291691222132,-2.543638292943136,2.188093824977539,-1.0369542280780237,0.3943559527397156
1708437944.358257,-0.9735268354415894,-1.7486502132811488,-2.543943707142965,2.1864816385456542,-1.037299935017721,0.39484405517578125
1708437944.3602424,-0.9714165925979614,-1.7497707806029261,-2.544243637715475,2.1849352556416015,-1.037597958241598,0.3952581286430359
1708437944.36229,-0.969084620475769,-1.7509633503355921,-2.5445359388934534,2.1833605009266357,-1.0378955046283167,0.3957103490829468
1708437944.364192,-0.9669078588485718,-1.7520905933775843,-2.544734541569845,2.18176977216687,-1.03821307817568,0.3961653709411621
1708437944.366206,-0.964769721031189,-1.7531753979124964,-2.5450430552112024,2.1802636820026855,-1.0384629408465784,0.39657944440841675
1708437944.3681788,-0.9625576734542847,-1.7543465099730433,-2.545286242161886,2.1787287431904296,-1.038788143788473,0.3969043791294098
1708437944.3701804,-0.9603220224380493,-1.7554470501341761,-2.5455623308764856,2.1772519785114746,-1.0390756765948694,0.3973363935947418
1708437944.372171,-0.9581204056739807,-1.7566071949400843,-2.5458293596850794,2.17566887914624,-1.0393746534930628,0.3978383243083954
1708437944.3741744,-0.9559964537620544,-1.757719179193014,-2.5461052099811,2.173931046123169,-1.039640251790182,0.3981339931488037
1708437944.3761785,-0.9536841511726379,-1.7588497600951136,-2.546373430882589,2.1724118429371337,-1.0400188604937952,0.39849627017974854
1708437944.3781743,-0.9515432715415955,-1.7599455318846644,-2.546622339879171,2.1707796293446044,-1.0402639547931116,0.3989661931991577
1708437944.3801742,-0.9493189454078674,-1.7610918484129847,-2.546906057988302,2.1691524225422363,-1.040544335042135,0.399286687374115
