Eg3-git/Classifiers/Data Collection/u6/u6star1_ur3e_joint_states.csv
time,elbow_joint,shoulder_lift_joint,shoulder_pan_joint,wrist_1_joint,wrist_2_joint,wrist_3_joint
1708437907.105983,-1.1052303314208984,-1.681798597375387,-2.5266509691821497,2.281038923854492,-1.0173328558551233,0.34082961082458496
1708437907.1079757,-1.1052480936050415,-1.681765695611471,-2.526668373738424,2.2809154230305175,-1.0173524061786097,0.3407849073410034
1708437907.110031,-1.105231761932373,-1.6817475757994593,-2.5266149679767054,2.2809738355823974,-1.0173242727862757,0.3408339023590088
1708437907.1119766,-1.1052560806274414,-1.6817194424071253,-2.5266180674182337,2.280980034465454,-1.0173199812518519,0.34082961082458496
1708437907.1140149,-1.1052606105804443,-1.6817409000792445,-2.5266431013690394,2.280984564418457,-1.0173371473895472,0.34085455536842346
1708437907.1159928,-1.105225920677185,-1.6818019352354945,-2.5266149679767054,2.280956192607544,-1.0173686186419886,0.34078168869018555
1708437907.1180248,-1.1052650213241577,-1.6817523441710414,-2.526668373738424,2.2809931474873046,-1.0174101034747522,0.3408264219760895
1708437907.1199737,-1.1052391529083252,-1.6817451916136683,-2.526647392903463,2.2809812265583496,-1.0173490683185022,0.3407892882823944
1708437907.1219876,-1.1052347421646118,-1.6817475757994593,-2.5266106764422815,2.2809595304676513,-1.0173566977130335,0.3407924473285675
1708437907.1240094,-1.1052606105804443,-1.6817409000792445,-2.5265942255603235,2.2809931474873046,-1.0173772017108362,0.3407936096191406
1708437907.125984,-1.10521399974823,-1.6817237339415492,-2.5266671816455286,2.2809812265583496,-1.0173166433917444,0.3408339321613312
1708437907.127969,-1.1052472591400146,-1.6817523441710414,-2.526619259511129,2.2809197145649414,-1.0173652807818812,0.3408339321613312
1708437907.1300232,-1.1052428483963013,-1.6817895374693812,-2.526663843785421,2.2810050684162597,-1.0173566977130335,0.3408339321613312
1708437907.1320066,-1.1052347421646118,-1.6818181476988734,-2.5266149679767054,2.280956192607544,-1.0173447767840784,0.3408339321613312
1708437907.133992,-1.1052606105804443,-1.6817475757994593,-2.5266268889056605,2.28092805921521,-1.0173652807818812,0.34081336855888367
1708437907.1360052,-1.1052799224853516,-1.6817432842650355,-2.5266225973712366,2.280972643489502,-1.0173361937152308,0.34077736735343933
1708437907.138051,-1.1053050756454468,-1.6817733250060023,-2.526647392903463,2.280956192607544,-1.0173566977130335,0.3407805263996124
1708437907.13999,-1.1052095890045166,-1.6818138561644496,-2.526668373738424,2.280960722560547,-1.0173652807818812,0.34077179431915283
1708437907.1419878,-1.1052887439727783,-1.681760927239889,-2.5266223589526575,2.2810215192982177,-1.0173242727862757,0.3408339321613312
1708437907.144002,-1.105251669883728,-1.6817566357054652,-2.5266104380237024,2.2809769350239257,-1.0173328558551233,0.34085461497306824
1708437907.1459756,-1.1052560806274414,-1.6817690334715785,-2.526651684437887,2.2810138899036865,-1.017353359852926,0.34084269404411316
1708437907.1480007,-1.1052606105804443,-1.681728025475973,-2.5266552607165735,2.280972643489502,-1.0173404852496546,0.3408339321613312
1708437907.14998,-1.1052591800689697,-1.6817103825011195,-2.526647392903463,2.280972643489502,-1.0173609892474573,0.3408176898956299
1708437907.1520026,-1.1052560806274414,-1.6817757091917933,-2.526651684437887,2.2809976774403076,-1.0173242727862757,0.34082525968551636
1708437907.1539996,-1.1052560806274414,-1.6817757091917933,-2.5266149679767054,2.280984564418457,-1.0173242727862757,0.3408470153808594
1708437907.1559882,-1.105284333229065,-1.6817566357054652,-2.5266149679767054,2.280984564418457,-1.0173447767840784,0.34086671471595764
1708437907.1580167,-1.1052680015563965,-1.681786676446432,-2.5266388098346155,2.2809769350239257,-1.0173490683185022,0.3407730460166931
1708437907.160028,-1.1052560806274414,-1.6817475757994593,-2.5265823046313685,2.2809931474873046,-1.017369572316305,0.34082961082458496
1708437907.1620486,-1.1052297353744507,-1.6818019352354945,-2.5265987555133265,2.280996485347412,-1.0173652807818812,0.34082210063934326
1708437907.164015,-1.1052472591400146,-1.6818224392332972,-2.5266030470477503,2.281012697810791,-1.0173481146441858,0.34081849455833435
1708437907.1660016,-1.105263590812683,-1.6818181476988734,-2.5266106764422815,2.2810212808796386,-1.017353359852926,0.3408307731151581
1708437907.1679978,-1.1052724123001099,-1.6818019352354945,-2.5265987555133265,2.2809488016315917,-1.0173447767840784,0.34081771969795227
1708437907.1699643,-1.1052347421646118,-1.6818272076048792,-2.526607338582174,2.2809595304676513,-1.0173609892474573,0.34082210063934326
1708437907.1719584,-1.1052680015563965,-1.6817432842650355,-2.5266268889056605,2.280984564418457,-1.0173738638507288,0.34084585309028625
1708437907.1739862,-1.1052918434143066,-1.6817981205382289,-2.5265942255603235,2.2809476095386962,-1.0173447767840784,0.34083834290504456
1708437907.1759691,-1.105263590812683,-1.6818062267699183,-2.5266431013690394,2.280991955394409,-1.01735765138735,0.3408011496067047
1708437907.1779628,-1.1052303314208984,-1.6817361317076625,-2.5266268889056605,2.2810138899036865,-1.0173242727862757,0.3407924473285675
1708437907.1799648,-1.1052724123001099,-1.6817647419371546,-2.5266311804400843,2.280996485347412,-1.0173123518573206,0.34082528948783875
1708437907.1819766,-1.1053096055984497,-1.6817733250060023,-2.526635471974508,2.28095190107312,-1.0173209349261683,0.34081336855888367
1708437907.183988,-1.1052606105804443,-1.6817432842650355,-2.526668373738424,2.2809650140949707,-1.0173457304583948,0.3408220708370209
1708437907.1859565,-1.1052799224853516,-1.6817432842650355,-2.5266223589526575,2.280968113536499,-1.017369572316305,0.34085819125175476
1708437907.188007,-1.1052680015563965,-1.6817523441710414,-2.5266311804400843,2.2810215192982177,-1.0173285643206995,0.3408623933792114
1708437907.1899955,-1.105225920677185,-1.6817475757994593,-2.5266431013690394,2.280956192607544,-1.0173090139972132,0.3408624529838562
1708437907.1920676,-1.105328917503357,-1.6817389927306117,-2.5266061464892786,2.280972643489502,-1.0173328558551233,0.34082961082458496
1708437907.1939776,-1.1052391529083252,-1.681765695611471,-2.52665621439089,2.280956192607544,-1.017325226460592,0.34082961082458496
1708437907.19599,-1.105263590812683,-1.6817976437010707,-2.5266106764422815,2.2810095983692626,-1.0172837416278284,0.3408501446247101
1708437907.1979842,-1.1052228212356567,-1.6817151508727015,-2.526611630116598,2.281033440227173,-1.01735765138735,0.3407967984676361
1708437907.1999817,-1.1053037643432617,-1.6817885837950648,-2.5265944639789026,2.280960722560547,-1.0173090139972132,0.34083837270736694
1708437907.2019644,-1.1052813529968262,-1.6817432842650355,-2.5266149679767054,2.280984564418457,-1.017341438923971,0.34083831310272217
1708437907.2039852,-1.105251669883728,-1.6817647419371546,-2.5266149679767054,2.2810227113911132,-1.0173328558551233,0.340871125459671
1708437907.2059915,-1.1052887439727783,-1.6817318401732386,-2.526619259511129,2.2809857565113525,-1.0173090139972132,0.3408786356449127
1708437907.2079735,-1.105251669883728,-1.6817566357054652,-2.5266106764422815,2.281000776881836,-1.0172885099994105,0.34082528948783875
1708437907.2099705,-1.1052184104919434,-1.6817847690977992,-2.5266030470477503,2.2809931474873046,-1.017301384602682,0.34083831310272217
1708437907.211973,-1.1052724123001099,-1.6817690334715785,-2.526647392903463,2.280984564418457,-1.0172718206988733,0.3408949375152588
1708437907.214055,-1.1052472591400146,-1.6818229160704554,-2.5266106764422815,2.280968113536499,-1.0172975699054163,0.3408992886543274
1708437907.2159822,-1.1052680015563965,-1.6817566357054652,-2.526611630116598,2.280972643489502,-1.017252270375387,0.340849369764328
1708437907.2180247,-1.1052428483963013,-1.681793829003805,-2.526595417653219,2.2810062605091552,-1.0172975699054163,0.34084153175354004
1708437907.2199755,-1.1053006649017334,-1.6817714176573695,-2.5266106764422815,2.280988855952881,-1.0172489325152796,0.34082528948783875
1708437907.2219763,-1.1052591800689697,-1.6818224392332972,-2.5266104380237024,2.280972643489502,-1.0172284285174769,0.3408861756324768
1708437907.2239869,-1.105284333229065,-1.6817523441710414,-2.526607338582174,2.280960722560547,-1.0172446409808558,0.34085699915885925
1708437907.225994,-1.1052769422531128,-1.6817838154234828,-2.5265658537494105,2.2809693056293945,-1.0172327200519007,0.340894877910614
1708437907.2280064,-1.1052560806274414,-1.6817647419371546,-2.526644293461935,2.280960722560547,-1.017240349446432,0.34083282947540283
1708437907.2300274,-1.1052769422531128,-1.6817885837950648,-2.526595417653219,2.2810095983692626,-1.0172489325152796,0.340849369764328
1708437907.231989,-1.105225920677185,-1.6817847690977992,-2.526591126118795,2.2809812265583496,-1.0172846953021448,0.3408656120300293
1708437907.234031,-1.1052874326705933,-1.6818257770934046,-2.52665621439089,2.2809154230305175,-1.0172889868365687,0.34081652760505676
1708437907.2359765,-1.1052560806274414,-1.6817599735655726,-2.526635471974508,2.2809769350239257,-1.0172770659076136,0.34083712100982666
1708437907.238067,-1.105251669883728,-1.6817342243590296,-2.526627842579977,2.280968113536499,-1.0172284285174769,0.340849369764328
1708437907.2399945,-1.1052591800689697,-1.6818300686278285,-2.526635471974508,2.2809650140949707,-1.0173018614398401,0.3408949375152588
1708437907.2420287,-1.105254888534546,-1.6817757091917933,-2.5265536944018763,2.2809857565113525,-1.0172608534442347,0.3408743143081665
1708437907.2440178,-1.1052273511886597,-1.6817757091917933,-2.526627842579977,2.280960722560547,-1.0172446409808558,0.3408536911010742
1708437907.2459848,-1.1052755117416382,-1.6817885837950648,-2.526623551045553,2.2810019689747314,-1.0172770659076136,0.3408450484275818
1708437907.2479835,-1.1052391529083252,-1.6817475757994593,-2.5265658537494105,2.2810138899036865,-1.0172651449786585,0.3408450484275818
1708437907.249992,-1.1053006649017334,-1.6818005047240199,-2.526623551045553,2.2809650140949707,-1.0172608534442347,0.3408743441104889
1708437907.251995,-1.1052472591400146,-1.6817556820311488,-2.526619259511129,2.2809573847004394,-1.0172327200519007,0.34086883068084717
1708437907.2540567,-1.1052770614624023,-1.6818167171873988,-2.5265823046313685,2.28092805921521,-1.0172932783709925,0.34085813164711
1708437907.256021,-1.105251669883728,-1.6818005047240199,-2.526623551045553,2.2810019689747314,-1.017268482838766,0.3408612906932831
1708437907.258028,-1.1052813529968262,-1.6818300686278285,-2.5266063849078577,2.2809573847004394,-1.0172770659076136,0.34088945388793945
1708437907.259995,-1.1052680015563965,-1.6817714176573695,-2.5265868345843714,2.280925913447998,-1.017240349446432,0.3408656120300293
1708437907.2619555,-1.105284333229065,-1.6818300686278285,-2.526599709187643,2.2809573847004394,-1.017268482838766,0.3408656120300293
1708437907.2639985,-1.1052887439727783,-1.6817714176573695,-2.526578966771261,2.280937595958374,-1.0172198454486292,0.34093961119651794
1708437907.26599,-1.1052724123001099,-1.6817957363524378,-2.526607338582174,2.280942125911377,-1.0172446409808558,0.340906023979187
1708437907.2680078,-1.1052680015563965,-1.6817838154234828,-2.526623551045553,2.2809087473103027,-1.0172932783709925,0.34089377522468567
1708437907.2699873,-1.1052303314208984,-1.681833883325094,-2.5266149679767054,2.2808806139179687,-1.0172446409808558,0.3409222364425659
1708437907.272023,-1.1052769422531128,-1.681779523889059,-2.526574436818258,2.280839129085205,-1.0172489325152796,0.3409059941768646
1708437907.2740347,-1.105284333229065,-1.681807657281393,-2.526595417653219,2.2809344965168457,-1.0172079245196741,0.3409222364425659
1708437907.2759805,-1.105231761932373,-1.6818248234190882,-2.526635471974508,2.280904455775879,-1.0172479788409632,0.34091031551361084
1708437907.2779706,-1.1053006649017334,-1.6818005047240199,-2.526639763508932,2.2808894354053955,-1.0172446409808558,0.3408980965614319
1708437907.280003,-1.1052650213241577,-1.681807657281393,-2.5265987555133265,2.2808849054523925,-1.0173018614398401,0.34088075160980225
1708437907.2819858,-1.1052606105804443,-1.6818486652769984,-2.526615921651022,2.2808849054523925,-1.017268482838766,0.3409756124019623
1708437907.2840035,-1.105269432067871,-1.681770463983053,-2.526595417653219,2.2808686929890136,-1.0172651449786585,0.3409222364425659
1708437907.2859879,-1.1052436828613281,-1.681840559045309,-2.526623551045553,2.280843659038208,-1.0172446409808558,0.3408850431442261
1708437907.2880204,-1.1052391529083252,-1.6818777523436488,-2.526623551045553,2.2808806139179687,-1.017268482838766,0.34088075160980225
1708437907.289993,-1.1052769422531128,-1.681864400903219,-2.526615921651022,2.2809132772633056,-1.0172489325152796,0.34088075160980225
1708437907.2919908,-1.1052228212356567,-1.681840559045309,-2.526655975972311,2.28086440145459,-1.0172932783709925,0.34089380502700806
1708437907.2940395,-1.1052650213241577,-1.681833883325094,-2.5266311804400843,2.2808968263813476,-1.0172770659076136,0.34095028042793274
1708437907.2960253,-1.1052035093307495,-1.681798597375387,-2.5265868345843714,2.280892534846924,-1.0172727743731897,0.3409591019153595
1708437907.2980497,-1.1052480936050415,-1.6818539104857386,-2.526619259511129,2.2808806139179687,-1.0172727743731897,0.34090161323547363
1708437907.3000188,-1.1052064895629883,-1.6818486652769984,-2.5266268889056605,2.2808613020130615,-1.0172770659076136,0.34091782569885254
1708437907.3019989,-1.1052154302597046,-1.6818486652769984,-2.526607338582174,2.280843659038208,-1.0172489325152796,0.34088075160980225
1708437907.3040488,-1.1052273511886597,-1.681873460809225,-2.526607338582174,2.2809056478687744,-1.0172975699054163,0.3409135341644287
1708437907.3060312,-1.1052154302597046,-1.6818539104857386,-2.526615921651022,2.2808524805256347,-1.0173142592059534,0.3409340977668762
1708437907.3080208,-1.1052154302597046,-1.6817957363524378,-2.526651922856466,2.2808567720600585,-1.0172727743731897,0.34088072180747986
1708437907.3100233,-1.1052361726760864,-1.681864400903219,-2.5266321341144007,2.2808732229420166,-1.0172770659076136,0.3408929705619812
1708437907.3120012,-1.1052273511886597,-1.681836267510885,-2.526616160069601,2.2808729845234375,-1.017236057912008,0.340912401676178
1708437907.314017,-1.1051827669143677,-1.6818248234190882,-2.526607338582174,2.2808355528065185,-1.0172813574420374,0.34092977643013
1708437907.3160064,-1.1051990985870361,-1.6818157635130824,-2.5265780130969446,2.2808524805256347,-1.017236057912008,0.34090161323547363
1708437907.3180132,-1.1052242517471313,-1.6818157635130824,-2.526668373738424,2.2808567720600585,-1.0172565619098108,0.3409211039543152
1708437907.319983,-1.105233073234558,-1.681857248345846,-2.526640001927511,2.2808984953114013,-1.0172889868365687,0.3409135043621063
1708437907.3220444,-1.105207920074463,-1.681803365746969,-2.526591126118795,2.280847950572632,-1.017236057912008,0.34088435769081116
1708437907.324006,-1.1052123308181763,-1.6818825207152308,-2.5266030470477503,2.2808233934589843,-1.0172565619098108,0.34095823764801025
1708437907.3259947,-1.1052448749542236,-1.6818200550475062,-2.526639763508932,2.2808686929890136,-1.0172446409808558,0.34095829725265503
1708437907.327998,-1.1052167415618896,-1.6818496189513148,-2.5266431013690394,2.2808655935474853,-1.0172608534442347,0.3409547805786133
1708437907.330019,-1.1051959991455078,-1.6818272076048792,-2.526595417653219,2.2808613020130615,-1.0172565619098108,0.340934157371521
1708437907.3320274,-1.105187177658081,-1.681807657281393,-2.526616160069601,2.2808281618305664,-1.0173099676715296,0.3409286141395569
1708437907.3340373,-1.1052286624908447,-1.6818810902037562,-2.526607338582174,2.280848665828369,-1.017212216054098,0.3409048914909363
1708437907.3360085,-1.1051990985870361,-1.6818229160704554,-2.526616160069601,2.2808729845234375,-1.017240349446432,0.34093737602233887
1708437907.3380604,-1.1052167415618896,-1.6818496189513148,-2.526595417653219,2.2808398443409423,-1.0173175970660608,0.34088417887687683
1708437907.3400187,-1.1052004098892212,-1.6818200550475062,-2.5265536944018763,2.2808162409016113,-1.0173218886004847,0.3409178555011749
1708437907.3420177,-1.105233073234558,-1.681807657281393,-2.526604239140646,2.2808729845234375,-1.017236057912008,0.3408929407596588
1708437907.3440292,-1.1051796674728394,-1.6818777523436488,-2.526595417653219,2.2808236318775634,-1.0172608534442347,0.34094953536987305
1708437907.3460512,-1.1052167415618896,-1.681831499139303,-2.526574436818258,2.2808655935474853,-1.0172532240497034,0.34093737602233887
1708437907.3480105,-1.1052048206329346,-1.681862016717428,-2.526623551045553,2.280853195781372,-1.0172284285174769,0.34094953536987305
1708437907.3500307,-1.1052080392837524,-1.6818977795042933,-2.526595417653219,2.280848665828369,-1.0172737280475062,0.3409167230129242
1708437907.3520231,-1.1051641702651978,-1.6818448505797328,-2.526639763508932,2.2808233934589843,-1.0172727743731897,0.3409329652786255
1708437907.3540409,-1.1051959991455078,-1.6818248234190882,-2.526583258305685,2.2808267313190917,-1.0172975699054163,0.34092116355895996
1708437907.3560245,-1.1051959991455078,-1.681840559045309,-2.5266030470477503,2.2808233934589843,-1.0172565619098108,0.3409254252910614
1708437907.3580217,-1.105163335800171,-1.681836267510885,-2.526663843785421,2.2808522421070556,-1.0172770659076136,0.3409416973590851
1708437907.359996,-1.105163335800171,-1.681868692437643,-2.526623551045553,2.2808071809956054,-1.0172651449786585,0.3409460484981537
1708437907.3620255,-1.105181097984314,-1.681864400903219,-2.526591126118795,2.2807997900196533,-1.0172889868365687,0.3409701883792877
1708437907.364031,-1.1051884889602661,-1.681831499139303,-2.526619259511129,2.280848665828369,-1.0172694365130823,0.34097447991371155
1708437907.3659983,-1.1051959991455078,-1.6818119488158167,-2.526607338582174,2.28083245336499,-1.0172150770770472,0.34095823764801025
1708437907.3680146,-1.1051840782165527,-1.6818448505797328,-2.526627842579977,2.280824823970459,-1.0172565619098108,0.34092977643013
1708437907.3699968,-1.1051796674728394,-1.6818529568114222,-2.526623551045553,2.2807983595081787,-1.0172932783709925,0.3409254550933838
1708437907.372014,-1.105221152305603,-1.681831499139303,-2.526595417653219,2.2807909685322265,-1.0172489325152796,0.3409211337566376
1708437907.3740275,-1.1051589250564575,-1.681873460809225,-2.5266061464892786,2.28083245336499,-1.0172770659076136,0.34098199009895325
1708437907.375976,-1.105150818824768,-1.6818157635130824,-2.526595417653219,2.2808655935474853,-1.0172446409808558,0.34098201990127563
1708437907.377981,-1.1051766872406006,-1.681791444818014,-2.5265865961657923,2.280853195781372,-1.0172727743731897,0.3409614562988281
1708437907.3799849,-1.105175256729126,-1.681831499139303,-2.5266311804400843,2.280848665828369,-1.0172651449786585,0.3409701883792877
1708437907.3819807,-1.1051796674728394,-1.6818157635130824,-2.5266268889056605,2.2808524805256347,-1.0172770659076136,0.3409539461135864
1708437907.3839993,-1.1051721572875977,-1.6818820438780726,-2.5265985170947474,2.2808148103901367,-1.0172608534442347,0.34096577763557434
1708437907.3859706,-1.105150818824768,-1.681833883325094,-2.5265987555133265,2.280824823970459,-1.017252270375387,0.3409745395183563
1708437907.3880262,-1.1052123308181763,-1.681836267510885,-2.526591126118795,2.2808355528065185,-1.0172770659076136,0.34094521403312683
1708437907.3899884,-1.105110764503479,-1.681899210015768,-2.526619259511129,2.28089086591687,-1.017236057912008,0.3409614562988281
1708437907.3920202,-1.105163335800171,-1.6818119488158167,-2.5266030470477503,2.2808281618305664,-1.0172608534442347,0.3409167230129242
1708437907.394001,-1.1052286624908447,-1.6818820438780726,-2.526595417653219,2.28083245336499,-1.0172532240497034,0.34095391631126404
1708437907.3959675,-1.1051597595214844,-1.6818496189513148,-2.5266106764422815,2.2808117109486084,-1.017236057912008,0.34097447991371155
1708437907.3979783,-1.1051840782165527,-1.681899210015768,-2.5265987555133265,2.280816002483032,-1.017236057912008,0.34094083309173584
1708437907.4000225,-1.105163335800171,-1.6818553409972132,-2.526574436818258,2.2807997900196533,-1.0172489325152796,0.3410026431083679
1708437907.4019911,-1.1052048206329346,-1.681866308251852,-2.526635471974508,2.2808729845234375,-1.0172975699054163,0.34097880125045776
1708437907.4040253,-1.1051589250564575,-1.6818777523436488,-2.526616160069601,2.280886335963867,-1.0172079245196741,0.34096261858940125
1708437907.405995,-1.1051884889602661,-1.681840559045309,-2.5266366640674036,2.2808398443409423,-1.0172489325152796,0.3409701883792877
1708437907.4080153,-1.105163335800171,-1.6818820438780726,-2.526578966771261,2.2808820444294433,-1.0172770659076136,0.3409528136253357
1708437907.4099894,-1.105150818824768,-1.6818496189513148,-2.5265780130969446,2.2808613020130615,-1.017240349446432,0.34096577763557434
1708437907.4120238,-1.105237364768982,-1.6818248234190882,-2.5266030470477503,2.2808984953114013,-1.0172727743731897,0.34099942445755005
1708437907.4140399,-1.1052123308181763,-1.6818248234190882,-2.526616160069601,2.2808443742939453,-1.0172446409808558,0.34098201990127563
1708437907.4160054,-1.1051344871520996,-1.6818167171873988,-2.5266030470477503,2.2808894354053955,-1.017207447682516,0.3409408926963806
1708437907.4180253,-1.1051589250564575,-1.681840559045309,-2.5265868345843714,2.2808443742939453,-1.0172079245196741,0.34097450971603394
1708437907.4200177,-1.1051884889602661,-1.6818167171873988,-2.5265868345843714,2.280853195781372,-1.0172446409808558,0.3409167528152466
1708437907.422041,-1.1051884889602661,-1.681864400903219,-2.526562277470724,2.280853195781372,-1.0172770659076136,0.34097886085510254
1708437907.4239907,-1.1052210330963135,-1.681862016717428,-2.5266104380237024,2.28093068181958,-1.0172532240497034,0.3409777283668518
1708437907.4260323,-1.1051840782165527,-1.681833883325094,-2.526607338582174,2.2808729845234375,-1.0172694365130823,0.34094953536987305
1708437907.4279897,-1.1052004098892212,-1.681833883325094,-2.526623551045553,2.2808281618305664,-1.0172608534442347,0.34093737602233887
1708437907.4299886,-1.1051464080810547,-1.6818119488158167,-2.526635471974508,2.2809101778217773,-1.0172446409808558,0.3409571349620819
1708437907.4320078,-1.105193018913269,-1.681807657281393,-2.526668373738424,2.280898256892822,-1.0172446409808558,0.3409571349620819
1708437907.4340277,-1.1051959991455078,-1.6819244823851527,-2.52663237253298,2.2808775144764404,-1.0172770659076136,0.34097015857696533
1708437907.4359765,-1.105187177658081,-1.681840559045309,-2.526616160069601,2.28080861150708,-1.0172565619098108,0.3408992886543274
1708437907.4380798,-1.105207920074463,-1.6818825207152308,-2.526591126118795,2.2808729845234375,-1.0172575155841272,0.3409366011619568
1708437907.4399965,-1.105159044265747,-1.6817823849120082,-2.526595417653219,2.2808655935474853,-1.0172575155841272,0.3409167528152466
1708437907.4419994,-1.1051959991455078,-1.6818529568114222,-2.526655975972311,2.2809056478687744,-1.017240349446432,0.34098201990127563
1708437907.4439921,-1.1051959991455078,-1.6818448505797328,-2.52663237253298,2.2808686929890136,-1.0172284285174769,0.34096577763557434
1708437907.446035,-1.1051708459854126,-1.681829114953512,-2.526591126118795,2.2809101778217773,-1.0172489325152796,0.34101054072380066
1708437907.448008,-1.1051545143127441,-1.6818496189513148,-2.5266366640674036,2.280886335963867,-1.0172694365130823,0.3409614562988281
1708437907.4499862,-1.1052004098892212,-1.6818496189513148,-2.52663237253298,2.2808233934589843,-1.0172565619098108,0.340969055891037
1708437907.4520106,-1.1052004098892212,-1.6818753681578578,-2.526628080998556,2.280848665828369,-1.0172532240497034,0.3409571349620819
1708437907.4540699,-1.1051840782165527,-1.6817838154234828,-2.5265868345843714,2.2808655935474853,-1.017212216054098,0.3409211337566376
1708437907.4560115,-1.1052154302597046,-1.681838174859518,-2.526604239140646,2.2808849054523925,-1.0172327200519007,0.34096577763557434
1708437907.4580004,-1.105187177658081,-1.681862016717428,-2.526578966771261,2.2808775144764404,-1.0172770659076136,0.34096911549568176
1708437907.4599679,-1.1051464080810547,-1.6818210087218226,-2.526595417653219,2.2808686929890136,-1.017224136983053,0.3409571349620819
1708437907.4619699,-1.105219841003418,-1.6818496189513148,-2.526616160069601,2.2808398443409423,-1.0172250906573694,0.340964674949646
1708437907.4639952,-1.1051915884017944,-1.6818858585753382,-2.526611630116598,2.2809013563343505,-1.0172575155841272,0.3409408926963806
1708437907.4659748,-1.1052242517471313,-1.6818047962584437,-2.526595417653219,2.280839129085205,-1.0172165075885218,0.3409166932106018
1708437907.4679735,-1.1052154302597046,-1.681838174859518,-2.526583258305685,2.28085105001416,-1.0172370115863245,0.34096574783325195
1708437907.4699733,-1.1052242517471313,-1.681857248345846,-2.526616160069601,2.280855579967163,-1.0172489325152796,0.3409614861011505
1708437907.472031,-1.1052525043487549,-1.6818119488158167,-2.526619259511129,2.280926390285156,-1.0172651449786585,0.3409907817840576
1708437907.4739807,-1.105207920074463,-1.681829114953512,-2.526595417653219,2.2808267313190917,-1.017196003590719,0.34096577763557434
1708437907.4759643,-1.105175256729126,-1.681840559045309,-2.526578966771261,2.280848665828369,-1.0172002951251429,0.34092435240745544
1708437907.4779913,-1.105231761932373,-1.681779523889059,-2.5266030470477503,2.280859871501587,-1.0172532240497034,0.34097450971603394
1708437907.4799745,-1.1051959991455078,-1.6818248234190882,-2.526627842579977,2.2808968263813476,-1.0172694365130823,0.3409286439418793
1708437907.4819715,-1.1052480936050415,-1.6818005047240199,-2.526611630116598,2.280843659038208,-1.0172413031207483,0.3409896790981293
1708437907.4839694,-1.1052650213241577,-1.681812425652975,-2.5265579859363,2.2808849054523925,-1.0172694365130823,0.3410104513168335
1708437907.485965,-1.1052361726760864,-1.681838174859518,-2.526595417653219,2.28085105001416,-1.0172694365130823,0.34095388650894165
1708437907.4880052,-1.1052361726760864,-1.6818119488158167,-2.526562277470724,2.2809175687977294,-1.0172770659076136,0.3409776985645294
1708437907.4899833,-1.1052560806274414,-1.681803365746969,-2.526616160069601,2.2808806139179687,-1.0172446409808558,0.3409528136253357
1708437907.4920003,-1.1052273511886597,-1.681873460809225,-2.526595417653219,2.2809056478687744,-1.0172327200519007,0.34097447991371155
1708437907.4940228,-1.1052436828613281,-1.6818005047240199,-2.5266204516040247,2.280883713359497,-1.0172413031207483,0.34098637104034424
1708437907.496015,-1.105269432067871,-1.6818248234190882,-2.526623551045553,2.280886335963867,-1.0172207991229456,0.34098535776138306
1708437907.498015,-1.1052770614624023,-1.681829114953512,-2.5266030470477503,2.280859871501587,-1.0172455946551722,0.34094950556755066
1708437907.5000045,-1.1052525043487549,-1.6818448505797328,-2.526627842579977,2.280928774470947,-1.0172694365130823,0.3409571647644043
1708437907.502,-1.1052347421646118,-1.6817838154234828,-2.526583258305685,2.280883713359497,-1.0172293821917933,0.3409571349620819
1708437907.5040014,-1.1052228212356567,-1.6818248234190882,-2.526595417653219,2.280847950572632,-1.0172250906573694,0.3409528136253357
1708437907.5059988,-1.1052273511886597,-1.6818005047240199,-2.526591126118795,2.2809387880512695,-1.0171883741961878,0.3409647047519684
1708437907.5079865,-1.1052436828613281,-1.6817885837950648,-2.526583258305685,2.280899925822876,-1.0172413031207483,0.34094521403312683
1708437907.5099916,-1.1052347421646118,-1.681833883325094,-2.526611630116598,2.280899925822876,-1.0171926657306116,0.34093737602233887
1708437907.511969,-1.1052887439727783,-1.6817838154234828,-2.5265579859363,2.2808882433125,-1.0172904173480433,0.3409777283668518
1708437907.5139832,-1.1053333282470703,-1.6818248234190882,-2.526574436818258,2.2809087473103027,-1.0172737280475062,0.3409416973590851
1708437907.5159893,-1.1052480936050415,-1.6818119488158167,-2.526546065007345,2.280930204982422,-1.0171926657306116,0.3409939706325531
1708437907.5179894,-1.1052724123001099,-1.6818868122496546,-2.526599709187643,2.280874653453491,-1.0172131697284144,0.3409528434276581
1708437907.5199645,-1.1052724123001099,-1.6818047962584437,-2.526616160069601,2.2808882433125,-1.0172327200519007,0.34092435240745544
1708437907.5219936,-1.1052799224853516,-1.6818167171873988,-2.526562277470724,2.280895634288452,-1.0172413031207483,0.34090811014175415
1708437907.5239782,-1.1052560806274414,-1.681812425652975,-2.526616160069601,2.280867262477539,-1.0172088781939905,0.34094950556755066
1708437907.5259967,-1.1052560806274414,-1.6818119488158167,-2.526583258305685,2.280937595958374,-1.017193619404928,0.34094521403312683
1708437907.5279815,-1.1052887439727783,-1.6818005047240199,-2.526611630116598,2.2809125620075683,-1.017233673726217,0.3410278260707855
1708437907.5299776,-1.1052591800689697,-1.681775232354635,-2.5266605059253138,2.280899925822876,-1.0172012487994593,0.34099075198173523
1708437907.5320005,-1.1052680015563965,-1.6817671261229457,-2.526604239140646,2.280928774470947,-1.0171473662005823,0.3409820795059204
1708437907.5340166,-1.1052680015563965,-1.6818629703917445,-2.5265868345843714,2.2809242445179443,-1.0171807448016565,0.34094950556755066
1708437907.5359828,-1.10529625415802,-1.6817671261229457,-2.526635471974508,2.280928774470947,-1.017221752797262,0.34099075198173523
1708437907.5380332,-1.1053037643432617,-1.6817671261229457,-2.526566807423727,2.280928774470947,-1.017172638569967,0.34090811014175415
1708437907.5400593,-1.1053332090377808,-1.6818181476988734,-2.5266085306750696,2.2810019689747314,-1.0171850363360804,0.3409940302371979
1708437907.542044,-1.1052918434143066,-1.6818167171873988,-2.526604239140646,2.2809530931660156,-1.0171979109393519,0.34094518423080444
1708437907.5440035,-1.1053125858306885,-1.6817976437010707,-2.526611868535177,2.2809976774403076,-1.0171812216388147,0.3409048616886139
1708437907.5459971,-1.1053037643432617,-1.6817885837950648,-2.5265701452838343,2.2810215192982177,-1.0171812216388147,0.34093666076660156
1708437907.54799,-1.105308175086975,-1.6818005047240199,-2.526604239140646,2.281008406276367,-1.0171650091754358,0.34096574783325195
1708437907.5500224,-1.1053037643432617,-1.6818167171873988,-2.526574436818258,2.280987425441406,-1.0172308127032679,0.34091246128082275
1708437907.5520043,-1.1053125858306885,-1.6817623577513636,-2.5266366640674036,2.2810370165058593,-1.0171573797809046,0.34093737602233887
1708437907.5540519,-1.1052830219268799,-1.681829114953512,-2.526611630116598,2.2810608583637695,-1.0171979109393519,0.3409167528152466
1708437907.5560472,-1.1052711009979248,-1.681833883325094,-2.526562277470724,2.2810446459003906,-1.017160717641012,0.3409408926963806
1708437907.5580432,-1.1052874326705933,-1.6818167171873988,-2.526562277470724,2.281090422267578,-1.0171969572650355,0.34098201990127563
1708437907.5600126,-1.105308175086975,-1.6817895374693812,-2.526583258305685,2.2810696798511962,-1.0171282927142542,0.34090811014175415
1708437907.5619993,-1.105308175086975,-1.6818300686278285,-2.526566807423727,2.281062288875244,-1.017144505177633,0.34092435240745544
1708437907.56402,-1.1053320169448853,-1.6818300686278285,-2.526599709187643,2.2810608583637695,-1.0171898047076624,0.3409539461135864
1708437907.5660377,-1.105328917503357,-1.6818138561644496,-2.5265875498401087,2.281020088786743,-1.0171521345721644,0.34097012877464294
1708437907.5680306,-1.1053364276885986,-1.681753774682516,-2.526604239140646,2.281020088786743,-1.0171411673175257,0.34092432260513306
1708437907.5700395,-1.1053740978240967,-1.6817838154234828,-2.526554886494772,2.28102891027417,-1.0171812216388147,0.3409733772277832
1708437907.5719945,-1.1053740978240967,-1.6818138561644496,-2.526562277470724,2.2810446459003906,-1.0171573797809046,0.34092432260513306
1708437907.5740235,-1.1053231954574585,-1.681775232354635,-2.526578966771261,2.2810327249714355,-1.017144505177633,0.3409408926963806
1708437907.5759919,-1.1053037643432617,-1.6818257770934046,-2.5265701452838343,2.281082792873047,-1.017193619404928,0.3409571349620819
1708437907.5780432,-1.105339527130127,-1.6818019352354945,-2.526546065007345,2.281074209804199,-1.017205540333883,0.3409571647644043
1708437907.5800123,-1.1053156852722168,-1.6817599735655726,-2.5265710989581507,2.2810532289692382,-1.0171812216388147,0.340920090675354
1708437907.582026,-1.1052830219268799,-1.6818047962584437,-2.5265710989581507,2.2809950548359375,-1.0171521345721644,0.3409539759159088
1708437907.5839872,-1.1053186655044556,-1.6818090877928675,-2.526599709187643,2.2810651498981933,-1.0171368757831019,0.340920090675354
1708437907.585971,-1.1053156852722168,-1.6818257770934046,-2.526599709187643,2.2810157972523193,-1.0171683470355433,0.34088006615638733
1708437907.5879803,-1.105339527130127,-1.6817885837950648,-2.5265710989581507,2.2810281950184326,-1.0171120802508753,0.3409733474254608
1708437907.5900059,-1.1053571701049805,-1.6818090877928675,-2.526550356541769,2.2810281950184326,-1.0171530882464808,0.34094953536987305
1708437907.592006,-1.1053231954574585,-1.6818005047240199,-2.5266085306750696,2.281062288875244,-1.0171812216388147,0.3409539759159088
1708437907.5939846,-1.1052979230880737,-1.6818138561644496,-2.526623551045553,2.281003876323364,-1.0171693007098597,0.34092870354652405
1708437907.5960078,-1.1053037643432617,-1.6818472347655238,-2.526578966771261,2.2810281950184326,-1.0171850363360804,0.3409452438354492
1708437907.59803,-1.1052979230880737,-1.6817623577513636,-2.526583258305685,2.2810112672993164,-1.0171282927142542,0.3409896194934845
1708437907.599987,-1.1053439378738403,-1.6817757091917933,-2.526599709187643,2.2810608583637695,-1.017160717641012,0.34093737602233887
1708437907.6019847,-1.105302333831787,-1.6818300686278285,-2.526562277470724,2.2810532289692382,-1.0171855131732386,0.34091249108314514
1708437907.603996,-1.105339527130127,-1.6818005047240199,-2.526619259511129,2.281012697810791,-1.0172022024737757,0.3409452438354492
1708437907.6059854,-1.1053320169448853,-1.6818047962584437,-2.5265875498401087,2.2810370165058593,-1.017172638569967,0.3409452438354492
1708437907.6079862,-1.1053483486175537,-1.681812425652975,-2.526583258305685,2.2810816007801513,-1.0171650091754358,0.34096258878707886
1708437907.6099873,-1.1053112745285034,-1.6818300686278285,-2.526550356541769,2.2810112672993164,-1.017176930104391,0.3409408926963806
1708437907.6120024,-1.1053608655929565,-1.6818300686278285,-2.526566807423727,2.2810415464588623,-1.0171240011798304,0.34099066257476807
1708437907.61399,-1.1053526401519775,-1.6817671261229457,-2.526591126118795,2.2810327249714355,-1.0171650091754358,0.340940922498703
1708437907.6160023,-1.105352759361267,-1.6817928753294886,-2.5265710989581507,2.281062288875244,-1.0171812216388147,0.34092867374420166
1708437907.6179833,-1.105294942855835,-1.6818167171873988,-2.5265875498401087,2.281024618739746,-1.0171163717852991,0.340920090675354
1708437907.6199853,-1.105339527130127,-1.6817227802672328,-2.526566807423727,2.2810112672993164,-1.0171282927142542,0.3409690856933594
1708437907.6219761,-1.1053141355514526,-1.6817847690977992,-2.5265920797931116,2.2810401159473876,-1.0171898047076624,0.3409528434276581
1708437907.6239827,-1.1053112745285034,-1.6818138561644496,-2.5265710989581507,2.281074209804199,-1.0171735922442835,0.3409322500228882
1708437907.6259747,-1.105330467224121,-1.6817671261229457,-2.526604239140646,2.281045837993286,-1.0171735922442835,0.3409895896911621
1708437907.6279817,-1.105334997177124,-1.6817757091917933,-2.5265710989581507,2.2810489374348144,-1.0171564261065882,0.340940922498703
1708437907.629984,-1.1053231954574585,-1.6818257770934046,-2.5265875498401087,2.281045837993286,-1.0171735922442835,0.34098199009895325
1708437907.632008,-1.1052830219268799,-1.6818005047240199,-2.5265710989581507,2.2810377317615966,-1.0171192328082483,0.34096574783325195
1708437907.6340246,-1.1053608655929565,-1.6817556820311488,-2.526583258305685,2.2810770708271484,-1.017132584248678,0.3409329950809479
1708437907.6359904,-1.105357050895691,-1.6817671261229457,-2.526578966771261,2.2810327249714355,-1.017148796712057,0.3409528434276581
1708437907.6379921,-1.1053231954574585,-1.6818090877928675,-2.526517931615011,2.2809993463703613,-1.0172141234027308,0.3409452438354492
1708437907.6400347,-1.1053112745285034,-1.6817928753294886,-2.526554886494772,2.2810157972523193,-1.0171240011798304,0.3409484624862671
1708437907.6419873,-1.1053112745285034,-1.6817804775633753,-2.526578966771261,2.2810696798511962,-1.0171812216388147,0.3409081697463989
1708437907.6440086,-1.105336308479309,-1.6818496189513148,-2.526583258305685,2.281012697810791,-1.0171650091754358,0.3409939110279083
1708437907.646,-1.105352759361267,-1.6817714176573695,-2.5265710989581507,2.281074209804199,-1.017144505177633,0.340940922498703
1708437907.6479974,-1.1053320169448853,-1.6818019352354945,-2.526538674031393,2.281094713802002,-1.017132584248678,0.3409614562988281
1708437907.6499913,-1.1053439378738403,-1.6818047962584437,-2.526538674031393,2.2810327249714355,-1.017148796712057,0.340964674949646
1708437907.6522024,-1.1053142547607422,-1.6818167171873988,-2.5265710989581507,2.281016989345215,-1.0171650091754358,0.3409733772277832
1708437907.6542768,-1.1053186655044556,-1.6817671261229457,-2.5265753904925745,2.2810532289692382,-1.017176930104391,0.3409081697463989
1708437907.6560466,-1.1053320169448853,-1.6817714176573695,-2.526554886494772,2.281074209804199,-1.0171530882464808,0.3409690856933594
1708437907.6580544,-1.105308175086975,-1.6818047962584437,-2.5266290346728724,2.2810069757648925,-1.017160717641012,0.34094953536987305
1708437907.6599977,-1.1053483486175537,-1.6817804775633753,-2.526574436818258,2.281074209804199,-1.0171650091754358,0.34097766876220703
1708437907.6619906,-1.1053112745285034,-1.681833406487936,-2.5265710989581507,2.2810281950184326,-1.0171979109393519,0.3409571647644043
1708437907.66403,-1.1053200960159302,-1.6817885837950648,-2.526554886494772,2.281090422267578,-1.0171812216388147,0.3409571647644043
1708437907.6659777,-1.1053320169448853,-1.6818047962584437,-2.5265875498401087,2.281017227763794,-1.0171478430377405,0.34098199009895325
1708437907.6679986,-1.1053364276885986,-1.6818257770934046,-2.5266247431384485,2.2810415464588623,-1.0171683470355433,0.3409614562988281
1708437907.6700158,-1.1053483486175537,-1.6818090877928675,-2.5265710989581507,2.281024618739746,-1.0171812216388147,0.3409614562988281
1708437907.6720488,-1.105334997177124,-1.681833406487936,-2.5266204516040247,2.281057758922241,-1.0171564261065882,0.34097766876220703
1708437907.6740267,-1.10530686378479,-1.6818019352354945,-2.5265753904925745,2.281003876323364,-1.0171812216388147,0.3409366309642792
1708437907.6760104,-1.1053475141525269,-1.681779523889059,-2.526578966771261,2.281020088786743,-1.0171650091754358,0.340940922498703
1708437907.677995,-1.105334997177124,-1.6818090877928675,-2.526554886494772,2.281000776881836,-1.017172638569967,0.3409614562988281
1708437907.6799917,-1.1052993535995483,-1.6818138561644496,-2.526550356541769,2.281008167857788,-1.0171564261065882,0.34092438220977783
1708437907.6819768,-1.1053608655929565,-1.6818210087218226,-2.526583258305685,2.2810532289692382,-1.017160717641012,0.34098199009895325
1708437907.6840153,-1.1053200960159302,-1.6818844280638636,-2.526554886494772,2.280996246928833,-1.017176930104391,0.3409571647644043
1708437907.6860194,-1.105294942855835,-1.681833406487936,-2.5265753904925745,2.281016989345215,-1.0171693007098597,0.34095391631126404
1708437907.6880174,-1.105336308479309,-1.6817976437010707,-2.5265753904925745,2.2809950548359375,-1.0171683470355433,0.340940922498703
1708437907.6900618,-1.1053231954574585,-1.6817671261229457,-2.5265710989581507,2.281062288875244,-1.0171650091754358,0.34100615978240967
1708437907.6920083,-1.1053276062011719,-1.6817838154234828,-2.5265875498401087,2.280991955394409,-1.0171650091754358,0.34097015857696533
1708437907.6940527,-1.1053571701049805,-1.681812425652975,-2.5265875498401087,2.281045837993286,-1.0171812216388147,0.3409452438354492
1708437907.695993,-1.1053439378738403,-1.6818181476988734,-2.5265920797931116,2.280968113536499,-1.017160717641012,0.3409452438354492
1708437907.69798,-1.1053439378738403,-1.6818257770934046,-2.526599709187643,2.281024618739746,-1.0171650091754358,0.34092867374420166
1708437907.6999886,-1.1053231954574585,-1.6817928753294886,-2.526554886494772,2.2810327249714355,-1.0171402136432093,0.3409571647644043
1708437907.7020001,-1.1053156852722168,-1.6817928753294886,-2.526562277470724,2.2809993463703613,-1.0171650091754358,0.34098199009895325
1708437907.7040005,-1.1053231954574585,-1.6818300686278285,-2.5265920797931116,2.280996246928833,-1.0171812216388147,0.34098637104034424
1708437907.7059724,-1.1053439378738403,-1.6817928753294886,-2.526574436818258,2.28102891027417,-1.0171893278705042,0.34092867374420166
1708437907.7079895,-1.1053696870803833,-1.6818210087218226,-2.526562277470724,2.2810754018970947,-1.0171521345721644,0.3409939110279083
1708437907.7099767,-1.1053231954574585,-1.6818586788573207,-2.526604239140646,2.2809905248829345,-1.0171812216388147,0.3409614562988281
1708437907.7119725,-1.1053526401519775,-1.6817389927306117,-2.5265710989581507,2.2810532289692382,-1.0171564261065882,0.3409895896911621
1708437907.7139823,-1.1053407192230225,-1.6818047962584437,-2.5265985170947474,2.281016989345215,-1.017221752797262,0.3409366309642792
1708437907.716033,-1.10530686378479,-1.681807657281393,-2.526566807423727,2.2809993463703613,-1.017176930104391,0.34091246128082275
1708437907.7179854,-1.1053186655044556,-1.6817714176573695,-2.526562277470724,2.280991955394409,-1.0171850363360804,0.3409452438354492
1708437907.719991,-1.1052993535995483,-1.6818138561644496,-2.526599709187643,2.281045837993286,-1.017205540333883,0.3409614562988281
1708437907.722023,-1.1053451299667358,-1.6817227802672328,-2.5265710989581507,2.281062288875244,-1.017172638569967,0.3409416675567627
1708437907.7240133,-1.105294942855835,-1.6817885837950648,-2.526615921651022,2.281045837993286,-1.017209831868307,0.34099066257476807
1708437907.7260356,-1.105352759361267,-1.6818424663939417,-2.5265875498401087,2.281008406276367,-1.017132584248678,0.3409571647644043
1708437907.7279966,-1.1053318977355957,-1.681779523889059,-2.526546065007345,2.2809712129780273,-1.017148796712057,0.34096574783325195
1708437907.7299929,-1.1053156852722168,-1.6817928753294886,-2.5265591780291956,2.2809993463703613,-1.0171969572650355,0.340940922498703
1708437907.7320147,-1.1053200960159302,-1.681713720361227,-2.5265710989581507,2.2810370165058593,-1.0172141234027308,0.3409733772277832
1708437907.734047,-1.105339527130127,-1.6818257770934046,-2.526599709187643,2.28102891027417,-1.0171850363360804,0.34094953536987305
1708437907.7359867,-1.1052830219268799,-1.6818229160704554,-2.526550356541769,2.28102891027417,-1.017160717641012,0.34097766876220703
1708437907.7379875,-1.1053112745285034,-1.6817838154234828,-2.526595417653219,2.2809595304676513,-1.0172012487994593,0.34092438220977783
1708437907.740012,-1.1052993535995483,-1.6817885837950648,-2.526566807423727,2.280996485347412,-1.0171683470355433,0.3409082293510437
1708437907.742042,-1.1052755117416382,-1.6818005047240199,-2.5265963713275355,2.2810415464588623,-1.017193619404928,0.3409459888935089
1708437907.743998,-1.1053231954574585,-1.6817885837950648,-2.526583258305685,2.280987425441406,-1.017176930104391,0.3409409821033478
1708437907.7460325,-1.1053156852722168,-1.6818562946715296,-2.526566807423727,2.2810215192982177,-1.0171893278705042,0.3409852981567383
1708437907.7479923,-1.1053156852722168,-1.681833883325094,-2.526554886494772,2.281045837993286,-1.0171850363360804,0.34099066257476807
1708437907.749993,-1.1053245067596436,-1.6817976437010707,-2.5265710989581507,2.280968113536499,-1.0172012487994593,0.3409416675567627
1708437907.7519846,-1.1052950620651245,-1.6817928753294886,-2.5265710989581507,2.2809974390217285,-1.017172638569967,0.34094953536987305
1708437907.7539902,-1.1053156852722168,-1.6817733250060023,-2.526604239140646,2.281050367946289,-1.017205540333883,0.3409809470176697
1708437907.75599,-1.1053112745285034,-1.6818047962584437,-2.5265875498401087,2.2810708719440917,-1.0171893278705042,0.34089624881744385
1708437907.7580411,-1.1052993535995483,-1.6817523441710414,-2.5265710989581507,2.2809757429310302,-1.017193619404928,0.3409452736377716
1708437907.7600062,-1.105294942855835,-1.6818090877928675,-2.5265429655658167,2.281024618739746,-1.017205540333883,0.34094953536987305
1708437907.7620335,-1.1052874326705933,-1.6818138561644496,-2.5265875498401087,2.2809950548359375,-1.017209831868307,0.3409690856933594
1708437907.7640185,-1.1053037643432617,-1.6818181476988734,-2.5266204516040247,2.280980034465454,-1.0171969572650355,0.34100255370140076
1708437907.7660236,-1.1052711009979248,-1.6817432842650355,-2.526529852543966,2.280996485347412,-1.0172632376300257,0.3409571647644043
1708437907.7679977,-1.1053482294082642,-1.6817928753294886,-2.5265710989581507,2.280988855952881,-1.0171926657306116,0.34094956517219543
1708437907.7699995,-1.1053156852722168,-1.6817838154234828,-2.526578966771261,2.281033440227173,-1.0171893278705042,0.34097766876220703
1708437907.772041,-1.105324387550354,-1.6817804775633753,-2.526566807423727,2.28101555883374,-1.0171359221087855,0.3409571647644043
1708437907.7739983,-1.1053332090377808,-1.6817556820311488,-2.5265710989581507,2.281016989345215,-1.0171926657306116,0.34098637104034424
1708437907.7759879,-1.1052831411361694,-1.6817647419371546,-2.5265710989581507,2.281012697810791,-1.017237965260641,0.3409452736377716
1708437907.7779748,-1.1052993535995483,-1.6817928753294886,-2.526562277470724,2.2810377317615966,-1.017237965260641,0.3409690856933594
1708437907.7800257,-1.1053112745285034,-1.6818181476988734,-2.526550356541769,2.28095190107312,-1.0172088781939905,0.3409329652786255
1708437907.782025,-1.1052712202072144,-1.6817647419371546,-2.526583258305685,2.2810303407856445,-1.017237965260641,0.34097766876220703
1708437907.7840025,-1.105336308479309,-1.6817895374693812,-2.526604239140646,2.280991955394409,-1.0172207991229456,0.34099388122558594
1708437907.7860274,-1.1053037643432617,-1.6817475757994593,-2.5265875498401087,2.280987425441406,-1.0172207991229456,0.3409647047519684
1708437907.7880034,-1.1053112745285034,-1.6817804775633753,-2.5266128222094935,2.280991955394409,-1.0172608534442347,0.3410309851169586
1708437907.7900293,-1.1052666902542114,-1.6818224392332972,-2.5265920797931116,2.2810708719440917,-1.0172284285174769,0.3410104513168335
1708437907.7920427,-1.1053287982940674,-1.6817757091917933,-2.526566807423727,2.281033440227173,-1.0172575155841272,0.3409895896911621
1708437907.7940254,-1.1053571701049805,-1.6817847690977992,-2.526578966771261,2.281016989345215,-1.0172727743731897,0.3410104513168335
1708437907.7960432,-1.1053276062011719,-1.6817804775633753,-2.5265472571002405,2.281000776881836,-1.0172889868365687,0.3410385847091675
1708437907.7980149,-1.1052831411361694,-1.6817714176573695,-2.526583258305685,2.281005306834839,-1.0173352400409144,0.3410007655620575
1708437907.8000011,-1.1052874326705933,-1.6818090877928675,-2.5265875498401087,2.281016989345215,-1.0172532240497034,0.3410375118255615
1708437907.8020003,-1.1052830219268799,-1.6817976437010707,-2.526554886494772,2.280988855952881,-1.0172975699054163,0.34105372428894043
1708437907.8039892,-1.1052547693252563,-1.6817838154234828,-2.5265591780291956,2.2810708719440917,-1.0172770659076136,0.34104835987091064
1708437907.8060002,-1.10529625415802,-1.6817971668639125,-2.5266366640674036,2.2810377317615966,-1.017289940510885,0.3410818874835968
1708437907.8080242,-1.1053125858306885,-1.681713720361227,-2.526562277470724,2.2810215192982177,-1.0172284285174769,0.3410855233669281
1708437907.8099892,-1.1053156852722168,-1.6818090877928675,-2.526604239140646,2.281008406276367,-1.0172565619098108,0.34114205837249756
1708437907.812026,-1.105308175086975,-1.6817690334715785,-2.526599709187643,2.281024618739746,-1.0172446409808558,0.3411204516887665
1708437907.8139918,-1.105294942855835,-1.681760927239889,-2.526541773472921,2.281012697810791,-1.0172856489764612,0.34118568897247314
1708437907.8159883,-1.105294942855835,-1.6817475757994593,-2.526550356541769,2.2810157972523193,-1.0172327200519007,0.34123361110687256
1708437907.8179963,-1.1053364276885986,-1.6818047962584437,-2.5266040007220667,2.2810215192982177,-1.0172694365130823,0.3412652909755707
1708437907.8199956,-1.1052697896957397,-1.6817361317076625,-2.526566807423727,2.280984564418457,-1.0172694365130823,0.3412487506866455
1708437907.8220491,-1.1053245067596436,-1.681751390496725,-2.526604239140646,2.2810377317615966,-1.0172446409808558,0.34130859375
1708437907.8240259,-1.1052993535995483,-1.6818090877928675,-2.526578966771261,2.2810589510151367,-1.0172975699054163,0.3413666784763336
1708437907.8260171,-1.105262279510498,-1.681793829003805,-2.526591126118795,2.281008406276367,-1.0172932783709925,0.3413774371147156
1708437907.8280118,-1.105311393737793,-1.6818343601622523,-2.526550356541769,2.2810258108326416,-1.0172813574420374,0.3413967490196228
1708437907.830031,-1.105336308479309,-1.6818343601622523,-2.5265710989581507,2.281046076411865,-1.0172651449786585,0.3414493799209595
1708437907.831977,-1.105294942855835,-1.6817757091917933,-2.5265796820269983,2.2810050684162597,-1.0172565619098108,0.3414851129055023
1708437907.8340147,-1.1053037643432617,-1.6817928753294886,-2.5265753904925745,2.281024618739746,-1.0172446409808558,0.3415452837944031
1708437907.8359787,-1.1052755117416382,-1.6817361317076625,-2.526578966771261,2.2811242777058105,-1.017224136983053,0.34156423807144165
1708437907.8379896,-1.1052652597427368,-1.6817151508727015,-2.5265472571002405,2.281012697810791,-1.0172565619098108,0.34160780906677246
1708437907.8399973,-1.1053320169448853,-1.6817647419371546,-2.5265753904925745,2.2810579973408203,-1.0173056761371058,0.3416813015937805
1708437907.84206,-1.1052993535995483,-1.6818019352354945,-2.5266040007220667,2.281008406276367,-1.0172813574420374,0.3416842520236969
1708437907.8440053,-1.10536527633667,-1.6817690334715785,-2.526574436818258,2.281016989345215,-1.0173352400409144,0.34180691838264465
1708437907.8459892,-1.105324387550354,-1.6817523441710414,-2.526566807423727,2.280996485347412,-1.017264191304342,0.34181782603263855
1708437907.848022,-1.1053200960159302,-1.6817733250060023,-2.526583258305685,2.281000776881836,-1.017252270375387,0.3418324589729309
1708437907.849988,-1.105340838432312,-1.6818105183043421,-2.5265579859363,2.281012697810791,-1.0172565619098108,0.341928094625473
1708437907.8519838,-1.1053200960159302,-1.6817409000792445,-2.5265710989581507,2.280988855952881,-1.0172846953021448,0.34198498725891113
1708437907.853992,-1.105294942855835,-1.6817523441710414,-2.526599709187643,2.280988855952881,-1.0172727743731897,0.34208086133003235
1708437907.855993,-1.105294942855835,-1.6817847690977992,-2.526604239140646,2.281000776881836,-1.0172565619098108,0.34213921427726746
1708437907.8580334,-1.1053200960159302,-1.6817523441710414,-2.526599709187643,2.280996485347412,-1.0172651449786585,0.3422485291957855
1708437907.8600373,-1.1053320169448853,-1.681760927239889,-2.5265875498401087,2.280991955394409,-1.017268482838766,0.34230828285217285
1708437907.8619885,-1.1053200960159302,-1.6817451916136683,-2.526562277470724,2.281000776881836,-1.0172608534442347,0.3424041271209717
1708437907.864004,-1.1053276062011719,-1.6817451916136683,-2.526595417653219,2.281003876323364,-1.0172608534442347,0.3424476087093353
1708437907.8659868,-1.1053482294082642,-1.6817823849120082,-2.5265701452838343,2.280996485347412,-1.0172608534442347,0.3425583243370056
1708437907.868009,-1.1052993535995483,-1.6817566357054652,-2.526616160069601,2.2810370165058593,-1.017301384602682,0.34276482462882996
1708437907.8700376,-1.1052993535995483,-1.6817523441710414,-2.526578966771261,2.2810377317615966,-1.0172598997699183,0.34283962845802307
1708437907.872001,-1.1053186655044556,-1.681765695611471,-2.526546065007345,2.2809950548359375,-1.0172608534442347,0.34293070435523987
1708437907.874016,-1.1053112745285034,-1.6817361317076625,-2.5265710989581507,2.280987425441406,-1.017268482838766,0.34304919838905334
1708437907.8759668,-1.1053037643432617,-1.6818062267699183,-2.526616160069601,2.281066580409668,-1.0172889868365687,0.3432149291038513
1708437907.8779752,-1.105308175086975,-1.6817451916136683,-2.526595417653219,2.281050367946289,-1.017297093068258,0.34340527653694153
1708437907.8800025,-1.1053112745285034,-1.681760927239889,-2.526623551045553,2.2810112672993164,-1.0172598997699183,0.3435233533382416
1708437907.881968,-1.1053320169448853,-1.6817409000792445,-2.526566807423727,2.2810069757648925,-1.0172846953021448,0.3435851037502289
1708437907.8839943,-1.1052906513214111,-1.6817194424071253,-2.526607338582174,2.2810415464588623,-1.0172928015338343,0.34372106194496155
1708437907.8859813,-1.1053112745285034,-1.681728025475973,-2.526611630116598,2.280996485347412,-1.017268482838766,0.3440206050872803
1708437907.8880017,-1.1053564548492432,-1.6817475757994593,-2.526562277470724,2.281062288875244,-1.0173175970660608,0.34410133957862854
1708437907.8899932,-1.105339527130127,-1.6817475757994593,-2.526599709187643,2.2809950548359375,-1.0172846953021448,0.3442971408367157
1708437907.8920634,-1.1053200960159302,-1.6817556820311488,-2.526595417653219,2.281024618739746,-1.0173218886004847,0.3445218801498413
1708437907.8940287,-1.1053231954574585,-1.6817690334715785,-2.526595417653219,2.281066580409668,-1.0173047224627894,0.34467169642448425
1708437907.8960354,-1.1053483486175537,-1.6817523441710414,-2.526623551045553,2.281016989345215,-1.0173142592059534,0.34492579102516174
1708437907.8980224,-1.1053305864334106,-1.6817647419371546,-2.5265868345843714,2.281012697810791,-1.017297093068258,0.3451489806175232
1708437907.9000025,-1.1053037643432617,-1.6817733250060023,-2.526611630116598,2.2810532289692382,-1.0173371473895472,0.3454301953315735
1708437907.9020195,-1.1053276062011719,-1.6817409000792445,-2.5265865961657923,2.281008167857788,-1.0173328558551233,0.3456042408943176
1708437907.9040258,-1.1052906513214111,-1.6817370853819789,-2.526604239140646,2.2809993463703613,-1.0173857847796839,0.345876544713974
1708437907.9060795,-1.1053696870803833,-1.681728025475973,-2.5266204516040247,2.2810327249714355,-1.0173853079425257,0.34610405564308167
1708437907.9080293,-1.105308175086975,-1.6817475757994593,-2.526604239140646,2.281074209804199,-1.0173395315753382,0.34632980823516846
1708437907.910021,-1.1053112745285034,-1.6817499599852503,-2.526607338582174,2.2810727792927246,-1.0174253622638147,0.3466007709503174
1708437907.911979,-1.1053245067596436,-1.6817542515196742,-2.526607338582174,2.281020088786743,-1.017388645802633,0.34690624475479126
1708437907.9140255,-1.1053439378738403,-1.6817409000792445,-2.526611630116598,2.281090422267578,-1.0174372831927698,0.3471681475639343
1708437907.9160192,-1.1053571701049805,-1.6817237339415492,-2.52663237253298,2.2810608583637695,-1.0174091498004358,0.3475421369075775
1708437907.9179707,-1.1053231954574585,-1.6817475757994593,-2.5265494028674524,2.2810239034840087,-1.0173962751971644,0.3478565812110901
1708437907.9200053,-1.1053364276885986,-1.6817733250060023,-2.5265875498401087,2.2810816007801513,-1.017449204121725,0.3481557071208954
1708437907.9220228,-1.1052905321121216,-1.6817647419371546,-2.526574436818258,2.2810327249714355,-1.0174091498004358,0.34855279326438904
1708437907.9240024,-1.1053200960159302,-1.6817647419371546,-2.526644293461935,2.2810727792927246,-1.0174534956561487,0.3488783836364746
1708437907.9259925,-1.1053439378738403,-1.6817361317076625,-2.5265985170947474,2.2810157972523193,-1.0174201170550745,0.34918081760406494
1708437907.927973,-1.1053452491760254,-1.6817823849120082,-2.5266311804400843,2.2810532289692382,-1.0174525419818323,0.3496933579444885
1708437907.9299786,-1.1053439378738403,-1.6817757091917933,-2.526595417653219,2.281102104777954,-1.0174406210528772,0.34994417428970337
1708437907.9320138,-1.1053305864334106,-1.6817690334715785,-2.526623551045553,2.2810401159473876,-1.0174244085894983,0.35036060214042664
1708437907.9339945,-1.105294942855835,-1.6817475757994593,-2.5266104380237024,2.281057758922241,-1.017473045979635,0.35079270601272583
1708437907.9359848,-1.1053320169448853,-1.6817523441710414,-2.526627842579977,2.2810651498981933,-1.0174849669085901,0.3511810898780823
1708437907.938024,-1.1053156852722168,-1.6817318401732386,-2.526647392903463,2.281106634730957,-1.017463509236471,0.35154563188552856
1708437907.9399788,-1.1053200960159302,-1.6818391285338343,-2.5266595522509974,2.2810327249714355,-1.0175212065326136,0.35199815034866333
1708437907.9420755,-1.1052950620651245,-1.6817566357054652,-2.5266223589526575,2.281090422267578,-1.0174959341632288,0.35239142179489136
1708437907.9439971,-1.1052504777908325,-1.681732793847555,-2.5266595522509974,2.2810696798511962,-1.0175569693194788,0.3529047966003418
1708437907.9460537,-1.1053320169448853,-1.6817318401732386,-2.526672665272848,2.2810565668293457,-1.0175612608539026,0.35331034660339355
1708437907.9479928,-1.105294942855835,-1.6817690334715785,-2.526647392903463,2.2810770708271484,-1.0175569693194788,0.3537415862083435
1708437907.9500303,-1.10536527633667,-1.6817409000792445,-2.52661377588381,2.2810415464588623,-1.017585579548971,0.35427552461624146
1708437907.9519858,-1.105339527130127,-1.6817194424071253,-2.5266106764422815,2.2810327249714355,-1.0176094214068812,0.35470107197761536
1708437907.9539902,-1.1053608655929565,-1.6817847690977992,-2.52665621439089,2.2810415464588623,-1.017613712941305,0.35524505376815796
1708437907.9560652,-1.10530686378479,-1.6817409000792445,-2.5266640822040003,2.2810651498981933,-1.0175965468036097,0.3557390570640564
1708437907.958025,-1.1052993535995483,-1.6817780933775843,-2.5266552607165735,2.2810446459003906,-1.017599884663717,0.35624516010284424
1708437907.9600518,-1.1053156852722168,-1.6817566357054652,-2.5266714731799524,2.2810069757648925,-1.0176604429828089,0.35680195689201355
1708437907.962037,-1.1053276062011719,-1.6817523441710414,-2.5266671816455286,2.2810446459003906,-1.0176885763751429,0.35733214020729065
1708437907.9640048,-1.1053156852722168,-1.681760927239889,-2.5267282168017786,2.2810608583637695,-1.017684284840719,0.3577673137187958
1708437907.966033,-1.1053037643432617,-1.6817847690977992,-2.526686731969015,2.281102104777954,-1.0176919142352503,0.35839414596557617
1708437907.9680305,-1.1053037643432617,-1.6817523441710414,-2.526736084614889,2.281085892314575,-1.0177291075335901,0.35889461636543274
1708437907.9700239,-1.105308175086975,-1.6817885837950648,-2.526801411305563,2.2810157972523193,-1.0177605787860315,0.359512597322464
1708437907.9720376,-1.105340838432312,-1.6818019352354945,-2.526727263127462,2.28103153287854,-1.01772386232485,0.3600904941558838
1708437907.9739807,-1.1052347421646118,-1.6818105183043421,-2.526759926472799,2.281106634730957,-1.0177400747882288,0.36070680618286133
1708437907.9760273,-1.105263590812683,-1.6817847690977992,-2.5267303625689905,2.2810489374348144,-1.0177724997149866,0.3613700270652771
1708437907.9779913,-1.1052428483963013,-1.6817566357054652,-2.526721779500143,2.2810696798511962,-1.0177605787860315,0.3619028627872467
1708437907.979961,-1.10529625415802,-1.6817804775633753,-2.526766363774435,2.281008406276367,-1.0177391211139124,0.3625539243221283
1708437907.9819684,-1.105231761932373,-1.6817804775633753,-2.5268288294421595,2.281020088786743,-1.017796818410055,0.3631106913089752
1708437907.9839547,-1.1052303314208984,-1.6817804775633753,-2.526794497166769,2.28101555883374,-1.0177925268756312,0.36380818486213684
1708437907.9859598,-1.1052525043487549,-1.6817599735655726,-2.526815954838888,2.2810653883167724,-1.0178402105914515,0.364511638879776
1708437907.9880035,-1.1052480936050415,-1.6818181476988734,-2.526844088231222,2.280991955394409,-1.017836872731344,0.3651612102985382
1708437907.9900134,-1.1052405834197998,-1.6817928753294886,-2.5268147627459925,2.2810327249714355,-1.017815415059225,0.36585548520088196
1708437907.9920456,-1.105231761932373,-1.6817757091917933,-2.5268667379962366,2.281029148692749,-1.017815415059225,0.36656635999679565
1708437907.9940326,-1.1051664352416992,-1.6817847690977992,-2.5268386046039026,2.2810050684162597,-1.0178878943072718,0.3672936260700226
1708437907.9960353,-1.1052167415618896,-1.681751390496725,-2.5268994013415735,2.281016989345215,-1.0179131666766565,0.3680732250213623
1708437907.9980364,-1.1052048206329346,-1.6817928753294886,-2.5268831888781946,2.2810377317615966,-1.017907444630758,0.36881089210510254
1708437908.0000093,-1.1051255464553833,-1.6817928753294886,-2.5269280115710657,2.280959292049072,-1.0178793112384241,0.3694310486316681
1708437908.0020328,-1.1051522493362427,-1.6817714176573695,-2.5269561449633997,2.28101555883374,-1.017968479787008,0.3702612817287445
1708437908.0039995,-1.1051270961761475,-1.6817757091917933,-2.526951853428976,2.28095190107312,-1.017956558858053,0.37101906538009644
1708437908.0060618,-1.1051729917526245,-1.6818119488158167,-2.5269508997546595,2.280984564418457,-1.0180085341082972,0.37170466780662537
1708437908.0080528,-1.1051032543182373,-1.6818629703917445,-2.5269835630999964,2.2810138899036865,-1.0179675261126917,0.37249600887298584
1708437908.0100331,-1.1050838232040405,-1.6817885837950648,-2.5269749800311487,2.2809488016315917,-1.0179913679706019,0.37328842282295227
1708437908.0120137,-1.1051089763641357,-1.681791444818014,-2.5270031134234827,2.2809323507496337,-1.0180113951312464,0.3739781081676483
1708437908.014021,-1.1050808429718018,-1.681779523889059,-2.5270074049579065,2.2809242445179443,-1.0180309454547327,0.37483152747154236
1708437908.015977,-1.1049985885620117,-1.6818047962584437,-2.527043883000509,2.280937834376953,-1.0180557409869593,0.37555602192878723
1708437908.0179684,-1.1049777269363403,-1.681807657281393,-2.527043883000509,2.2808310228535156,-1.0180962721454065,0.3763550817966461
1708437908.0199783,-1.1049879789352417,-1.681807657281393,-2.527076307927267,2.2808191019245605,-1.0180919806109827,0.3771495223045349
1708437908.0219872,-1.1049844026565552,-1.681862016717428,-2.527079407368795,2.280911608333252,-1.0180991331683558,0.3779321610927582
1708437908.0239668,-1.104934811592102,-1.681899210015768,-2.52706748643984,2.2807790476032714,-1.0181482473956507,0.378714382648468
1708437908.0259614,-1.10492742061615,-1.6818248234190882,-2.5270782152758997,2.2808500963398437,-1.0181482473956507,0.3796294629573822
1708437908.0279756,-1.1049199104309082,-1.681864400903219,-2.5270913282977503,2.280792399043701,-1.0181439558612269,0.3804755210876465
1708437908.0299666,-1.1048673391342163,-1.681859632531637,-2.5270827452289026,2.2807862001606445,-1.0181549231158655,0.38130122423171997
1708437908.0319746,-1.1048346757888794,-1.6818977795042933,-2.5271273295031946,2.2807485300251464,-1.0182159582721155,0.38211628794670105
1708437908.0339942,-1.104818344116211,-1.6818887195982875,-2.5270937124835413,2.2806424337574462,-1.0182202498065394,0.38306793570518494
1708437908.0359683,-1.1048166751861572,-1.6818767986693324,-2.527163569127218,2.280725880260132,-1.0182355085956019,0.3838808536529541
1708437908.0379665,-1.1047136783599854,-1.6818677387633265,-2.527130905781881,2.2806712824055175,-1.018247429524557,0.3847714960575104
1708437908.0399785,-1.1047180891036987,-1.6819125614561976,-2.5271874109851282,2.280635042781494,-1.0183079878436487,0.3856702744960785
1708437908.04209,-1.1047357320785522,-1.6818915806212367,-2.5271831194507044,2.2806364732929687,-1.0183075110064905,0.38645943999290466
1708437908.0440266,-1.1046993732452393,-1.6819335422911585,-2.5272203127490442,2.2806169229694824,-1.0182531515704554,0.3873863220214844
1708437908.0460498,-1.1046385765075684,-1.6819325886168421,-2.5272322336779993,2.280571146602295,-1.0183313528644007,0.3883090019226074
1708437908.0480137,-1.1046593189239502,-1.681936880151266,-2.5272071997271937,2.280651016826294,-1.018338982258932,0.3892456293106079
1708437908.050029,-1.1046154499053955,-1.6819683514037074,-2.5272322336779993,2.2806107240864257,-1.0183499495135706,0.3900977075099945
1708437908.051996,-1.10460364818573,-1.6820055447020472,-2.527259174977438,2.2805988031574707,-1.018407169972555,0.3909522294998169
1708437908.0540013,-1.1045767068862915,-1.682058950463766,-2.52722675005068,2.2805210787006835,-1.0184195677386683,0.39179742336273193
1708437908.0560424,-1.1045722961425781,-1.6819845638670863,-2.527222220097677,2.2805134493061523,-1.0184758345233362,0.39269211888313293
1708437908.0580366,-1.1045855283737183,-1.6820036373534144,-2.527254883443014,2.2804757791706542,-1.0184186140643519,0.3935542106628418
1708437908.0600455,-1.1044869422912598,-1.68200745205068,-2.527246061955587,2.280472918147705,-1.0184834639178675,0.394486665725708
1708437908.06198,-1.1044914722442627,-1.682016511956686,-2.5272629896747034,2.280444784755371,-1.0184295813189905,0.3953634202480316
1708437908.0639918,-1.104472041130066,-1.6820484600462855,-2.5272541681872767,2.2804414468952636,-1.0185077826129358,0.3962651193141937
1708437908.065975,-1.1044437885284424,-1.6820394001402796,-2.5272911230670374,2.2803756433674316,-1.0184991995440882,0.3972342014312744
1708437908.067985,-1.1044278144836426,-1.682117601434225,-2.5272868315326136,2.2803401189991455,-1.01855975786318,0.39816054701805115
1708437908.0699782,-1.104399561882019,-1.6821090183653773,-2.5273311773883265,2.2803727823444824,-1.0185468832599085,0.39912813901901245
1708437908.0719683,-1.1043757200241089,-1.6821204624571742,-2.5273521582232874,2.280313177699707,-1.0185912291156214,0.4001013934612274
1708437908.0740168,-1.1043230295181274,-1.6821748218932093,-2.5273268858539026,2.280291720027588,-1.0185664335833948,0.4009762406349182
1708437908.075984,-1.1043022871017456,-1.6821681461729945,-2.527371946965353,2.280325098628662,-1.0186393896686,0.4019520878791809
1708437908.0779934,-1.1042993068695068,-1.682176252404684,-2.5273762384997767,2.2802769380756835,-1.0186026732074183,0.4028366506099701
1708437908.0799763,-1.1042754650115967,-1.682167192498678,-2.527407948170797,2.2802650171467285,-1.0186751524554651,0.4037792682647705
1708437908.0819714,-1.1042886972427368,-1.6821876964964808,-2.527412239705221,2.2803031641193847,-1.0186427275287073,0.4047177731990814
1708437908.08397,-1.1042391061782837,-1.6822411022581996,-2.52739125887026,2.2802128034779052,-1.0187152067767542,0.4056519567966461
1708437908.085969,-1.104243516921997,-1.682265420953268,-2.5273991266833704,2.280237837428711,-1.018653694783346,0.4065733850002289
1708437908.087968,-1.1042078733444214,-1.6822849712767542,-2.5274363199817103,2.2801691728779296,-1.018730942402975,0.40741801261901855
1708437908.089989,-1.104122519493103,-1.6822930775084437,-2.5273905436145228,2.2801779943653564,-1.0187752882586878,0.4083378314971924
1708437908.0920305,-1.1041076183319092,-1.6822887859740199,-2.5274232069598597,2.280153437251709,-1.0187018553363245,0.4092942774295807
1708437908.0940404,-1.1040630340576172,-1.6822887859740199,-2.5274274984942835,2.280099554652832,-1.0187872091876429,0.41024380922317505
1708437908.096008,-1.104051947593689,-1.6822668514647425,-2.527418915425436,2.2800683218189697,-1.0187581221209925,0.4112187922000885
1708437908.0980449,-1.1040607690811157,-1.682368894616598,-2.527426306401388,2.280059500331543,-1.0188401381122034,0.41211017966270447
1708437908.1000078,-1.1039910316467285,-1.6824141941466273,-2.527454678212301,2.2799994188496093,-1.0187986532794397,0.41306114196777344
1708437908.1019924,-1.104020595550537,-1.6823932133116664,-2.5274415651904505,2.2799994188496093,-1.018790070210592,0.41400712728500366
1708437908.1040168,-1.1039546728134155,-1.6824337444701136,-2.527466599141256,2.279996319408081,-1.018862549458639,0.4150277376174927
1708437908.1060264,-1.103959083557129,-1.6824423275389613,-2.527504030858175,2.279980106944702,-1.0188496748553675,0.4159756600856781
1708437908.1080616,-1.1039694547653198,-1.6824528179564417,-2.527487103139059,2.2799812990375976,-1.0188658873187464,0.4169173538684845
1708437908.110016,-1.1038916110992432,-1.6824513874449671,-2.5274739901172083,2.2799619871326904,-1.0188778082477015,0.41784581542015076
1708437908.1119838,-1.1038872003555298,-1.6824647388853968,-2.5275114218341272,2.279933138484619,-1.018909756337301,0.4187990725040436
1708437908.114035,-1.1038671731948853,-1.6824380360045375,-2.527477804814474,2.2798678117939453,-1.0189746061908167,0.41975682973861694
1708437908.116003,-1.1038315296173096,-1.682472368279928,-2.527538601552145,2.279900475139282,-1.0189207235919397,0.4207262396812439
1708437908.1179929,-1.103804111480713,-1.6824757061400355,-2.5275309721576136,2.2799135881611328,-1.018994156514303,0.4216681122779846
1708437908.1199796,-1.1038506031036377,-1.6825577221312464,-2.527538601552145,2.2798492151447753,-1.0190227667437952,0.42270347476005554
1708437908.121996,-1.103759527206421,-1.6824995479979457,-2.5275712648974817,2.2797884184071044,-1.0190542379962366,0.42360609769821167
1708437908.123998,-1.1036860942840576,-1.6825443706908167,-2.527538601552145,2.279817743892334,-1.0190866629229944,0.4245905876159668
1708437908.125997,-1.1037074327468872,-1.682547231713766,-2.527545992528097,2.279829664821289,-1.0190542379962366,0.4254738688468933
1708437908.1280043,-1.1036680936813354,-1.682519098321432,-2.5275748411761683,2.279735727901123,-1.0191152731524866,0.42643317580223083
1708437908.1299784,-1.103653073310852,-1.682596822778219,-2.527579132710592,2.279723806972168,-1.0190814177142542,0.4273547828197479
1708437908.1319764,-1.1036323308944702,-1.6825710735716761,-2.527611796055929,2.2797741132923584,-1.0190895239459437,0.428394615650177
1708437908.13398,-1.103587031364441,-1.6826039753355921,-2.527640167866842,2.2797013956257324,-1.0191023985492151,0.42930102348327637
1708437908.135988,-1.1035232543945312,-1.6826478443541468,-2.527623716984884,2.2796730238148193,-1.0191338698016565,0.4302810728549957
1708437908.1380212,-1.1035528182983398,-1.6826192341246546,-2.5276313463794153,2.279623432750366,-1.0191176573382776,0.43123888969421387
1708437908.1399863,-1.1034883260726929,-1.6826526127257289,-2.5276148954974573,2.279604120845459,-1.0191219488727015,0.4321623742580414
1708437908.1420336,-1.1034610271453857,-1.6825806103148402,-2.52763802209963,2.279559774989746,-1.019137207661764,0.4331735074520111
1708437908.144017,-1.1034232378005981,-1.682643552819723,-2.5276718775378626,2.2795936304279785,-1.0191782156573694,0.4340750277042389
1708437908.1460407,-1.1034246683120728,-1.6827193699278773,-2.5276761690722864,2.2795321184345703,-1.0191696325885218,0.4350178837776184
1708437908.1480222,-1.1033964157104492,-1.6826912365355433,-2.5276957193957728,2.2795659738728027,-1.0191405455218714,0.43594855070114136
1708437908.1499982,-1.103405237197876,-1.6826607189574183,-2.52769118944277,2.2795139986225585,-1.0191777388202112,0.4368555545806885
1708437908.1520147,-1.103340744972229,-1.6827060184874476,-2.52769118944277,2.2793947893330078,-1.0192087332354944,0.43778178095817566
1708437908.1540196,-1.1032634973526,-1.6827718220152796,-2.5277074019061487,2.279416962260864,-1.0192535559283655,0.43875256180763245
1708437908.1560533,-1.103213906288147,-1.6827670536436976,-2.527710739766256,2.279366655940674,-1.0192654768573206,0.43964487314224243
1708437908.1580508,-1.1032108068466187,-1.6827284298338832,-2.5277276674853724,2.2793888288685302,-1.0192816893206995,0.4405626356601715
1708437908.1600516,-1.1032241582870483,-1.6827746830382289,-2.5277438799487513,2.279381437892578,-1.0192645231830042,0.4414553940296173
1708437908.1620524,-1.1031795740127563,-1.6828481159605921,-2.5277188459979456,2.279324932689331,-1.0193212668048304,0.44242575764656067
1708437908.164026,-1.1031476259231567,-1.6828137836852015,-2.5277558008777063,2.279313011760376,-1.0193331877337855,0.44335201382637024
1708437908.1660597,-1.1031088829040527,-1.6827923260130824,-2.5277794043170374,2.2793544965931396,-1.0193365255938929,0.4442955255508423
1708437908.1680746,-1.1030845642089844,-1.6828676662840785,-2.5277426878558558,2.2792813020893554,-1.0193331877337855,0.4451773464679718
1708437908.1700654,-1.1030519008636475,-1.6828919849791468,-2.5277262369738978,2.279233618373535,-1.019348446522848,0.44612717628479004
1708437908.1720479,-1.1030011177062988,-1.6828943691649378,-2.5277786890613,2.279184027309082,-1.0193975607501429,0.4470525085926056
1708437908.174063,-1.1029554605484009,-1.682927747766012,-2.5278037230121058,2.279230518932007,-1.0194256941424769,0.4479983150959015
1708437908.1760185,-1.1029361486434937,-1.6829172573485316,-2.527750078831808,2.279170437450073,-1.0193803946124476,0.44894784688949585
1708437908.178064,-1.1029047966003418,-1.6829825840392054,-2.527844015751974,2.279170199031494,-1.0193880240069788,0.44989269971847534
1708437908.1800127,-1.1028552055358887,-1.682953496972555,-2.527827803288595,2.279104395503662,-1.019390885029928,0.45077911019325256
1708437908.1820421,-1.1028120517730713,-1.6830278835692347,-2.5278354326831263,2.2791339594074707,-1.019439999257223,0.4517984390258789
1708437908.1839876,-1.1027802228927612,-1.6830507717528285,-2.527893129979269,2.2790538507648925,-1.0195015112506312,0.45268121361732483
1708437908.1859787,-1.1027488708496094,-1.6830622158446253,-2.5278340021716517,2.279050751323364,-1.0195582548724573,0.4535466134548187
1708437908.1879706,-1.1026917695999146,-1.6831275425352992,-2.527846399937765,2.2790261942097167,-1.0195334593402308,0.4543921649456024
1708437908.1899939,-1.1026065349578857,-1.6831056080260218,-2.527879063283102,2.2789453703114013,-1.019541088734762,0.45536935329437256
1708437908.1920469,-1.102604866027832,-1.6831380329527796,-2.5279203096972864,2.2789053159901123,-1.019569222127096,0.4562906324863434
1708437908.1940627,-1.1025062799453735,-1.6831537685790003,-2.527898613606588,2.2788540559956054,-1.0196259657489222,0.4571903347969055
1708437908.196016,-1.102479338645935,-1.6832152805724085,-2.527898613606588,2.2788020807453613,-1.0196216742144983,0.4581346809864044
1708437908.1980405,-1.1024727821350098,-1.6831971607603968,-2.5278998056994837,2.278761311168335,-1.019620720540182,0.4590603709220886
1708437908.200037,-1.1024528741836548,-1.6832777462401332,-2.527907196675436,2.2787419992634277,-1.0196412245379847,0.46003052592277527
1708437908.2019994,-1.1023650169372559,-1.6832944355406703,-2.5279515425311487,2.278726740474365,-1.019644562398092,0.46091794967651367
1708437908.204015,-1.1022990942001343,-1.6833497486510218,-2.5279510656939905,2.2786943155476074,-1.0196684042560022,0.46189892292022705
1708437908.20605,-1.102264165878296,-1.683352609673971,-2.5279837290393274,2.2786380487629394,-1.019688908253805,0.46283188462257385
1708437908.2080536,-1.1022002696990967,-1.683394571343893,-2.527970616017477,2.278541012401245,-1.0197208563434046,0.4637316167354584
1708437908.2100265,-1.1021075248718262,-1.6834379635252894,-2.5280118624316614,2.2785541254230957,-1.019707981740133,0.4646911919116974
1708437908.212033,-1.1020264625549316,-1.6834713421263636,-2.5280283133136194,2.2784952360340576,-1.0197446982013147,0.4656074047088623
1708437908.2140336,-1.101970911026001,-1.6835385761656703,-2.527994457875387,2.278409405345581,-1.01978046098818,0.4664739668369293
1708437908.2160118,-1.1019197702407837,-1.683545251885885,-2.528010908757345,2.2783567148395996,-1.0198004881488245,0.467384397983551
1708437908.2180376,-1.101841926574707,-1.6835252247252406,-2.528006617222921,2.278284712428711,-1.0198372046100062,0.4683142304420471
1708437908.2199895,-1.1018164157867432,-1.6836639843382777,-2.528006617222921,2.278256340617798,-1.0198329130755823,0.4691910147666931
1708437908.2220337,-1.1017199754714966,-1.6836463413634242,-2.5280423800097864,2.278209372157715,-1.0198686758624476,0.47005191445350647
1708437908.224018,-1.1016485691070557,-1.6837150059142054,-2.5280588308917444,2.2781707483479003,-1.0198643843280237,0.47091537714004517
1708437908.226023,-1.1015602350234985,-1.683730264703268,-2.52804142633547,2.278061791057251,-1.0199406782733362,0.4718337953090668
1708437908.228042,-1.101513385772705,-1.683824201623434,-2.5281201044665735,2.2779897886463623,-1.019961182271139,0.47270187735557556
1708437908.2299967,-1.101338505744934,-1.6838661632933558,-2.5281394163714808,2.277905150050781,-1.0199363867389124,0.4735456109046936
1708437908.2319806,-1.1012990474700928,-1.683910985986227,-2.5281758944140833,2.277853174800537,-1.0199721495257776,0.4745290279388428
1708437908.233985,-1.1012448072433472,-1.6839004955687464,-2.5281670729266565,2.2777699667164306,-1.0199311415301722,0.47543013095855713
1708437908.2360249,-1.1010955572128296,-1.6839410267271937,-2.528158966694967,2.2777225214191894,-1.020001236592428,0.4763028025627136
1708437908.2380283,-1.1010098457336426,-1.6840588055052699,-2.5281832853900355,2.2776266771503906,-1.0199878851519983,0.4772208631038666
1708437908.2400172,-1.1008789539337158,-1.6840115986266078,-2.528247658406393,2.2775024610706787,-1.0200493971454065,0.47805941104888916
1708437908.2420895,-1.100756287574768,-1.684150835076803,-2.5282629171954554,2.277442379588745,-1.02002460161318,0.4790646731853485
1708437908.2440479,-1.100582480430603,-1.6842104397215785,-2.5282419363604944,2.2773055273243408,-1.0200398604022425,0.4799405634403229
1708437908.2460577,-1.1005089282989502,-1.6841970882811488,-2.5283239523517054,2.2772256571003417,-1.0200722853290003,0.48085418343544006
1708437908.2479994,-1.1003153324127197,-1.6843182049193324,-2.5283599535571497,2.2771212297626953,-1.0200703779803675,0.48174363374710083
1708437908.2500322,-1.1001415252685547,-1.6843539677061976,-2.528339211140768,2.2770210939594726,-1.0201194922076624,0.48270487785339355
1708437908.2520382,-1.0999819040298462,-1.6844312153258265,-2.528358761464254,2.2769383627125244,-1.0201271216021937,0.48356521129608154
1708437908.254055,-1.09990394115448,-1.684399744073385,-2.5284069220172327,2.2768143850513916,-1.0201757589923304,0.4845249056816101
1708437908.256079,-1.0997443199157715,-1.6845036945738734,-2.528398100529806,2.276754303569458,-1.020273510609762,0.4853683412075043
1708437908.2580538,-1.0995091199874878,-1.684563776055807,-2.528426472340719,2.2765723901936035,-1.0202282110797327,0.4863140881061554
1708437908.2600322,-1.0993708372116089,-1.6846682033934535,-2.528503958378927,2.2764686781116943,-1.020308796559469,0.48720642924308777
1708437908.2620409,-1.0991747379302979,-1.684744497338766,-2.528527800236837,2.2763215738483886,-1.0203002134906214,0.488033652305603
1708437908.2639804,-1.0989950895309448,-1.6847707233824671,-2.5285430590258997,2.276149197215698,-1.020339314137594,0.4890091121196747
1708437908.2659924,-1.098802924156189,-1.6849290333189906,-2.528611723576681,2.2760371404835205,-1.0203436056720179,0.48985621333122253
1708437908.2680044,-1.0986603498458862,-1.6850573025145472,-2.5286360422717493,2.2759062486835937,-1.0203717390643519,0.49074575304985046
1708437908.269998,-1.0984108448028564,-1.685125013391012,-2.5286060015307825,2.2757877546497802,-1.0204280058490198,0.49168211221694946
1708437908.2719986,-1.0981838703155518,-1.6852323017516078,-2.5286510626422327,2.2755374151417236,-1.0204394499408167,0.4926399886608124
1708437908.2740166,-1.097916603088379,-1.685286661187643,-2.528748099003927,2.2753726679035644,-1.0204876104937952,0.4935282766819
1708437908.27598,-1.0977354049682617,-1.6854359112181605,-2.5287438074695032,2.275230808848999,-1.0205400625811976,0.49442058801651
1708437908.2779768,-1.0974533557891846,-1.6855436764159144,-2.5288007895099085,2.274998350734375,-1.0205343405352991,0.49527406692504883
1708437908.2799757,-1.0971693992614746,-1.6856471500792445,-2.528783146535055,2.2747971254536132,-1.0205634276019495,0.49617475271224976
1708437908.2820272,-1.096962571144104,-1.6857620678343714,-2.5288222471820276,2.2746142584034423,-1.0206635634051722,0.4970897138118744
1708437908.284004,-1.0966664552688599,-1.6859432659544886,-2.5288801828967493,2.274409456843994,-1.0206993261920374,0.4979291558265686
1708437908.2859886,-1.0963441133499146,-1.6860329113402308,-2.5288942495929163,2.2741803365894775,-1.0207441488849085,0.4987524449825287
1708437908.2879965,-1.096122145652771,-1.686206956902975,-2.5288897196399134,2.274022026652954,-1.0207832495318812,0.4996297359466553
1708437908.289984,-1.0958548784255981,-1.6863428554930628,-2.5289793650256556,2.2737814623066406,-1.0207951704608362,0.5004175901412964
1708437908.292073,-1.0955719947814941,-1.6864329777159632,-2.528966252003805,2.273577852840088,-1.020867172871725,0.5012937188148499
1708437908.29407,-1.0952061414718628,-1.6865955791869105,-2.5290032068835657,2.273435278529785,-1.0209105650531214,0.5020890831947327
1708437908.2960274,-1.094918131828308,-1.6867977581419886,-2.5290513674365442,2.2731875616260986,-1.0208738485919397,0.5029656291007996
1708437908.2980504,-1.0945985317230225,-1.6869656048216761,-2.529083315526144,2.272934599513672,-1.0209663550006312,0.5038120150566101
1708437908.2999992,-1.094205617904663,-1.6871587238707484,-2.5291877428637903,2.2726964193531494,-1.0210350195514124,0.504601240158081
1708437908.302038,-1.0938547849655151,-1.687357564965719,-2.5291789213763636,2.2723612028309326,-1.0211308638202112,0.5053979158401489
1708437908.304017,-1.0934534072875977,-1.6874429188170375,-2.529243294392721,2.27207796155896,-1.0211947599994105,0.5062556266784668
1708437908.3060365,-1.0930774211883545,-1.687662740746969,-2.5292628447162073,2.271822376842163,-1.0212667624102991,0.5070858001708984
1708437908.3080955,-1.0926976203918457,-1.6878725490965785,-2.5292823950396937,2.271521969432495,-1.0212939421283167,0.5079237222671509
1708437908.3100662,-1.092265009880066,-1.6881123981871546,-2.5293262640582483,2.2712670999714355,-1.0213020483600062,0.5086885690689087
1708437908.3119924,-1.0918488502502441,-1.6882554493346156,-2.5294352213488978,2.271008177394531,-1.0213735739337366,0.5094941854476929
1708437908.314034,-1.0914288759231567,-1.6885186634459437,-2.529480044041769,2.270662947291992,-1.021478001271383,0.5103646516799927
1708437908.3159783,-1.0909804105758667,-1.6887628040709437,-2.5295115152942103,2.270277424449585,-1.0215347448932093,0.5111945271492004
1708437908.3180318,-1.090537428855896,-1.6889897785582484,-2.5296042601214808,2.2699622350880126,-1.0215533415423792,0.5120353102684021
1708437908.3199813,-1.0899549722671509,-1.689242502252096,-2.5296390692340296,2.26958076536145,-1.0216329733477991,0.5128326416015625
1708437908.3219855,-1.0894473791122437,-1.6894685230650843,-2.5297403971301478,2.2691806989857177,-1.0217049757586878,0.5135680437088013
1708437908.324011,-1.0889650583267212,-1.6896616421141566,-2.5297263304339808,2.268866701717041,-1.0218055883990687,0.5144609808921814
1708437908.3259842,-1.0884402990341187,-1.689890523950094,-2.529818836842672,2.2684671121784667,-1.0218289534198206,0.5152415633201599
1708437908.3279905,-1.0878520011901855,-1.690216680566305,-2.529907528554098,2.268087549800537,-1.0219538847552698,0.5159522891044617
1708437908.3300273,-1.0873236656188965,-1.6904145679869593,-2.529992405568258,2.267638607616089,-1.0219767729388636,0.5167441368103027
1708437908.331999,-1.0867204666137695,-1.6907497845091761,-2.5299904982196253,2.267242594356201,-1.0220564047442835,0.517519474029541
1708437908.3340626,-1.0860923528671265,-1.691099306146139,-2.530078713093893,2.2668306070515136,-1.0221403280841272,0.5183131694793701
1708437908.3360167,-1.0854840278625488,-1.6913286648192347,-2.5301995913134974,2.2663466173359375,-1.02224046388735,0.5190470218658447
1708437908.3379889,-1.0847666263580322,-1.6915952167906703,-2.530250851308004,2.26583640157666,-1.0222838560687464,0.5199156999588013
1708437908.340021,-1.0841114521026611,-1.691934724847311,-2.5303261915790003,2.265361710185669,-1.0224774519549769,0.5206679701805115
1708437908.342069,-1.083381175994873,-1.6922503910460414,-2.5304561297046106,2.2649313646503906,-1.0225127379046839,0.5214360952377319
1708437908.3440168,-1.0826940536499023,-1.6925622425475062,-2.530489985142843,2.264423056239746,-1.0225594679461878,0.5221806764602661
1708437908.3460782,-1.0819745063781738,-1.6928593120970667,-2.5306196848498743,2.263894243831299,-1.0226920286761683,0.5229374766349792
1708437908.348038,-1.0812267065048218,-1.6932579479613246,-2.5307243506061,2.263390226955078,-1.022804085408346,0.5237743258476257
1708437908.3500423,-1.0804221630096436,-1.6936093769469203,-2.530811611806051,2.2628304201313476,-1.022867504750387,0.524500846862793
1708437908.3519976,-1.0797083377838135,-1.6940161190428675,-2.530874792729513,2.2622453409382324,-1.0230405966388147,0.5254145860671997
1708437908.354017,-1.0789082050323486,-1.694350381890768,-2.5309916178332728,2.261727734203003,-1.0231025854693812,0.5261077880859375
1708437908.3560555,-1.0780290365219116,-1.6947394810118617,-2.5311158339129847,2.2611400324055175,-1.02325946489443,0.526852011680603
1708437908.3580203,-1.0771819353103638,-1.6951748333373011,-2.5312116781817835,2.2604333597370605,-1.0233834425555628,0.527599036693573
1708437908.3600497,-1.07634699344635,-1.6954757175841273,-2.5313122908221644,2.2598349291035156,-1.0235641638385218,0.5284254550933838
1708437908.3620198,-1.075401782989502,-1.6959196529784144,-2.5314353148089808,2.259236975307129,-1.0236590544330042,0.5291091799736023
1708437908.3640268,-1.0745147466659546,-1.6963736019530238,-2.5315032641040247,2.2585431772419433,-1.023766819630758,0.5298585295677185
1708437908.366044,-1.073576807975769,-1.6967460117735804,-2.5316348711596888,2.2578586775013427,-1.0239222685443323,0.5306268930435181
1708437908.3681047,-1.0725994110107422,-1.6972071133055628,-2.5317798296557825,2.257199450130127,-1.0240009466754358,0.5312777161598206
1708437908.3700402,-1.0717030763626099,-1.6976481876769007,-2.531891409550802,2.2565273481556396,-1.0241745154010218,0.5320410132408142
1708437908.3720436,-1.0707060098648071,-1.6981688938536585,-2.532053057347433,2.255894346828125,-1.0243266264544886,0.5327645540237427
1708437908.3740008,-1.0696827173233032,-1.6986857853331507,-2.532168213521139,2.2551047044941406,-1.0244653860675257,0.5335044860839844
1708437908.3760052,-1.0687742233276367,-1.6991149387755335,-2.5322633425342005,2.2543887335010986,-1.0245936552630823,0.534242570400238
1708437908.3780212,-1.0676913261413574,-1.6995355091490687,-2.5324488321887415,2.2535719114490966,-1.02476674715151,0.5349480509757996
1708437908.3799891,-1.066592812538147,-1.7000681362547816,-2.5325313250171106,2.2528654771992187,-1.0248988310443323,0.5356466174125671
1708437908.381975,-1.06549870967865,-1.7006246052184046,-2.5326841513263147,2.2520157533833007,-1.0249846617328089,0.5363717675209045
1708437908.3839633,-1.0644441843032837,-1.7011262379088343,-2.532832447682516,2.2512287336536865,-1.0251567999469202,0.5371110439300537
1708437908.3859863,-1.0633366107940674,-1.7016731701292933,-2.532909695302145,2.2504207330891113,-1.0253198782550257,0.5378676652908325
1708437908.3879786,-1.0621355772018433,-1.7022282085814417,-2.5330877939807337,2.2496020036884765,-1.0254843870746058,0.5386534333229065
1708437908.389997,-1.0610305070877075,-1.7027369938292445,-2.533264462147848,2.2487475115009765,-1.0256717840777796,0.5393578410148621
1708437908.3920224,-1.059920072555542,-1.7033044300475062,-2.53337532678713,2.2478994566151123,-1.0258033911334437,0.5400758981704712
1708437908.393997,-1.0587220191955566,-1.7039529285826625,-2.5335031191455286,2.2470664220997314,-1.0259712378131312,0.5407515168190002
1708437908.396023,-1.0575144290924072,-1.7045442066588343,-2.5336623827563685,2.246205969447754,-1.0261791388141077,0.5414733290672302
1708437908.3979855,-1.0562455654144287,-1.7051054439940394,-2.5338402430163782,2.245297594661377,-1.02637225786318,0.5421987175941467
1708437908.3999877,-1.055030107498169,-1.70567049602651,-2.5339883009540003,2.2443741995045166,-1.026517693196432,0.5428687334060669
1708437908.4020002,-1.0537711381912231,-1.7063023052611292,-2.5341551939593714,2.243525190944336,-1.0267418066607874,0.5435731410980225
1708437908.4040015,-1.0524482727050781,-1.7068850002684535,-2.5343037287341517,2.242571993465088,-1.0269539991961878,0.544279932975769
1708437908.4060752,-1.0511208772659302,-1.707550664941305,-2.5344749132739466,2.241656466121338,-1.0270984808551233,0.5449872016906738
1708437908.4080005,-1.0498669147491455,-1.7081576786436976,-2.5346103350268763,2.2407867151447753,-1.0273345152484339,0.5457577705383301
1708437908.409988,-1.0485798120498657,-1.7088362179198207,-2.5348272959338587,2.2397920328327636,-1.0274847189532679,0.54642254114151
1708437908.4119794,-1.0471538305282593,-1.7094832859435023,-2.5350127855883997,2.238793058986328,-1.027778450642721,0.547092854976654
1708437908.413992,-1.045793056488037,-1.7101899586119593,-2.5351436773883265,2.2377654749104003,-1.0279691855060022,0.5478073954582214
1708437908.4159849,-1.0443111658096313,-1.7107874355711878,-2.535327736531393,2.2367171484180908,-1.0282090345965784,0.5485043525695801
1708437908.418031,-1.0429610013961792,-1.7115351162352503,-2.5355241934405726,2.2356864649006347,-1.0284159819232386,0.5491663813591003
1708437908.419972,-1.0414808988571167,-1.7122041187682093,-2.5356748739825647,2.2347003656574707,-1.0286434332477015,0.5498691201210022
1708437908.4219913,-1.0399998426437378,-1.712931295434469,-2.535879437123434,2.233624144191406,-1.028891388569967,0.550545871257782
1708437908.4240148,-1.038542628288269,-1.713626047173971,-2.536006275807516,2.232600374812744,-1.0290535132037562,0.5511882901191711
1708437908.4259748,-1.0371005535125732,-1.714311262170309,-2.5362351576434534,2.2315522867390136,-1.0292585531817835,0.5518637299537659
1708437908.4279912,-1.035536527633667,-1.7150136433043421,-2.5364273230182093,2.230473442668579,-1.0294206778155726,0.5525473952293396
1708437908.430024,-1.0339750051498413,-1.715809007684225,-2.53662354150881,2.2293457227894287,-1.0296404997455042,0.5532975792884827
1708437908.4319851,-1.0324803590774536,-1.716560503045553,-2.5368197599994105,2.2282003599354248,-1.0298574606524866,0.5539888143539429
1708437908.4339867,-1.0308610200881958,-1.717252870599264,-2.5370476881610315,2.227045460338257,-1.0300729910479944,0.5546917915344238
1708437908.4360063,-1.0292357206344604,-1.7179867229857386,-2.5372265020953577,2.22589294492688,-1.0302351156817835,0.555335521697998
1708437908.4379766,-1.0275816917419434,-1.7187749348082484,-2.537455383931295,2.224821014995239,-1.0304802099811,0.5560214519500732
1708437908.4399817,-1.0259524583816528,-1.7195073566832484,-2.5376554171191614,2.2236289220997314,-1.030736271535055,0.5567256808280945
1708437908.4420643,-1.0242913961410522,-1.7203504047789515,-2.537896219884054,2.2223643499561767,-1.0309789816485804,0.5573441386222839
1708437908.4440012,-1.022560715675354,-1.7211414776244105,-2.538119618092672,2.2211920458027343,-1.031292740498678,0.5580152869224548
1708437908.4460368,-1.020900011062622,-1.7218529186644496,-2.538316313420431,2.219948931331299,-1.0315473715411585,0.5586978793144226
1708437908.4480152,-1.0191620588302612,-1.7227212391295375,-2.538527790700094,2.2187365728565673,-1.031855885182516,0.5593449473381042
1708437908.450026,-1.017443060874939,-1.723523279229635,-2.5387349764453333,2.2174789148518066,-1.0321009794818323,0.5600747466087341
1708437908.452016,-1.0156561136245728,-1.7243124447264613,-2.538938824330465,2.2162269788929443,-1.0323813597308558,0.5607165098190308
1708437908.4540422,-1.0138417482376099,-1.725225111047262,-2.539212767277853,2.214945002193115,-1.032717529927389,0.5613792538642883
1708437908.456044,-1.0119799375534058,-1.725964685479635,-2.53941518465151,2.213629885310791,-1.0330084005938929,0.561995267868042
1708437908.4580443,-1.0102025270462036,-1.7268396816649378,-2.5396137873279017,2.2123474317738037,-1.0332587401019495,0.5626175403594971
1708437908.46,-1.008385181427002,-1.7276984653868617,-2.5398460070239466,2.2110416132160644,-1.0335357824908655,0.563227653503418
1708437908.4620645,-1.0065144300460815,-1.7285386524596156,-2.540118996297018,2.2097253042408447,-1.0337536970721644,0.5638454556465149
1708437908.4640164,-1.0046091079711914,-1.7294703922667445,-2.540379587803976,2.2084056574055175,-1.0340703169452112,0.5645213723182678
1708437908.4659824,-1.0027004480361938,-1.7303625545897425,-2.540591065083639,2.207065983409546,-1.0343053976642054,0.5652000904083252
1708437908.4683533,-1.0007857084274292,-1.7312900028624476,-2.5408712069140833,2.20569817602124,-1.034595791493551,0.5657978653907776
1708437908.4699938,-0.9987930059432983,-1.7322150669493617,-2.5411234537707728,2.204315348262451,-1.0349085966693323,0.5663958787918091
1708437908.4720054,-0.9969029426574707,-1.7331129513182582,-2.541367832814352,2.2028745847889404,-1.035219971333639,0.5670663714408875
1708437908.4740243,-0.9948786497116089,-1.7340551815428675,-2.541607443486349,2.2014893728443603,-1.0354626814471644,0.567659854888916
1708437908.4759762,-0.9929693937301636,-1.7350441418089808,-2.5418439547168177,2.199960394496582,-1.0357711950885218,0.5683218240737915
1708437908.4779985,-0.9908999800682068,-1.7359725437560023,-2.5421157518969935,2.198526306743286,-1.0361030737506312,0.5690189003944397
1708437908.4799905,-0.9888893365859985,-1.7369252643980921,-2.5423839727984827,2.197063847179077,-1.0363581816302698,0.5697097778320312
1708437908.4819932,-0.9868602156639099,-1.7378670177855433,-2.5426393190967005,2.195650025005005,-1.0366771856891077,0.570314347743988
1708437908.483985,-0.9847946166992188,-1.7389351330199183,-2.5428465048419397,2.1942142683216552,-1.037041489277975,0.5709419846534729
1708437908.4860106,-0.9827529788017273,-1.7398959598936976,-2.5431509653674524,2.192789240474365,-1.0373643080340784,0.5715335011482239
1708437908.4879951,-0.9805684089660645,-1.74090637783193,-2.543405834828512,2.1912566858479003,-1.037712875996725,0.5721481442451477
1708437908.49003,-0.9784834384918213,-1.74188294033193,-2.54368764558901,2.1897122102924804,-1.0380514303790491,0.5728319883346558
1708437908.4920647,-0.9762850999832153,-1.742932458917135,-2.5439069906817835,2.1882564264484863,-1.0383628050433558,0.5734500885009766
1708437908.4940386,-0.9740904569625854,-1.743967195550436,-2.5442143122302454,2.186732693309448,-1.0386775175677698,0.5740703344345093
1708437908.496011,-0.9719393253326416,-1.7449342213072718,-2.5444956461535853,2.185220881099365,-1.0390375296222132,0.5747957229614258
1708437908.4980593,-0.9696928858757019,-1.7460624180235804,-2.544762913380758,2.1837100225635986,-1.0393641630755823,0.575421154499054
1708437908.5000045,-0.967531681060791,-1.7471181354918421,-2.54504639307131,2.1821679311939697,-1.0397117773639124,0.5760388374328613
1708437908.502037,-0.9652546644210815,-1.7481709919371546,-2.5453463236438196,2.180638476009033,-1.040039364491598,0.5766611099243164
1708437908.5039768,-0.9630810618400574,-1.74918856243276,-2.54559833208193,2.179037018413208,-1.0403707663165491,0.5772281289100647
1708437908.5060158,-0.9609047770500183,-1.7502209148802699,-2.5458610693561,2.1775335508533935,-1.0407102743731897,0.5777871608734131
1708437908.508076,-0.9587193727493286,-1.7513028583922328,-2.546206537877218,2.175926609630249,-1.0410502592669886,0.5783123970031738
1708437908.5100415,-0.9565048217773438,-1.752336164514059,-2.5464170614825647,2.174346848125122,-1.0413745085345667,0.5789825916290283
1708437908.5119767,-0.954326331615448,-1.7534061870970667,-2.54677921930422,2.172797365779541,-1.041680637990133,0.5795236229896545
1708437908.5139987,-0.952130913734436,-1.7544847927489222,-2.5470672289477747,2.17122666418042,-1.0420735518084925,0.5800895094871521
1708437908.5159822,-0.9498723149299622,-1.755484243432516,-2.547309223805563,2.1696247297474365,-1.0424349943744105,0.5806920528411865
1708437908.5179827,-0.9476218819618225,-1.75651278118276,-2.547622267399923,2.1679934698292236,-1.0427873770343226,0.5813202857971191
1708437908.5199986,-0.9454637765884399,-1.7575460873045863,-2.547922197972433,2.1664599615284423,-1.0431459585772913,0.5817873477935791
1708437908.522033,-0.9432674050331116,-1.7586103878416957,-2.5482352415667933,2.1648761469074707,-1.0434444586383265,0.5824089050292969
1708437908.524082,-0.9411078095436096,-1.7596217594542445,-2.5484727064715784,2.1634086805531005,-1.0438297430621546,0.5829774737358093
1708437908.5260015,-0.9389357566833496,-1.7606593571104945,-2.548760954533712,2.1618048387714843,-1.0440757910357874,0.5835423469543457
1708437908.5280352,-0.936724066734314,-1.7617212734618128,-2.549056355153219,2.1602939802357177,-1.044476334248678,0.5842199325561523
1708437908.529982,-0.9345279335975647,-1.7627421818175257,-2.549357239400045,2.15867726385083,-1.0447586218463343,0.584784209728241
1708437908.5319972,-0.9323137402534485,-1.7637835941710414,-2.54970628419985,2.1572019296833496,-1.0450905005084437,0.5854206085205078
1708437908.534021,-0.9300991296768188,-1.764836927453512,-2.5499451796161097,2.1556147772022705,-1.0453694502459925,0.585989773273468
1708437908.5359805,-0.9279540181159973,-1.7659136257567347,-2.550225559865133,2.154071493739746,-1.0457175413714808,0.5866184234619141
1708437908.53804,-0.9257841110229492,-1.766930719415182,-2.5505462328540247,2.152474566096924,-1.0460808912860315,0.5872034430503845
1708437908.5400138,-0.9235207438468933,-1.7679897747435511,-2.55082613626589,2.15098158895459,-1.0464614073382776,0.5877720713615417
1708437908.5420659,-0.9213393926620483,-1.7690655193724574,-2.5510523954974573,2.149425669307373,-1.0467751661883753,0.5884127616882324
1708437908.5440216,-0.9190902709960938,-1.7700821361937464,-2.551352326069967,2.1478020387836914,-1.0471552054034632,0.5889872908592224
1708437908.546029,-0.9169516563415527,-1.7710968456664027,-2.55165678659548,2.146239920253418,-1.0475299994098108,0.589536726474762
1708437908.5480282,-0.9147212505340576,-1.7720848522581996,-2.5518997351275843,2.144720955485962,-1.0478642622577112,0.5901067852973938
1708437908.5500324,-0.9124644994735718,-1.7731429539122523,-2.5521884600268763,2.143167181605957,-1.0481832663165491,0.5907741189002991
1708437908.5520327,-0.910247266292572,-1.7741919956602992,-2.552497450505392,2.1416475015827636,-1.0485642592059534,0.5913259387016296
1708437908.5540512,-0.9080802202224731,-1.7752777538695277,-2.5527730623828333,2.140099211330078,-1.0489147345172327,0.5918663144111633
1708437908.556011,-0.9058836698532104,-1.7763201198973597,-2.5530524889575403,2.138500376338623,-1.0492666403399866,0.5924828052520752
1708437908.5580645,-0.9037123918533325,-1.777290483514303,-2.5532990137683313,2.1370338636585693,-1.049659554158346,0.5931066274642944
1708437908.560039,-0.901503324508667,-1.7783485851683558,-2.5536280314074915,2.1354495722004394,-1.0499051252948206,0.593591570854187
1708437908.562055,-0.8992701172828674,-1.779471059838766,-2.5538798014270228,2.133955879802368,-1.0502336660968226,0.594199001789093
1708437908.5640793,-0.8971246480941772,-1.780419488946432,-2.5541515986071985,2.1323601442524414,-1.0505693594561976,0.5947360396385193
1708437908.566062,-0.8949479460716248,-1.7814513645567835,-2.554467741643087,2.130838080043457,-1.0508888403521937,0.5952581763267517
1708437908.5680408,-0.8928043246269226,-1.7825356922545375,-2.5547762552844446,2.129264994258545,-1.0512288252459925,0.5958400964736938
1708437908.5700512,-0.8905747532844543,-1.7835232220091761,-2.555039946232931,2.1276883321949462,-1.0515525976764124,0.5964690446853638
1708437908.572048,-0.8883599042892456,-1.7845779858031214,-2.5553365389453333,2.126127167338989,-1.0519259611712855,0.5970510840415955
1708437908.57405,-0.8862721920013428,-1.7856022320189417,-2.5556357542621058,2.124520464534424,-1.052333180104391,0.5975812673568726
1708437908.5760674,-0.8840166926383972,-1.7866817913451136,-2.555883232747213,2.1229747968861084,-1.0526931921588343,0.598152756690979
1708437908.578065,-0.8817628026008606,-1.7876931629576625,-2.556166950856344,2.121419830913208,-1.0529916922198694,0.5987135171890259
1708437908.5800464,-0.8795812129974365,-1.7887808285155238,-2.5564385096179407,2.1199065881916503,-1.0533855597125452,0.5993462204933167
1708437908.5820212,-0.8773782849311829,-1.789724966088766,-2.556751314793722,2.1183366018482666,-1.0537732283221644,0.5999050140380859
