Eg3-git/Classifiers/Data Collection/u6/u6star4_ur3e_joint_states.csv
time,elbow_joint,shoulder_lift_joint,shoulder_pan_joint,wrist_1_joint,wrist_2_joint,wrist_3_joint
1708437958.8263352,-1.1053757667541504,-1.6817461452879847,-2.5267301241504114,2.2811524110981445,-1.0176213423358362,0.3876446783542633
1708437958.8282583,-1.1053966283798218,-1.6816760502257289,-2.5267346541034144,2.2811567026325683,-1.017559830342428,0.38771823048591614
1708437958.8302553,-1.105371356010437,-1.6817180118956507,-2.526781145726339,2.2811447817036132,-1.0175235907184046,0.3877360224723816
1708437958.8322778,-1.1054129600524902,-1.6817461452879847,-2.5267346541034144,2.2811567026325683,-1.0175841490374964,0.3876940906047821
1708437958.8343086,-1.1053624153137207,-1.6817223034300746,-2.5267255941974085,2.281132860774658,-1.0176008383380335,0.38768064975738525
1708437958.836324,-1.1054248809814453,-1.681680818597311,-2.5267391840564173,2.281149073238037,-1.0175684134112757,0.3876732885837555
1708437958.8382525,-1.1054085493087769,-1.681741853753561,-2.5267558733569544,2.281157894725464,-1.0175884405719202,0.38772398233413696
1708437958.8402655,-1.1053787469863892,-1.6816851101317347,-2.5267604033099573,2.281181736583374,-1.0175769964801233,0.387731671333313
1708437958.842244,-1.1053743362426758,-1.6816760502257289,-2.5267558733569544,2.2811524110981445,-1.0176094214068812,0.3876866400241852
1708437958.8442485,-1.105420470237732,-1.681650301019186,-2.5267139116870325,2.281132860774658,-1.01756459871401,0.3876866400241852
1708437958.8462527,-1.105420470237732,-1.6817461452879847,-2.5267015139209192,2.281165285701416,-1.0176127592669886,0.38763272762298584
1708437958.848268,-1.105458378791809,-1.6816970310606898,-2.5267558733569544,2.281165524119995,-1.0175641218768519,0.3876732885837555
1708437958.8502488,-1.1053996086120605,-1.6817299328246058,-2.5267842451678675,2.2811285692402343,-1.0175440947162073,0.3877105116844177
1708437958.852245,-1.105404019355774,-1.6817385158934535,-2.5267346541034144,2.2811285692402343,-1.0175312201129358,0.38767775893211365
1708437958.8542535,-1.1054085493087769,-1.6817542515196742,-2.5267887751208704,2.281149073238037,-1.0175755659686487,0.3876822292804718
1708437958.8562596,-1.1054368019104004,-1.6817251644530238,-2.5267723242389124,2.2811028200336914,-1.0175474325763147,0.3876896798610687
1708437958.858251,-1.1053385734558105,-1.6817165813841761,-2.5267301241504114,2.2811240392872314,-1.0175727049456995,0.3876896798610687
1708437958.8602676,-1.1053951978683472,-1.6816569767394007,-2.5267513434039515,2.2811285692402343,-1.0176170508014124,0.3876911997795105
1708437958.8622515,-1.1053951978683472,-1.681671758691305,-2.5267930666552942,2.2811404901691894,-1.0175684134112757,0.38769853115081787
1708437958.8643131,-1.105366826057434,-1.6816970310606898,-2.5267391840564173,2.2811359602161865,-1.0176051298724573,0.38767775893211365
1708437958.8662994,-1.1054085493087769,-1.6816803417601527,-2.52674371400942,2.2811567026325683,-1.0176008383380335,0.3877030313014984
1708437958.86829,-1.1053593158721924,-1.6816851101317347,-2.5267961660968226,2.2811567026325683,-1.0175798575030726,0.3877238929271698
1708437958.8703055,-1.105366826057434,-1.681692739526266,-2.5267604033099573,2.28117744504895,-1.0175884405719202,0.3876238465309143
1708437958.8722796,-1.1053801774978638,-1.681692739526266,-2.5267558733569544,2.281172915095947,-1.0175684134112757,0.38769859075546265
1708437958.8742995,-1.105420470237732,-1.6816851101317347,-2.5268035570727747,2.281127377147339,-1.0175641218768519,0.38767480850219727
1708437958.8762834,-1.105383276939392,-1.6817504368224085,-2.5267797152148646,2.2811893659779052,-1.0176008383380335,0.3876732885837555
1708437958.8782988,-1.1054368019104004,-1.6816593609251917,-2.5267632643329065,2.2811359602161865,-1.017559830342428,0.3876238763332367
1708437958.8803957,-1.1053920984268188,-1.6817089519896449,-2.5267422834979456,2.281172915095947,-1.0175312201129358,0.38766583800315857
1708437958.882295,-1.105415940284729,-1.6816636524596156,-2.5267677942859095,2.2811762529560546,-1.0176084677325647,0.38767483830451965
1708437958.8842854,-1.1054085493087769,-1.6816674671568812,-2.5267558733569544,2.281172915095947,-1.0176213423358362,0.38767775893211365
1708437958.8862476,-1.1053475141525269,-1.6817385158934535,-2.5267093817340296,2.281209869975708,-1.0175922552691858,0.38769856095314026
1708437958.8882647,-1.105371356010437,-1.681692739526266,-2.5267468134509485,2.2811524110981445,-1.0175841490374964,0.38768666982650757
1708437958.8902278,-1.105366826057434,-1.6817342243590296,-2.5267391840564173,2.2811524110981445,-1.0175517241107386,0.38765814900398254
1708437958.892228,-1.1053801774978638,-1.6816569767394007,-2.5267916361438196,2.2811240392872314,-1.0175755659686487,0.387682169675827
1708437958.894243,-1.1053757667541504,-1.6817308864989222,-2.5267468134509485,2.281132860774658,-1.0176084677325647,0.387632817029953
1708437958.8962364,-1.1054085493087769,-1.6817251644530238,-2.5267677942859095,2.2811848360249023,-1.0175965468036097,0.38770756125450134
1708437958.898238,-1.1053966283798218,-1.6817299328246058,-2.5267391840564173,2.2811240392872314,-1.0176332632647913,0.38761386275291443
1708437958.9002514,-1.1054368019104004,-1.6817060909666957,-2.5267871061908167,2.2811316686817626,-1.0176084677325647,0.3876822292804718
1708437958.902253,-1.1053966283798218,-1.681652685204977,-2.5267632643329065,2.281172915095947,-1.017571274434225,0.3876625597476959
1708437958.9043102,-1.1053504943847656,-1.681589265862936,-2.52674371400942,2.2811567026325683,-1.0175755659686487,0.38774800300598145
1708437958.9062798,-1.105420470237732,-1.6816894016661585,-2.5267587343799036,2.281172915095947,-1.0175474325763147,0.3876535892486572
1708437958.9082487,-1.105371356010437,-1.6816851101317347,-2.5267632643329065,2.2811154562183837,-1.0175769964801233,0.3876821994781494
1708437958.9102464,-1.1053876876831055,-1.6817089519896449,-2.5267093817340296,2.28117744504895,-1.0176127592669886,0.38766583800315857
1708437958.9122458,-1.1054129600524902,-1.681643625298971,-2.5267468134509485,2.2811316686817626,-1.0176213423358362,0.3876821994781494
1708437958.9143069,-1.105383276939392,-1.6816636524596156,-2.5267751852618616,2.2811848360249023,-1.0175965468036097,0.38764914870262146
1708437958.916302,-1.105415940284729,-1.6816936932005824,-2.5267255941974085,2.2811893659779052,-1.0176084677325647,0.38767024874687195
1708437958.9182928,-1.105359435081482,-1.6817251644530238,-2.5267542044269007,2.281165524119995,-1.017632309590475,0.3876613974571228
1708437958.9203408,-1.1054085493087769,-1.6817208729186,-2.5267422834979456,2.2811478811451416,-1.017604176198141,0.3876703083515167
1708437958.9223058,-1.105433702468872,-1.6816479168333949,-2.5268006960498255,2.2811567026325683,-1.0175884405719202,0.3876345157623291
1708437958.9242873,-1.105366826057434,-1.6817504368224085,-2.5267422834979456,2.2811567026325683,-1.0176170508014124,0.38764476776123047
1708437958.9262853,-1.1053996086120605,-1.6817223034300746,-2.5267871061908167,2.2811848360249023,-1.0176332632647913,0.3876490890979767
1708437958.928298,-1.1053996086120605,-1.6816636524596156,-2.5267422834979456,2.2811524110981445,-1.0176246801959437,0.3876955509185791
1708437958.9303274,-1.1054412126541138,-1.6816936932005824,-2.5268006960498255,2.281209869975708,-1.017628018056051,0.38768666982650757
1708437958.932308,-1.105383276939392,-1.6816636524596156,-2.5267587343799036,2.281217499370239,-1.0175884405719202,0.38767480850219727
1708437958.9342833,-1.105371356010437,-1.6817299328246058,-2.5267797152148646,2.2811643320270996,-1.0176203886615198,0.38762837648391724
1708437958.9362645,-1.105359435081482,-1.681692739526266,-2.5267677942859095,2.2811598020740966,-1.0175841490374964,0.3876613974571228
1708437958.9383886,-1.1053996086120605,-1.6816970310606898,-2.5267661253558558,2.2811567026325683,-1.0175922552691858,0.3876613974571228
1708437958.9407835,-1.1053876876831055,-1.6817342243590296,-2.5267227331744593,2.281127377147339,-1.017632309590475,0.3877120018005371
1708437958.9422622,-1.1053252220153809,-1.6817251644530238,-2.5267751852618616,2.2811435896107177,-1.0176203886615198,0.38767924904823303
1708437958.9442453,-1.1053876876831055,-1.6817251644530238,-2.5267916361438196,2.2811154562183837,-1.0176494757281702,0.3876733183860779
1708437958.946258,-1.105432391166687,-1.6817089519896449,-2.5267677942859095,2.2811967569538574,-1.0176408926593226,0.3876372277736664
1708437958.9482584,-1.105371356010437,-1.6817180118956507,-2.5267167727099817,2.281160994166992,-1.0175965468036097,0.3876613974571228
1708437958.9502416,-1.105359435081482,-1.681652685204977,-2.5267797152148646,2.2811567026325683,-1.0176613966571253,0.3877149224281311
1708437958.9522512,-1.1053951978683472,-1.681699892083639,-2.5267706553088587,2.2811435896107177,-1.0176246801959437,0.38765811920166016
1708437958.9542637,-1.105354905128479,-1.6816636524596156,-2.5267842451678675,2.281123085612915,-1.017587963734762,0.3876613974571228
1708437958.9562707,-1.1053876876831055,-1.6817342243590296,-2.5267542044269007,2.2811435896107177,-1.0176203886615198,0.38767027854919434
1708437958.9582484,-1.1054041385650635,-1.6817223034300746,-2.5267377535449427,2.281172915095947,-1.0176246801959437,0.3876613974571228
1708437958.9602675,-1.105359435081482,-1.681704660455221,-2.5267587343799036,2.2811967569538574,-1.0176203886615198,0.38764914870262146
1708437958.9622576,-1.1053460836410522,-1.681692739526266,-2.5267723242389124,2.281160994166992,-1.0176408926593226,0.38767027854919434
1708437958.9643142,-1.105404019355774,-1.6816894016661585,-2.5267210642444056,2.2811567026325683,-1.0176366011248987,0.3876372277736664
1708437958.9662962,-1.1053966283798218,-1.6817060909666957,-2.5267871061908167,2.2811524110981445,-1.0176084677325647,0.38770604133605957
1708437958.9682796,-1.1054294109344482,-1.6816760502257289,-2.5267377535449427,2.2811686235615234,-1.017653767262594,0.3876327574253082
1708437958.9703155,-1.1053801774978638,-1.6816803417601527,-2.5267496744738978,2.281217499370239,-1.0176246801959437,0.38765811920166016
1708437958.9722712,-1.105371356010437,-1.6817342243590296,-2.5268080870257776,2.2811967569538574,-1.0175836722003382,0.3876866400241852
1708437958.9742653,-1.1054085493087769,-1.6817208729186,-2.5267422834979456,2.2811197477528076,-1.017604176198141,0.3876911401748657
1708437958.976264,-1.1053712368011475,-1.6816851101317347,-2.5267632643329065,2.281197949046753,-1.0176203886615198,0.38767027854919434
1708437958.9782794,-1.1054248809814453,-1.6816593609251917,-2.5268035570727747,2.2811893659779052,-1.017604176198141,0.3876896798610687
1708437958.9803493,-1.1053743362426758,-1.6816851101317347,-2.5268080870257776,2.2812387186237792,-1.0176075140582483,0.38767772912979126
1708437958.9822953,-1.1053787469863892,-1.6817552051939906,-2.5267751852618616,2.281172915095947,-1.017599884663717,0.38770297169685364
1708437958.984291,-1.105383276939392,-1.681741853753561,-2.5267751852618616,2.2811478811451416,-1.0176613966571253,0.3876327872276306
1708437958.986254,-1.1053996086120605,-1.6817385158934535,-2.5267751852618616,2.2811598020740966,-1.0175965468036097,0.3876535892486572
1708437958.9882636,-1.105359435081482,-1.6817132435240687,-2.5267751852618616,2.2811967569538574,-1.0176075140582483,0.3876940608024597
1708437958.9902582,-1.1054085493087769,-1.6817089519896449,-2.5268080870257776,2.281179113979004,-1.0175955931292933,0.38767027854919434
1708437958.9922793,-1.1054248809814453,-1.681687971154684,-2.5267871061908167,2.281217499370239,-1.0176289717303675,0.38771048188209534
1708437958.9942484,-1.1053638458251953,-1.681704660455221,-2.5267916361438196,2.281123085612915,-1.0176366011248987,0.3876911401748657
1708437958.9962697,-1.1053743362426758,-1.6817251644530238,-2.526733462010519,2.2811361986347656,-1.0176246801959437,0.3876793086528778
1708437958.9982488,-1.105366826057434,-1.6816851101317347,-2.5268126169787806,2.2811600404926757,-1.0176528135882776,0.38767921924591064
1708437959.000262,-1.1053624153137207,-1.681692739526266,-2.5267377535449427,2.2812086778828125,-1.0176528135882776,0.3876733183860779
1708437959.0022752,-1.105404019355774,-1.6817251644530238,-2.5267961660968226,2.281221790904663,-1.0176203886615198,0.387632817029953
1708437959.004337,-1.1054115295410156,-1.681687971154684,-2.5268169085132044,2.2812086778828125,-1.017604176198141,0.38761240243911743
1708437959.0063114,-1.1054294109344482,-1.6816684208311976,-2.5267842451678675,2.2811893659779052,-1.0176366011248987,0.38761672377586365
1708437959.0083218,-1.1053876876831055,-1.6817089519896449,-2.5268006960498255,2.281205578441284,-1.0175755659686487,0.38769856095314026
1708437959.0103183,-1.105342984199524,-1.6817389927306117,-2.5267632643329065,2.2811686235615234,-1.0175965468036097,0.3877406418323517
1708437959.0123675,-1.105404019355774,-1.681687971154684,-2.5268080870257776,2.2812670904346923,-1.017616097127096,0.38767027854919434
1708437959.0143163,-1.105383276939392,-1.6817251644530238,-2.5267661253558558,2.28115098058667,-1.0176408926593226,0.3876613676548004
1708437959.0163054,-1.1053996086120605,-1.6816674671568812,-2.5267842451678675,2.281217499370239,-1.017604176198141,0.3876447081565857
1708437959.018289,-1.1053906679153442,-1.6816770039000453,-2.526740614567892,2.2811967569538574,-1.017604176198141,0.38767027854919434
1708437959.0203032,-1.1053920984268188,-1.6816569767394007,-2.5267377535449427,2.281205578441284,-1.017599884663717,0.3876955509185791
1708437959.022299,-1.105371356010437,-1.6816851101317347,-2.5267842451678675,2.2811762529560546,-1.0176084677325647,0.3876613974571228
1708437959.0242994,-1.105383276939392,-1.6817013225951136,-2.5267723242389124,2.2811805444904785,-1.017604176198141,0.38771045207977295
1708437959.0262852,-1.105432391166687,-1.6817060909666957,-2.5267916361438196,2.2812582689472656,-1.017604176198141,0.38767483830451965
1708437959.0283115,-1.1054368019104004,-1.6816393337645472,-2.5267751852618616,2.281195564860962,-1.0176118055926722,0.38766583800315857
1708437959.0302918,-1.105432391166687,-1.6816970310606898,-2.5267706553088587,2.2811998563953857,-1.0176203886615198,0.3876866400241852
1708437959.0322964,-1.105404019355774,-1.6817132435240687,-2.5267661253558558,2.2811881738850097,-1.0176408926593226,0.3876822590827942
1708437959.0342412,-1.1054456233978271,-1.6817180118956507,-2.5267661253558558,2.281189127559326,-1.0176203886615198,0.387703001499176
1708437959.0362945,-1.1053996086120605,-1.6817060909666957,-2.5267961660968226,2.2811848360249023,-1.017599884663717,0.38769856095314026
1708437959.0383022,-1.1053787469863892,-1.6817103825011195,-2.5267706553088587,2.281217499370239,-1.0176451841937464,0.38767775893211365
1708437959.0402675,-1.1054368019104004,-1.6816636524596156,-2.5267916361438196,2.2811643320270996,-1.0176366011248987,0.38771191239356995
1708437959.0422542,-1.1054010391235352,-1.6817103825011195,-2.5267587343799036,2.2811924654194335,-1.0176366011248987,0.38769853115081787
1708437959.0442572,-1.105415940284729,-1.6816684208311976,-2.5267871061908167,2.281183643932007,-1.0175793806659144,0.3876822292804718
1708437959.0462487,-1.1054294109344482,-1.6817146740355433,-2.5267255941974085,2.2812132078358154,-1.017616097127096,0.387728214263916
1708437959.0482562,-1.105366826057434,-1.6816569767394007,-2.5267587343799036,2.2811435896107177,-1.0176118055926722,0.38770604133605957
1708437959.050248,-1.105371356010437,-1.6816359959044398,-2.5267677942859095,2.281171961421631,-1.017599884663717,0.3876614272594452
1708437959.052285,-1.1054069995880127,-1.6817385158934535,-2.5267661253558558,2.2811998563953857,-1.0176408926593226,0.3876851797103882
1708437959.0542526,-1.1054413318634033,-1.6816760502257289,-2.5267871061908167,2.2812043863483886,-1.017616097127096,0.38767775893211365
1708437959.0562453,-1.1054234504699707,-1.6816612682738246,-2.5268006960498255,2.281155510539673,-1.0176399389850062,0.3876941204071045
1708437959.0582566,-1.1054115295410156,-1.6816684208311976,-2.5267632643329065,2.281232996577881,-1.0176528135882776,0.38770607113838196
1708437959.0602562,-1.105371356010437,-1.6816569767394007,-2.5267961660968226,2.281212492580078,-1.0176203886615198,0.38769856095314026
1708437959.062259,-1.1053876876831055,-1.681680818597311,-2.5267751852618616,2.2812539774128417,-1.0176289717303675,0.3876613974571228
1708437959.064352,-1.1054115295410156,-1.6816770039000453,-2.5267422834979456,2.2811881738850097,-1.0176203886615198,0.38770297169685364
1708437959.0663176,-1.1053624153137207,-1.6816984615721644,-2.5267632643329065,2.281216784114502,-1.0175836722003382,0.3876897096633911
1708437959.0683084,-1.105415940284729,-1.6816770039000453,-2.5267751852618616,2.281212492580078,-1.0176203886615198,0.3876851797103882
1708437959.0702906,-1.1054413318634033,-1.6816569767394007,-2.5267377535449427,2.281221314067505,-1.0176408926593226,0.3877149224281311
1708437959.0723584,-1.1054528951644897,-1.681681295434469,-2.5267825762378138,2.281228705043457,-1.0176246801959437,0.38770297169685364
1708437959.074273,-1.1053578853607178,-1.6816770039000453,-2.5267587343799036,2.2812937933155517,-1.0175836722003382,0.38765811920166016
1708437959.0762913,-1.1054279804229736,-1.681681295434469,-2.526815954838888,2.281280680293701,-1.0176656881915491,0.3877359926700592
1708437959.0783474,-1.1054071187973022,-1.6816727123656214,-2.5268457571612757,2.281264467830322,-1.0176203886615198,0.3877105116844177
1708437959.0803204,-1.1053813695907593,-1.681619783441061,-2.5267587343799036,2.2812468248554687,-1.0175626913653772,0.3877193331718445
1708437959.0822475,-1.1053951978683472,-1.681707044641012,-2.5267751852618616,2.2812513548084716,-1.017599884663717,0.38771045207977295
1708437959.0842621,-1.1053951978683472,-1.6816407642760218,-2.526778046284811,2.2812630373188476,-1.0176366011248987,0.3876911997795105
1708437959.086276,-1.105435848236084,-1.6817060909666957,-2.526811424885885,2.2813257414051513,-1.0176528135882776,0.3876688778400421
1708437959.0882437,-1.1054493188858032,-1.6816450558104457,-2.526761595402853,2.2813171583363037,-1.0176485220538538,0.3877359926700592
1708437959.0902581,-1.105383276939392,-1.6816894016661585,-2.526836935673849,2.2813126283833007,-1.0176289717303675,0.38769856095314026
1708437959.092263,-1.1053860187530518,-1.6816894016661585,-2.5268126169787806,2.2813214498707275,-1.0176613966571253,0.38769856095314026
1708437959.094256,-1.1053813695907593,-1.6816541157164515,-2.5268171469317835,2.2813126283833007,-1.0176289717303675,0.38771048188209534
1708437959.0962677,-1.1053787469863892,-1.6816851101317347,-2.5267542044269007,2.281308336848877,-1.0175955931292933,0.38767775893211365
1708437959.0982568,-1.1054024696350098,-1.6816803417601527,-2.5268035570727747,2.281280680293701,-1.0176366011248987,0.3876897096633911
1708437959.1002533,-1.1054449081420898,-1.6816984615721644,-2.526794497166769,2.2812914091297607,-1.0176075140582483,0.3876446783542633
1708437959.102254,-1.1054141521453857,-1.6816760502257289,-2.5268080870257776,2.281308336848877,-1.017604176198141,0.3876570165157318
1708437959.1043139,-1.105427861213684,-1.6816970310606898,-2.5267916361438196,2.2813302713581542,-1.0176203886615198,0.3877149224281311
1708437959.1063228,-1.1054188013076782,-1.6816936932005824,-2.5267916361438196,2.2813259798237304,-1.0176528135882776,0.38771045207977295
1708437959.1082633,-1.1053814888000488,-1.681652685204977,-2.5267751852618616,2.2813421922871093,-1.017604176198141,0.3877316415309906
1708437959.1102633,-1.1053906679153442,-1.681681295434469,-2.5268126169787806,2.2813379007526855,-1.017599884663717,0.3877315819263458
1708437959.1122522,-1.1053951978683472,-1.6816493473448695,-2.5267797152148646,2.2812914091297607,-1.0176084677325647,0.3877148926258087
1708437959.1142864,-1.1054069995880127,-1.681652685204977,-2.5267587343799036,2.2813407617756347,-1.0176571051227015,0.3876524865627289
1708437959.1162677,-1.1054494380950928,-1.681681295434469,-2.5267496744738978,2.2813584047504882,-1.017604176198141,0.3876941204071045
1708437959.118627,-1.105432391166687,-1.6817027531065882,-2.5267797152148646,2.2812749582478027,-1.0176571051227015,0.3876733183860779
1708437959.1203003,-1.1054071187973022,-1.681652685204977,-2.5267332235919397,2.2813171583363037,-1.01764423051943,0.3876570165157318
1708437959.1222706,-1.1054404973983765,-1.6816450558104457,-2.5267751852618616,2.2812868791767578,-1.0176647345172327,0.3876614570617676
1708437959.124282,-1.1053650379180908,-1.681681295434469,-2.5267916361438196,2.2813214498707275,-1.0176084677325647,0.38771483302116394
1708437959.1262667,-1.1054234504699707,-1.6816936932005824,-2.5267632643329065,2.2813421922871093,-1.0176332632647913,0.3877718150615692
1708437959.1282964,-1.1053860187530518,-1.6816417179503382,-2.5268126169787806,2.2812840181538085,-1.0175922552691858,0.387713760137558
1708437959.1302798,-1.105427861213684,-1.6816593609251917,-2.5267825762378138,2.2813171583363037,-1.017616097127096,0.3876897096633911
1708437959.1323004,-1.1054404973983765,-1.6816612682738246,-2.526740614567892,2.2812883096882324,-1.017628018056051,0.38771048188209534
1708437959.1342487,-1.1054234504699707,-1.6817075214781703,-2.526778046284811,2.2812763887592773,-1.0176118055926722,0.3876613974571228
1708437959.1362638,-1.105415940284729,-1.6816727123656214,-2.526832405720846,2.281214399928711,-1.017616097127096,0.3876733183860779
1708437959.1382594,-1.1054188013076782,-1.681680818597311,-2.526799027119772,2.2812957006641845,-1.01764423051943,0.38769856095314026
1708437959.1402667,-1.105427861213684,-1.6816936932005824,-2.5268080870257776,2.2813333707996826,-1.017628018056051,0.3877390921115875
1708437959.1423051,-1.105415940284729,-1.6816612682738246,-2.526740614567892,2.281313343639038,-1.0176528135882776,0.3876658082008362
1708437959.1442664,-1.1054097414016724,-1.6816684208311976,-2.5267871061908167,2.2813045221516113,-1.0176647345172327,0.3877148926258087
1708437959.1462421,-1.1054188013076782,-1.6816936932005824,-2.526799027119772,2.2813171583363037,-1.01764423051943,0.3877094089984894
1708437959.148234,-1.1054404973983765,-1.6817194424071253,-2.5267825762378138,2.2812794882008056,-1.0176237265216272,0.3876941204071045
1708437959.1502392,-1.1054449081420898,-1.681652685204977,-2.5267825762378138,2.2812720972248535,-1.0176408926593226,0.38771048188209534
1708437959.1522524,-1.1054052114486694,-1.6816703281798304,-2.526815954838888,2.2813002306171875,-1.0176399389850062,0.38771048188209534
1708437959.1542296,-1.1054234504699707,-1.6816703281798304,-2.526778046284811,2.2813002306171875,-1.0175836722003382,0.38771820068359375
1708437959.15623,-1.1054692268371582,-1.6816331348814906,-2.5268080870257776,2.281309052104614,-1.0176075140582483,0.3877435326576233
1708437959.1582441,-1.1054528951644897,-1.6816703281798304,-2.526773516331808,2.2812883096882324,-1.0176408926593226,0.3877227008342743
1708437959.1602526,-1.1054450273513794,-1.681652685204977,-2.526806894932882,2.2813002306171875,-1.0176528135882776,0.3876643180847168
1708437959.162273,-1.1053996086120605,-1.6817194424071253,-2.526794497166769,2.2812957006641845,-1.0176485220538538,0.3877270817756653
1708437959.1642728,-1.1054141521453857,-1.6816359959044398,-2.526815954838888,2.2812556463428955,-1.01764423051943,0.3876688480377197
1708437959.1662974,-1.1053906679153442,-1.6816655598082484,-2.526815954838888,2.2812630373188476,-1.017632309590475,0.38770604133605957
1708437959.1682608,-1.1053743362426758,-1.6816655598082484,-2.526832405720846,2.2813216882893066,-1.017628018056051,0.3876941204071045
1708437959.170277,-1.1054575443267822,-1.681681295434469,-2.526865307484762,2.281292601222656,-1.0176485220538538,0.3876897096633911
1708437959.1722465,-1.1054575443267822,-1.6816569767394007,-2.5267978350268763,2.2812558847614746,-1.0176313559161585,0.38769856095314026
1708437959.1742554,-1.1054188013076782,-1.6816851101317347,-2.5268307367907923,2.2812957006641845,-1.0176237265216272,0.3876970410346985
1708437959.176252,-1.1054024696350098,-1.6817103825011195,-2.52678090730776,2.2813126283833007,-1.0176518599139612,0.3876897096633911
1708437959.1783016,-1.1054071187973022,-1.6816359959044398,-2.526818815861837,2.2812556463428955,-1.0176475683795374,0.3876688480377197
1708437959.1802638,-1.1054024696350098,-1.6816803417601527,-2.5268517176257532,2.2813045221516113,-1.0176680723773401,0.3876807391643524
1708437959.1822464,-1.1054413318634033,-1.6816727123656214,-2.526839796696798,2.2812630373188476,-1.01764423051943,0.38771378993988037
1708437959.1842554,-1.1054368019104004,-1.681681295434469,-2.526835266743795,2.2812232214161376,-1.0177086035357874,0.3877148926258087
1708437959.186247,-1.1054115295410156,-1.6816770039000453,-2.5268517176257532,2.2812675672718505,-1.0176399389850062,0.3877345621585846
1708437959.1882539,-1.1054141521453857,-1.6816684208311976,-2.5268097559558313,2.2812482553669433,-1.0176637808429163,0.38767775893211365
1708437959.1902533,-1.1054311990737915,-1.6816684208311976,-2.5268800894366663,2.2812675672718505,-1.0176885763751429,0.38769710063934326
1708437959.1922393,-1.1054575443267822,-1.6817103825011195,-2.5268846193896692,2.2812763887592773,-1.0177090803729456,0.3877193331718445
1708437959.1942427,-1.1054413318634033,-1.6816655598082484,-2.5268006960498255,2.2812468248554687,-1.0176475683795374,0.38770151138305664
1708437959.1962388,-1.1053996086120605,-1.6816803417601527,-2.5268381277667444,2.281317635173462,-1.017684284840719,0.38769853115081787
1708437959.1982346,-1.1054404973983765,-1.6816493473448695,-2.5268922487842005,2.281280680293701,-1.0176799933062952,0.38766881823539734
1708437959.2002485,-1.1054071187973022,-1.6816612682738246,-2.5268591086017054,2.281292601222656,-1.017684284840719,0.38770604133605957
1708437959.202248,-1.1053787469863892,-1.6816860638060511,-2.5268710295306605,2.2812351423450927,-1.0176714102374476,0.38767334818840027
1708437959.2042768,-1.105435848236084,-1.6816569767394007,-2.5268996397601526,2.281297131175659,-1.0177043120013636,0.3877643048763275
1708437959.20627,-1.1054115295410156,-1.681680818597311,-2.5269086996661585,2.2812601762958984,-1.0176919142352503,0.38771486282348633
1708437959.2082598,-1.1053487062454224,-1.6816684208311976,-2.5268755594836634,2.2813002306171875,-1.0176671187030237,0.3876941204071045
1708437959.2102714,-1.1054413318634033,-1.6816684208311976,-2.5268755594836634,2.2812601762958984,-1.0176799933062952,0.3876941204071045
1708437959.2122896,-1.1054413318634033,-1.6816359959044398,-2.526869599019186,2.281292601222656,-1.017733399068014,0.38770151138305664
1708437959.2142723,-1.1054575443267822,-1.6815782986082972,-2.5268710295306605,2.281317635173462,-1.0176919142352503,0.3876941204071045
1708437959.2162602,-1.105383276939392,-1.6816684208311976,-2.5268800894366663,2.2812556463428955,-1.0176714102374476,0.3877227008342743
1708437959.218267,-1.1053996086120605,-1.6816655598082484,-2.5268619696246546,2.2812630373188476,-1.0177128950702112,0.3877345323562622
1708437959.2202737,-1.1054071187973022,-1.6817060909666957,-2.5269041697131556,2.281289501781128,-1.0176757017718714,0.38766586780548096
1708437959.222252,-1.105415940284729,-1.6816569767394007,-2.5269084612475794,2.281289501781128,-1.0177086035357874,0.38771381974220276
1708437959.224259,-1.1054188013076782,-1.6816936932005824,-2.5268545786487024,2.2812482553669433,-1.0177248159991663,0.3877227008342743
1708437959.2262514,-1.1053951978683472,-1.6816803417601527,-2.5268786589251917,2.281297131175659,-1.0177248159991663,0.38770151138305664
1708437959.2282825,-1.1054115295410156,-1.6816569767394007,-2.5268831888781946,2.2812937933155517,-1.0176628271686,0.38772711157798767
1708437959.2302654,-1.105420470237732,-1.6816407642760218,-2.5268922487842005,2.2812558847614746,-1.0177205244647425,0.38767772912979126
1708437959.2322512,-1.1053743362426758,-1.6817385158934535,-2.5269041697131556,2.281252546901367,-1.017674748097555,0.3876688778400421
1708437959.2342699,-1.1054664850234985,-1.6816894016661585,-2.5268591086017054,2.281285210246704,-1.0177205244647425,0.38767337799072266
1708437959.2362518,-1.1054071187973022,-1.6816612682738246,-2.5268951098071497,2.281273289317749,-1.017674748097555,0.38773009181022644
1708437959.2382498,-1.1054071187973022,-1.6817060909666957,-2.5269327799426478,2.281240625972412,-1.017707649861471,0.3877227008342743
1708437959.2402503,-1.105383276939392,-1.6816569767394007,-2.5268922487842005,2.2812601762958984,-1.0177367369281214,0.3876897096633911
1708437959.2422423,-1.105415940284729,-1.6816569767394007,-2.5268996397601526,2.281264467830322,-1.0177162329303187,0.3876926302909851
1708437959.2442462,-1.1053996086120605,-1.6816569767394007,-2.5268636385547083,2.281280680293701,-1.0177119413958948,0.3877227306365967
1708437959.2462401,-1.1054234504699707,-1.681680818597311,-2.5268831888781946,2.281224413509033,-1.01772386232485,0.3876851797103882
1708437959.24826,-1.1054115295410156,-1.6817223034300746,-2.5268951098071497,2.2811948496052246,-1.0177281538592737,0.3876851797103882
1708437959.2502491,-1.105383276939392,-1.6816593609251917,-2.5268619696246546,2.281212492580078,-1.0177486578570765,0.38767337799072266
1708437959.2522922,-1.1053860187530518,-1.6816240749754847,-2.5268710295306605,2.281240625972412,-1.0177033583270472,0.3876896798610687
1708437959.254251,-1.1053580045700073,-1.6817089519896449,-2.5268951098071497,2.281228705043457,-1.017735783253805,0.38771820068359375
1708437959.2562566,-1.1054538488388062,-1.6816593609251917,-2.5268996397601526,2.281186743373535,-1.017763916646139,0.3876866102218628
1708437959.258257,-1.105350375175476,-1.6816727123656214,-2.5269084612475794,2.2812198835560302,-1.01774770418276,0.38772714138031006
1708437959.2602515,-1.1053459644317627,-1.6816636524596156,-2.5268786589251917,2.2811824518391113,-1.0177562872516077,0.38770604133605957
1708437959.2622452,-1.1053876876831055,-1.6817223034300746,-2.5268786589251917,2.281224413509033,-1.0177724997149866,0.3876941204071045
1708437959.2642603,-1.105383276939392,-1.681652685204977,-2.5268664995776575,2.281261368388794,-1.0177400747882288,0.3876807689666748
1708437959.2662494,-1.1053504943847656,-1.6816894016661585,-2.5269041697131556,2.281207962627075,-1.0177562872516077,0.3876897096633911
1708437959.2682579,-1.105366826057434,-1.6816636524596156,-2.5268922487842005,2.281249447459839,-1.0177801291095179,0.38766446709632874
1708437959.2702525,-1.1053757667541504,-1.681652685204977,-2.5269163290606897,2.2812375265308837,-1.0177434126483362,0.3877227306365967
1708437959.2722538,-1.105366826057434,-1.6816593609251917,-2.5268529097186487,2.281167193050049,-1.0178011099444788,0.3877434730529785
1708437959.2742612,-1.105342984199524,-1.6817342243590296,-2.5268967787372034,2.281107111568115,-1.017775837575094,0.3876897096633911
1708437959.276279,-1.105359435081482,-1.6817299328246058,-2.5268831888781946,2.281141682262085,-1.017775837575094,0.38769710063934326
1708437959.2782557,-1.1054085493087769,-1.6817180118956507,-2.5268831888781946,2.2811459737965087,-1.0177839438067835,0.38769713044166565
1708437959.2802756,-1.105342984199524,-1.681687971154684,-2.5268786589251917,2.281099720592163,-1.01780873933901,0.38765251636505127
1708437959.2822487,-1.1053757667541504,-1.6817017994322718,-2.5268574396716517,2.2811128336140136,-1.01780873933901,0.38776278495788574
1708437959.2842393,-1.1053504943847656,-1.6817180118956507,-2.526886049901144,2.281075878734253,-1.0178044478045862,0.3876403570175171
1708437959.286245,-1.1053876876831055,-1.681692739526266,-2.5268741289721888,2.281120463008545,-1.017775837575094,0.38770604133605957
1708437959.2882726,-1.105366826057434,-1.681692739526266,-2.5269325415240687,2.2811171251484375,-1.0178163687335413,0.3877345025539398
1708437959.29026,-1.1054085493087769,-1.6817299328246058,-2.5268951098071497,2.2811290460773925,-1.0177839438067835,0.3876481354236603
1708437959.2922456,-1.1053757667541504,-1.6816593609251917,-2.5268409887896937,2.281083269710205,-1.0177796522723597,0.38769713044166565
1708437959.2942533,-1.1053729057312012,-1.681692739526266,-2.5269327799426478,2.28110854207959,-1.0177629629718226,0.38773903250694275
1708437959.2962577,-1.1053638458251953,-1.6816984615721644,-2.5269208590136927,2.2811247545429687,-1.0178402105914515,0.3877192735671997
1708437959.298251,-1.1053259372711182,-1.681692739526266,-2.526911799107687,2.2810847002216796,-1.0178120771991175,0.38765254616737366
1708437959.300262,-1.1053683757781982,-1.6817504368224085,-2.5269163290606897,2.2811459737965087,-1.0177958647357386,0.38768520951271057
1708437959.3022413,-1.1053847074508667,-1.6817223034300746,-2.526890579854147,2.2811547952839355,-1.017865006123678,0.38767778873443604
1708437959.304295,-1.1053920984268188,-1.6816970310606898,-2.5268455187426966,2.281120463008545,-1.0178163687335413,0.38770294189453125
1708437959.3062446,-1.1053169965744019,-1.6816760502257289,-2.526890579854147,2.2811009126850585,-1.0178402105914515,0.38771486282348633
1708437959.3082664,-1.1053565740585327,-1.681704660455221,-2.526902739201681,2.2811128336140136,-1.0178077856646937,0.3877227008342743
1708437959.3102524,-1.1053409576416016,-1.6816851101317347,-2.5268574396716517,2.281120463008545,-1.0178564230548304,0.3876897096633911
1708437959.3122945,-1.105314016342163,-1.6816636524596156,-2.5269327799426478,2.281087799663208,-1.0178478399859827,0.3877553641796112
1708437959.3142662,-1.1053439378738403,-1.6817103825011195,-2.5269401709186,2.281071587199829,-1.0177949110614222,0.38777169585227966
1708437959.31627,-1.1053320169448853,-1.6817180118956507,-2.526923720036642,2.2811097341724853,-1.0178402105914515,0.3876897096633911
1708437959.318248,-1.105308175086975,-1.6817089519896449,-2.5268951098071497,2.281063957805298,-1.017799202595846,0.38773584365844727
1708437959.3202662,-1.105339527130127,-1.6816956005492152,-2.5269537607776087,2.2810847002216796,-1.0178564230548304,0.38774344325065613
1708437959.322242,-1.1052948236465454,-1.6817208729186,-2.526902739201681,2.2810932832905273,-1.017811123524801,0.38770604133605957
1708437959.3242655,-1.105377435684204,-1.6817132435240687,-2.526923720036642,2.2810966211506347,-1.0178478399859827,0.38771820068359375
1708437959.3266404,-1.1052874326705933,-1.6817223034300746,-2.5268741289721888,2.281080408687256,-1.0178316275226038,0.3877227008342743
1708437959.3282902,-1.1053200960159302,-1.6816760502257289,-2.526907269154684,2.2811128336140136,-1.017867390309469,0.3876941204071045
1708437959.3302855,-1.1052993535995483,-1.6817299328246058,-2.5268455187426966,2.2811009126850585,-1.0178316275226038,0.38764479756355286
1708437959.332285,-1.1053320169448853,-1.681704660455221,-2.526931111012594,2.281050844783447,-1.0178802649127405,0.3876897096633911
1708437959.3342612,-1.1052829027175903,-1.681732793847555,-2.526907269154684,2.2810847002216796,-1.0178878943072718,0.38772711157798767
1708437959.3362582,-1.1052576303482056,-1.681650301019186,-2.526902739201681,2.2810978132435302,-1.017855469380514,0.38772711157798767
1708437959.3382638,-1.1053320169448853,-1.681732793847555,-2.5269084612475794,2.2810401159473876,-1.01782733598818,0.38773593306541443
1708437959.3402872,-1.1052799224853516,-1.681680818597311,-2.526911799107687,2.2810281950184326,-1.0178921858416956,0.3876570463180542
1708437959.342257,-1.1052709817886353,-1.6817370853819789,-2.526865069066183,2.2810157972523193,-1.0178640524493616,0.38771045207977295
1708437959.3442848,-1.1052755117416382,-1.6817342243590296,-2.526911799107687,2.2810727792927246,-1.0178640524493616,0.38767778873443604
1708437959.3462448,-1.1052755117416382,-1.681732793847555,-2.5269163290606897,2.28103153287854,-1.017905060444967,0.38772711157798767
1708437959.3482766,-1.1052546501159668,-1.6818005047240199,-2.5269492308246058,2.281074209804199,-1.017855469380514,0.38766002655029297
1708437959.3502357,-1.1052381992340088,-1.6817494831480921,-2.526907269154684,2.28103153287854,-1.0178511778460901,0.38766005635261536
1708437959.3522518,-1.1052345037460327,-1.681711813012594,-2.526881519948141,2.281082792873047,-1.017855469380514,0.3876807987689972
1708437959.3542483,-1.1052590608596802,-1.681704660455221,-2.5268574396716517,2.2810532289692382,-1.0178802649127405,0.3877478539943695
1708437959.3562512,-1.1053037643432617,-1.681732793847555,-2.526911799107687,2.281066580409668,-1.0178521315204065,0.38772571086883545
1708437959.3582506,-1.1052436828613281,-1.6817165813841761,-2.526928249989645,2.281062050456665,-1.0178716818438929,0.38767775893211365
1708437959.3602943,-1.1052181720733643,-1.681704660455221,-2.5269325415240687,2.2810157972523193,-1.0178759733783167,0.38772711157798767
1708437959.362245,-1.1052093505859375,-1.6817542515196742,-2.5268741289721888,2.2809995847889404,-1.0178511778460901,0.38771486282348633
1708437959.3642766,-1.1052227020263672,-1.681711813012594,-2.526910130177633,2.2809831339069824,-1.0178964773761194,0.38767778873443604
1708437959.366255,-1.1052724123001099,-1.6817027531065882,-2.526902739201681,2.281062288875244,-1.0178802649127405,0.3876821994781494
1708437959.368264,-1.1052696704864502,-1.6818071804442347,-2.5269325415240687,2.281003876323364,-1.0179088751422327,0.38770297169685364
1708437959.3702862,-1.1052109003067017,-1.6817780933775843,-2.5268786589251917,2.281020088786743,-1.0178921858416956,0.3877522945404053
1708437959.3722608,-1.1052273511886597,-1.6817475757994593,-2.5269401709186,2.2810589510151367,-1.0178597609149378,0.38767337799072266
1708437959.3742905,-1.1052480936050415,-1.6817780933775843,-2.526928249989645,2.2810138899036865,-1.017855469380514,0.3876897096633911
1708437959.3762724,-1.1052227020263672,-1.6817032299437464,-2.526956383381979,2.280980034465454,-1.0178964773761194,0.3876821994781494
1708437959.378307,-1.1052109003067017,-1.6817523441710414,-2.5268996397601526,2.280984564418457,-1.0178964773761194,0.38767778873443604
1708437959.3802984,-1.1051989793777466,-1.681760927239889,-2.526923720036642,2.2809757429310302,-1.0178960005389612,0.38776859641075134
1708437959.3823097,-1.105207920074463,-1.6817361317076625,-2.5269702116595667,2.280963822002075,-1.0178921858416956,0.38770604133605957
1708437959.384289,-1.1052035093307495,-1.6817523441710414,-2.526902739201681,2.281000776881836,-1.0179217497455042,0.3876941204071045
1708437959.3862724,-1.1052496433258057,-1.6817409000792445,-2.526902739201681,2.280988855952881,-1.017883602772848,0.38767778873443604
1708437959.388303,-1.1051840782165527,-1.6817761860289515,-2.526923720036642,2.280988855952881,-1.0179246107684534,0.38766148686408997
1708437959.390281,-1.1051661968231201,-1.6817699871458949,-2.526919190083639,2.280980272884033,-1.0178640524493616,0.3877227008342743
1708437959.39231,-1.105207920074463,-1.6817361317076625,-2.526907269154684,2.2810095983692626,-1.0178759733783167,0.38767778873443604
1708437959.3942702,-1.1051884889602661,-1.681765695611471,-2.526923720036642,2.280956192607544,-1.0178716818438929,0.38770151138305664
1708437959.3962662,-1.1051298379898071,-1.6817823849120082,-2.5269160906421106,2.2810138899036865,-1.0178802649127405,0.3876941204071045
1708437959.3982444,-1.1051812171936035,-1.6817361317076625,-2.526902739201681,2.2809857565113525,-1.0178716818438929,0.3877566456794739
1708437959.4002745,-1.105155110359192,-1.6817599735655726,-2.5269492308246058,2.28092805921521,-1.0178630987750452,0.3877478539943695
1708437959.4022837,-1.105150580406189,-1.6817523441710414,-2.5269208590136927,2.2809154230305175,-1.0178630987750452,0.3877192735671997
1708437959.4042878,-1.1051768064498901,-1.6818019352354945,-2.526890579854147,2.2809857565113525,-1.0178878943072718,0.3877227008342743
1708437959.4063294,-1.1051641702651978,-1.6817733250060023,-2.526898209248678,2.280935688609741,-1.0178921858416956,0.38768520951271057
1708437959.4082756,-1.1051641702651978,-1.6817566357054652,-2.526902739201681,2.280928774470947,-1.0179045836078089,0.38771378993988037
1708437959.4102929,-1.1051359176635742,-1.6817928753294886,-2.5269370714770716,2.2809323507496337,-1.0179131666766565,0.38773900270462036
1708437959.4122884,-1.1051031351089478,-1.6817761860289515,-2.5269654432879847,2.280987187022827,-1.0178878943072718,0.38767337799072266
1708437959.4142892,-1.1051478385925293,-1.681793829003805,-2.526952091847555,2.280937595958374,-1.0178630987750452,0.38771045207977295
1708437959.4162872,-1.1051448583602905,-1.6817599735655726,-2.526919190083639,2.280895634288452,-1.0178917090045374,0.38771045207977295
1708437959.418322,-1.1051359176635742,-1.681718488732809,-2.5268996397601526,2.280892534846924,-1.017839256917135,0.38769853115081787
1708437959.4203136,-1.1051031351089478,-1.6817971668639125,-2.526914660130636,2.2809132772633056,-1.0178630987750452,0.3876941502094269
1708437959.422308,-1.1051284074783325,-1.6818224392332972,-2.526865069066183,2.280883713359497,-1.0178630987750452,0.38769716024398804
1708437959.4242842,-1.1051478385925293,-1.6818343601622523,-2.526919190083639,2.280876322383545,-1.0178630987750452,0.3877060115337372
1708437959.4263103,-1.1051567792892456,-1.6817361317076625,-2.5268951098071497,2.2808524805256347,-1.017855469380514,0.3877597749233246
1708437959.4282846,-1.1051239967346191,-1.6817847690977992,-2.526890579854147,2.280871792430542,-1.0179088751422327,0.38771820068359375
1708437959.4302695,-1.1050957441329956,-1.6818090877928675,-2.5269041697131556,2.280876322383545,-1.0178802649127405,0.38770154118537903
1708437959.4322717,-1.1050912141799927,-1.6817389927306117,-2.5268951098071497,2.28086440145459,-1.0178101698504847,0.38770154118537903
1708437959.434296,-1.105100154876709,-1.6817885837950648,-2.5269163290606897,2.2808355528065185,-1.0178511778460901,0.38769271969795227
1708437959.4363282,-1.105088233947754,-1.6818257770934046,-2.5268951098071497,2.2809056478687744,-1.0178640524493616,0.38768818974494934
1708437959.4382713,-1.1050926446914673,-1.6818257770934046,-2.5269325415240687,2.2808524805256347,-1.0179088751422327,0.3876941204071045
1708437959.4402769,-1.1050763130187988,-1.6818167171873988,-2.526919190083639,2.2808655935474853,-1.0179131666766565,0.38774344325065613
1708437959.4422572,-1.1050763130187988,-1.6817714176573695,-2.526890579854147,2.2808355528065185,-1.0179160276996058,0.3876941204071045
1708437959.4442546,-1.1050339937210083,-1.6817928753294886,-2.5269492308246058,2.2808775144764404,-1.0178511778460901,0.3876807689666748
1708437959.4462695,-1.1050548553466797,-1.6817838154234828,-2.526865069066183,2.2808613020130615,-1.017855469380514,0.3877508342266083
1708437959.4482474,-1.105047583580017,-1.6818424663939417,-2.526928249989645,2.2808398443409423,-1.0178468863116663,0.387713760137558
1708437959.4502347,-1.1050763130187988,-1.6818138561644496,-2.526886049901144,2.2808655935474853,-1.0178960005389612,0.3876807987689972
1708437959.4523153,-1.1050809621810913,-1.6817957363524378,-2.5268996397601526,2.2808655935474853,-1.0178425947772425,0.3877553641796112
1708437959.4542608,-1.1051045656204224,-1.681807657281393,-2.5269492308246058,2.2808820444294433,-1.0178683439837855,0.3877464532852173
1708437959.4562638,-1.1050548553466797,-1.6818138561644496,-2.526911799107687,2.2808193403431396,-1.0178921858416956,0.387713760137558
1708437959.4582498,-1.105023741722107,-1.681862016717428,-2.5269325415240687,2.2807509142109375,-1.01782733598818,0.3877376317977905
1708437959.4602933,-1.1050639152526855,-1.681775232354635,-2.526911799107687,2.280836744899414,-1.0178597609149378,0.38775837421417236
1708437959.4622505,-1.105035662651062,-1.6817957363524378,-2.5268951098071497,2.280820532436035,-1.0178230444537562,0.387709379196167
1708437959.4642837,-1.1050444841384888,-1.6818119488158167,-2.526931111012594,2.280792399043701,-1.0178435484515589,0.38779136538505554
1708437959.4662468,-1.1050490140914917,-1.681836267510885,-2.526935640965597,2.280820532436035,-1.0178845564471644,0.38777944445610046
1708437959.4682634,-1.1050444841384888,-1.6818167171873988,-2.5269401709186,2.280836744899414,-1.0178716818438929,0.38774505257606506
1708437959.470275,-1.1050162315368652,-1.6818248234190882,-2.5268786589251917,2.2808660703846435,-1.0178359190570276,0.3877943754196167
1708437959.472286,-1.1049879789352417,-1.6818753681578578,-2.5268996397601526,2.280820532436035,-1.0178716818438929,0.3877617120742798
1708437959.4742842,-1.1050325632095337,-1.6818777523436488,-2.5268786589251917,2.2808162409016113,-1.0178468863116663,0.3878229558467865
1708437959.4762642,-1.1050281524658203,-1.6819154224791468,-2.526902739201681,2.280787869090698,-1.0178349653827112,0.3878348767757416
1708437959.478317,-1.1050162315368652,-1.6818448505797328,-2.526923720036642,2.2808000284382324,-1.0178802649127405,0.3878348469734192
1708437959.4803188,-1.1049790382385254,-1.681866308251852,-2.526886049901144,2.2807397085377197,-1.0178239981280726,0.38779738545417786
1708437959.482287,-1.1050342321395874,-1.681829114953512,-2.526919190083639,2.280792399043701,-1.0178845564471644,0.3878052830696106
1708437959.4842756,-1.1049998998641968,-1.6818114719786585,-2.5268335978137415,2.280772848720215,-1.0178359190570276,0.3877677321434021
1708437959.4862745,-1.1050251722335815,-1.6818448505797328,-2.5269492308246058,2.2808171945759277,-1.0178316275226038,0.3878215551376343
1708437959.4882648,-1.1050370931625366,-1.6818248234190882,-2.5268786589251917,2.2807397085377197,-1.0178597609149378,0.38789603114128113
1708437959.490253,-1.1049799919128418,-1.6818486652769984,-2.526919190083639,2.2808055120655517,-1.0178359190570276,0.3878289461135864
1708437959.4922516,-1.1049879789352417,-1.681873460809225,-2.5268574396716517,2.280812903041504,-1.0178521315204065,0.3878290057182312
1708437959.494273,-1.105013370513916,-1.6818529568114222,-2.5268831888781946,2.2807890611835937,-1.0178564230548304,0.38784125447273254
1708437959.4962876,-1.1049590110778809,-1.681831499139303,-2.5268664995776575,2.2807890611835937,-1.0178607145892542,0.3878215551376343
1708437959.4982436,-1.1049799919128418,-1.681864400903219,-2.5268996397601526,2.280772848720215,-1.0178845564471644,0.3877919018268585
1708437959.5002322,-1.105013370513916,-1.681859632531637,-2.526919190083639,2.2807890611835937,-1.0178282896624964,0.38783788681030273
1708437959.5022352,-1.1049346923828125,-1.6818486652769984,-2.5268664995776575,2.280756636256836,-1.0178197065936487,0.3878245949745178
1708437959.5042531,-1.105001449584961,-1.681927343408102,-2.526890579854147,2.2807933527180175,-1.0177915732013147,0.38788267970085144
1708437959.5062642,-1.104970932006836,-1.6819139919676722,-2.5268457571612757,2.2807816702076416,-1.0178163687335413,0.3878140449523926
1708437959.5082688,-1.1049844026565552,-1.6818353138365687,-2.5268831888781946,2.2807397085377197,-1.0177882353412073,0.38781270384788513
1708437959.510252,-1.1049680709838867,-1.6818448505797328,-2.5268996397601526,2.2807609277912597,-1.0177672545062464,0.3878215551376343
1708437959.51225,-1.1049844026565552,-1.6818529568114222,-2.5268877188311976,2.2807397085377197,-1.0177839438067835,0.3878486156463623
1708437959.5142703,-1.1050386428833008,-1.6819020710387171,-2.5268831888781946,2.2807935911365966,-1.0177596251117151,0.3878946006298065
1708437959.5162725,-1.1049799919128418,-1.681868692437643,-2.5268741289721888,2.2807890611835937,-1.0177925268756312,0.3878575563430786
1708437959.5182676,-1.1049799919128418,-1.681868692437643,-2.5269208590136927,2.2807654577442626,-1.01780873933901,0.3878990113735199
1708437959.5202525,-1.1048883199691772,-1.6818677387633265,-2.5268574396716517,2.2807528215595703,-1.0177519957171839,0.3878813087940216
1708437959.5222464,-1.1049437522888184,-1.6818553409972132,-2.5268710295306605,2.2807323175617675,-1.01774770418276,0.38787388801574707
1708437959.5242586,-1.1049472093582153,-1.6818767986693324,-2.5268877188311976,2.280756636256836,-1.017735783253805,0.38792288303375244
1708437959.526248,-1.10492742061615,-1.6818601093687953,-2.526869837437765,2.2807528215595703,-1.017735783253805,0.38794663548469543
1708437959.5282638,-1.104992389678955,-1.6818553409972132,-2.5268831888781946,2.2807440000721435,-1.0178011099444788,0.38797393441200256
1708437959.5302906,-1.1049381494522095,-1.6818810902037562,-2.5269129912005823,2.2807771402546386,-1.0177314917193812,0.38801124691963196
1708437959.5322526,-1.1049636602401733,-1.6819426021971644,-2.5268545786487024,2.280718966121338,-1.017707649861471,0.3879739046096802
1708437959.5342414,-1.1049753427505493,-1.6818634472289027,-2.5268545786487024,2.2807397085377197,-1.0176871458636683,0.3879891633987427
1708437959.5362697,-1.1049391031265259,-1.6818930111327113,-2.5268335978137415,2.2807862001606445,-1.0177443663226526,0.3879813849925995
1708437959.5382419,-1.105002522468567,-1.6818353138365687,-2.5268831888781946,2.2807161050983886,-1.017719570790426,0.38799357414245605
1708437959.540243,-1.1049844026565552,-1.6818634472289027,-2.5268831888781946,2.2807203966328125,-1.0176871458636683,0.38799354434013367
1708437959.5422685,-1.1049425601959229,-1.6818601093687953,-2.5268545786487024,2.2807277876087646,-1.0177281538592737,0.3880218267440796
1708437959.544255,-1.1049472093582153,-1.6818725071349085,-2.5268664995776575,2.28072897970166,-1.0176962057696741,0.3880370855331421
1708437959.546237,-1.1049680709838867,-1.6818963489928187,-2.5268455187426966,2.280757113093994,-1.0177529493915003,0.3880504369735718
1708437959.5482647,-1.1049680709838867,-1.6818467579283656,-2.5268846193896692,2.280765934581421,-1.0176628271686,0.38804900646209717
1708437959.5502439,-1.1049970388412476,-1.6818844280638636,-2.5268710295306605,2.2806715208240966,-1.0177486578570765,0.388065367937088
1708437959.5522594,-1.1049391031265259,-1.6818887195982875,-2.5268591086017054,2.280718966121338,-1.017658535634176,0.3880907893180847
1708437959.5542436,-1.1049970388412476,-1.6818844280638636,-2.5268545786487024,2.280721350307129,-1.0176714102374476,0.3881027102470398
1708437959.5562475,-1.1049391031265259,-1.6818977795042933,-2.5268831888781946,2.2807816702076416,-1.0176885763751429,0.38812100887298584
1708437959.558258,-1.1049472093582153,-1.6818601093687953,-2.5268710295306605,2.2806996542164306,-1.0176919142352503,0.38812100887298584
1708437959.5602553,-1.104992389678955,-1.6819082699217738,-2.5268426577197474,2.2807232576557617,-1.0177248159991663,0.38819101452827454
1708437959.5622444,-1.1049546003341675,-1.6819139919676722,-2.5268591086017054,2.2807440000721435,-1.0176799933062952,0.3882056474685669
1708437959.5642588,-1.1049799919128418,-1.6818543873228968,-2.5268307367907923,2.2807397085377197,-1.0176799933062952,0.38822102546691895
1708437959.566257,-1.1050087213516235,-1.6819502315916957,-2.5268710295306605,2.2807277876087646,-1.0176594893084925,0.3882703185081482
1708437959.5682676,-1.1049437522888184,-1.6818601093687953,-2.5268335978137415,2.2807609277912597,-1.0176399389850062,0.3882526159286499
1708437959.570258,-1.104925513267517,-1.6819125614561976,-2.5268052260028284,2.280717058772705,-1.0176485220538538,0.3883226215839386
1708437959.5722625,-1.1049724817276,-1.6819168529906214,-2.5268517176257532,2.280745430583618,-1.0176852385150355,0.3883795440196991
1708437959.5742679,-1.1049935817718506,-1.6819287739195765,-2.5268636385547083,2.2807397085377197,-1.01764423051943,0.38837364315986633
1708437959.5762572,-1.1049970388412476,-1.6818963489928187,-2.5268142859088343,2.2807277876087646,-1.017628018056051,0.388393372297287
1708437959.578267,-1.1049425601959229,-1.6819335422911585,-2.5268636385547083,2.2807528215595703,-1.01764423051943,0.38845008611679077
1708437959.580274,-1.104954481124878,-1.6819097004332484,-2.52682334581484,2.2807084757038574,-1.0176075140582483,0.38840383291244507
1708437959.5822735,-1.1049636602401733,-1.6819292507567347,-2.526811424885885,2.280712767238281,-1.0176118055926722,0.3884889781475067
1708437959.5842438,-1.1049517393112183,-1.6819335422911585,-2.526799027119772,2.2807246881672363,-1.0176289717303675,0.3885412812232971
1708437959.5862486,-1.1049680709838867,-1.6819335422911585,-2.526832405720846,2.2807203966328125,-1.0176170508014124,0.3885725736618042
1708437959.5882745,-1.1050386428833008,-1.681871076623434,-2.526794497166769,2.280717058772705,-1.0176366011248987,0.3886384963989258
1708437959.5902472,-1.104988932609558,-1.6819335422911585,-2.526827875767843,2.2807323175617675,-1.0176246801959437,0.38865041732788086
1708437959.59228,-1.1049799919128418,-1.6819335422911585,-2.526853386555807,2.2807740408131103,-1.017559830342428,0.3886149525642395
1708437959.5942636,-1.1049724817276,-1.6818844280638636,-2.5267513434039515,2.2806715208240966,-1.0175841490374964,0.3886924982070923
1708437959.5962584,-1.1049724817276,-1.6819082699217738,-2.5267587343799036,2.2807158666798095,-1.0175769964801233,0.3887401819229126
1708437959.5982447,-1.1049726009368896,-1.6818753681578578,-2.5267391840564173,2.2806877332874755,-1.0175560156451624,0.38876873254776
1708437959.6002579,-1.104988932609558,-1.6819502315916957,-2.5267346541034144,2.2806624609180908,-1.0176299254046839,0.3888852894306183
1708437959.602284,-1.1049047708511353,-1.6818634472289027,-2.5267723242389124,2.2806920248218994,-1.0175641218768519,0.3889005780220032
1708437959.604266,-1.1049799919128418,-1.6818963489928187,-2.5267842451678675,2.2807366090961914,-1.0176332632647913,0.3889736235141754
1708437959.6062872,-1.1049724817276,-1.6819125614561976,-2.5267887751208704,2.280733509654663,-1.017559830342428,0.3890005052089691
1708437959.60827,-1.1049724817276,-1.6819077930846156,-2.5267649332629603,2.2807785707661132,-1.017538849507467,0.3890242576599121
1708437959.6102748,-1.1049935817718506,-1.6819902859129847,-2.5267391840564173,2.2807323175617675,-1.0175841490374964,0.38905906677246094
1708437959.6122613,-1.1049472093582153,-1.6819244823851527,-2.5267513434039515,2.2807039457508544,-1.0175769964801233,0.3891681134700775
1708437959.6142745,-1.1049607992172241,-1.6819707355894984,-2.526710573826925,2.2807041841694335,-1.0176094214068812,0.3891909122467041
1708437959.6162815,-1.1049517393112183,-1.6819287739195765,-2.5267391840564173,2.2807203966328125,-1.0175727049456995,0.3892802596092224
1708437959.6182659,-1.1049607992172241,-1.6818872890868128,-2.526727263127462,2.280740900630615,-1.0175970236407679,0.3893432319164276
1708437959.620273,-1.1049517393112183,-1.6819154224791468,-2.526740852986471,2.2807158666798095,-1.0175603071795862,0.3894316256046295
1708437959.6222603,-1.1049636602401733,-1.6819097004332484,-2.5267558733569544,2.2806920248218994,-1.0175727049456995,0.38954371213912964
1708437959.6242788,-1.1049680709838867,-1.6818915806212367,-2.5267391840564173,2.2806951242634277,-1.017552677785055,0.38960230350494385
1708437959.626282,-1.1049391031265259,-1.6819006405272425,-2.526706043873922,2.280761643046997,-1.0175202528582972,0.3897444009780884
1708437959.6282773,-1.1049472093582153,-1.681871076623434,-2.526710573826925,2.280745192165039,-1.017512623463766,0.38986846804618835
1708437959.6302695,-1.1049607992172241,-1.6819378338255824,-2.526748243962423,2.280749722118042,-1.0175321737872522,0.38991808891296387
1708437959.632266,-1.1049970388412476,-1.6819168529906214,-2.526748243962423,2.2806922632404785,-1.0175159613238733,0.39005133509635925
1708437959.634282,-1.1049799919128418,-1.681862016717428,-2.526731793080465,2.2807039457508544,-1.0175288359271448,0.3901544511318207
1708437959.6362967,-1.1049799919128418,-1.6819287739195765,-2.5267346541034144,2.2806803423115234,-1.0175321737872522,0.3903236985206604
1708437959.6382854,-1.1050106287002563,-1.6819573841490687,-2.526706043873922,2.2807740408131103,-1.0175254980670374,0.39045530557632446
1708437959.6402528,-1.104992389678955,-1.6818796596922816,-2.526785675679342,2.2807366090961914,-1.017491642628805,0.3905453383922577
1708437959.6422632,-1.1049636602401733,-1.681936880151266,-2.526736323033468,2.280733509654663,-1.017480198537008,0.39068135619163513
1708437959.6442566,-1.104988932609558,-1.6819335422911585,-2.526710573826925,2.2806920248218994,-1.0174973646747034,0.39080578088760376
1708437959.6462572,-1.1049437522888184,-1.6819378338255824,-2.5267649332629603,2.2807115751453857,-1.017524544392721,0.3909493088722229
1708437959.6482556,-1.1049425601959229,-1.6819201908507289,-2.526706043873922,2.2807232576557617,-1.0175040403949183,0.3911542296409607
1708437959.650251,-1.1049472093582153,-1.6818753681578578,-2.52674371400942,2.2807323175617675,-1.0175655523883265,0.39130517840385437
1708437959.6522846,-1.1049517393112183,-1.6819154224791468,-2.5267227331744593,2.280761643046997,-1.0175288359271448,0.39144453406333923
1708437959.654277,-1.1049346923828125,-1.6819006405272425,-2.526748243962423,2.28072897970166,-1.0175450483905237,0.3916526436805725
1708437959.656242,-1.1049426794052124,-1.6818872890868128,-2.526736323033468,2.2807745176502685,-1.0175002256976526,0.39184099435806274
1708437959.658245,-1.1049346923828125,-1.6819287739195765,-2.526752535496847,2.28072897970166,-1.0175493399249476,0.39207276701927185
1708437959.660274,-1.1050059795379639,-1.6819378338255824,-2.526710573826925,2.2806996542164306,-1.0174959341632288,0.3922642171382904
1708437959.6622448,-1.1049724817276,-1.6819421253600062,-2.526769463215963,2.2807158666798095,-1.017491642628805,0.392386257648468
1708437959.6642873,-1.1049607992172241,-1.6819082699217738,-2.5267182032214563,2.280740900630615,-1.0175002256976526,0.39264312386512756
1708437959.6662989,-1.1049771308898926,-1.6819335422911585,-2.5267797152148646,2.2807246881672363,-1.0175212065326136,0.39284199476242065
1708437959.668279,-1.1049561500549316,-1.6819378338255824,-2.5267558733569544,2.280745430583618,-1.0175288359271448,0.39309489727020264
1708437959.6703377,-1.1049652099609375,-1.6819244823851527,-2.526710573826925,2.2807485300251464,-1.0175002256976526,0.3933298587799072
1708437959.672284,-1.1049879789352417,-1.681871076623434,-2.526715103779928,2.280740900630615,-1.0175045172320765,0.39357414841651917
1708437959.674267,-1.1049472093582153,-1.6819125614561976,-2.5267558733569544,2.2807203966328125,-1.0174720923053187,0.39384180307388306
1708437959.6762955,-1.1049844026565552,-1.6819411716856898,-2.526748243962423,2.2807785707661132,-1.0175002256976526,0.3941212296485901
1708437959.6782856,-1.1049799919128418,-1.6819707355894984,-2.5267346541034144,2.280745430583618,-1.0174887816058558,0.3943520784378052
1708437959.6803443,-1.1049472093582153,-1.6819154224791468,-2.5267391840564173,2.280757351512573,-1.0174959341632288,0.3946515619754791
1708437959.6822832,-1.104997992515564,-1.6818844280638636,-2.526706043873922,2.2807275491901855,-1.0175169149981897,0.39494338631629944
1708437959.6842563,-1.1050106287002563,-1.6818963489928187,-2.5267093817340296,2.2806951242634277,-1.0175169149981897,0.3952304720878601
1708437959.6863148,-1.1049799919128418,-1.6819168529906214,-2.5267139116870325,2.280712767238281,-1.0175254980670374,0.39557355642318726
1708437959.6882825,-1.1049517393112183,-1.6819502315916957,-2.52674371400942,2.2807528215595703,-1.0175045172320765,0.39593034982681274
1708437959.690258,-1.1049211025238037,-1.6819201908507289,-2.5267227331744593,2.2807540136524658,-1.0175088087665003,0.39619913697242737
1708437959.6922524,-1.1049799919128418,-1.6819244823851527,-2.5267558733569544,2.280745430583618,-1.0175536314593714,0.3965800106525421
1708437959.6942644,-1.1049970388412476,-1.681911130944723,-2.52674371400942,2.2807323175617675,-1.0175331274615687,0.39694857597351074
1708437959.6962605,-1.104988932609558,-1.6818963489928187,-2.5266853014575403,2.2807039457508544,-1.0175331274615687,0.39724916219711304
1708437959.6982734,-1.1049753427505493,-1.6819154224791468,-2.52674371400942,2.2807485300251464,-1.0174873510943812,0.3976545035839081
1708437959.700287,-1.1050059795379639,-1.6819035015501917,-2.5267015139209192,2.2807041841694335,-1.017508331929342,0.3980790376663208
1708437959.702247,-1.104966402053833,-1.6819287739195765,-2.526748243962423,2.280718966121338,-1.0175288359271448,0.39844146370887756
1708437959.704249,-1.1049970388412476,-1.6819325886168421,-2.5267391840564173,2.280740900630615,-1.0175698439227503,0.398884117603302
1708437959.706276,-1.1049844026565552,-1.6819545231261195,-2.5267558733569544,2.2807161050983886,-1.0175407568561,0.39932817220687866
1708437959.7082665,-1.1049561500549316,-1.6819201908507289,-2.5267301241504114,2.280757113093994,-1.0175169149981897,0.39971470832824707
1708437959.7102518,-1.105017900466919,-1.6819411716856898,-2.526736323033468,2.28072897970166,-1.017524544392721,0.40011289715766907
1708437959.7122521,-1.104925513267517,-1.6819244823851527,-2.5267346541034144,2.280756636256836,-1.0175040403949183,0.4005082845687866
1708437959.7142558,-1.1049799919128418,-1.6819411716856898,-2.5266972223864954,2.280765934581421,-1.0175159613238733,0.4009552597999573
1708437959.7162976,-1.1049799919128418,-1.6818963489928187,-2.5267301241504114,2.280747814769409,-1.017512623463766,0.4013700783252716
1708437959.718282,-1.1049561500549316,-1.6819006405272425,-2.5267513434039515,2.2807203966328125,-1.017508331929342,0.40179330110549927
1708437959.720285,-1.1049799919128418,-1.6819411716856898,-2.5267677942859095,2.280718966121338,-1.0174959341632288,0.40222465991973877
1708437959.7222717,-1.1050105094909668,-1.6819235287108363,-2.5267346541034144,2.280757113093994,-1.017524544392721,0.4026867747306824
1708437959.724293,-1.1049301624298096,-1.681944032708639,-2.526748243962423,2.2807366090961914,-1.017508331929342,0.4031394124031067
1708437959.7262805,-1.1049636602401733,-1.6819082699217738,-2.5267558733569544,2.2807697492786865,-1.0175159613238733,0.40361738204956055
1708437959.7282858,-1.1050059795379639,-1.681899210015768,-2.526710573826925,2.2807485300251464,-1.0175288359271448,0.4041011333465576
1708437959.730277,-1.1049724817276,-1.681850095788473,-2.5267649332629603,2.280768557185791,-1.0175493399249476,0.4045586585998535
1708437959.732279,-1.1050087213516235,-1.6819154224791468,-2.5267346541034144,2.280745430583618,-1.017524544392721,0.40509113669395447
1708437959.734285,-1.1049753427505493,-1.6819502315916957,-2.5267136732684534,2.2807323175617675,-1.0175569693194788,0.4055209159851074
1708437959.7362912,-1.1049636602401733,-1.6819411716856898,-2.5267346541034144,2.2807277876087646,-1.0175040403949183,0.4060239791870117
1708437959.7382555,-1.1049753427505493,-1.6819035015501917,-2.5267346541034144,2.2807232576557617,-1.0175569693194788,0.40653085708618164
1708437959.7402732,-1.1049799919128418,-1.6818963489928187,-2.5267093817340296,2.280740900630615,-1.017552677785055,0.4069760739803314
1708437959.7422516,-1.104992389678955,-1.6819168529906214,-2.526781145726339,2.2807246881672363,-1.0176013151751917,0.40756961703300476
1708437959.744248,-1.1050087213516235,-1.6819125614561976,-2.5267391840564173,2.280765934581421,-1.0176013151751917,0.40810370445251465
1708437959.7462444,-1.1049301624298096,-1.6819616756834925,-2.5267301241504114,2.2807904916950683,-1.0175278822528284,0.40871578454971313
1708437959.7482545,-1.1049844026565552,-1.6819125614561976,-2.52674371400942,2.2806951242634277,-1.0175560156451624,0.40925461053848267
1708437959.7502701,-1.1049970388412476,-1.6819459400572718,-2.5267468134509485,2.2807771402546386,-1.0175603071795862,0.4097631871700287
1708437959.7522547,-1.1049816608428955,-1.6819082699217738,-2.5267677942859095,2.2807862001606445,-1.017559830342428,0.4103347957134247
1708437959.7542598,-1.1050223112106323,-1.6819035015501917,-2.5267797152148646,2.2807277876087646,-1.0175321737872522,0.410870224237442
1708437959.7562523,-1.1049437522888184,-1.6819154224791468,-2.5267391840564173,2.2808186250874023,-1.0175474325763147,0.4115001857280731
1708437959.7582555,-1.1049970388412476,-1.6819483242430628,-2.5267048517810267,2.2807323175617675,-1.0176008383380335,0.4120391011238098
1708437959.7602675,-1.1049472093582153,-1.6819411716856898,-2.5267391840564173,2.280794783229492,-1.0175517241107386,0.4127119183540344
1708437959.7622623,-1.1049346923828125,-1.6819259128966273,-2.5267391840564173,2.2807862001606445,-1.0176332632647913,0.4133347272872925
1708437959.7643101,-1.105001449584961,-1.6819125614561976,-2.5267346541034144,2.2807771402546386,-1.0176332632647913,0.4139365553855896
1708437959.7662876,-1.104954481124878,-1.6818915806212367,-2.5268095175372522,2.2807771402546386,-1.0176213423358362,0.414563924074173
1708437959.7682722,-1.105017900466919,-1.6818634472289027,-2.5267797152148646,2.280756636256836,-1.0176289717303675,0.415152907371521
1708437959.7702687,-1.105001449584961,-1.681911130944723,-2.5267182032214563,2.280772848720215,-1.0175836722003382,0.4157843291759491
1708437959.7722774,-1.104988932609558,-1.6819006405272425,-2.5267842451678675,2.2807981210895996,-1.017604176198141,0.41641920804977417
1708437959.7742612,-1.1049301624298096,-1.6819421253600062,-2.5267513434039515,2.2807440000721435,-1.0176246801959437,0.41706883907318115
1708437959.7762651,-1.104954481124878,-1.6819650135436,-2.5267632643329065,2.280718966121338,-1.0176613966571253,0.4177681803703308
1708437959.7782755,-1.104988932609558,-1.681871076623434,-2.5267301241504114,2.280768557185791,-1.0176366011248987,0.4184226095676422
1708437959.7802782,-1.104970932006836,-1.681882997552389,-2.5267587343799036,2.2807890611835937,-1.01764423051943,0.4190733730792999
1708437959.7823496,-1.1049753427505493,-1.6819154224791468,-2.5267301241504114,2.280718966121338,-1.0176690260516565,0.4198245406150818
1708437959.7842555,-1.1049753427505493,-1.6819082699217738,-2.5267120043383997,2.2807654577442626,-1.01764423051943,0.42046621441841125
1708437959.786277,-1.1049590110778809,-1.6819325886168421,-2.5267916361438196,2.280747814769409,-1.0176399389850062,0.4210432171821594
1708437959.788275,-1.104966402053833,-1.6819616756834925,-2.5267632643329065,2.280768557185791,-1.0176237265216272,0.4218149483203888
1708437959.790254,-1.1049590110778809,-1.681936880151266,-2.5267587343799036,2.280752106303833,-1.0176270643817347,0.4224732518196106
1708437959.7923114,-1.105013370513916,-1.6819287739195765,-2.5267887751208704,2.2808052736469726,-1.0176757017718714,0.42315584421157837
1708437959.794255,-1.1049680709838867,-1.6819244823851527,-2.5267887751208704,2.280752344722412,-1.0176962057696741,0.423871248960495
1708437959.7962785,-1.1050342321395874,-1.6819125614561976,-2.5267422834979456,2.280764027232788,-1.0176799933062952,0.4246133863925934
1708437959.798259,-1.1049970388412476,-1.6819082699217738,-2.5267542044269007,2.2807485300251464,-1.017733399068014,0.4252749979496002
1708437959.8002968,-1.1049753427505493,-1.6819287739195765,-2.5267916361438196,2.280775948161743,-1.0177128950702112,0.4260096848011017
1708437959.8022583,-1.1049590110778809,-1.6819411716856898,-2.5267916361438196,2.2808260160633544,-1.0177410284625452,0.4267491102218628
1708437959.8042562,-1.1049381494522095,-1.6819483242430628,-2.5267797152148646,2.280775948161743,-1.0177086035357874,0.42750290036201477
1708437959.806269,-1.1049724817276,-1.681899210015768,-2.5267916361438196,2.280768557185791,-1.0176671187030237,0.4282362759113312
1708437959.808249,-1.1049844026565552,-1.6820036373534144,-2.5267751852618616,2.2807485300251464,-1.0177043120013636,0.4289616048336029
1708437959.8102496,-1.104970932006836,-1.681936880151266,-2.526745144520895,2.2807323175617675,-1.0177000204669397,0.42974886298179626
1708437959.8122585,-1.1049680709838867,-1.681936880151266,-2.526815954838888,2.280812903041504,-1.0177043120013636,0.4305025637149811
1708437959.814271,-1.1049970388412476,-1.6819125614561976,-2.526773516331808,2.280759735698364,-1.0177443663226526,0.4313168525695801
1708437959.8162704,-1.1050461530685425,-1.6819287739195765,-2.526827875767843,2.280768557185791,-1.0177400747882288,0.4320563077926636
1708437959.8182616,-1.1049437522888184,-1.6819874248900355,-2.526811424885885,2.2807609277912597,-1.0177724997149866,0.432828813791275
1708437959.8202624,-1.1049590110778809,-1.681969781915182,-2.526811424885885,2.280800982112549,-1.0177605787860315,0.4335801601409912
1708437959.8222804,-1.1049844026565552,-1.6819702587523402,-2.5268307367907923,2.2808541494556884,-1.01772386232485,0.43434610962867737
1708437959.8242855,-1.1049590110778809,-1.6819125614561976,-2.5269013086902063,2.2808260160633544,-1.0177562872516077,0.4351213872432709
1708437959.8262572,-1.1049844026565552,-1.6819168529906214,-2.5268262068377894,2.280759735698364,-1.0177314917193812,0.4359061121940613
1708437959.8282688,-1.1049301624298096,-1.6818796596922816,-2.5269084612475794,2.280796690578125,-1.017796818410055,0.4367060363292694
1708437959.8302572,-1.1049879789352417,-1.6819459400572718,-2.5269086996661585,2.2808171945759277,-1.0177596251117151,0.43743449449539185
1708437959.832265,-1.1049879789352417,-1.6819874248900355,-2.526911799107687,2.280800982112549,-1.0177519957171839,0.43822503089904785
1708437959.8342628,-1.104988932609558,-1.681899210015768,-2.526911799107687,2.280775948161743,-1.017719570790426,0.4389832317829132
1708437959.8362575,-1.104992389678955,-1.6819082699217738,-2.526928249989645,2.280759735698364,-1.0177724997149866,0.43972426652908325
1708437959.8382926,-1.104925513267517,-1.6819459400572718,-2.526961151753561,2.2807890611835937,-1.0177486578570765,0.4405699372291565
1708437959.8402476,-1.1050505638122559,-1.6819483242430628,-2.526919190083639,2.2807397085377197,-1.0177887121783655,0.44131025671958923
1708437959.8422537,-1.105001449584961,-1.6819035015501917,-2.5268529097186487,2.2807935911365966,-1.01780873933901,0.44207748770713806
1708437959.844257,-1.1049680709838867,-1.681981702844137,-2.526944700871603,2.2807890611835937,-1.0178292433368128,0.4428263306617737
1708437959.846251,-1.1050059795379639,-1.6819411716856898,-2.5268951098071497,2.280800982112549,-1.0178044478045862,0.4436248540878296
1708437959.8482585,-1.1049425601959229,-1.6819411716856898,-2.526919190083639,2.280780478114746,-1.0178206602679651,0.4444049596786499
1708437959.8502753,-1.1050134897232056,-1.6819154224791468,-2.526961151753561,2.280772848720215,-1.0178120771991175,0.44521111249923706
1708437959.85226,-1.1049517393112183,-1.6819035015501917,-2.526919190083639,2.280759735698364,-1.0178239981280726,0.44605064392089844
1708437959.8542721,-1.1049680709838867,-1.681882997552389,-2.5269401709186,2.280772848720215,-1.0178239981280726,0.44683483242988586
1708437959.8562508,-1.104954481124878,-1.6818963489928187,-2.526890579854147,2.2807435232349853,-1.0178239981280726,0.44762083888053894
1708437959.858261,-1.1049970388412476,-1.6819035015501917,-2.526923720036642,2.2808217245289306,-1.0178683439837855,0.44840672612190247
1708437959.860251,-1.1049753427505493,-1.6819154224791468,-2.526902739201681,2.2807890611835937,-1.0178435484515589,0.4492553174495697
1708437959.8622532,-1.1049970388412476,-1.6819526157774867,-2.526914660130636,2.280804319972656,-1.0178564230548304,0.45003655552864075
1708437959.8642642,-1.1049844026565552,-1.681911130944723,-2.526944700871603,2.280787869090698,-1.0178197065936487,0.4508236348628998
1708437959.866245,-1.105001449584961,-1.681878229180807,-2.5269401709186,2.280759735698364,-1.0178759733783167,0.45169004797935486
1708437959.8682678,-1.1049636602401733,-1.6819411716856898,-2.526919190083639,2.2808379369923095,-1.0178759733783167,0.4524296522140503
1708437959.8702528,-1.104992389678955,-1.6819650135436,-2.526911799107687,2.280768557185791,-1.0178478399859827,0.45317918062210083
1708437959.8722892,-1.104925513267517,-1.6819740734496058,-2.526919190083639,2.2808305460163574,-1.0179088751422327,0.45393791794776917
1708437959.8742645,-1.1049590110778809,-1.681899210015768,-2.526914660130636,2.280780478114746,-1.0178802649127405,0.45477837324142456
1708437959.8762765,-1.105001449584961,-1.681997915307516,-2.526926581059591,2.280796690578125,-1.0178683439837855,0.4555930197238922
1708437959.8782613,-1.1049970388412476,-1.6819573841490687,-2.526968781148092,2.280726595515869,-1.0179045836078089,0.45632433891296387
1708437959.8802896,-1.1049753427505493,-1.6819936237730921,-2.526907269154684,2.2807609277912597,-1.0179007689105433,0.45710489153862
1708437959.882276,-1.1049652099609375,-1.6819068394102992,-2.526968781148092,2.2807554441639404,-1.0178349653827112,0.457975834608078
1708437959.8842702,-1.1049680709838867,-1.6819693050780238,-2.526938501988546,2.2808143335529785,-1.0178964773761194,0.45882076025009155
1708437959.8862824,-1.1049227714538574,-1.6819287739195765,-2.526902739201681,2.280780478114746,-1.017900292073385,0.4596625864505768
1708437959.8882968,-1.1049346923828125,-1.681969781915182,-2.526910130177633,2.280772848720215,-1.0178640524493616,0.4604177176952362
1708437959.8902447,-1.1049680709838867,-1.6819740734496058,-2.5269132296191614,2.2808143335529785,-1.017883602772848,0.46135228872299194
1708437959.892243,-1.1049138307571411,-1.6819902859129847,-2.526926581059591,2.28080861150708,-1.0178630987750452,0.46217453479766846
1708437959.8942595,-1.1049346923828125,-1.6820231876769007,-2.5269294420825403,2.280775948161743,-1.017883602772848,0.4629669785499573
1708437959.8962514,-1.1049680709838867,-1.6819650135436,-2.5269716421710413,2.2807609277912597,-1.017883602772848,0.46371400356292725
1708437959.8982604,-1.1049391031265259,-1.6819282970824183,-2.526931111012594,2.280796690578125,-1.017883602772848,0.4645918309688568
1708437959.9002693,-1.1049481630325317,-1.68198885540151,-2.52698523203005,2.280829353923462,-1.0179045836078089,0.46534761786460876
1708437959.9022532,-1.104874610900879,-1.6819483242430628,-2.5269597212420862,2.2807528215595703,-1.0179403463946741,0.4661315083503723
1708437959.9042535,-1.1048946380615234,-1.681939264337057,-2.5269761721240442,2.280796690578125,-1.017883602772848,0.46696099638938904
1708437959.906265,-1.104896068572998,-1.68198885540151,-2.5269928614245813,2.280800982112549,-1.017944637929098,0.46775346994400024
1708437959.9082756,-1.1049199104309082,-1.681997915307516,-2.526935640965597,2.280768557185791,-1.0178917090045374,0.46856749057769775
1708437959.9102516,-1.1049154996871948,-1.6819921932616175,-2.526931111012594,2.280776186580322,-1.0178960005389612,0.469331830739975
1708437959.9122503,-1.1049199104309082,-1.681939264337057,-2.526980463658468,2.2807935911365966,-1.017956558858053,0.47012582421302795
1708437959.914271,-1.1048790216445923,-1.6820432148375453,-2.5269716421710413,2.2807935911365966,-1.0179198423968714,0.47090327739715576
1708437959.9162529,-1.1048946380615234,-1.6819755039610804,-2.5269761721240442,2.2808024126240234,-1.0179155508624476,0.471708744764328
1708437959.9183097,-1.104858160018921,-1.6820298633971156,-2.5269580523120325,2.2807609277912597,-1.0179351011859339,0.47245365381240845
1708437959.9202678,-1.104876160621643,-1.6819430790343226,-2.5269761721240442,2.280756636256836,-1.0179360548602503,0.473275750875473
1708437959.9222643,-1.1048226356506348,-1.6819874248900355,-2.5269551912890833,2.2807440000721435,-1.0178945700274866,0.4741096496582031
1708437959.9242492,-1.104868769645691,-1.6820575199522914,-2.5269461313830774,2.2807366090961914,-1.0179317633258265,0.4748441278934479
1708437959.9262671,-1.104803204536438,-1.6820870838561,-2.5269671122180384,2.2807277876087646,-1.0179360548602503,0.47572216391563416
1708437959.9282665,-1.1048240661621094,-1.682077547112936,-2.5270360151873987,2.2807277876087646,-1.0179274717914026,0.47646915912628174
1708437959.9302526,-1.1047950983047485,-1.681985994378561,-2.5269866625415247,2.2807366090961914,-1.0179761091815394,0.4772784411907196
1708437959.9322855,-1.1047370433807373,-1.6820603809752406,-2.5269866625415247,2.2807654577442626,-1.0179761091815394,0.4780957102775574
1708437959.9342527,-1.1047192811965942,-1.6820641956725062,-2.5270405451404017,2.2807113367268066,-1.0179393927203577,0.47895488142967224
1708437959.936318,-1.1047520637512207,-1.6820641956725062,-2.527055565510885,2.280745430583618,-1.0179970900165003,0.47972312569618225
1708437959.9382544,-1.104711890220642,-1.682051797906393,-2.527069393788473,2.280672712916992,-1.0179632345782679,0.48052752017974854
1708437959.9402666,-1.1047039031982422,-1.682117601434225,-2.5270031134234827,2.280700846309326,-1.0179265181170862,0.48134076595306396
1708437959.9422545,-1.104680061340332,-1.682079931298727,-2.527026955281393,2.2806965547749023,-1.0179842154132288,0.4821411967277527
1708437959.9442692,-1.1046234369277954,-1.6821614704527796,-2.527072254811422,2.280651493663452,-1.0179384390460413,0.4829900860786438
1708437959.946248,-1.10460364818573,-1.6820951900877894,-2.5270031134234827,2.280639572734497,-1.0179341475116175,0.4838011860847473
1708437959.9482563,-1.1045708656311035,-1.6821266613402308,-2.5270631949054163,2.2806169229694824,-1.0180037657367151,0.4846113324165344
1708437959.950238,-1.1045767068862915,-1.6822010479369105,-2.527055803929464,2.280641956920288,-1.0180028120623987,0.48536917567253113
1708437959.9522417,-1.1045186519622803,-1.682200094262594,-2.5270348230945032,2.28052727758374,-1.0180318991290491,0.48621034622192383
1708437959.9542494,-1.1045241355895996,-1.682178636590475,-2.5270586649524134,2.2805611330219726,-1.0180395285235804,0.4870073199272156
1708437959.9562366,-1.1045241355895996,-1.6822544536986292,-2.5270512739764612,2.28054062902417,-1.018060032521383,0.4877263009548187
1708437959.9582427,-1.1044738292694092,-1.6822520695128382,-2.5270960966693323,2.2804476457783203,-1.0180514494525355,0.488536536693573
1708437959.9602432,-1.1044095754623413,-1.6822568378844203,-2.5270960966693323,2.280493660564087,-1.0180709997760218,0.4893467426300049
1708437959.9622378,-1.104399561882019,-1.6822840176024378,-2.5270212332354944,2.2803839880177,-1.018038574849264,0.49013572931289673
1708437959.9642675,-1.1043637990951538,-1.6822840176024378,-2.5270960966693323,2.2803475099750976,-1.018116299306051,0.4910009503364563
1708437959.966246,-1.10433030128479,-1.6822706661620082,-2.5270989576922815,2.28038136541333,-1.0181077162372034,0.4917568266391754
1708437959.9683337,-1.1043319702148438,-1.6823646030821742,-2.5271292368518274,2.2802786070057373,-1.0181077162372034,0.4925472140312195
1708437959.9702566,-1.104246973991394,-1.6823350391783656,-2.527106587086813,2.280317469234131,-1.018083397542135,0.49338555335998535
1708437959.9722967,-1.1042017936706543,-1.6824633083739222,-2.5270870367633265,2.2802442747303466,-1.0180791060077112,0.4941495656967163
1708437959.9742723,-1.104182481765747,-1.6824408970274867,-2.5271487871753138,2.2802292543598632,-1.018090550099508,0.4949195981025696
1708437959.9762847,-1.104181170463562,-1.6824513874449671,-2.527123037968771,2.2802046972462158,-1.018090550099508,0.49568092823028564
1708437959.9783003,-1.1040939092636108,-1.6824847660460414,-2.527118508015768,2.2801734644123535,-1.0181191603290003,0.49640461802482605
1708437959.9802878,-1.1040592193603516,-1.6825248203673304,-2.527168099080221,2.2801315027424316,-1.0180986563311976,0.49717894196510315
1708437959.9823163,-1.1040027141571045,-1.6825114689269007,-2.527201239262716,2.280075951213501,-1.0181387106524866,0.4978656470775604
1708437959.9842596,-1.1039878129959106,-1.6825505695738734,-2.527180020009176,2.280019446010254,-1.0181873480426233,0.4986816644668579
1708437959.9862664,-1.1039481163024902,-1.6826163731017054,-2.5271619001971644,2.280035896892212,-1.0181830565081995,0.49950355291366577
1708437959.988298,-1.1039259433746338,-1.6827136478819789,-2.5271907488452356,2.2799712854572753,-1.0181668440448206,0.5001963973045349
1708437959.990258,-1.1038031578063965,-1.6826087437071742,-2.5272236506091517,2.279898090953491,-1.018256966267721,0.5009257793426514
1708437959.9922907,-1.1037338972091675,-1.6827403507628382,-2.5272355715381067,2.2799035745808105,-1.0182278792010706,0.5016402006149292
1708437959.9942544,-1.1036783456802368,-1.6827241382994593,-2.527276341115133,2.279876633281372,-1.0182269255267542,0.5023727416992188
1708437959.9962835,-1.1035898923873901,-1.6827746830382289,-2.527318302785055,2.2798330026813964,-1.0182550589190882,0.5031072497367859
1708437959.9982593,-1.1035722494125366,-1.6828328571715296,-2.52727181116213,2.2797559934803466,-1.0182951132403772,0.5038853883743286
1708437960.0002952,-1.103495717048645,-1.682897230187887,-2.527254883443014,2.279782219524048,-1.0183075110064905,0.5046595931053162
1708437960.002264,-1.1033427715301514,-1.6828986606993617,-2.5273526350604456,2.279705687160156,-1.0183356443988245,0.5053920745849609
1708437960.0042691,-1.1033108234405518,-1.6829515896239222,-2.5273359457599085,2.2796694475361328,-1.0183146635638636,0.50611412525177
1708437960.0062752,-1.1031824350357056,-1.6829916439452113,-2.527317825947897,2.2796174722858886,-1.0183914343463343,0.5067992210388184
1708437960.008305,-1.1031221151351929,-1.6830159626402796,-2.527339045201437,2.279529018993042,-1.0184434095965784,0.5075576901435852
1708437960.0102775,-1.1031060218811035,-1.683075567285055,-2.527396027241842,2.2794362741657714,-1.0184672514544886,0.5082958340644836
1708437960.0123117,-1.102972388267517,-1.6830903492369593,-2.5274367968188685,2.2793146806904296,-1.018486801777975,0.5090743899345398
1708437960.014278,-1.102798581123352,-1.6831799946227015,-2.5274065176593226,2.2792560297199707,-1.0185025374041956,0.5098311305046082
1708437960.0162947,-1.102728009223938,-1.6831981144347132,-2.527430597935812,2.2792247968861084,-1.0185835997210901,0.5105405449867249
1708437960.0183184,-1.1026077270507812,-1.683237691918844,-2.527466360722677,2.2791001039692382,-1.0185988585101526,0.5112937688827515
1708437960.02027,-1.1024339199066162,-1.6832901440062464,-2.5274906794177454,2.2790862756916503,-1.018590275441305,0.512048602104187
1708437960.0222635,-1.1023471355438232,-1.6833793125548304,-2.5274935404406946,2.2789687353321533,-1.0185826460467737,0.5128098726272583
1708437960.0243194,-1.1021777391433716,-1.6834217510619105,-2.5275610128985804,2.2788445192524414,-1.0186026732074183,0.5134783983230591
1708437960.0262735,-1.101993441581726,-1.683519025842184,-2.527579132710592,2.2786623674580078,-1.0186718145953577,0.5142655968666077
1708437960.028317,-1.1019032001495361,-1.683521410027975,-2.527607504521505,2.278664751643799,-1.0186708609210413,0.515030026435852
1708437960.0303192,-1.1017144918441772,-1.6836267910399378,-2.5276225248919886,2.278541012401245,-1.018637482319967,0.5156493782997131
1708437960.0323088,-1.1015511751174927,-1.6836983166136683,-2.527679506932394,2.2784451681324462,-1.0187023321734827,0.5163318514823914
1708437960.0342991,-1.1013946533203125,-1.683869024316305,-2.527703348790304,2.278264208430908,-1.0186980406390589,0.5170508027076721
1708437960.0362885,-1.1011523008346558,-1.68388094524526,-2.5277276674853724,2.278188868159912,-1.0186980406390589,0.5177029371261597
1708437960.0382724,-1.101026177406311,-1.6839367351927699,-2.527749840413229,2.2780071932026367,-1.0187633673297327,0.5184787511825562
1708437960.040273,-1.1008294820785522,-1.684049745599264,-2.5277753512011927,2.277850552196167,-1.0187786261187952,0.5191433429718018
1708437960.042323,-1.1005641222000122,-1.6841136417784632,-2.5278518835650843,2.2777768808552246,-1.0188592115985315,0.5198664665222168
1708437960.044265,-1.1003525257110596,-1.6842786274352015,-2.5278549830066126,2.2776002126881103,-1.0188582579242151,0.5205464959144592
1708437960.0462596,-1.100150227546692,-1.6843301258482875,-2.5278926531421106,2.2774812418171386,-1.0188692251788538,0.5213264226913452
1708437960.0482633,-1.0999085903167725,-1.6843825779356898,-2.527907435094015,2.2772766786762695,-1.019006077443258,0.5220798850059509
1708437960.0502563,-1.0996333360671997,-1.684533258477682,-2.5279176870929163,2.2770694929310302,-1.0190509001361292,0.5227815508842468
1708437960.052272,-1.0993956327438354,-1.6846815548338832,-2.5279510656939905,2.2768828111835937,-1.0191224257098597,0.5234640836715698
1708437960.0542684,-1.0991350412368774,-1.6847640476622523,-2.528015438710348,2.2768024641224365,-1.0191500822650355,0.5242637395858765
1708437960.056266,-1.0989174842834473,-1.684847971002096,-2.5280843416797083,2.2765769201466064,-1.0192511717425745,0.5249038934707642
1708437960.0582638,-1.098616600036621,-1.6849914989867152,-2.5280874411212366,2.276392384166382,-1.0192621389972132,0.5255551934242249
1708437960.0602543,-1.098336100578308,-1.6852218113341273,-2.528144423161642,2.276199980373047,-1.0192893187152308,0.5262748599052429
1708437960.0622756,-1.0979678630828857,-1.6853496036925257,-2.5281835238086146,2.2759715753742675,-1.0193494001971644,0.5269404053688049
1708437960.0642622,-1.0976732969284058,-1.6854568920531214,-2.5282283465014856,2.2757319647022705,-1.019465748463766,0.5276296138763428
1708437960.0662515,-1.0973361730575562,-1.6856285534300746,-2.5283003489123743,2.275540753001831,-1.0195096174823206,0.5283889770507812
1708437960.0683303,-1.097019910812378,-1.6857501469054164,-2.528364960347311,2.275231285686157,-1.0196178595172327,0.5290353298187256
1708437960.07028,-1.0966806411743164,-1.6859361133971156,-2.528379742299215,2.2749883371540527,-1.0196941534625452,0.5297145843505859
1708437960.0723054,-1.0963159799575806,-1.6861182651915492,-2.5284562746631067,2.274728699321411,-1.0196803251849573,0.5303425192832947
1708437960.0742779,-1.0959559679031372,-1.6862651310362757,-2.5285614172564905,2.274489565486572,-1.0198052565204065,0.5310155153274536
1708437960.0762725,-1.0955922603607178,-1.686453481713766,-2.528597418461935,2.274233265514038,-1.0198286215411585,0.5316590666770935
1708437960.0782738,-1.0951756238937378,-1.6867195568480433,-2.5285986105548304,2.273961229915283,-1.0198829809771937,0.5322602987289429
1708437960.0802658,-1.0948126316070557,-1.686803480187887,-2.528720204030172,2.2737464147755126,-1.0200656096087855,0.5329645276069641
1708437960.0822957,-1.0943535566329956,-1.6870295010008753,-2.528775755559103,2.2733983236500244,-1.020092789326803,0.5335326790809631
1708437960.0842817,-1.0939539670944214,-1.6873318157591761,-2.528778855000631,2.273106022472046,-1.0201681295977991,0.534223198890686
1708437960.0862973,-1.0935560464859009,-1.6874767742552699,-2.528904740010397,2.2727860647388916,-1.0202844778644007,0.5347802042961121
1708437960.088264,-1.0930593013763428,-1.6877452335753382,-2.5289393107043665,2.2724858957478027,-1.0203478972064417,0.5354666709899902
1708437960.0902596,-1.092590093612671,-1.6879106960692347,-2.529053274785177,2.2721635538288574,-1.0204599539386194,0.5360800623893738
1708437960.0922523,-1.0921103954315186,-1.688183923760885,-2.529095236455099,2.2718216615864257,-1.02053147951235,0.5367599725723267
1708437960.094259,-1.0916469097137451,-1.6884104214110316,-2.5291627089129847,2.271538658733032,-1.0206597487079065,0.5373780727386475
1708437960.0962594,-1.0910894870758057,-1.6886617145934046,-2.5292840639697474,2.271207256908081,-1.0207636992083948,0.5379466414451599
1708437960.0982537,-1.0906143188476562,-1.688918252984518,-2.529393736516134,2.270867033595703,-1.0208800474749964,0.5385614633560181
1708437960.100273,-1.0900697708129883,-1.6892229519286097,-2.529477659855978,2.270531578654907,-1.0209553877459925,0.5391970872879028
1708437960.1022723,-1.089514136314392,-1.6894918880858363,-2.5296109358416956,2.2701303201862792,-1.0211198965655726,0.5398679375648499
1708437960.1042778,-1.0889058113098145,-1.689779897729391,-2.5296815077411097,2.2697476583668212,-1.0212309996234339,0.5404356718063354
1708437960.1062627,-1.0883252620697021,-1.6900955639281214,-2.5297353903399866,2.2692975240894775,-1.0213711897479456,0.5410532355308533
1708437960.10827,-1.0877158641815186,-1.6903516254820765,-2.5298193136798304,2.2687956529804687,-1.0215428511248987,0.541722297668457
1708437960.110273,-1.0870451927185059,-1.6906658611693324,-2.529933754597799,2.268413944835327,-1.0216229597674769,0.5422122478485107
1708437960.1122656,-1.0864003896713257,-1.6910530529417933,-2.5300114790545862,2.267974539394043,-1.0217178503619593,0.5428982377052307
1708437960.1142497,-1.0857855081558228,-1.6913219890990199,-2.530124012623922,2.267526550883911,-1.021841828023092,0.543459415435791
1708437960.1162426,-1.0851248502731323,-1.69163241008901,-2.530248467122213,2.267042322749756,-1.0219410101519983,0.5440576076507568
1708437960.1182797,-1.0844500064849854,-1.6920038662352503,-2.5303519407855433,2.2665864664265136,-1.0221017042743128,0.5446143746376038
1708437960.1203103,-1.0837421417236328,-1.6923676929869593,-2.530497376118795,2.2661189275928955,-1.0222128073321741,0.5452665686607361
1708437960.1222575,-1.0829894542694092,-1.6927439175047816,-2.5306740442859095,2.2656113344379882,-1.022364918385641,0.5459050536155701
1708437960.1243098,-1.082216501235962,-1.693118234673971,-2.5307403246508997,2.2650982576557617,-1.0225256125079554,0.5464407205581665
1708437960.1262708,-1.0814859867095947,-1.6934238872923792,-2.530851189290182,2.264570875758789,-1.0226081053363245,0.5470032095909119
1708437960.1282706,-1.0806128978729248,-1.6938392124571742,-2.530996863042013,2.264014406795166,-1.0227721373187464,0.5475742220878601
1708437960.1302636,-1.0797924995422363,-1.6942640743651332,-2.531116549168722,2.2633980947681884,-1.0229328314410608,0.5481117963790894
1708437960.1322784,-1.0789377689361572,-1.6946503124632777,-2.5312681833850306,2.26292006551709,-1.023172680531637,0.5487596392631531
1708437960.1342723,-1.0781042575836182,-1.6951095066466273,-2.5313835779773157,2.262281818980835,-1.0233314673053187,0.5492762327194214
1708437960.1363082,-1.0772571563720703,-1.6955024204649867,-2.531585756932394,2.2617685037800292,-1.0235112349139612,0.5499392747879028
1708437960.1382678,-1.0763404369354248,-1.6959167919554652,-2.5317044893847864,2.261122627849243,-1.0236547628985804,0.5504711270332336
1708437960.140274,-1.0754574537277222,-1.6963683567442835,-2.5318365732776087,2.260507269496582,-1.0238707701312464,0.5510322451591492
1708437960.142255,-1.0745034217834473,-1.696754594842428,-2.532004181538717,2.2598933416553955,-1.0240796248065394,0.5516154170036316
1708437960.144249,-1.0735551118850708,-1.6973067722716273,-2.5321932474719446,2.259216471309326,-1.024292294179098,0.5522000193595886
1708437960.1462502,-1.0725425481796265,-1.6977454624571742,-2.532337490712301,2.2585601049610595,-1.0244854132281702,0.5527505278587341
1708437960.148275,-1.071572184562683,-1.698252340356344,-2.5325010458575647,2.2579211431690673,-1.0247066656695765,0.5533410310745239
1708437960.1502557,-1.0705739259719849,-1.698698183099264,-2.532677952443258,2.2571791845509033,-1.024891201649801,0.553973376750946
1708437960.1522586,-1.0694656372070312,-1.6992460689940394,-2.5328412691699427,2.2565125662037353,-1.0250495115863245,0.554521381855011
1708437960.15426,-1.0684856176376343,-1.6997724972166957,-2.532980744038717,2.2557546335407714,-1.0253022352801722,0.5551561117172241
1708437960.1562529,-1.0674500465393066,-1.7002870045103968,-2.533193651829855,2.255019350642822,-1.0255034605609339,0.5556744337081909
1708437960.1582534,-1.066303014755249,-1.7008630237975062,-2.5333450476275843,2.254333181972168,-1.0256198088275355,0.5562366247177124
1708437960.1602488,-1.065206527709961,-1.7013770542540492,-2.533524815236227,2.2536021906086425,-1.025853459035055,0.5568557977676392
1708437960.16225,-1.0640813112258911,-1.7020093403258265,-2.5337498823748987,2.2527798849293212,-1.0261228720294397,0.5573839545249939
1708437960.1642513,-1.0629123449325562,-1.7025557957091273,-2.5338802973376673,2.252009792918823,-1.0262916723834437,0.5578823089599609
1708437960.1662483,-1.061810851097107,-1.7031823597350062,-2.534156386052267,2.2511650758930664,-1.0265777746783655,0.558492124080658
1708437960.1683261,-1.0606621503829956,-1.7037846050658167,-2.534325901662008,2.2503747183033447,-1.0268133322345179,0.5590454339981079
1708437960.1702542,-1.0594650506973267,-1.7043291531004847,-2.5344892183886927,2.2495390611835937,-1.0270527044879358,0.5595754384994507
1708437960.1722853,-1.0582449436187744,-1.7050391636290492,-2.534691874180929,2.248671694392822,-1.027299706135885,0.5601866841316223
1708437960.1743004,-1.0570628643035889,-1.7055865726866664,-2.5349257628070276,2.247851772899292,-1.0275757948504847,0.5607249736785889
1708437960.1762614,-1.0557031631469727,-1.7062956295409144,-2.5351582209216517,2.246952934856079,-1.0278061071978968,0.5612172484397888
1708437960.1782799,-1.0545554161071777,-1.7068687878050746,-2.5353034178363245,2.2460850912281494,-1.028090778981344,0.5617765784263611
1708437960.1802742,-1.0532630681991577,-1.707524915734762,-2.5355656782733362,2.2451628881641845,-1.0283568541156214,0.5623301267623901
1708437960.1822932,-1.0518927574157715,-1.7082578144469203,-2.5357490221606653,2.2443319994160156,-1.0286338965045374,0.5629057884216309
1708437960.184289,-1.050575852394104,-1.7089282474913539,-2.5359273592578333,2.2434767919727783,-1.0288856665240687,0.5634119510650635
1708437960.1862628,-1.0492660999298096,-1.709607263604635,-2.5361884276019495,2.242443247432373,-1.0291536490069788,0.563959002494812
1708437960.1883087,-1.0478612184524536,-1.710297246972555,-2.536363665257589,2.2415572839924316,-1.029374901448385,0.5644152760505676
1708437960.1902556,-1.0464285612106323,-1.7109738789000453,-2.536654774342672,2.240590973491333,-1.0296548048602503,0.564972460269928
1708437960.1922567,-1.0450290441513062,-1.711743494073385,-2.5368197599994105,2.239647312755249,-1.0299275557147425,0.5655543804168701
1708437960.1942651,-1.0435658693313599,-1.7124825916686,-2.5371015707599085,2.238679810161255,-1.0302136580096644,0.5661351084709167
1708437960.1962535,-1.042148470878601,-1.7132016621031703,-2.5373416582690638,2.2376255232044677,-1.0304606596576136,0.566628098487854
1708437960.1982622,-1.0406794548034668,-1.7140089474120082,-2.537539307271139,2.23668019353833,-1.0308187643634241,0.5671498775482178
1708437960.2003078,-1.0391472578048706,-1.7147466144957484,-2.5378709475146692,2.2356318670460205,-1.0311301390277308,0.5676604509353638
1708437960.2022774,-1.0376707315444946,-1.715525289575094,-2.5381227175342005,2.2345992761799316,-1.031400505696432,0.5682315230369568
1708437960.2042534,-1.0361436605453491,-1.716344495812887,-2.5382939020739954,2.2335514265247802,-1.0316999594317835,0.5688015818595886
1708437960.2062476,-1.0345799922943115,-1.71702303508901,-2.538577143345968,2.2325257497974853,-1.0320308844195765,0.5693459510803223
1708437960.2082725,-1.0329307317733765,-1.7179132900633753,-2.538809363042013,2.2314135271259765,-1.03235370317568,0.5698637962341309
1708437960.2102726,-1.0313928127288818,-1.7186247311034144,-2.5390732924090784,2.230362578029297,-1.0326812903033655,0.5703619718551636
1708437960.2122831,-1.0298408269882202,-1.7194720707335414,-2.539321009312765,2.22923390447583,-1.0330002943622034,0.5709083080291748
1708437960.2142916,-1.0281727313995361,-1.7203198872008265,-2.5395682493792933,2.228154345149658,-1.0333393255816858,0.571422815322876
1708437960.2162876,-1.0265612602233887,-1.7210971317686976,-2.539931360875265,2.2270077902027587,-1.0336950461017054,0.5720013976097107
1708437960.2183049,-1.0247881412506104,-1.7218924961485804,-2.5401082674609583,2.225973291988037,-1.0340388456927698,0.5725318193435669
1708437960.2202604,-1.023142695426941,-1.7228056393065394,-2.5403931776629847,2.2247275549122314,-1.0343216101275843,0.5730583071708679
1708437960.2222555,-1.021399974822998,-1.7235647640623988,-2.540699068699972,2.2235566812702636,-1.0346367994891565,0.573612630367279
1708437960.2243276,-1.0196824073791504,-1.7244965038695277,-2.5409372488604944,2.222409411067627,-1.03495961824526,0.5741555094718933
1708437960.2263017,-1.0178900957107544,-1.7254368267455042,-2.5412045160876673,2.2212654787250976,-1.035389248524801,0.5746785402297974
1708437960.2282972,-1.0162129402160645,-1.7262278995909632,-2.5415506998645228,2.2200516897388916,-1.0356429258929651,0.5752708315849304
1708437960.2302668,-1.01434326171875,-1.7272182903685511,-2.5417802969561976,2.2187492090412597,-1.0360139052020472,0.5757187604904175
1708437960.2322712,-1.0125478506088257,-1.728068014184469,-2.5420969168292444,2.2174667555042724,-1.0364225546466272,0.5762616395950317
1708437960.2342644,-1.0106756687164307,-1.7289840183653773,-2.5423486868487757,2.2162651258656005,-1.0367134253131312,0.5768117904663086
1708437960.2362685,-1.0088214874267578,-1.7298923931517542,-2.5426650683032435,2.2150017458149414,-1.03705341020693,0.5774158835411072
1708437960.2382677,-1.0069724321365356,-1.7308584652342738,-2.5429771582232874,2.213693543071411,-1.0374239126788538,0.5779094099998474
1708437960.2402809,-1.0051419734954834,-1.731898923913473,-2.5433502832995813,2.2124458986469726,-1.0378077665912073,0.5783619284629822
1708437960.2422993,-1.0031324625015259,-1.7328187427916468,-2.543617550526754,2.2111469942280273,-1.0382073561297815,0.5788584351539612
1708437960.2442772,-1.0012075901031494,-1.7337924442686976,-2.543924633656637,2.2098631101795654,-1.0385320822345179,0.5793724060058594
1708437960.2462666,-0.9993031620979309,-1.7347446880736292,-2.544224802647726,2.2085599142261962,-1.0389121214496058,0.5799792408943176
1708437960.2483015,-0.9973034262657166,-1.7357937298216761,-2.544572893773214,2.2072226244160156,-1.0392487684832972,0.5804406404495239
1708437960.2502465,-0.9953170418739319,-1.7367788753905238,-2.5448649565326136,2.2058438497730712,-1.039668385182516,0.5809206366539001
1708437960.2523363,-0.9933212995529175,-1.7378374538817347,-2.5451422373401087,2.204460306758545,-1.0400446097003382,0.581443190574646
1708437960.254376,-0.9913110733032227,-1.7388621769347132,-2.5455294291125696,2.2030157285877685,-1.0404170195208948,0.5819694995880127
1708437960.256474,-0.9892846941947937,-1.739819189111227,-2.5458622614489954,2.201658173198364,-1.0408003965960901,0.5825005173683167
1708437960.2582624,-0.9873532652854919,-1.7408801517882289,-2.5461774508105677,2.200319691295288,-1.0412491003619593,0.583010196685791
1708437960.260375,-0.985232949256897,-1.7419105968871058,-2.5465505758868616,2.1989218431660156,-1.0415828863727015,0.5835407972335815
1708437960.2622683,-0.9831477403640747,-1.7430116138853968,-2.5468323866473597,2.197502298946045,-1.0419963041888636,0.5841002464294434
1708437960.2642806,-0.9810259342193604,-1.744126935998434,-2.547173086796896,2.1959776121326904,-1.0424116293536585,0.5846596360206604
1708437960.266259,-0.9788609147071838,-1.74523987392568,-2.547546450291769,2.19452874242749,-1.0428741613971155,0.5851940512657166
1708437960.2683067,-0.9766408801078796,-1.7462531528868617,-2.547885004674093,2.193068428630493,-1.043330494557516,0.5857405066490173
1708437960.2702847,-0.9745000600814819,-1.7473818264403285,-2.5482240358935755,2.1916796404072265,-1.0436399618731897,0.5862950086593628
1708437960.2722676,-0.9723710417747498,-1.748533388177389,-2.548600737248556,2.1902102667042236,-1.0440924803363245,0.5867474675178528
1708437960.2742815,-0.9701110124588013,-1.7496940098204554,-2.548953119908468,2.188720627421997,-1.0445612112628382,0.5872840881347656
1708437960.276257,-0.9678625464439392,-1.7507416210570277,-2.549274984990255,2.1872052389332275,-1.0449846426593226,0.5877779722213745
1708437960.2782772,-0.9656293988227844,-1.751941820184225,-2.5496488253222864,2.1857403951832275,-1.0453627745257776,0.5883583426475525
1708437960.2802904,-0.9634470343589783,-1.7530437908568324,-2.5499470869647425,2.1843668657490234,-1.0457208792315882,0.5888330936431885
1708437960.28228,-0.9612751007080078,-1.754115720788473,-2.5503323713885706,2.1827854353138427,-1.046157185231344,0.5893108248710632
1708437960.284293,-0.959027111530304,-1.7552253208556117,-2.550638262425558,2.181380434627197,-1.04653245607485,0.5897972583770752
1708437960.2862778,-0.9568431973457336,-1.756355424920553,-2.5509880224811,2.1799322801777343,-1.0469682852374476,0.5902814269065857
1708437960.288257,-0.9546605944633484,-1.757455965081686,-2.551319185887472,2.178443356151245,-1.0473983923541468,0.59076327085495
1708437960.2902534,-0.9524338245391846,-1.7585908375182093,-2.5517571608172815,2.176901264781616,-1.0478718916522425,0.5912333130836487
1708437960.2922604,-0.950209379196167,-1.7597085438170375,-2.5520551840411585,2.1754495340534667,-1.0483015219317835,0.5916599631309509
1708437960.2942653,-0.9480043649673462,-1.760789533654684,-2.5524075667010706,2.1739112573811035,-1.0487654844867151,0.5921551585197449
1708437960.2962582,-0.9457783102989197,-1.76188387493276,-2.552734915410177,2.1723107534595947,-1.0491684118853968,0.5926099419593811
1708437960.2982452,-0.9435567855834961,-1.7630530796446742,-2.553074900303976,2.170771761531494,-1.0495994726764124,0.59312903881073
