Eg3-git/Classifiers/Data Collection/u6/u6www5_ur3e_joint_states.csv
time,elbow_joint,shoulder_lift_joint,shoulder_pan_joint,wrist_1_joint,wrist_2_joint,wrist_3_joint
1708438177.2914588,-1.1113228797912598,-1.678383012811178,-2.5275474230395716,2.287788076991699,-1.0189884344684046,0.2331964373588562
1708438177.2934544,-1.1113048791885376,-1.678324361840719,-2.5275548140155237,2.287759943599365,-1.0189560095416468,0.2332131415605545
1708438177.2954648,-1.1113213300704956,-1.6783410511412562,-2.5275726954089563,2.2877587515064697,-1.0189736525165003,0.2331637740135193
1708438177.297456,-1.1113539934158325,-1.678307672540182,-2.5275428930865687,2.287825508708618,-1.0189974943744105,0.23322470486164093
1708438177.2994268,-1.1113094091415405,-1.6783739529051722,-2.5275309721576136,2.287776156062744,-1.0190189520465296,0.23324991762638092
1708438177.3014605,-1.1113420724868774,-1.6783153019347132,-2.5275190512286585,2.2877954679676513,-1.0190098921405237,0.2332380712032318
1708438177.3034632,-1.1113466024398804,-1.6783606014647425,-2.5275593439685267,2.287780447597168,-1.0190008322345179,0.2332335263490677
1708438177.305467,-1.1112878322601318,-1.678328653375143,-2.5275355021106165,2.2877513605305175,-1.0190098921405237,0.2332007884979248
1708438177.3075,-1.1113094091415405,-1.6783606014647425,-2.5275936762439173,2.287764235133789,-1.0190098921405237,0.2331964373588562
1708438177.3094654,-1.1113348007202148,-1.6782824001707972,-2.527517620717184,2.287788076991699,-1.0190065542804163,0.23319339752197266
1708438177.3114822,-1.1113094091415405,-1.6783658466734828,-2.5275145212756556,2.287808580989502,-1.0189812819110315,0.23322653770446777
1708438177.3134737,-1.1113420724868774,-1.678361555139059,-2.5275145212756556,2.2877556520649414,-1.018951718007223,0.23324987292289734
1708438177.3154724,-1.1113213300704956,-1.6783319912352503,-2.5275102297412317,2.2878123956867675,-1.0189650694476526,0.2332131266593933
1708438177.3174775,-1.1112878322601318,-1.6782690487303675,-2.5274937788592737,2.287804289455078,-1.0190017859088343,0.2332618683576584
1708438177.319462,-1.111325740814209,-1.678307672540182,-2.5275474230395716,2.2877513605305175,-1.0189645926104944,0.23322471976280212
1708438177.3214514,-1.111337661743164,-1.6783033810057582,-2.5275102297412317,2.2877630430408935,-1.0190017859088343,0.23324555158615112
1708438177.3234756,-1.1113420724868774,-1.6783276997008265,-2.5275190512286585,2.2878171640583496,-1.0189765135394495,0.23325133323669434
1708438177.3254402,-1.1113213300704956,-1.6783105335631312,-2.5275893847094935,2.287846012706421,-1.0190141836749476,0.23318009078502655
1708438177.327429,-1.1112715005874634,-1.6783105335631312,-2.5275264422046106,2.2878169256397705,-1.0189932028399866,0.23324984312057495
1708438177.3294225,-1.1113184690475464,-1.6783276997008265,-2.5275102297412317,2.2877272802540283,-1.0189765135394495,0.2331429421901703
1708438177.331415,-1.1113094091415405,-1.678328653375143,-2.5275235811816614,2.287792368526123,-1.0189932028399866,0.23320870101451874
1708438177.3334367,-1.1113539934158325,-1.678319593469137,-2.5275026003467005,2.287788076991699,-1.0189273993121546,0.233266219496727
1708438177.3354383,-1.1113555431365967,-1.6783138714232386,-2.5275071302997034,2.287780447597168,-1.0189855734454554,0.23324985802173615
1708438177.3374703,-1.1113466024398804,-1.6783062420287074,-2.5274604002581995,2.2877566057392578,-1.0189736525165003,0.23323805630207062
1708438177.339419,-1.1112923622131348,-1.6784049473204554,-2.5274937788592737,2.2876991468616943,-1.0189765135394495,0.2332574427127838
1708438177.341422,-1.1113301515579224,-1.6783391437926234,-2.5275099913226526,2.2878009515949707,-1.0189946333514612,0.2332661896944046
1708438177.3434224,-1.1113048791885376,-1.6783229313292445,-2.5275026003467005,2.287682457561157,-1.0189855734454554,0.2332574725151062
1708438177.3454344,-1.1113094091415405,-1.6783434353270472,-2.5274952093707483,2.2877241808125,-1.0189526716815394,0.2332291603088379
1708438177.3474598,-1.1112967729568481,-1.6784140072264613,-2.527484718953268,2.2877327638813476,-1.0189736525165003,0.23324552178382874
1708438177.3494272,-1.1112639904022217,-1.6784125767149867,-2.5275278727160853,2.2877296644398193,-1.0189779440509241,0.2332007884979248
1708438177.3514788,-1.1112759113311768,-1.6784097156920375,-2.5275400320636194,2.287745876903198,-1.0189693609820765,0.23322026431560516
1708438177.3534458,-1.1112686395645142,-1.6783558330931605,-2.5275026003467005,2.2877041536518554,-1.0190232435809534,0.23326189815998077
1708438177.3554425,-1.111313819885254,-1.6783915958800257,-2.5274906794177454,2.287700815791748,-1.0189946333514612,0.23327864706516266
1708438177.3574753,-1.1112850904464722,-1.6783753834166468,-2.5275145212756556,2.287660761470459,-1.0189946333514612,0.23327413201332092
1708438177.3594437,-1.1112895011901855,-1.6784292660155238,-2.5275428930865687,2.287641687984131,-1.0189498106585901,0.23321573436260223
1708438177.3614762,-1.1112284660339355,-1.6784125767149867,-2.5274692217456263,2.2875754076191406,-1.018970791493551,0.23325300216674805
1708438177.3634903,-1.111261248588562,-1.6784230671324671,-2.5275443235980433,2.2875472742268066,-1.0189421812640589,0.23330092430114746
1708438177.3654416,-1.1112374067306519,-1.678427358666891,-2.5275071302997034,2.287572069759033,-1.0189288298236292,0.23323512077331543
1708438177.3674936,-1.111191987991333,-1.6784230671324671,-2.5275026003467005,2.2875193792530517,-1.0189169088946741,0.23323512077331543
1708438177.3694792,-1.1111711263656616,-1.6784926853575648,-2.527482811604635,2.2874576288410644,-1.0189335981952112,0.23333096504211426
1708438177.3714309,-1.1112099885940552,-1.6784302196898402,-2.5274863878833216,2.2874795633503417,-1.018914047871725,0.23331761360168457
1708438177.3735204,-1.111186146736145,-1.678488393823141,-2.5274952093707483,2.287475271815918,-1.018958870564596,0.23334582149982452
1708438177.3754284,-1.1111325025558472,-1.6784917316832484,-2.5275190512286585,2.2874106603809814,-1.018893067036764,0.23330414295196533
1708438177.3774471,-1.1111668348312378,-1.6784593067564906,-2.527478281651632,2.2874149519154052,-1.0189302603351038,0.23339080810546875
1708438177.3794594,-1.1111503839492798,-1.6784616909422816,-2.5275116602527063,2.2874323564716796,-1.018893067036764,0.23333248496055603
1708438177.3814359,-1.111129641532898,-1.6785084209837855,-2.5275116602527063,2.2874008852192382,-1.018909756337301,0.23341043293476105
1708438177.3834481,-1.1111170053482056,-1.6785789928831996,-2.527461830769674,2.287273569697998,-1.0188763777362269,0.23338928818702698
1708438177.3854432,-1.1111395359039307,-1.6785112820067347,-2.527487341557638,2.2873727518269042,-1.018914047871725,0.23339827358722687
1708438177.3874848,-1.1110203266143799,-1.6784736118712367,-2.527482811604635,2.2872955042072753,-1.0189183394061487,0.23342084884643555
1708438177.389432,-1.1110695600509644,-1.6785007915892542,-2.527454439793722,2.2873050409504394,-1.0188887755023401,0.23344166576862335
1708438177.3914468,-1.111039161682129,-1.678506990472311,-2.527458969746725,2.287264032954834,-1.018860165272848,0.2334163933992386
1708438177.3934317,-1.1109944581985474,-1.6785499058165492,-2.5274842421161097,2.2872440057941894,-1.0189273993121546,0.23349402844905853
1708438177.3954372,-1.1109989881515503,-1.6785713634886683,-2.527458969746725,2.2871996599384765,-1.0188687483416956,0.23348069190979004
1708438177.3974605,-1.1109498739242554,-1.6785923443236292,-2.5274606386767786,2.287256880397461,-1.0188244024859827,0.2335137575864792
1708438177.3994505,-1.1109209060668945,-1.6785980663695277,-2.5274680296527308,2.287139340037964,-1.0188568274127405,0.23354195058345795
1708438177.4015114,-1.1109508275985718,-1.6786323986449183,-2.5274723211871546,2.2871436315723876,-1.0188496748553675,0.2335255891084671
1708438177.4034672,-1.1109061241149902,-1.678659578362936,-2.527397696171896,2.2871643739887695,-1.018867317830221,0.23359020054340363
1708438177.4054744,-1.110815405845642,-1.678638597527975,-2.527381245289938,2.2870918947407226,-1.0189078489886683,0.23358575999736786
1708438177.4074728,-1.110812783241272,-1.6786509952940882,-2.5274620691882532,2.287104769343994,-1.0188139120685022,0.23360037803649902
1708438177.4094493,-1.1108380556106567,-1.678655286828512,-2.5274441877948206,2.2870685297199707,-1.018790070210592,0.23363788425922394
1708438177.4114542,-1.1107770204544067,-1.6786791286864222,-2.527414385472433,2.2870685297199707,-1.0188100973712366,0.23365721106529236
1708438177.4134486,-1.110770583152771,-1.678666730920309,-2.527407948170797,2.287003441447876,-1.0188100973712366,0.23369328677654266
1708438177.4154477,-1.1107078790664673,-1.6786986790099085,-2.5274110476123255,2.2870003420063476,-1.0187566916095179,0.23366793990135193
1708438177.4174612,-1.11068856716156,-1.6787640057005824,-2.5273781458484095,2.286942167873047,-1.0187743345843714,0.23374564945697784
1708438177.4194994,-1.110681176185608,-1.678767820397848,-2.5274036566363733,2.2869931894489746,-1.0187166372882288,0.23372483253479004
1708438177.4214385,-1.110611915588379,-1.6788250408568324,-2.5274575392352503,2.286972685451172,-1.0186880270587366,0.23378610610961914
1708438177.4235225,-1.1106538772583008,-1.6787706814207972,-2.5274036566363733,2.2869607645222167,-1.0187552610980433,0.23374739289283752
1708438177.425429,-1.1105928421020508,-1.6787415943541468,-2.5273824373828333,2.28686706602063,-1.0187433401690882,0.2337801456451416
1708438177.427437,-1.1105772256851196,-1.6788283787169398,-2.5273705164538782,2.286859913463257,-1.0187104384051722,0.23378752171993256
1708438177.4294126,-1.1105624437332153,-1.6788388691344203,-2.5274036566363733,2.286848230952881,-1.0187104384051722,0.23380723595619202
1708438177.4314585,-1.1105252504348755,-1.6788717708983363,-2.527375046406881,2.286795063609741,-1.0186775366412562,0.2339058369398117
1708438177.4334404,-1.1105222702026367,-1.6788317165770472,-2.527358595524923,2.2867912489124755,-1.018632713948385,0.23386406898498535
1708438177.4356177,-1.1104860305786133,-1.6788674793639125,-2.5273705164538782,2.2867185312458496,-1.0187071005450647,0.233949214220047
1708438177.4374862,-1.1104204654693604,-1.6788865528502406,-2.5273552576648157,2.2867719370075683,-1.0186293760882776,0.23399390280246735
1708438177.4394925,-1.11043381690979,-1.678915639916891,-2.527337614689962,2.2867771822163085,-1.0186384359942835,0.23396413028240204
1708438177.441468,-1.110426425933838,-1.6788722477354945,-2.527339045201437,2.286721392268799,-1.0186799208270472,0.23395521938800812
1708438177.4435332,-1.1103359460830688,-1.6789051494994105,-2.5273688475238245,2.2866641718098144,-1.0186594168292444,0.23401805758476257
1708438177.4454906,-1.110342025756836,-1.6790038547911585,-2.527350966130392,2.286636992091797,-1.0185936133014124,0.23404067754745483
1708438177.4474995,-1.1103092432022095,-1.678995271722311,-2.52733022371401,2.286534472102783,-1.0186026732074183,0.23401497304439545
1708438177.4494605,-1.110277533531189,-1.6789547405638636,-2.5273855368243616,2.2865189748951416,-1.018606964741842,0.2340763509273529
1708438177.4514675,-1.1102372407913208,-1.6790186367430628,-2.5273764769183558,2.2865564066120605,-1.0185664335833948,0.23408536612987518
1708438177.4534616,-1.1102298498153687,-1.6790477238097132,-2.5273402372943323,2.2864886957355957,-1.0185754934894007,0.23410789668560028
1708438177.45548,-1.1102172136306763,-1.6790715656676234,-2.5272939840899866,2.286456270808838,-1.0185173193561,0.23409898579120636
1708438177.4574597,-1.1101205348968506,-1.679054399529928,-2.5273314158069056,2.286444826717041,-1.0185263792621058,0.23414844274520874
1708438177.459452,-1.1101080179214478,-1.6790691814818324,-2.5272746721850794,2.2864295679279785,-1.0185216108905237,0.23413503170013428
1708438177.4615018,-1.1100932359695435,-1.679072996179098,-2.5273194948779505,2.286327286357544,-1.0185263792621058,0.23417992889881134
1708438177.4634724,-1.1100693941116333,-1.679134031335348,-2.5272911230670374,2.286370201701782,-1.0184734503375452,0.23420372605323792
1708438177.4654548,-1.1100285053253174,-1.679093977014059,-2.5272792021380823,2.286251946086548,-1.0184906164752405,0.23422782123088837
1708438177.4674883,-1.1100391149520874,-1.6791755161681117,-2.5272658506976526,2.2862862783619384,-1.0184691588031214,0.23426391184329987
1708438177.4694664,-1.1099824905395508,-1.6792189083495082,-2.527304712926046,2.2862259584614257,-1.018458668385641,0.23425935208797455
1708438177.471489,-1.1099416017532349,-1.6791283092894496,-2.5272627512561243,2.2861642080494384,-1.0184467474566858,0.23425784707069397
1708438177.4734378,-1.1099269390106201,-1.6792189083495082,-2.527254883443014,2.2861036497303466,-1.0184348265277308,0.2343476265668869
1708438177.4754267,-1.1098861694335938,-1.6792522869505824,-2.527288262044088,2.286067171687744,-1.0184677282916468,0.2343263179063797
1708438177.4774277,-1.109845519065857,-1.6792627773680628,-2.5272837320910853,2.286036177272461,-1.0184600988971155,0.23435945808887482
1708438177.4794285,-1.1098052263259888,-1.6792370281615199,-2.527217690144674,2.2860328394123535,-1.0184109846698206,0.23438329994678497
1708438177.4814262,-1.109790325164795,-1.6792894802489222,-2.527247492467062,2.285975857371948,-1.0183985869037073,0.2343909740447998
1708438177.4834504,-1.10977041721344,-1.6793152294554652,-2.527247492467062,2.285960837001465,-1.0183871428119105,0.23443572223186493
1708438177.485451,-1.1096930503845215,-1.6792894802489222,-2.5272517840014856,2.2859207826801757,-1.0183747450457972,0.23450033366680145
1708438177.4874465,-1.1096900701522827,-1.6793467007079066,-2.527181927357809,2.285820646876953,-1.0183466116534632,0.23450030386447906
1708438177.4894326,-1.109667181968689,-1.6793328724303187,-2.527214590703146,2.285824938411377,-1.0183256308185022,0.23447465896606445
1708438177.4914732,-1.109589695930481,-1.6793824634947718,-2.5271485487567347,2.2857929903217773,-1.018334690724508,0.23450610041618347
1708438177.4934938,-1.1096166372299194,-1.6793362102904261,-2.5272026697741907,2.2857090669819335,-1.0183361212359827,0.23457816243171692
1708438177.4954746,-1.1095266342163086,-1.6794258556761683,-2.5271664301501673,2.2856971460529785,-1.0183146635638636,0.2346321940422058
1708438177.4974773,-1.109498381614685,-1.6794377766051234,-2.5271876494037073,2.285693808192871,-1.0183232466327112,0.23459744453430176
1708438177.49946,-1.1094709634780884,-1.6794034443297328,-2.52717096010317,2.28554813444104,-1.0182750860797327,0.23466791212558746
1708438177.5014994,-1.1093809604644775,-1.6794902286925257,-2.5271831194507044,2.2855731683918457,-1.0182703177081507,0.23464995622634888
1708438177.5034928,-1.1094244718551636,-1.679514547387594,-2.527154509221212,2.285536690349243,-1.0182550589190882,0.23471562564373016
1708438177.5054538,-1.1092965602874756,-1.6794830761351527,-2.527151648198263,2.285506411189697,-1.0182626883136194,0.23472779989242554
1708438177.5074775,-1.1093480587005615,-1.679530759850973,-2.5271485487567347,2.2854041296192626,-1.018219296132223,0.23475930094718933
1708438177.5094738,-1.109250545501709,-1.6795622311034144,-2.527142588292257,2.285413904781006,-1.0181940237628382,0.23482808470726013
1708438177.5114617,-1.109235167503357,-1.6795250378050746,-2.5271440188037317,2.2853776651569824,-1.0181778112994593,0.23483100533485413
1708438177.5134802,-1.109181523323059,-1.6795650921263636,-2.527055803929464,2.2852882581898193,-1.0181897322284144,0.2348880171775818
1708438177.515441,-1.1091004610061646,-1.6796218357481898,-2.527123037968771,2.2852648931690673,-1.0181778112994593,0.23486709594726562
1708438177.517458,-1.1091184616088867,-1.67958464244985,-2.5271111170398157,2.28524558126416,-1.0181873480426233,0.23488633334636688
1708438177.5194519,-1.1090871095657349,-1.6796170673766078,-2.5271156469928187,2.285193606013916,-1.0181801954852503,0.23487280309200287
1708438177.5214348,-1.1090062856674194,-1.6796413860716761,-2.5271034876452845,2.2851854997822265,-1.0181430021869105,0.23495101928710938
1708438177.523531,-1.1090106964111328,-1.6796428165831507,-2.5270989576922815,2.285097761745117,-1.0181472937213343,0.23492105305194855
1708438177.525451,-1.1089659929275513,-1.6797057590880335,-2.5271156469928187,2.2849833208271484,-1.0181143919574183,0.23495836555957794
1708438177.5274985,-1.1089630126953125,-1.679746767083639,-2.5270870367633265,2.285074396724365,-1.018085781727926,0.23503907024860382
1708438177.5294378,-1.1088905334472656,-1.6797272167601527,-2.5270751158343714,2.2849361139484863,-1.0181158224688929,0.23498991131782532
1708438177.531469,-1.1088407039642334,-1.6797448597350062,-2.527039353047506,2.2849461275288085,-1.018111530934469,0.23504655063152313
1708438177.5335045,-1.108818531036377,-1.679758211175436,-2.5270677248584192,2.2848478990742187,-1.018083397542135,0.23506003618240356
1708438177.5354629,-1.108781337738037,-1.6797782383360804,-2.5270751158343714,2.2849034506031494,-1.0180919806109827,0.23511697351932526
1708438177.5374575,-1.108716607093811,-1.6797849140562953,-2.5270512739764612,2.2848383623310546,-1.0180991331683558,0.235203817486763
1708438177.539444,-1.10869300365448,-1.6798182926573695,-2.5270357767688196,2.284773989314697,-1.0180795828448694,0.2351813018321991
1708438177.5414386,-1.1086899042129517,-1.6797896824278773,-2.5270305315600794,2.284738226527832,-1.0180276075946253,0.23522640764713287
1708438177.543493,-1.1086536645889282,-1.679840704003805,-2.527069155369894,2.284648819560669,-1.0180113951312464,0.23527590930461884
1708438177.5454266,-1.108622431755066,-1.67987122158193,-2.527043883000509,2.284674807185791,-1.0180023352252405,0.23524115979671478
1708438177.5474615,-1.1085458993911743,-1.6798764667906703,-2.527052704487936,2.2846173483082275,-1.0179861227618616,0.23527270555496216
1708438177.549457,-1.108541488647461,-1.679880758325094,-2.5270448366748255,2.2845894533344726,-1.018008057271139,0.2352890968322754
1708438177.5514479,-1.1085057258605957,-1.6799379787840785,-2.5269911924945276,2.2845465379902343,-1.017982308064596,0.23529358208179474
1708438177.553449,-1.1084500551223755,-1.6798721752562464,-2.5269911924945276,2.2844578462788085,-1.017979923878805,0.23538202047348022
1708438177.5554533,-1.108433723449707,-1.6799231968321742,-2.5269461313830774,2.2844902712055664,-1.0179632345782679,0.23538653552532196
1708438177.5575178,-1.1084232330322266,-1.679906507531637,-2.5269671122180384,2.284475250835083,-1.0179303328143519,0.2353968769311905
1708438177.5594416,-1.108402967453003,-1.67993225673818,-2.5269418398486536,2.284377022380493,-1.0179718176471155,0.23541614413261414
1708438177.5614378,-1.1083463430404663,-1.6799847088255824,-2.527034346257345,2.2843450742908935,-1.0179274717914026,0.23546569049358368
1708438177.5634515,-1.1083388328552246,-1.6799894771971644,-2.5269463698016565,2.2843386369892578,-1.0179360548602503,0.23546572029590607
1708438177.5654826,-1.1082770824432373,-1.6800199947752894,-2.5269463698016565,2.284294291133545,-1.0179689566241663,0.23548078536987305
1708438177.5674496,-1.1082459688186646,-1.6800371609129847,-2.5269551912890833,2.284244938487671,-1.017907444630758,0.23556312918663025
1708438177.5694575,-1.1082125902175903,-1.6799994907774867,-2.5269058386432093,2.284172936076782,-1.0179241339312952,0.2355167716741562
1708438177.5714188,-1.108214259147644,-1.6800724468626917,-2.526968781148092,2.2841946321674804,-1.017883602772848,0.2355615198612213
1708438177.5735087,-1.1081620454788208,-1.6800815067686976,-2.526914660130636,2.28414694845166,-1.0178917090045374,0.23558568954467773
1708438177.575439,-1.1081092357635498,-1.6801015339293421,-2.526968542729513,2.284151239986084,-1.0178917090045374,0.23560495674610138
1708438177.5774271,-1.1081019639968872,-1.6801463566222132,-2.526964251195089,2.284106894130371,-1.017909351979391,0.23559589684009552
1708438177.5794437,-1.1080900430679321,-1.6801372967162074,-2.526914660130636,2.284001274699829,-1.0178807417498987,0.23563647270202637
1708438177.5814223,-1.1081033945083618,-1.6801101169981898,-2.526914660130636,2.2840143877216796,-1.0178640524493616,0.23566512763500214
1708438177.5834527,-1.1080225706100464,-1.6801563702025355,-2.5269401709186,2.2840191560932617,-1.0178106466876429,0.23569655418395996
1708438177.585436,-1.1079659461975098,-1.6801191769041957,-2.526923720036642,2.28395859777417,-1.017794434224264,0.2357412874698639
1708438177.5874784,-1.107974886894226,-1.6801191769041957,-2.52688175836672,2.2838854032703857,-1.0178402105914515,0.23566341400146484
1708438177.5894644,-1.1079639196395874,-1.680178781548971,-2.5268831888781946,2.283865376109741,-1.0178030172931116,0.2357695996761322
1708438177.5914838,-1.1079355478286743,-1.680187841454977,-2.5269325415240687,2.2838172155567626,-1.0178449789630335,0.2357352375984192
1708438177.5934532,-1.1079238653182983,-1.6802283726134242,-2.5268786589251917,2.2838215070911865,-1.0177715460406702,0.23582488298416138
1708438177.5954623,-1.107887625694275,-1.6801945171751917,-2.5269039312945765,2.2838427263447265,-1.0178092161761683,0.2357664704322815
1708438177.597475,-1.1078602075576782,-1.6801496944823207,-2.5268664995776575,2.2837740617939453,-1.0177667776690882,0.23582792282104492
1708438177.5994546,-1.1078318357467651,-1.6802355251707972,-2.5268951098071497,2.283742590541504,-1.0177882353412073,0.23584914207458496
1708438177.601526,-1.1077373027801514,-1.6803060970702113,-2.5268500486956995,2.2837719160267334,-1.0177882353412073,0.23586101830005646
1708438177.6034913,-1.1077553033828735,-1.6802298031248988,-2.5268591086017054,2.2836693960377197,-1.0177801291095179,0.23587611317634583
1708438177.605477,-1.1076853275299072,-1.6803089580931605,-2.5268636385547083,2.2836717802235107,-1.017714802418844,0.23596137762069702
1708438177.6074376,-1.1077063083648682,-1.6802760563292445,-2.5268517176257532,2.2836341100880126,-1.017731014882223,0.23595395684242249
1708438177.6094418,-1.107650637626648,-1.6802879772581996,-2.526888910924093,2.2835823732563476,-1.0177491346942347,0.235968679189682
1708438177.6114902,-1.10763418674469,-1.6802956066527308,-2.526872460042135,2.2835585313984375,-1.0176909605609339,0.23604243993759155
1708438177.6134818,-1.1075561046600342,-1.6802822552123011,-2.5268831888781946,2.283517761821411,-1.0177086035357874,0.23592990636825562
1708438177.6154997,-1.1075949668884277,-1.6803184948363246,-2.526867930089132,2.2835556703754882,-1.0177176634417933,0.23601661622524261
1708438177.6174586,-1.1076120138168335,-1.6803227863707484,-2.5267935434924524,2.2834951120563964,-1.0176799933062952,0.2360047549009323
1708438177.6194544,-1.1075636148452759,-1.6803437672057093,-2.526794497166769,2.2834295469471435,-1.0177133719073694,0.23606009781360626
1708438177.621444,-1.1075100898742676,-1.6803513966002406,-2.52682334581484,2.283442659968994,-1.0176547209369105,0.23604817688465118
1708438177.6235466,-1.107511043548584,-1.6804033718504847,-2.52682334581484,2.28341452657666,-1.0177009741412562,0.23598967492580414
1708438177.6254325,-1.107499122619629,-1.6804076633849085,-2.526806894932882,2.283374472255371,-1.017656151448385,0.23607072234153748
1708438177.6274278,-1.1074663400650024,-1.6803738079466761,-2.526794497166769,2.283378763789795,-1.0176518599139612,0.23609158396720886
1708438177.6294496,-1.1074633598327637,-1.6804315052428187,-2.526832405720846,2.2833186823078613,-1.0176604429828089,0.23609164357185364
1708438177.6314533,-1.1074186563491821,-1.6804067097105921,-2.526799027119772,2.2833186823078613,-1.017623249684469,0.23616163432598114
1708438177.633423,-1.1074142456054688,-1.6804396114745082,-2.5267825762378138,2.28328721105542,-1.0176351706134241,0.23614084720611572
1708438177.6354523,-1.1073983907699585,-1.6804090938963832,-2.5267825762378138,2.2832702833363037,-1.0176413694964808,0.23616787791252136
1708438177.637817,-1.1074072122573853,-1.6805087528624476,-2.5268412272082728,2.283271475429199,-1.0175750891314905,0.23621739447116852
1708438177.639466,-1.1073551177978516,-1.6804830036559046,-2.526740852986471,2.2833050924488525,-1.0175750891314905,0.23616784811019897
1708438177.6414592,-1.107353687286377,-1.6805111370482386,-2.526832405720846,2.2832681375690917,-1.017604176198141,0.23616783320903778
1708438177.6434894,-1.1073507070541382,-1.6805154285826625,-2.5267825762378138,2.2831994730183105,-1.0176056067096155,0.23619620501995087
1708438177.6454716,-1.1073052883148193,-1.6805397472777308,-2.5268412272082728,2.28318635999646,-1.0176218191729944,0.23624274134635925
1708438177.6474686,-1.1073098182678223,-1.680556436578268,-2.526766363774435,2.2831875520893554,-1.0176175276385706,0.2362440675497055
1708438177.64945,-1.1073039770126343,-1.680495401422018,-2.5267587343799036,2.283184452647827,-1.0175769964801233,0.2362261414527893
1708438177.6514654,-1.1073113679885864,-1.6805101833739222,-2.5267706553088587,2.283106966609619,-1.0176056067096155,0.23626825213432312
1708438177.6534858,-1.1072906255722046,-1.680608411828512,-2.5268169085132044,2.283073826427124,-1.0175769964801233,0.2362682819366455
1708438177.6555016,-1.107283115386963,-1.680547376672262,-2.5267587343799036,2.2831320005604248,-1.0175440947162073,0.236263707280159
1708438177.657471,-1.1072520017623901,-1.680580278436178,-2.5267587343799036,2.283111258144043,-1.0175727049456995,0.23628787696361542
1708438177.6594846,-1.1072230339050293,-1.6806022129454554,-2.5267346541034144,2.2830826479145507,-1.0175769964801233,0.23628170788288116
1708438177.6614199,-1.1071693897247314,-1.6806203327574671,-2.5267301241504114,2.2830912309833984,-1.0175321737872522,0.2363356649875641
1708438177.6634436,-1.1072393655776978,-1.6806203327574671,-2.5267303625689905,2.2830349641987304,-1.0175560156451624,0.23633579909801483
1708438177.665426,-1.1072230339050293,-1.6806022129454554,-2.5267227331744593,2.283038302058838,-1.0175393263446253,0.23631000518798828
1708438177.6674385,-1.1072111129760742,-1.6806279621519984,-2.5267513434039515,2.2830511766621093,-1.0174992720233362,0.2363312542438507
1708438177.6694531,-1.1071902513504028,-1.6806098423399867,-2.52674371400942,2.2829410272785644,-1.0174992720233362,0.23638372123241425
1708438177.671468,-1.1071544885635376,-1.6806098423399867,-2.5267558733569544,2.2830192285725097,-1.0175288359271448,0.23634600639343262
1708438177.673491,-1.1071510314941406,-1.6806403599181117,-2.526731793080465,2.2830115991779785,-1.0174887816058558,0.23638369143009186
1708438177.675431,-1.107175350189209,-1.6806236706175746,-2.5267303625689905,2.282942457790039,-1.0174911657916468,0.23639556765556335
1708438177.6774302,-1.107159972190857,-1.680655141870016,-2.5267062822925013,2.2830235201069335,-1.017519776021139,0.23641198873519897
1708438177.6794436,-1.1071182489395142,-1.6806746921935023,-2.52674371400942,2.2829434114643554,-1.0175092856036585,0.23642835021018982
1708438177.6814268,-1.1071361303329468,-1.680688043633932,-2.5266898314105433,2.2829229074665527,-1.0175336042987269,0.23641490936279297
1708438177.6834538,-1.1071033477783203,-1.680671831170553,-2.52674371400942,2.2829271990009765,-1.0175169149981897,0.23637305200099945
1708438177.6854396,-1.107143521308899,-1.68068327526235,-2.5267391840564173,2.2829629617878417,-1.01747972169985,0.23646606504917145
1708438177.6874585,-1.1071122884750366,-1.6806789837279261,-2.5267346541034144,2.2828983503529052,-1.0174854437457483,0.23650182783603668
1708438177.6894333,-1.1070631742477417,-1.6807447872557582,-2.526736084614889,2.2829102712818603,-1.0174763838397425,0.23649267852306366
1708438177.691432,-1.1070839166641235,-1.6806937656798304,-2.5267227331744593,2.282907171840332,-1.0175092856036585,0.2364419400691986
1708438177.6934848,-1.106997013092041,-1.6806727848448695,-2.526727263127462,2.28284661352124,-1.0175216833697718,0.2364881932735443
1708438177.6954346,-1.107046127319336,-1.6806746921935023,-2.526727263127462,2.282902880305908,-1.0174887816058558,0.2364702671766281
1708438177.6974225,-1.1070855855941772,-1.6807433567442835,-2.526691261922018,2.2829200464436035,-1.0174673239337366,0.23647920787334442
1708438177.6994414,-1.1070685386657715,-1.6807671986021937,-2.526748005543844,2.2828420835682373,-1.0174601713763636,0.23656901717185974
1708438177.7014744,-1.107093095779419,-1.6807342968382777,-2.52669865289797,2.282855196590088,-1.0174482504474085,0.2365390956401825
1708438177.703486,-1.107064127922058,-1.6807018719115199,-2.526719633732931,2.282838984126709,-1.0174887816058558,0.2364986091852188
1708438177.7054834,-1.107003092765808,-1.6807629070677699,-2.526719633732931,2.282839460963867,-1.01746112505068,0.23650307953357697
1708438177.707487,-1.1069985628128052,-1.6807838879027308,-2.526670281087057,2.282893105144165,-1.0174525419818323,0.2365153580904007
1708438177.709477,-1.1070208549499512,-1.6808215580382289,-2.5267329851733606,2.2828144270130615,-1.0174644629107874,0.23653291165828705
1708438177.7114615,-1.1070075035095215,-1.68072571376943,-2.5267165342914026,2.282799406642578,-1.017444912587301,0.23654650151729584
1708438177.7134748,-1.1070135831832886,-1.680781980554098,-2.52667481104006,2.282799406642578,-1.0174525419818323,0.23658861219882965
1708438177.7155104,-1.1069955825805664,-1.6808377705016078,-2.526632849370138,2.2828122812458496,-1.017432991658346,0.2365870177745819
1708438177.7174835,-1.1069546937942505,-1.6808320484557093,-2.526658360158102,2.282799406642578,-1.0174687544452112,0.2366155982017517
1708438177.7194476,-1.106985330581665,-1.6807733974852503,-2.526703182850973,2.2827669817158203,-1.017465893422262,0.23659148812294006
1708438177.7214518,-1.1069430112838745,-1.6808105907835902,-2.526658360158102,2.282775564784668,-1.017444912587301,0.23661570250988007
1708438177.723459,-1.1069637537002563,-1.6808434925475062,-2.526703182850973,2.2827507692524414,-1.0174735228167933,0.2365283966064453
1708438177.7254343,-1.106985330581665,-1.6808096371092738,-2.5266626516925257,2.282759352321289,-1.017449680958883,0.2365989089012146
1708438177.7274725,-1.1069355010986328,-1.6808229885497035,-2.5267046133624476,2.2827724653431396,-1.017444912587301,0.2366020530462265
1708438177.7294223,-1.1069146394729614,-1.6808387241759242,-2.5266717115985315,2.2827724653431396,-1.0174077192889612,0.23660212755203247
1708438177.7314253,-1.1069399118423462,-1.6808229885497035,-2.526670281087057,2.2827154833027343,-1.017453972493307,0.2366095334291458
1708438177.733436,-1.1068603992462158,-1.6809216938414515,-2.526628557835714,2.2827231126972656,-1.0173752943622034,0.23665136098861694
1708438177.7354403,-1.1068737506866455,-1.6808797321715296,-2.526641909276144,2.2826830583759765,-1.0174005667315882,0.23661403357982635
1708438177.737465,-1.1069021224975586,-1.6808768711485804,-2.5266671816455286,2.2827035623737792,-1.0174196402179163,0.23662883043289185
1708438177.7394505,-1.1068919897079468,-1.6808678112425746,-2.526658360158102,2.2826623159595947,-1.017425839100973,0.23663330078125
1708438177.7414532,-1.1069155931472778,-1.6808496914305628,-2.5266838709460657,2.2826992708393554,-1.017453972493307,0.2367040514945984
1708438177.7434742,-1.1068793535232544,-1.680845399896139,-2.5266881624804896,2.2826754289814453,-1.0174301306353968,0.2366783618927002
1708438177.7454355,-1.1068873405456543,-1.6808544598021449,-2.5266223589526575,2.282646580333374,-1.017388645802633,0.2366873323917389
1708438177.7474396,-1.106863021850586,-1.6808587513365687,-2.5267255941974085,2.2826809126087646,-1.017383877431051,0.23666195571422577
1708438177.7494335,-1.1068793535232544,-1.680857320825094,-2.526646439229147,2.282679720515869,-1.0174182097064417,0.2367040514945984
1708438177.7514617,-1.1068838834762573,-1.6808515987791957,-2.5266838709460657,2.28261844694104,-1.0173643271075647,0.23671884834766388
1708438177.7534552,-1.1068719625473022,-1.6809126339354457,-2.5266552607165735,2.2826358514973144,-1.0174182097064417,0.23671436309814453
1708438177.755437,-1.1068228483200073,-1.68089022258901,-2.5266385714160364,2.2826196390339355,-1.0173643271075647,0.2367187887430191
1708438177.7574828,-1.1068466901779175,-1.6808988056578578,-2.5266342798816126,2.282628222102783,-1.0173643271075647,0.23669347167015076
1708438177.7594354,-1.1068466901779175,-1.6809026203551234,-2.5266717115985315,2.2826077181049804,-1.0173776785479944,0.2367098480463028
1708438177.761447,-1.1068183183670044,-1.680918355981344,-2.5266671816455286,2.2826196390339355,-1.0173686186419886,0.23671437799930573
1708438177.7635176,-1.1068063974380493,-1.68089022258901,-2.526646439229147,2.282604380244873,-1.0173729101764124,0.23669186234474182
1708438177.7654622,-1.106831669807434,-1.680861612359518,-2.5266431013690394,2.2825421529957275,-1.0173404852496546,0.23681621253490448
1708438177.7674944,-1.1067944765090942,-1.6809307537474574,-2.5267046133624476,2.2825588422962646,-1.0173524061786097,0.23669196665287018
1708438177.7694616,-1.106836199760437,-1.6809750996031703,-2.5266850630389612,2.282550736064575,-1.0173819700824183,0.23675036430358887
1708438177.771439,-1.1067990064620972,-1.6809383831419886,-2.5266760031329554,2.282576485271118,-1.0173643271075647,0.23673845827579498
1708438177.773483,-1.106787085533142,-1.6809264622130335,-2.5266760031329554,2.282576485271118,-1.0173538366900843,0.23676231503486633
1708438177.7754512,-1.106796145439148,-1.6809679470457972,-2.5266671816455286,2.282571955318115,-1.0173314253436487,0.2367667704820633
1708438177.7776341,-1.1067535877227783,-1.6809469662108363,-2.5266597906695765,2.2825357156940917,-1.0173118750201624,0.23674139380455017
1708438177.7798657,-1.1067744493484497,-1.6809545956053675,-2.5266431013690394,2.282547636623047,-1.0173371473895472,0.23684434592723846
1708438177.7814288,-1.106796145439148,-1.6809264622130335,-2.5266431013690394,2.2825357156940917,-1.0173538366900843,0.23675322532653809
1708438177.7834523,-1.1067627668380737,-1.6809503040709437,-2.5265820662127894,2.282503290767334,-1.0173371473895472,0.23682188987731934
1708438177.7854505,-1.1067463159561157,-1.6809426746764125,-2.526651922856466,2.2825562196918945,-1.0172999540912073,0.23678940534591675
1708438177.7874973,-1.106796145439148,-1.6808845005431117,-2.5266431013690394,2.2825237947651367,-1.0173328558551233,0.23683522641658783
1708438177.7894442,-1.1067180633544922,-1.6809832058348597,-2.5266223589526575,2.282515211696289,-1.0173166433917444,0.23683525621891022
1708438177.7914426,-1.106767177581787,-1.6809545956053675,-2.5266059080706995,2.2825562196918945,-1.0172880331622522,0.2368430197238922
1708438177.793465,-1.1067627668380737,-1.6809784374632777,-2.5266597906695765,2.2824956613728027,-1.0172837416278284,0.23678940534591675
1708438177.7954328,-1.106759786605835,-1.680965086022848,-2.526607338582174,2.2824999529072265,-1.0173299948321741,0.23683404922485352
1708438177.7974446,-1.1067224740982056,-1.680925031701559,-2.5266385714160364,2.2825118738361816,-1.0173166433917444,0.23678940534591675
1708438177.799485,-1.1067715883255005,-1.6809784374632777,-2.5265985170947474,2.2824880319782714,-1.017275635396139,0.2368459403514862
1708438177.8014596,-1.106743335723877,-1.6809741459288539,-2.5266597906695765,2.2824925619312744,-1.0173209349261683,0.23685505986213684
1708438177.803499,-1.1067314147949219,-1.6810323200621546,-2.5266431013690394,2.2824386793323974,-1.0172727743731897,0.2368459552526474
1708438177.8054402,-1.1067314147949219,-1.6809784374632777,-2.526611868535177,2.2824603754230957,-1.0173371473895472,0.2368340790271759
1708438177.8074749,-1.1066951751708984,-1.6809946499266566,-2.526640001927511,2.2824594217487792,-1.017297093068258,0.23686236143112183
1708438177.809488,-1.1067239046096802,-1.6810113392271937,-2.526651922856466,2.282475634212158,-1.0172880331622522,0.23689550161361694
1708438177.811456,-1.1067285537719727,-1.6810184917845667,-2.526628080998556,2.2824548917957763,-1.017318073903219,0.2368459701538086
1708438177.8134804,-1.1067031621932983,-1.680965086022848,-2.5266147295581263,2.282463713283203,-1.0173047224627894,0.23684149980545044
1708438177.8154638,-1.1066652536392212,-1.6809960804381312,-2.52661639848818,2.28241936742749,-1.017301384602682,0.23687005043029785
1708438177.8174605,-1.1067030429840088,-1.681059022943014,-2.526635710393087,2.282435579890869,-1.0173047224627894,0.23687908053398132
1708438177.8194664,-1.1066861152648926,-1.681009431878561,-2.526619259511129,2.2824150758930664,-1.0172928015338343,0.23689104616641998
1708438177.8214526,-1.1066951751708984,-1.681026121179098,-2.5265985170947474,2.282463713283203,-1.0173090139972132,0.2368488609790802
1708438177.8234954,-1.1066995859146118,-1.6810022793211878,-2.526619259511129,2.2824441629597167,-1.0172889868365687,0.23688198626041412
1708438177.8254864,-1.1066995859146118,-1.681014200250143,-2.5265865961657923,2.2823826509663085,-1.0172517935382288,0.23688940703868866
1708438177.8274374,-1.1066876649856567,-1.6810184917845667,-2.5265982786761683,2.2824646669575195,-1.0172517935382288,0.23689386248588562
1708438177.829451,-1.1067041158676147,-1.6809693775572718,-2.526607338582174,2.282439871425293,-1.017275635396139,0.2368655651807785
1708438177.8314528,-1.1066741943359375,-1.6809889278807582,-2.526620690022604,2.282378597850464,-1.0172818342791956,0.23691190779209137
1708438177.833472,-1.1067166328430176,-1.680972238580221,-2.526611868535177,2.282411738032959,-1.017318073903219,0.23689387738704681
1708438177.8354402,-1.106629490852356,-1.6810170612730921,-2.526557747517721,2.2824203211018066,-1.0172770659076136,0.23693153262138367
1708438177.8374486,-1.1066951751708984,-1.6810394726195277,-2.526590887700216,2.28237430631604,-1.0172937552081507,0.2368939071893692
1708438177.8394845,-1.10667884349823,-1.6810342274107875,-2.526569906865255,2.2823871809193115,-1.0172770659076136,0.2368863970041275
1708438177.8414707,-1.1066741943359375,-1.6809889278807582,-2.526607338582174,2.2823871809193115,-1.0172727743731897,0.23686110973358154
1708438177.8434706,-1.1067122220993042,-1.6810218296446742,-2.5266147295581263,2.282399817104004,-1.0172980467425745,0.23690900206565857
1708438177.8454654,-1.1066594123840332,-1.68103088955068,-2.5265820662127894,2.2824160295673828,-1.0172236601458948,0.23694345355033875
1708438177.8474722,-1.1066638231277466,-1.6810275516905726,-2.526586357747213,2.2824041086384277,-1.0172517935382288,0.23691795766353607
1708438177.8494866,-1.1066594123840332,-1.681042810479635,-2.526569906865255,2.2823468881794433,-1.0172413031207483,0.2369343787431717
1708438177.8515153,-1.1066311597824097,-1.6810351810851039,-2.5266030470477503,2.282404823894165,-1.0172398726092737,0.2369057983160019
1708438177.8534367,-1.1066564321517944,-1.681096693078512,-2.526623789464132,2.2824293810078125,-1.0172489325152796,0.23691800236701965
1708438177.8554745,-1.1066012382507324,-1.681009431878561,-2.526562039052145,2.2823917108723144,-1.0172117392169397,0.2369598150253296
1708438177.8574607,-1.1066683530807495,-1.681042810479635,-2.5265799204455774,2.2823759752460937,-1.0172608534442347,0.2369762808084488
1708438177.859502,-1.1066311597824097,-1.6810633144774378,-2.526557747517721,2.282379313106201,-1.0172770659076136,0.23691795766353607
1708438177.8614793,-1.1066430807113647,-1.6809889278807582,-2.526599947606222,2.282367392177246,-1.0172236601458948,0.23689225316047668
1708438177.8634658,-1.1066519021987915,-1.680997987786764,-2.526620690022604,2.282355471248291,-1.0172398726092737,0.23692092299461365
1708438177.8654594,-1.1066073179244995,-1.6810184917845667,-2.526587788258688,2.2823964792438964,-1.0172699133502405,0.2369627207517624
1708438177.8674378,-1.1065902709960938,-1.6810342274107875,-2.526587788258688,2.2823640543171386,-1.0172398726092737,0.23699870705604553
1708438177.869466,-1.1066027879714966,-1.681056638757223,-2.526574436818258,2.282331629390381,-1.0172398726092737,0.2369418442249298
1708438177.871465,-1.106623649597168,-1.6810218296446742,-2.526616160069601,2.2823802667805175,-1.0172207991229456,0.2369135022163391
1708438177.8734698,-1.1066163778305054,-1.6810475788512171,-2.526562277470724,2.282327337855957,-1.0171878973590296,0.23693275451660156
1708438177.8754447,-1.1065738201141357,-1.6810385189452113,-2.5265710989581507,2.282355471248291,-1.0171836058246058,0.23690000176429749
1708438177.8774374,-1.106623649597168,-1.6810342274107875,-2.526620690022604,2.28237168371167,-1.0172250906573694,0.23692823946475983
1708438177.8794444,-1.106623649597168,-1.6810218296446742,-2.5265546480761927,2.2823564249226074,-1.0172131697284144,0.2369733303785324
1708438177.8814228,-1.1066073179244995,-1.6810757122435511,-2.526524845753805,2.2823640543171386,-1.0172041098224085,0.23693278431892395
1708438177.8834271,-1.1066399812698364,-1.681009431878561,-2.5265920797931116,2.2823239999958496,-1.0172341505633753,0.23701506853103638
1708438177.8854403,-1.106611728668213,-1.6810680828490199,-2.5265923182116907,2.2823359209248046,-1.0172413031207483,0.2369658350944519
1708438177.8874626,-1.1065946817398071,-1.6810924015440882,-2.526587788258688,2.2823564249226074,-1.0171921888934534,0.23699870705604553
1708438177.8894296,-1.1066327095031738,-1.681059022943014,-2.5265665690051478,2.282355471248291,-1.0172160307513636,0.2369626760482788
1708438177.891421,-1.1066038608551025,-1.6810499630370082,-2.526599947606222,2.282327337855957,-1.0171878973590296,0.2369823306798935
1708438177.893426,-1.1066163778305054,-1.6810342274107875,-2.5265710989581507,2.2823521333881835,-1.0172370115863245,0.23696887493133545
1708438177.8954198,-1.1065963506698608,-1.6810342274107875,-2.526550356541769,2.2823328214832763,-1.0172413031207483,0.23694023489952087
1708438177.897437,-1.106623649597168,-1.6809960804381312,-2.5265756289111536,2.282303495998047,-1.0172341505633753,0.23698973655700684
1708438177.8994386,-1.1066207885742188,-1.681054254571432,-2.5265501181231897,2.2823445039936523,-1.0172370115863245,0.2370138168334961
1708438177.901445,-1.1065665483474731,-1.681026121179098,-2.526583258305685,2.282266064281128,-1.0172012487994593,0.2369401603937149
1708438177.903442,-1.106591820716858,-1.6810203991331996,-2.5265756289111536,2.282294912929199,-1.0172088781939905,0.23702287673950195
1708438177.9054315,-1.1065963506698608,-1.6810876331725062,-2.5265501181231897,2.2823402124592285,-1.0172174612628382,0.2370392382144928
1708438177.907447,-1.106571078300476,-1.6810671291747035,-2.5265710989581507,2.2823359209248046,-1.017193619404928,0.23702283203601837
1708438177.9094548,-1.106571078300476,-1.6811024151244105,-2.5266297499286097,2.2822958666035156,-1.0171921888934534,0.23703479766845703
1708438177.9114223,-1.1066163778305054,-1.6810742817320765,-2.5265427271472376,2.2823359209248046,-1.0172131697284144,0.23700028657913208
1708438177.9134474,-1.1065127849578857,-1.6810633144774378,-2.5265637079821985,2.282341404552124,-1.017205540333883,0.2370138168334961
1708438177.9154358,-1.106559157371521,-1.6810318432249964,-2.5265665690051478,2.2822703558155517,-1.0171969572650355,0.23700489103794098
1708438177.9175236,-1.1065382957458496,-1.6810666523375453,-2.526574198399679,2.282287283534668,-1.0171969572650355,0.23701384663581848
1708438177.919448,-1.1065618991851807,-1.6810499630370082,-2.5265710989581507,2.2823197084614257,-1.0171893278705042,0.23700173199176788
1708438177.9214292,-1.1065963506698608,-1.6810757122435511,-2.5265427271472376,2.2823209005543212,-1.017226521168844,0.23700933158397675
1708438177.9234562,-1.1065635681152344,-1.6810409031310023,-2.5265844503985804,2.2822746473499755,-1.0171893278705042,0.23706339299678802
1708438177.9254508,-1.1066007614135742,-1.6810623608031214,-2.526545826588766,2.282237930888794,-1.0171802679644983,0.23702125251293182
1708438177.9274397,-1.1065725088119507,-1.6810580692686976,-2.5265725294696253,2.2822958666035156,-1.0171893278705042,0.2370048463344574
1708438177.9294913,-1.1065353155136108,-1.6810742817320765,-2.5265799204455774,2.2822553354450683,-1.017193619404928,0.23700779676437378
1708438177.9314384,-1.106547236442566,-1.6810981235899867,-2.5265384356128138,2.2822510439106445,-1.01719838777651,0.23705439269542694
1708438177.9334335,-1.1065353155136108,-1.6810819111266078,-2.526529375706808,2.2822422224232177,-1.0171812216388147,0.23703637719154358
1708438177.935481,-1.1065725088119507,-1.681054254571432,-2.5265799204455774,2.28229205190625,-1.0171516577350062,0.2370617389678955
1708438177.9374595,-1.1065188646316528,-1.6810251675047816,-2.526583258305685,2.282259626979492,-1.01719838777651,0.23702412843704224
1708438177.9394674,-1.1065353155136108,-1.6811071834959925,-2.5265308062182825,2.2822553354450683,-1.017193619404928,0.23707365989685059
1708438177.9414377,-1.106565237045288,-1.6811071834959925,-2.5265472571002405,2.2822553354450683,-1.017144028340475,0.2370482087135315
1708438177.9434714,-1.1065725088119507,-1.6811024151244105,-2.5265665690051478,2.2823166090198974,-1.017172638569967,0.23704533278942108
1708438177.9454377,-1.1065516471862793,-1.6810652218260707,-2.5265710989581507,2.282247706050537,-1.0171812216388147,0.23709772527217865
1708438177.947451,-1.1065397262573242,-1.6811233959593714,-2.5265844503985804,2.2822391229816894,-1.0171516577350062,0.2370932400226593
1708438177.949443,-1.1065442562103271,-1.6811071834959925,-2.5265756289111536,2.2823049265095214,-1.0171516577350062,0.23712757229804993
1708438177.9514337,-1.1065560579299927,-1.6810981235899867,-2.5265889803515833,2.2822229105183105,-1.017193619404928,0.23710231482982635
1708438177.95347,-1.1065154075622559,-1.6811148128905238,-2.5265710989581507,2.282251997584961,-1.017160717641012,0.2370482087135315
1708438177.9554896,-1.1065233945846558,-1.6811071834959925,-2.5265384356128138,2.28226821004834,-1.0171893278705042,0.23708100616931915
1708438177.9574807,-1.1065324544906616,-1.6810699901976527,-2.5265710989581507,2.28231327115979,-1.017172638569967,0.23709772527217865
1708438177.9594543,-1.106553316116333,-1.6811191044249476,-2.5265517870532435,2.2822064596363525,-1.017160717641012,0.23709775507450104
1708438177.9614816,-1.106466293334961,-1.6810862026610316,-2.526517454777853,2.282170220012329,-1.0171650091754358,0.23708102107048035
1708438177.9634564,-1.1065324544906616,-1.6811267338194789,-2.5265799204455774,2.282251997584961,-1.017160717641012,0.2370843142271042
1708438177.9654725,-1.1065154075622559,-1.68109192470693,-2.5265710989581507,2.2822326856800537,-1.017214600239889,0.23709772527217865
1708438177.9675121,-1.1065324544906616,-1.6811024151244105,-2.5265024344073694,2.2822326856800537,-1.0171893278705042,0.23715147376060486
1708438177.9694357,-1.1064543724060059,-1.681155344048971,-2.5265024344073694,2.2822488981434326,-1.0171530882464808,0.23710519075393677
1708438177.9714682,-1.1065441370010376,-1.6811357937254847,-2.5265398661242884,2.282170220012329,-1.017144028340475,0.23711256682872772
1708438177.9734554,-1.106512427330017,-1.6810981235899867,-2.526544157658712,2.2822488981434326,-1.017160717641012,0.2371424287557602
1708438177.9754586,-1.106466293334961,-1.6811100445189417,-2.5265546480761927,2.282223864192627,-1.01715594926943,0.23715022206306458
1708438177.9774632,-1.106466293334961,-1.6811472378172816,-2.5265219847308558,2.2821757036396484,-1.0171812216388147,0.2370765060186386
1708438177.9794204,-1.1064796447753906,-1.681100984612936,-2.5265634695636194,2.282162590617798,-1.017127815877096,0.23713351786136627
1708438177.9814198,-1.1064633131027222,-1.681063791314596,-2.526544157658712,2.2821833330341796,-1.0171354452716272,0.2370797097682953
1708438177.9834552,-1.1064647436141968,-1.6811672649779261,-2.5265100638019007,2.282208128566406,-1.017172638569967,0.2371920347213745
1708438177.9854326,-1.1064558029174805,-1.6810933552184046,-2.5265384356128138,2.2821757036396484,-1.0171516577350062,0.2371424436569214
1708438177.9874442,-1.1064633131027222,-1.681155344048971,-2.5265844503985804,2.2821432787128906,-1.0171850363360804,0.23713348805904388
1708438177.9894354,-1.1065258979797363,-1.6811267338194789,-2.5265920797931116,2.282179995174072,-1.017144028340475,0.23712894320487976
1708438177.9914289,-1.1064633131027222,-1.681100984612936,-2.5265384356128138,2.2821225362965087,-1.0171693007098597,0.23717400431632996
1708438177.9934945,-1.1064647436141968,-1.6811415157713832,-2.5265055338488978,2.2820581632801513,-1.0171859900103968,0.23715758323669434
1708438177.995456,-1.1064602136611938,-1.6811596355833949,-2.5265799204455774,2.282122774715088,-1.0171740690814417,0.237199068069458
1708438177.9974644,-1.1064859628677368,-1.6810833416380824,-2.5265472571002405,2.2821757036396484,-1.017167870198385,0.23716948926448822
1708438177.9994678,-1.1064438819885254,-1.681133886376852,-2.5265591780291956,2.2821594911762695,-1.0171812216388147,0.23717398941516876
1708438178.0014691,-1.106439471244812,-1.6811744175352992,-2.5265679995166224,2.282160444850586,-1.0171859900103968,0.23715752363204956
1708438178.0034935,-1.1064319610595703,-1.681150575677389,-2.5265844503985804,2.282144232387207,-1.0171650091754358,0.2371605932712555
1708438178.0054836,-1.1064859628677368,-1.681133886376852,-2.5265427271472376,2.2821108537861328,-1.0171783606158655,0.23714876174926758
1708438178.0074756,-1.1064647436141968,-1.68109192470693,-2.5265188852893274,2.282172365779541,-1.0171859900103968,0.23720231652259827
1708438178.009475,-1.1064319610595703,-1.6811181507506312,-2.5265353361712855,2.282132311458252,-1.017176930104391,0.23716051876544952
1708438178.011445,-1.1064319610595703,-1.681133886376852,-2.5265472571002405,2.282128019923828,-1.01715594926943,0.23724280297756195
1708438178.0134768,-1.1064143180847168,-1.68119539837026,-2.5265353361712855,2.282120628947876,-1.0171502272235315,0.23716950416564941
1708438178.0155194,-1.1063908338546753,-1.68119539837026,-2.5265353361712855,2.2821411329456787,-1.017148796712057,0.2372097373008728
1708438178.017525,-1.1064412593841553,-1.681216379205221,-2.5265427271472376,2.282120628947876,-1.0171812216388147,0.23723511397838593
1708438178.0194502,-1.1064531803131104,-1.6812030277647914,-2.5265472571002405,2.282094879741333,-1.017172638569967,0.23723064363002777
1708438178.0214524,-1.1064412593841553,-1.6811462841429652,-2.5265546480761927,2.2821079927631835,-1.017148796712057,0.2372395098209381
1708438178.0234869,-1.106360673904419,-1.6811939678587855,-2.5265234152423304,2.2821411329456787,-1.0171740690814417,0.23717981576919556
1708438178.02544,-1.1064412593841553,-1.6811090908446253,-2.5265560785876673,2.282099171275757,-1.0171693007098597,0.2371605783700943
1708438178.0274441,-1.1064319610595703,-1.6811157665648402,-2.5265472571002405,2.2821497160145263,-1.0171201864825647,0.2372216284275055
1708438178.029444,-1.106404185295105,-1.6812111339964808,-2.5265353361712855,2.282055063838623,-1.017127815877096,0.23720815777778625
1708438178.0314295,-1.1064071655273438,-1.6811982593932093,-2.5264771620379847,2.2820841509052734,-1.017193619404928,0.23721258342266083
1708438178.033466,-1.1064234972000122,-1.6811791859068812,-2.526505772267477,2.282062454814575,-1.0171812216388147,0.23721717298030853
1708438178.0354822,-1.1063789129257202,-1.6811911068358363,-2.5265682379352015,2.282034321422241,-1.017144028340475,0.23726671934127808
1708438178.0374904,-1.1063624620437622,-1.6811939678587855,-2.5265024344073694,2.2820917802998046,-1.0171321074115198,0.2371753752231598
1708438178.0394514,-1.106399655342102,-1.6811610660948695,-2.5265889803515833,2.2821335035511474,-1.0171693007098597,0.23724573850631714
1708438178.0414972,-1.1063833236694336,-1.6812268696227015,-2.5265265146838587,2.282099171275757,-1.017115894948141,0.2372007817029953
1708438178.0434928,-1.1063952445983887,-1.6812344990172328,-2.5265100638019007,2.2820917802998046,-1.0171454588519495,0.23717090487480164
1708438178.0455065,-1.1063624620437622,-1.6812063656248988,-2.5265560785876673,2.2820841509052734,-1.0171321074115198,0.23728308081626892
1708438178.0475025,-1.1063803434371948,-1.6811448536314906,-2.5265265146838587,2.28205053388562,-1.0171530882464808,0.23725318908691406
1708438178.0494561,-1.106375813484192,-1.6812030277647914,-2.5265100638019007,2.2820755678364257,-1.0171321074115198,0.23725765943527222
1708438178.051481,-1.1063878536224365,-1.6812359295287074,-2.5265353361712855,2.282015009517334,-1.017160717641012,0.2372203767299652
1708438178.0534816,-1.1063803434371948,-1.6812154255309046,-2.5265725294696253,2.2820755678364257,-1.0171516577350062,0.23724126815795898
1708438178.0555258,-1.1063966751098633,-1.6811701260008753,-2.5265308062182825,2.282101555461548,-1.0171859900103968,0.2372862994670868
1708438178.05771,-1.1063342094421387,-1.6812030277647914,-2.5264859835254114,2.2820603090473632,-1.0171740690814417,0.2372293472290039
1708438178.059506,-1.1063638925552368,-1.6812178097166957,-2.5265472571002405,2.2820722299763183,-1.01715594926943,0.23727726936340332
1708438178.0614958,-1.106343150138855,-1.6812550030150355,-2.5265560785876673,2.2820841509052734,-1.017193619404928,0.23727405071258545
1708438178.0634682,-1.1063475608825684,-1.6811891994872035,-2.5265308062182825,2.282026930446289,-1.0172026793109339,0.2372293472290039
1708438178.0654683,-1.1063008308410645,-1.6812855205931605,-2.5265560785876673,2.2820517259785156,-1.017144028340475,0.23724126815795898
1708438178.067461,-1.1063685417175293,-1.6811891994872035,-2.526511255894796,2.282085342998169,-1.0171321074115198,0.2372487187385559
1708438178.069507,-1.1063475608825684,-1.6812268696227015,-2.5265279451953333,2.2820440965839843,-1.0171354452716272,0.2372862994670868
1708438178.0714672,-1.106335163116455,-1.6812154255309046,-2.5265308062182825,2.282052918071411,-1.017127815877096,0.2372695803642273
1708438178.073463,-1.1063305139541626,-1.6812221012511195,-2.5264979044543665,2.282026930446289,-1.0171812216388147,0.23724870383739471
1708438178.0754483,-1.106343150138855,-1.6811939678587855,-2.5265725294696253,2.2820398050495605,-1.0171573797809046,0.23726053535938263
1708438178.077425,-1.1063096523284912,-1.681202074090475,-2.5265517870532435,2.2820278841206054,-1.01715594926943,0.23726511001586914
1708438178.079432,-1.1063395738601685,-1.6812178097166957,-2.5265145937549036,2.2820193010517578,-1.0171368757831019,0.23726055026054382
1708438178.0814342,-1.1063069105148315,-1.6812597713866175,-2.5265353361712855,2.282057209605835,-1.0171411673175257,0.23726053535938263
1708438178.0834463,-1.1063232421875,-1.681204458276266,-2.5265799204455774,2.282064600581787,-1.0171650091754358,0.23726056516170502
1708438178.0854821,-1.1063475608825684,-1.6812507114806117,-2.5265219847308558,2.282019777888916,-1.0172069708453577,0.23728184401988983
1708438178.0874803,-1.1062949895858765,-1.6811686954894007,-2.5265067259417933,2.2819222646900634,-1.0171902815448206,0.2372695952653885
1708438178.0894387,-1.1063157320022583,-1.6811729870238246,-2.5265560785876673,2.2819666105457763,-1.0171411673175257,0.23728184401988983
1708438178.091448,-1.10626220703125,-1.6812588177123011,-2.5265770594226282,2.28202406942334,-1.0171650091754358,0.2372891902923584
1708438178.093443,-1.106250286102295,-1.681225915948385,-2.5264859835254114,2.281987352962158,-1.017160717641012,0.23729819059371948
1708438178.095475,-1.1062994003295898,-1.6812497578062953,-2.5265308062182825,2.2819623190113525,-1.017144028340475,0.23731747269630432
1708438178.0974638,-1.1063655614852905,-1.6812178097166957,-2.5265398661242884,2.2820615011402587,-1.017160717641012,0.2372187227010727
1708438178.0994484,-1.1062994003295898,-1.6811806164183558,-2.5265844503985804,2.2820121484943847,-1.017144028340475,0.23724254965782166
1708438178.1014423,-1.106250286102295,-1.6811758480467738,-2.52656060854067,2.2820283609577636,-1.017148796712057,0.2373100221157074
1708438178.1035042,-1.1063038110733032,-1.6812550030150355,-2.5265756289111536,2.2819601732441406,-1.0171650091754358,0.23732976615428925
1708438178.1054814,-1.1062874794006348,-1.6812588177123011,-2.5265234152423304,2.282033606166504,-1.0171812216388147,0.23729665577411652
1708438178.1074998,-1.1062711477279663,-1.681221147576803,-2.5265188852893274,2.2819558817097167,-1.017205540333883,0.23730559647083282
1708438178.1094897,-1.1062726974487305,-1.6812392673888148,-2.5265679995166224,2.281979723567627,-1.0171454588519495,0.23728474974632263
1708438178.1114497,-1.106333613395691,-1.681225915948385,-2.5265145937549036,2.2819720941730957,-1.0171812216388147,0.23733101785182953
1708438178.1134686,-1.1062383651733398,-1.681286951104635,-2.5265188852893274,2.281951590175293,-1.0172026793109339,0.2373342216014862
1708438178.1154454,-1.1062473058700562,-1.6812588177123011,-2.5265308062182825,2.281947298640869,-1.0171530882464808,0.23729664087295532
1708438178.1174905,-1.106268048286438,-1.681254049340719,-2.5265100638019007,2.2819840151020507,-1.0171321074115198,0.23730558156967163
1708438178.119513,-1.1062979698181152,-1.6812178097166957,-2.5265637079821985,2.2819720941730957,-1.0171321074115198,0.23730851709842682
1708438178.121459,-1.1062936782836914,-1.6812368832030238,-2.5265067259417933,2.2819763857075195,-1.0171859900103968,0.23726385831832886
1708438178.1234658,-1.1062346696853638,-1.6812168560423792,-2.5265517870532435,2.2819525438496093,-1.017144028340475,0.237302765250206
1708438178.1254194,-1.1061902046203613,-1.6812368832030238,-2.526494805012838,2.281923933620117,-1.01715594926943,0.23734614253044128
1708438178.1274621,-1.1062607765197754,-1.681225915948385,-2.5265100638019007,2.2819525438496093,-1.017127815877096,0.23730559647083282
1708438178.1294188,-1.1062393188476562,-1.6812778911986292,-2.5265188852893274,2.281919403667114,-1.0171530882464808,0.23730558156967163
1708438178.131424,-1.1062109470367432,-1.6813036404051722,-2.5265679995166224,2.28198949872937,-1.0171368757831019,0.23731303215026855
1708438178.1334832,-1.1062018871307373,-1.6812659702696742,-2.5265234152423304,2.2819687563129882,-1.0171812216388147,0.23728761076927185
1708438178.135458,-1.106268048286438,-1.6812659702696742,-2.5265067259417933,2.2818988996693115,-1.0171740690814417,0.23727726936340332
1708438178.1375108,-1.1062517166137695,-1.6812449894347132,-2.5265188852893274,2.281923456782959,-1.0171664396869105,0.2373264580965042
1708438178.1394644,-1.1062018871307373,-1.6812497578062953,-2.5265067259417933,2.2818946081348876,-1.0172322432147425,0.23728182911872864
1708438178.1414294,-1.1062183380126953,-1.6812325916686,-2.5265679995166224,2.2819408613392334,-1.0171693007098597,0.23732197284698486
1708438178.1434786,-1.1062273979187012,-1.68127503017568,-2.5265234152423304,2.2818752962299804,-1.0171573797809046,0.23732975125312805
1708438178.1454446,-1.1062110662460327,-1.6812688312926234,-2.5265234152423304,2.2819644647785644,-1.0171573797809046,0.23725607991218567
1708438178.1474378,-1.1062572002410889,-1.6812120876707972,-2.5265353361712855,2.2819031912037353,-1.0171650091754358,0.2372802495956421
1708438178.149416,-1.1062273979187012,-1.681230207482809,-2.5265398661242884,2.281945152873657,-1.0171201864825647,0.23733100295066833
1708438178.1514332,-1.1061826944351196,-1.6812659702696742,-2.5265265146838587,2.2819408613392334,-1.0171693007098597,0.23731303215026855
1708438178.1534631,-1.1062726974487305,-1.681270261804098,-2.5265279451953333,2.2819151121326904,-1.0171411673175257,0.23730558156967163
1708438178.1554534,-1.1062273979187012,-1.6812731228270472,-2.5265234152423304,2.281904383296631,-1.0171039740191858,0.23731303215026855
1708438178.1574745,-1.106215476989746,-1.6813084087767542,-2.5265560785876673,2.281949444408081,-1.017176930104391,0.23730558156967163
1708438178.1594608,-1.1062079668045044,-1.6812168560423792,-2.5265145937549036,2.2819363313862304,-1.0172026793109339,0.23729664087295532
1708438178.1614377,-1.106187105178833,-1.681282182733053,-2.5265308062182825,2.2819525438496093,-1.01715594926943,0.2372802495956421
1708438178.1634598,-1.1062482595443726,-1.6813107929625453,-2.52659780183901,2.2818707662769775,-1.0171573797809046,0.23730111122131348
1708438178.1654587,-1.1062407493591309,-1.6812588177123011,-2.5265679995166224,2.281916304225586,-1.0172069708453577,0.23730847239494324
1708438178.1674967,-1.1062333583831787,-1.6812616787352503,-2.5265353361712855,2.2818752962299804,-1.0172069708453577,0.2372802495956421
1708438178.1694522,-1.106191635131836,-1.6812778911986292,-2.5265191237079065,2.2818915086933593,-1.0171573797809046,0.23727568984031677
1708438178.1714215,-1.1062124967575073,-1.681270261804098,-2.5265398661242884,2.281993790263794,-1.0171650091754358,0.23730558156967163
1708438178.1734612,-1.1061991453170776,-1.681254049340719,-2.5265679995166224,2.2818752962299804,-1.0171573797809046,0.23729366064071655
1708438178.1754394,-1.1062198877334595,-1.6812993488707484,-2.5265517870532435,2.281916304225586,-1.017148796712057,0.23729366064071655
1708438178.1774466,-1.106154441833496,-1.681270261804098,-2.5265067259417933,2.2819077211567382,-1.017148796712057,0.2373175024986267
1708438178.1794484,-1.10615074634552,-1.6812731228270472,-2.526511255894796,2.281883879298828,-1.017144028340475,0.23727726936340332
1708438178.1814437,-1.1061753034591675,-1.6812731228270472,-2.5264905134784144,2.281916304225586,-1.0171740690814417,0.23734614253044128
1708438178.1834748,-1.1062124967575073,-1.6812731228270472,-2.5265725294696253,2.281928225154541,-1.0171235243426722,0.2373550832271576
1708438178.1854436,-1.1061455011367798,-1.6812616787352503,-2.5265145937549036,2.2819205957600097,-1.01719838777651,0.23730847239494324
1708438178.187471,-1.1061753034591675,-1.6812325916686,-2.5265560785876673,2.2818795877644042,-1.0171530882464808,0.23732197284698486
1708438178.189442,-1.1061841249465942,-1.681315084496969,-2.5265234152423304,2.281904383296631,-1.017127815877096,0.23729664087295532
1708438178.1914177,-1.1061135530471802,-1.6812993488707484,-2.5265427271472376,2.2819205957600097,-1.0171859900103968,0.2373550832271576
1708438178.1934745,-1.1061753034591675,-1.681324144402975,-2.5265308062182825,2.281867666835449,-1.017160717641012,0.23729664087295532
1708438178.1954608,-1.1061344146728516,-1.6812688312926234,-2.5265398661242884,2.281855745906494,-1.0171902815448206,0.23732197284698486
1708438178.1974654,-1.1061768531799316,-1.681315084496969,-2.5265024344073694,2.2819368082233886,-1.0171650091754358,0.23732519149780273
1708438178.1994503,-1.1061933040618896,-1.6812731228270472,-2.5265188852893274,2.281826897258423,-1.0171368757831019,0.2372802495956421
1708438178.201452,-1.1061598062515259,-1.6813107929625453,-2.5265472571002405,2.281867666835449,-1.017106835042135,0.23732644319534302
1708438178.203486,-1.1062260866165161,-1.6812569103636683,-2.5265725294696253,2.2818967539020996,-1.0171650091754358,0.23731303215026855
1708438178.2055082,-1.1061797142028809,-1.6812616787352503,-2.52656060854067,2.2818686205097656,-1.0171812216388147,0.23730558156967163
1708438178.207465,-1.1061797142028809,-1.6812435589232386,-2.526544157658712,2.2818309503742675,-1.0171411673175257,0.2373175024986267
1708438178.2094893,-1.1061841249465942,-1.681352277795309,-2.5265265146838587,2.281839533443115,-1.0171693007098597,0.23726385831832886
1708438178.2114668,-1.1061463356018066,-1.6812483272948207,-2.5265069643603724,2.281826897258423,-1.0171573797809046,0.23732975125312805
1708438178.2134435,-1.1061724424362183,-1.6812926731505335,-2.5264933745013636,2.2818936544605712,-1.01715594926943,0.23732519149780273
1708438178.215463,-1.1061724424362183,-1.681331296960348,-2.5265517870532435,2.2818524080463867,-1.0171650091754358,0.23733869194984436
1708438178.2174954,-1.1061463356018066,-1.6813107929625453,-2.5265560785876673,2.2818354803272705,-1.0171812216388147,0.2373432070016861
1708438178.2195034,-1.106122612953186,-1.6812688312926234,-2.526499334965841,2.281855745906494,-1.0171650091754358,0.23727121949195862
1708438178.2214625,-1.1061599254608154,-1.6813346348204554,-2.5265799204455774,2.2818400102802734,-1.0171650091754358,0.2373175024986267
1708438178.2234704,-1.106139063835144,-1.6812974415221156,-2.5265472571002405,2.2818149763294677,-1.01719838777651,0.2372802495956421
1708438178.2254405,-1.1061841249465942,-1.6812974415221156,-2.5265234152423304,2.2818192678638916,-1.0171530882464808,0.23732200264930725
1708438178.2274325,-1.1061841249465942,-1.6813227138915003,-2.5265517870532435,2.2818354803272705,-1.0171368757831019,0.23727278411388397
1708438178.2294173,-1.1061887741088867,-1.6813093624510707,-2.5265682379352015,2.281844301814697,-1.0171530882464808,0.23735064268112183
1708438178.2314494,-1.1061135530471802,-1.6813179455199183,-2.5265427271472376,2.2818936544605712,-1.01709491411318,0.237268328666687
1708438178.2334754,-1.1060943603515625,-1.6812645397581996,-2.5265517870532435,2.2818118768879394,-1.0171321074115198,0.23726382851600647
1708438178.2354496,-1.1061434745788574,-1.6813270054259242,-2.5265069643603724,2.2818075853535156,-1.0171693007098597,0.23730111122131348
1708438178.2374628,-1.106101632118225,-1.6812902889647425,-2.5265517870532435,2.2818612295338134,-1.0171812216388147,0.23731008172035217
1708438178.2394578,-1.1061677932739258,-1.6812902889647425,-2.5265308062182825,2.281844301814697,-1.0171664396869105,0.23727279901504517
1708438178.2414827,-1.1061179637908936,-1.6813270054259242,-2.5265384356128138,2.2818149763294677,-1.0171573797809046,0.23736253380775452
1708438178.2434797,-1.1061553955078125,-1.6813179455199183,-2.5264859835254114,2.281852884883545,-1.0171740690814417,0.2373625636100769
1708438178.24549,-1.10615074634552,-1.6812735996642054,-2.5265024344073694,2.2818237978168945,-1.0171650091754358,0.23731748759746552
1708438178.2474973,-1.106110692024231,-1.6813670597472132,-2.5265145937549036,2.281798763866089,-1.017148796712057,0.23734617233276367
1708438178.2494562,-1.1061315536499023,-1.6812645397581996,-2.5265889803515833,2.2818354803272705,-1.0171249548541468,0.23734162747859955
1708438178.2514553,-1.106122612953186,-1.6812926731505335,-2.5265517870532435,2.281820459956787,-1.0171573797809046,0.23735959827899933
1708438178.253473,-1.1061478853225708,-1.6813270054259242,-2.5265563170062464,2.2818290430256347,-1.0171664396869105,0.237247034907341
1708438178.2554665,-1.1061687469482422,-1.6812688312926234,-2.5265265146838587,2.281798763866089,-1.017176930104391,0.23725925385951996
1708438178.257488,-1.1061643362045288,-1.6812974415221156,-2.5265353361712855,2.2818774419971923,-1.0172103087054651,0.23729367554187775
1708438178.2594647,-1.1061344146728516,-1.6812950573363246,-2.5265100638019007,2.28178255140271,-1.0171573797809046,0.2373461127281189
1708438178.2614605,-1.1061135530471802,-1.6813060245909632,-2.52656060854067,2.2818400102802734,-1.017148796712057,0.23729372024536133
1708438178.2634535,-1.106122612953186,-1.681347986260885,-2.526544157658712,2.2818192678638916,-1.0172026793109339,0.23730844259262085
1708438178.2654617,-1.1061813831329346,-1.6813346348204554,-2.5265398661242884,2.2818118768879394,-1.01719838777651,0.23729662597179413
1708438178.267518,-1.1061434745788574,-1.6813179455199183,-2.5265517870532435,2.2818075853535156,-1.0171812216388147,0.2372891902923584
1708438178.2694826,-1.1061315536499023,-1.681315084496969,-2.5265279451953333,2.2817794519611816,-1.0171321074115198,0.2373175024986267
1708438178.271461,-1.1061434745788574,-1.6812902889647425,-2.5265100638019007,2.2818030554005126,-1.0171693007098597,0.23731008172035217
1708438178.2734532,-1.1061643362045288,-1.6813060245909632,-2.5264979044543665,2.2818280893513183,-1.0171411673175257,0.23728762567043304
1708438178.2754307,-1.1061315536499023,-1.6813298664488734,-2.5265024344073694,2.2818149763294677,-1.0171650091754358,0.23730848729610443
1708438178.277469,-1.1061179637908936,-1.6812902889647425,-2.5265308062182825,2.281820459956787,-1.0171321074115198,0.2373342216014862
1708438178.279461,-1.1061315536499023,-1.6812569103636683,-2.5265308062182825,2.2818280893513183,-1.0171411673175257,0.23735064268112183
1708438178.2814453,-1.1061478853225708,-1.6812688312926234,-2.5265188852893274,2.281852884883545,-1.0171411673175257,0.2372921109199524
1708438178.283481,-1.1061598062515259,-1.6812602482237757,-2.5265398661242884,2.2818237978168945,-1.0171201864825647,0.23727566003799438
1708438178.2854443,-1.106144905090332,-1.6812950573363246,-2.5264859835254114,2.2817632394978027,-1.0171454588519495,0.23732201755046844
1708438178.2874436,-1.106127142906189,-1.6813107929625453,-2.5265308062182825,2.281869812602661,-1.0171321074115198,0.23728758096694946
1708438178.2894566,-1.106144905090332,-1.6812883816161097,-2.526544157658712,2.2818075853535156,-1.0171368757831019,0.23732200264930725
1708438178.291452,-1.106127142906189,-1.6812950573363246,-2.5265429655658167,2.281844301814697,-1.0171740690814417,0.23729662597179413
1708438178.2934444,-1.1061196327209473,-1.6813179455199183,-2.5265517870532435,2.281836672420166,-1.017144028340475,0.23726826906204224
1708438178.2954392,-1.1061434745788574,-1.6813179455199183,-2.5265067259417933,2.2817999559589843,-1.0171235243426722,0.23727117478847504
1708438178.297442,-1.106127142906189,-1.6813298664488734,-2.526544157658712,2.2818280893513183,-1.017144028340475,0.23731748759746552
1708438178.2994661,-1.1061315536499023,-1.6812883816161097,-2.5265308062182825,2.2818400102802734,-1.0171201864825647,0.23729208111763
1708438178.3014448,-1.1060749292373657,-1.6812769375243128,-2.5265234152423304,2.281848593349121,-1.0171874205218714,0.23734158277511597
1708438178.3035865,-1.1061434745788574,-1.6812902889647425,-2.5265472571002405,2.2818280893513183,-1.0171530882464808,0.2372802495956421
1708438178.3054698,-1.1061434745788574,-1.6813179455199183,-2.526544157658712,2.281852884883545,-1.0171530882464808,0.23730558156967163
1708438178.3074775,-1.1061478853225708,-1.6812974415221156,-2.5265353361712855,2.2818614679523925,-1.0171292463885706,0.23732072114944458
1708438178.3094566,-1.106156826019287,-1.6812526188292445,-2.5265279451953333,2.2817913728901367,-1.0171859900103968,0.2372920960187912
1708438178.3114536,-1.1061196327209473,-1.6812769375243128,-2.5265188852893274,2.2818524080463867,-1.0171249548541468,0.23734158277511597
1708438178.3134995,-1.1061122417449951,-1.6813017330565394,-2.5265219847308558,2.2818354803272705,-1.017148796712057,0.23730111122131348
1708438178.3155239,-1.1061553955078125,-1.6813212833800257,-2.5265799204455774,2.2818354803272705,-1.0171664396869105,0.23731005191802979
1708438178.3175304,-1.106202244758606,-1.6813346348204554,-2.5265679995166224,2.2817999559589843,-1.017127815877096,0.23732072114944458
1708438178.3194995,-1.106127142906189,-1.6813060245909632,-2.5265517870532435,2.2818149763294677,-1.0171502272235315,0.2373175024986267
1708438178.3214538,-1.1061359643936157,-1.6813227138915003,-2.5265188852893274,2.281832380885742,-1.0171201864825647,0.23731303215026855
1708438178.3234727,-1.1061687469482422,-1.6812974415221156,-2.5265234152423304,2.2817794519611816,-1.017127815877096,0.23734316229820251
1708438178.3254838,-1.1061062812805176,-1.6812859974303187,-2.5265308062182825,2.2818237978168945,-1.017148796712057,0.2373550832271576
1708438178.3274534,-1.106061577796936,-1.6813060245909632,-2.526581350957052,2.281798763866089,-1.0171945730792444,0.23730111122131348
1708438178.3294408,-1.1061285734176636,-1.6812645397581996,-2.5264902750598353,2.2817999559589843,-1.017148796712057,0.23731303215026855
1708438178.331457,-1.1061598062515259,-1.6813255749144496,-2.5265756289111536,2.2818192678638916,-1.0171573797809046,0.2372802495956421
1708438178.333438,-1.1061315536499023,-1.6813227138915003,-2.5265472571002405,2.281836672420166,-1.0171368757831019,0.23732975125312805
1708438178.3354466,-1.1060943603515625,-1.6812435589232386,-2.5265725294696253,2.2818280893513183,-1.0171859900103968,0.2373175024986267
1708438178.3374588,-1.1061933040618896,-1.6812993488707484,-2.5265234152423304,2.2817868429371337,-1.0171530882464808,0.23732519149780273
1708438178.3395069,-1.1061179637908936,-1.6812859974303187,-2.5265560785876673,2.2818452554890136,-1.0171945730792444,0.23734316229820251
1708438178.3414874,-1.1061524152755737,-1.6812836132445277,-2.5265188852893274,2.2818237978168945,-1.0171368757831019,0.23725929856300354
1708438178.343468,-1.1061359643936157,-1.6812645397581996,-2.5265770594226282,2.2818354803272705,-1.0171650091754358,0.23730847239494324
1708438178.3454764,-1.1061062812805176,-1.6812778911986292,-2.5265398661242884,2.281890316600464,-1.017148796712057,0.23728471994400024
1708438178.347445,-1.1061508655548096,-1.6813427410521449,-2.5265308062182825,2.2818075853535156,-1.0171454588519495,0.23727121949195862
1708438178.3494375,-1.1060971021652222,-1.6813093624510707,-2.5265637079821985,2.2818280893513183,-1.0171573797809046,0.23729953169822693
1708438178.3514302,-1.1061152219772339,-1.6813346348204554,-2.5264905134784144,2.281832380885742,-1.0171411673175257,0.23728471994400024
1708438178.353547,-1.106066107749939,-1.6813179455199183,-2.5265265146838587,2.281869812602661,-1.0171783606158655,0.23725929856300354
1708438178.3554742,-1.1061315536499023,-1.6813270054259242,-2.5265517870532435,2.2818118768879394,-1.0171249548541468,0.23734158277511597
1708438178.357523,-1.1060943603515625,-1.6812769375243128,-2.5265188852893274,2.2817794519611816,-1.0171783606158655,0.23729366064071655
1708438178.3594792,-1.106140375137329,-1.6812859974303187,-2.5265219847308558,2.2818075853535156,-1.0171664396869105,0.2373342216014862
1708438178.3614595,-1.1061522960662842,-1.6813298664488734,-2.5265560785876673,2.2818612295338134,-1.017148796712057,0.23730400204658508
1708438178.3634872,-1.106139063835144,-1.681331296960348,-2.5265472571002405,2.2818161684223632,-1.0171740690814417,0.23732975125312805
1708438178.365458,-1.1060868501663208,-1.6812778911986292,-2.526548687611715,2.2817999559589843,-1.0171573797809046,0.2373550832271576
1708438178.3675106,-1.1061196327209473,-1.6813017330565394,-2.5265398661242884,2.2818030554005126,-1.017148796712057,0.23732519149780273
1708438178.3694708,-1.1060987710952759,-1.6813227138915003,-2.5265234152423304,2.281848593349121,-1.017148796712057,0.23732519149780273
1708438178.3714347,-1.1061270236968994,-1.6813093624510707,-2.5265234152423304,2.2818118768879394,-1.0171321074115198,0.23734316229820251
1708438178.3734548,-1.1061643362045288,-1.6812931499876917,-2.5265725294696253,2.281874104137085,-1.017148796712057,0.23727568984031677
1708438178.3754625,-1.106127142906189,-1.6812731228270472,-2.5265067259417933,2.2817880350300292,-1.0171530882464808,0.23728761076927185
1708438178.3774383,-1.1061434745788574,-1.6812902889647425,-2.52656060854067,2.281820459956787,-1.0171530882464808,0.23730400204658508
1708438178.3794281,-1.1061524152755737,-1.6812602482237757,-2.5265188852893274,2.2818400102802734,-1.017176930104391,0.2372891902923584
1708438178.3814209,-1.1061478853225708,-1.6812859974303187,-2.5265472571002405,2.2818030554005126,-1.0171573797809046,0.23733869194984436
1708438178.3834357,-1.1060943603515625,-1.6813298664488734,-2.5265279451953333,2.2818612295338134,-1.017144028340475,0.23731303215026855
1708438178.3854244,-1.1061196327209473,-1.6813298664488734,-2.5265353361712855,2.2817913728901367,-1.0171826521502894,0.23729208111763
1708438178.3874357,-1.1061315536499023,-1.6813255749144496,-2.5265472571002405,2.281881733531616,-1.0171573797809046,0.23732975125312805
1708438178.3894346,-1.1061315536499023,-1.6813222370543421,-2.5265308062182825,2.281836672420166,-1.0171530882464808,0.23730400204658508
1708438178.3914285,-1.1061404943466187,-1.6812902889647425,-2.5265308062182825,2.281832380885742,-1.0171201864825647,0.2373371124267578
1708438178.3934367,-1.1061270236968994,-1.6812616787352503,-2.5265517870532435,2.2817675310322265,-1.0171573797809046,0.23730558156967163
1708438178.3954294,-1.106110692024231,-1.6812859974303187,-2.526581350957052,2.281852884883545,-1.0171573797809046,0.23734614253044128
1708438178.3974574,-1.1061359643936157,-1.6813222370543421,-2.5265353361712855,2.2818192678638916,-1.017111603413717,0.23729208111763
1708438178.3994257,-1.106110692024231,-1.6812974415221156,-2.5264979044543665,2.281852884883545,-1.0171368757831019,0.23732197284698486
1708438178.4014633,-1.1061947345733643,-1.681347986260885,-2.526544157658712,2.281852884883545,-1.0171573797809046,0.23732975125312805
1708438178.4035432,-1.1060943603515625,-1.6813298664488734,-2.5265279451953333,2.2818237978168945,-1.0171454588519495,0.23725929856300354
1708438178.4055095,-1.1061478853225708,-1.6813045940794886,-2.5265560785876673,2.2817837434956054,-1.017115894948141,0.23727121949195862
1708438178.4074838,-1.1060688495635986,-1.6813255749144496,-2.5265234152423304,2.2817999559589843,-1.0171321074115198,0.23730400204658508
1708438178.4094536,-1.1061404943466187,-1.6812616787352503,-2.5265234152423304,2.2817751604267578,-1.0171454588519495,0.23730847239494324
1708438178.411495,-1.1061033010482788,-1.6812945804991664,-2.5265517870532435,2.28188602506604,-1.0171082655536097,0.23727278411388397
1708438178.4134467,-1.1061315536499023,-1.6813270054259242,-2.5265308062182825,2.2817999559589843,-1.0171335379229944,0.23731303215026855
1708438178.4154716,-1.106197714805603,-1.681267877618307,-2.5264905134784144,2.281832380885742,-1.0171368757831019,0.23729664087295532
1708438178.4174912,-1.106110692024231,-1.6813470325865687,-2.5265679995166224,2.2818237978168945,-1.0171573797809046,0.23729664087295532
1708438178.4195125,-1.1061404943466187,-1.6813017330565394,-2.526532236729757,2.2817999559589843,-1.017099682484762,0.23736704885959625
1708438178.4214525,-1.106122612953186,-1.6812735996642054,-2.5265353361712855,2.281770630473755,-1.0171650091754358,0.23730847239494324
1708438178.423453,-1.1060988903045654,-1.6812058887877406,-2.5264859835254114,2.2818400102802734,-1.0171411673175257,0.23727566003799438
1708438178.425446,-1.1061732769012451,-1.6813136539854945,-2.5264979044543665,2.2818280893513183,-1.0171502272235315,0.23732975125312805
1708438178.4274569,-1.1061344146728516,-1.6812483272948207,-2.5265145937549036,2.281832380885742,-1.0171530882464808,0.23726829886436462
1708438178.4294276,-1.106197714805603,-1.6812735996642054,-2.5265472571002405,2.2818571764179687,-1.0171321074115198,0.23727121949195862
1708438178.4314294,-1.106110692024231,-1.6812859974303187,-2.5265067259417933,2.281852884883545,-1.0171039740191858,0.23731303215026855
1708438178.4334414,-1.1061344146728516,-1.6813107929625453,-2.5265725294696253,2.2817913728901367,-1.0171573797809046,0.2373550683259964
1708438178.4354267,-1.1061315536499023,-1.6813208065428675,-2.5265024344073694,2.2818524080463867,-1.0171454588519495,0.23728473484516144
1708438178.4374497,-1.1061298847198486,-1.6812945804991664,-2.5265219847308558,2.281747027034424,-1.017144028340475,0.2372802197933197
1708438178.439487,-1.106156826019287,-1.6812569103636683,-2.5265308062182825,2.2818280893513183,-1.0171502272235315,0.2373039424419403
1708438178.4414754,-1.1061315536499023,-1.6813227138915003,-2.5264979044543665,2.2818655210682373,-1.0171454588519495,0.23732975125312805
1708438178.4435003,-1.1060898303985596,-1.6813136539854945,-2.5265560785876673,2.2818612295338134,-1.0171454588519495,0.23735064268112183
1708438178.4454987,-1.1061434745788574,-1.681347986260885,-2.5265637079821985,2.281824751491211,-1.0171783606158655,0.23725160956382751
1708438178.4474783,-1.1060987710952759,-1.6813060245909632,-2.5265188852893274,2.2817880350300292,-1.0171502272235315,0.23731303215026855
1708438178.4494998,-1.106127142906189,-1.6813389263548792,-2.5264933745013636,2.2818354803272705,-1.0171859900103968,0.23728469014167786
1708438178.4514644,-1.1061478853225708,-1.6813298664488734,-2.5264814535724085,2.28184096395459,-1.0171335379229944,0.23732976615428925
1708438178.4534953,-1.1061887741088867,-1.6812645397581996,-2.5265634695636194,2.2818569379993896,-1.0171502272235315,0.23726828396320343
1708438178.4554644,-1.1061315536499023,-1.6813270054259242,-2.5265889803515833,2.281812830562256,-1.0171454588519495,0.23735350370407104
1708438178.4574869,-1.106127142906189,-1.6812859974303187,-2.5265279451953333,2.2818280893513183,-1.0171621481524866,0.23728471994400024
1708438178.459507,-1.106127142906189,-1.6812688312926234,-2.5265308062182825,2.2818612295338134,-1.017144028340475,0.2373342216014862
1708438178.4614966,-1.106139063835144,-1.6813556156554164,-2.5264814535724085,2.2818075853535156,-1.0171130339251917,0.23728762567043304
1708438178.4634874,-1.106127142906189,-1.6813389263548792,-2.5265100638019007,2.2818524080463867,-1.0171249548541468,0.23735064268112183
1708438178.4654875,-1.1061478853225708,-1.6813017330565394,-2.526581350957052,2.281852884883545,-1.0171530882464808,0.2373175024986267
1708438178.4674804,-1.106127142906189,-1.6812688312926234,-2.5265799204455774,2.281852884883545,-1.0171249548541468,0.23727570474147797
1708438178.4694924,-1.1060898303985596,-1.6813136539854945,-2.52656060854067,2.281844301814697,-1.0171621481524866,0.23727567493915558
1708438178.471571,-1.1061776876449585,-1.6812511883177699,-2.5265219847308558,2.281836672420166,-1.0171321074115198,0.23727726936340332
1708438178.4734688,-1.1061768531799316,-1.6813270054259242,-2.5265679995166224,2.2818400102802734,-1.0171454588519495,0.23728027939796448
1708438178.4755147,-1.106127142906189,-1.6812688312926234,-2.5265188852893274,2.2818524080463867,-1.0172117392169397,0.2372891902923584
1708438178.4774969,-1.106139063835144,-1.6813136539854945,-2.5265188852893274,2.2818237978168945,-1.0171321074115198,0.2373175323009491
1708438178.479444,-1.1061315536499023,-1.6813646755614222,-2.5265560785876673,2.2817956644245605,-1.0171201864825647,0.23731303215026855
1708438178.4814267,-1.1061478853225708,-1.6813470325865687,-2.5265353361712855,2.2818524080463867,-1.0171249548541468,0.2373175024986267
1708438178.4834614,-1.106139063835144,-1.6813389263548792,-2.5265472571002405,2.2818280893513183,-1.0171621481524866,0.23727285861968994
1708438178.485447,-1.1061732769012451,-1.6813179455199183,-2.5265844503985804,2.2818280893513183,-1.0171530882464808,0.237289160490036
1708438178.4874635,-1.1061478853225708,-1.6813556156554164,-2.5265188852893274,2.281848593349121,-1.0171573797809046,0.23728182911872864
1708438178.489447,-1.1061524152755737,-1.6813017330565394,-2.5265067259417933,2.2818686205097656,-1.0171650091754358,0.23735061287879944
1708438178.4914417,-1.106110692024231,-1.6812769375243128,-2.526532236729757,2.2818569379993896,-1.0171573797809046,0.23733100295066833
1708438178.4934418,-1.106127142906189,-1.6812483272948207,-2.5265560785876673,2.2818655210682373,-1.0171039740191858,0.2373175024986267
1708438178.4954622,-1.1061359643936157,-1.6812974415221156,-2.5265067259417933,2.2818655210682373,-1.0171411673175257,0.23732197284698486
1708438178.4974973,-1.106122612953186,-1.6813045940794886,-2.5265234152423304,2.2818118768879394,-1.0171082655536097,0.23733098804950714
1708438178.4994655,-1.1061315536499023,-1.6812688312926234,-2.5265725294696253,2.281869812602661,-1.0171201864825647,0.23730847239494324
1708438178.501435,-1.1062021255493164,-1.6812926731505335,-2.5265517870532435,2.2818893629261474,-1.0172069708453577,0.237268328666687
1708438178.5034492,-1.1061724424362183,-1.6812097034850062,-2.5265844503985804,2.2818612295338134,-1.0171082655536097,0.23729664087295532
1708438178.5055068,-1.106110692024231,-1.6813389263548792,-2.5265472571002405,2.2818161684223632,-1.0171693007098597,0.2372995913028717
1708438178.5074725,-1.1061478853225708,-1.681272645989889,-2.5264771620379847,2.281844301814697,-1.0171454588519495,0.23732975125312805
1708438178.5094655,-1.106122612953186,-1.6813627682127894,-2.5265024344073694,2.2818030554005126,-1.0171693007098597,0.23729208111763
1708438178.511437,-1.1061687469482422,-1.6812769375243128,-2.5265188852893274,2.281852884883545,-1.0171664396869105,0.23726385831832886
1708438178.513462,-1.106127142906189,-1.6812602482237757,-2.5265353361712855,2.2818237978168945,-1.0171573797809046,0.23730558156967163
1708438178.5154605,-1.106122612953186,-1.6813136539854945,-2.526548687611715,2.2818354803272705,-1.0171530882464808,0.23729208111763
1708438178.517523,-1.1061179637908936,-1.6812483272948207,-2.5265188852893274,2.281844301814697,-1.017148796712057,0.23727121949195862
1708438178.5194786,-1.1061687469482422,-1.6813627682127894,-2.5265265146838587,2.281820459956787,-1.0171621481524866,0.23729662597179413
1708438178.5214686,-1.1061434745788574,-1.6813298664488734,-2.5265517870532435,2.2818192678638916,-1.0171693007098597,0.23725929856300354
1708438178.523458,-1.1061598062515259,-1.6812793217101039,-2.5265384356128138,2.2817913728901367,-1.0171321074115198,0.2372802495956421
1708438178.5254707,-1.1060987710952759,-1.6813122234740199,-2.5265219847308558,2.2818354803272705,-1.017111603413717,0.2372802495956421
1708438178.5274324,-1.1061315536499023,-1.6813556156554164,-2.5265188852893274,2.2818237978168945,-1.0171368757831019,0.23730558156967163
1708438178.529436,-1.1061478853225708,-1.6813298664488734,-2.5265145937549036,2.2818075853535156,-1.0171321074115198,0.2372891902923584
1708438178.5314655,-1.1061359643936157,-1.6813255749144496,-2.5264816919909876,2.2818192678638916,-1.017160717641012,0.23730558156967163
1708438178.5334606,-1.1061152219772339,-1.6813627682127894,-2.5265591780291956,2.281770630473755,-1.0171368757831019,0.23732197284698486
1708438178.5354583,-1.1061643362045288,-1.6813584766783656,-2.5265637079821985,2.281836672420166,-1.017144028340475,0.23734772205352783
1708438178.5374594,-1.1061478853225708,-1.6813537083067835,-2.5265591780291956,2.281848593349121,-1.0171812216388147,0.237268328666687
1708438178.539471,-1.106144905090332,-1.6813513241209925,-2.5265472571002405,2.2817999559589843,-1.017144028340475,0.23731005191802979
1708438178.5414596,-1.1061524152755737,-1.6813246212401332,-2.5265353361712855,2.2818161684223632,-1.0171650091754358,0.23730111122131348
1708438178.5434692,-1.1061033010482788,-1.681404253045553,-2.5265799204455774,2.2818774419971923,-1.01715594926943,0.237352192401886
1708438178.5454285,-1.1061241626739502,-1.6813208065428675,-2.5265799204455774,2.2818075853535156,-1.0172026793109339,0.23729825019836426
1708438178.5474637,-1.1061404943466187,-1.681345125237936,-2.5265055338488978,2.2817956644245605,-1.0171354452716272,0.23734316229820251
1708438178.54943,-1.1060943603515625,-1.6813708744444789,-2.5265546480761927,2.2817999559589843,-1.017148796712057,0.23729366064071655
1708438178.5514455,-1.1061033010482788,-1.681333681146139,-2.5265384356128138,2.2818280893513183,-1.0171650091754358,0.23727279901504517
1708438178.5534713,-1.1060868501663208,-1.6813379726805628,-2.5265472571002405,2.2818237978168945,-1.01719838777651,0.23725482821464539
1708438178.5554895,-1.1060913801193237,-1.6813866100706996,-2.526587788258688,2.2818075853535156,-1.017160717641012,0.2372802197933197
1708438178.5574582,-1.106095790863037,-1.6813990078368128,-2.5265384356128138,2.2818643289753417,-1.017139736806051,0.23730269074440002
1708438178.5594633,-1.1060794591903687,-1.6812955341734828,-2.5265384356128138,2.2817837434956054,-1.017160717641012,0.237268328666687
1708438178.5614488,-1.1060794591903687,-1.6813527546324671,-2.5265100638019007,2.2817837434956054,-1.017176930104391,0.237268328666687
1708438178.5634894,-1.1060749292373657,-1.6813198528685511,-2.5265384356128138,2.2818118768879394,-1.0171516577350062,0.23735955357551575
1708438178.5654528,-1.106083869934082,-1.6813823185362757,-2.5265308062182825,2.2817999559589843,-1.017176930104391,0.23730559647083282
1708438178.5675192,-1.1060882806777954,-1.6814199886717738,-2.5265472571002405,2.2818617063709716,-1.0171650091754358,0.23728182911872864
1708438178.5694942,-1.1060340404510498,-1.681364198724264,-2.5265799204455774,2.281836672420166,-1.017176930104391,0.23732975125312805
1708438178.5714455,-1.1060267686843872,-1.6813775501646937,-2.5265799204455774,2.2817999559589843,-1.0171516577350062,0.23725605010986328
1708438178.5734437,-1.1060899496078491,-1.6814304790892542,-2.5265546480761927,2.2817837434956054,-1.017205540333883,0.23727566003799438
1708438178.5754917,-1.1060148477554321,-1.681422849694723,-2.526533905659811,2.2817718225666503,-1.017205540333883,0.23724713921546936
1708438178.577467,-1.1060431003570557,-1.6814094982542933,-2.5265710989581507,2.2817956644245605,-1.0172012487994593,0.23727287352085114
1708438178.5794673,-1.1059985160827637,-1.6814094982542933,-2.5265546480761927,2.2817718225666503,-1.0171921888934534,0.23727567493915558
1708438178.5814393,-1.1060073375701904,-1.681439062158102,-2.526587788258688,2.281731052989624,-1.0172174612628382,0.2373175173997879
1708438178.5834894,-1.1059702634811401,-1.6813599071898402,-2.5265756289111536,2.281792326564453,-1.017205540333883,0.23734614253044128
1708438178.5854611,-1.1059746742248535,-1.681364198724264,-2.5265591780291956,2.2817396360584716,-1.0172131697284144,0.2373039871454239
1708438178.5874426,-1.1059746742248535,-1.6814214191832484,-2.5265799204455774,2.2817653852650146,-1.0172012487994593,0.23726829886436462
1708438178.589432,-1.1060446500778198,-1.6813813648619593,-2.5265591780291956,2.2817041116901855,-1.0172503630267542,0.23730559647083282
1708438178.5914636,-1.1059880256652832,-1.6813932857909144,-2.526583258305685,2.2817727762409667,-1.0172088781939905,0.23726382851600647
1708438178.5934494,-1.105950117111206,-1.6813885174193324,-2.5265546480761927,2.281752749080322,-1.0172341505633753,0.23724713921546936
1708438178.595431,-1.1059709787368774,-1.6814123592772425,-2.5265710989581507,2.2817441660114746,-1.0172088781939905,0.23730847239494324
1708438178.5974329,-1.105997085571289,-1.6813961468138636,-2.5265923182116907,2.281670494670532,-1.0172489325152796,0.23732200264930725
1708438178.5994751,-1.1059845685958862,-1.6813842258849085,-2.526557747517721,2.281712694759033,-1.0172742048846644,0.2373550832271576
1708438178.6014404,-1.1059845685958862,-1.6814614735045375,-2.526599947606222,2.2816597658344726,-1.0172489325152796,0.2373175173997879
1708438178.6034606,-1.1059398651123047,-1.6814547977843226,-2.5265710989581507,2.2817084032246093,-1.0172279516803187,0.23729664087295532
1708438178.6054828,-1.1059184074401855,-1.6814662418761195,-2.526545826588766,2.2816387849995117,-1.0172565619098108,0.23732197284698486
1708438178.6075113,-1.105922818183899,-1.6814290485777796,-2.5265820662127894,2.2816428381153564,-1.0172446409808558,0.2373175173997879
1708438178.6095245,-1.1059274673461914,-1.6814705334105433,-2.526562277470724,2.281688852901123,-1.0173147360431116,0.23732519149780273
1708438178.6114688,-1.1059354543685913,-1.6814614735045375,-2.5265799204455774,2.2816240030476074,-1.0172889868365687,0.23734617233276367
1708438178.6135194,-1.105879306793213,-1.6814662418761195,-2.526550356541769,2.2816240030476074,-1.0172928015338343,0.2373175024986267
1708438178.61546,-1.105865716934204,-1.6814829311766566,-2.526604239140646,2.2816402155109863,-1.017346207295553,0.23732516169548035
1708438178.617453,-1.1058735847473145,-1.6815201244749964,-2.526545826588766,2.281616373653076,-1.017297093068258,0.23735061287879944
1708438178.6195,-1.1059291362762451,-1.681481500665182,-2.5265865961657923,2.281582756633423,-1.017313305531637,0.23732976615428925
1708438178.621499,-1.105879306793213,-1.6814891300597132,-2.526604239140646,2.2815958696552734,-1.0172713438617151,0.23734159767627716
1708438178.6234634,-1.1058090925216675,-1.681434770623678,-2.5265665690051478,2.2815796571918945,-1.017306152974264,0.23734158277511597
1708438178.625483,-1.1058063507080078,-1.6814471683897914,-2.5266087690936487,2.2815682131000976,-1.0172928015338343,0.23735347390174866
1708438178.6274445,-1.1057944297790527,-1.6814514599242152,-2.526611868535177,2.2815520006367187,-1.017280403767721,0.23729948699474335
1708438178.6294317,-1.1058152914047241,-1.6815067730345667,-2.526557747517721,2.2815238672443847,-1.017297093068258,0.237389475107193
1708438178.631419,-1.1058077812194824,-1.681509634057516,-2.526616160069601,2.2815400797077636,-1.017297093068258,0.2373490333557129
1708438178.6334612,-1.1058316230773926,-1.681530614892477,-2.526604239140646,2.2815443712421875,-1.0172880331622522,0.23737311363220215
1708438178.6354296,-1.1057298183441162,-1.6815339527525843,-2.526620690022604,2.2815043169208984,-1.0173166433917444,0.23736989498138428
1708438178.6374452,-1.105787992477417,-1.6815129719176234,-2.526541296635763,2.281475468272827,-1.017297093068258,0.23741498589515686
1708438178.6394937,-1.1057552099227905,-1.6815577946104945,-2.5265665690051478,2.2814885812946777,-1.0173299948321741,0.23738661408424377
1708438178.6414657,-1.1057521104812622,-1.6816073856749476,-2.526553217564718,2.281439943904541,-1.0173328558551233,0.23737604916095734
1708438178.6434927,-1.1057493686676025,-1.6815296612181605,-2.526587788258688,2.2814194399067382,-1.0173447767840784,0.23738059401512146
1708438178.6455014,-1.1057084798812866,-1.681589265862936,-2.526562039052145,2.281383677119873,-1.0173166433917444,0.23737606406211853
1708438178.6475127,-1.1056548357009888,-1.6815625629820765,-2.526562039052145,2.281416102046631,-1.0173657576190394,0.2373596727848053
1708438178.6495266,-1.1056236028671265,-1.681589265862936,-2.526583258305685,2.2813429075428466,-1.0173609892474573,0.23738791048526764
1708438178.6514637,-1.1056190729141235,-1.681629320184225,-2.526602808629171,2.2813753324696044,-1.0173118750201624,0.23736253380775452
1708438178.6535044,-1.1055617332458496,-1.681584974328512,-2.526602808629171,2.2813591200062255,-1.0173371473895472,0.2374284416437149
1708438178.6555035,-1.1056296825408936,-1.6815711460509242,-2.5265865961657923,2.28135268270459,-1.0173328558551233,0.23747053742408752
1708438178.6574624,-1.1055232286453247,-1.6816402874388636,-2.526607338582174,2.281320257777832,-1.0173986593829554,0.23750174045562744
1708438178.6594887,-1.105560541152954,-1.6816541157164515,-2.526628080998556,2.281308813686035,-1.0173657576190394,0.23750492930412292
1708438178.6614716,-1.1054542064666748,-1.6816860638060511,-2.5266311804400843,2.2812363344379882,-1.0173566977130335,0.23754937946796417
1708438178.6634622,-1.1054468154907227,-1.6816970310606898,-2.526623789464132,2.281224413509033,-1.0173810164081019,0.2375049591064453
1708438178.6654427,-1.1054267883300781,-1.6817594967284144,-2.526644531880514,2.2812082010456542,-1.0173566977130335,0.23749598860740662
1708438178.667436,-1.1053650379180908,-1.6817871532835902,-2.5266640822040003,2.2811600404926757,-1.0173729101764124,0.23755382001399994
1708438178.6694682,-1.105354905128479,-1.681732793847555,-2.5266266504870813,2.2811447817036132,-1.0173643271075647,0.2375824898481369
1708438178.671508,-1.105339527130127,-1.6817847690977992,-2.5266597906695765,2.281076117152832,-1.017376724873678,0.23759278655052185
1708438178.673441,-1.1052918434143066,-1.6818005047240199,-2.5266104380237024,2.2810608583637695,-1.0174139181720179,0.23759737610816956
1708438178.6754827,-1.1052725315093994,-1.681807657281393,-2.5266597906695765,2.2810608583637695,-1.0174091498004358,0.237592875957489
1708438178.677478,-1.1051989793777466,-1.6819097004332484,-2.5267120043383997,2.2809507089802246,-1.0174005667315882,0.23760798573493958
1708438178.6794596,-1.1051840782165527,-1.6818930111327113,-2.5266626516925257,2.2809597688862304,-1.017432991658346,0.23759159445762634
1708438178.6814325,-1.1050822734832764,-1.6819125614561976,-2.526724163685934,2.2809156614490966,-1.0174124876605433,0.23761533200740814
1708438178.6834626,-1.1050264835357666,-1.681955953637594,-2.526710573826925,2.280883713359497,-1.0174077192889612,0.2375989705324173
1708438178.6854322,-1.1049878597259521,-1.68204989055776,-2.52674371400942,2.280806465739868,-1.017449680958883,0.23770546913146973
1708438178.6874692,-1.1049301624298096,-1.6820908985533656,-2.5267391840564173,2.280792399043701,-1.017453972493307,0.23767104744911194
1708438178.6894295,-1.1048611402511597,-1.6820889912047328,-2.5267720858203333,2.2807599741169433,-1.0174244085894983,0.23772190511226654
1708438178.6914387,-1.104777216911316,-1.6821090183653773,-2.5267916361438196,2.280756636256836,-1.0174616018878382,0.23768740892410278
1708438178.6934566,-1.104726791381836,-1.6822029552855433,-2.5267751852618616,2.2806803423115234,-1.0174978415118616,0.23771734535694122
1708438178.6954427,-1.1046336889266968,-1.682216306725973,-2.5267916361438196,2.2806646066853027,-1.0174978415118616,0.2377156764268875
1708438178.697453,-1.1045470237731934,-1.6822692356505335,-2.526794497166769,2.280559702510498,-1.0175169149981897,0.2377234250307083
1708438178.6994388,-1.1044585704803467,-1.6823622188963832,-2.5268026033984583,2.280536337489746,-1.017512623463766,0.23773536086082458
1708438178.701464,-1.1043622493743896,-1.6823483906187953,-2.52682334581484,2.280451222057007,-1.017536465321676,0.23773981630802155
1708438178.70345,-1.1042336225509644,-1.682448526422018,-2.526839796696798,2.280472918147705,-1.0175274054156702,0.23784178495407104
1708438178.7054925,-1.1041505336761475,-1.6824261150755824,-2.5269251505481165,2.2803727823444824,-1.0175817648517054,0.23775911331176758
1708438178.707476,-1.1039817333221436,-1.6825233898558558,-2.5268545786487024,2.2802628713795166,-1.0175684134112757,0.23783735930919647
1708438178.7095058,-1.1038581132888794,-1.682608266870016,-2.5268877188311976,2.280211849803589,-1.0175965468036097,0.2378118634223938
1708438178.7114518,-1.10373854637146,-1.6827136478819789,-2.526943031941549,2.2800909715839843,-1.0176294485675257,0.2378401756286621
1708438178.7134795,-1.103531837463379,-1.6827436886229457,-2.526935640965597,2.279966278667114,-1.0176680723773401,0.23785658180713654
1708438178.715477,-1.1033320426940918,-1.6828013859190882,-2.526952091847555,2.2799007135578613,-1.017672363911764,0.2378806620836258
1708438178.7174506,-1.103176236152649,-1.6829248867430628,-2.526944700871603,2.2797154623218994,-1.0176757017718714,0.23785090446472168
1708438178.7194848,-1.1030128002166748,-1.6829825840392054,-2.526989761983053,2.279578371638916,-1.0176876227008265,0.2379165142774582
1708438178.7215092,-1.1028372049331665,-1.6830712757506312,-2.5270512739764612,2.279536648387573,-1.0177443663226526,0.23791489005088806
1708438178.7234643,-1.1025792360305786,-1.6832057438292445,-2.5271244684802454,2.279371424312256,-1.0177682081805628,0.23792386054992676
1708438178.7254727,-1.102416753768921,-1.6833216152586878,-2.5271199385272425,2.279223843211792,-1.0177925268756312,0.2379644364118576
1708438178.7274587,-1.1022207736968994,-1.6833182773985804,-2.5271440188037317,2.279099388713501,-1.0177505652057093,0.2379431277513504
1708438178.7294436,-1.1019561290740967,-1.6834937534727992,-2.527172390614645,2.2789439397999267,-1.0177958647357386,0.23797178268432617
1708438178.731432,-1.1017441749572754,-1.6835104427733363,-2.5271502176867884,2.27878920614209,-1.0178330580340784,0.23800459504127502
1708438178.7334373,-1.101475715637207,-1.6836191616454066,-2.5272236506091517,2.278578205699585,-1.0178239981280726,0.23801682889461517
1708438178.7354367,-1.10123610496521,-1.6837512455382289,-2.527276102696554,2.2784105974384765,-1.0178759733783167,0.2379910796880722
1708438178.7374263,-1.1009434461593628,-1.6839362583556117,-2.5272703806506556,2.2782677847095947,-1.017850701008932,0.23797762393951416
1708438178.739458,-1.1006920337677002,-1.683981557885641,-2.5273357073413294,2.2780889707752685,-1.0179155508624476,0.23809298872947693
1708438178.741482,-1.1003955602645874,-1.684129377404684,-2.5273478666888636,2.2778846460529785,-1.0179646650897425,0.2381007969379425
1708438178.743455,-1.1000183820724487,-1.6842957935728968,-2.527375046406881,2.277627869243286,-1.0179675261126917,0.23812910914421082
1708438178.7454293,-1.099751353263855,-1.6844140491881312,-2.5274365584002894,2.2773875433155517,-1.0180004278766077,0.23814257979393005
1708438178.7474391,-1.0993614196777344,-1.6845456562437953,-2.5274515787707728,2.277160568828247,-1.0180352369891565,0.2381814867258072
1708438178.749438,-1.099039077758789,-1.6847449741759242,-2.527529541646139,2.276928587550781,-1.0180676619159144,0.23818889260292053
1708438178.7514462,-1.0986870527267456,-1.6848947010436,-2.5275848547564905,2.276660605067871,-1.018120590840475,0.23822036385536194
1708438178.7534459,-1.0982816219329834,-1.6850410900511683,-2.527592484151022,2.2764336305805664,-1.0181801954852503,0.23822355270385742
1708438178.7555087,-1.097915768623352,-1.685265680352682,-2.5276270548449915,2.2760957914539794,-1.0182727018939417,0.23823098838329315
1708438178.7575035,-1.0974993705749512,-1.6854702434935511,-2.527707640324728,2.275763435954712,-1.0183523336993616,0.2382831573486328
