Eg3-git/Classifiers/Data Collection/u6/u6www3_ur3e_joint_states.csv
time,elbow_joint,shoulder_lift_joint,shoulder_pan_joint,wrist_1_joint,wrist_2_joint,wrist_3_joint
1708438143.339247,-1.1070075035095215,-1.6809588871397914,-2.52584416071047,2.2824646669575195,-1.0158236662494105,0.11388840526342392
1708438143.341248,-1.1069955825805664,-1.68090881923818,-2.5258153120623987,2.282407446498535,-1.0158279577838343,0.11390770226716995
1708438143.343242,-1.1069868803024292,-1.6809340916075648,-2.525835100804464,2.2824885088154296,-1.0157955328570765,0.11390022188425064
1708438143.3452642,-1.1070117950439453,-1.6809612713255824,-2.525839630757467,2.2824484544941406,-1.0158193747149866,0.11394233256578445
1708438143.3472712,-1.1070194244384766,-1.680974622766012,-2.525794569646017,2.282456083888672,-1.0157831350909632,0.11397509276866913
1708438143.3492606,-1.1069955825805664,-1.6809660396971644,-2.5258362928973597,2.2824722963520507,-1.0158441702472132,0.11391662061214447
1708438143.3512752,-1.1070367097854614,-1.6809703312315882,-2.525806490574972,2.2824441629597167,-1.0157955328570765,0.11394079029560089
1708438143.3532772,-1.1070237159729004,-1.6809693775572718,-2.525848690663473,2.28241936742749,-1.0157869497882288,0.11396162211894989
1708438143.3552718,-1.1070237159729004,-1.680920263329977,-2.525839630757467,2.282427950496338,-1.0157831350909632,0.11398246139287949
1708438143.357297,-1.1069912910461426,-1.6809784374632777,-2.5258153120623987,2.282427950496338,-1.015808407460348,0.11391662061214447
1708438143.3592625,-1.1070194244384766,-1.6809503040709437,-2.525810782109396,2.282423658961914,-1.0157788435565394,0.11391215771436691
1708438143.3612661,-1.1070356369018555,-1.680974622766012,-2.525782648717062,2.2824107843586425,-1.0158160368548792,0.11397062987089157
1708438143.3633482,-1.107051968574524,-1.6808916531004847,-2.525848452244894,2.282427950496338,-1.0158279577838343,0.11395716667175293
1708438143.3652592,-1.1069912910461426,-1.6809503040709437,-2.525778118764059,2.2824312883564453,-1.015820328389303,0.11399150639772415
1708438143.3672984,-1.1070117950439453,-1.6808959446349085,-2.525778118764059,2.2824441629597167,-1.0157464186297815,0.11392440646886826
1708438143.3692834,-1.1070324182510376,-1.6809503040709437,-2.52582294145693,2.282485170955322,-1.0158074537860315,0.11388693749904633
1708438143.371263,-1.1070767641067505,-1.6809503040709437,-2.5258362928973597,2.282391234035156,-1.0158041159259241,0.11391657590866089
1708438143.3732932,-1.107038974761963,-1.680925031701559,-2.5257707277881067,2.2824441629597167,-1.0158117453204554,0.11395870894193649
1708438143.3752549,-1.1070194244384766,-1.680925031701559,-2.525832001362936,2.2824322420307617,-1.0158041159259241,0.11395271122455597
1708438143.3772745,-1.1070032119750977,-1.680974622766012,-2.525832001362936,2.282447500819824,-1.0157631079303187,0.11391214281320572
1708438143.3794277,-1.1069856882095337,-1.6809426746764125,-2.5258033911334437,2.2824031549641113,-1.0157788435565394,0.1139824390411377
1708438143.3812485,-1.1069707870483398,-1.6809917889037074,-2.5257988611804407,2.282435579890869,-1.0158041159259241,0.1139378696680069
1708438143.3833034,-1.1070724725723267,-1.6809827289977015,-2.5258408228503626,2.28241936742749,-1.0158041159259241,0.1139497235417366
1708438143.38524,-1.106961965560913,-1.6809874973692835,-2.525782648717062,2.2825140196033935,-1.0158041159259241,0.11394079029560089
1708438143.387282,-1.1070356369018555,-1.6809293232359828,-2.5258122126208704,2.2824603754230957,-1.0157716909991663,0.11397355794906616
1708438143.389262,-1.1069825887680054,-1.6809007130064906,-2.5258362928973597,2.2824646669575195,-1.0157831350909632,0.11398248374462128
1708438143.391266,-1.107038974761963,-1.6809426746764125,-2.5257869402514856,2.2824150758930664,-1.0158246199237269,0.11390016973018646
1708438143.3932931,-1.1070064306259155,-1.6809131107726039,-2.5258241335498255,2.2824527460285644,-1.0157960096942347,0.1139824241399765
1708438143.3952637,-1.1070313453674316,-1.6809340916075648,-2.525745217000143,2.282439871425293,-1.0157759825335901,0.11397059261798859
1708438143.397276,-1.1070281267166138,-1.6808678112425746,-2.5258033911334437,2.2824722963520507,-1.0158041159259241,0.11393637955188751
1708438143.399329,-1.1070107221603394,-1.6809426746764125,-2.5258033911334437,2.2824765878864746,-1.015787426625387,0.11391546577215195
1708438143.4012694,-1.1070151329040527,-1.6808916531004847,-2.525810782109396,2.282423658961914,-1.0158289114581507,0.11389582604169846
1708438143.4033437,-1.1070064306259155,-1.6809050045409144,-2.52582294145693,2.2824722963520507,-1.0157673994647425,0.1139407753944397
1708438143.4052484,-1.1069902181625366,-1.6809631786742152,-2.525810782109396,2.282411738032959,-1.0157550016986292,0.11396162211894989
1708438143.4072888,-1.1070475578308105,-1.6809545956053675,-2.5257869402514856,2.2824765878864746,-1.0157759825335901,0.11397354304790497
1708438143.409247,-1.1070475578308105,-1.6809617481627406,-2.5258079210864466,2.2824484544941406,-1.0157845656024378,0.11392001062631607
1708438143.411242,-1.107063889503479,-1.6809293232359828,-2.5257869402514856,2.2824572759815673,-1.0157955328570765,0.11399763077497482
1708438143.4133735,-1.1070432662963867,-1.6809469662108363,-2.5258241335498255,2.282439871425293,-1.0157831350909632,0.1139824241399765
1708438143.4152646,-1.1070926189422607,-1.6809221706786097,-2.525810782109396,2.2824646669575195,-1.0157955328570765,0.11395269632339478
1708438143.4172916,-1.1070300340652466,-1.6809679470457972,-2.5258198420154017,2.282427950496338,-1.015759293233053,0.1139690950512886
1708438143.419266,-1.1070226430892944,-1.6809517345824183,-2.525778118764059,2.2824269968220214,-1.015820328389303,0.1139691174030304
1708438143.4212668,-1.1070475578308105,-1.6809588871397914,-2.5257869402514856,2.28241936742749,-1.0157917181598108,0.11399470269680023
1708438143.4233005,-1.1070270538330078,-1.680918355981344,-2.5257914702044886,2.2824322420307617,-1.015759293233053,0.11395271867513657
1708438143.425288,-1.1070551872253418,-1.6809383831419886,-2.5258079210864466,2.2824031549641113,-1.015759293233053,0.11396455019712448
1708438143.427305,-1.1070551872253418,-1.6809679470457972,-2.5258408228503626,2.2823826509663085,-1.0157716909991663,0.11392442882061005
1708438143.429256,-1.1070594787597656,-1.6809355221190394,-2.5257704893695276,2.2824322420307617,-1.015747372304098,0.11394524574279785
1708438143.4312735,-1.1070432662963867,-1.6808721027769984,-2.525860611592428,2.282463713283203,-1.0157759825335901,0.11396164447069168
1708438143.4332938,-1.107067584991455,-1.6809264622130335,-2.5258122126208704,2.282451792354248,-1.0158003012286585,0.11393634974956512
1708438143.4352636,-1.1070313453674316,-1.6809660396971644,-2.525757376347677,2.282439871425293,-1.0157139937030237,0.11395271867513657
1708438143.4372978,-1.107038974761963,-1.6809383831419886,-2.5258079210864466,2.2824603754230957,-1.0157464186297815,0.11394079774618149
1708438143.4392517,-1.1070301532745361,-1.6809784374632777,-2.525769297276632,2.2824312883564453,-1.0158003012286585,0.11395271867513657
1708438143.441254,-1.1070475578308105,-1.6809293232359828,-2.525766197835104,2.282468004817627,-1.0157759825335901,0.11396908760070801
1708438143.4432738,-1.10703444480896,-1.6809221706786097,-2.5257869402514856,2.2824441629597167,-1.015787426625387,0.11391545087099075
1708438143.4452362,-1.107038974761963,-1.6809307537474574,-2.5258541742907923,2.282447500819824,-1.0157960096942347,0.11394524574279785
1708438143.4472797,-1.107072114944458,-1.6809426746764125,-2.5257750193225306,2.282427950496338,-1.015747372304098,0.11400365829467773
1708438143.449248,-1.107083797454834,-1.6808935604491175,-2.5258362928973597,2.282423658961914,-1.0158041159259241,0.11393634974956512
1708438143.451294,-1.1070138216018677,-1.6809827289977015,-2.5257585684405726,2.282484217281006,-1.0157716909991663,0.11396454274654388
1708438143.453288,-1.107083797454834,-1.6809588871397914,-2.5257795492755335,2.2824594217487792,-1.0157759825335901,0.11391662806272507
1708438143.4552526,-1.107072114944458,-1.6809221706786097,-2.525782648717062,2.2824722963520507,-1.015731159840719,0.1139318197965622
1708438143.4572732,-1.1070926189422607,-1.6809383831419886,-2.5257750193225306,2.2824322420307617,-1.0158126989947718,0.11399140954017639
1708438143.4592645,-1.1071089506149292,-1.6809412441649378,-2.5257628599749964,2.282439871425293,-1.0157716909991663,0.11390773952007294
1708438143.4612672,-1.1070551872253418,-1.6809631786742152,-2.5258198420154017,2.2824885088154296,-1.0157716909991663,0.1140245571732521
1708438143.4633188,-1.107083797454834,-1.6809526882567347,-2.5258122126208704,2.2824441629597167,-1.015787426625387,0.11395716667175293
1708438143.465236,-1.1070420742034912,-1.6809960804381312,-2.525766197835104,2.282435579890869,-1.015747372304098,0.11395271867513657
1708438143.4672773,-1.1071001291275024,-1.6809221706786097,-2.5258286635028284,2.282447500819824,-1.0157673994647425,0.11395716667175293
1708438143.4692492,-1.1070914268493652,-1.6809426746764125,-2.5257914702044886,2.28237430631604,-1.0157716909991663,0.11399025470018387
1708438143.471264,-1.1071001291275024,-1.6809517345824183,-2.5257960001574915,2.282439871425293,-1.0158041159259241,0.11397800594568253
1708438143.4732535,-1.1070795059204102,-1.6809703312315882,-2.5257707277881067,2.2824646669575195,-1.015780274068014,0.11399023234844208
1708438143.475239,-1.1070095300674438,-1.6809050045409144,-2.5258620421039026,2.2824722963520507,-1.015787426625387,0.11397354304790497
1708438143.4772804,-1.1070752143859863,-1.6809174023070277,-2.5257540384875696,2.282456083888672,-1.0157716909991663,0.1139824241399765
1708438143.4792957,-1.1070138216018677,-1.6809221706786097,-2.5257869402514856,2.2824603754230957,-1.015780274068014,0.11393634974956512
1708438143.4812691,-1.1070506572723389,-1.6809050045409144,-2.5257795492755335,2.2824484544941406,-1.0157759825335901,0.11396007984876633
1708438143.4833164,-1.107067584991455,-1.6808892689146937,-2.5258365313159388,2.282435579890869,-1.0157673994647425,0.11391987651586533
1708438143.485308,-1.1070588827133179,-1.6808935604491175,-2.5258079210864466,2.282485170955322,-1.0157759825335901,0.1139199510216713
1708438143.48728,-1.10703444480896,-1.6809026203551234,-2.5258153120623987,2.282407446498535,-1.0157635847674769,0.1139199510216713
1708438143.4892588,-1.107095718383789,-1.6809050045409144,-2.5257628599749964,2.282456083888672,-1.015808407460348,0.11395716667175293
1708438143.4912584,-1.1070795059204102,-1.6809307537474574,-2.5258079210864466,2.282479925746582,-1.015759293233053,0.11393178254365921
1708438143.4932632,-1.107088327407837,-1.6809007130064906,-2.5258079210864466,2.282407446498535,-1.0157917181598108,0.11397805064916611
1708438143.495242,-1.1070588827133179,-1.6809455356993617,-2.5257869402514856,2.282447500819824,-1.0157673994647425,0.1139870136976242
1708438143.4972565,-1.1070301532745361,-1.6809140644469203,-2.5258241335498255,2.282423658961914,-1.0157716909991663,0.11399024724960327
1708438143.4993215,-1.1070914268493652,-1.680913587609762,-2.525782648717062,2.2824668127247314,-1.0157464186297815,0.11390022188425064
1708438143.501297,-1.1070709228515625,-1.6809026203551234,-2.525782648717062,2.2824224668690185,-1.0157344977008265,0.11396608501672745
1708438143.5033398,-1.1071045398712158,-1.6809092960753382,-2.52584416071047,2.2824928003498535,-1.0157960096942347,0.11397062987089157
1708438143.5053248,-1.107070803642273,-1.6808849773802699,-2.5257707277881067,2.282475634212158,-1.0157635847674769,0.11394079029560089
1708438143.5073113,-1.107082724571228,-1.6809092960753382,-2.525766197835104,2.2824722963520507,-1.015759293233053,0.11394370347261429
1708438143.509288,-1.1071282625198364,-1.6809050045409144,-2.525782648717062,2.282463713283203,-1.0158041159259241,0.11399025470018387
1708438143.511292,-1.1071033477783203,-1.6809350452818812,-2.525782648717062,2.2824925619312744,-1.0157550016986292,0.11393632739782333
1708438143.5133047,-1.1071076393127441,-1.680918355981344,-2.5258362928973597,2.28241936742749,-1.015808407460348,0.11394233256578445
1708438143.5153131,-1.1070839166641235,-1.680918355981344,-2.525782648717062,2.2824484544941406,-1.0157716909991663,0.11392886936664581
1708438143.5173144,-1.1071239709854126,-1.680861612359518,-2.5257988611804407,2.2824181753345947,-1.015787426625387,0.11392886936664581
1708438143.5193293,-1.1071271896362305,-1.680920263329977,-2.5257914702044886,2.2824722963520507,-1.015787426625387,0.11396612972021103
1708438143.5213163,-1.1071401834487915,-1.6809140644469203,-2.525835100804464,2.2824312883564453,-1.0158160368548792,0.11392440646886826
1708438143.5232973,-1.1071326732635498,-1.6809026203551234,-2.525801960621969,2.2825087743946533,-1.0157673994647425,0.11392886936664581
1708438143.52525,-1.1071401834487915,-1.680913587609762,-2.5258198420154017,2.2824548917957763,-1.0158289114581507,0.11393332481384277
1708438143.527263,-1.107094645500183,-1.6808811626830042,-2.5258353392230433,2.282475634212158,-1.015820328389303,0.11393628269433975
1708438143.5292482,-1.1071033477783203,-1.6809607944884242,-2.5258167425738733,2.282536669368408,-1.0157955328570765,0.11390019208192825
1708438143.5312383,-1.1071553230285645,-1.680918355981344,-2.525794569646017,2.2824956613728027,-1.0157788435565394,0.113949716091156
1708438143.5332787,-1.1071510314941406,-1.6808935604491175,-2.52579909959902,2.2824506002613525,-1.0158527533160608,0.11391372978687286
1708438143.5352867,-1.1071314811706543,-1.680915971795553,-2.525827471409933,2.282479448909424,-1.0157955328570765,0.11389878392219543
1708438143.537237,-1.1071521043777466,-1.6808740101256312,-2.525832001362936,2.282564802760742,-1.0157998243915003,0.11390021443367004
1708438143.5392625,-1.1071348190307617,-1.6808530292906703,-2.5258408228503626,2.282491369838379,-1.015848461781637,0.1139211654663086
1708438143.541235,-1.1071510314941406,-1.6808649502196253,-2.52579909959902,2.2825638490864257,-1.0157788435565394,0.11389120668172836
1708438143.543238,-1.1071434020996094,-1.6808167896666468,-2.525769297276632,2.282515211696289,-1.0157702604876917,0.11394678801298141
1708438143.5453005,-1.1071184873580933,-1.6808740101256312,-2.525827471409933,2.2825237947651367,-1.015860382710592,0.11388833820819855
1708438143.5472589,-1.1071022748947144,-1.6808301411070765,-2.525832001362936,2.282531424159668,-1.0157507101642054,0.11389128118753433
1708438143.5492873,-1.1071553230285645,-1.6807767353453578,-2.5258122126208704,2.282559557552002,-1.0158441702472132,0.11393918097019196
1708438143.551264,-1.1071553230285645,-1.6807900867857875,-2.525864903126852,2.2825957971760253,-1.0158279577838343,0.11387611925601959
1708438143.5532703,-1.107191562652588,-1.6807776890196742,-2.525790039693014,2.2825676637836914,-1.0158279577838343,0.11387169361114502
1708438143.5552702,-1.1071184873580933,-1.6807629070677699,-2.525782648717062,2.2826401430317382,-1.0158193747149866,0.11391374468803406
1708438143.557273,-1.1070934534072876,-1.6807991466917933,-2.525810782109396,2.2826239305683593,-1.0158236662494105,0.11386875063180923
1708438143.5592558,-1.10715913772583,-1.6807629070677699,-2.5257988611804407,2.282616301173828,-1.0158560911761683,0.113843634724617
1708438143.5612805,-1.1071391105651855,-1.680765768090719,-2.525832001362936,2.2825872141071777,-1.0158599058734339,0.11383748054504395
1708438143.5633416,-1.1071348190307617,-1.680758615533346,-2.5258362928973597,2.2826153474995117,-1.0158279577838343,0.11381208896636963
1708438143.5652993,-1.1071796417236328,-1.6807791195311488,-2.525835100804464,2.2826196390339355,-1.0158475081073206,0.11380010098218918
1708438143.5672648,-1.1071841716766357,-1.6807300053038539,-2.525827471409933,2.2826639848896484,-1.0158441702472132,0.11384646594524384
1708438143.569236,-1.1071186065673828,-1.6807266674437464,-2.525848690663473,2.282644434566162,-1.0158279577838343,0.11383288353681564
1708438143.5713074,-1.1071841716766357,-1.6807176075377406,-2.5258753935443323,2.2826401430317382,-1.0158432165728968,0.11382107436656952
1708438143.5732763,-1.1071510314941406,-1.6807881794371546,-2.5258353392230433,2.282602234477661,-1.015860382710592,0.11380001902580261
1708438143.5752885,-1.1071841716766357,-1.680734773675436,-2.525860373173849,2.2825957971760253,-1.0158441702472132,0.11382271349430084
1708438143.5772598,-1.1071597337722778,-1.680692812005514,-2.525827471409933,2.282606764430664,-1.0158799330340784,0.11381079256534576
1708438143.5792584,-1.1071722507476807,-1.6807300053038539,-2.525810782109396,2.2826153474995117,-1.0158684889422815,0.11380171775817871
1708438143.5812886,-1.1071465015411377,-1.6808082065977992,-2.525856081639425,2.2826894956776123,-1.0159037748919886,0.11378050595521927
1708438143.5832946,-1.107125997543335,-1.680746694604391,-2.52584416071047,2.282628222102783,-1.0158713499652308,0.11376406252384186
1708438143.5852454,-1.1072078943252563,-1.6807481251158656,-2.525818649922506,2.282668276424072,-1.0158470312701624,0.11382273584604263
1708438143.5872586,-1.107228398323059,-1.6807853184142054,-2.525893274937765,2.2826766210743408,-1.0159195105182093,0.11377763748168945
1708438143.5892706,-1.107162356376648,-1.6807109318175257,-2.525851551686422,2.2827047544666748,-1.0159443060504358,0.1137537956237793
1708438143.5912457,-1.1072111129760742,-1.6807643375792445,-2.525839630757467,2.2826596933552246,-1.0159075895892542,0.1137583777308464
1708438143.5932717,-1.1071797609329224,-1.6807300053038539,-2.5258470217334192,2.2826592165180664,-1.0159314314471644,0.1137821301817894
1708438143.595252,-1.1071991920471191,-1.6807433567442835,-2.5258308092700403,2.282679720515869,-1.0159476439105433,0.11375053226947784
1708438143.5972848,-1.1071785688400269,-1.6807300053038539,-2.525806490574972,2.2826554018208007,-1.0159671942340296,0.11370005458593369
1708438143.5992978,-1.1072317361831665,-1.680774827996725,-2.52586800256838,2.2827316957661132,-1.0159552733050745,0.11373443901538849
1708438143.6012633,-1.1072392463684082,-1.6807600460448207,-2.5258634726153772,2.282679720515869,-1.0159476439105433,0.11367600411176682
1708438143.6032772,-1.1072068214416504,-1.6807881794371546,-2.525835100804464,2.282691641444824,-1.0159347693072718,0.11376278102397919
1708438143.6052456,-1.1072098016738892,-1.6807881794371546,-2.525839630757467,2.282707853908203,-1.0159271399127405,0.11372995376586914
1708438143.6072817,-1.1072518825531006,-1.680704256097311,-2.525818649922506,2.2826787668415527,-1.0159466902362269,0.11369716376066208
1708438143.6092477,-1.1072187423706055,-1.68078674892568,-2.525872294102804,2.2827035623737792,-1.0159671942340296,0.11368203163146973
1708438143.6112406,-1.1072430610656738,-1.6807557545103968,-2.525893274937765,2.282719774837158,-1.015958611165182,0.11375246196985245
1708438143.6133134,-1.1072386503219604,-1.6808001003661097,-2.5258799234973353,2.2827316957661132,-1.016003433858053,0.1136910542845726
1708438143.6153045,-1.107279896736145,-1.6807881794371546,-2.5258470217334192,2.2827648359486084,-1.016031567250387,0.11367297172546387
1708438143.6172945,-1.1072754859924316,-1.680746694604391,-2.525884215031759,2.282709999675415,-1.016003433858053,0.11366114020347595
1708438143.6192846,-1.1072874069213867,-1.6807552776732386,-2.5258217493640345,2.2827347952076416,-1.0160358587848108,0.1136656254529953
1708438143.621282,-1.1073049306869507,-1.6807600460448207,-2.5258665720569056,2.282759352321289,-1.0159948507892054,0.1136488988995552
1708438143.6232667,-1.1072993278503418,-1.6808225117125453,-2.525851551686422,2.2827767568775634,-1.0160229841815394,0.11365795135498047
1708438143.6252546,-1.107254981994629,-1.6807495556273402,-2.5258308092700403,2.282726212138794,-1.0160229841815394,0.11365795135498047
1708438143.627278,-1.1072680950164795,-1.6807061634459437,-2.525896135960714,2.282783194179199,-1.0160306135760706,0.11366691440343857
1708438143.629255,-1.107283115386963,-1.6807671986021937,-2.525851551686422,2.2828079897114257,-1.0160110632525843,0.1135595291852951
1708438143.6312404,-1.107279896736145,-1.6807133160033167,-2.525912586842672,2.2827669817158203,-1.0160468260394495,0.11362514644861221
1708438143.6332407,-1.1073318719863892,-1.680709024468893,-2.5259295145617884,2.282815619105957,-1.0160554091082972,0.11364755779504776
1708438143.6352475,-1.1072756052017212,-1.680746694604391,-2.5258291403399866,2.282831831569336,-1.0160425345050257,0.11359681934118271
1708438143.6372619,-1.107265830039978,-1.680676122704977,-2.525916878377096,2.282803698177002,-1.0160797278033655,0.1135774627327919
1708438143.63925,-1.1072711944580078,-1.6807671986021937,-2.5258992354022425,2.282869263286255,-1.0161078611956995,0.11358642578125
1708438143.6412344,-1.1072993278503418,-1.680734773675436,-2.5259116331683558,2.2828563886829834,-1.016094986592428,0.11358489841222763
1708438143.643275,-1.1073112487792969,-1.6807719669737757,-2.5259080568896692,2.2828563886829834,-1.0161078611956995,0.11356554180383682
1708438143.6452744,-1.1072907447814941,-1.680741926232809,-2.5259607473956507,2.2828144270130615,-1.0161078611956995,0.1135774627327919
1708438143.6472774,-1.1072993278503418,-1.6807643375792445,-2.5258992354022425,2.2828683096119384,-1.0161317030536097,0.11352048814296722
1708438143.649314,-1.107296109199524,-1.6807109318175257,-2.525940004979269,2.2828475671955566,-1.016094986592428,0.11351313441991806
1708438143.6512907,-1.107336163520813,-1.680746694604391,-2.525984589253561,2.2828306394764404,-1.016094986592428,0.11352211982011795
1708438143.6533086,-1.107283115386963,-1.6807433567442835,-2.526029650365011,2.282797260875366,-1.016123119984762,0.11352214217185974
1708438143.6553078,-1.107261300086975,-1.6807357273497523,-2.525975767766134,2.2828594881245117,-1.0160940329181116,0.11350537091493607
1708438143.6572874,-1.1073145866394043,-1.6807018719115199,-2.526012961064474,2.28288118421521,-1.0161145369159144,0.11354007571935654
1708438143.659278,-1.1073188781738281,-1.6807481251158656,-2.5259996096240442,2.282838984126709,-1.0161102453814905,0.11348609626293182
1708438143.6612508,-1.1073100566864014,-1.6806937656798304,-2.5260162989245813,2.2828714090534667,-1.0161436239825647,0.11346673965454102
1708438143.6632912,-1.107335090637207,-1.6807838879027308,-2.5259953180896204,2.282839460963867,-1.0161426703082483,0.11351146548986435
1708438143.6653209,-1.1073477268218994,-1.6807061634459437,-2.5260074774371546,2.2828563886829834,-1.0161588827716272,0.11344585567712784
1708438143.667266,-1.1073594093322754,-1.6807643375792445,-2.5260029474841517,2.2828351694294433,-1.016200367604391,0.11345777660608292
1708438143.6692803,-1.1073508262634277,-1.6807552776732386,-2.5260356108294886,2.282839460963867,-1.0161469618426722,0.11349058151245117
1708438143.671319,-1.1073627471923828,-1.6807176075377406,-2.5260029474841517,2.2828845220753173,-1.016163174306051,0.11348314583301544
1708438143.6733074,-1.1073757410049438,-1.6807309589781703,-2.5260239283191126,2.2828520971485595,-1.0161917845355433,0.11345481872558594
1708438143.6752565,-1.1073100566864014,-1.6807109318175257,-2.5260029474841517,2.282789631480835,-1.0161665121661585,0.1134696751832962
1708438143.6772864,-1.1073670387268066,-1.6807853184142054,-2.526080910359518,2.282850905055664,-1.0162113348590296,0.11345481872558594
1708438143.6792903,-1.1073431968688965,-1.6807266674437464,-2.5259953180896204,2.2828962045856933,-1.0161946455584925,0.11345930397510529
1708438143.6812956,-1.1073713302612305,-1.6807152233519496,-2.526015106831686,2.2829081255146484,-1.0162232557879847,0.11343395709991455
1708438143.683315,-1.1073713302612305,-1.6806818447508753,-2.5259700457202356,2.2828475671955566,-1.0162275473224085,0.11342620849609375
1708438143.6853204,-1.1073789596557617,-1.6807152233519496,-2.5260313192950647,2.282867117519043,-1.0162676016436976,0.11340241134166718
1708438143.687309,-1.1073014736175537,-1.6807433567442835,-2.5260029474841517,2.2829200464436035,-1.0162351767169397,0.11343967914581299
1708438143.6893222,-1.1073639392852783,-1.6807109318175257,-2.5260403792010706,2.2828432756611328,-1.0162223021136683,0.113418810069561
1708438143.691329,-1.1073845624923706,-1.6807390652098597,-2.5260313192950647,2.2828423219868164,-1.0162180105792444,0.11338281631469727
1708438143.6932693,-1.1073832511901855,-1.6807061634459437,-2.5259862581836146,2.282911463374756,-1.016254727040426,0.11339497566223145
1708438143.6952636,-1.1073219776153564,-1.6807400188841761,-2.5260313192950647,2.282855196590088,-1.0162952581988733,0.1133873239159584
1708438143.6972888,-1.1073713302612305,-1.6807195148863734,-2.5260401407824915,2.2829531866260986,-1.0162995497332972,0.11339953541755676
1708438143.6992733,-1.1073551177978516,-1.6807357273497523,-2.5259862581836146,2.2828995424458007,-1.0162742773639124,0.11339180916547775
1708438143.7012677,-1.1073477268218994,-1.6807853184142054,-2.526048008595602,2.2829319673725585,-1.01628286043276,0.11339957267045975
1708438143.7032847,-1.1073639392852783,-1.6807481251158656,-2.5259862581836146,2.282883329982422,-1.0162628332721155,0.11341138184070587
1708438143.7052941,-1.1073594093322754,-1.6807195148863734,-2.526043478642599,2.2828542429157714,-1.0162671248065394,0.11342039704322815
1708438143.707295,-1.1073832511901855,-1.6807357273497523,-2.5260613600360315,2.2828995424458007,-1.016249958668844,0.11335001140832901
1708438143.7092595,-1.1073508262634277,-1.6807390652098597,-2.5260358492480677,2.2829276758381347,-1.0162866751300257,0.11336640268564224
1708438143.7112567,-1.1073346138000488,-1.6807896099486292,-2.525998655949728,2.282867117519043,-1.0162995497332972,0.11337088793516159
1708438143.7133074,-1.1073344945907593,-1.6807152233519496,-2.5260358492480677,2.282867117519043,-1.0162952581988733,0.11338730156421661
1708438143.715279,-1.1073964834213257,-1.6806775532164515,-2.526026789342062,2.2829276758381347,-1.0163114706622522,0.11335189640522003
1708438143.7172706,-1.1073832511901855,-1.6807018719115199,-2.526026789342062,2.282883329982422,-1.0162909666644495,0.11337976157665253
1708438143.7192712,-1.1073757410049438,-1.6807686291136683,-2.526026789342062,2.2828215795704345,-1.01634389558901,0.11334729194641113
1708438143.721296,-1.1073594093322754,-1.6807061634459437,-2.526072088872091,2.282890959376953,-1.0163310209857386,0.11339178681373596
1708438143.723259,-1.1073259115219116,-1.6807433567442835,-2.526048008595602,2.2828995424458007,-1.0163071791278284,0.11339613795280457
1708438143.7252328,-1.1073583364486694,-1.6807223759093226,-2.5260465780841272,2.28284661352124,-1.0163558165179651,0.11334288865327835
1708438143.7272718,-1.1073713302612305,-1.6807805500426234,-2.5260356108294886,2.282968445415161,-1.0163267294513147,0.11331716179847717
1708438143.729264,-1.107399582862854,-1.6807300053038539,-2.526039187108175,2.2828380304523925,-1.0163386503802698,0.11329777538776398
1708438143.731265,-1.1073919534683228,-1.6807342968382777,-2.5260630289660853,2.282874746913574,-1.0163105169879358,0.1133589893579483
1708438143.7332814,-1.1073627471923828,-1.6807433567442835,-2.526026789342062,2.282838984126709,-1.0163796583758753,0.11337538063526154
1708438143.7352479,-1.1073702573776245,-1.6807061634459437,-2.526067558919088,2.2828995424458007,-1.0163138548480433,0.11334729194641113
1708438143.7372687,-1.1073431968688965,-1.6807433567442835,-2.526059929524557,2.282890959376953,-1.0163829962359827,0.11330974102020264
1708438143.7392566,-1.1073670387268066,-1.6807109318175257,-2.5260959307300013,2.2828983503529052,-1.0164035002337855,0.11337536573410034
1708438143.7412481,-1.1073832511901855,-1.6807266674437464,-2.526104752217428,2.28284661352124,-1.016322437916891,0.11329782754182816
1708438143.743266,-1.1073431968688965,-1.6806565723814906,-2.5260630289660853,2.2828866678425292,-1.0163949171649378,0.11339177936315536
1708438143.7452528,-1.1073919534683228,-1.6808015308775843,-2.526125733052389,2.282862825984619,-1.01636249223818,0.11337974667549133
1708438143.747287,-1.1073670387268066,-1.6806894741454066,-2.526109282170431,2.2829276758381347,-1.0163915793048304,0.11335450410842896
1708438143.749273,-1.1073670387268066,-1.6807018719115199,-2.5260749498950403,2.282890959376953,-1.0163419882403772,0.1133563220500946
1708438143.7512715,-1.1073508262634277,-1.6807643375792445,-2.5261648336993616,2.2828380304523925,-1.0163710753070276,0.11333054304122925
1708438143.7533095,-1.1073801517486572,-1.6806804142394007,-2.5261405150042933,2.282883329982422,-1.0163710753070276,0.11335185170173645
1708438143.755275,-1.1073757410049438,-1.6807476482787074,-2.5261693636523646,2.2828542429157714,-1.016346279774801,0.11333844065666199
1708438143.757291,-1.1073389053344727,-1.6807152233519496,-2.5261483828174036,2.2828704553791503,-1.0163548628436487,0.11334729194641113
1708438143.7592933,-1.1073508262634277,-1.680734773675436,-2.52614409128298,2.2828714090534667,-1.0162976423846644,0.1133141815662384
1708438143.7612784,-1.1073464155197144,-1.6807061634459437,-2.5261271635638636,2.282867117519043,-1.0163548628436487,0.11335897445678711
1708438143.7633147,-1.1073508262634277,-1.6807018719115199,-2.526160542164938,2.282874746913574,-1.0162857214557093,0.11334289610385895
1708438143.7652612,-1.1073302030563354,-1.6807309589781703,-2.526101891194479,2.282907171840332,-1.0163429419146937,0.11333844065666199
1708438143.767242,-1.1073670387268066,-1.6807357273497523,-2.5261316935168665,2.2828585344501953,-1.0163872877704065,0.1133563220500946
1708438143.7692778,-1.1073594093322754,-1.6807719669737757,-2.5261152426349085,2.2828704553791503,-1.016374413167135,0.11332622915506363
1708438143.7712913,-1.107399582862854,-1.6807924709715785,-2.5261107126819056,2.282862825984619,-1.0163376967059534,0.11334291100502014
1708438143.7732987,-1.1073757410049438,-1.6807390652098597,-2.5261812845813196,2.2829319673725585,-1.0163582007037562,0.11330682039260864
1708438143.7752583,-1.1073344945907593,-1.6807028255858363,-2.5261932055102747,2.282902880305908,-1.0163863340960901,0.11331874132156372
1708438143.7772956,-1.1073551177978516,-1.6807433567442835,-2.52614409128298,2.2828542429157714,-1.0163787047015589,0.11334729194641113
1708438143.7793064,-1.1073757410049438,-1.6807524166502894,-2.5261359850512903,2.282944603557251,-1.0163949171649378,0.1133141815662384
1708438143.7812645,-1.1073508262634277,-1.6806804142394007,-2.5261359850512903,2.2828304010578613,-1.0163987318622034,0.11333960294723511
1708438143.7832828,-1.1073713302612305,-1.6807109318175257,-2.5261107126819056,2.2828585344501953,-1.016390625630514,0.11332032084465027
1708438143.7852538,-1.107374668121338,-1.6807481251158656,-2.5261109511004847,2.2829319673725585,-1.0163777510272425,0.11333057284355164
1708438143.7872503,-1.1073464155197144,-1.6807481251158656,-2.5261109511004847,2.2828799921223144,-1.0163901487933558,0.1133563220500946
1708438143.7892528,-1.1073713302612305,-1.6807719669737757,-2.5261648336993616,2.2828304010578613,-1.0164268652545374,0.11335185170173645
1708438143.7912462,-1.1073302030563354,-1.6807152233519496,-2.52613073984255,2.282911463374756,-1.0164149443255823,0.11330682039260864
1708438143.7932558,-1.1073594093322754,-1.6807061634459437,-2.526101891194479,2.2828799921223144,-1.0164387861834925,0.11333060264587402
1708438143.795255,-1.1073219776153564,-1.6808015308775843,-2.5261152426349085,2.2829200464436035,-1.0164149443255823,0.11337974667549133
1708438143.7972887,-1.1073670387268066,-1.6806360683836878,-2.526085440312521,2.282867117519043,-1.0164030233966272,0.11334729194641113
1708438143.7993214,-1.1072971820831299,-1.6807176075377406,-2.5261314550982874,2.2829362589069824,-1.0163820425616663,0.11333960294723511
1708438143.8012917,-1.1073307991027832,-1.6806937656798304,-2.526139561329977,2.2828542429157714,-1.0164192358600062,0.11330976337194443
1708438143.8033557,-1.1073964834213257,-1.6807671986021937,-2.5261152426349085,2.2829243379780273,-1.0164192358600062,0.11334729194641113
1708438143.805283,-1.1073026657104492,-1.6807600460448207,-2.5261240641223353,2.282895250911377,-1.0164030233966272,0.11331415921449661
1708438143.807278,-1.1073802709579468,-1.680692812005514,-2.526156012211935,2.282895250911377,-1.0164030233966272,0.11333055794239044
1708438143.8092837,-1.1073307991027832,-1.6807223759093226,-2.5260987917529505,2.282874746913574,-1.0164149443255823,0.11334727704524994
1708438143.811274,-1.1073476076126099,-1.6807266674437464,-2.526184145604269,2.2829081255146484,-1.0163944403277796,0.1133563444018364
1708438143.813312,-1.1073713302612305,-1.680741926232809,-2.526139561329977,2.2829038339802246,-1.0164192358600062,0.11333055794239044
1708438143.8153005,-1.1073431968688965,-1.6807924709715785,-2.526060406361715,2.282862825984619,-1.0163701216327112,0.11333393305540085
1708438143.8173113,-1.1073508262634277,-1.6807671986021937,-2.5261226336108606,2.282862825984619,-1.0163777510272425,0.11333964020013809
1708438143.8192506,-1.1072570085525513,-1.6807342968382777,-2.5261557737933558,2.2828637796589355,-1.0164225737201136,0.11335897445678711
1708438143.8212955,-1.1073477268218994,-1.6807390652098597,-2.5261486212359827,2.2829081255146484,-1.0164030233966272,0.11331415921449661
1708438143.8232553,-1.1073219776153564,-1.6806894741454066,-2.526101891194479,2.282874746913574,-1.0163944403277796,0.11327663064002991
1708438143.8252475,-1.1073477268218994,-1.6807309589781703,-2.526184145604269,2.2828714090534667,-1.016352955495016,0.1133216843008995
1708438143.8272767,-1.1073431968688965,-1.6806937656798304,-2.5261152426349085,2.282867117519043,-1.0164106527911585,0.11334291845560074
1708438143.829257,-1.107306957244873,-1.6807853184142054,-2.5261722246753138,2.2828714090534667,-1.0164311567889612,0.11336079239845276
1708438143.8312838,-1.1073145866394043,-1.6807600460448207,-2.5261107126819056,2.2828799921223144,-1.01642352739443,0.11336084455251694
1708438143.833267,-1.1073477268218994,-1.680746694604391,-2.5261061827289026,2.2828432756611328,-1.0164268652545374,0.11333057284355164
1708438143.8352623,-1.1073188781738281,-1.6807309589781703,-2.5261064211474817,2.2828876215168457,-1.0164592901812952,0.11332766711711884
1708438143.8372853,-1.1073026657104492,-1.6807881794371546,-2.5261271635638636,2.282883329982422,-1.0164311567889612,0.11332166194915771
1708438143.8392525,-1.1073145866394043,-1.6807671986021937,-2.5261152426349085,2.2828757005878906,-1.0163901487933558,0.11333055794239044
1708438143.8412378,-1.1072864532470703,-1.6807390652098597,-2.5261271635638636,2.282817764873169,-1.0164192358600062,0.1133563295006752
1708438143.8432653,-1.1073100566864014,-1.680746694604391,-2.5261359850512903,2.2828637796589355,-1.016390625630514,0.11334291100502014
1708438143.845265,-1.107278823852539,-1.6807133160033167,-2.5261240641223353,2.2828757005878906,-1.0164225737201136,0.11337246745824814
1708438143.8472693,-1.107306957244873,-1.6807266674437464,-2.526118342076437,2.2828995424458007,-1.016407314931051,0.11335185170173645
1708438143.8492765,-1.1072907447814941,-1.6808258495726527,-2.52614409128298,2.2828594881245117,-1.0164030233966272,0.11327213048934937
1708438143.8512855,-1.1073188781738281,-1.6807719669737757,-2.5261107126819056,2.2828432756611328,-1.016435448323385,0.11331872642040253
1708438143.8533263,-1.107261300086975,-1.680746694604391,-2.526163403187887,2.2828263479420166,-1.0163734594928187,0.1133141815662384
1708438143.8552868,-1.1072863340377808,-1.680709024468893,-2.5261107126819056,2.282928629512451,-1.01642352739443,0.11333058029413223
1708438143.857314,-1.1073275804519653,-1.6807671986021937,-2.5261648336993616,2.2828962045856933,-1.0163820425616663,0.11330681294202805
1708438143.859285,-1.1073112487792969,-1.68072571376943,-2.5261226336108606,2.28290502607312,-1.0163820425616663,0.1133679449558258
1708438143.8612807,-1.1073156595230103,-1.6807719669737757,-2.5261152426349085,2.282893105144165,-1.0164311567889612,0.11334729939699173
1708438143.863307,-1.1073275804519653,-1.6807433567442835,-2.5261316935168665,2.2828683096119384,-1.0164473692523401,0.11334729194641113
1708438143.8652678,-1.1072744131088257,-1.680746694604391,-2.5260987917529505,2.2828475671955566,-1.01642352739443,0.1133216843008995
1708438143.867298,-1.107295036315918,-1.680671831170553,-2.5261314550982874,2.2828594881245117,-1.0164149443255823,0.11335450410842896
1708438143.8692772,-1.1072462797164917,-1.6807266674437464,-2.526160542164938,2.2828220564075927,-1.0164559523211878,0.11330980062484741
1708438143.8713202,-1.1072711944580078,-1.6807552776732386,-2.5261197725879114,2.2828263479420166,-1.0163901487933558,0.11333844065666199
1708438143.8732905,-1.1072624921798706,-1.6807805500426234,-2.5261064211474817,2.2828101354786376,-1.0163944403277796,0.11330235004425049
1708438143.8752837,-1.1072624921798706,-1.6807671986021937,-2.526069227849142,2.2828563886829834,-1.0164225737201136,0.11334407329559326
1708438143.8773024,-1.1072386503219604,-1.6807481251158656,-2.5261064211474817,2.282855196590088,-1.016407314931051,0.11331412941217422
1708438143.8792639,-1.1072217226028442,-1.6807433567442835,-2.526156012211935,2.2828101354786376,-1.0164192358600062,0.1133396178483963
1708438143.8812711,-1.1072711944580078,-1.6807481251158656,-2.526135269795553,2.2828232485004882,-1.0164430777179163,0.11329340934753418
1708438143.8833017,-1.107279896736145,-1.6807643375792445,-2.5260780493365687,2.282848044032715,-1.0164020697223108,0.1133633553981781
1708438143.8852687,-1.1072635650634766,-1.6807719669737757,-2.5261109511004847,2.2828232485004882,-1.0164225737201136,0.11334729194641113
1708438143.887327,-1.1072473526000977,-1.6807342968382777,-2.526160542164938,2.2828232485004882,-1.0164030233966272,0.11335897445678711
1708438143.8892756,-1.1072561740875244,-1.6807629070677699,-2.5261197725879114,2.282754107112549,-1.0163658300982874,0.11333392560482025
1708438143.8912647,-1.1072304248809814,-1.6807762585081996,-2.5261648336993616,2.2827581602283935,-1.0164192358600062,0.11338430643081665
1708438143.8932831,-1.1072349548339844,-1.6807176075377406,-2.5261693636523646,2.282815619105957,-1.0164149443255823,0.11335001140832901
1708438143.89527,-1.1072230339050293,-1.6807223759093226,-2.52613073984255,2.282815619105957,-1.0164149443255823,0.11333057284355164
1708438143.8973217,-1.1072392463684082,-1.680720945397848,-2.5261271635638636,2.2827626901813964,-1.01642352739443,0.11334291100502014
1708438143.8992703,-1.1072317361831665,-1.6807061634459437,-2.526118342076437,2.282755060786865,-1.016407314931051,0.11335450410842896
1708438143.9012706,-1.1072111129760742,-1.6807924709715785,-2.5261064211474817,2.2827679353901367,-1.016440216694967,0.11337974667549133
1708438143.9032965,-1.1072518825531006,-1.6807390652098597,-2.5261197725879114,2.2827974992939453,-1.0164149443255823,0.11334729194641113
1708438143.9052835,-1.1072230339050293,-1.6807357273497523,-2.526113812123434,2.2827231126972656,-1.0164397398578089,0.11340847611427307
1708438143.9072914,-1.1072360277175903,-1.6807509861388148,-2.52613073984255,2.2827347952076416,-1.0163820425616663,0.11332941055297852
1708438143.90925,-1.1072691679000854,-1.680697580377096,-2.526139561329977,2.2827023702808837,-1.016374413167135,0.1133500337600708
1708438143.9112628,-1.1072068214416504,-1.6807390652098597,-2.52614409128298,2.2827231126972656,-1.0164192358600062,0.11333844065666199
1708438143.9132705,-1.1072111129760742,-1.6807643375792445,-2.5261603037463587,2.28277771055188,-1.016390625630514,0.11333844065666199
1708438143.9152985,-1.1071949005126953,-1.6807509861388148,-2.5260780493365687,2.2826873499104003,-1.0163572470294397,0.11339177936315536
1708438143.9173136,-1.1072230339050293,-1.6807509861388148,-2.5260987917529505,2.282740278834961,-1.0163496176349085,0.11335897445678711
1708438143.9192777,-1.1072068214416504,-1.6808091602721156,-2.5261483828174036,2.2827185827442626,-1.016411606465475,0.1133141815662384
1708438143.921284,-1.1071698665618896,-1.6807671986021937,-2.5261109511004847,2.282688542003296,-1.0164030233966272,0.11337536573410034
1708438143.923255,-1.1071293354034424,-1.680734773675436,-2.5260780493365687,2.282674475307129,-1.0163987318622034,0.11337536573410034
1708438143.925263,-1.1072111129760742,-1.680812498132223,-2.5261152426349085,2.282740278834961,-1.0163987318622034,0.11335185170173645
1708438143.9272566,-1.107190489768982,-1.680741926232809,-2.5261152426349085,2.282707853908203,-1.0163658300982874,0.1133500337600708
1708438143.9292476,-1.10713791847229,-1.6807176075377406,-2.5260661284076136,2.2827035623737792,-1.0164192358600062,0.11339175701141357
1708438143.9312434,-1.107203483581543,-1.6807629070677699,-2.5261314550982874,2.282691641444824,-1.016385857258932,0.11337536573410034
1708438143.9332862,-1.1071829795837402,-1.680741926232809,-2.5261693636523646,2.2826549249836425,-1.0163863340960901,0.1134292483329773
1708438143.9352663,-1.10715913772583,-1.680753847161764,-2.5261226336108606,2.2826992708393554,-1.0163496176349085,0.11339613795280457
1708438143.9372616,-1.1071841716766357,-1.6807629070677699,-2.5261197725879114,2.282712145442627,-1.0163820425616663,0.11342775821685791
1708438143.939265,-1.1071796417236328,-1.6807924709715785,-2.5260914007769983,2.282650871867798,-1.0163334051715296,0.11340402811765671
1708438143.9412408,-1.1071553230285645,-1.6808082065977992,-2.526139561329977,2.2827035623737792,-1.0163987318622034,0.11339177936315536
1708438143.9432452,-1.1071465015411377,-1.6807924709715785,-2.5261359850512903,2.282700224513672,-1.016411606465475,0.11337824165821075
1708438143.9452326,-1.107163429260254,-1.680746694604391,-2.5261314550982874,2.282646580333374,-1.0163582007037562,0.11341136693954468
1708438143.947273,-1.1071391105651855,-1.6807629070677699,-2.5261316935168665,2.2826928335377197,-1.0163987318622034,0.11336184293031693
1708438143.9492838,-1.1071510314941406,-1.6807509861388148,-2.526118342076437,2.282684012050293,-1.0163658300982874,0.11337089538574219
1708438143.9512885,-1.10715913772583,-1.6807433567442835,-2.526081148778097,2.2826639848896484,-1.0164030233966272,0.11337824165821075
1708438143.9532533,-1.1071314811706543,-1.6807495556273402,-2.52614409128298,2.282684012050293,-1.016407314931051,0.11336641013622284
1708438143.955277,-1.1071357727050781,-1.6807705364623011,-2.5261603037463587,2.2826639848896484,-1.0164192358600062,0.11339955031871796
1708438143.9572918,-1.1071152687072754,-1.6807629070677699,-2.5260868708239954,2.282622976894043,-1.0163658300982874,0.11340402811765671
1708438143.9592848,-1.1071271896362305,-1.6807552776732386,-2.5261486212359827,2.282602234477661,-1.01636249223818,0.11340402811765671
1708438143.9612675,-1.1071196794509888,-1.6807776890196742,-2.5260987917529505,2.2826477724262695,-1.0163539091693323,0.11340241134166718
1708438143.9633327,-1.1071271896362305,-1.6807791195311488,-2.526139561329977,2.2826120096394042,-1.016374413167135,0.113373763859272
1708438143.9653099,-1.1071152687072754,-1.6807552776732386,-2.5261648336993616,2.2825872141071777,-1.0163987318622034,0.11344747245311737
1708438143.967269,-1.1070291996002197,-1.6807881794371546,-2.52614409128298,2.282632513637207,-1.0163863340960901,0.11342330276966095
1708438143.969358,-1.1070990562438965,-1.6807214222350062,-2.5260987917529505,2.2825378614613037,-1.0164149443255823,0.1134277805685997
1708438143.9712906,-1.1071120500564575,-1.68078674892568,-2.5261107126819056,2.282648726100586,-1.0163820425616663,0.11341138184070587
1708438143.9732857,-1.1070871353149414,-1.680774827996725,-2.52614409128298,2.2825957971760253,-1.016407314931051,0.11342330276966095
1708438143.9752653,-1.1071001291275024,-1.680753847161764,-2.5261483828174036,2.282600088710449,-1.0164030233966272,0.11339793354272842
1708438143.9772806,-1.1070419549942017,-1.680758615533346,-2.5261314550982874,2.282625122661255,-1.0163701216327112,0.11344289779663086
1708438143.9793184,-1.107088327407837,-1.6807910404601039,-2.5261033217059534,2.282550736064575,-1.016374413167135,0.1134638711810112
1708438143.9812877,-1.1070300340652466,-1.680812498132223,-2.5261316935168665,2.282576485271118,-1.0163582007037562,0.11347122490406036
1708438143.983273,-1.107038974761963,-1.6807991466917933,-2.5261240641223353,2.28253881513562,-1.0163615385638636,0.11349058151245117
1708438143.9853032,-1.107101321220398,-1.6808082065977992,-2.5261572043048304,2.282576485271118,-1.0164063612567347,0.11345930397510529
1708438143.987257,-1.1070400476455688,-1.6808282337584437,-2.5261314550982874,2.2825237947651367,-1.0163949171649378,0.11346673965454102
1708438143.9892423,-1.10703444480896,-1.6807900867857875,-2.526128594075338,2.282510920161865,-1.016374413167135,0.113487608730793
1708438143.9912386,-1.1069945096969604,-1.680765768090719,-2.5261271635638636,2.282531424159668,-1.0163582007037562,0.11344145983457565
1708438143.9932418,-1.10702383518219,-1.6807824573912562,-2.5261076132403772,2.282519503230713,-1.016374413167135,0.11349505186080933
1708438143.9952726,-1.1070313453674316,-1.6807991466917933,-2.5261152426349085,2.2825075823017578,-1.01636249223818,0.11349952220916748
1708438143.9972525,-1.1070356369018555,-1.6808229885497035,-2.5260899702655237,2.2825204569050292,-1.016374413167135,0.11349352449178696
1708438143.9992921,-1.1070042848587036,-1.6807948551573695,-2.526069227849142,2.2824506002613525,-1.0163820425616663,0.11350249499082565
1708438144.0013216,-1.1070194244384766,-1.6808096371092738,-2.5261064211474817,2.282513065929077,-1.016407314931051,0.1134323924779892
1708438144.0032873,-1.1069869995117188,-1.6808105907835902,-2.5261152426349085,2.2824880319782714,-1.0163615385638636,0.11351145058870316
1708438144.0052447,-1.1070042848587036,-1.6808649502196253,-2.5261064211474817,2.282496853465698,-1.016407314931051,0.11346524953842163
1708438144.0072577,-1.1069386005401611,-1.6808229885497035,-2.5260987917529505,2.2824160295673828,-1.016374413167135,0.11345620453357697
1708438144.009247,-1.1070042848587036,-1.6808601818480433,-2.5261152426349085,2.282451792354248,-1.0163582007037562,0.11348165571689606
1708438144.0112653,-1.1069879531860352,-1.6808344326415003,-2.5261226336108606,2.28241936742749,-1.0163787047015589,0.11346971988677979
1708438144.013369,-1.1069849729537964,-1.6808468304076136,-2.5261483828174036,2.2824808794208984,-1.016374413167135,0.11353229731321335
1708438144.0152938,-1.1069386005401611,-1.680911203423971,-2.5261359850512903,2.282407446498535,-1.016390625630514,0.11354758590459824
1708438144.0172768,-1.106943130493164,-1.6808663807311,-2.5261064211474817,2.282439871425293,-1.016374413167135,0.11351442337036133
1708438144.0192516,-1.10695481300354,-1.6808988056578578,-2.526097361241476,2.282484217281006,-1.0163582007037562,0.11350250244140625
1708438144.021249,-1.1069680452346802,-1.6809765301146449,-2.5260780493365687,2.2824031549641113,-1.0163539091693323,0.11354455351829529
1708438144.023247,-1.1068655252456665,-1.680974622766012,-2.52614409128298,2.2824484544941406,-1.0163419882403772,0.1134980320930481
1708438144.0252352,-1.1069023609161377,-1.6809874973692835,-2.5261152426349085,2.2823988634296875,-1.016374413167135,0.1134980097413063
1708438144.0272863,-1.1069517135620117,-1.680911203423971,-2.5261316935168665,2.282391234035156,-1.0163334051715296,0.11346068978309631
1708438144.029251,-1.1069443225860596,-1.6809960804381312,-2.526101891194479,2.282370014781616,-1.0163701216327112,0.11348165571689606
1708438144.0312495,-1.1069066524505615,-1.6809221706786097,-2.5261107126819056,2.2824441629597167,-1.016407314931051,0.11351889371871948
1708438144.033286,-1.1069066524505615,-1.6809750996031703,-2.5260871092425745,2.2824649053760986,-1.016374413167135,0.11349804699420929
1708438144.0352619,-1.1069605350494385,-1.6809741459288539,-2.5261316935168665,2.28239552556958,-1.0163615385638636,0.11353115737438202
1708438144.0372899,-1.1068949699401855,-1.6810080013670863,-2.52611214319338,2.282378597850464,-1.0164192358600062,0.11351889371871948
1708438144.0392604,-1.1069281101226807,-1.6809693775572718,-2.5261359850512903,2.282379313106201,-1.0163419882403772,0.1134980320930481
1708438144.0412524,-1.1069368124008179,-1.6809569797911585,-2.5261359850512903,2.2823828893848876,-1.0163658300982874,0.11353561282157898
1708438144.0432725,-1.1069281101226807,-1.6809903583922328,-2.5261486212359827,2.2824041086384277,-1.0163701216327112,0.11352658271789551
1708438144.0452356,-1.1069066524505615,-1.6809436283507289,-2.5261064211474817,2.2823962408253173,-1.016440216694967,0.11355647444725037
1708438144.0474749,-1.1068873405456543,-1.680965086022848,-2.5261197725879114,2.282400532359741,-1.0163949171649378,0.11355206370353699
1708438144.0492878,-1.1068873405456543,-1.680986066857809,-2.5260825792895716,2.2823659616657714,-1.016374413167135,0.1135757565498352
1708438144.051261,-1.106896162033081,-1.6810304127135218,-2.5261152426349085,2.2823378282734375,-1.016374413167135,0.11353117972612381
1708438144.0532892,-1.1068378686904907,-1.6809412441649378,-2.5261109511004847,2.282383604640625,-1.016374413167135,0.11354753375053406
1708438144.0552773,-1.106858730316162,-1.680981298486227,-2.5260987917529505,2.2823962408253173,-1.0163915793048304,0.11351442337036133
1708438144.0573106,-1.106870412826538,-1.680986066857809,-2.5261197725879114,2.282363100642822,-1.0163787047015589,0.1135728657245636
1708438144.0592754,-1.1068511009216309,-1.6810022793211878,-2.5261314550982874,2.282383604640625,-1.0163334051715296,0.11350984871387482
1708438144.06128,-1.1068229675292969,-1.6810437641539515,-2.526139561329977,2.2823759752460937,-1.016390625630514,0.11348900198936462
1708438144.0633383,-1.106835961341858,-1.6810113392271937,-2.5261483828174036,2.282343550319336,-1.0163787047015589,0.11354298144578934
1708438144.0652761,-1.106753945350647,-1.6809903583922328,-2.5261197725879114,2.282351179713867,-1.016374413167135,0.11353849619626999
1708438144.0672953,-1.1067990064620972,-1.68096985439443,-2.5261483828174036,2.282315416927002,-1.0163944403277796,0.1135757565498352
1708438144.0692668,-1.1067702770233154,-1.680997987786764,-2.5261152426349085,2.282303495998047,-1.0163829962359827,0.11354139447212219
1708438144.0712774,-1.1067583560943604,-1.6809436283507289,-2.5261197725879114,2.282315416927002,-1.016390625630514,0.11355936527252197
1708438144.0732372,-1.106767177581787,-1.680977006951803,-2.5261197725879114,2.2822746473499755,-1.0163949171649378,0.11354297399520874
1708438144.0752544,-1.1067346334457397,-1.6809617481627406,-2.5261648336993616,2.2822789388843994,-1.0164106527911585,0.11345621943473816
1708438144.0772755,-1.106755256652832,-1.6810022793211878,-2.5261314550982874,2.2822553354450683,-1.0163949171649378,0.11350539326667786
1708438144.0793004,-1.106703281402588,-1.6810232601561488,-2.5261557737933558,2.28226821004834,-1.0163539091693323,0.11353850364685059
1708438144.0818682,-1.106727123260498,-1.680932184258932,-2.5261152426349085,2.282259626979492,-1.016374413167135,0.11352211236953735
1708438144.0832996,-1.1066906452178955,-1.681014200250143,-2.5261107126819056,2.282240076656006,-1.0164030233966272,0.11350986361503601
1708438144.0852985,-1.1066988706588745,-1.6809889278807582,-2.5261271635638636,2.282223864192627,-1.016374413167135,0.11348900198936462
1708438144.0873213,-1.1067121028900146,-1.6809917889037074,-2.5261812845813196,2.2821990686604003,-1.016374413167135,0.11350539326667786
1708438144.0893078,-1.1066538095474243,-1.6810022793211878,-2.5261722246753138,2.2821995454975585,-1.0163701216327112,0.11349347233772278
1708438144.0912993,-1.1067163944244385,-1.680993219415182,-2.5261226336108606,2.282247706050537,-1.0164149443255823,0.11352336406707764
1708438144.0932944,-1.1066789627075195,-1.6810275516905726,-2.526118342076437,2.282207651729248,-1.016390625630514,0.11355936527252197
1708438144.0952659,-1.1066551208496094,-1.681042810479635,-2.526135269795553,2.2822207647510986,-1.016407314931051,0.11352211236953735
1708438144.097307,-1.1066789627075195,-1.6810275516905726,-2.52614409128298,2.282174511546753,-1.016390625630514,0.11352658271789551
1708438144.0992782,-1.1066594123840332,-1.6810184917845667,-2.5261574427234095,2.2821919161030273,-1.016451660786764,0.1134980320930481
1708438144.101293,-1.1066594123840332,-1.680965086022848,-2.52613073984255,2.282196207637451,-1.0164192358600062,0.11354297399520874
1708438144.1032968,-1.106638789176941,-1.6810499630370082,-2.526163403187887,2.2821757036396484,-1.0163987318622034,0.1135520413517952
1708438144.1052785,-1.1066551208496094,-1.6810804806151332,-2.5260987917529505,2.282150908107422,-1.0164473692523401,0.1135009229183197
1708438144.1072917,-1.1066268682479858,-1.6810499630370082,-2.526118342076437,2.282150908107422,-1.0164182821856897,0.1135009229183197
1708438144.1092482,-1.1066594123840332,-1.6810208759703578,-2.526146952305929,2.2821594911762695,-1.0164268652545374,0.11350250244140625
1708438144.1112635,-1.106623649597168,-1.681054254571432,-2.5260899702655237,2.2822090822407226,-1.0164149443255823,0.11353114247322083
1708438144.113299,-1.1066474914550781,-1.6810294590392054,-2.526113812123434,2.2821194368549804,-1.0164464155780237,0.11351442337036133
1708438144.1153169,-1.1065905094146729,-1.6810904941954554,-2.526118342076437,2.2821151453205566,-1.0164430777179163,0.11348900198936462
1708438144.1172655,-1.106607437133789,-1.6810904941954554,-2.526151482258932,2.2821356493183593,-1.0164182821856897,0.11353115737438202
1708438144.119242,-1.106607437133789,-1.6810275516905726,-2.526156012211935,2.2821432787128906,-1.0164712111102503,0.113535575568676
1708438144.1212604,-1.1066162586212158,-1.6810876331725062,-2.52616793314089,2.282168074245117,-1.016425911580221,0.11348896473646164
1708438144.1232977,-1.1065785884857178,-1.681044717828268,-2.52614409128298,2.2821270662495117,-1.0164669195758265,0.11354755610227585
1708438144.1252775,-1.1065754890441895,-1.6810699901976527,-2.526126209889547,2.2821356493183593,-1.0164669195758265,0.11354298889636993
1708438144.1273007,-1.1065711975097656,-1.6811024151244105,-2.5261603037463587,2.282139940852783,-1.0164669195758265,0.11350088566541672
1708438144.1292617,-1.1065831184387207,-1.6810938320555628,-2.526139561329977,2.282128019923828,-1.0164292494403284,0.11351761966943741
1708438144.1312673,-1.1065754890441895,-1.6810652218260707,-2.5261271635638636,2.282057209605835,-1.016515080128805,0.11350537091493607
1708438144.1332772,-1.1065635681152344,-1.6810623608031214,-2.5261722246753138,2.282194061870239,-1.0165312925921839,0.11352654546499252
1708438144.135254,-1.1065516471862793,-1.6811205349364222,-2.526163403187887,2.282132311458252,-1.0164902845965784,0.11350086331367493
1708438144.1372442,-1.1065516471862793,-1.6810366115965785,-2.5261545817004603,2.2821075159260253,-1.0165022055255335,0.11355651915073395
1708438144.1392443,-1.106514811515808,-1.6810409031310023,-2.526126209889547,2.282160444850586,-1.0165098349200647,0.11353563517332077
1708438144.1412506,-1.106514811515808,-1.6810904941954554,-2.526146952305929,2.2821377950855712,-1.0164783636676233,0.11350984871387482
1708438144.1432517,-1.1065022945404053,-1.681122442285055,-2.526187245045797,2.2820917802998046,-1.0165303389178675,0.11356104910373688
1708438144.1452456,-1.106484055519104,-1.6811429462828578,-2.526196066533224,2.282099171275757,-1.0165389219867151,0.11351893097162247
1708438144.1472514,-1.1065539121627808,-1.681035657922262,-2.52613073984255,2.282120628947876,-1.0165422598468226,0.11350250244140625
1708438144.149305,-1.1064903736114502,-1.6811143360533656,-2.526175324116842,2.2821079927631835,-1.0165498892413538,0.11350987106561661
1708438144.1512692,-1.106510877609253,-1.681122442285055,-2.5261619726764124,2.282111807460449,-1.0165866057025355,0.11348611116409302
1708438144.1532977,-1.106536626815796,-1.6811686954894007,-2.526229206715719,2.2821079927631835,-1.0165661017047327,0.11348161846399307
1708438144.1552904,-1.106528401374817,-1.6811143360533656,-2.5262067953692835,2.282078667277954,-1.016590420399801,0.11349344998598099
1708438144.1572697,-1.1065235137939453,-1.6810862026610316,-2.5262368361102503,2.282111807460449,-1.0165694395648401,0.11350246518850327
1708438144.1592891,-1.106544017791748,-1.6811596355833949,-2.5262368361102503,2.2821037012287597,-1.0166104475604456,0.11350991576910019
1708438144.1612618,-1.1065196990966797,-1.6811381779112757,-2.5262473265277308,2.282090588206909,-1.0165975729571741,0.11348608881235123
1708438144.1632936,-1.1064796447753906,-1.681084772149557,-2.5262308756457728,2.282120628947876,-1.0166552702533167,0.11345775425434113
1708438144.1653283,-1.1065603494644165,-1.6810981235899867,-2.5262396971331995,2.282120628947876,-1.0166261831866663,0.11351890861988068
1708438144.167283,-1.106453537940979,-1.6811639271178187,-2.526275936757223,2.2820462423511962,-1.0166013876544397,0.11346233636140823
1708438144.1692896,-1.1064902544021606,-1.681100984612936,-2.5262354055987757,2.2821037012287597,-1.0166943709002894,0.11349508166313171
1708438144.1712625,-1.106548547744751,-1.6810819111266078,-2.526243034993307,2.282078667277954,-1.016637150441305,0.11351597309112549
1708438144.1732683,-1.1065282821655273,-1.6810771427550257,-2.5263386408435267,2.282132311458252,-1.0166872183429163,0.11349955946207047
1708438144.1752527,-1.106512188911438,-1.681056638757223,-2.526304308568136,2.282055063838623,-1.0166576544391077,0.11342942714691162
1708438144.1772637,-1.106512188911438,-1.681124826470846,-2.526283327733175,2.2821530538746337,-1.0166500250445765,0.11345481872558594
1708438144.1792896,-1.1065034866333008,-1.6810862026610316,-2.526259247456686,2.282116098994873,-1.0167024771319788,0.11348313093185425
1708438144.181291,-1.106545329093933,-1.681084772149557,-2.526254717503683,2.282148523921631,-1.0166900793658655,0.11346835643053055
1708438144.1834145,-1.1065034866333008,-1.6810771427550257,-2.526304308568136,2.2821079927631835,-1.0166729132281702,0.11345481872558594
1708438144.1852577,-1.1065034866333008,-1.6811233959593714,-2.5263355414019983,2.2821079927631835,-1.0167306105243128,0.11341719329357147
1708438144.1872785,-1.1065154075622559,-1.6811024151244105,-2.526292149220602,2.282116098994873,-1.0166814962970179,0.11341138929128647
1708438144.1892414,-1.1065034866333008,-1.681105752984518,-2.526329580937521,2.282062454814575,-1.0167220274554651,0.11339955776929855
1708438144.191252,-1.1065196990966797,-1.6811143360533656,-2.526311699544088,2.2821432787128906,-1.016726318989889,0.11336182057857513
1708438144.1932807,-1.1064903736114502,-1.6811024151244105,-2.5262699762927454,2.2821335035511474,-1.0167620817767542,0.11335897445678711
1708438144.1952522,-1.1065235137939453,-1.6810609302916468,-2.526300017033712,2.2821971613117675,-1.0167534987079065,0.11333057284355164
1708438144.197281,-1.106497883796692,-1.6810580692686976,-2.5262745062457483,2.2821249204822998,-1.0167935530291956,0.11331872642040253
1708438144.1992867,-1.1065154075622559,-1.6810785732665003,-2.5263074080096644,2.2821237283894042,-1.0167773405658167,0.1132856011390686
1708438144.2012818,-1.1065154075622559,-1.6810533008971156,-2.5262909571277063,2.282111807460449,-1.0167978445636194,0.11329005658626556
1708438144.2032588,-1.106532335281372,-1.6810652218260707,-2.5263267199145716,2.2821594911762695,-1.0168059507953089,0.11331586539745331
1708438144.2052858,-1.106548547744751,-1.6810785732665003,-2.5263477007495325,2.2821876245686035,-1.0167763868915003,0.11324535310268402
1708438144.207283,-1.1065354347229004,-1.6810833416380824,-2.5263519922839563,2.2821647363850097,-1.0168588797198694,0.11324988305568695
1708438144.2092538,-1.1065635681152344,-1.681100984612936,-2.5263105074511927,2.2822038370319824,-1.016846005116598,0.11327242106199265
1708438144.211263,-1.1065279245376587,-1.6810995541014613,-2.5263386408435267,2.2821950155445556,-1.0168774763690394,0.11323480308055878
1708438144.213283,-1.1065397262573242,-1.6810742817320765,-2.5263763109790247,2.2822488981434326,-1.0168536345111292,0.11317072063684464
1708438144.2153656,-1.1065667867660522,-1.6810785732665003,-2.5264254252063196,2.2822562891193847,-1.016886059437887,0.11319609731435776
1708438144.2172635,-1.1065917015075684,-1.6810533008971156,-2.526383940373556,2.282259626979492,-1.0168975035296839,0.11315427720546722
1708438144.2192404,-1.1065635681152344,-1.6810623608031214,-2.5264092127429407,2.2823328214832763,-1.0169017950641077,0.11316327750682831
1708438144.221243,-1.1065711975097656,-1.6810785732665003,-2.526379410420553,2.282402201289795,-1.0168855826007288,0.11313919723033905
1708438144.2232563,-1.1066488027572632,-1.6810580692686976,-2.526395861302511,2.2823402124592285,-1.0169385115252894,0.11309163272380829
1708438144.225258,-1.106635570526123,-1.6810785732665003,-2.5263825098620813,2.282359762782715,-1.0169699827777308,0.11309310793876648
1708438144.2272778,-1.1066312789916992,-1.6810170612730921,-2.5264151732074183,2.28237168371167,-1.016937557850973,0.11305094510316849
1708438144.2292383,-1.1067005395889282,-1.6810275516905726,-2.526436154042379,2.2824293810078125,-1.016965691243307,0.11298957467079163
1708438144.2312415,-1.1067168712615967,-1.6809846363463343,-2.526403252278463,2.2824484544941406,-1.0169737974749964,0.11296253651380539
1708438144.2332685,-1.1067038774490356,-1.6810184917845667,-2.5263987223254603,2.282451792354248,-1.016993824635641,0.11295094341039658
1708438144.2352405,-1.1067489385604858,-1.6809946499266566,-2.5263987223254603,2.2824928003498535,-1.0170095602618616,0.11298047006130219
1708438144.2372632,-1.1067445278167725,-1.6809517345824183,-2.5264273325549524,2.2824312883564453,-1.0170095602618616,0.11291933804750443
1708438144.2392535,-1.1067758798599243,-1.6810022793211878,-2.5264480749713343,2.2825400072285156,-1.0170419851886194,0.11288781464099884
1708438144.24124,-1.1067920923233032,-1.6810065708556117,-2.5264678637133997,2.2825562196918945,-1.017012898121969,0.11288199573755264
1708438144.2432828,-1.1068047285079956,-1.6809412441649378,-2.5264304319964808,2.282559557552002,-1.0170658270465296,0.11287303268909454
1708438144.245253,-1.1068240404129028,-1.6809503040709437,-2.5264678637133997,2.282576485271118,-1.0170648733722132,0.11283541470766068
1708438144.2472875,-1.1067904233932495,-1.6809784374632777,-2.526463333760397,2.2826272684284667,-1.0170324484454554,0.11281637847423553
1708438144.2493365,-1.106859803199768,-1.6809264622130335,-2.526442591344015,2.282656355495117,-1.0171058813678187,0.11272627115249634
1708438144.2512515,-1.1068836450576782,-1.6809264622130335,-2.52649170557131,2.282667799586914,-1.017069164906637,0.11273984611034393
1708438144.253285,-1.106874942779541,-1.6808988056578578,-2.526487175618307,2.2826992708393554,-1.017113987599508,0.11276225745677948
1708438144.255292,-1.1069154739379883,-1.6808740101256312,-2.526470724736349,2.282679720515869,-1.0170801321612757,0.11265040934085846
1708438144.2572694,-1.1069154739379883,-1.680833478967184,-2.5264959971057337,2.2827305036732177,-1.0171216169940394,0.11266060173511505
1708438144.259304,-1.1069636344909668,-1.680807729760641,-2.5264950434314173,2.2827724653431396,-1.0171130339251917,0.11265325546264648
1708438144.2612689,-1.107004165649414,-1.6808425388731898,-2.5265234152423304,2.2828284937092285,-1.0171497503863733,0.11258892714977264
1708438144.2633417,-1.1069717407226562,-1.6808229885497035,-2.5265188852893274,2.282815619105957,-1.0171735922442835,0.11258444935083389
1708438144.2652583,-1.1070162057876587,-1.6808320484557093,-2.5265353361712855,2.282879038447998,-1.0171163717852991,0.11260981112718582
1708438144.2672322,-1.1069912910461426,-1.6807791195311488,-2.5265308062182825,2.2829932409473876,-1.0171940962420862,0.11256669461727142
1708438144.2692463,-1.1070970296859741,-1.6807629070677699,-2.5265067259417933,2.282956524486206,-1.0171979109393519,0.11255030333995819
1708438144.2712753,-1.1071457862854004,-1.6807509861388148,-2.5265188852893274,2.2829791742512207,-1.0172260443316858,0.11247539520263672
1708438144.273286,-1.1071001291275024,-1.6806656322874964,-2.5265308062182825,2.2830115991779785,-1.0172250906573694,0.11250075697898865
1708438144.2752497,-1.1070828437805176,-1.6807357273497523,-2.5265679995166224,2.283071680659912,-1.0172575155841272,0.11243937909603119
1708438144.2772512,-1.1071640253067017,-1.6806627712645472,-2.5266175905810755,2.2830912309833984,-1.0172489325152796,0.11247372627258301
1708438144.2792902,-1.1071841716766357,-1.680688043633932,-2.526587788258688,2.2831405836292724,-1.0172889868365687,0.11243339627981186
1708438144.2812705,-1.1072241067886353,-1.6806313000121058,-2.5265665690051478,2.2831713396259765,-1.0172446409808558,0.11245590448379517
1708438144.2832966,-1.1072518825531006,-1.6805907688536585,-2.526553217564718,2.283273621196411,-1.0173056761371058,0.11237812042236328
1708438144.2852714,-1.1073212623596191,-1.6805950603880824,-2.526599947606222,2.283181591624878,-1.017280403767721,0.11236169934272766
1708438144.2872818,-1.1073437929153442,-1.6805712185301722,-2.526640001927511,2.283275766963623,-1.017264191304342,0.11233043670654297
1708438144.2892852,-1.1073594093322754,-1.6805669269957484,-2.526673142110006,2.283377094859741,-1.017329517995016,0.11233948916196823
1708438144.2912695,-1.1073919534683228,-1.680535455743307,-2.5266431013690394,2.2833522993275146,-1.0173166433917444,0.11229889839887619
1708438144.2932725,-1.107432246208191,-1.6805311642088832,-2.5266805330859583,2.2833992677875976,-1.0173371473895472,0.11224652081727982
1708438144.2952898,-1.1074438095092773,-1.680493494073385,-2.5265939871417444,2.2834316927143554,-1.0173490683185022,0.11225542426109314
1708438144.2972794,-1.1074872016906738,-1.680490633050436,-2.5266431013690394,2.2834512430378417,-1.0173490683185022,0.11221051216125488
1708438144.2992747,-1.107544183731079,-1.6804830036559046,-2.5265939871417444,2.283519907588623,-1.0173566977130335,0.11215377599000931
1708438144.3012826,-1.1075679063796997,-1.6804090938963832,-2.5266760031329554,2.2835556703754882,-1.0174015204059046,0.11212543398141861
1708438144.3032644,-1.1076573133468628,-1.6803933582701625,-2.5266104380237024,2.2835628229328613,-1.0173810164081019,0.11215537786483765
1708438144.3052506,-1.1076236963272095,-1.6804353199400843,-2.5266431013690394,2.283639593715332,-1.017421070729391,0.11212682723999023
1708438144.307242,-1.1076593399047852,-1.680361887017721,-2.5266552607165735,2.2837084966846923,-1.0174124876605433,0.11204640567302704
1708438144.3092635,-1.1077239513397217,-1.6803838215269984,-2.5266104380237024,2.283714933986328,-1.0174244085894983,0.11205081641674042
1708438144.3113585,-1.107738971710205,-1.6803556881346644,-2.5266626516925257,2.2837344843098144,-1.01746112505068,0.11199384182691574
1708438144.3132668,-1.1078033447265625,-1.6803513966002406,-2.526646439229147,2.28376214086499,-1.017435375844137,0.11199097335338593
1708438144.3153498,-1.107819676399231,-1.6803347072997035,-2.5266838709460657,2.283855839366577,-1.0174439589129847,0.11200003325939178
1708438144.3172786,-1.1078424453735352,-1.680249353448385,-2.526695791875021,2.283862276668213,-1.0174678007708948,0.11195945739746094
1708438144.3192973,-1.1078792810440063,-1.6802746258177699,-2.526658360158102,2.283914728755615,-1.0175045172320765,0.11187271773815155
1708438144.3212693,-1.1079237461090088,-1.6802717647948207,-2.5267000834094446,2.2839509683796386,-1.017491642628805,0.11190728843212128
1708438144.323354,-1.1079849004745483,-1.680225511590475,-2.526695791875021,2.283978148097656,-1.017512623463766,0.11189961433410645
1708438144.3252704,-1.1079869270324707,-1.6802178821959437,-2.526691261922018,2.2840403753468017,-1.0175407568561,0.1117982417345047
1708438144.327255,-1.1080681085586548,-1.680242200891012,-2.526736084614889,2.2840630251118164,-1.017552677785055,0.11185619235038757
1708438144.3292472,-1.1081076860427856,-1.6802894077696742,-2.526707712803976,2.2840911585041503,-1.0175202528582972,0.11177866905927658
1708438144.3312602,-1.1081401109695435,-1.6802078686156214,-2.526723925267355,2.284118815059326,-1.017524544392721,0.11175930500030518
1708438144.3333328,-1.108127236366272,-1.680239816705221,-2.5267391840564173,2.2841102319904785,-1.0176180044757288,0.11181741207838058
1708438144.3352442,-1.1081633567810059,-1.680216451684469,-2.526743475590841,2.2842115598865966,-1.017536465321676,0.11176375299692154
1708438144.3372793,-1.1082649230957031,-1.6802283726134242,-2.526731793080465,2.284214659328125,-1.017585579548971,0.1117110326886177
1708438144.3392668,-1.1082305908203125,-1.680209299127096,-2.5267766157733362,2.2842513757893066,-1.0175884405719202,0.11167819797992706
1708438144.341251,-1.1082429885864258,-1.680204530755514,-2.5267227331744593,2.284287138576172,-1.0175884405719202,0.11170369386672974
1708438144.3432775,-1.1082462072372437,-1.6801969013609828,-2.5267677942859095,2.2843074041553955,-1.0175798575030726,0.11163496971130371
1708438144.3452778,-1.108344316482544,-1.680138727227682,-2.5267825762378138,2.2843634325214843,-1.0176213423358362,0.1116018295288086
1708438144.3472705,-1.108371376991272,-1.6802102528014125,-2.5267139116870325,2.2843679624744873,-1.0176203886615198,0.11165151000022888
1708438144.3493037,-1.108399510383606,-1.6802002392210902,-2.5267797152148646,2.2843870359608154,-1.0176366011248987,0.11158707737922668
1708438144.3512545,-1.1083377599716187,-1.680138727227682,-2.5268078486071985,2.284456177348755,-1.01764423051943,0.11157526820898056
1708438144.3533041,-1.1084108352661133,-1.680105825463766,-2.52683669725527,2.2844344812580566,-1.017656151448385,0.11155852675437927
1708438144.355266,-1.1084232330322266,-1.6801120243468226,-2.526782814656393,2.284503384227417,-1.0176604429828089,0.11160215735435486
1708438144.357322,-1.108393907546997,-1.6801430187621058,-2.5267751852618616,2.2844583231159667,-1.0176919142352503,0.11153954267501831
1708438144.35927,-1.1084765195846558,-1.6801682911314906,-2.5267916361438196,2.284503384227417,-1.0176680723773401,0.11155296117067337
1708438144.3612654,-1.1084513664245605,-1.6801806888976039,-2.5267751852618616,2.2845021921345214,-1.0176962057696741,0.11156904697418213
1708438144.3633351,-1.1084603071212769,-1.6801730595030726,-2.5268455187426966,2.284444971675537,-1.0177086035357874,0.11151977628469467
1708438144.365278,-1.1084882020950317,-1.680159708062643,-2.526832167302267,2.284510775203369,-1.0177086035357874,0.11151694506406784
1708438144.367281,-1.1084470748901367,-1.6801639995970667,-2.526832167302267,2.2844621378132324,-1.0177205244647425,0.11151695251464844
1708438144.3692627,-1.1084351539611816,-1.6801477871336878,-2.526818815861837,2.2844740587421875,-1.0177324453936976,0.11148831993341446
1708438144.371276,-1.1084221601486206,-1.680204530755514,-2.5268426577197474,2.2844859796711425,-1.0177152792560022,0.11152887344360352
1708438144.3732858,-1.1084232330322266,-1.68017639736318,-2.526881281529562,2.2844979006000976,-1.0177724997149866,0.11151853948831558
1708438144.3752675,-1.1084102392196655,-1.6802011928954066,-2.526888672505514,2.28449456273999,-1.0178011099444788,0.11144812405109406
1708438144.377268,-1.1083976030349731,-1.680178781548971,-2.5268383661853235,2.2844535547443847,-1.0177434126483362,0.11151698231697083
1708438144.379271,-1.1084232330322266,-1.6802135906615199,-2.5268264452563685,2.284433289165161,-1.0178206602679651,0.11145549267530441
1708438144.3812714,-1.1084439754486084,-1.680150648156637,-2.5269082228290003,2.284475250835083,-1.017775837575094,0.11147188395261765
1708438144.3832846,-1.1083893775939941,-1.6802054844298304,-2.5269368330584925,2.2844578462788085,-1.0178292433368128,0.11151084303855896
1708438144.385276,-1.108386516571045,-1.680183549920553,-2.5268664995776575,2.2843844133564453,-1.0178077856646937,0.11148829758167267
1708438144.3872817,-1.1083420515060425,-1.6802078686156214,-2.5268996397601526,2.28438584386792,-1.0178564230548304,0.11146903038024902
1708438144.3892522,-1.1083476543426514,-1.6802121601500453,-2.5269280115710657,2.2844149309345703,-1.0178359190570276,0.1114780604839325
1708438144.391269,-1.1082744598388672,-1.6802331409850062,-2.526910368596212,2.2842725950428466,-1.017900292073385,0.11147648096084595
1708438144.3932981,-1.1082462072372437,-1.6802598438658656,-2.526980463658468,2.284273787135742,-1.0179198423968714,0.1114358976483345
1708438144.3952777,-1.1082260608673096,-1.6802598438658656,-2.5270045439349573,2.2842580515095214,-1.017972771321432,0.11147192120552063
1708438144.3972816,-1.1081622838974,-1.6803046665587367,-2.5269551912890833,2.284218950862549,-1.0179522673236292,0.11149448901414871
1708438144.3992836,-1.1081384420394897,-1.6803256473936976,-2.527025286351339,2.284165306682251,-1.0179718176471155,0.11147351562976837
1708438144.4012768,-1.1081023216247559,-1.680319448510641,-2.526986900960104,2.2841502863117675,-1.0179956595050257,0.11142854392528534
1708438144.4033134,-1.1080458164215088,-1.6803633175291957,-2.527039353047506,2.284102602595947,-1.0180318991290491,0.11144495010375977
1708438144.405264,-1.107994556427002,-1.6804009876646937,-2.527083937321798,2.2840544420429687,-1.018060032521383,0.11144943535327911
1708438144.4072669,-1.1079504489898682,-1.680415769616598,-2.5270870367633265,2.284022017116211,-1.0181077162372034,0.11144188046455383
1708438144.4092605,-1.1078380346298218,-1.6804315052428187,-2.5271485487567347,2.283942385310791,-1.0180991331683558,0.11141247302293777
1708438144.4112694,-1.1077572107315063,-1.6805154285826625,-2.5271440188037317,2.2838973241993408,-1.0181644598590296,0.11143302917480469
1708438144.4133165,-1.1076689958572388,-1.6805263958373011,-2.52717096010317,2.2838939863392334,-1.018167797719137,0.11138823628425598
1708438144.4153423,-1.10759437084198,-1.6805907688536585,-2.5271907488452356,2.283834143275879,-1.0182364622699183,0.11139269173145294
1708438144.417283,-1.1075022220611572,-1.6806603870787562,-2.5272191206561487,2.2837413984486084,-1.0182722250567835,0.11142854392528534
1708438144.419265,-1.1073570251464844,-1.6806642017760218,-2.527231041585104,2.2837182718464355,-1.018259350453512,0.11137630045413971
1708438144.421246,-1.107225775718689,-1.6807266674437464,-2.5272837320910853,2.2836543756672363,-1.0183118025409144,0.11144495010375977
1708438144.4232924,-1.1070610284805298,-1.6808239422240199,-2.5273106733905237,2.2835046487995605,-1.0183756987201136,0.11143302917480469
1708438144.4252832,-1.1069663763046265,-1.6808964214720667,-2.527371946965353,2.2834176260181884,-1.0183833281146448,0.11142855137586594
1708438144.4272478,-1.1067641973495483,-1.6809026203551234,-2.527433220540182,2.2833143907734375,-1.0184596220599573,0.11139726638793945
1708438144.4292386,-1.106593132019043,-1.6810437641539515,-2.5274632612811487,2.2831649023243408,-1.0184791723834437,0.11143738031387329
1708438144.4312465,-1.1063342094421387,-1.6811276874937953,-2.527475420628683,2.2830089765736084,-1.0185077826129358,0.11140942573547363
1708438144.4332917,-1.1062493324279785,-1.681162496606344,-2.527520481740133,2.2828289705463867,-1.018522087727682,0.11137934029102325
1708438144.4352384,-1.1059921979904175,-1.6813045940794886,-2.5275562445269983,2.2826601701923828,-1.0185545126544397,0.11142753064632416
1708438144.4372916,-1.1058040857315063,-1.6813222370543421,-2.5275757948504847,2.282566471690796,-1.0185697714435022,0.11142583191394806
1708438144.4392436,-1.1055406332015991,-1.6814137897887171,-2.527628246937887,2.2823237615772705,-1.0186393896686,0.11140942573547363
1708438144.4412434,-1.1052511930465698,-1.6815759144225062,-2.5277300516711634,2.2821647363850097,-1.018726650868551,0.11142583191394806
1708438144.4432812,-1.1049641370773315,-1.681687971154684,-2.527724091206686,2.2819697099873046,-1.0188186804400843,0.11140177398920059
1708438144.4452326,-1.1046427488327026,-1.681802888909811,-2.5277722517596644,2.281737967128418,-1.0188582579242151,0.11143304407596588
1708438144.4472513,-1.1043602228164673,-1.681899210015768,-2.5278037230121058,2.2814804750629882,-1.0189507643329065,0.11142134666442871
1708438144.4493024,-1.1039998531341553,-1.682079931298727,-2.527851645146505,2.2812651830860595,-1.0190184752093714,0.11135108768939972
1708438144.4512784,-1.103683352470398,-1.682117601434225,-2.52791935602297,2.2810532289692382,-1.0190694967852991,0.11143302917480469
1708438144.4532871,-1.1033275127410889,-1.6823226414122523,-2.527992550526754,2.280829592342041,-1.0191782156573694,0.11141696572303772
1708438144.4552598,-1.1029313802719116,-1.6824614010252894,-2.5280242601977747,2.2805208402821044,-1.0192773977862757,0.11140494048595428
1708438144.457269,-1.1025145053863525,-1.6826383076109828,-2.5280917326556605,2.2802862364002685,-1.0193818251239222,0.11139275133609772
1708438144.4592857,-1.1020585298538208,-1.6828190288939417,-2.528144184743063,2.2799767690845947,-1.0195344130145472,0.11138821393251419
1708438144.461277,-1.1015987396240234,-1.6830092869200648,-2.528262201939718,2.2796215254017334,-1.0196507612811487,0.11146291345357895
1708438144.4633086,-1.1011381149291992,-1.6832219562926234,-2.5283449331866663,2.2793044286915283,-1.01976186433901,0.11143746972084045
1708438144.4652886,-1.100665807723999,-1.6833764515318812,-2.528400484715597,2.2790095049091796,-1.0199063459979456,0.11143304407596588
1708438144.467288,-1.1001427173614502,-1.6836711368956507,-2.5284889380084437,2.2786337572285156,-1.0200055281268519,0.11142858862876892
1708438144.4692705,-1.0996545553207397,-1.6838871441283167,-2.528493944798605,2.278366728419922,-1.0200722853290003,0.11145825684070587
1708438144.4712365,-1.0991188287734985,-1.6841379604735316,-2.5286274592029017,2.277966185207031,-1.0202410856830042,0.11144495010375977
1708438144.4732668,-1.09850013256073,-1.6844026050963343,-2.5287681261645716,2.2775167661854248,-1.0203641096698206,0.11137482523918152
1708438144.4752371,-1.097987174987793,-1.684620042840475,-2.5288894812213343,2.2771834570118408,-1.0205524603473108,0.11139726638793945
1708438144.4772723,-1.0974390506744385,-1.684822221795553,-2.5289645830737513,2.2766939836689453,-1.0206764380084437,0.11141952127218246
1708438144.4792693,-1.0968067646026611,-1.685176511804098,-2.529081169758932,2.276270313853882,-1.0207908789264124,0.11140793561935425
1708438144.4812994,-1.0961576700210571,-1.685408731500143,-2.5291760603534144,2.2758356767841796,-1.0210078398333948,0.11144039034843445
1708438144.4833066,-1.0955215692520142,-1.6857739887633265,-2.529321018849508,2.2753750520893554,-1.0211876074420374,0.11144039034843445
1708438144.4852903,-1.0948652029037476,-1.6861478290953578,-2.5294411818133753,2.274850531215332,-1.021351162587301,0.11144495010375977
1708438144.4873621,-1.094226598739624,-1.6863843403258265,-2.529588286076681,2.274338646526001,-1.021560017262594,0.11148989200592041
1708438144.489321,-1.093571424484253,-1.6867648563780726,-2.529696289693014,2.2738498884388427,-1.0217025915728968,0.11147051304578781
1708438144.4913445,-1.0928250551223755,-1.687112947503561,-2.529823605214254,2.27336494504895,-1.0218828360186976,0.11149445176124573
1708438144.4932823,-1.092126727104187,-1.6874305210509242,-2.529990021382467,2.2728819090076904,-1.022095028554098,0.11145380139350891
1708438144.4952896,-1.0914382934570312,-1.687838693658346,-2.5301249662982386,2.272293730373047,-1.0222495237933558,0.11139610409736633
1708438144.4972835,-1.0906872749328613,-1.688192983666891,-2.530252520238058,2.271756573314331,-1.022477928792135,0.11143741011619568
1708438144.4992836,-1.0898704528808594,-1.6885434589781703,-2.53044563928713,2.271221800441406,-1.0226653257953089,0.11144942045211792
1708438144.5013435,-1.0890952348709106,-1.688944479028219,-2.5305612722979944,2.2705651956745605,-1.0229175726519983,0.11142855882644653
1708438144.5032816,-1.0882210731506348,-1.6893888912596644,-2.5306711832629603,2.270030661220215,-1.0231006781207483,0.11144942045211792
1708438144.5052736,-1.0874139070510864,-1.6897450886168421,-2.5308688322650355,2.2693466383167724,-1.0233724753009241,0.11144942045211792
1708438144.5072803,-1.0865461826324463,-1.6902042828001917,-2.531012837086813,2.2687710958668212,-1.0235803763019007,0.11144039034843445
1708438144.5092604,-1.0857230424880981,-1.6906053028502406,-2.5312181154834192,2.2681843477436523,-1.0238521734820765,0.11141697317361832
1708438144.5112581,-1.0847365856170654,-1.6910730801024378,-2.531386200581686,2.2675279813953857,-1.0241254011737269,0.1114538311958313
1708438144.5132623,-1.0838582515716553,-1.691498418847555,-2.5315330664264124,2.2669293123432617,-1.0243070761310022,0.11143302172422409
1708438144.5153043,-1.0829006433486938,-1.6919828854002894,-2.53174597421755,2.266246958369873,-1.024590317402975,0.11145380884408951
1708438144.5172796,-1.081950306892395,-1.6924506626524867,-2.53194243112673,2.265552206630371,-1.0249112288104456,0.11143937706947327
1708438144.519239,-1.0810004472732544,-1.6929127178587855,-2.5321295897113245,2.264897270793579,-1.0251949469195765,0.11141398549079895
1708438144.5212495,-1.0799381732940674,-1.6934205494322718,-2.5323379675494593,2.2642127710529785,-1.0254538694964808,0.1113734245300293
1708438144.5232546,-1.078917145729065,-1.6939240894713343,-2.532480541859762,2.2634567457386474,-1.0257213751422327,0.11138537526130676
1708438144.5252323,-1.0778363943099976,-1.6943870983519496,-2.5326979796039026,2.262737436885498,-1.0260213057147425,0.11138085275888443
1708438144.5272925,-1.076833963394165,-1.6948524914183558,-2.532893244420187,2.262002153987549,-1.026271168385641,0.11140622943639755
1708438144.529248,-1.0757346153259277,-1.6953402958311976,-2.533092800770895,2.2612482744404296,-1.026600186024801,0.111398845911026
1708438144.531256,-1.0745506286621094,-1.6958462200560511,-2.5333009401904505,2.2604383665272216,-1.026895825062887,0.11128373444080353
1708438144.5332658,-1.0734928846359253,-1.6964341602721156,-2.5335214773761194,2.2596379953571777,-1.027186695729391,0.11129727959632874
1708438144.5352466,-1.0723536014556885,-1.6969276867308558,-2.5337865988360804,2.2588352400013427,-1.0274832884417933,0.11125204712152481
1708438144.537274,-1.0712107419967651,-1.6975156269469203,-2.5339937845813196,2.258040114040039,-1.0277708212481897,0.11120419949293137
1708438144.5392575,-1.0700219869613647,-1.6980129681029261,-2.534241501485006,2.257178469295166,-1.0280779043780726,0.11118493229150772
1708438144.5412867,-1.0688034296035767,-1.6986414394774378,-2.534518543873922,2.2563060957142334,-1.0284131209002894,0.11111612617969513
1708438144.543275,-1.0675936937332153,-1.6991993389525355,-2.5347419420825403,2.255450649852417,-1.0287473837481897,0.11116718500852585
1708438144.5452538,-1.0663414001464844,-1.6997276745238246,-2.534985129033224,2.254612370128296,-1.02910024324526,0.11108613014221191
1708438144.5472481,-1.0650783777236938,-1.7004171810545863,-2.535224739705221,2.2536958891102294,-1.0294058958636683,0.1111028641462326
1708438144.5492828,-1.063791036605835,-1.7010194263853968,-2.5354724566089075,2.2527736860462646,-1.0298083464251917,0.11100859940052032
1708438144.5512896,-1.0625150203704834,-1.7016145191588343,-2.5357375780688685,2.251849337215088,-1.0301945845233362,0.11104293167591095
1708438144.5532696,-1.0612400770187378,-1.7022410831847132,-2.536025587712423,2.2509330946156005,-1.0305746237384241,0.1109786331653595
1708438144.5552983,-1.0599197149276733,-1.7028876743712367,-2.5362444559680384,2.249957962627075,-1.0309422651873987,0.11096955090761185
1708438144.5572836,-1.0585486888885498,-1.7035452328123988,-2.5365338961230677,2.248994989986084,-1.0314067045794886,0.11090563982725143
1708438144.5592794,-1.0571645498275757,-1.704184194604391,-2.5368054548846644,2.247978611583374,-1.0317562262164515,0.11087406426668167
1708438144.5612714,-1.0557243824005127,-1.7048918209471644,-2.5370736757861536,2.246999903316162,-1.0321710745440882,0.11086340248584747
1708438144.5633047,-1.0543709993362427,-1.7055369816222132,-2.5374022165881556,2.2459825712391357,-1.0326436201678675,0.11078740656375885
1708438144.5653024,-1.052927017211914,-1.7061907253661097,-2.5376198927508753,2.2449707227894287,-1.0330823103534144,0.11075882613658905
1708438144.5672896,-1.05155611038208,-1.706890722314352,-2.537936274205343,2.244014187450073,-1.0334394613849085,0.11062432080507278
1708438144.569257,-1.0500872135162354,-1.7076484165587367,-2.5382493177997034,2.242980642909668,-1.0338595549212855,0.11063936352729797
1708438144.5712426,-1.0486255884170532,-1.7083097896971644,-2.538525168095724,2.2418886858173828,-1.0342596212970179,0.11055385321378708
1708438144.5732584,-1.047121286392212,-1.709020277062887,-2.5388370195971888,2.240813894862793,-1.034731690083639,0.11052525788545609
1708438144.575241,-1.045623540878296,-1.7097255192198695,-2.539173189793722,2.239701195354126,-1.0351470152484339,0.11048664897680283
1708438144.5772579,-1.0440466403961182,-1.710513254205221,-2.5394819418536585,2.238574190730713,-1.0355857054339808,0.11042671650648117
1708438144.579261,-1.042452096939087,-1.7112442455687464,-2.5397191683398646,2.2375361162373046,-1.0360286871539515,0.11037465184926987
1708438144.581303,-1.0408858060836792,-1.711987634698385,-2.5401135126696985,2.2363428312489013,-1.0364840666400355,0.11031933128833771
1708438144.5832727,-1.0393025875091553,-1.7127953968443812,-2.5404749552356165,2.2352401453205566,-1.0369518438922327,0.11025950312614441
1708438144.5852435,-1.0377484560012817,-1.7135325870909632,-2.5407937208758753,2.2340797620960693,-1.0374019781695765,0.11015910655260086
1708438144.5872633,-1.0360522270202637,-1.7143198452391566,-2.5411339441882532,2.232954187984131,-1.037903134022848,0.1101069301366806
1708438144.5892546,-1.0344080924987793,-1.7151137791075648,-2.541436020527975,2.231814070338867,-1.0383284727679651,0.11006057262420654
1708438144.591247,-1.032710075378418,-1.7158471546568812,-2.5417643229113978,2.230590983028076,-1.0388596693622034,0.11000809073448181
1708438144.5932395,-1.030951976776123,-1.716649671594137,-2.5421574751483362,2.229433460826538,-1.0393436590777796,0.10993636399507523
1708438144.5952566,-1.0292437076568604,-1.717414995233053,-2.5424843470202845,2.22827331602063,-1.0398553053485315,0.10985716432332993
1708438144.597251,-1.027446985244751,-1.7182752094664515,-2.5428696314441126,2.2270161348530273,-1.04034930864443,0.10973626375198364
1708438144.5994742,-1.0256638526916504,-1.7191301784911097,-2.5431962648974817,2.2257508474537353,-1.0408156553851526,0.10967309772968292
1708438144.6013408,-1.023902416229248,-1.7199555836119593,-2.543572727833883,2.2246314722248535,-1.0413511435138147,0.1095927357673645
1708438144.6032853,-1.0220439434051514,-1.7207614384093226,-2.5439565817462366,2.2233585554310302,-1.041809384022848,0.10950872302055359
1708438144.6052737,-1.020239233970642,-1.721631189385885,-2.544309202824728,2.222062273616455,-1.0423367659198206,0.10936808586120605
1708438144.6073396,-1.0184106826782227,-1.7225147686400355,-2.5447495619403284,2.2207600313374023,-1.0428884665118616,0.10934591293334961
1708438144.6092796,-1.0165239572525024,-1.723335405389303,-2.545131031666891,2.219452067012451,-1.0433991591082972,0.1092619001865387
1708438144.611279,-1.0146894454956055,-1.7242285213866175,-2.5455382505999964,2.218132897014282,-1.0439513365374964,0.10916180908679962
1708438144.6133146,-1.0127474069595337,-1.7251693210997523,-2.5458808580981653,2.216733618373535,-1.044530216847555,0.10906640440225601
1708438144.6152842,-1.0107612609863281,-1.7260438404478968,-2.5463019053088587,2.2153500753590087,-1.045089069996969,0.10895107686519623
1708438144.617297,-1.008834958076477,-1.7269731960692347,-2.5466633478747767,2.2139596182056884,-1.0456393400775355,0.1088506281375885
1708438144.6193569,-1.0069223642349243,-1.7278481922545375,-2.54712945619692,2.2126282888599853,-1.0461657683001917,0.10872666537761688
1708438144.6212502,-1.0049257278442383,-1.728762765923971,-2.547570530568258,2.2112199503132324,-1.0467703978167933,0.10866103321313858
1708438144.623292,-1.002910852432251,-1.7297946415343226,-2.54800254503359,2.209756060237549,-1.047406021748678,0.10849948227405548
1708438144.6252713,-1.000855565071106,-1.7307654819884242,-2.5484452883349817,2.208397551173828,-1.0479524771319788,0.10842937231063843
1708438144.627297,-0.9988301396369934,-1.731734415093893,-2.5489216486560267,2.2069803911396484,-1.0485675970660608,0.1083170473575592
1708438144.6292598,-0.9968019723892212,-1.7326418362059535,-2.549340550099508,2.2055978017994384,-1.0492032209979456,0.10818419605493546
1708438144.631248,-0.9947124719619751,-1.733701845208639,-2.5498178640948694,2.2040936189838867,-1.049781624470846,0.10811080038547516
1708438144.6332734,-0.9926304817199707,-1.734711309472555,-2.5502336660968226,2.202561064357422,-1.050345245991842,0.10794636607170105
1708438144.6352546,-0.9905087351799011,-1.7357179127135218,-2.5506609121905726,2.2010978895374755,-1.0509536902057093,0.1078263372182846
1708438144.6372852,-0.9884535074234009,-1.736723085443014,-2.5510709921466272,2.1996375757404785,-1.051521126423971,0.10766524076461792
1708438144.6392615,-0.986260712146759,-1.737807413140768,-2.551605288182394,2.1981634336658935,-1.0521848837481897,0.10756829380989075
1708438144.6412423,-0.9841342568397522,-1.7388116321959437,-2.552108351384298,2.196685715312622,-1.0529025236712855,0.10735846310853958
1708438144.6432586,-0.9819744825363159,-1.7398597202696742,-2.5526414553271692,2.1951352792927246,-1.0535576979266565,0.10727478563785553
1708438144.6452472,-0.9797382354736328,-1.7409435711302699,-2.5530648867236536,2.193643017406128,-1.0541842619525355,0.1070861667394638
1708438144.6472688,-0.9775193929672241,-1.741918226281637,-2.553551737462179,2.1920768457600097,-1.0547950903521937,0.10697580873966217
1708438144.6492527,-0.9753428101539612,-1.7430416546263636,-2.553967301045553,2.1906000810810546,-1.0554874579059046,0.10683980584144592
1708438144.6512678,-0.9731472134590149,-1.7441631756224574,-2.5544469992267054,2.1890274721333007,-1.0561345259295862,0.10674243420362473
1708438144.653281,-0.970951497554779,-1.7450529537596644,-2.5549355188952845,2.187525435084961,-1.0568316618548792,0.10661856085062027
1708438144.6552734,-0.9687585234642029,-1.7461739979186,-2.555399243031637,2.18610064565625,-1.0574701468097132,0.10647478699684143
1708438144.6572778,-0.9665455222129822,-1.7472034893431605,-2.555859152470724,2.1846536832996826,-1.0580881277667444,0.10631485283374786
1708438144.6592724,-0.9643794894218445,-1.7482520542540492,-2.5563557783709925,2.183061047191284,-1.0587685743915003,0.10620858520269394
1708438144.6612515,-0.9622610807418823,-1.7492853603758753,-2.5568562189685267,2.181614800090454,-1.0594194571124476,0.1059977114200592
1708438144.6632848,-0.9599941968917847,-1.7503539524474085,-2.5572412649737757,2.180072231883667,-1.0601041952716272,0.10589615255594254
1708438144.6652772,-0.9577951431274414,-1.7514049015440882,-2.557765785847799,2.178569956416748,-1.0607355276690882,0.1056867241859436
1708438144.667267,-0.9556235671043396,-1.7524363003172816,-2.5582545439349573,2.1769413191029052,-1.0613668600665491,0.10554642975330353
1708438144.6692574,-0.9533964395523071,-1.7535115681090296,-2.558721367512838,2.175408049220703,-1.06205922762026,0.10537566989660263
1708438144.671253,-0.951194703578949,-1.754557271996969,-2.5591326395617884,2.173886700267456,-1.062751595173971,0.10526494681835175
1708438144.6732519,-0.9489872455596924,-1.7556644878783167,-2.5596943537341517,2.172278805369995,-1.0633652845965784,0.10511420667171478
1708438144.6752505,-0.9467164874076843,-1.7565814457335414,-2.560128990803854,2.1707252699085693,-1.0640209356891077,0.10489580035209656
1708438144.6772523,-0.9445258378982544,-1.7576853237547816,-2.5606136957751673,2.1691338258930664,-1.0646980444537562,0.10481224954128265
1708438144.6792498,-0.9423668384552002,-1.7587067089476527,-2.5610857645617884,2.167634888286255,-1.065272633229391,0.1046266183257103
1708438144.6812606,-0.9401426911354065,-1.759728570977682,-2.561570707951681,2.1661416727253417,-1.0659402052508753,0.10449204593896866
1708438144.683309,-0.9379438757896423,-1.760754247704977,-2.5620296637164515,2.164684935207031,-1.0666411558734339,0.10435310006141663
1708438144.6852772,-0.9357231259346008,-1.761831899682516,-2.5625444094287317,2.1631271082111816,-1.0672639052020472,0.10420060902833939
1708438144.6873024,-0.933516800403595,-1.7628642521300257,-2.562998119984762,2.1616148191639404,-1.0679310003863733,0.10402427613735199
1708438144.6892948,-0.9313061237335205,-1.7639204464354457,-2.5634334723102015,2.1601852613636474,-1.068554703389303,0.1038849949836731
1708438144.6912735,-0.9290748834609985,-1.764939924279684,-2.5639458338366907,2.158625288600586,-1.069251839314596,0.10379386693239212
1708438144.6932797,-0.9268783330917358,-1.7659508190550746,-2.56445557275881,2.15710632383313,-1.0698989073382776,0.1036430299282074
1708438144.6952693,-0.9246559143066406,-1.7669855556883753,-2.5648611227618616,2.1556288438984375,-1.070550266896383,0.10351577401161194
1708438144.6972868,-0.9224352240562439,-1.7680713138976039,-2.5654266516314905,2.154143734569214,-1.0711291472064417,0.10331568121910095
1708438144.6992693,-0.9202315807342529,-1.769055505792135,-2.5658775011645716,2.1525487142750244,-1.0717480818377894,0.10319558531045914
1708438144.7012773,-0.9180286526679993,-1.770074029962057,-2.566361729298727,2.150998039836548,-1.0723684469806116,0.10302381962537766
1708438144.7032812,-0.9158384203910828,-1.7711521587767542,-2.566828791295187,2.1495157915302734,-1.072972599660055,0.10291342437267303
1708438144.7052753,-0.9136460423469543,-1.772210260430807,-2.567341391240255,2.1479262548634033,-1.0735142866717737,0.10272938013076782
1708438144.707284,-0.9114291071891785,-1.7732469044127406,-2.5677881876574915,2.146414204234741,-1.0741313139544886,0.10265140235424042
1708438144.7092612,-0.9092411398887634,-1.7743102512755335,-2.568288866673605,2.144835873241089,-1.0747383276568812,0.10244642198085785
1708438144.7112947,-0.9070470333099365,-1.775376935998434,-2.5688136259662073,2.1432811456867675,-1.0754182974444788,0.10234060138463974
1708438144.7133152,-0.9048498868942261,-1.7763883076109828,-2.569256607686178,2.1417714792438964,-1.0761316458331507,0.10218779742717743
1708438144.7152648,-0.9026266932487488,-1.7773992023863734,-2.5697558561908167,2.1402453619190673,-1.076782528554098,0.10206057131290436
1708438144.717274,-0.9005184769630432,-1.778494497338766,-2.5701947847949427,2.1387435632893066,-1.077477757130758,0.10188913345336914
1708438144.719254,-0.8983379006385803,-1.779524942437643,-2.570712391530172,2.137145920390747,-1.0781739393817347,0.10181121528148651
1708438144.7212572,-0.8962075114250183,-1.780532022515768,-2.5711589495288294,2.1356281477161865,-1.0788443724261683,0.10158389061689377
1708438144.72329,-0.8939663171768188,-1.7815758190550746,-2.571627203618185,2.134099169368408,-1.079487148915426,0.10143721848726273
1708438144.725249,-0.8918318152427673,-1.782600542108053,-2.572160545979635,2.1326095300861816,-1.0801823774920862,0.10134325921535492
1708438144.7272637,-0.8896415829658508,-1.7836820087828578,-2.5726197401629847,2.131096048946045,-1.080867115651266,0.10119490325450897
1708438144.7292554,-0.8874942064285278,-1.7847639522948207,-2.5730891863452356,2.1295620638081054,-1.0815184752093714,0.10104690492153168
1708438144.7312448,-0.8852115869522095,-1.785720010797018,-2.5735390822040003,2.1281234461018066,-1.0821417013751429,0.10085129737854004
1708438144.733286,-0.8830127120018005,-1.786792894402975,-2.5740726629840296,2.1265837389179687,-1.082792107258932,0.1007317528128624
1708438144.7352402,-0.8808431625366211,-1.7878438434996546,-2.574470345173971,2.1250387865253906,-1.0833872000323694,0.10061359405517578
1708438144.7372897,-0.8785370588302612,-1.7889429531493128,-2.574902359639303,2.12356345235791,-1.0840557257281702,0.1004820317029953
1708438144.739319,-0.8763539791107178,-1.7899638615050257,-2.5754361788379114,2.122081442470215,-1.0847237745868128,0.10032210499048233
1708438144.7412455,-0.8741396069526672,-1.790927072564596,-2.5758586565600794,2.120563192958496,-1.0853665510760706,0.10015760362148285
1708438144.7432625,-0.8719105124473572,-1.7920142612852992,-2.576310459767477,2.119086428279541,-1.0859935919391077,0.10002270340919495
1708438144.7452772,-0.869741678237915,-1.7930470905699671,-2.576749626790182,2.1176089483448486,-1.0867331663714808,0.09985381364822388
1708438144.7472856,-0.8674853444099426,-1.7941423855223597,-2.5772581736194056,2.1160833078571777,-1.0874326864825647,0.09974758327007294
1708438144.7492528,-0.865328848361969,-1.795093675652975,-2.577688757573263,2.114581509227417,-1.0881488958941858,0.0995175838470459
1708438144.7513885,-0.8631181716918945,-1.7962013683714808,-2.578181807194845,2.1130358415791015,-1.088844124470846,0.09943673014640808
1708438144.7532623,-0.8609142303466797,-1.7972904644408167,-2.5786574522601526,2.1115564542957763,-1.0894659201251429,0.09927982091903687
1708438144.7552533,-0.8586718440055847,-1.7983557186522425,-2.57914907137026,2.109990044231079,-1.0900896231280726,0.0991615355014801
1708438144.7572734,-0.8564881682395935,-1.799413343469137,-2.5796785990344446,2.1084164816090087,-1.090766731892721,0.09897306561470032
1708438144.7592392,-0.8543164730072021,-1.8004809818663539,-2.5801222960101526,2.106830282802246,-1.0914624373065394,0.09888643026351929
1708438144.7612495,-0.8520660996437073,-1.8014904461302699,-2.5806425253497522,2.105295105571411,-1.092032257710592,0.0987052395939827
1708438144.7632735,-0.8499626517295837,-1.802568098107809,-2.5810492674456995,2.1037649351307373,-1.0926764647113245,0.09855180978775024
1708438144.7652857,-0.8477158546447754,-1.8036023579039515,-2.581517044697897,2.102243347758911,-1.093142334614889,0.09839147329330444
1708438144.767275,-0.8455668091773987,-1.8046509228148402,-2.5819972197162073,2.1007162767597656,-1.0937712828265589,0.0982436090707779
1708438144.7692578,-0.84339839220047,-1.80566467861318,-2.582480494176046,2.0991572576710205,-1.0944436232196253,0.09811195731163025
1708438144.7712498,-0.8411635756492615,-1.8067499599852503,-2.5829761664019983,2.097618980998657,-1.0950749556170862,0.09791328758001328
1708438144.7732778,-0.8389402627944946,-1.8077713451781214,-2.5834925810443323,2.096151276225708,-1.0957868734942835,0.09777402877807617
1708438144.775252,-0.8368504643440247,-1.8089128933348597,-2.5839384237872522,2.0946737962910156,-1.0964954535113733,0.09763798117637634
1708438144.7772837,-0.8346048593521118,-1.8098989925780238,-2.5844529310809534,2.0931441026875,-1.097137753163473,0.09745863825082779
1708438144.779269,-0.8324337005615234,-1.811033388177389,-2.584965769444601,2.0916637617298584,-1.0978463331805628,0.09727495908737183
1708438144.781303,-0.8301931023597717,-1.8120585880675257,-2.585456673298971,2.0902158456989746,-1.098518196736471,0.09709091484546661
1708438144.7833087,-0.8280174136161804,-1.8130446873106898,-2.5858705679522913,2.088634415263794,-1.0991118589984339,0.09695306420326233
1708438144.7852628,-0.8257892727851868,-1.8141213856139125,-2.586440626774923,2.0871404844471435,-1.0997346083270472,0.09673210233449936
1708438144.7872863,-0.8236111402511597,-1.8151351414122523,-2.5868902842151087,2.085625572795532,-1.1004045645343226,0.09660491347312927
1708438144.7892628,-0.8213808536529541,-1.816174169579977,-2.5874179045306605,2.084105892772339,-1.1009953657733362,0.09643879532814026
1708438144.791269,-0.8191556334495544,-1.8172646961607875,-2.587931458150045,2.0825814443775634,-1.1016548315631312,0.09620404243469238
1708438144.79328,-0.8170106410980225,-1.818322320977682,-2.5883269945727747,2.0811020570942382,-1.1021845976458948,0.09606213122606277
1708438144.7952518,-0.8148002624511719,-1.8193375072874964,-2.58884841600527,2.0795530515858154,-1.102793041859762,0.09589150547981262
1708438144.7972722,-0.8125616312026978,-1.820404668847555,-2.58931547800173,2.0780247884937744,-1.1033771673785608,0.09574508666992188
1708438144.7992523,-0.8103644847869873,-1.821465631524557,-2.589815680180685,2.0765103536793212,-1.103997532521383,0.09553258121013641
1708438144.8012676,-0.8081529140472412,-1.8225146732726039,-2.5902279059039515,2.0749828058430175,-1.1046536604510706,0.09534445405006409
1708438144.803322,-0.8060042262077332,-1.823484560052389,-2.590752188359396,2.073516531581543,-1.1052406469928187,0.09517665207386017
1708438144.8052673,-0.8037633299827576,-1.8245440922179164,-2.591264311467306,2.0719358164020996,-1.1058676878558558,0.09497371315956116
