Eg3-git/Classifiers/Data Collection/u6/u6www2_ur3e_joint_states.csv
time,elbow_joint,shoulder_lift_joint,shoulder_pan_joint,wrist_1_joint,wrist_2_joint,wrist_3_joint
1708438124.7231812,-1.1059398651123047,-1.6813646755614222,-2.5269957224475306,2.2817727762409667,-1.0179231802569788,0.2825722396373749
1708438124.7251842,-1.10590660572052,-1.6813532314696253,-2.5269625822650355,2.2817956644245605,-1.0179317633258265,0.28257662057876587
1708438124.7271774,-1.105948805809021,-1.6814094982542933,-2.5269926230060022,2.2817956644245605,-1.0179112593280237,0.2825721800327301
1708438124.729168,-1.105928897857666,-1.6813293896117152,-2.5269671122180384,2.2818009096333007,-1.017972771321432,0.2825722098350525
1708438124.7311666,-1.1058902740478516,-1.6813856563963832,-2.5269551912890833,2.2817880350300292,-1.0179598967181605,0.2825257182121277
1708438124.733188,-1.1059199571609497,-1.681401868859762,-2.5270164648639124,2.281820459956787,-1.0179198423968714,0.2825137972831726
1708438124.7351632,-1.105922818183899,-1.681368967095846,-2.5269716421710413,2.2817632394978027,-1.0179641882525843,0.28252720832824707
1708438124.7371616,-1.1059695482254028,-1.6813250980772914,-2.5270002524005335,2.2818452554890136,-1.0179198423968714,0.2825510501861572
1708438124.7391555,-1.105890154838562,-1.6813975773253382,-2.5269625822650355,2.2818161684223632,-1.017947022114889,0.2825555205345154
1708438124.741146,-1.1059532165527344,-1.6813856563963832,-2.5269671122180384,2.281844301814697,-1.0179274717914026,0.2825510501861572
1708438124.7431846,-1.1059532165527344,-1.6813732586302699,-2.5269866625415247,2.281792326564453,-1.0179436842547815,0.2825721800327301
1708438124.745265,-1.1059155464172363,-1.6813770733275355,-2.5269747416125696,2.281836672420166,-1.0179675261126917,0.28257670998573303
1708438124.7471898,-1.1059443950653076,-1.6813208065428675,-2.5269671122180384,2.281776114101074,-1.0179231802569788,0.2825721800327301
1708438124.7491772,-1.105896234512329,-1.6813661060728968,-2.5270493666278284,2.281820459956787,-1.0179393927203577,0.2825137972831726
1708438124.7511876,-1.1059184074401855,-1.6813813648619593,-2.5270493666278284,2.2817868429371337,-1.0179970900165003,0.2825137674808502
1708438124.7531877,-1.105911135673523,-1.6814137897887171,-2.5269551912890833,2.2818452554890136,-1.0179351011859339,0.282552570104599
1708438124.755163,-1.1059406995773315,-1.681340833703512,-2.5269747416125696,2.281804247493408,-1.0179842154132288,0.28256773948669434
1708438124.7571826,-1.1059274673461914,-1.68133606533193,-2.5269883314715784,2.2818161684223632,-1.0179513136493128,0.28252720832824707
1708438124.7591825,-1.1059080362319946,-1.681361814538473,-2.5270448366748255,2.2817837434956054,-1.0179436842547815,0.2825510501861572
1708438124.7611954,-1.1059184074401855,-1.6813603840269984,-2.526977841054098,2.281792326564453,-1.0179885069476526,0.28258413076400757
1708438124.763275,-1.1059443950653076,-1.6813532314696253,-2.5270360151873987,2.281848593349121,-1.0180209318744105,0.2825510501861572
1708438124.765199,-1.1059362888336182,-1.6813985309996546,-2.52696139017214,2.281836672420166,-1.0179756323443812,0.282555490732193
1708438124.767151,-1.105911135673523,-1.6813575230040492,-2.5269625822650355,2.2818161684223632,-1.0179718176471155,0.2825632095336914
1708438124.7691631,-1.1059274673461914,-1.6814137897887171,-2.5270448366748255,2.2817467886158447,-1.0179756323443812,0.28253164887428284
1708438124.7711933,-1.1059858798980713,-1.6813813648619593,-2.5270031134234827,2.281808539027832,-1.0179675261126917,0.28260937333106995
1708438124.773174,-1.1059229373931885,-1.6813703976073207,-2.5269580523120325,2.281812830562256,-1.0179842154132288,0.28248968720436096
1708438124.7752137,-1.10590660572052,-1.6813975773253382,-2.5270076433764856,2.281776114101074,-1.0179956595050257,0.28252124786376953
1708438124.7771697,-1.105924367904663,-1.6812950573363246,-2.5270031134234827,2.2817880350300292,-1.0180166403399866,0.2825346887111664
1708438124.7791574,-1.1059576272964478,-1.6813646755614222,-2.5269957224475306,2.2817391592213134,-1.0179756323443812,0.28253015875816345
1708438124.7811513,-1.105948805809021,-1.6814223728575648,-2.5270002524005335,2.281848593349121,-1.018008057271139,0.28258857131004333
1708438124.7831602,-1.1058992147445679,-1.6814266643919886,-2.5269957224475306,2.2817880350300292,-1.0179784933673304,0.28252720832824707
1708438124.7851465,-1.105948805809021,-1.681406160394186,-2.526977841054098,2.281824751491211,-1.0180242697345179,0.2825510501861572
1708438124.787217,-1.1059362888336182,-1.6813603840269984,-2.5269792715655726,2.281804247493408,-1.0179913679706019,0.28250640630722046
1708438124.7891989,-1.1058992147445679,-1.6813813648619593,-2.5269866625415247,2.281820459956787,-1.018019978200094,0.2825435698032379
1708438124.7911568,-1.1059318780899048,-1.6813365421690882,-2.5269866625415247,2.2817632394978027,-1.018019978200094,0.28253164887428284
1708438124.7932017,-1.105873942375183,-1.6813942394652308,-2.5269580523120325,2.2817837434956054,-1.0179742018329065,0.28250640630722046
1708438124.7951932,-1.1058917045593262,-1.681446214715475,-2.5270121733294886,2.2818161684223632,-1.0180276075946253,0.28253015875816345
1708438124.797188,-1.1059155464172363,-1.681401868859762,-2.5269928614245813,2.2818192678638916,-1.0179670492755335,0.2825510501861572
1708438124.7991712,-1.105981469154358,-1.681345125237936,-2.5269747416125696,2.2817632394978027,-1.0180242697345179,0.2825465202331543
1708438124.8011637,-1.1059229373931885,-1.681361814538473,-2.5270076433764856,2.2817956644245605,-1.018036190663473,0.282515287399292
1708438124.8032084,-1.1059125661849976,-1.6813975773253382,-2.5270448366748255,2.281804247493408,-1.0180438200580042,0.28250640630722046
1708438124.80516,-1.1058948040008545,-1.681368967095846,-2.5269747416125696,2.2817467886158447,-1.0180524031268519,0.2824852466583252
1708438124.8071516,-1.105924367904663,-1.681401868859762,-2.5270031134234827,2.2817956644245605,-1.0180156866656702,0.282555490732193
1708438124.809159,-1.105924367904663,-1.6813365421690882,-2.5270572344409388,2.2818333345600585,-1.0180309454547327,0.28258857131004333
1708438124.8111773,-1.1058872938156128,-1.6814223728575648,-2.5270031134234827,2.281804247493408,-1.0180438200580042,0.2825137674808502
1708438124.8131719,-1.105878472328186,-1.6813646755614222,-2.5269747416125696,2.281804247493408,-1.0180113951312464,0.28250640630722046
1708438124.8151894,-1.105948805809021,-1.681418081323141,-2.5270002524005335,2.2818290430256347,-1.0180395285235804,0.2825632095336914
1708438124.817145,-1.105918526649475,-1.681368967095846,-2.527026955281393,2.281776114101074,-1.0179908911334437,0.28259292244911194
1708438124.819178,-1.105873942375183,-1.681418081323141,-2.52702242532839,2.2818030554005126,-1.0180557409869593,0.28250640630722046
1708438124.8211875,-1.105911135673523,-1.6813646755614222,-2.5269866625415247,2.281848593349121,-1.0180233160602015,0.282563179731369
1708438124.823158,-1.1058992147445679,-1.6813932857909144,-2.5270076433764856,2.2818237978168945,-1.0180071035968226,0.2824806571006775
1708438124.8252063,-1.1059398651123047,-1.681418081323141,-2.5269866625415247,2.281832380885742,-1.0180147329913538,0.2825480103492737
1708438124.8271801,-1.105911135673523,-1.6814309559264125,-2.5269911924945276,2.2818075853535156,-1.018088165913717,0.2824985980987549
1708438124.829142,-1.1059199571609497,-1.6813365421690882,-2.5269580523120325,2.281758947963379,-1.0180633703814905,0.2826092839241028
1708438124.8311431,-1.1059229373931885,-1.6814137897887171,-2.5270403067218226,2.281792326564453,-1.0180352369891565,0.28251826763153076
1708438124.833165,-1.1059036254882812,-1.6813661060728968,-2.5269537607776087,2.281824751491211,-1.0181048552142542,0.28253912925720215
1708438124.835149,-1.105878472328186,-1.6813770733275355,-2.5270076433764856,2.281832380885742,-1.018083397542135,0.28253909945487976
1708438124.8371596,-1.1059318780899048,-1.6814137897887171,-2.5270076433764856,2.28184096395459,-1.0180795828448694,0.2825435996055603
1708438124.839193,-1.1058992147445679,-1.6814028225340785,-2.527052942906515,2.2818400102802734,-1.0180676619159144,0.28253164887428284
1708438124.84117,-1.105928897857666,-1.6813036404051722,-2.5270076433764856,2.281808539027832,-1.0180795828448694,0.28251373767852783
1708438124.8431556,-1.105924367904663,-1.6813775501646937,-2.5269866625415247,2.2818118768879394,-1.0180919806109827,0.28253912925720215
1708438124.845151,-1.105911135673523,-1.6813975773253382,-2.5270448366748255,2.2817675310322265,-1.0181034247027796,0.2825435698032379
1708438124.8471859,-1.1059497594833374,-1.6814094982542933,-2.52702242532839,2.2817999559589843,-1.0180919806109827,0.28254055976867676
1708438124.8491728,-1.1058828830718994,-1.6813818416991175,-2.5270031134234827,2.2817718225666503,-1.0181077162372034,0.282552570104599
1708438124.851162,-1.105911135673523,-1.681418081323141,-2.5269838015185755,2.2818495470234375,-1.018050495778219,0.2825677692890167
1708438124.8531928,-1.1059406995773315,-1.681401868859762,-2.5270076433764856,2.2818614679523925,-1.0180428663836878,0.2825436294078827
1708438124.8551779,-1.1058948040008545,-1.6813856563963832,-2.526977841054098,2.2817632394978027,-1.0180590788470667,0.2825346887111664
1708438124.857151,-1.105922818183899,-1.6813856563963832,-2.527055803929464,2.281820459956787,-1.0181286970721644,0.2825435996055603
1708438124.8591413,-1.1058948040008545,-1.681368967095846,-2.526989761983053,2.2818118768879394,-1.0180709997760218,0.28254804015159607
1708438124.8611555,-1.105879306793213,-1.6813932857909144,-2.5270031134234827,2.2818280893513183,-1.0180547873126429,0.2825555205345154
1708438124.8632076,-1.1058992147445679,-1.6813775501646937,-2.5270031134234827,2.281832380885742,-1.0181201140033167,0.2825227677822113
1708438124.8651469,-1.1059406995773315,-1.6814104519286097,-2.5269702116595667,2.281792326564453,-1.0180991331683558,0.2825316786766052
1708438124.8671625,-1.1058992147445679,-1.6813885174193324,-2.5269702116595667,2.2818161684223632,-1.0180991331683558,0.28253912925720215
1708438124.8691418,-1.10587477684021,-1.6813732586302699,-2.526994053517477,2.281836672420166,-1.0180991331683558,0.2825887203216553
1708438124.871143,-1.1058703660964966,-1.6813250980772914,-2.527026955281393,2.2818783956715087,-1.0181077162372034,0.28253912925720215
1708438124.8731463,-1.1058659553527832,-1.6814185581602992,-2.5270357767688196,2.281804247493408,-1.0180991331683558,0.2825227379798889
1708438124.8751783,-1.1058992147445679,-1.681361814538473,-2.5270031134234827,2.2817956644245605,-1.0181201140033167,0.2825031280517578
1708438124.8771539,-1.1058992147445679,-1.6813813648619593,-2.5270121733294886,2.2817868429371337,-1.0181034247027796,0.2825152575969696
1708438124.879137,-1.1059576272964478,-1.68133606533193,-2.526977841054098,2.2817999559589843,-1.018066708241598,0.2825480103492737
1708438124.8811357,-1.1059199571609497,-1.6813775501646937,-2.5269747416125696,2.2818571764179687,-1.0180791060077112,0.2825555205345154
1708438124.883145,-1.1059036254882812,-1.6813575230040492,-2.5270031134234827,2.281820459956787,-1.0181201140033167,0.2825644910335541
1708438124.8851614,-1.1059532165527344,-1.6813527546324671,-2.5270031134234827,2.281747027034424,-1.0181201140033167,0.28252720832824707
1708438124.8872,-1.1059354543685913,-1.6813775501646937,-2.5269911924945276,2.2817880350300292,-1.018090550099508,0.2825227975845337
1708438124.8891656,-1.105948805809021,-1.681406637231344,-2.5270403067218226,2.2818686205097656,-1.0180991331683558,0.28254806995391846
1708438124.8911865,-1.1059036254882812,-1.6813441715636195,-2.527013365422384,2.281792326564453,-1.0180709997760218,0.2825346887111664
1708438124.8931644,-1.1059576272964478,-1.6813813648619593,-2.5270360151873987,2.281824751491211,-1.0180991331683558,0.28257349133491516
1708438124.8951576,-1.1058614253997803,-1.6813684902586878,-2.527057472859518,2.2818161684223632,-1.0180991331683558,0.28253912925720215
1708438124.8972077,-1.105911135673523,-1.6813684902586878,-2.527026955281393,2.281738205546997,-1.018094841633932,0.2825316786766052
1708438124.8991764,-1.1059362888336182,-1.6813599071898402,-2.5270360151873987,2.2817837434956054,-1.0181077162372034,0.2825316786766052
1708438124.9012187,-1.1059443950653076,-1.6813508472838343,-2.5270031134234827,2.2818280893513183,-1.0180991331683558,0.28254806995391846
1708438124.903204,-1.1059021949768066,-1.6813484630980433,-2.5270031134234827,2.2818571764179687,-1.0180991331683558,0.2825526297092438
1708438124.9051526,-1.105911135673523,-1.6813813648619593,-2.52702242532839,2.2818118768879394,-1.0180991331683558,0.2825407087802887
1708438124.9071527,-1.1058828830718994,-1.6813575230040492,-2.527052942906515,2.2818354803272705,-1.0180991331683558,0.28254806995391846
1708438124.909151,-1.10590660572052,-1.6813913784422816,-2.527039353047506,2.28184096395459,-1.0181201140033167,0.2825555205345154
1708438124.9111896,-1.10587477684021,-1.681361814538473,-2.527052942906515,2.281824751491211,-1.0181034247027796,0.28251081705093384
1708438124.9131863,-1.1058658361434937,-1.6813775501646937,-2.527026955281393,2.281747027034424,-1.0181320349322718,0.2825510501861572
1708438124.9151638,-1.1058948040008545,-1.6813813648619593,-2.5270031134234827,2.281890316600464,-1.0181034247027796,0.2824777066707611
1708438124.9171708,-1.1059489250183105,-1.6813975773253382,-2.527060333882467,2.2818571764179687,-1.0180919806109827,0.2824867367744446
1708438124.9191535,-1.1058992147445679,-1.6813646755614222,-2.526977841054098,2.281852884883545,-1.0181034247027796,0.28248515725135803
1708438124.9211674,-1.105924367904663,-1.6814319096007289,-2.5269866625415247,2.2817956644245605,-1.0180991331683558,0.2825316786766052
1708438124.9231768,-1.10587477684021,-1.6813198528685511,-2.5269866625415247,2.281824751491211,-1.0181034247027796,0.282515287399292
1708438124.9251852,-1.1058614253997803,-1.6813484630980433,-2.5270031134234827,2.2818118768879394,-1.0180991331683558,0.2825644612312317
1708438124.9271855,-1.1059036254882812,-1.6813441715636195,-2.5269911924945276,2.281852884883545,-1.018127743397848,0.28253623843193054
1708438124.929465,-1.1058872938156128,-1.6813365421690882,-2.526994291936056,2.2818280893513183,-1.018094841633932,0.28251081705093384
1708438124.9311554,-1.1059489250183105,-1.6813942394652308,-2.5270031134234827,2.281832380885742,-1.0180991331683558,0.2825227379798889
1708438124.9331536,-1.1059036254882812,-1.6813532314696253,-2.526956860219137,2.281792326564453,-1.018083397542135,0.28256604075431824
1708438124.935148,-1.1058902740478516,-1.6814266643919886,-2.5270448366748255,2.2818655210682373,-1.0181320349322718,0.28251081705093384
1708438124.937154,-1.1059064865112305,-1.6813904247679652,-2.527060333882467,2.2817837434956054,-1.0180991331683558,0.282515287399292
1708438124.939161,-1.1058992147445679,-1.6813813648619593,-2.5270076433764856,2.281808539027832,-1.0181320349322718,0.282515287399292
1708438124.9411771,-1.105896234512329,-1.681345125237936,-2.5269866625415247,2.281832380885742,-1.0180991331683558,0.28254806995391846
1708438124.9431782,-1.1059406995773315,-1.6813732586302699,-2.5270031134234827,2.2817956644245605,-1.0181034247027796,0.2825063467025757
1708438124.94519,-1.105924367904663,-1.6813942394652308,-2.5269866625415247,2.2818280893513183,-1.0180624167071741,0.28253623843193054
1708438124.9472888,-1.1059362888336182,-1.6813732586302699,-2.5269954840289515,2.281808539027832,-1.0180991331683558,0.282515287399292
1708438124.9491975,-1.1059318780899048,-1.6813727817931117,-2.5270031134234827,2.2818161684223632,-1.018083397542135,0.28254806995391846
1708438124.9512243,-1.1059064865112305,-1.6813942394652308,-2.526994053517477,2.2818030554005126,-1.0181034247027796,0.2825857400894165
1708438124.9531732,-1.1059443950653076,-1.681361814538473,-2.526994053517477,2.281798763866089,-1.0180991331683558,0.2825287878513336
1708438124.9551754,-1.105878472328186,-1.6814342937865199,-2.5270617643939417,2.2818400102802734,-1.018094841633932,0.2825198471546173
1708438124.9571877,-1.1058902740478516,-1.6813775501646937,-2.5269747416125696,2.2818774419971923,-1.0181034247027796,0.2824896275997162
1708438124.9592333,-1.105911135673523,-1.6813856563963832,-2.5270119349109095,2.281844301814697,-1.018090550099508,0.282569020986557
1708438124.9612248,-1.1058992147445679,-1.6813775501646937,-2.5270031134234827,2.2818161684223632,-1.0181034247027796,0.2824985682964325
1708438124.9632304,-1.105945348739624,-1.681368967095846,-2.5269911924945276,2.281820459956787,-1.0180991331683558,0.282515287399292
1708438124.9651616,-1.1059229373931885,-1.6814147434630335,-2.5269911924945276,2.281836672420166,-1.0180991331683558,0.2825227379798889
1708438124.9671752,-1.1059199571609497,-1.6813208065428675,-2.52696139017214,2.281844301814697,-1.0180876890765589,0.2824985682964325
1708438124.9691408,-1.1059532165527344,-1.681401868859762,-2.527052942906515,2.2818118768879394,-1.018066708241598,0.282569020986557
1708438124.9711385,-1.1059080362319946,-1.6813732586302699,-2.5269702116595667,2.2818495470234375,-1.018066708241598,0.2825435996055603
1708438124.9731631,-1.1059199571609497,-1.6813403568663539,-2.5269911924945276,2.281844301814697,-1.0181034247027796,0.2825227379798889
1708438124.975167,-1.105960726737976,-1.681422849694723,-2.5270031134234827,2.2818118768879394,-1.018050495778219,0.28253623843193054
1708438124.9771671,-1.10590660572052,-1.6814385853209437,-2.527026955281393,2.2817913728901367,-1.018050495778219,0.28253912925720215
1708438124.979145,-1.1059274673461914,-1.6813575230040492,-2.527052942906515,2.2818783956715087,-1.0181120077716272,0.2824896275997162
1708438124.9811676,-1.1058828830718994,-1.6813293896117152,-2.52698523203005,2.2818161684223632,-1.0180876890765589,0.28255999088287354
1708438124.9831648,-1.1059561967849731,-1.6814147434630335,-2.5269747416125696,2.2818354803272705,-1.0180962721454065,0.2825227379798889
1708438124.9851646,-1.10590660572052,-1.681364198724264,-2.526970450078146,2.2818118768879394,-1.0180557409869593,0.28253912925720215
1708438124.9871795,-1.105911135673523,-1.6814104519286097,-2.526970450078146,2.281881733531616,-1.0180709997760218,0.28255999088287354
1708438124.9891915,-1.105928897857666,-1.6813575230040492,-2.5270119349109095,2.2818192678638916,-1.0180547873126429,0.282515287399292
1708438124.9911807,-1.1058992147445679,-1.681345125237936,-2.5270493666278284,2.281804247493408,-1.0180633703814905,0.2825316786766052
1708438124.9932203,-1.10590660572052,-1.6813904247679652,-2.5269911924945276,2.2817868429371337,-1.0180557409869593,0.28251081705093384
1708438124.9952185,-1.105911135673523,-1.6814028225340785,-2.5270031134234827,2.2818237978168945,-1.0180395285235804,0.2825407087802887
1708438124.9972026,-1.1059443950653076,-1.681368967095846,-2.5270076433764856,2.2818354803272705,-1.0180438200580042,0.2825153172016144
1708438124.999197,-1.1059608459472656,-1.6813775501646937,-2.5269747416125696,2.2818075853535156,-1.0180352369891565,0.28253912925720215
1708438125.0011535,-1.105911135673523,-1.6813322506346644,-2.5269911924945276,2.281832380885742,-1.0180147329913538,0.28254806995391846
1708438125.0032399,-1.1059318780899048,-1.681394716302389,-2.5270403067218226,2.281820459956787,-1.0180438200580042,0.28254804015159607
1708438125.0051756,-1.1059561967849731,-1.6813494167723597,-2.5269866625415247,2.2817913728901367,-1.0180395285235804,0.28250929713249207
1708438125.007166,-1.105890154838562,-1.6814547977843226,-2.5270076433764856,2.2818161684223632,-1.0180156866656702,0.2824941575527191
1708438125.0091817,-1.1059576272964478,-1.6813932857909144,-2.5270076433764856,2.281804247493408,-1.0180113951312464,0.2825317084789276
1708438125.011154,-1.105948805809021,-1.6814137897887171,-2.5270209948169153,2.2818400102802734,-1.0180404821978968,0.28255704045295715
1708438125.013186,-1.1059155464172363,-1.6813856563963832,-2.5270031134234827,2.2817956644245605,-1.017987076436178,0.28253012895584106
1708438125.0151596,-1.1059274673461914,-1.681410928765768,-2.5269838015185755,2.281824751491211,-1.0179913679706019,0.2824852466583252
1708438125.0171824,-1.10590660572052,-1.681361814538473,-2.5269838015185755,2.2818524080463867,-1.018019978200094,0.2825554609298706
1708438125.0191858,-1.1058650016784668,-1.6813975773253382,-2.5269506613360804,2.2818118768879394,-1.0179713408099573,0.2825092375278473
1708438125.0211415,-1.1059274673461914,-1.681430002252096,-2.5269294420825403,2.2817956644245605,-1.0179956595050257,0.2825722396373749
1708438125.0231555,-1.1058948040008545,-1.6814362011351527,-2.5269506613360804,2.281844301814697,-1.0179913679706019,0.2825811505317688
1708438125.0251756,-1.1058651208877563,-1.6813575230040492,-2.5269580523120325,2.2818612295338134,-1.018008057271139,0.28255999088287354
1708438125.0271766,-1.105953335762024,-1.6814223728575648,-2.5269792715655726,2.2818524080463867,-1.0179427305804651,0.28252559900283813
1708438125.0291688,-1.1059398651123047,-1.6813765964903773,-2.526986900960104,2.281848593349121,-1.0180447737323206,0.2825510799884796
1708438125.0311525,-1.1059532165527344,-1.6813575230040492,-2.5269883314715784,2.2818161684223632,-1.0179265181170862,0.28249409794807434
1708438125.0331597,-1.1059155464172363,-1.6813684902586878,-2.5269580523120325,2.2818571764179687,-1.017947022114889,0.2825510501861572
1708438125.0351536,-1.1059681177139282,-1.6813575230040492,-2.5269747416125696,2.2818161684223632,-1.0179231802569788,0.28250187635421753
1708438125.0371706,-1.1059097051620483,-1.6813575230040492,-2.526931111012594,2.281820459956787,-1.0179436842547815,0.28251826763153076
1708438125.0391417,-1.105873942375183,-1.6813527546324671,-2.526926581059591,2.2818655210682373,-1.0179479757892054,0.2825210690498352
1708438125.0412233,-1.1059021949768066,-1.6813775501646937,-2.526980463658468,2.2818569379993896,-1.0179155508624476,0.28255876898765564
1708438125.043173,-1.1059725284576416,-1.6813532314696253,-2.526935640965597,2.2817751604267578,-1.0179317633258265,0.2825632095336914
1708438125.045182,-1.1059800386428833,-1.681401868859762,-2.52690560022463,2.2818075853535156,-1.0178874174701136,0.28260502219200134
1708438125.0472093,-1.1059398651123047,-1.6813203297057093,-2.526890579854147,2.281798763866089,-1.017911736165182,0.2825632095336914
1708438125.0492897,-1.1059398651123047,-1.6814152203001917,-2.5268500486956995,2.2817868429371337,-1.017907444630758,0.28257066011428833
1708438125.0511699,-1.1059398651123047,-1.6813270054259242,-2.5269084612475794,2.281832380885742,-1.017883602772848,0.2825464904308319
1708438125.0532153,-1.1059561967849731,-1.681427618066305,-2.5269041697131556,2.2818075853535156,-1.0178468863116663,0.28259599208831787
1708438125.055168,-1.1059064865112305,-1.6813537083067835,-2.5268951098071497,2.281832380885742,-1.0178921858416956,0.28260311484336853
1708438125.0571554,-1.1059443950653076,-1.6813775501646937,-2.5269461313830774,2.2817913728901367,-1.017883602772848,0.28261083364486694
1708438125.059193,-1.1059398651123047,-1.6813904247679652,-2.5268710295306605,2.281852884883545,-1.0178960005389612,0.28256624937057495
1708438125.0611923,-1.1059112548828125,-1.681406637231344,-2.5268426577197474,2.2817868429371337,-1.0178630987750452,0.28263920545578003
1708438125.0632868,-1.1059969663619995,-1.6813527546324671,-2.5268426577197474,2.2818075853535156,-1.0178588072406214,0.28260189294815063
1708438125.0651948,-1.1059637069702148,-1.681410928765768,-2.5268710295306605,2.281848593349121,-1.017867390309469,0.28264662623405457
1708438125.0671587,-1.1059266328811646,-1.681389947930807,-2.52686053911318,2.2817837434956054,-1.0178597609149378,0.28260937333106995
1708438125.0691657,-1.1059844493865967,-1.6813813648619593,-2.5268457571612757,2.281820459956787,-1.0178316275226038,0.2826511263847351
1708438125.071154,-1.1059637069702148,-1.6813904247679652,-2.526835266743795,2.2817913728901367,-1.0178845564471644,0.28266337513923645
1708438125.0731678,-1.1059517860412598,-1.6813813648619593,-2.5268307367907923,2.281804247493408,-1.0178564230548304,0.2826302647590637
1708438125.0751572,-1.105942964553833,-1.6813250980772914,-2.526867930089132,2.281836672420166,-1.0178077856646937,0.28267231583595276
1708438125.0771434,-1.105931043624878,-1.6813732586302699,-2.5268219153033655,2.2818192678638916,-1.017815415059225,0.28265881538391113
1708438125.0791404,-1.1059561967849731,-1.681394716302389,-2.5268307367907923,2.2818118768879394,-1.0178325811969202,0.28263023495674133
1708438125.0811553,-1.1059592962265015,-1.681364198724264,-2.5268710295306605,2.281832380885742,-1.0178445021258753,0.28262859582901
1708438125.0831378,-1.1059517860412598,-1.6814199886717738,-2.526835266743795,2.2818612295338134,-1.0178163687335413,0.282709538936615
1708438125.0851421,-1.1060222387313843,-1.681345125237936,-2.526872460042135,2.2818161684223632,-1.0177796522723597,0.2826588451862335
1708438125.087164,-1.1060059070587158,-1.681361814538473,-2.5268755594836634,2.281848593349121,-1.0177510420428675,0.282654345035553
1708438125.0891707,-1.1059592962265015,-1.6813856563963832,-2.5268264452563685,2.281848593349121,-1.0177391211139124,0.28260767459869385
1708438125.0911605,-1.105971097946167,-1.6813775501646937,-2.526839796696798,2.281824751491211,-1.0177925268756312,0.2826826572418213
1708438125.0931423,-1.1059354543685913,-1.681333681146139,-2.526872460042135,2.2818354803272705,-1.0177314917193812,0.2826707661151886
1708438125.0951486,-1.10598886013031,-1.681406637231344,-2.5268307367907923,2.281869812602661,-1.0177930037127894,0.2826780676841736
1708438125.0971766,-1.1059681177139282,-1.6813818416991175,-2.5268307367907923,2.2817999559589843,-1.0177682081805628,0.2826915979385376
1708438125.0991695,-1.1059141159057617,-1.6813441715636195,-2.5268307367907923,2.281822605723999,-1.0177605787860315,0.2826915979385376
1708438125.101177,-1.1059844493865967,-1.6813856563963832,-2.5268054644214075,2.2818075853535156,-1.0177162329303187,0.28267815709114075
1708438125.1031826,-1.1059266328811646,-1.6813732586302699,-2.5268307367907923,2.2818075853535156,-1.0177119413958948,0.2826707363128662
1708438125.1051624,-1.106001377105713,-1.681401868859762,-2.5268545786487024,2.281804247493408,-1.017691437398092,0.2827247083187103
1708438125.1071696,-1.1059666872024536,-1.681406637231344,-2.526818815861837,2.2818149763294677,-1.017695728932516,0.28274860978126526
1708438125.1091628,-1.1059725284576416,-1.6813246212401332,-2.526856247578756,2.2818237978168945,-1.0177324453936976,0.2826994061470032
1708438125.1112144,-1.1059800386428833,-1.6813661060728968,-2.526856247578756,2.281848593349121,-1.0177324453936976,0.2827231287956238
1708438125.1132598,-1.1059383153915405,-1.6813551388182582,-2.5268471876727503,2.281848593349121,-1.0177000204669397,0.28271418809890747
1708438125.115186,-1.106013298034668,-1.681406160394186,-2.526835266743795,2.2818571764179687,-1.01772386232485,0.2827305793762207
1708438125.1171756,-1.1059592962265015,-1.681422849694723,-2.526856009160177,2.2818030554005126,-1.0176799933062952,0.28273504972457886
1708438125.1191528,-1.106013298034668,-1.681410928765768,-2.526867930089132,2.2818237978168945,-1.0176833311664026,0.282705157995224
1708438125.1211412,-1.1059800386428833,-1.6813975773253382,-2.52682334581484,2.2818280893513183,-1.0177043120013636,0.282768189907074
1708438125.1231716,-1.105942964553833,-1.6813990078368128,-2.5268099943744105,2.2818075853535156,-1.0176962057696741,0.2827427387237549
1708438125.1251624,-1.105971097946167,-1.6813732586302699,-2.526835266743795,2.281836672420166,-1.0176518599139612,0.2827215790748596
1708438125.1271837,-1.10593843460083,-1.6813813648619593,-2.5268262068377894,2.2818075853535156,-1.0176637808429163,0.28272607922554016
1708438125.1291535,-1.105942964553833,-1.681394716302389,-2.5268800894366663,2.2817751604267578,-1.0176885763751429,0.2828005850315094
1708438125.131148,-1.1059681177139282,-1.681394716302389,-2.5268471876727503,2.2818612295338134,-1.0176637808429163,0.2827591300010681
1708438125.133147,-1.1059503555297852,-1.68133606533193,-2.526856247578756,2.2818118768879394,-1.0176475683795374,0.28272151947021484
1708438125.1351254,-1.1059880256652832,-1.681361814538473,-2.5268307367907923,2.281832380885742,-1.017672363911764,0.2827501893043518
1708438125.137194,-1.1059681177139282,-1.68133606533193,-2.526844326649801,2.281848593349121,-1.0176475683795374,0.2827710509300232
1708438125.139167,-1.1059592962265015,-1.68133606533193,-2.526839796696798,2.2817751604267578,-1.017672363911764,0.28279492259025574
1708438125.1411293,-1.1059547662734985,-1.681427618066305,-2.526844088231222,2.2817868429371337,-1.0176928679095667,0.2827458083629608
1708438125.1431422,-1.1059622764587402,-1.681406637231344,-2.5268099943744105,2.281874104137085,-1.0176928679095667,0.28279608488082886
1708438125.1451406,-1.1060340404510498,-1.6813575230040492,-2.526835266743795,2.2818161684223632,-1.0176399389850062,0.2827531695365906
1708438125.1472757,-1.10593843460083,-1.6814257107176722,-2.52682334581484,2.2818237978168945,-1.0176647345172327,0.2827949821949005
1708438125.1491582,-1.1059836149215698,-1.6813527546324671,-2.526818815861837,2.2818237978168945,-1.0176885763751429,0.2827949821949005
1708438125.1511834,-1.1060090065002441,-1.681406637231344,-2.526827875767843,2.2817794519611816,-1.0176680723773401,0.2827169895172119
1708438125.1532059,-1.1059880256652832,-1.6813775501646937,-2.526865069066183,2.2818118768879394,-1.0176399389850062,0.28276219964027405
1708438125.1551573,-1.1059800386428833,-1.6813732586302699,-2.526865069066183,2.281848593349121,-1.017628018056051,0.2828247845172882
1708438125.1571891,-1.1059880256652832,-1.681345125237936,-2.526811424885885,2.281852884883545,-1.01764423051943,0.28278711438179016
1708438125.1591623,-1.1059502363204956,-1.6813527546324671,-2.5268071333514612,2.2817999559589843,-1.0176485220538538,0.28278711438179016
1708438125.1612034,-1.1059999465942383,-1.681406637231344,-2.526802364979879,2.2818075853535156,-1.0176680723773401,0.2828068137168884
1708438125.1631944,-1.1060206890106201,-1.6813484630980433,-2.526839796696798,2.281852884883545,-1.01764423051943,0.2827203869819641
1708438125.165157,-1.1059459447860718,-1.68141569713735,-2.526844088231222,2.2818400102802734,-1.0176885763751429,0.2827737033367157
1708438125.167185,-1.1059340238571167,-1.6813575230040492,-2.5268026033984583,2.2818030554005126,-1.01764423051943,0.28282466530799866
1708438125.169141,-1.1059925556182861,-1.6813317737975062,-2.526827875767843,2.281832380885742,-1.0176766554461878,0.28276920318603516
1708438125.1711576,-1.1059836149215698,-1.6813823185362757,-2.5267980734454554,2.2818237978168945,-1.017628018056051,0.2827904224395752
1708438125.173155,-1.1059800386428833,-1.6813155613341273,-2.526789967213766,2.2817913728901367,-1.0176075140582483,0.2827904224395752
1708438125.1751392,-1.105995535850525,-1.681406637231344,-2.526811424885885,2.281844301814697,-1.017628018056051,0.28281137347221375
1708438125.1772127,-1.1059836149215698,-1.681406637231344,-2.526844088231222,2.281820459956787,-1.0176194349872034,0.28277823328971863
1708438125.1791713,-1.1059666872024536,-1.681331296960348,-2.526811424885885,2.281804247493408,-1.0176528135882776,0.2827950119972229
1708438125.181154,-1.1059999465942383,-1.6813904247679652,-2.526844088231222,2.2818280893513183,-1.0176075140582483,0.282778263092041
1708438125.1831822,-1.1060043573379517,-1.6813684902586878,-2.526773516331808,2.2818655210682373,-1.0175870100604456,0.2828068137168884
1708438125.1851513,-1.1060253381729126,-1.6813575230040492,-2.526818815861837,2.281820459956787,-1.01764423051943,0.2827993631362915
1708438125.1871846,-1.1059221029281616,-1.6813661060728968,-2.526848856602804,2.2818311887928466,-1.0177133719073694,0.2827647924423218
1708438125.1891754,-1.1060206890106201,-1.6813246212401332,-2.526818815861837,2.2817868429371337,-1.0176237265216272,0.2827978730201721
1708438125.1911635,-1.1059999465942383,-1.6813866100706996,-2.526769224797384,2.281796618098877,-1.0176237265216272,0.2828352153301239
1708438125.193192,-1.1059503555297852,-1.681345125237936,-2.526818815861837,2.2818400102802734,-1.0176485220538538,0.2827557325363159
1708438125.1951616,-1.10597562789917,-1.681406637231344,-2.52686053911318,2.2818280893513183,-1.0176313559161585,0.2828306555747986
1708438125.1971834,-1.1059792041778564,-1.681410928765768,-2.526827875767843,2.2818161684223632,-1.0176518599139612,0.28276923298835754
1708438125.1991796,-1.1059800386428833,-1.6813575230040492,-2.526839796696798,2.2817837434956054,-1.017656151448385,0.2828068137168884
1708438125.2011518,-1.105995535850525,-1.6813527546324671,-2.526818815861837,2.2818290430256347,-1.0176809469806116,0.2828277349472046
1708438125.2032607,-1.1059792041778564,-1.681394716302389,-2.526839796696798,2.2818075853535156,-1.0176237265216272,0.2827904224395752
1708438125.205186,-1.1059880256652832,-1.681361814538473,-2.526789967213766,2.281758947963379,-1.017616097127096,0.28276923298835754
1708438125.207267,-1.1059666872024536,-1.6813575230040492,-2.526806894932882,2.2818075853535156,-1.0176399389850062,0.2828441560268402
1708438125.2091804,-1.1059547662734985,-1.6813527546324671,-2.526802364979879,2.2818030554005126,-1.017616097127096,0.28281426429748535
1708438125.2111714,-1.105971097946167,-1.681410928765768,-2.526811424885885,2.2818571764179687,-1.0176680723773401,0.2828366160392761
1708438125.2131696,-1.1059836149215698,-1.681410928765768,-2.52682334581484,2.281820459956787,-1.0176766554461878,0.2828216254711151
1708438125.2151606,-1.1059547662734985,-1.6813494167723597,-2.526839796696798,2.2818192678638916,-1.0176237265216272,0.2828068137168884
1708438125.2171898,-1.10600745677948,-1.681410928765768,-2.52686053911318,2.2818569379993896,-1.0176194349872034,0.2827647626399994
1708438125.219215,-1.1060043573379517,-1.681410928765768,-2.526848856602804,2.281808539027832,-1.0176475683795374,0.2827814817428589
1708438125.2211509,-1.1060118675231934,-1.681410928765768,-2.526827875767843,2.281836672420166,-1.0176399389850062,0.2828187346458435
1708438125.2231672,-1.105971097946167,-1.6813527546324671,-2.52682334581484,2.2818280893513183,-1.017628018056051,0.2828473746776581
1708438125.2251508,-1.1059911251068115,-1.681361814538473,-2.52682334581484,2.2818237978168945,-1.0176809469806116,0.2827647626399994
1708438125.2271576,-1.1060206890106201,-1.6813575230040492,-2.52682334581484,2.281836672420166,-1.0176604429828089,0.2828052341938019
1708438125.22914,-1.1059836149215698,-1.681410928765768,-2.526827875767843,2.2818614679523925,-1.0176356474505823,0.2828395962715149
1708438125.2311509,-1.105995535850525,-1.6813155613341273,-2.526794497166769,2.2818075853535156,-1.0176475683795374,0.28281426429748535
1708438125.2331502,-1.1059999465942383,-1.6813732586302699,-2.526811424885885,2.281836672420166,-1.0176885763751429,0.2828068137168884
1708438125.235144,-1.1059709787368774,-1.681364198724264,-2.526844326649801,2.281832380885742,-1.017628018056051,0.28278598189353943
1708438125.2371533,-1.1059709787368774,-1.6813856563963832,-2.526835266743795,2.281843824977539,-1.0176766554461878,0.2827814817428589
1708438125.2391512,-1.1060281991958618,-1.6813575230040492,-2.526835266743795,2.281826897258423,-1.0176809469806116,0.2827783226966858
1708438125.241133,-1.105995535850525,-1.6814185581602992,-2.526802364979879,2.2818524080463867,-1.0176518599139612,0.2828306257724762
1708438125.243137,-1.106029748916626,-1.681410928765768,-2.526832405720846,2.2817794519611816,-1.0176680723773401,0.2828231751918793
1708438125.2451346,-1.1059577465057373,-1.6813484630980433,-2.526818815861837,2.281836672420166,-1.01764423051943,0.2828441560268402
1708438125.247194,-1.1060073375701904,-1.6813527546324671,-2.526856247578756,2.2817913728901367,-1.017700497304098,0.28279781341552734
1708438125.249166,-1.1060162782669067,-1.681389947930807,-2.526832405720846,2.281832380885742,-1.0176799933062952,0.28279784321784973
1708438125.2511878,-1.10600745677948,-1.681286951104635,-2.5268471876727503,2.2818400102802734,-1.017700497304098,0.28275319933891296
1708438125.2532022,-1.1059911251068115,-1.681394716302389,-2.526794497166769,2.2818612295338134,-1.0176604429828089,0.28281134366989136
1708438125.2551804,-1.1060118675231934,-1.6813684902586878,-2.526811424885885,2.2818030554005126,-1.0176637808429163,0.2827770709991455
1708438125.2571828,-1.1059836149215698,-1.681364198724264,-2.526806894932882,2.2818118768879394,-1.0176799933062952,0.2828023433685303
1708438125.2591767,-1.1059534549713135,-1.6813990078368128,-2.5268517176257532,2.2818400102802734,-1.017656151448385,0.2828517556190491
1708438125.2611597,-1.1060043573379517,-1.681345125237936,-2.526806894932882,2.281836672420166,-1.017656151448385,0.2827725112438202
1708438125.263165,-1.10597562789917,-1.681361814538473,-2.526872460042135,2.2818280893513183,-1.0176485220538538,0.28281429409980774
1708438125.2652004,-1.1060326099395752,-1.681345125237936,-2.526844326649801,2.281832380885742,-1.0176399389850062,0.2827950417995453
1708438125.2671723,-1.1060118675231934,-1.681368967095846,-2.52682334581484,2.2818524080463867,-1.0176680723773401,0.2827904224395752
1708438125.2691526,-1.1059836149215698,-1.681331296960348,-2.5268800894366663,2.281824751491211,-1.0176766554461878,0.2827950417995453
1708438125.2711601,-1.1059577465057373,-1.6813527546324671,-2.5267935434924524,2.2818400102802734,-1.0176647345172327,0.28274860978126526
1708438125.2731597,-1.105995535850525,-1.6813990078368128,-2.526806894932882,2.2818612295338134,-1.0176680723773401,0.2827903926372528
1708438125.275142,-1.1060162782669067,-1.681361814538473,-2.526818815861837,2.2818161684223632,-1.0176518599139612,0.28276926279067993
1708438125.2771995,-1.1059792041778564,-1.6813732586302699,-2.526806894932882,2.2818612295338134,-1.01764423051943,0.28284844756126404
1708438125.279169,-1.1060162782669067,-1.68133606533193,-2.526835266743795,2.2818612295338134,-1.0176399389850062,0.2827904224395752
1708438125.2811744,-1.1060088872909546,-1.681364198724264,-2.5268307367907923,2.2818118768879394,-1.01764423051943,0.28281426429748535
1708438125.283168,-1.1059836149215698,-1.68141569713735,-2.526839796696798,2.2818075853535156,-1.01764423051943,0.28286096453666687
1708438125.285148,-1.1060489416122437,-1.6813751659789027,-2.526818815861837,2.281820459956787,-1.0176237265216272,0.28275763988494873
1708438125.2871435,-1.1059836149215698,-1.6813975773253382,-2.52682334581484,2.281844301814697,-1.0176852385150355,0.28281137347221375
1708438125.2892177,-1.1059534549713135,-1.6813775501646937,-2.526856247578756,2.281836672420166,-1.017700497304098,0.28281137347221375
1708438125.2912033,-1.1059836149215698,-1.681394716302389,-2.5268307367907923,2.281848116511963,-1.0177128950702112,0.28281137347221375
1708438125.2931583,-1.1059703826904297,-1.68133606533193,-2.526839796696798,2.2818400102802734,-1.0176885763751429,0.2828277051448822
1708438125.2951624,-1.1060281991958618,-1.6813775501646937,-2.52682334581484,2.2818118768879394,-1.017717186604635,0.2827904522418976
1708438125.2972028,-1.105974793434143,-1.6813394031920375,-2.5267766157733362,2.2818118768879394,-1.0176680723773401,0.2828592360019684
1708438125.2991931,-1.1060281991958618,-1.6813684902586878,-2.526839796696798,2.281798763866089,-1.0176432768451136,0.28282618522644043
1708438125.3012164,-1.1059622764587402,-1.6814185581602992,-2.5268471876727503,2.2818400102802734,-1.0177043120013636,0.28277379274368286
1708438125.3032131,-1.1060237884521484,-1.6813436947264613,-2.52682334581484,2.2817956644245605,-1.0177248159991663,0.28280237317085266
1708438125.3052013,-1.1060162782669067,-1.681406637231344,-2.52682334581484,2.2818237978168945,-1.017684284840719,0.2828441560268402
1708438125.307195,-1.1059703826904297,-1.6813575230040492,-2.52682334581484,2.2818643289753417,-1.0176714102374476,0.2828023433685303
1708438125.309158,-1.1059792041778564,-1.681368967095846,-2.5268142859088343,2.281820459956787,-1.0176962057696741,0.28275027871131897
1708438125.3111668,-1.1059880256652832,-1.6813932857909144,-2.526802364979879,2.281852884883545,-1.0176551977740687,0.28283512592315674
1708438125.313196,-1.10597562789917,-1.681401868859762,-2.5268307367907923,2.2818569379993896,-1.0177086035357874,0.28282326459884644
1708438125.31521,-1.1059666872024536,-1.6813932857909144,-2.52682334581484,2.2818280893513183,-1.0177043120013636,0.2828351557254791
1708438125.317178,-1.1059925556182861,-1.6813732586302699,-2.5268142859088343,2.2818569379993896,-1.0177367369281214,0.28284743428230286
1708438125.319189,-1.10600745677948,-1.6813990078368128,-2.526818815861837,2.281798763866089,-1.0176876227008265,0.2827323377132416
1708438125.3211522,-1.1059999465942383,-1.6813775501646937,-2.526888910924093,2.2818524080463867,-1.0177128950702112,0.28280240297317505
1708438125.3231442,-1.1060489416122437,-1.6813975773253382,-2.5268517176257532,2.2818161684223632,-1.0176876227008265,0.28278595209121704
1708438125.3251498,-1.1059836149215698,-1.6813684902586878,-2.5268383661853235,2.281804247493408,-1.0177000204669397,0.2827993631362915
1708438125.3271616,-1.1060206890106201,-1.6813684902586878,-2.5268800894366663,2.281804247493408,-1.0177248159991663,0.28274422883987427
1708438125.3291998,-1.1059836149215698,-1.6814137897887171,-2.526839796696798,2.2818400102802734,-1.0177000204669397,0.2828366458415985
1708438125.3311598,-1.1060281991958618,-1.6813661060728968,-2.5268591086017054,2.2818280893513183,-1.0177443663226526,0.2827323377132416
1708438125.3331642,-1.105995535850525,-1.6813904247679652,-2.5268338362323206,2.281844301814697,-1.0177324453936976,0.2827978730201721
1708438125.335194,-1.105971097946167,-1.6813856563963832,-2.5268471876727503,2.281852884883545,-1.0177314917193812,0.2828442454338074
1708438125.3371508,-1.105971097946167,-1.6813823185362757,-2.5268681685077112,2.281832380885742,-1.0177519957171839,0.28282320499420166
1708438125.3391795,-1.1059911251068115,-1.6813885174193324,-2.526876989995138,2.2818030554005126,-1.0177767912494105,0.2827904224395752
1708438125.3411713,-1.1059792041778564,-1.6813575230040492,-2.526818815861837,2.2818118768879394,-1.0177562872516077,0.2827782928943634
1708438125.3431609,-1.1060326099395752,-1.681406637231344,-2.52682334581484,2.281832380885742,-1.0177724997149866,0.2827736735343933
1708438125.3451629,-1.10600745677948,-1.6813775501646937,-2.526856247578756,2.281848116511963,-1.0177724997149866,0.2828023433685303
1708438125.3471634,-1.1059880256652832,-1.6813732586302699,-2.5268307367907923,2.2817794519611816,-1.01774770418276,0.2827993631362915
1708438125.3492014,-1.105974793434143,-1.68143953899526,-2.5267935434924524,2.281804247493408,-1.0177562872516077,0.2827501893043518
1708438125.3511996,-1.1059792041778564,-1.6814271412291468,-2.5268471876727503,2.2818686205097656,-1.0177229086505335,0.2828023433685303
1708438125.3531651,-1.1060370206832886,-1.6813661060728968,-2.5268591086017054,2.281798763866089,-1.0177519957171839,0.2827904224395752
1708438125.3551695,-1.1059547662734985,-1.6813661060728968,-2.5268517176257532,2.2818612295338134,-1.0177887121783655,0.28282320499420166
1708438125.3571758,-1.1059999465942383,-1.681361814538473,-2.5268471876727503,2.281824751491211,-1.0177844206439417,0.28276923298835754
1708438125.3591943,-1.1059880256652832,-1.681345125237936,-2.5269251505481165,2.281897945994995,-1.017735783253805,0.2827904224395752
1708438125.3611872,-1.105971097946167,-1.6813990078368128,-2.5268517176257532,2.281832380885742,-1.0177596251117151,0.28282320499420166
1708438125.3631554,-1.1060281991958618,-1.6813732586302699,-2.5268262068377894,2.281770630473755,-1.0177562872516077,0.28281137347221375
1708438125.365219,-1.1059999465942383,-1.6813775501646937,-2.5268142859088343,2.281844301814697,-1.017775837575094,0.2827666103839874
1708438125.3671656,-1.1060088872909546,-1.681331296960348,-2.5268636385547083,2.2818075853535156,-1.0177930037127894,0.28275763988494873
1708438125.369179,-1.1059836149215698,-1.6813575230040492,-2.526835266743795,2.281820459956787,-1.0177109877215784,0.28282472491264343
1708438125.371157,-1.10600745677948,-1.681364198724264,-2.5268471876727503,2.28178255140271,-1.0177682081805628,0.2827647626399994
1708438125.3731618,-1.1059999465942383,-1.6813856563963832,-2.5268636385547083,2.281844301814697,-1.01774770418276,0.28278711438179016
1708438125.3751705,-1.1060370206832886,-1.6814271412291468,-2.52682334581484,2.281792326564453,-1.017763916646139,0.28276219964027405
1708438125.3771627,-1.1060118675231934,-1.681331296960348,-2.5268426577197474,2.2818655210682373,-1.0177629629718226,0.28276920318603516
1708438125.3792107,-1.1059999465942383,-1.6813708744444789,-2.5269010702716272,2.281820459956787,-1.0178044478045862,0.2827502191066742
1708438125.3811576,-1.1060326099395752,-1.6814185581602992,-2.5268922487842005,2.2818400102802734,-1.0177801291095179,0.28278154134750366
1708438125.38315,-1.105995535850525,-1.6813484630980433,-2.5268219153033655,2.281826897258423,-1.0178282896624964,0.2828023433685303
1708438125.3851655,-1.1060206890106201,-1.6813575230040492,-2.5268054644214075,2.2818192678638916,-1.0177629629718226,0.2827949821949005
1708438125.3871827,-1.1059622764587402,-1.681422849694723,-2.526835266743795,2.2818030554005126,-1.0178206602679651,0.2827737033367157
1708438125.389168,-1.1060296297073364,-1.6813813648619593,-2.5268307367907923,2.2818655210682373,-1.017787281666891,0.2827647626399994
1708438125.3911974,-1.1060206890106201,-1.68133606533193,-2.526818815861837,2.2818655210682373,-1.0177958647357386,0.28273677825927734
1708438125.3932023,-1.1059911251068115,-1.6813932857909144,-2.5268307367907923,2.2818569379993896,-1.017853085194723,0.28275761008262634
1708438125.3952157,-1.1059836149215698,-1.6814185581602992,-2.5268471876727503,2.2818280893513183,-1.0178325811969202,0.2827814817428589
1708438125.3972063,-1.105995535850525,-1.681364198724264,-2.5268216768847864,2.2818075853535156,-1.0178206602679651,0.28275465965270996
1708438125.3991885,-1.1060206890106201,-1.6813527546324671,-2.526839796696798,2.281836672420166,-1.017815415059225,0.28277552127838135
1708438125.4012082,-1.1060118675231934,-1.6813856563963832,-2.526835266743795,2.2818354803272705,-1.0177958647357386,0.282782644033432
1708438125.4032094,-1.1059666872024536,-1.6813823185362757,-2.5268099943744105,2.281832380885742,-1.0178044478045862,0.282782644033432
1708438125.4051993,-1.1059911251068115,-1.6813932857909144,-2.5268471876727503,2.2818569379993896,-1.0177796522723597,0.28275465965270996
1708438125.407198,-1.1060043573379517,-1.6813527546324671,-2.5268517176257532,2.2817956644245605,-1.0178239981280726,0.28274866938591003
1708438125.4091785,-1.1059459447860718,-1.6813975773253382,-2.5268307367907923,2.281844301814697,-1.0177586714373987,0.2827080488204956
1708438125.4111857,-1.1060162782669067,-1.6813732586302699,-2.5268545786487024,2.2817794519611816,-1.0178001562701624,0.282782644033432
1708438125.4132123,-1.1060043573379517,-1.6813527546324671,-2.5268517176257532,2.2818569379993896,-1.0177753607379358,0.28273826837539673
1708438125.4151664,-1.1059592962265015,-1.681364198724264,-2.5268545786487024,2.281832380885742,-1.0178001562701624,0.2827710807323456
1708438125.4171934,-1.1060206890106201,-1.6813684902586878,-2.5268264452563685,2.2818400102802734,-1.0178163687335413,0.2827993929386139
1708438125.4191854,-1.1060043573379517,-1.6813575230040492,-2.5268517176257532,2.281798763866089,-1.017771069203512,0.28273826837539673
1708438125.4211779,-1.1059637069702148,-1.6813575230040492,-2.5268500486956995,2.28184096395459,-1.0177958647357386,0.282782644033432
1708438125.4232974,-1.1059880256652832,-1.6813775501646937,-2.5268381277667444,2.281890316600464,-1.0178077856646937,0.282829225063324
1708438125.4251547,-1.1059800386428833,-1.681427618066305,-2.5268591086017054,2.2818686205097656,-1.0178445021258753,0.2827709913253784
1708438125.4271853,-1.1059666872024536,-1.68133606533193,-2.5268591086017054,2.281832380885742,-1.0177958647357386,0.2827427387237549
1708438125.4291587,-1.10597562789917,-1.6813684902586878,-2.5268681685077112,2.281792326564453,-1.0178077856646937,0.28275465965270996
1708438125.431171,-1.1059926748275757,-1.6813684902586878,-2.5268591086017054,2.2818237978168945,-1.0178564230548304,0.28276658058166504
1708438125.433194,-1.1059836149215698,-1.681345125237936,-2.5268009344684046,2.2818354803272705,-1.0178445021258753,0.2827710807323456
1708438125.4351714,-1.1059547662734985,-1.6813866100706996,-2.5268710295306605,2.2818655210682373,-1.0178077856646937,0.28278911113739014
1708438125.4371686,-1.1059836149215698,-1.6813775501646937,-2.5268426577197474,2.281844301814697,-1.0178487936602991,0.28272154927253723
1708438125.43916,-1.1059592962265015,-1.6813599071898402,-2.5268591086017054,2.2817751604267578,-1.0178564230548304,0.2827068269252777
1708438125.4411862,-1.1059681177139282,-1.6813575230040492,-2.5268591086017054,2.2817913728901367,-1.0178683439837855,0.2827546298503876
1708438125.4431732,-1.10598886013031,-1.6813112697997035,-2.5268591086017054,2.281848593349121,-1.0178359190570276,0.28270232677459717
1708438125.4451401,-1.1059800386428833,-1.6813856563963832,-2.5268426577197474,2.281836672420166,-1.0178597609149378,0.28275465965270996
1708438125.447185,-1.1059221029281616,-1.6813990078368128,-2.5269084612475794,2.281848593349121,-1.0178239981280726,0.2827382981777191
1708438125.449187,-1.1059844493865967,-1.6813317737975062,-2.5268173853503626,2.2818571764179687,-1.0178640524493616,0.28272154927253723
1708438125.451178,-1.10593843460083,-1.681364198724264,-2.5268636385547083,2.2818149763294677,-1.0178359190570276,0.28270673751831055
1708438125.4531894,-1.1059844493865967,-1.6813599071898402,-2.5268381277667444,2.2818149763294677,-1.0178845564471644,0.282739520072937
1708438125.4551854,-1.1059340238571167,-1.6813909016051234,-2.5268636385547083,2.28184096395459,-1.0178683439837855,0.28269481658935547
1708438125.4571688,-1.1059637069702148,-1.6813732586302699,-2.5268591086017054,2.2817913728901367,-1.01782733598818,0.2827186584472656
1708438125.4591756,-1.10598886013031,-1.681406637231344,-2.5268755594836634,2.28184096395459,-1.0178640524493616,0.2826826572418213
1708438125.4611704,-1.1059547662734985,-1.6813527546324671,-2.5268502871142786,2.2818400102802734,-1.0178759733783167,0.2826903462409973
1708438125.4631975,-1.10597562789917,-1.6813775501646937,-2.5268922487842005,2.2817956644245605,-1.0178588072406214,0.2826826572418213
1708438125.4651735,-1.1059398651123047,-1.6813684902586878,-2.5268831888781946,2.281832380885742,-1.0178716818438929,0.28267520666122437
1708438125.467335,-1.105997920036316,-1.6813484630980433,-2.5268293062793177,2.2817913728901367,-1.01782733598818,0.2826662063598633
1708438125.4691648,-1.1059844493865967,-1.6814137897887171,-2.5268710295306605,2.281824751491211,-1.0178630987750452,0.2826678454875946
1708438125.4711516,-1.1059969663619995,-1.6813823185362757,-2.5268471876727503,2.28184096395459,-1.017900292073385,0.282604843378067
1708438125.47318,-1.10593843460083,-1.6814319096007289,-2.5268426577197474,2.281848116511963,-1.0178640524493616,0.2826707363128662
1708438125.4751518,-1.1059887409210205,-1.6813813648619593,-2.5268967787372034,2.2818237978168945,-1.0178597609149378,0.2826482355594635
1708438125.4771774,-1.105902075767517,-1.681361814538473,-2.5268338362323206,2.2817794519611816,-1.0178878943072718,0.2826257050037384
1708438125.4791594,-1.1059266328811646,-1.681406637231344,-2.5268877188311976,2.2818118768879394,-1.0178716818438929,0.28266337513923645
1708438125.4811492,-1.1059561967849731,-1.681328912774557,-2.5268786589251917,2.2818075853535156,-1.0178597609149378,0.2826138734817505
1708438125.4831583,-1.1059517860412598,-1.681364198724264,-2.5268426577197474,2.281820459956787,-1.017900292073385,0.28263920545578003
1708438125.485145,-1.105926752090454,-1.681401868859762,-2.5268877188311976,2.281832380885742,-1.0178707281695765,0.2826347351074219
1708438125.4871557,-1.1059561967849731,-1.681401868859762,-2.5268710295306605,2.2818452554890136,-1.0178502241717737,0.2826092541217804
1708438125.4891596,-1.1059473752975464,-1.681364198724264,-2.5268381277667444,2.2818161684223632,-1.0179413000689905,0.28264209628105164
1708438125.4911735,-1.1059266328811646,-1.6813684902586878,-2.5268996397601526,2.2818655210682373,-1.0178960005389612,0.2826302647590637
1708438125.4931755,-1.1059266328811646,-1.6813556156554164,-2.5268951098071497,2.2818774419971923,-1.017883602772848,0.28260037302970886
1708438125.4951499,-1.1059473752975464,-1.681401868859762,-2.5268996397601526,2.2817956644245605,-1.0178960005389612,0.28263920545578003
1708438125.497176,-1.1059051752090454,-1.681406637231344,-2.5268951098071497,2.2817956644245605,-1.0178874174701136,0.28265559673309326
1708438125.4991534,-1.1059398651123047,-1.681401868859762,-2.526923720036642,2.2817956644245605,-1.0178630987750452,0.2825852334499359
1708438125.5011628,-1.1058977842330933,-1.6813775501646937,-2.526890579854147,2.2817999559589843,-1.017883602772848,0.2826092839241028
1708438125.503195,-1.1059517860412598,-1.6813775501646937,-2.5268800894366663,2.281844301814697,-1.017867390309469,0.2825941741466522
1708438125.505153,-1.1059354543685913,-1.6814242802061976,-2.526911799107687,2.281844301814697,-1.017911736165182,0.2826138436794281
1708438125.5071862,-1.1059184074401855,-1.6813732586302699,-2.5269163290606897,2.2818237978168945,-1.0179289023028772,0.28259748220443726
1708438125.5092099,-1.1059844493865967,-1.6813775501646937,-2.526907269154684,2.2818075853535156,-1.017928425465719,0.2825852334499359
1708438125.5111737,-1.1059681177139282,-1.681345125237936,-2.5269325415240687,2.281832380885742,-1.0179160276996058,0.28258079290390015
1708438125.5132313,-1.1059398651123047,-1.68141569713735,-2.5268741289721888,2.2818655210682373,-1.0179241339312952,0.2825941741466522
1708438125.515207,-1.1059443950653076,-1.6813246212401332,-2.526907269154684,2.2818075853535156,-1.017900292073385,0.28262728452682495
1708438125.5171816,-1.105911135673523,-1.6813775501646937,-2.526890579854147,2.281832380885742,-1.0178707281695765,0.2826228141784668
1708438125.5191686,-1.1059517860412598,-1.6813155613341273,-2.5268951098071497,2.2817999559589843,-1.0179241339312952,0.28261545300483704
1708438125.521134,-1.1059443950653076,-1.68143953899526,-2.526890579854147,2.281844301814697,-1.017907444630758,0.28258517384529114
1708438125.523178,-1.105960726737976,-1.6814094982542933,-2.526893679295675,2.2818571764179687,-1.017911736165182,0.28259873390197754
1708438125.5251565,-1.1059398651123047,-1.6813575230040492,-2.526919190083639,2.2818354803272705,-1.0179608503924769,0.28261545300483704
1708438125.5271783,-1.1058902740478516,-1.681345125237936,-2.526911799107687,2.2818280893513183,-1.0179031530963343,0.2825527489185333
1708438125.5291748,-1.1059021949768066,-1.6813932857909144,-2.5269609133349817,2.2817868429371337,-1.017984692250387,0.2825375497341156
1708438125.5311635,-1.1059452295303345,-1.681361814538473,-2.5269597212420862,2.2817868429371337,-1.0179436842547815,0.2825677692890167
1708438125.5331664,-1.1059398651123047,-1.6813599071898402,-2.5269625822650355,2.281848593349121,-1.0179436842547815,0.282579630613327
1708438125.535147,-1.1059274673461914,-1.6813856563963832,-2.5270164648639124,2.2818569379993896,-1.0179231802569788,0.2825510799884796
1708438125.5371606,-1.1059443950653076,-1.6813065014281214,-2.5269461313830774,2.2818118768879394,-1.0179885069476526,0.2825811803340912
1708438125.5391543,-1.1059398651123047,-1.68141569713735,-2.5269792715655726,2.2818192678638916,-1.017947022114889,0.28250184655189514
1708438125.5411642,-1.1058902740478516,-1.6813975773253382,-2.5269866625415247,2.2818192678638916,-1.0179069677936,0.28253620862960815
1708438125.5431864,-1.1059155464172363,-1.6813975773253382,-2.5269747416125696,2.2817913728901367,-1.0179479757892054,0.28251081705093384
1708438125.5451708,-1.1059318780899048,-1.6814185581602992,-2.5269537607776087,2.2818280893513183,-1.0179804007159632,0.28254804015159607
1708438125.5471745,-1.1059354543685913,-1.681422849694723,-2.526994053517477,2.2818075853535156,-1.017956558858053,0.2824821472167969
1708438125.5491962,-1.1059651374816895,-1.6813904247679652,-2.526989523564474,2.281824751491211,-1.0179198423968714,0.2824777066707611
1708438125.551182,-1.1059398651123047,-1.681422849694723,-2.52702242532839,2.2818075853535156,-1.0179155508624476,0.2825031280517578
1708438125.5531726,-1.105911135673523,-1.68133606533193,-2.527052942906515,2.281844301814697,-1.017907444630758,0.282515287399292
1708438125.5552216,-1.1059532165527344,-1.681410928765768,-2.526968781148092,2.2817880350300292,-1.017968479787008,0.2824896574020386
1708438125.5571954,-1.1058902740478516,-1.681328912774557,-2.527039353047506,2.2818161684223632,-1.0179479757892054,0.28246575593948364
1708438125.5591717,-1.105918526649475,-1.6813775501646937,-2.526994053517477,2.281808539027832,-1.0178983847247522,0.28250762820243835
1708438125.5611682,-1.1059398651123047,-1.68133606533193,-2.527026955281393,2.281824751491211,-1.017918888722555,0.28253623843193054
1708438125.5632021,-1.1059229373931885,-1.681328912774557,-2.526980702077047,2.2818452554890136,-1.0179598967181605,0.28246578574180603
1708438125.5652335,-1.1059561967849731,-1.6813403568663539,-2.526989523564474,2.281836672420166,-1.0179718176471155,0.28252875804901123
1708438125.567175,-1.1059576272964478,-1.681364198724264,-2.5270031134234827,2.281848593349121,-1.0179351011859339,0.2824747860431671
1708438125.5691702,-1.1059398651123047,-1.6813599071898402,-2.527052942906515,2.2818569379993896,-1.0179675261126917,0.2824748456478119
1708438125.571197,-1.1059311628341675,-1.6813684902586878,-2.5270076433764856,2.2818118768879394,-1.0179436842547815,0.2824912369251251
1708438125.573197,-1.1059229373931885,-1.6813732586302699,-2.526994053517477,2.2818280893513183,-1.0180371443377894,0.28245842456817627
1708438125.5751586,-1.1059229373931885,-1.68141569713735,-2.5270360151873987,2.281820459956787,-1.0179556051837366,0.28247639536857605
1708438125.5774822,-1.1059517860412598,-1.6813732586302699,-2.527043883000509,2.28184096395459,-1.0179384390460413,0.2824506461620331
1708438125.5791667,-1.1059318780899048,-1.6813074551024378,-2.527039353047506,2.281881733531616,-1.0179999510394495,0.2824552059173584
1708438125.5811648,-1.1059452295303345,-1.6813975773253382,-2.5270572344409388,2.2817913728901367,-1.0179956595050257,0.28243598341941833
1708438125.5831559,-1.1059561967849731,-1.6813775501646937,-2.526989523564474,2.2817999559589843,-1.0180037657367151,0.2824268937110901
1708438125.5851884,-1.1059362888336182,-1.6813975773253382,-2.5270422140704554,2.281848593349121,-1.018008057271139,0.2824432849884033
1708438125.5871882,-1.1058948040008545,-1.6814152203001917,-2.527017895375387,2.2817837434956054,-1.0179994742022913,0.2823985815048218
1708438125.5891519,-1.1059021949768066,-1.6813494167723597,-2.527052942906515,2.2817837434956054,-1.018008057271139,0.28240108489990234
1708438125.591169,-1.1059608459472656,-1.6813990078368128,-2.5270512739764612,2.2818655210682373,-1.0179713408099573,0.2824075222015381
1708438125.5932684,-1.1058872938156128,-1.6813775501646937,-2.526994053517477,2.281852884883545,-1.0180285612689417,0.2823985815048218
1708438125.595182,-1.1059036254882812,-1.6813732586302699,-2.527052942906515,2.2817913728901367,-1.018008057271139,0.28241920471191406
1708438125.597204,-1.1059725284576416,-1.68143953899526,-2.5270586649524134,2.2817956644245605,-1.018008057271139,0.28241199254989624
1708438125.599183,-1.1059274673461914,-1.6813246212401332,-2.527092997227804,2.281832380885742,-1.0179742018329065,0.2824641764163971
1708438125.6011581,-1.105911135673523,-1.681361814538473,-2.527017895375387,2.281852884883545,-1.018019978200094,0.28247013688087463
1708438125.6031444,-1.1059229373931885,-1.681406637231344,-2.5270031134234827,2.281832380885742,-1.0179908911334437,0.2824031412601471
1708438125.605175,-1.1059362888336182,-1.6813813648619593,-2.526989523564474,2.2817913728901367,-1.0180113951312464,0.28242364525794983
1708438125.6072202,-1.105948805809021,-1.681364198724264,-2.5270360151873987,2.281881733531616,-1.018060032521383,0.28239113092422485
1708438125.6092098,-1.105878472328186,-1.681410928765768,-2.5269866625415247,2.2817880350300292,-1.0181048552142542,0.2823657989501953
1708438125.6111972,-1.1059274673461914,-1.6813556156554164,-2.527060333882467,2.2817837434956054,-1.0180795828448694,0.2823927402496338
1708438125.6131787,-1.1059443950653076,-1.6813732586302699,-2.527088467274801,2.2818118768879394,-1.0181077162372034,0.28238216042518616
1708438125.6151836,-1.1058814525604248,-1.6813904247679652,-2.5270360151873987,2.2818643289753417,-1.018083397542135,0.28240007162094116
1708438125.6171703,-1.1059398651123047,-1.6814257107176722,-2.527060333882467,2.2818118768879394,-1.018083397542135,0.28237152099609375
1708438125.6191843,-1.105918526649475,-1.6813484630980433,-2.527073685322897,2.2818075853535156,-1.018094841633932,0.28238368034362793
1708438125.6212416,-1.1059362888336182,-1.6813684902586878,-2.5270260016070765,2.281848593349121,-1.0181439558612269,0.2823624908924103
1708438125.6231825,-1.105948805809021,-1.681422849694723,-2.527039353047506,2.28188602506604,-1.0181072394000452,0.28236860036849976
1708438125.6251388,-1.1059021949768066,-1.6813904247679652,-2.5270512739764612,2.2818075853535156,-1.018155876790182,0.2823640704154968
1708438125.627141,-1.1059318780899048,-1.6813932857909144,-2.527039353047506,2.2818118768879394,-1.0181072394000452,0.2823505699634552
1708438125.62914,-1.1058858633041382,-1.6813351116576136,-2.527043883000509,2.2818280893513183,-1.0181439558612269,0.2823927104473114
1708438125.6311407,-1.1059443950653076,-1.6813813648619593,-2.5270631949054163,2.2818655210682373,-1.0181439558612269,0.2823849618434906
1708438125.6331568,-1.1059398651123047,-1.6813599071898402,-2.5270260016070765,2.2818655210682373,-1.0181310812579554,0.28230100870132446
1708438125.6351578,-1.1059443950653076,-1.681401868859762,-2.5270841757403772,2.281804247493408,-1.018090550099508,0.28234031796455383
1708438125.63713,-1.105948805809021,-1.68133606533193,-2.5270631949054163,2.281869812602661,-1.0181029478656214,0.2823927402496338
1708438125.6391652,-1.105977177619934,-1.6813856563963832,-2.5270333925830286,2.2818161684223632,-1.0181482473956507,0.28234928846359253
1708438125.6412053,-1.1058992147445679,-1.681401868859762,-2.5270467440234583,2.2818280893513183,-1.0180943647967737,0.282295286655426
1708438125.6431777,-1.10590660572052,-1.6813732586302699,-2.5270960966693323,2.2818192678638916,-1.0181439558612269,0.28231456875801086
1708438125.6451557,-1.1059036254882812,-1.681401868859762,-2.5271156469928187,2.281832380885742,-1.018111530934469,0.2823026180267334
1708438125.6471765,-1.1059354543685913,-1.681361814538473,-2.5270705858813685,2.281852884883545,-1.0181353727923792,0.2822907865047455
1708438125.6491518,-1.105911135673523,-1.6813661060728968,-2.5271320978747767,2.2818280893513183,-1.018212620412008,0.28231456875801086
1708438125.6512387,-1.1059229373931885,-1.681410928765768,-2.5271080175982874,2.2818571764179687,-1.0181191603290003,0.2823026180267334
1708438125.6532183,-1.1058794260025024,-1.681394716302389,-2.5270870367633265,2.2817837434956054,-1.0181439558612269,0.28226661682128906
1708438125.6551943,-1.1059362888336182,-1.6813823185362757,-2.5271034876452845,2.281798763866089,-1.018151585255758,0.2823297083377838
1708438125.6572032,-1.10590660572052,-1.6813684902586878,-2.5270825068103235,2.2818354803272705,-1.0181267897235315,0.2823161482810974
1708438125.6591892,-1.1058814525604248,-1.6813527546324671,-2.5271201769458216,2.281804247493408,-1.0181916395770472,0.28230422735214233
1708438125.6611838,-1.1058948040008545,-1.6814271412291468,-2.5271201769458216,2.281824751491211,-1.0181668440448206,0.282268226146698
1708438125.6632442,-1.1058828830718994,-1.6814185581602992,-2.5270825068103235,2.2818161684223632,-1.0181506315814417,0.28223833441734314
1708438125.6652105,-1.1058948040008545,-1.6813599071898402,-2.5271156469928187,2.2817913728901367,-1.0182159582721155,0.282268226146698
1708438125.6671798,-1.1059274673461914,-1.681361814538473,-2.5270944277392786,2.2818400102802734,-1.0182483831988733,0.2822473645210266
1708438125.6691465,-1.1058902740478516,-1.6813527546324671,-2.5270779768573206,2.2817956644245605,-1.0182517210589808,0.2822261452674866
1708438125.6711495,-1.1059080362319946,-1.681345125237936,-2.5270944277392786,2.2818161684223632,-1.0182440916644495,0.2822190225124359
1708438125.6731682,-1.1059036254882812,-1.681410928765768,-2.5271320978747767,2.281848593349121,-1.0182107130633753,0.28220871090888977
1708438125.675139,-1.1059318780899048,-1.6813155613341273,-2.5270779768573206,2.2818237978168945,-1.0182798544513147,0.282207190990448
1708438125.6771455,-1.1059362888336182,-1.6813990078368128,-2.5270989576922815,2.2818237978168945,-1.0182550589190882,0.282207190990448
1708438125.6791427,-1.105924367904663,-1.681422849694723,-2.5270898977862757,2.2818075853535156,-1.018271271382467,0.2821996510028839
1708438125.6811554,-1.1059274673461914,-1.6813732586302699,-2.5271156469928187,2.2818400102802734,-1.0182951132403772,0.2821621298789978
1708438125.683175,-1.105879306793213,-1.6813975773253382,-2.527106587086813,2.2818237978168945,-1.0182707945453089,0.2822876572608948
1708438125.6851492,-1.1058703660964966,-1.6813575230040492,-2.5271156469928187,2.2818280893513183,-1.0183313528644007,0.2822086811065674
1708438125.6871574,-1.105878472328186,-1.6813599071898402,-2.527123037968771,2.281848593349121,-1.018306080495016,0.28217101097106934
1708438125.6891394,-1.1059318780899048,-1.6813494167723597,-2.527139727269308,2.2818118768879394,-1.018322769795553,0.28220099210739136
1708438125.6912267,-1.1058902740478516,-1.6813775501646937,-2.527123037968771,2.281848593349121,-1.018322769795553,0.28213053941726685
1708438125.6931748,-1.105873942375183,-1.6814185581602992,-2.527142588292257,2.2818280893513183,-1.0183146635638636,0.2822009027004242
1708438125.6951451,-1.105896234512329,-1.681406637231344,-2.5271275679217737,2.2818161684223632,-1.018322769795553,0.28220096230506897
1708438125.6971734,-1.1058568954467773,-1.6813584766783656,-2.527113978062765,2.2817868429371337,-1.018367115651266,0.28220540285110474
1708438125.6991925,-1.1058917045593262,-1.6814304790892542,-2.527138058339254,2.2818075853535156,-1.0183833281146448,0.2821771800518036
1708438125.701206,-1.1058992147445679,-1.6814185581602992,-2.527138058339254,2.2818075853535156,-1.018367115651266,0.28216373920440674
1708438125.703188,-1.10590660572052,-1.6813856563963832,-2.52714711824526,2.2817868429371337,-1.0183704535113733,0.2821652591228485
1708438125.7051947,-1.105948805809021,-1.681394716302389,-2.527154509221212,2.281832380885742,-1.0183542410479944,0.28213950991630554
1708438125.7071815,-1.1059199571609497,-1.6813932857909144,-2.52717096010317,2.2817868429371337,-1.0183871428119105,0.28211867809295654
1708438125.7091677,-1.1058615446090698,-1.6813684902586878,-2.5272043387042444,2.2818030554005126,-1.0183871428119105,0.282111257314682
1708438125.7111769,-1.1058917045593262,-1.6813708744444789,-2.5271695295916956,2.2817956644245605,-1.0184195677386683,0.2821202278137207
1708438125.7131827,-1.105948805809021,-1.6813661060728968,-2.5272071997271937,2.2818161684223632,-1.0184357802020472,0.2820781171321869
1708438125.7152312,-1.1059155464172363,-1.6813527546324671,-2.527181927357809,2.2818161684223632,-1.0184195677386683,0.2820751667022705
1708438125.7171953,-1.1059155464172363,-1.6813904247679652,-2.5272043387042444,2.281852884883545,-1.0184028784381312,0.2821006178855896
1708438125.7191522,-1.1059398651123047,-1.6813823185362757,-2.5271697680102747,2.2818192678638916,-1.0184391180621546,0.28207069635391235
1708438125.721154,-1.1059080362319946,-1.68143953899526,-2.5272443930255335,2.281844301814697,-1.0184109846698206,0.2821411192417145
1708438125.723172,-1.1059199571609497,-1.6813732586302699,-2.5272191206561487,2.2818118768879394,-1.018430534993307,0.28212469816207886
1708438125.725166,-1.1058828830718994,-1.6813732586302699,-2.5272398630725306,2.2818237978168945,-1.0184553305255335,0.282084196805954
1708438125.727235,-1.10587477684021,-1.681406637231344,-2.5272355715381067,2.2817913728901367,-1.0183981100665491,0.2820768654346466
1708438125.729163,-1.1059362888336182,-1.68133606533193,-2.5272191206561487,2.2818280893513183,-1.0184348265277308,0.28206783533096313
1708438125.7311769,-1.105924367904663,-1.6813775501646937,-2.5272563139544886,2.2817868429371337,-1.0184348265277308,0.28208422660827637
1708438125.733185,-1.1058828830718994,-1.6813484630980433,-2.527226511632101,2.2818400102802734,-1.0184715429889124,0.2820768356323242
1708438125.7351673,-1.105896234512329,-1.6814362011351527,-2.527280871068136,2.2818237978168945,-1.0184467474566858,0.2820723056793213
1708438125.7371676,-1.105966567993164,-1.6813990078368128,-2.527238432561056,2.2818237978168945,-1.0184629599200647,0.28203651309013367
1708438125.739172,-1.10590660572052,-1.6813575230040492,-2.527226511632101,2.2818612295338134,-1.0184381643878382,0.28204408288002014
1708438125.7411866,-1.1058917045593262,-1.6813403568663539,-2.52727181116213,2.2818354803272705,-1.0184415022479456,0.28206899762153625
1708438125.7431724,-1.105928897857666,-1.6813775501646937,-2.527259413396017,2.2818237978168945,-1.0184910933123987,0.2820320725440979
1708438125.7451737,-1.105879306793213,-1.6813527546324671,-2.52722937265505,2.281848593349121,-1.0184381643878382,0.2820734679698944
1708438125.7471876,-1.1059080362319946,-1.6813775501646937,-2.527245823537008,2.281844301814697,-1.0184910933123987,0.28197818994522095
1708438125.7491634,-1.1058659553527832,-1.6813575230040492,-2.527250353490011,2.2818731504627685,-1.0185187498675745,0.2820992171764374
1708438125.751272,-1.105896234512329,-1.681406637231344,-2.5272837320910853,2.2818774419971923,-1.018531624470846,0.282024621963501
1708438125.753216,-1.1059155464172363,-1.6813599071898402,-2.527288262044088,2.2818848329731445,-1.0185111204730433,0.2820291817188263
1708438125.7552075,-1.105924367904663,-1.681394716302389,-2.527288262044088,2.2818774419971923,-1.0185273329364222,0.28199607133865356
1708438125.7572432,-1.1058540344238281,-1.6813975773253382,-2.527250353490011,2.2818237978168945,-1.018543545399801,0.2820034623146057
1708438125.7592049,-1.1059155464172363,-1.6813932857909144,-2.527288262044088,2.2818936544605712,-1.0185144583331507,0.28201693296432495
1708438125.7611973,-1.1058872938156128,-1.6814094982542933,-2.527250353490011,2.2818686205097656,-1.0185306707965296,0.2820005416870117
1708438125.7631843,-1.105924367904663,-1.6813494167723597,-2.5272672812091272,2.2818893629261474,-1.0185869375811976,0.2820214033126831
1708438125.7652302,-1.10587477684021,-1.681361814538473,-2.5272911230670374,2.2818686205097656,-1.0185416380511683,0.2819645404815674
1708438125.767218,-1.105878472328186,-1.681394716302389,-2.5272672812091272,2.2818805414387207,-1.0185664335833948,0.2819138169288635
1708438125.7691891,-1.1059318780899048,-1.6813732586302699,-2.527250353490011,2.281848116511963,-1.0185826460467737,0.2819271981716156
1708438125.771208,-1.1059080362319946,-1.6813403568663539,-2.5272792021380823,2.2818893629261474,-1.0185945669757288,0.2820185124874115
1708438125.773189,-1.1058992147445679,-1.681364198724264,-2.527254883443014,2.2818030554005126,-1.0186026732074183,0.2819526195526123
1708438125.7751489,-1.1058917045593262,-1.681410928765768,-2.5272701422320765,2.2819055753895263,-1.0185983816729944,0.28195708990097046
1708438125.7771988,-1.1058917045593262,-1.681364198724264,-2.5272837320910853,2.2819055753895263,-1.0185816923724573,0.28189408779144287
1708438125.7791803,-1.1058948040008545,-1.6813317737975062,-2.527250353490011,2.2818569379993896,-1.0185983816729944,0.2819615602493286
1708438125.7811508,-1.1058703660964966,-1.6813575230040492,-2.5272627512561243,2.2818524080463867,-1.018606964741842,0.28187769651412964
1708438125.783162,-1.1059496402740479,-1.6813203297057093,-2.527316395436422,2.2818893629261474,-1.0186556021319788,0.2819362282752991
1708438125.7851446,-1.105896234512329,-1.6813732586302699,-2.5272837320910853,2.2819010454365234,-1.0185859839068812,0.2819497287273407
1708438125.7871866,-1.1058659553527832,-1.681427618066305,-2.5273194948779505,2.281860037440918,-1.0186103026019495,0.28197795152664185
1708438125.7891529,-1.105928897857666,-1.681394716302389,-2.5272777716266077,2.281843824977539,-1.0185940901385706,0.2819468379020691
1708438125.791241,-1.10587477684021,-1.6813403568663539,-2.5273359457599085,2.2818514543720703,-1.0186188856707972,0.28190022706985474
1708438125.7931907,-1.1058828830718994,-1.6813527546324671,-2.5273314158069056,2.2818967539020996,-1.018623177205221,0.2819451689720154
1708438125.7951877,-1.1059036254882812,-1.681410928765768,-2.5273194948779505,2.2818805414387207,-1.0185859839068812,0.28190916776657104
1708438125.7972124,-1.1059080362319946,-1.6814319096007289,-2.527339045201437,2.281848116511963,-1.0186145941363733,0.2819301187992096
1708438125.7992082,-1.1059199571609497,-1.681361814538473,-2.5273059050189417,2.281949444408081,-1.0185983816729944,0.28185808658599854
1708438125.8012073,-1.1058659553527832,-1.6813575230040492,-2.5273481051074427,2.2818707662769775,-1.0186436812030237,0.28191372752189636
1708438125.8032017,-1.1058992147445679,-1.6813732586302699,-2.5272820631610315,2.2819408613392334,-1.0186188856707972,0.2819046974182129
1708438125.8051813,-1.10587477684021,-1.6813975773253382,-2.527301613484518,2.2820045190998535,-1.0186308065997522,0.2819301187992096
1708438125.8071735,-1.1059080362319946,-1.681410928765768,-2.5273223559008997,2.281963511104248,-1.0186060110675257,0.28195130825042725
1708438125.8092206,-1.1059155464172363,-1.68133606533193,-2.527339045201437,2.281999035472534,-1.0186145941363733,0.2818927764892578
1708438125.811202,-1.1059125661849976,-1.6813823185362757,-2.527289692555563,2.282003565425537,-1.0185940901385706,0.2819181978702545
1708438125.81321,-1.1058629751205444,-1.681361814538473,-2.527339045201437,2.2820440965839843,-1.018613640462057,0.28190183639526367
1708438125.8151538,-1.1058872938156128,-1.6813904247679652,-2.527376715336935,2.2820321756550292,-1.0186384359942835,0.28185519576072693
1708438125.8171544,-1.10587477684021,-1.6813823185362757,-2.527372185383932,2.2820278841206054,-1.0186222235309046,0.2818760573863983
1708438125.81918,-1.1058992147445679,-1.6813484630980433,-2.527339045201437,2.2819904524036865,-1.0186384359942835,0.2819018065929413
1708438125.8211854,-1.1058872938156128,-1.6813317737975062,-2.5273104349719446,2.2820321756550292,-1.0186341444598597,0.2818850874900818
1708438125.8232167,-1.1059155464172363,-1.6813527546324671,-2.5273643175708216,2.2820939260670166,-1.0186341444598597,0.28182274103164673
1708438125.8251877,-1.1058659553527832,-1.681328912774557,-2.527363125477926,2.282036705608032,-1.0186546484576624,0.28188061714172363
1708438125.827152,-1.1058615446090698,-1.6813537083067835,-2.527393166218893,2.282036705608032,-1.0186179319964808,0.28195127844810486
1708438125.8291419,-1.1059199571609497,-1.68133606533193,-2.5273600260363978,2.2820283609577636,-1.0186265150653284,0.2819181978702545
1708438125.8311768,-1.1058948040008545,-1.6813775501646937,-2.5273600260363978,2.282064600581787,-1.0186341444598597,0.28187304735183716
1708438125.833186,-1.1058828830718994,-1.681410928765768,-2.527339045201437,2.282010956401489,-1.0186470190631312,0.28186869621276855
1708438125.8351731,-1.1058992147445679,-1.6813904247679652,-2.5273435751544397,2.2820355135151367,-1.018679443989889,0.28184062242507935
1708438125.8371875,-1.105878472328186,-1.6813661060728968,-2.527317825947897,2.28204528867688,-1.0186546484576624,0.2818775773048401
1708438125.8391523,-1.1058917045593262,-1.681434770623678,-2.527317825947897,2.282010956401489,-1.0186546484576624,0.28184813261032104
1708438125.8411427,-1.1058703660964966,-1.6813684902586878,-2.5273268858539026,2.281999035472534,-1.0186589399920862,0.2818927466869354
1708438125.8431897,-1.1059406995773315,-1.6813775501646937,-2.5273268858539026,2.2820398050495605,-1.0186546484576624,0.28185969591140747
1708438125.84516,-1.1058615446090698,-1.6813494167723597,-2.5273149649249476,2.2820278841206054,-1.018637482319967,0.2819029986858368
1708438125.8471832,-1.105928897857666,-1.6813575230040492,-2.5273314158069056,2.2820235925861816,-1.0186331907855433,0.28188061714172363
1708438125.8491776,-1.1059362888336182,-1.6813775501646937,-2.527329985295431,2.2819947439381103,-1.018669907246725,0.28191816806793213
1708438125.8511636,-1.1059036254882812,-1.681410928765768,-2.5273643175708216,2.28206913053479,-1.0186741987811487,0.28184065222740173
1708438125.8532522,-1.1059155464172363,-1.6813317737975062,-2.5273435751544397,2.281999035472534,-1.018686596547262,0.28185269236564636
1708438125.855206,-1.1058992147445679,-1.6813990078368128,-2.5273104349719446,2.282052918071411,-1.0186994711505335,0.28191813826560974
1708438125.857193,-1.105879306793213,-1.681361814538473,-2.5273314158069056,2.282015247935913,-1.018641773854391,0.28186866641044617
1708438125.859196,-1.105924367904663,-1.681406637231344,-2.5272777716266077,2.2819947439381103,-1.0186460653888147,0.281828373670578
1708438125.8611803,-1.1058992147445679,-1.6813813648619593,-2.5273478666888636,2.2821089464375,-1.0186622778521937,0.28187304735183716
1708438125.8631887,-1.1058703660964966,-1.6813575230040492,-2.5273149649249476,2.282048388118408,-1.018637482319967,0.281864196062088
1708438125.8651888,-1.1058872938156128,-1.6813203297057093,-2.5273314158069056,2.2819742399403076,-1.0186741987811487,0.28191372752189636
1708438125.8672717,-1.1059155464172363,-1.6813575230040492,-2.5273643175708216,2.282026930446289,-1.018669907246725,0.2818526327610016
1708438125.8691914,-1.1058917045593262,-1.6813775501646937,-2.527334515248434,2.2820121484943847,-1.0186622778521937,0.2817985415458679
1708438125.8711739,-1.10587477684021,-1.6813866100706996,-2.527339045201437,2.2819947439381103,-1.0186212698565882,0.28186872601509094
1708438125.8731866,-1.1059576272964478,-1.6813904247679652,-2.5273268858539026,2.28202406942334,-1.0186908880816858,0.2818450927734375
1708438125.8751624,-1.105878472328186,-1.6813823185362757,-2.5273059050189417,2.2819785314747314,-1.0187233130084437,0.28186869621276855
1708438125.877206,-1.1059080362319946,-1.6813813648619593,-2.527355496083395,2.282036705608032,-1.0186460653888147,0.28186869621276855
1708438125.8791492,-1.1058917045593262,-1.6813990078368128,-2.527313534413473,2.2819904524036865,-1.0186503569232386,0.28189393877983093
1708438125.8811665,-1.1059080362319946,-1.6813751659789027,-2.527301613484518,2.2819947439381103,-1.0186546484576624,0.28184065222740173
1708438125.883173,-1.105896234512329,-1.681394716302389,-2.527301613484518,2.2819711404987792,-1.0186341444598597,0.28182387351989746
1708438125.885152,-1.1058948040008545,-1.6813661060728968,-2.5272939840899866,2.2819947439381103,-1.0185931364642542,0.2818569839000702
1708438125.8871522,-1.105924367904663,-1.6813775501646937,-2.527339045201437,2.2819623190113525,-1.0186503569232386,0.2818318009376526
1708438125.8891542,-1.1058828830718994,-1.681394716302389,-2.527334515248434,2.282015247935913,-1.0186708609210413,0.28184062242507935
1708438125.8911653,-1.1058584451675415,-1.681410928765768,-2.5273030439959925,2.282019777888916,-1.0186341444598597,0.28183627128601074
1708438125.893176,-1.1059666872024536,-1.6813575230040492,-2.5273314158069056,2.2820615011402587,-1.0186503569232386,0.28183290362358093
1708438125.8951664,-1.1059406995773315,-1.6813584766783656,-2.5272985140429896,2.2820023733326416,-1.0186827818499964,0.2818552255630493
1708438125.8971465,-1.1058917045593262,-1.6813575230040492,-2.5273194948779505,2.282015247935913,-1.0186708609210413,0.28184810280799866
1708438125.8991601,-1.105912685394287,-1.681406637231344,-2.5273268858539026,2.2820121484943847,-1.0186460653888147,0.28187307715415955
1708438125.9011493,-1.10587477684021,-1.681364198724264,-2.527256790791647,2.2819840151020507,-1.0186708609210413,0.2818569839000702
1708438125.903195,-1.105870246887207,-1.6813484630980433,-2.527306143437521,2.281979723567627,-1.0186341444598597,0.28188663721084595
1708438125.905176,-1.1058963537216187,-1.6813551388182582,-2.5273030439959925,2.2820369440266113,-1.0186460653888147,0.28184816241264343
1708438125.9071949,-1.1058917045593262,-1.6813904247679652,-2.5273149649249476,2.281975432033203,-1.0185602347003382,0.28182387351989746
1708438125.909162,-1.105879306793213,-1.6814481220641078,-2.5273314158069056,2.28202406942334,-1.0186427275287073,0.28184062242507935
1708438125.911187,-1.105896234512329,-1.6813575230040492,-2.5273223559008997,2.2820002275654296,-1.0186546484576624,0.2818526327610016
1708438125.9131832,-1.1058703660964966,-1.681406637231344,-2.5273194948779505,2.2819883066364746,-1.0186341444598597,0.2818596661090851
1708438125.9151773,-1.105896234512329,-1.681406637231344,-2.5273359457599085,2.2819711404987792,-1.0185897986041468,0.28186148405075073
1708438125.9171937,-1.105896234512329,-1.6813484630980433,-2.5272865931140345,2.2820164400288085,-1.0186026732074183,0.2818939685821533
1708438125.919198,-1.10587477684021,-1.6813575230040492,-2.5273030439959925,2.2819763857075195,-1.018585507069723,0.2818450927734375
1708438125.9211698,-1.1058629751205444,-1.6813990078368128,-2.5272746721850794,2.281951590175293,-1.0186470190631312,0.28185412287712097
1708438125.9231505,-1.1058377027511597,-1.681439062158102,-2.5272911230670374,2.281890316600464,-1.0185774008380335,0.28182995319366455
1708438125.9251492,-1.105834722518921,-1.6813813648619593,-2.527337376271383,2.2819482523151855,-1.0186265150653284,0.281818151473999
1708438125.927216,-1.105892539024353,-1.6814185581602992,-2.5272865931140345,2.2819699484058837,-1.0185406843768519,0.2818374037742615
1708438125.929142,-1.1058837175369263,-1.6813684902586878,-2.5272820631610315,2.2818633753010253,-1.0185611883746546,0.2818586230278015
1708438125.9311755,-1.1058510541915894,-1.6814185581602992,-2.5272792021380823,2.281867666835449,-1.0185988585101526,0.28174763917922974
1708438125.9331865,-1.1058731079101562,-1.6813403568663539,-2.5272539297686976,2.281888170833252,-1.0185826460467737,0.281759649515152
1708438125.9351351,-1.1058762073516846,-1.6813813648619593,-2.5272672812091272,2.281900091762207,-1.0185015837298792,0.28170713782310486
1708438125.9371912,-1.1058272123336792,-1.6813813648619593,-2.527245823537008,2.2819055753895263,-1.0185630957232874,0.2817116379737854
1708438125.9391396,-1.1058108806610107,-1.6813775501646937,-2.52722937265505,2.281860037440918,-1.0185230414019983,0.2817251682281494
1708438125.9411788,-1.1058316230773926,-1.6813575230040492,-2.52727181116213,2.2818192678638916,-1.0185187498675745,0.28166109323501587
1708438125.943153,-1.1058197021484375,-1.681434770623678,-2.527221981679098,2.281844301814697,-1.0184696356402796,0.2816488444805145
1708438125.9451368,-1.105765700340271,-1.681406637231344,-2.527221981679098,2.2817718225666503,-1.0184991995440882,0.28160548210144043
1708438125.9471693,-1.1058330535888672,-1.6814185581602992,-2.527172867451803,2.2817675310322265,-1.0184219519244593,0.2815501093864441
1708438125.9491425,-1.1058077812194824,-1.6813575230040492,-2.527247492467062,2.2817773061939697,-1.0184176603900355,0.2815411686897278
1708438125.9511425,-1.1057953834533691,-1.6813765964903773,-2.5272401014911097,2.281731052989624,-1.018402401600973,0.2815140187740326
1708438125.95318,-1.1057997941970825,-1.681401868859762,-2.5272071997271937,2.2817396360584716,-1.0184186140643519,0.281473845243454
1708438125.9551535,-1.105821132659912,-1.681401868859762,-2.5271876494037073,2.2817322450825195,-1.0183785597430628,0.28143811225891113
1708438125.9572039,-1.1057255268096924,-1.6814185581602992,-2.52717096010317,2.2817117410847167,-1.0184486548053187,0.28140050172805786
1708438125.9591699,-1.1057432889938354,-1.6814185581602992,-2.5271289984332483,2.2816878992268066,-1.0183466116534632,0.28138700127601624
1708438125.9611812,-1.1057476997375488,-1.681331296960348,-2.527138058339254,2.281651421184204,-1.0183551947223108,0.2813093960285187
1708438125.9632142,-1.1057238578796387,-1.6813975773253382,-2.527175490056173,2.281672640437744,-1.0182903448687952,0.2812316417694092
1708438125.9652076,-1.105738878250122,-1.6813856563963832,-2.527113978062765,2.2816359239765625,-1.0182908217059534,0.2812913656234741
1708438125.9672506,-1.1056987047195435,-1.681401868859762,-2.527123037968771,2.281606360072754,-1.018243137990133,0.2811972200870514
1708438125.969178,-1.1057357788085938,-1.6813723049559535,-2.5270898977862757,2.2816271024891357,-1.0182150045977991,0.28122255206108093
1708438125.9711833,-1.105737328529358,-1.6813675365843714,-2.5271201769458216,2.2816206651875,-1.0181658903705042,0.281141459941864
1708438125.9731543,-1.1057209968566895,-1.6814304790892542,-2.52710205713381,2.2815872865864257,-1.0182483831988733,0.2811240553855896
1708438125.9751475,-1.1056876182556152,-1.6813885174193324,-2.5270825068103235,2.281600161189697,-1.0181592146502894,0.28110289573669434
1708438125.977234,-1.1056832075119019,-1.6814214191832484,-2.5270586649524134,2.28158084928479,-1.0181267897235315,0.2810594141483307
1708438125.9791465,-1.105684518814087,-1.6813932857909144,-2.5270541349994105,2.281515284175537,-1.0180862585650843,0.28102052211761475
1708438125.9811687,-1.1056267023086548,-1.6814137897887171,-2.5270422140704554,2.2815682131000976,-1.0180876890765589,0.2809474468231201
1708438125.9832046,-1.1056267023086548,-1.6814304790892542,-2.527026955281393,2.281515284175537,-1.0181120077716272,0.2808873951435089
1708438125.9851644,-1.1056606769561768,-1.6814052067198695,-2.527052942906515,2.2815000253864746,-1.0180028120623987,0.28075262904167175
1708438125.9871614,-1.10565185546875,-1.6814185581602992,-2.5270360151873987,2.281475468272827,-1.0179951826678675,0.28075599670410156
1708438125.9891431,-1.1056725978851318,-1.6813460789122523,-2.5269911924945276,2.281463785762451,-1.0179913679706019,0.2806868851184845
1708438125.99118,-1.1056370735168457,-1.6814137897887171,-2.5270076433764856,2.281459255809448,-1.017958943043844,0.2805730998516083
1708438125.9931924,-1.1055828332901,-1.6814214191832484,-2.5269671122180384,2.2814430433460693,-1.0179069677936,0.28055089712142944
1708438125.995203,-1.1055798530578613,-1.6814424000182093,-2.5269580523120325,2.2814289766499023,-1.0179370085345667,0.28045499324798584
1708438125.9971793,-1.105542778968811,-1.6813918552794398,-2.5269506613360804,2.281384153957031,-1.017878834401266,0.28037577867507935
1708438125.9992323,-1.1055798530578613,-1.6814547977843226,-2.5269339720355433,2.2813355165668945,-1.017867390309469,0.2803204655647278
1708438126.0012362,-1.1055516004562378,-1.6813913784422816,-2.526968781148092,2.281364603633545,-1.0178478399859827,0.2801664173603058
1708438126.003202,-1.1055560111999512,-1.6814457378783167,-2.5269401709186,2.2813333707996826,-1.0178077856646937,0.28010037541389465
1708438126.0051696,-1.105536699295044,-1.6814905605711878,-2.526898209248678,2.2812914091297607,-1.0178044478045862,0.2799675166606903
1708438126.0072052,-1.1055108308792114,-1.6815110645689906,-2.5268741289721888,2.2813173967548828,-1.0177715460406702,0.27986398339271545
1708438126.0091836,-1.1054959297180176,-1.681514402429098,-2.5268500486956995,2.281244917506836,-1.0177724997149866,0.27971145510673523
1708438126.011217,-1.1054795980453491,-1.681554456750387,-2.5268800894366663,2.2812039095112304,-1.017735783253805,0.27965646982192993
1708438126.0132399,-1.1054394245147705,-1.681552072564596,-2.526839796696798,2.2811762529560546,-1.017674748097555,0.27951228618621826
1708438126.0152218,-1.1054223775863647,-1.6814891300597132,-2.5268517176257532,2.281183643932007,-1.0176714102374476,0.2793795168399811
1708438126.0171824,-1.1054764986038208,-1.6815625629820765,-2.526789967213766,2.2811805444904785,-1.0176237265216272,0.27925238013267517
1708438126.01917,-1.1054267883300781,-1.6815577946104945,-2.526806894932882,2.2811199861713867,-1.01764423051943,0.27909669280052185
1708438126.0211918,-1.105415940284729,-1.6815411053099574,-2.5267871061908167,2.281149073238037,-1.0176246801959437,0.2790023684501648
1708438126.0231938,-1.105404019355774,-1.6815577946104945,-2.526740852986471,2.2811247545429687,-1.017587963734762,0.27884531021118164
1708438126.0252476,-1.1054084300994873,-1.6816054783263148,-2.5267587343799036,2.281047983760498,-1.017526928578512,0.2786778211593628
1708438126.0272207,-1.1053669452667236,-1.6816426716246546,-2.5267182032214563,2.2810565668293457,-1.0175398031817835,0.2785223424434662
1708438126.0291839,-1.1053727865219116,-1.6815935573973597,-2.5267346541034144,2.281057758922241,-1.0174830595599573,0.27839231491088867
1708438126.031179,-1.105339527130127,-1.6816159687437953,-2.5267391840564173,2.2810212808796386,-1.0175002256976526,0.27822884917259216
1708438126.0331817,-1.1053156852722168,-1.6816703281798304,-2.526748243962423,2.2810212808796386,-1.0174482504474085,0.27804484963417053
1708438126.035236,-1.105294942855835,-1.68168367962026,-2.526740852986471,2.280944510097168,-1.0174525419818323,0.27783095836639404
1708438126.037193,-1.1053125858306885,-1.6816374264159144,-2.526710573826925,2.280982418651245,-1.0174244085894983,0.2776157557964325
1708438126.039154,-1.1052303314208984,-1.6816684208311976,-2.5266626516925257,2.2809573847004394,-1.017392937337057,0.27748093008995056
1708438126.041185,-1.1052857637405396,-1.681652685204977,-2.5266671816455286,2.280867500896118,-1.0173895994769495,0.27727025747299194
1708438126.0431886,-1.1052242517471313,-1.6816803417601527,-2.5266552607165735,2.280843897456787,-1.0173404852496546,0.2770412862300873
1708438126.0451431,-1.1051589250564575,-1.6817552051939906,-2.5266671816455286,2.2808567720600585,-1.0173166433917444,0.2768542766571045
1708438126.0471628,-1.105193018913269,-1.6817251644530238,-2.5266340414630335,2.2807957369038085,-1.0172885099994105,0.27664756774902344
1708438126.0491467,-1.1050869226455688,-1.681760927239889,-2.5266431013690394,2.280804319972656,-1.0172436873065394,0.27633222937583923
1708438126.0511723,-1.1050719022750854,-1.6817475757994593,-2.5266147295581263,2.280764265651367,-1.0172727743731897,0.27618855237960815
1708438126.053178,-1.1050630807876587,-1.6817971668639125,-2.5265730063067835,2.2807771402546386,-1.0172651449786585,0.27597302198410034
1708438126.0551836,-1.1050149202346802,-1.6818472347655238,-2.5266101996051233,2.2807740408131103,-1.0172293821917933,0.27568408846855164
1708438126.0572133,-1.1050162315368652,-1.6818210087218226,-2.526586357747213,2.280740900630615,-1.0172250906573694,0.27543020248413086
1708438126.0592067,-1.1049590110778809,-1.681831499139303,-2.5266311804400843,2.280672712916992,-1.0172250906573694,0.27523407340049744
1708438126.061169,-1.104934811592102,-1.681864400903219,-2.526599947606222,2.2805909353443603,-1.0171764532672327,0.2749612629413605
1708438126.0631819,-1.1048702001571655,-1.681868692437643,-2.52664024034609,2.2806288438984375,-1.0171640555011194,0.2746700942516327
1708438126.065164,-1.1048836708068848,-1.6819125614561976,-2.526574198399679,2.280653639430664,-1.0171807448016565,0.2744649350643158
1708438126.067178,-1.1048108339309692,-1.6819411716856898,-2.526574198399679,2.280593081111572,-1.017172638569967,0.27418386936187744
1708438126.069266,-1.1047818660736084,-1.6820022068419398,-2.526604477559225,2.2805372911640625,-1.0171683470355433,0.27387097477912903
1708438126.0711684,-1.1047462224960327,-1.6820141277708949,-2.526562039052145,2.2805253702351074,-1.0171693007098597,0.27358391880989075
1708438126.073143,-1.1047030687332153,-1.6820413074889125,-2.526604477559225,2.280468626613281,-1.0171163717852991,0.27328428626060486
1708438126.0751364,-1.1046340465545654,-1.6820455990233363,-2.5265710989581507,2.2804934221455078,-1.0171335379229944,0.27302876114845276
1708438126.0771928,-1.1046725511550903,-1.68206848720693,-2.5265865961657923,2.2804123598286132,-1.0170968214618128,0.2727995812892914
1708438126.079143,-1.1046154499053955,-1.6821090183653773,-2.5265634695636194,2.2803327280231933,-1.0171259085284632,0.2725171744823456
1708438126.081147,-1.104547142982483,-1.6821323833861292,-2.5265799204455774,2.280329390163086,-1.0170930067645472,0.27218055725097656
1708438126.0831604,-1.1045194864273071,-1.6821853123106898,-2.5265923182116907,2.2802931505390625,-1.0171540419207972,0.27186766266822815
1708438126.0851557,-1.104451298713684,-1.6821958027281703,-2.526611868535177,2.2802693086811523,-1.0170519987689417,0.27157291769981384
1708438126.0871556,-1.104388952255249,-1.6822496853270472,-2.526574198399679,2.28019301473584,-1.0171259085284632,0.2712334096431732
1708438126.08915,-1.104399561882019,-1.6822806797423304,-2.526595417653219,2.280132933253906,-1.0171259085284632,0.27090123295783997
1708438126.0911667,-1.1043156385421753,-1.6823421917357386,-2.526611868535177,2.2800966936298828,-1.0170887152301233,0.27060359716415405
1708438126.0931947,-1.10427987575531,-1.6823107204832972,-2.526587788258688,2.280036135310791,-1.0170858542071741,0.2703014016151428
1708438126.0952053,-1.104248046875,-1.6823755703368128,-2.526611868535177,2.279992027873657,-1.0171058813678187,0.26999473571777344
1708438126.0971823,-1.10415518283844,-1.682387491265768,-2.52661639848818,2.2799619871326904,-1.017069164906637,0.26963376998901367
1708438126.0991495,-1.104083776473999,-1.682427545587057,-2.5265665690051478,2.279885454768799,-1.017090145741598,0.2692703306674957
1708438126.101176,-1.1039791107177734,-1.6824380360045375,-2.526644531880514,2.279853506679199,-1.0170772711383265,0.26898014545440674
1708438126.1031995,-1.103930115699768,-1.6824904880919398,-2.5265865961657923,2.279756470317505,-1.0171015898333948,0.26862531900405884
1708438126.1051922,-1.1038389205932617,-1.6826015911498011,-2.526619259511129,2.279656096095703,-1.017097298298971,0.2682509422302246
1708438126.1071954,-1.1037224531173706,-1.6825877628722132,-2.526628319417135,2.2796119886585693,-1.0170815626727503,0.2679167091846466
1708438126.1092103,-1.1036709547042847,-1.6826192341246546,-2.526647392903463,2.279561682338379,-1.0170605818377894,0.26759088039398193
1708438126.1111546,-1.1035455465316772,-1.6826869450011195,-2.5265775362597864,2.2794603544422607,-1.0170815626727503,0.26723894476890564
1708438126.1131525,-1.1034644842147827,-1.682812353173727,-2.526623789464132,2.279470129604004,-1.0170734564410608,0.26689156889915466
1708438126.1151764,-1.1033097505569458,-1.6827746830382289,-2.5266266504870813,2.279365225429199,-1.0171015898333948,0.26652780175209045
1708438126.1172094,-1.1031781435012817,-1.6828752956786097,-2.5266221205340784,2.27928010999646,-1.0171497503863733,0.2661401033401489
1708438126.119179,-1.103082299232483,-1.6828986606993617,-2.5266552607165735,2.2792422014423828,-1.0171540419207972,0.26577794551849365
1708438126.1211457,-1.102912425994873,-1.6829306087889613,-2.5266717115985315,2.279097242946289,-1.0171282927142542,0.26541417837142944
1708438126.1231618,-1.102772831916809,-1.6830517254271449,-2.52667481104006,2.2790207105823974,-1.0171855131732386,0.26497671008110046
1708438126.1251645,-1.102679967880249,-1.6831208668150843,-2.526695791875021,2.2789291578480224,-1.0171898047076624,0.26459842920303345
1708438126.1271944,-1.1025018692016602,-1.683155199090475,-2.526712242756979,2.2787999349781494,-1.0171893278705042,0.26419079303741455
1708438126.1291683,-1.1023123264312744,-1.6832434139647425,-2.5267766157733362,2.278733177776001,-1.0172455946551722,0.26381632685661316
1708438126.1311417,-1.102152705192566,-1.68333162883901,-2.52674371400942,2.2786218362995605,-1.0172165075885218,0.2634666860103607
1708438126.1331773,-1.102001428604126,-1.6834484539427699,-2.5268006960498255,2.278428001994751,-1.0172489325152796,0.26302891969680786
1708438126.1351485,-1.1018048524856567,-1.683512350121969,-2.526811424885885,2.278352661723755,-1.017240349446432,0.2626383900642395
1708438126.137176,-1.1016278266906738,-1.6836029491820277,-2.526827875767843,2.2782136636921386,-1.0173261801349085,0.2622312307357788
1708438126.1391766,-1.101421594619751,-1.6836701832213343,-2.5268471876727503,2.2779995638081054,-1.0173662344561976,0.26181694865226746
1708438126.1411579,-1.1012018918991089,-1.6837612591185511,-2.5268381277667444,2.277916832561157,-1.0173242727862757,0.2614264190196991
1708438126.143179,-1.100985050201416,-1.6839033565916957,-2.5268951098071497,2.2777528005787353,-1.0173853079425257,0.2610433101654053
1708438126.1451397,-1.1007208824157715,-1.6840149364867152,-2.526997152959005,2.2775556284138183,-1.017388645802633,0.2606271505355835
1708438126.1471572,-1.1004644632339478,-1.6840607128539027,-2.5270584265338343,2.2774578767963867,-1.0174372831927698,0.2602035701274872
1708438126.1491563,-1.1002694368362427,-1.6842595539488734,-2.5269866625415247,2.2771920400806884,-1.0174935499774378,0.25979727506637573
1708438126.1511455,-1.099984884262085,-1.6843301258482875,-2.527093235646383,2.2770816522785644,-1.0175045172320765,0.2593979835510254
1708438126.1531944,-1.099708914756775,-1.684526105920309,-2.5271499792682093,2.2768327432819824,-1.0175493399249476,0.2589491307735443
1708438126.1551995,-1.0994325876235962,-1.6846219501891078,-2.5271814505206507,2.276613398189209,-1.0176213423358362,0.258462518453598
1708438126.1571786,-1.0991942882537842,-1.684761186639303,-2.527234141026632,2.276426001186035,-1.0176647345172327,0.25814950466156006
1708438126.1592283,-1.0988744497299194,-1.6849991283812464,-2.5272727648364466,2.276165171260498,-1.017733399068014,0.25766491889953613
1708438126.1611707,-1.0984867811203003,-1.6850677929320277,-2.527292791997091,2.275965138072632,-1.0177648703204554,0.2572340965270996
1708438126.1631799,-1.0982134342193604,-1.6852485142149867,-2.5273481051074427,2.275684042567871,-1.017801586781637,0.25680750608444214
1708438126.1651824,-1.0978808403015137,-1.6854402027525843,-2.52738863626589,2.2755371767231445,-1.0178731123553675,0.25639721751213074
1708438126.16719,-1.097554326057434,-1.685617586175436,-2.5274606386767786,2.2752603727528076,-1.0178960005389612,0.25590813159942627
1708438126.1692462,-1.0971513986587524,-1.685805460015768,-2.5274961630450647,2.274972839946411,-1.0180004278766077,0.255506306886673
1708438126.1712031,-1.0967638492584229,-1.6859718761839808,-2.5275309721576136,2.2747370439716796,-1.018109146748678,0.25506675243377686
1708438126.1731937,-1.0963529348373413,-1.6861711941161097,-2.52759558359255,2.2744578558155517,-1.0181697050677698,0.2545875310897827
1708438126.1751976,-1.0958960056304932,-1.686415811578268,-2.527684036885397,2.274120970363281,-1.0182645956622522,0.2541605830192566
1708438126.1772478,-1.0954593420028687,-1.6866065464415492,-2.5277441183673304,2.2737533289143066,-1.0183690229998987,0.2536737024784088
1708438126.179186,-1.094983458518982,-1.6867858372130335,-2.527848784123556,2.2734343248554687,-1.0184691588031214,0.25325343012809753
1708438126.1811666,-1.0945765972137451,-1.6870056591429652,-2.5279327074633997,2.2731591898151855,-1.0185750166522425,0.2528180181980133
1708438126.183186,-1.0940672159194946,-1.6872526607909144,-2.5279839674579065,2.2727417188831787,-1.0187199751483362,0.2523057162761688
1708438126.185164,-1.0935795307159424,-1.6875082455077113,-2.528123442326681,2.272446318263672,-1.018888298665182,0.25184163451194763
1708438126.1871786,-1.0930309295654297,-1.687784334222311,-2.528144423161642,2.2720586496540527,-1.0189960638629358,0.2514421045780182
1708438126.1891527,-1.0924252271652222,-1.688057085076803,-2.5282731691943567,2.2717038828083496,-1.0191276709186,0.25089117884635925
1708438126.1911669,-1.0919017791748047,-1.688343187371725,-2.5283361116992396,2.271286650294922,-1.0192907492267054,0.25044330954551697
1708438126.1931856,-1.0912690162658691,-1.6886140308775843,-2.5284815470324915,2.2708987432667236,-1.0194318930255335,0.24994513392448425
1708438126.1951852,-1.0907275676727295,-1.688885351220602,-2.5285568873034876,2.2705399233051757,-1.0195725599872034,0.24954339861869812
1708438126.1971974,-1.0901427268981934,-1.689190527001852,-2.528619352971212,2.2701443868824462,-1.0197189489947718,0.24902701377868652
