Eg3-git/Classifiers/Data Collection/u6/u6www1_ur3e_joint_states.csv
time,elbow_joint,shoulder_lift_joint,shoulder_pan_joint,wrist_1_joint,wrist_2_joint,wrist_3_joint
1708438109.3330946,-1.1055034399032593,-1.681678911248678,-2.5266431013690394,2.281201048488281,-1.017280403767721,0.1894749104976654
1708438109.3351266,-1.1054823398590088,-1.681643625298971,-2.5266268889056605,2.281155748958252,-1.017297093068258,0.18940916657447815
1708438109.3371153,-1.1055331230163574,-1.6816207371153773,-2.526628080998556,2.281201048488281,-1.0173223654376429,0.1894674301147461
1708438109.339102,-1.105532169342041,-1.6817146740355433,-2.526628080998556,2.2811924654194335,-1.0172713438617151,0.1894749104976654
1708438109.3410633,-1.105528712272644,-1.6816851101317347,-2.5265820662127894,2.2811848360249023,-1.017268482838766,0.18951237201690674
1708438109.3430786,-1.1054331064224243,-1.6816727123656214,-2.5266311804400843,2.281221552486084,-1.017306152974264,0.18943895399570465
1708438109.3450549,-1.105532169342041,-1.681652685204977,-2.526602808629171,2.28121726095166,-1.017297093068258,0.1894615739583969
1708438109.3470519,-1.1055576801300049,-1.6816407642760218,-2.5266476313220423,2.28113500654187,-1.0172637144671839,0.18949271738529205
1708438109.349062,-1.1055151224136353,-1.681681295434469,-2.526647392903463,2.2811762529560546,-1.0172770659076136,0.1895001083612442
1708438109.351136,-1.1055232286453247,-1.6816331348814906,-2.526623789464132,2.2812086778828125,-1.0172608534442347,0.18954503536224365
1708438109.353099,-1.1054987907409668,-1.6816450558104457,-2.5266643206225794,2.2811481195637207,-1.0172889868365687,0.1895001232624054
1708438109.3550491,-1.1055078506469727,-1.681615491906637,-2.526619259511129,2.281171961421631,-1.0172446409808558,0.18950465321540833
1708438109.3570914,-1.105548620223999,-1.6816612682738246,-2.526619259511129,2.2811967569538574,-1.0172770659076136,0.18951678276062012
1708438109.3591006,-1.1054869890213013,-1.681619783441061,-2.5265942255603235,2.2812129694172363,-1.0172770659076136,0.1895001232624054
1708438109.3611062,-1.1055151224136353,-1.6816655598082484,-2.526656452809469,2.2812298971363525,-1.0172904173480433,0.18951237201690674
1708438109.3631558,-1.1054959297180176,-1.681652685204977,-2.5266640822040003,2.281221552486084,-1.0172742048846644,0.18948672711849213
1708438109.365112,-1.1054987907409668,-1.6816331348814906,-2.5265820662127894,2.281139536494873,-1.0172117392169397,0.1895153522491455
1708438109.3671625,-1.1054658889770508,-1.6816283665099085,-2.5266640822040003,2.2811643320270996,-1.0172699133502405,0.18947039544582367
1708438109.3691044,-1.1054987907409668,-1.681652685204977,-2.5266059080706995,2.2811998563953857,-1.0172341505633753,0.18954060971736908
1708438109.3710873,-1.1055368185043335,-1.6816770039000453,-2.5266147295581263,2.2812341886707763,-1.0172532240497034,0.1895570158958435
1708438109.3731456,-1.1054776906967163,-1.6816207371153773,-2.5266311804400843,2.281155748958252,-1.0171759764300745,0.18953168392181396
1708438109.3751671,-1.1055151224136353,-1.6816746197142542,-2.526619259511129,2.281151219005249,-1.0172670523272913,0.18949130177497864
1708438109.3771443,-1.1055241823196411,-1.6816703281798304,-2.526619259511129,2.2811924654194335,-1.0171921888934534,0.18954363465309143
1708438109.379092,-1.1054986715316772,-1.6816493473448695,-2.526619259511129,2.281171961421631,-1.017160717641012,0.1895676702260971
1708438109.3810823,-1.1055485010147095,-1.6816770039000453,-2.5266104380237024,2.2812086778828125,-1.017226521168844,0.1896003782749176
1708438109.383105,-1.1054986715316772,-1.6816612682738246,-2.526647392903463,2.28121726095166,-1.017205540333883,0.1895677149295807
1708438109.3850873,-1.1055197715759277,-1.6816612682738246,-2.5266147295581263,2.281179352397583,-1.017172638569967,0.18959927558898926
1708438109.3870714,-1.1055277585983276,-1.6816493473448695,-2.5265777746783655,2.2812086778828125,-1.0172012487994593,0.18957075476646423
1708438109.389071,-1.1055151224136353,-1.6816374264159144,-2.526607338582174,2.2812375265308837,-1.0172174612628382,0.18952584266662598
1708438109.3910577,-1.1055724620819092,-1.6816417179503382,-2.526647392903463,2.2812043863483886,-1.0172174612628382,0.1895662546157837
1708438109.3930573,-1.1055186986923218,-1.6816536388792933,-2.526644531880514,2.2811848360249023,-1.0171592871295374,0.18958260118961334
1708438109.395064,-1.1055351495742798,-1.6816283665099085,-2.5265865961657923,2.2812082010456542,-1.017205540333883,0.1895885467529297
1708438109.39708,-1.1055933237075806,-1.6816894016661585,-2.526604239140646,2.2812537389942626,-1.0171969572650355,0.189603790640831
1708438109.3990555,-1.1055514812469482,-1.6816240749754847,-2.526632610951559,2.2812492090412597,-1.017205540333883,0.18957513570785522
1708438109.4010472,-1.1055604219436646,-1.6815983257689417,-2.5265820662127894,2.281221314067505,-1.0171850363360804,0.18955135345458984
1708438109.4030795,-1.1055351495742798,-1.6816493473448695,-2.526628080998556,2.281224413509033,-1.0172174612628382,0.1896289736032486
1708438109.4050748,-1.1055514812469482,-1.681652685204977,-2.5266147295581263,2.281216784114502,-1.0171969572650355,0.18958260118961334
1708438109.4071293,-1.105560541152954,-1.6816936932005824,-2.526656452809469,2.2812537389942626,-1.0172012487994593,0.18953357636928558
1708438109.4092042,-1.105575442314148,-1.6816493473448695,-2.526616160069601,2.281163139934204,-1.0171802679644983,0.189529150724411
1708438109.4110928,-1.1055917739868164,-1.6816407642760218,-2.5266369024859827,2.2812086778828125,-1.017226521168844,0.189529150724411
1708438109.4131622,-1.1055798530578613,-1.6816493473448695,-2.526619259511129,2.281183643932007,-1.01725942293276,0.18959927558898926
1708438109.4151094,-1.1055588722229004,-1.6816703281798304,-2.526602808629171,2.281179352397583,-1.017160717641012,0.18957076966762543
1708438109.4171193,-1.1055662631988525,-1.6816283665099085,-2.526599947606222,2.2811953264423828,-1.017266575490133,0.18954692780971527
1708438109.419103,-1.1055635213851929,-1.6816655598082484,-2.526616160069601,2.281191273326538,-1.017205540333883,0.18960821628570557
1708438109.4211123,-1.1055679321289062,-1.6816593609251917,-2.526611868535177,2.281261129970215,-1.0171802679644983,0.1895618438720703
1708438109.4231896,-1.1055634021759033,-1.6816536388792933,-2.526649061833517,2.281224413509033,-1.0172341505633753,0.189603790640831
1708438109.4251232,-1.1055634021759033,-1.6816331348814906,-2.5266030470477503,2.2812375265308837,-1.017226521168844,0.18962013721466064
1708438109.4270985,-1.1055634021759033,-1.681619783441061,-2.526616160069601,2.2811826902576904,-1.0172308127032679,0.1895662546157837
1708438109.4290674,-1.105570912361145,-1.6816612682738246,-2.526590887700216,2.2812375265308837,-1.0171893278705042,0.18959596753120422
1708438109.4310715,-1.1055843830108643,-1.6816450558104457,-2.5266030470477503,2.2812654215046386,-1.017205540333883,0.18961262702941895
1708438109.4330919,-1.1055262088775635,-1.6816946468748988,-2.526623551045553,2.2812816339680175,-1.017193619404928,0.18955442309379578
1708438109.4350724,-1.105570912361145,-1.6816493473448695,-2.526599947606222,2.281256838435791,-1.0172293821917933,0.18953357636928558
1708438109.4370725,-1.1056386232376099,-1.6816331348814906,-2.526590887700216,2.2812492090412597,-1.0172222296344202,0.1895751953125
1708438109.4390552,-1.1055635213851929,-1.6817027531065882,-2.526632610951559,2.2812580305286865,-1.0171850363360804,0.18961119651794434
1708438109.4410498,-1.1055426597595215,-1.6816493473448695,-2.5265820662127894,2.281261129970215,-1.0171354452716272,0.18955884873867035
1708438109.4430733,-1.1055917739868164,-1.6816450558104457,-2.526578728352682,2.281228705043457,-1.0172103087054651,0.18963196873664856
1708438109.4450688,-1.105621576309204,-1.6816407642760218,-2.526628080998556,2.281280680293701,-1.017176930104391,0.18955884873867035
1708438109.44707,-1.1055634021759033,-1.6816493473448695,-2.5266268889056605,2.2812773424335937,-1.017193619404928,0.18961262702941895
1708438109.4490619,-1.1055723428726196,-1.6816612682738246,-2.5265710989581507,2.2812082010456542,-1.0171921888934534,0.1895662546157837
1708438109.451052,-1.1056081056594849,-1.681592126885885,-2.5265665690051478,2.281244917506836,-1.017193619404928,0.18959596753120422
1708438109.4530623,-1.1055798530578613,-1.6816331348814906,-2.526557747517721,2.2811996179768066,-1.0171850363360804,0.18962454795837402
1708438109.4550507,-1.1056126356124878,-1.6816746197142542,-2.5265634695636194,2.281212492580078,-1.01715594926943,0.18960040807724
1708438109.4570627,-1.1056126356124878,-1.681681295434469,-2.5265384356128138,2.2812320429035644,-1.0171850363360804,0.18964524567127228
1708438109.4591303,-1.105599045753479,-1.6816283665099085,-2.5264890829669397,2.281256838435791,-1.017193619404928,0.18953806161880493
1708438109.4610932,-1.1055634021759033,-1.6816450558104457,-2.5265679995166224,2.281244917506836,-1.0172012487994593,0.18954990804195404
1708438109.463164,-1.1056082248687744,-1.6816584072508753,-2.5264859835254114,2.281280680293701,-1.017214600239889,0.18957076966762543
1708438109.4650922,-1.1055946350097656,-1.6816331348814906,-2.526499334965841,2.281268759364746,-1.0172103087054651,0.18959927558898926
1708438109.4671142,-1.105587363243103,-1.6816116772093714,-2.526544157658712,2.281301184291504,-1.0171850363360804,0.1896037757396698
1708438109.469078,-1.105594515800476,-1.6816073856749476,-2.526482645665304,2.281280680293701,-1.0171592871295374,0.18964974582195282
1708438109.4711463,-1.1056126356124878,-1.6816860638060511,-2.526487175618307,2.2812914091297607,-1.0172174612628382,0.1896003782749176
1708438109.4731553,-1.1056251525878906,-1.6816374264159144,-2.526466433201925,2.2813450533100585,-1.0171969572650355,0.18960818648338318
1708438109.4750748,-1.105566143989563,-1.6816331348814906,-2.5264914671527308,2.281348391170166,-1.0171969572650355,0.189603790640831
1708438109.4770763,-1.1056535243988037,-1.6816536388792933,-2.5264738241778772,2.281372233028076,-1.0172012487994593,0.18956181406974792
1708438109.4790492,-1.1056488752365112,-1.6816612682738246,-2.526466433201925,2.2813355165668945,-1.0172174612628382,0.18954260647296906
1708438109.4810703,-1.1056251525878906,-1.681646009484762,-2.5264905134784144,2.281372233028076,-1.0172460714923304,0.18955886363983154
1708438109.4830906,-1.1056160926818848,-1.6816283665099085,-2.526449982319967,2.2813355165668945,-1.0171921888934534,0.1895499974489212
1708438109.4851024,-1.1055618524551392,-1.681681295434469,-2.5264914671527308,2.281384153957031,-1.017193619404928,0.18961560726165771
1708438109.4871004,-1.1056116819381714,-1.6816374264159144,-2.526503864918844,2.2813355165668945,-1.0171759764300745,0.18959152698516846
1708438109.489067,-1.1055798530578613,-1.6816770039000453,-2.526433769856588,2.2813398081013183,-1.0171802679644983,0.18956628441810608
1708438109.491071,-1.1055781841278076,-1.6816207371153773,-2.526466433201925,2.2813731867023925,-1.0171998182879847,0.18957078456878662
1708438109.4930978,-1.1056443452835083,-1.6816331348814906,-2.526499334965841,2.281372233028076,-1.0172012487994593,0.18959592282772064
1708438109.4950445,-1.1055901050567627,-1.6815959415831507,-2.526482645665304,2.281380816096924,-1.0172207991229456,0.18961259722709656
1708438109.4971013,-1.1055662631988525,-1.6816894016661585,-2.526479784642355,2.2813731867023925,-1.0172131697284144,0.18957078456878662
1708438109.4990573,-1.1056252717971802,-1.6816536388792933,-2.526499334965841,2.281344099635742,-1.0172131697284144,0.18960818648338318
1708438109.5010517,-1.105639934539795,-1.6816207371153773,-2.526520077382223,2.281356020564697,-1.017214600239889,0.18958711624145508
1708438109.5031006,-1.1056071519851685,-1.6816493473448695,-2.526508156453268,2.2813398081013183,-1.0171850363360804,0.18958711624145508
1708438109.505051,-1.1055827140808105,-1.6817060909666957,-2.526503864918844,2.2813517290302734,-1.017214600239889,0.18957820534706116
1708438109.5071309,-1.1056370735168457,-1.681655069390768,-2.526479784642355,2.28135268270459,-1.017242733632223,0.18958711624145508
1708438109.509179,-1.1056280136108398,-1.6816936932005824,-2.52647835413088,2.2813765245625,-1.0172222296344202,0.18958261609077454
1708438109.5111158,-1.1056160926818848,-1.6816536388792933,-2.526499334965841,2.2813796240040283,-1.017167870198385,0.18959927558898926
1708438109.5131166,-1.1055827140808105,-1.6816612682738246,-2.526461903248922,2.281348391170166,-1.0171893278705042,0.1895751953125
1708438109.5151124,-1.1056864261627197,-1.6816092930235804,-2.5264576117144983,2.281356020564697,-1.0172012487994593,0.1895751953125
1708438109.5170655,-1.1056116819381714,-1.6816002331175746,-2.5264695326434534,2.281360312099121,-1.0172131697284144,0.18958401679992676
1708438109.5190876,-1.1055855751037598,-1.681629320184225,-2.526520077382223,2.28135268270459,-1.0172174612628382,0.18957218527793884
1708438109.5210814,-1.1055827140808105,-1.6816746197142542,-2.526511255894796,2.281409664744995,-1.0171836058246058,0.18954253196716309
1708438109.5232298,-1.1056115627288818,-1.6816612682738246,-2.526482645665304,2.2813731867023925,-1.0171893278705042,0.189603790640831
1708438109.525151,-1.1056280136108398,-1.6816374264159144,-2.526499334965841,2.2813731867023925,-1.0172012487994593,0.18959593772888184
1708438109.5271082,-1.1056160926818848,-1.6816746197142542,-2.52651554742922,2.2813235956379394,-1.0172503630267542,0.18953919410705566
1708438109.5291247,-1.1056488752365112,-1.681652685204977,-2.526482645665304,2.281372233028076,-1.0171893278705042,0.18959152698516846
1708438109.5311046,-1.105657935142517,-1.6816479168333949,-2.526499334965841,2.281388445491455,-1.017167870198385,0.1895751953125
1708438109.5331316,-1.1056207418441772,-1.6816374264159144,-2.5264950434314173,2.281348391170166,-1.0171969572650355,0.18961700797080994
1708438109.5350673,-1.1056443452835083,-1.6816331348814906,-2.526475254689352,2.281372233028076,-1.0172341505633753,0.18959593772888184
1708438109.5371144,-1.1056071519851685,-1.6816407642760218,-2.52647835413088,2.2813688951679687,-1.0172222296344202,0.1895752251148224
1708438109.539064,-1.1055827140808105,-1.6816159687437953,-2.52653676668276,2.281409664744995,-1.0171878973590296,0.18957078456878662
1708438109.541062,-1.1056207418441772,-1.6816746197142542,-2.5265234152423304,2.2813731867023925,-1.0172503630267542,0.18960818648338318
1708438109.5430684,-1.1056116819381714,-1.6816250286498011,-2.52651554742922,2.2813407617756347,-1.0172041098224085,0.18960034847259521
1708438109.5450668,-1.1056324243545532,-1.6816331348814906,-2.526487175618307,2.2812954622456054,-1.0172131697284144,0.18955445289611816
1708438109.5470676,-1.1056536436080933,-1.6816703281798304,-2.5265191237079065,2.281360312099121,-1.0171635786639612,0.18951836228370667
1708438109.5490735,-1.105599045753479,-1.6816584072508753,-2.5265067259417933,2.2813688951679687,-1.0172293821917933,0.1895425170660019
1708438109.5510588,-1.1055827140808105,-1.6816493473448695,-2.526524607335226,2.2813398081013183,-1.0171969572650355,0.18960034847259521
1708438109.5530717,-1.1056036949157715,-1.681690355340475,-2.526482645665304,2.2813688951679687,-1.017242733632223,0.18955135345458984
1708438109.5550582,-1.1056081056594849,-1.6816283665099085,-2.52651554742922,2.281348391170166,-1.0172012487994593,0.1895751953125
1708438109.5570686,-1.1056370735168457,-1.6816250286498011,-2.526482645665304,2.2813235956379394,-1.0172341505633753,0.18956327438354492
1708438109.5591807,-1.1056535243988037,-1.6816250286498011,-2.526503864918844,2.2813765245625,-1.0172088781939905,0.18955445289611816
1708438109.5610733,-1.1056370735168457,-1.6816703281798304,-2.5264979044543665,2.281392737025879,-1.0172250906573694,0.1895751953125
1708438109.563109,-1.1055946350097656,-1.6816116772093714,-2.526482645665304,2.281360312099121,-1.0172041098224085,0.18957962095737457
1708438109.5651078,-1.1055899858474731,-1.6816250286498011,-2.526511255894796,2.2812911707111816,-1.0172041098224085,0.18957218527793884
1708438109.5670888,-1.105656385421753,-1.6816374264159144,-2.526548687611715,2.2813679414936523,-1.0172742048846644,0.18959152698516846
1708438109.5691307,-1.105599045753479,-1.681707044641012,-2.526487175618307,2.281360312099121,-1.0172250906573694,0.1895751953125
1708438109.571149,-1.1056371927261353,-1.6816374264159144,-2.526520077382223,2.2813398081013183,-1.0172413031207483,0.18956327438354492
1708438109.5731788,-1.1055573225021362,-1.6816703281798304,-2.526499334965841,2.2813278871723632,-1.0172460714923304,0.18954253196716309
1708438109.5750995,-1.1056071519851685,-1.6816331348814906,-2.526499334965841,2.2813235956379394,-1.0171878973590296,0.18955884873867035
1708438109.5770621,-1.1056036949157715,-1.6816655598082484,-2.526499334965841,2.2813679414936523,-1.0172131697284144,0.18957218527793884
1708438109.5790973,-1.1056116819381714,-1.6816159687437953,-2.526482645665304,2.2813851076313476,-1.0172579924212855,0.18957960605621338
1708438109.581073,-1.1055872440338135,-1.6816283665099085,-2.5265067259417933,2.281315966243408,-1.0172460714923304,0.18957960605621338
1708438109.5830684,-1.1056607961654663,-1.6816250286498011,-2.5265067259417933,2.2813235956379394,-1.0171836058246058,0.18949761986732483
1708438109.5851684,-1.1056324243545532,-1.6816092930235804,-2.5265560785876673,2.281344099635742,-1.0172088781939905,0.1895676851272583
1708438109.5870712,-1.1055982112884521,-1.6816569767394007,-2.5265279451953333,2.281348391170166,-1.0171969572650355,0.18955692648887634
1708438109.5890856,-1.1056580543518066,-1.6816331348814906,-2.5265024344073694,2.2813398081013183,-1.0171836058246058,0.18955884873867035
1708438109.5910783,-1.1056160926818848,-1.6816946468748988,-2.526564900075094,2.281348391170166,-1.0171850363360804,0.1895885169506073
1708438109.5930982,-1.1056324243545532,-1.6816450558104457,-2.5265265146838587,2.2813450533100585,-1.0172207991229456,0.18954694271087646
1708438109.5950627,-1.1056207418441772,-1.6816159687437953,-2.5264950434314173,2.2813731867023925,-1.0171716848956507,0.1895095407962799
1708438109.5970533,-1.1055901050567627,-1.6816092930235804,-2.5265234152423304,2.2813657957264404,-1.017266575490133,0.18958401679992676
1708438109.5990827,-1.1055946350097656,-1.6816493473448695,-2.5265353361712855,2.2813765245625,-1.0172088781939905,0.18953467905521393
1708438109.6010566,-1.1056443452835083,-1.6816464863219203,-2.526472870503561,2.2813569742390136,-1.0172088781939905,0.1895676851272583
1708438109.6031113,-1.1056207418441772,-1.6816374264159144,-2.5265396277057093,2.2813517290302734,-1.017266575490133,0.18954253196716309
1708438109.60506,-1.105582594871521,-1.6816493473448695,-2.5265067259417933,2.28135268270459,-1.0172088781939905,0.18959733843803406
1708438109.607101,-1.1056325435638428,-1.6816159687437953,-2.5265279451953333,2.281332178706787,-1.0172041098224085,0.18950653076171875
1708438109.6091485,-1.1056488752365112,-1.681681295434469,-2.5265308062182825,2.2813569742390136,-1.0171893278705042,0.1895676851272583
1708438109.611105,-1.1055827140808105,-1.6816159687437953,-2.526544157658712,2.2813517290302734,-1.0172131697284144,0.18955585360527039
1708438109.6131456,-1.1056207418441772,-1.6816159687437953,-2.526532236729757,2.2813731867023925,-1.017205540333883,0.18958401679992676
1708438109.615153,-1.1056236028671265,-1.681646009484762,-2.5265145937549036,2.281380816096924,-1.017139736806051,0.18957220017910004
1708438109.6170921,-1.1056444644927979,-1.6816450558104457,-2.5265191237079065,2.28135268270459,-1.0172503630267542,0.18952593207359314
1708438109.619108,-1.1056535243988037,-1.6816536388792933,-2.526544157658712,2.2814013200947265,-1.0171788374530237,0.1895766258239746
1708438109.6210775,-1.1056296825408936,-1.6816374264159144,-2.5264950434314173,2.281392737025879,-1.0172250906573694,0.18956466019153595
1708438109.6231673,-1.1056207418441772,-1.6815959415831507,-2.526532236729757,2.281320257777832,-1.0172250906573694,0.18957218527793884
1708438109.6251502,-1.105599045753479,-1.681634088555807,-2.5265396277057093,2.281364603633545,-1.0171998182879847,0.1895139068365097
1708438109.6271417,-1.1056071519851685,-1.6817103825011195,-2.5265024344073694,2.2813893991657714,-1.0172327200519007,0.18957658112049103
1708438109.6290686,-1.1056160926818848,-1.6816860638060511,-2.5265396277057093,2.2813569742390136,-1.0172503630267542,0.1895272582769394
1708438109.631064,-1.1056535243988037,-1.6816703281798304,-2.526511255894796,2.281348391170166,-1.0172503630267542,0.18956027925014496
1708438109.6330783,-1.1056071519851685,-1.6816283665099085,-2.5265560785876673,2.281336470241211,-1.0172250906573694,0.1895885169506073
1708438109.63512,-1.1056324243545532,-1.6816746197142542,-2.526552979146139,2.281344099635742,-1.0172398726092737,0.1895766258239746
1708438109.6371024,-1.1056207418441772,-1.6816250286498011,-2.5265024344073694,2.281324549312256,-1.0172532240497034,0.18955135345458984
1708438109.6390889,-1.105599045753479,-1.6816240749754847,-2.5265308062182825,2.281266613597534,-1.0172250906573694,0.18950213491916656
1708438109.641072,-1.1056160926818848,-1.6817027531065882,-2.52651554742922,2.281320257777832,-1.0172041098224085,0.1895928531885147
1708438109.6431003,-1.1056251525878906,-1.6816002331175746,-2.5265191237079065,2.281315966243408,-1.0171921888934534,0.18955586850643158
1708438109.645056,-1.105599045753479,-1.6816536388792933,-2.5264859835254114,2.2813278871723632,-1.0172579924212855,0.18952728807926178
1708438109.6470735,-1.105639934539795,-1.6816159687437953,-2.5265560785876673,2.2813288408466796,-1.0172160307513636,0.18954800069332123
1708438109.6490993,-1.105639934539795,-1.6816159687437953,-2.5265024344073694,2.2814268308826904,-1.0172460714923304,0.18949458003044128
1708438109.6510608,-1.1056071519851685,-1.6816536388792933,-2.5265145937549036,2.281315966243408,-1.0172327200519007,0.18950791656970978
1708438109.6530793,-1.1056488752365112,-1.6816159687437953,-2.5265067259417933,2.2813193041035156,-1.0172207991229456,0.18954062461853027
1708438109.6550539,-1.105623483657837,-1.681646009484762,-2.526511255894796,2.281332178706787,-1.0172026793109339,0.189528688788414
1708438109.6570575,-1.1055901050567627,-1.6816250286498011,-2.526532236729757,2.28135268270459,-1.0172250906573694,0.18943442404270172
1708438109.659167,-1.1056535243988037,-1.6816493473448695,-2.5265679995166224,2.281356020564697,-1.0172088781939905,0.18947932124137878
1708438109.6611056,-1.1055781841278076,-1.6816612682738246,-2.526564900075094,2.2813450533100585,-1.0172160307513636,0.18946412205696106
1708438109.6631453,-1.1056251525878906,-1.6816584072508753,-2.5265067259417933,2.281320257777832,-1.0172503630267542,0.1894521415233612
1708438109.6650965,-1.1056160926818848,-1.681690355340475,-2.5265591780291956,2.2813612657734375,-1.0172651449786585,0.18943583965301514
1708438109.667116,-1.1056280136108398,-1.6816770039000453,-2.5265353361712855,2.2813688951679687,-1.0171821753131312,0.18939103186130524
1708438109.6690845,-1.1056160926818848,-1.6815744839110316,-2.5265429655658167,2.281324549312256,-1.0171669165240687,0.1894073784351349
1708438109.6711013,-1.1056562662124634,-1.6816536388792933,-2.5265145937549036,2.281348391170166,-1.0172207991229456,0.1894283890724182
1708438109.6731744,-1.1056280136108398,-1.6816331348814906,-2.5265472571002405,2.2813288408466796,-1.0172327200519007,0.1893865466117859
1708438109.6751099,-1.1055946350097656,-1.681592126885885,-2.5265308062182825,2.281308336848877,-1.0172861258136194,0.18943142890930176
1708438109.6771002,-1.1056251525878906,-1.6816493473448695,-2.5265679995166224,2.2812954622456054,-1.0172117392169397,0.18940629065036774
1708438109.6790543,-1.1056036949157715,-1.681629320184225,-2.5265679995166224,2.2812957006641845,-1.0172327200519007,0.18941950798034668
1708438109.6810477,-1.1056280136108398,-1.6815878353514613,-2.52656060854067,2.281320257777832,-1.0172174612628382,0.18943142890930176
1708438109.6830714,-1.105635404586792,-1.6816135845580042,-2.5265665690051478,2.2813569742390136,-1.0172446409808558,0.1894403100013733
1708438109.685145,-1.105639934539795,-1.6816536388792933,-2.5265546480761927,2.2812911707111816,-1.0172370115863245,0.1893821358680725
1708438109.6870985,-1.1055692434310913,-1.6816626987852992,-2.5265920797931116,2.281278534526489,-1.0172279516803187,0.18941174447536469
1708438109.6890643,-1.1056207418441772,-1.681646009484762,-2.526562039052145,2.281320257777832,-1.0172413031207483,0.1893821358680725
1708438109.6910844,-1.1056488752365112,-1.6815554104247035,-2.526587788258688,2.2813569742390136,-1.0172236601458948,0.18937911093235016
1708438109.693062,-1.1056207418441772,-1.681592126885885,-2.526595417653219,2.281372233028076,-1.0172742048846644,0.18942494690418243
1708438109.695068,-1.105599045753479,-1.681629320184225,-2.526569906865255,2.2813893991657714,-1.0172565619098108,0.18941950798034668
1708438109.6970613,-1.105639934539795,-1.6816655598082484,-2.5266266504870813,2.2812911707111816,-1.0172160307513636,0.18941950798034668
1708438109.699064,-1.1056562662124634,-1.6816002331175746,-2.526640001927511,2.281320257777832,-1.0172446409808558,0.18937021493911743
1708438109.701074,-1.1056251525878906,-1.6816417179503382,-2.5266268889056605,2.2813407617756347,-1.0172370115863245,0.1893940567970276
1708438109.7030635,-1.1055781841278076,-1.6816584072508753,-2.5266640822040003,2.281315966243408,-1.0172160307513636,0.18944472074508667
1708438109.705055,-1.1056444644927979,-1.6816746197142542,-2.526640001927511,2.2812911707111816,-1.0172579924212855,0.18940412998199463
1708438109.7070622,-1.1056115627288818,-1.681678911248678,-2.526651922856466,2.281315966243408,-1.0172579924212855,0.18941174447536469
1708438109.709197,-1.1056146621704102,-1.6816050014891566,-2.526651922856466,2.281348391170166,-1.0172861258136194,0.1894403100013733
1708438109.7111282,-1.1056160926818848,-1.6816092930235804,-2.5265939871417444,2.2812997537800292,-1.0172413031207483,0.18939103186130524
1708438109.7131453,-1.1056036949157715,-1.681617876092428,-2.526651922856466,2.2813116747089843,-1.0172770659076136,0.1894151121377945
1708438109.7151582,-1.1056280136108398,-1.6816584072508753,-2.5266147295581263,2.28135268270459,-1.0172651449786585,0.18937471508979797
1708438109.7171528,-1.1056443452835083,-1.681678911248678,-2.526619259511129,2.2813171583363037,-1.0172026793109339,0.1894283890724182
1708438109.7191005,-1.1056488752365112,-1.681629320184225,-2.526647392903463,2.2814013200947265,-1.0172413031207483,0.18939103186130524
1708438109.7212598,-1.1055737733840942,-1.6816073856749476,-2.5266597906695765,2.2813398081013183,-1.0172699133502405,0.18942703306674957
1708438109.7231395,-1.1055938005447388,-1.681678911248678,-2.526656452809469,2.281360312099121,-1.0172699133502405,0.18936751782894135
1708438109.7251666,-1.1055946350097656,-1.6816250286498011,-2.5266640822040003,2.28135268270459,-1.0172398726092737,0.18942046165466309
1708438109.7272081,-1.1055798530578613,-1.6816417179503382,-2.5266805330859583,2.2813569742390136,-1.0172117392169397,0.1894151121377945
1708438109.7291832,-1.1056371927261353,-1.6816331348814906,-2.5266552607165735,2.281386299724243,-1.0172207991229456,0.18942399322986603
1708438109.7311478,-1.1056207418441772,-1.6816493473448695,-2.5266311804400843,2.281315966243408,-1.0172489325152796,0.18939542770385742
1708438109.7331467,-1.105599045753479,-1.6816584072508753,-2.526647392903463,2.2813116747089843,-1.017207447682516,0.18938350677490234
1708438109.735099,-1.1056236028671265,-1.6816250286498011,-2.5266385714160364,2.2813495832630615,-1.0172327200519007,0.18937021493911743
1708438109.737135,-1.1056324243545532,-1.681592126885885,-2.526647392903463,2.2813116747089843,-1.0172370115863245,0.18943582475185394
1708438109.7390916,-1.1056236028671265,-1.6816045246519984,-2.5266509691821497,2.2813116747089843,-1.0172532240497034,0.1894073486328125
1708438109.7410789,-1.1056324243545532,-1.6816383800902308,-2.5266223589526575,2.281360312099121,-1.0172818342791956,0.18939843773841858
1708438109.7430813,-1.1056324243545532,-1.6816374264159144,-2.5266431013690394,2.2813116747089843,-1.0172532240497034,0.18942399322986603
1708438109.7450519,-1.105570912361145,-1.6816135845580042,-2.5266640822040003,2.2813893991657714,-1.0172370115863245,0.18939542770385742
1708438109.7470882,-1.1056160926818848,-1.6815716228880824,-2.5266385714160364,2.2813731867023925,-1.0172236601458948,0.1894371062517166
1708438109.749062,-1.1055827140808105,-1.6816207371153773,-2.5266969839679163,2.281344099635742,-1.0172279516803187,0.1893865466117859
1708438109.751057,-1.1056160926818848,-1.6815878353514613,-2.5266385714160364,2.28135268270459,-1.0172327200519007,0.18936312198638916
1708438109.7530656,-1.1056116819381714,-1.6815787754454554,-2.5266342798816126,2.281348391170166,-1.0172727743731897,0.18937471508979797
1708438109.7550657,-1.1056207418441772,-1.6816207371153773,-2.5266223589526575,2.2813731867023925,-1.0172370115863245,0.18936309218406677
1708438109.7570865,-1.105639934539795,-1.6816626987852992,-2.5266552607165735,2.281320257777832,-1.0172489325152796,0.18941174447536469
1708438109.7591717,-1.1056280136108398,-1.6816092930235804,-2.5266431013690394,2.2813266950794677,-1.0172517935382288,0.1894283890724182
1708438109.7610843,-1.1055901050567627,-1.6816159687437953,-2.5266311804400843,2.281315966243408,-1.0172279516803187,0.18937471508979797
1708438109.7631376,-1.1056370735168457,-1.681666990319723,-2.5266717115985315,2.281332178706787,-1.0172517935382288,0.1894402951002121
1708438109.7650921,-1.1055781841278076,-1.681617876092428,-2.5266640822040003,2.2813126283833007,-1.0172699133502405,0.18941950798034668
1708438109.7671251,-1.1056207418441772,-1.681650777856344,-2.5266552607165735,2.281360312099121,-1.0172565619098108,0.18939103186130524
1708438109.7690756,-1.105599045753479,-1.6815835438170375,-2.5266552607165735,2.281402512187622,-1.0172770659076136,0.1894073486328125
1708438109.771128,-1.1056115627288818,-1.68162264446401,-2.5266431013690394,2.281348391170166,-1.0172608534442347,0.18941950798034668
1708438109.7731957,-1.1056160926818848,-1.6816050014891566,-2.5266268889056605,2.2813569742390136,-1.0172517935382288,0.1894283890724182
1708438109.775097,-1.1055946350097656,-1.6815792522826136,-2.5266311804400843,2.2813688951679687,-1.0172608534442347,0.18944911658763885
1708438109.7771227,-1.1056207418441772,-1.6816283665099085,-2.5266147295581263,2.281266613597534,-1.0172327200519007,0.18934646248817444
1708438109.7790675,-1.1056280136108398,-1.6815759144225062,-2.5266686121570032,2.281304045314453,-1.0172937552081507,0.1893954575061798
1708438109.7810607,-1.1055901050567627,-1.681666990319723,-2.5265985170947474,2.2813288408466796,-1.0172937552081507,0.1893865466117859
1708438109.7831104,-1.105639934539795,-1.681629320184225,-2.526607338582174,2.2813893991657714,-1.017268482838766,0.18936310708522797
1708438109.7851386,-1.1056236028671265,-1.6817027531065882,-2.5266385714160364,2.28135268270459,-1.017247502003805,0.1893967092037201
1708438109.7871118,-1.105639934539795,-1.6816207371153773,-2.5266640822040003,2.281315966243408,-1.0172651449786585,0.18941177427768707
1708438109.7890654,-1.105639934539795,-1.6816092930235804,-2.526651922856466,2.281315966243408,-1.0172398726092737,0.18939101696014404
1708438109.791074,-1.1056607961654663,-1.6816655598082484,-2.5266104380237024,2.281344099635742,-1.0172937552081507,0.1894073337316513
1708438109.793084,-1.105639934539795,-1.6816159687437953,-2.5266268889056605,2.281324549312256,-1.0172889868365687,0.1894117295742035
1708438109.7950797,-1.1056036949157715,-1.6816050014891566,-2.5266223589526575,2.2813569742390136,-1.017219368611471,0.18937021493911743
1708438109.7970793,-1.1055917739868164,-1.6816703281798304,-2.5266268889056605,2.281324549312256,-1.017301384602682,0.18939103186130524
1708438109.7990608,-1.1056727170944214,-1.6816655598082484,-2.5266104380237024,2.2813612657734375,-1.0173147360431116,0.18936753273010254
1708438109.8010743,-1.1056488752365112,-1.6816250286498011,-2.5266431013690394,2.281324549312256,-1.01723558107485,0.189350888133049
1708438109.803078,-1.105594515800476,-1.6816250286498011,-2.526623551045553,2.281304045314453,-1.0172713438617151,0.18938779830932617
1708438109.8050494,-1.1056160926818848,-1.6816536388792933,-2.526651922856466,2.2813450533100585,-1.017301384602682,0.18937914073467255
1708438109.807074,-1.1055617332458496,-1.6816374264159144,-2.5266509691821497,2.281320257777832,-1.0172517935382288,0.18937472999095917
1708438109.8091679,-1.1056444644927979,-1.681629320184225,-2.526651922856466,2.281308336848877,-1.01723558107485,0.18939542770385742
1708438109.8111005,-1.1056115627288818,-1.681646009484762,-2.526651922856466,2.281344099635742,-1.017297093068258,0.18937918543815613
1708438109.813147,-1.105599045753479,-1.6815959415831507,-2.5266311804400843,2.281324549312256,-1.0173223654376429,0.18935875594615936
1708438109.8151045,-1.1056160926818848,-1.681650777856344,-2.526635710393087,2.281304045314453,-1.0172517935382288,0.18942832946777344
1708438109.8170836,-1.1055917739868164,-1.6816493473448695,-2.526651922856466,2.281362696284912,-1.017280403767721,0.18941950798034668
1708438109.819085,-1.105587363243103,-1.6816536388792933,-2.526651922856466,2.28135268270459,-1.0172446409808558,0.189370259642601
1708438109.8210773,-1.1056207418441772,-1.6816655598082484,-2.5266597906695765,2.281308336848877,-1.0172727743731897,0.18937912583351135
1708438109.8231285,-1.1055529117584229,-1.6816374264159144,-2.5266385714160364,2.281287117595337,-1.017247502003805,0.18936313688755035
1708438109.8251028,-1.105587363243103,-1.6816250286498011,-2.5266597906695765,2.2813288408466796,-1.017301384602682,0.18936751782894135
1708438109.8270667,-1.1055872440338135,-1.6816626987852992,-2.5266104380237024,2.2813171583363037,-1.017268482838766,0.18941950798034668
1708438109.8290665,-1.105587363243103,-1.6816092930235804,-2.5266311804400843,2.2812954622456054,-1.017268482838766,0.1894402951002121
1708438109.831067,-1.1055827140808105,-1.6815792522826136,-2.5266147295581263,2.2813288408466796,-1.017301384602682,0.18942837417125702
1708438109.8330653,-1.1055827140808105,-1.6816584072508753,-2.5266147295581263,2.2812914091297607,-1.017268482838766,0.1894117295742035
1708438109.8350973,-1.1055736541748047,-1.6816536388792933,-2.5266640822040003,2.281258984203003,-1.017268482838766,0.1894073486328125
1708438109.837074,-1.1056082248687744,-1.6816584072508753,-2.5266223589526575,2.2812914091297607,-1.01725942293276,0.18943706154823303
1708438109.8390892,-1.105570912361145,-1.6816159687437953,-2.5265939871417444,2.2812957006641845,-1.0172846953021448,0.1894446760416031
1708438109.8410652,-1.105570912361145,-1.681687971154684,-2.5266030470477503,2.2813333707996826,-1.0173299948321741,0.18939542770385742
1708438109.84308,-1.1056170463562012,-1.681592126885885,-2.5266268889056605,2.2813288408466796,-1.017268482838766,0.18938350677490234
1708438109.8450973,-1.1055662631988525,-1.681655069390768,-2.5266552607165735,2.2812957006641845,-1.0172551313983362,0.18941612541675568
1708438109.847065,-1.105575442314148,-1.6816703281798304,-2.526660744343893,2.2812720972248535,-1.017313305531637,0.18942397832870483
1708438109.8491194,-1.105599045753479,-1.6816584072508753,-2.5266552607165735,2.2813538747974853,-1.0172637144671839,0.18941612541675568
1708438109.8510745,-1.1055469512939453,-1.6816331348814906,-2.5266059080706995,2.2812840181538085,-1.017318073903219,0.18937912583351135
1708438109.85309,-1.1055798530578613,-1.68158020595693,-2.5266223589526575,2.2813495832630615,-1.017318073903219,0.18942837417125702
1708438109.855079,-1.1056127548217773,-1.6816979847350062,-2.5266223589526575,2.281280680293701,-1.017297093068258,0.18941950798034668
1708438109.857085,-1.1056126356124878,-1.6816493473448695,-2.526619259511129,2.2812840181538085,-1.017280403767721,0.18935427069664001
1708438109.8591416,-1.1055723428726196,-1.6816159687437953,-2.5266640822040003,2.281313105220459,-1.017280403767721,0.18940287828445435
1708438109.8611114,-1.1055635213851929,-1.6815630398192347,-2.5265985170947474,2.2812763887592773,-1.017275635396139,0.18942837417125702
1708438109.8630974,-1.1055798530578613,-1.6816092930235804,-2.5266926924334925,2.28129689275708,-1.017280403767721,0.18941950798034668
1708438109.86508,-1.105532169342041,-1.681619783441061,-2.5266311804400843,2.281289263362549,-1.0172680060016077,0.18942397832870483
1708438109.8670762,-1.1055395603179932,-1.681634088555807,-2.526619259511129,2.2812515932270507,-1.0172928015338343,0.18941612541675568
1708438109.8691123,-1.105527639389038,-1.6816703281798304,-2.5266431013690394,2.281224413509033,-1.0173047224627894,0.1894640475511551
1708438109.8710847,-1.1055768728256226,-1.6816240749754847,-2.526644531880514,2.281179352397583,-1.0172846953021448,0.18940287828445435
1708438109.8731267,-1.1055560111999512,-1.6816536388792933,-2.526656452809469,2.2812256056019287,-1.0173538366900843,0.18939848244190216
1708438109.875081,-1.105544090270996,-1.6816584072508753,-2.526635710393087,2.281201048488281,-1.017297093068258,0.1894117295742035
1708438109.8771048,-1.105548620223999,-1.6816092930235804,-2.526656452809469,2.2811567026325683,-1.0173047224627894,0.18944773077964783
1708438109.8790631,-1.1055843830108643,-1.6816450558104457,-2.526656452809469,2.281160994166992,-1.0173299948321741,0.189432755112648
1708438109.881067,-1.1055151224136353,-1.6816655598082484,-2.526651922856466,2.2811459737965087,-1.0173209349261683,0.1894073486328125
1708438109.8830872,-1.1055243015289307,-1.6816746197142542,-2.526651922856466,2.2811128336140136,-1.0172928015338343,0.18943895399570465
1708438109.8850956,-1.105532169342041,-1.6816536388792933,-2.526635710393087,2.2810911375233154,-1.0172837416278284,0.18942397832870483
1708438109.8870718,-1.1055151224136353,-1.6816703281798304,-2.5266268889056605,2.2810672956654052,-1.017313305531637,0.18944773077964783
1708438109.889069,-1.105544090270996,-1.6816002331175746,-2.5266311804400843,2.2811333376118164,-1.0173700491534632,0.18936751782894135
1708438109.8910801,-1.1055151224136353,-1.681619783441061,-2.5266147295581263,2.281115933055542,-1.0173118750201624,0.18946842849254608
1708438109.893088,-1.1054986715316772,-1.6816135845580042,-2.5266385714160364,2.281111641521118,-1.017334286366598,0.1894521266222
1708438109.8950713,-1.105516791343689,-1.6816374264159144,-2.5266104380237024,2.2811009126850585,-1.017334286366598,0.1894117295742035
1708438109.8970985,-1.1055123805999756,-1.6816569767394007,-2.526647392903463,2.2811128336140136,-1.0173371473895472,0.18936751782894135
1708438109.8990705,-1.1054885387420654,-1.6816207371153773,-2.526619259511129,2.28110854207959,-1.017325226460592,0.18942704796791077
1708438109.9010596,-1.1054706573486328,-1.6816569767394007,-2.5265732447253626,2.281076117152832,-1.0172713438617151,0.18940290808677673
1708438109.9030864,-1.1054587364196777,-1.6816331348814906,-2.526647392903463,2.281076117152832,-1.0172880331622522,0.1894107311964035
1708438109.905064,-1.1055123805999756,-1.681650777856344,-2.526660744343893,2.281076117152832,-1.0173209349261683,0.1894640475511551
1708438109.907112,-1.1054959297180176,-1.6816536388792933,-2.5266717115985315,2.2811052042194824,-1.017313305531637,0.18941952288150787
1708438109.9091015,-1.1054675579071045,-1.6816626987852992,-2.5266342798816126,2.281097574824951,-1.0173047224627894,0.1894596517086029
1708438109.9111009,-1.1054645776748657,-1.6816250286498011,-2.5265985170947474,2.2810651498981933,-1.0172713438617151,0.1894151270389557
1708438109.9131253,-1.1054468154907227,-1.6816703281798304,-2.5266597906695765,2.281097574824951,-1.017280403767721,0.18942704796791077
1708438109.9150872,-1.1054766178131104,-1.6816159687437953,-2.526623551045553,2.2810284334370117,-1.0173166433917444,0.1894640475511551
1708438109.9171486,-1.1054266691207886,-1.6816331348814906,-2.5266104380237024,2.2809995847889404,-1.0173047224627894,0.18944334983825684
1708438109.9190907,-1.1054437160491943,-1.6816331348814906,-2.5266268889056605,2.281045837993286,-1.0173490683185022,0.1894151270389557
1708438109.92109,-1.1054311990737915,-1.6816450558104457,-2.5266059080706995,2.2810770708271484,-1.0173328558551233,0.1894063502550125
1708438109.9231668,-1.1054069995880127,-1.681631704370016,-2.5265732447253626,2.2810157972523193,-1.0173047224627894,0.1894344836473465
1708438109.9250834,-1.1053932905197144,-1.6816073856749476,-2.5266342798816126,2.28102891027417,-1.0173490683185022,0.1894107162952423
1708438109.9271367,-1.105432391166687,-1.6816407642760218,-2.5265939871417444,2.2809790807911376,-1.0173404852496546,0.18946409225463867
1708438109.9290948,-1.1054069995880127,-1.6816116772093714,-2.5266385714160364,2.2809995847889404,-1.0173404852496546,0.18949264287948608
1708438109.9310627,-1.1053906679153442,-1.681619783441061,-2.526619259511129,2.280984564418457,-1.0173657576190394,0.1894596666097641
1708438109.9330847,-1.1054141521453857,-1.6816240749754847,-2.5265820662127894,2.2810868459888916,-1.0173657576190394,0.1894596517086029
1708438109.9350798,-1.105366826057434,-1.6816374264159144,-2.5266311804400843,2.2810415464588623,-1.0173538366900843,0.18944640457630157
1708438109.93711,-1.1053712368011475,-1.6816240749754847,-2.5266147295581263,2.2810212808796386,-1.017374340687887,0.18945077061653137
1708438109.9391494,-1.1054130792617798,-1.6816374264159144,-2.5266597906695765,2.280988855952881,-1.0173700491534632,0.1894674003124237
1708438109.9410722,-1.105354905128479,-1.6816450558104457,-2.526635710393087,2.280988855952881,-1.0173328558551233,0.18948067724704742
1708438109.9430888,-1.105312466621399,-1.681650777856344,-2.526647392903463,2.280972643489502,-1.0173419157611292,0.18947193026542664
1708438109.9450905,-1.1054130792617798,-1.6817027531065882,-2.5266311804400843,2.280968351955078,-1.0173357168780726,0.18947628140449524
1708438109.9470859,-1.1053593158721924,-1.6816479168333949,-2.526656452809469,2.2809714513966064,-1.0173700491534632,0.1894807070493698
1708438109.949086,-1.105339527130127,-1.6816541157164515,-2.5266147295581263,2.2810417848774414,-1.0173404852496546,0.18947190046310425
1708438109.951064,-1.1053259372711182,-1.681681295434469,-2.526651922856466,2.2810374933430175,-1.0173819700824183,0.18944638967514038
1708438109.9530795,-1.1053638458251953,-1.6816493473448695,-2.5266552607165735,2.2809769350239257,-1.0173776785479944,0.1894969791173935
1708438109.9550726,-1.1053529977798462,-1.6816703281798304,-2.5266147295581263,2.2810212808796386,-1.0173657576190394,0.189504474401474
1708438109.957111,-1.1053409576416016,-1.6816283665099085,-2.526628080998556,2.280960722560547,-1.017412010823385,0.18940192461013794
1708438109.959077,-1.1052992343902588,-1.6816450558104457,-2.5266147295581263,2.2810093599506835,-1.0173538366900843,0.18948818743228912
1708438109.9610772,-1.1053037643432617,-1.6816493473448695,-2.526647392903463,2.2810255724140625,-1.0173357168780726,0.1894257664680481
1708438109.96311,-1.1053410768508911,-1.681591650048727,-2.526623551045553,2.280984564418457,-1.0173285643206995,0.1895045042037964
1708438109.965104,-1.1052948236465454,-1.6816159687437953,-2.5266268889056605,2.2809974390217285,-1.0173404852496546,0.18952219188213348
1708438109.9671268,-1.1052902936935425,-1.6816655598082484,-2.5266311804400843,2.280944510097168,-1.0173657576190394,0.18949562311172485
1708438109.9690752,-1.1052829027175903,-1.6816207371153773,-2.526611868535177,2.2809151846119384,-1.0173285643206995,0.18947051465511322
1708438109.9710813,-1.1052873134613037,-1.6816493473448695,-2.5266640822040003,2.2809812265583496,-1.0173195044146937,0.18947048485279083
1708438109.9731245,-1.1052753925323486,-1.6816283665099085,-2.5266686121570032,2.2809488016315917,-1.0173729101764124,0.1894586980342865
1708438109.9750817,-1.1052963733673096,-1.6816493473448695,-2.526635710393087,2.2809488016315917,-1.0172985235797327,0.1894344836473465
1708438109.9771197,-1.1052515506744385,-1.6816655598082484,-2.5266597906695765,2.280937595958374,-1.0173237959491175,0.18949127197265625
1708438109.9790826,-1.1053053140640259,-1.6816288433470667,-2.526619259511129,2.280928774470947,-1.0173490683185022,0.1894868016242981
1708438109.9810688,-1.1052634716033936,-1.6816727123656214,-2.526647392903463,2.2808806139179687,-1.0173943678485315,0.18949903547763824
1708438109.9830947,-1.105300784111023,-1.6816655598082484,-2.5266431013690394,2.280876322383545,-1.0173819700824183,0.18949563801288605
1708438109.9850786,-1.105247139930725,-1.6816450558104457,-2.526635710393087,2.2809130388447265,-1.0173237959491175,0.18947048485279083
1708438109.9870782,-1.1052136421203613,-1.6816612682738246,-2.5266552607165735,2.2809130388447265,-1.0173566977130335,0.18949905037879944
1708438109.989074,-1.1052272319793701,-1.6816030941405238,-2.5266686121570032,2.280843897456787,-1.0173609892474573,0.1895153522491455
1708438109.9910824,-1.1051733493804932,-1.6816240749754847,-2.5266104380237024,2.280872030849121,-1.0173900763141077,0.18951666355133057
1708438109.993092,-1.105231761932373,-1.6816636524596156,-2.5266311804400843,2.2808806139179687,-1.0173609892474573,0.1894780695438385
1708438109.995102,-1.105224370956421,-1.6816240749754847,-2.5266104380237024,2.2808806139179687,-1.0173285643206995,0.18953609466552734
1708438109.9970877,-1.1052109003067017,-1.6816240749754847,-2.5267089048968714,2.2808891969868164,-1.0174062887774866,0.18955135345458984
1708438109.9990745,-1.1052526235580444,-1.6816240749754847,-2.526651922856466,2.280860109920166,-1.0173524061786097,0.18953032791614532
1708438110.001066,-1.1052287817001343,-1.6816479168333949,-2.5266016165362757,2.2808891969868164,-1.0173566977130335,0.1896047294139862
1708438110.0031202,-1.1051406860351562,-1.6816936932005824,-2.5266686121570032,2.280876322383545,-1.0173404852496546,0.18956631422042847
1708438110.0050716,-1.1052124500274658,-1.6816407642760218,-2.526635710393087,2.28086440145459,-1.017392937337057,0.18955138325691223
1708438110.0071354,-1.105207920074463,-1.6816770039000453,-2.5266059080706995,2.2808396059223632,-1.01733905473818,0.1895303577184677
1708438110.0091047,-1.1051586866378784,-1.6817013225951136,-2.5266268889056605,2.2808686929890136,-1.0173595587359827,0.18958841264247894
1708438110.0110974,-1.1051959991455078,-1.6816479168333949,-2.5265939871417444,2.2808686929890136,-1.0174062887774866,0.1895676553249359
1708438110.0131092,-1.1051886081695557,-1.6816851101317347,-2.5266805330859583,2.280843897456787,-1.0173404852496546,0.18953822553157806
1708438110.0151124,-1.1051632165908813,-1.68168367962026,-2.526651922856466,2.280848665828369,-1.0173686186419886,0.18955756723880768
1708438110.017124,-1.1051342487335205,-1.6816936932005824,-2.526635710393087,2.2808655935474853,-1.0174062887774866,0.18955135345458984
1708438110.019082,-1.1051932573318481,-1.6816674671568812,-2.526651922856466,2.2808193403431396,-1.0173900763141077,0.1896081119775772
1708438110.0210867,-1.1051478385925293,-1.6816760502257289,-2.5266640822040003,2.2808567720600585,-1.017327133809225,0.1896081119775772
1708438110.023133,-1.1051315069198608,-1.6817132435240687,-2.5266431013690394,2.28083245336499,-1.0173476378070276,0.18955889344215393
1708438110.025142,-1.1051597595214844,-1.681704660455221,-2.5266311804400843,2.280886097545288,-1.0173686186419886,0.18958711624145508
1708438110.0271268,-1.1051342487335205,-1.6817089519896449,-2.526647392903463,2.2808658319660644,-1.0173643271075647,0.18961557745933533
1708438110.0290804,-1.105173110961914,-1.6816970310606898,-2.5266640822040003,2.280820532436035,-1.0174019972430628,0.18959052860736847
1708438110.0310805,-1.1051150560379028,-1.6817461452879847,-2.526647392903463,2.280869885081909,-1.0173972288714808,0.18953819572925568
1708438110.0331466,-1.1051105260849,-1.6817165813841761,-2.5266431013690394,2.2808453279682617,-1.0174019972430628,0.189579576253891
1708438110.0350978,-1.1051239967346191,-1.6816884479918421,-2.526668373738424,2.280812903041504,-1.0174344221698206,0.18955889344215393
1708438110.037112,-1.1051523685455322,-1.6817566357054652,-2.5266104380237024,2.2808572488972167,-1.017371956502096,0.18955005705356598
1708438110.0390873,-1.1051478385925293,-1.6817165813841761,-2.5266385714160364,2.2808291155048828,-1.0174019972430628,0.1895293891429901
1708438110.0410779,-1.105112075805664,-1.6817366085448207,-2.5266597906695765,2.2808334070393066,-1.0173900763141077,0.18960373103618622
1708438110.0430777,-1.1050673723220825,-1.6817566357054652,-2.5266597906695765,2.28080861150708,-1.0174019972430628,0.18959586322307587
1708438110.0450764,-1.1050763130187988,-1.6817275486388148,-2.5266671816455286,2.2808376985737304,-1.017376724873678,0.18963761627674103
1708438110.0471222,-1.1050503253936768,-1.681760927239889,-2.5266431013690394,2.2807599741169433,-1.0173853079425257,0.18954697251319885
1708438110.0490696,-1.105112075805664,-1.6818005047240199,-2.5266805330859583,2.280764265651367,-1.017376724873678,0.1895293891429901
1708438110.0510557,-1.1050927639007568,-1.681751390496725,-2.5266385714160364,2.280804319972656,-1.0173566977130335,0.18956635892391205
1708438110.0530648,-1.1050584316253662,-1.6818090877928675,-2.5266178289996546,2.280820532436035,-1.0173433462726038,0.18959927558898926
1708438110.0550537,-1.1051090955734253,-1.6818119488158167,-2.526651922856466,2.2807890611835937,-1.0173595587359827,0.189579576253891
1708438110.0570657,-1.105059266090393,-1.681784292260641,-2.5265970865832728,2.280735417003296,-1.0173686186419886,0.18959586322307587
1708438110.0591335,-1.1050809621810913,-1.6818205318846644,-2.526635710393087,2.2807890611835937,-1.017371956502096,0.18958711624145508
1708438110.0611193,-1.1050972938537598,-1.6818705997862757,-2.526647392903463,2.280768557185791,-1.017376724873678,0.18955452740192413
1708438110.0631194,-1.105059266090393,-1.6818496189513148,-2.5266640822040003,2.2808052736469726,-1.0174301306353968,0.18955005705356598
1708438110.0651333,-1.105059266090393,-1.6818486652769984,-2.5266223589526575,2.280800982112549,-1.0174182097064417,0.1896124929189682
1708438110.0670736,-1.1050519943237305,-1.681840559045309,-2.5266223589526575,2.2807890611835937,-1.017392937337057,0.18953385949134827
1708438110.0690835,-1.1050853729248047,-1.6818200550475062,-2.526651922856466,2.280812903041504,-1.0174019972430628,0.1895751953125
1708438110.071102,-1.1050264835357666,-1.681840559045309,-2.5266552607165735,2.280776186580322,-1.0174091498004358,0.18959586322307587
1708438110.0730736,-1.1050974130630493,-1.6818601093687953,-2.5266714731799524,2.28080861150708,-1.017383877431051,0.18955452740192413
1708438110.075121,-1.1050264835357666,-1.6818496189513148,-2.5266686121570032,2.28078476964917,-1.0173552672015589,0.18960018455982208
1708438110.0771434,-1.1050639152526855,-1.681836267510885,-2.5266385714160364,2.2808052736469726,-1.0173676649676722,0.18954697251319885
1708438110.079136,-1.1050728559494019,-1.6818553409972132,-2.5266223589526575,2.280792399043701,-1.0173676649676722,0.18960466980934143
1708438110.0810716,-1.1050236225128174,-1.6818725071349085,-2.5266385714160364,2.280752344722412,-1.0173633734332483,0.18959146738052368
1708438110.0830705,-1.1050400733947754,-1.6818767986693324,-2.5266268889056605,2.28078476964917,-1.017376724873678,0.18958713114261627
1708438110.0850728,-1.1050763130187988,-1.6818887195982875,-2.526647392903463,2.280764265651367,-1.017404858266012,0.1896037757396698
1708438110.0870724,-1.1049937009811401,-1.6818810902037562,-2.5266640822040003,2.2807440000721435,-1.0174091498004358,0.18962439894676208
1708438110.089075,-1.1050565242767334,-1.6818844280638636,-2.52667743364443,2.280768557185791,-1.0174091498004358,0.18960019946098328
1708438110.0910957,-1.105019211769104,-1.6819244823851527,-2.5266640822040003,2.280719204539917,-1.0174301306353968,0.18956638872623444
1708438110.0931134,-1.105042815208435,-1.6818930111327113,-2.526647392903463,2.280731125468872,-1.017437760029928,0.1896331012248993
1708438110.0951252,-1.105019211769104,-1.6818376980223597,-2.5266597906695765,2.280756636256836,-1.017371956502096,0.18958711624145508
1708438110.0971005,-1.1050400733947754,-1.6819287739195765,-2.526651922856466,2.280806465739868,-1.0174005667315882,0.1895677149295807
1708438110.0990753,-1.1050564050674438,-1.6819168529906214,-2.526651922856466,2.2807697492786865,-1.017383877431051,0.18953828513622284
1708438110.1010842,-1.1050444841384888,-1.6818915806212367,-2.5266507307635706,2.2807161050983886,-1.0173957983600062,0.18961244821548462
1708438110.1030643,-1.1050446033477783,-1.6819168529906214,-2.526635710393087,2.2807528215595703,-1.0173957983600062,0.18959587812423706
1708438110.1050684,-1.1050251722335815,-1.6819287739195765,-2.5266509691821497,2.280740900630615,-1.017437760029928,0.18961681425571442
1708438110.1070688,-1.104970097541809,-1.6818915806212367,-2.5266640822040003,2.2807277876087646,-1.0173957983600062,0.18958711624145508
1708438110.109104,-1.1050400733947754,-1.6819125614561976,-2.526647392903463,2.2807397085377197,-1.017404858266012,0.1895795613527298
1708438110.1111145,-1.1050370931625366,-1.6818510494627894,-2.5266597906695765,2.2807041841694335,-1.0174077192889612,0.18953825533390045
1708438110.11314,-1.105074405670166,-1.6818844280638636,-2.526647392903463,2.2807246881672363,-1.017416779194967,0.18954703211784363
1708438110.1151404,-1.1050564050674438,-1.6819588146605433,-2.5266104380237024,2.2806803423115234,-1.0173915068255823,0.1895260214805603
1708438110.1171405,-1.1050326824188232,-1.6819335422911585,-2.5266552607165735,2.280712767238281,-1.017432991658346,0.1895839273929596
1708438110.11917,-1.1050490140914917,-1.6819244823851527,-2.526689354573385,2.2806803423115234,-1.0173872152911585,0.18960373103618622
1708438110.1210916,-1.105019211769104,-1.6819125614561976,-2.5266147295581263,2.280643864268921,-1.0173957983600062,0.18959584832191467
1708438110.123128,-1.1049953699111938,-1.6818553409972132,-2.5266385714160364,2.280623360271118,-1.0174701849566858,0.18959927558898926
1708438110.1250684,-1.1050043106079102,-1.6818753681578578,-2.526658360158102,2.280681534404419,-1.017421070729391,0.1895826905965805
1708438110.1271799,-1.1050028800964355,-1.6819168529906214,-2.5266268889056605,2.2806684213825683,-1.017421070729391,0.18960373103618622
1708438110.129165,-1.1050564050674438,-1.6819049320616664,-2.5266476313220423,2.280635281200073,-1.017404858266012,0.1895751953125
1708438110.1311169,-1.105023741722107,-1.681871076623434,-2.5266552607165735,2.280709429378174,-1.017383877431051,0.18956327438354492
1708438110.1331468,-1.1049879789352417,-1.6819335422911585,-2.5266640822040003,2.2807020384022216,-1.0174139181720179,0.1895795613527298
1708438110.1351407,-1.105019211769104,-1.6819006405272425,-2.526658360158102,2.280697746867798,-1.0173676649676722,0.18951719999313354
1708438110.1370828,-1.1050370931625366,-1.6818930111327113,-2.5266714731799524,2.2806684213825683,-1.017421070729391,0.18956327438354492
1708438110.1391003,-1.1050325632095337,-1.6818963489928187,-2.5267046133624476,2.2806600767322998,-1.0173595587359827,0.1895839273929596
1708438110.1410968,-1.1049753427505493,-1.6818353138365687,-2.5267208258258265,2.280677004451416,-1.017388645802633,0.18953827023506165
1708438110.1431556,-1.1050043106079102,-1.6819049320616664,-2.5266178289996546,2.280672712916992,-1.0173552672015589,0.18959584832191467
1708438110.1450577,-1.1050281524658203,-1.6819287739195765,-2.5266640822040003,2.2807463842579345,-1.0173795858966272,0.1895751804113388
1708438110.147056,-1.1050400733947754,-1.6818963489928187,-2.5266266504870813,2.280749483699463,-1.017383877431051,0.18953919410705566
1708438110.1490583,-1.1049953699111938,-1.6819006405272425,-2.5266714731799524,2.280672712916992,-1.017416779194967,0.18954698741436005
1708438110.15105,-1.1050370931625366,-1.6818963489928187,-2.5266714731799524,2.280709429378174,-1.0174077192889612,0.18959148228168488
1708438110.1531086,-1.1050087213516235,-1.6818915806212367,-2.5266552607165735,2.280677004451416,-1.017432991658346,0.18956764042377472
1708438110.155069,-1.1049878597259521,-1.6818963489928187,-2.5266135374652308,2.2807256418415527,-1.017432991658346,0.18958711624145508
1708438110.1571133,-1.1049790382385254,-1.6818801365294398,-2.5266597906695765,2.280677004451416,-1.017388645802633,0.18956764042377472
1708438110.1590946,-1.1049998998641968,-1.6819211445250453,-2.5266597906695765,2.2807344633289794,-1.0174005667315882,0.18957830965518951
1708438110.161099,-1.1050043106079102,-1.6819459400572718,-2.526646439229147,2.280677004451416,-1.0174124876605433,0.1895795613527298
1708438110.163159,-1.1049998998641968,-1.6818634472289027,-2.5266223589526575,2.2807256418415527,-1.017404858266012,0.18960019946098328
1708438110.1651044,-1.1050251722335815,-1.6819125614561976,-2.5266431013690394,2.280700846309326,-1.017421070729391,0.1895558089017868
1708438110.1671455,-1.1050043106079102,-1.6818930111327113,-2.5266595522509974,2.2806646066853027,-1.0174287001239222,0.18958266079425812
1708438110.169088,-1.1050370931625366,-1.6818915806212367,-2.5266760031329554,2.280655785197876,-1.017482105885641,0.18955890834331512
1708438110.171076,-1.1050251722335815,-1.6818725071349085,-2.526684824620382,2.280709429378174,-1.0174091498004358,0.18956638872623444
1708438110.1730845,-1.1050206422805786,-1.6819006405272425,-2.5266509691821497,2.280639572734497,-1.017449680958883,0.18954698741436005
1708438110.1751223,-1.1050087213516235,-1.6818801365294398,-2.5266686121570032,2.280684633845947,-1.017421070729391,0.1895839273929596
1708438110.1771178,-1.1050087213516235,-1.6818930111327113,-2.526651922856466,2.2807375627705078,-1.0174301306353968,0.18955890834331512
1708438110.1790652,-1.104992389678955,-1.6818915806212367,-2.5266342798816126,2.2806641298481445,-1.017416779194967,0.18956764042377472
1708438110.18105,-1.1050400733947754,-1.6818634472289027,-2.5266805330859583,2.2806600767322998,-1.0174244085894983,0.18955135345458984
1708438110.183075,-1.1050206422805786,-1.6818682156004847,-2.5266714731799524,2.280717058772705,-1.0174616018878382,0.18953827023506165
1708438110.1850932,-1.10496187210083,-1.6819659672179164,-2.526651922856466,2.280688925380371,-1.017416779194967,0.18951846659183502
1708438110.1870785,-1.1050117015838623,-1.6819335422911585,-2.5266805330859583,2.280677004451416,-1.017421070729391,0.1895795613527298
1708438110.1890712,-1.1050087213516235,-1.6819635830321253,-2.526680294667379,2.280700846309326,-1.0173872152911585,0.18951410055160522
1708438110.1910763,-1.1049790382385254,-1.6819049320616664,-2.5266268889056605,2.2806965547749023,-1.0174196402179163,0.18959276378154755
1708438110.1930742,-1.105008840560913,-1.6818801365294398,-2.526635710393087,2.280672712916992,-1.0174287001239222,0.18960019946098328
1708438110.1951063,-1.1050370931625366,-1.6819244823851527,-2.5266552607165735,2.280700846309326,-1.0174406210528772,0.1895303875207901
1708438110.1970863,-1.1049998998641968,-1.6819502315916957,-2.526619259511129,2.280697746867798,-1.0174616018878382,0.18955454230308533
1708438110.1990995,-1.1050281524658203,-1.6818915806212367,-2.526646439229147,2.280681534404419,-1.0173957983600062,0.18951410055160522
1708438110.201063,-1.1049997806549072,-1.6819006405272425,-2.5266714731799524,2.280684633845947,-1.0174287001239222,0.189579576253891
1708438110.203082,-1.10504150390625,-1.6818753681578578,-2.5266061464892786,2.280700846309326,-1.017432991658346,0.1895260214805603
1708438110.2050667,-1.1050325632095337,-1.6819125614561976,-2.5266597906695765,2.280672712916992,-1.0174363295184534,0.18955890834331512
1708438110.2071152,-1.1050162315368652,-1.681936880151266,-2.5266552607165735,2.2806760507770996,-1.0174124876605433,0.1895216554403305
1708438110.2090628,-1.1050118207931519,-1.6819168529906214,-2.5266342798816126,2.2807375627705078,-1.017444912587301,0.18954262137413025
1708438110.211099,-1.105008840560913,-1.6819244823851527,-2.5266507307635706,2.2807656961628417,-1.0174701849566858,0.18956764042377472
1708438110.213163,-1.1050461530685425,-1.6819125614561976,-2.5266223589526575,2.2806965547749023,-1.017465893422262,0.1895601898431778
1708438110.2150958,-1.1049878597259521,-1.6819302044310511,-2.5266671816455286,2.280672712916992,-1.0174077192889612,0.18953919410705566
1708438110.2171645,-1.1050281524658203,-1.6818634472289027,-2.526679340993063,2.28072897970166,-1.017421070729391,0.18951104581356049
1708438110.2191222,-1.1050281524658203,-1.6819335422911585,-2.5266552607165735,2.280712767238281,-1.0174287001239222,0.18950223922729492
1708438110.2210758,-1.1050117015838623,-1.6819259128966273,-2.5266552607165735,2.2806803423115234,-1.017494026814596,0.18950660526752472
1708438110.2231445,-1.1050118207931519,-1.6819020710387171,-2.5266717115985315,2.28072897970166,-1.0174287001239222,0.18954794108867645
1708438110.2250886,-1.1049834489822388,-1.6818844280638636,-2.5266552607165735,2.2806965547749023,-1.017449680958883,0.18951405584812164
1708438110.2272093,-1.1049727201461792,-1.6818801365294398,-2.5266552607165735,2.2807375627705078,-1.0174244085894983,0.1895795613527298
1708438110.229093,-1.1050117015838623,-1.681864400903219,-2.526641909276144,2.280761404628418,-1.0174287001239222,0.18950217962265015
1708438110.231065,-1.105029821395874,-1.6819049320616664,-2.5266431013690394,2.28072897970166,-1.0174034277545374,0.18953919410705566
1708438110.2331207,-1.105074405670166,-1.6819006405272425,-2.526646439229147,2.280733271236084,-1.0174525419818323,0.1895807832479477
1708438110.2350664,-1.1050416231155396,-1.6818963489928187,-2.5266597906695765,2.2807203966328125,-1.017494026814596,0.18957211077213287
1708438110.2370992,-1.1050162315368652,-1.6819125614561976,-2.5266881624804896,2.2806965547749023,-1.0174616018878382,0.18956325948238373
1708438110.2390795,-1.1050251722335815,-1.681868692437643,-2.5266760031329554,2.280756636256836,-1.0174196402179163,0.1895272582769394
1708438110.2410915,-1.105019211769104,-1.6818887195982875,-2.5266509691821497,2.2807323175617675,-1.0175064245807093,0.1895153671503067
1708438110.2430727,-1.1050281524658203,-1.6818810902037562,-2.5266926924334925,2.2807234960743408,-1.0174315611468714,0.1895557940006256
1708438110.245064,-1.105068325996399,-1.6819435558714808,-2.5266626516925257,2.2807246881672363,-1.0174272696124476,0.18949778378009796
1708438110.2470796,-1.1050474643707275,-1.6818725071349085,-2.5266714731799524,2.280752344722412,-1.0174315611468714,0.18955224752426147
1708438110.2490568,-1.105023741722107,-1.6818396053709925,-2.5266178289996546,2.2807485300251464,-1.0174601713763636,0.1895153671503067
1708438110.2510536,-1.1050809621810913,-1.681864400903219,-2.5267046133624476,2.2807859617420654,-1.0174363295184534,0.18948586285114288
1708438110.2530758,-1.1050639152526855,-1.6818353138365687,-2.5266671816455286,2.2807697492786865,-1.0174644629107874,0.1895153522491455
1708438110.2550867,-1.1050728559494019,-1.6818887195982875,-2.5266955534564417,2.2807528215595703,-1.0174601713763636,0.1894780546426773
1708438110.2570758,-1.1050728559494019,-1.6818887195982875,-2.5267015139209192,2.2807485300251464,-1.0174644629107874,0.18949905037879944
1708438110.2590768,-1.1050639152526855,-1.6818930111327113,-2.5266509691821497,2.280768557185791,-1.0174153486834925,0.1894824355840683
1708438110.261084,-1.1050809621810913,-1.6819139919676722,-2.5266838709460657,2.280824823970459,-1.0174720923053187,0.18946616351604462
1708438110.263136,-1.1050503253936768,-1.6818319759764613,-2.5266509691821497,2.280902310008667,-1.0174978415118616,0.1894674450159073
1708438110.265078,-1.1050792932510376,-1.6818186245360316,-2.5266838709460657,2.2808119493671875,-1.0174644629107874,0.18941821157932281
1708438110.2671437,-1.1051090955734253,-1.6818601093687953,-2.526646439229147,2.2808729845234375,-1.0174687544452112,0.18940290808677673
1708438110.2690754,-1.1051374673843384,-1.6818553409972132,-2.5266509691821497,2.2808355528065185,-1.0174887816058558,0.18944332003593445
1708438110.2710612,-1.105104684829712,-1.6819006405272425,-2.5266626516925257,2.2808891969868164,-1.0174244085894983,0.18938225507736206
1708438110.273088,-1.105088233947754,-1.681836267510885,-2.5267208258258265,2.2808849054523925,-1.0174978415118616,0.18940287828445435
1708438110.2750835,-1.105088233947754,-1.6819020710387171,-2.526633326207296,2.2809087473103027,-1.0175021330462855,0.18942396342754364
1708438110.277148,-1.1051567792892456,-1.6818071804442347,-2.5266626516925257,2.280872030849121,-1.0175045172320765,0.18940286338329315
1708438110.2790723,-1.1050792932510376,-1.6819049320616664,-2.5266552607165735,2.2809461790272216,-1.0174673239337366,0.1893998235464096
1708438110.2810552,-1.1051597595214844,-1.681864400903219,-2.5266671816455286,2.2809299665638427,-1.0175216833697718,0.18935520946979523
1708438110.283084,-1.1051313877105713,-1.6818858585753382,-2.526679340993063,2.2809573847004394,-1.0174673239337366,0.1894116848707199
1708438110.2850518,-1.1051404476165771,-1.6818930111327113,-2.526646439229147,2.280933066005371,-1.0175002256976526,0.18938659131526947
1708438110.2870638,-1.105126976966858,-1.681868692437643,-2.526670519505636,2.280941887492798,-1.0175092856036585,0.18936319649219513
1708438110.289073,-1.1051976680755615,-1.681866308251852,-2.526665989552633,2.2809573847004394,-1.0175002256976526,0.18940851092338562
1708438110.2910633,-1.1051597595214844,-1.6818682156004847,-2.526658360158102,2.2809619146534423,-1.0175002256976526,0.18933777511119843
1708438110.2930868,-1.1051461696624756,-1.681803365746969,-2.5266626516925257,2.2809812265583496,-1.0174959341632288,0.18935523927211761
1708438110.2950678,-1.1051932573318481,-1.6818229160704554,-2.526658360158102,2.2809812265583496,-1.0175498167621058,0.1893807053565979
1708438110.2970934,-1.1051461696624756,-1.6818977795042933,-2.5267449061023157,2.280940218562744,-1.0174959341632288,0.18937182426452637
1708438110.2990644,-1.1052260398864746,-1.681906362573141,-2.526707712803976,2.281008406276367,-1.017512623463766,0.18933893740177155
1708438110.3010664,-1.1052005290985107,-1.6818486652769984,-2.5266838709460657,2.28102891027417,-1.0175169149981897,0.1893596351146698
1708438110.3030643,-1.1051768064498901,-1.6818729839720667,-2.526658360158102,2.2810072141834716,-1.017524544392721,0.1893433779478073
1708438110.3050528,-1.1052124500274658,-1.6818438969054164,-2.526703182850973,2.2809995847889404,-1.0175617376910608,0.18931517004966736
1708438110.3070838,-1.1052407026290894,-1.6818529568114222,-2.5266626516925257,2.281069441432617,-1.0175660292254847,0.1893433779478073
1708438110.3090734,-1.1052560806274414,-1.6818438969054164,-2.526707712803976,2.2810608583637695,-1.0175407568561,0.1893446296453476
1708438110.3111205,-1.1052436828613281,-1.6818205318846644,-2.526736084614889,2.281052275294922,-1.0175154844867151,0.18936842679977417
1708438110.3131084,-1.1052652597427368,-1.681807657281393,-2.526719633732931,2.2811171251484375,-1.017536465321676,0.18931174278259277
1708438110.315128,-1.1052272319793701,-1.681840559045309,-2.526748005543844,2.2811459737965087,-1.01756459871401,0.1892985701560974
1708438110.317087,-1.105277180671692,-1.6818167171873988,-2.526740614567892,2.281088038081787,-1.0175440947162073,0.18931171298027039
1708438110.319179,-1.1053098440170288,-1.681840559045309,-2.526694361363546,2.28115360319104,-1.0175440947162073,0.1893695890903473
1708438110.3211012,-1.1052680015563965,-1.6817871532835902,-2.5267229715930384,2.2811199861713867,-1.0175440947162073,0.18927475810050964
1708438110.323083,-1.1053037643432617,-1.6817990742125453,-2.526665989552633,2.2811524110981445,-1.0175769964801233,0.189283549785614
1708438110.3251705,-1.105324625968933,-1.681807657281393,-2.526743475590841,2.2811686235615234,-1.0175932089435022,0.18933269381523132
1708438110.3271408,-1.105312705039978,-1.6817671261229457,-2.5267885367022913,2.2811762529560546,-1.0176098982440394,0.1892954707145691
1708438110.329176,-1.1052783727645874,-1.6817761860289515,-2.52675444284548,2.2811881738850097,-1.0176428000079554,0.18927916884422302
1708438110.3311384,-1.1053111553192139,-1.6817847690977992,-2.5267871061908167,2.2812504011341552,-1.0176294485675257,0.18927161395549774
1708438110.333106,-1.1053893566131592,-1.6817599735655726,-2.526738230382101,2.281179352397583,-1.0175097624408167,0.18931610882282257
1708438110.3351064,-1.105323076248169,-1.681758543054098,-2.5267556349383753,2.281179352397583,-1.0175684134112757,0.1893283575773239
1708438110.3370783,-1.1053473949432373,-1.6817776165404261,-2.5268123785602015,2.2812043863483886,-1.0175378958331507,0.1893085241317749
1708438110.3390973,-1.105342984199524,-1.6817494831480921,-2.52683669725527,2.2812256056019287,-1.0175798575030726,0.18927597999572754
1708438110.3410654,-1.1053922176361084,-1.6817089519896449,-2.52683669725527,2.281195564860962,-1.0175798575030726,0.18932047486305237
1708438110.3430843,-1.1053996086120605,-1.6817342243590296,-2.526832167302267,2.281212492580078,-1.0175817648517054,0.1892804354429245
1708438110.3450942,-1.1053996086120605,-1.6816684208311976,-2.526839796696798,2.2812492090412597,-1.0175798575030726,0.1892593950033188
1708438110.3470545,-1.1054115295410156,-1.6816760502257289,-2.526794497166769,2.281284971828125,-1.0175684134112757,0.18926726281642914
1708438110.349077,-1.1053812503814697,-1.6816727123656214,-2.526832167302267,2.2812482553669433,-1.0175841490374964,0.18928790092468262
1708438110.351091,-1.1054115295410156,-1.6816727123656214,-2.526794497166769,2.281334562892578,-1.0176056067096155,0.18923994898796082
1708438110.3530993,-1.1054528951644897,-1.6816374264159144,-2.526827637349264,2.2813126283833007,-1.0176175276385706,0.1892399936914444
1708438110.355067,-1.1054279804229736,-1.6816331348814906,-2.5268071333514612,2.281308336848877,-1.0176098982440394,0.18925626575946808
1708438110.3570616,-1.1054188013076782,-1.6816417179503382,-2.52682334581484,2.281364603633545,-1.0175636450396937,0.18921153247356415
1708438110.3591218,-1.105435848236084,-1.6816250286498011,-2.526794497166769,2.2813777166553955,-1.0175922552691858,0.18923217058181763
1708438110.361122,-1.1054528951644897,-1.6816250286498011,-2.526818815861837,2.28135268270459,-1.0175750891314905,0.18922337889671326
1708438110.3631353,-1.105434775352478,-1.6816092930235804,-2.5268636385547083,2.281437798137329,-1.0176203886615198,0.18925625085830688
1708438110.3651478,-1.1055138111114502,-1.681584974328512,-2.526832167302267,2.2813710409351806,-1.0176246801959437,0.18920710682868958
1708438110.3671618,-1.105434775352478,-1.6816250286498011,-2.52682334581484,2.2814127641865234,-1.0176366011248987,0.18924441933631897
1708438110.3690844,-1.1054631471633911,-1.68162264446401,-2.5268099943744105,2.2814690309711914,-1.0176456610309046,0.18924443423748016
1708438110.37114,-1.1055078506469727,-1.6816135845580042,-2.5268145243274134,2.2814528185078125,-1.0176084677325647,0.18921907246112823
1708438110.3731031,-1.1055151224136353,-1.6815716228880824,-2.526851479207174,2.281435652370117,-1.0176366011248987,0.1892935037612915
1708438110.3750782,-1.1055649518966675,-1.681629320184225,-2.526856009160177,2.281484289760254,-1.0176351706134241,0.18927255272865295
1708438110.3771548,-1.1055197715759277,-1.6815935573973597,-2.526835266743795,2.281475468272827,-1.0176680723773401,0.1892356276512146
1708438110.3791854,-1.1055843830108643,-1.681634088555807,-2.5268264452563685,2.28154103338208,-1.01770526567568,0.1892431229352951
1708438110.3810797,-1.1055381298065186,-1.681634088555807,-2.526867930089132,2.281524820918701,-1.017672363911764,0.18927596509456635
1708438110.3831084,-1.1056160926818848,-1.681592126885885,-2.526835266743795,2.2814668852039794,-1.0176637808429163,0.1893010288476944
1708438110.385057,-1.105594515800476,-1.681650777856344,-2.526888672505514,2.281559391612671,-1.0177295843707483,0.18928353488445282
1708438110.3870935,-1.1056535243988037,-1.6815968952574671,-2.5268309752093714,2.2815894323536376,-1.0176680723773401,0.1893370896577835
1708438110.3890748,-1.10565185546875,-1.68158020595693,-2.526851479207174,2.2815720277973632,-1.0176962057696741,0.18940529227256775
1708438110.3910775,-1.1056727170944214,-1.681584974328512,-2.526839796696798,2.281648798579834,-1.0176828543292444,0.18936407566070557
1708438110.3931184,-1.105656385421753,-1.681617876092428,-2.5268221537219446,2.2816206651875,-1.0176709334002894,0.18942034244537354
1708438110.395094,-1.1056846380233765,-1.6816135845580042,-2.5268221537219446,2.281628294582031,-1.0177162329303187,0.18941080570220947
1708438110.3971145,-1.1056832075119019,-1.681584974328512,-2.526839796696798,2.2816240030476074,-1.0177324453936976,0.18944768607616425
1708438110.399075,-1.1057074069976807,-1.681617876092428,-2.526835266743795,2.2816433149525146,-1.0177000204669397,0.18944214284420013
1708438110.4010718,-1.1057403087615967,-1.6815029583373011,-2.526867930089132,2.2816359239765625,-1.0177534262286585,0.18946750462055206
1708438110.403082,-1.1057074069976807,-1.6814905605711878,-2.5268755594836634,2.2816271024891357,-1.0177400747882288,0.18956103920936584
1708438110.4050636,-1.105761170387268,-1.681573053399557,-2.5268145243274134,2.281672640437744,-1.0177596251117151,0.18957765400409698
1708438110.4070933,-1.1057641506195068,-1.6815535030760707,-2.526839796696798,2.2816640573688964,-1.0177939573871058,0.18956638872623444
1708438110.4090579,-1.1057369709014893,-1.6815010509886683,-2.526860300694601,2.281693382854126,-1.0177972952472132,0.18964806199073792
1708438110.411075,-1.105787992477417,-1.6814595661559046,-2.5268591086017054,2.2817374902912597,-1.0177667776690882,0.18964721262454987
1708438110.4131622,-1.1057907342910767,-1.681465288201803,-2.5268591086017054,2.2816964822956542,-1.0178044478045862,0.1896592229604721
1708438110.4151542,-1.1058452129364014,-1.681526323358053,-2.5268471876727503,2.2817084032246093,-1.017775837575094,0.18977957963943481
1708438110.4171789,-1.1058169603347778,-1.6815139255919398,-2.5268099943744105,2.2817365366169433,-1.0177715460406702,0.1898561418056488
1708438110.4191546,-1.1058316230773926,-1.681436677972311,-2.5268636385547083,2.281780405635498,-1.0178092161761683,0.1899159699678421
1708438110.4211063,-1.1058405637741089,-1.6814500294127406,-2.5268710295306605,2.281764193172119,-1.0178163687335413,0.189956396818161
1708438110.4231303,-1.1058197021484375,-1.6814199886717738,-2.526900831853048,2.2817675310322265,-1.0177596251117151,0.19004778563976288
1708438110.4250681,-1.105864405632019,-1.6814590893187464,-2.526879851018087,2.2817889887043457,-1.0177972952472132,0.19011233747005463
1708438110.4271383,-1.105852484703064,-1.6814214191832484,-2.526863400136129,2.281812830562256,-1.017763916646139,0.19017508625984192
1708438110.4291003,-1.1058599948883057,-1.6814528904356898,-2.5268576780902308,2.2818161684223632,-1.0177682081805628,0.1902470886707306
1708438110.4310648,-1.1058465242385864,-1.6813975773253382,-2.5268591086017054,2.281836672420166,-1.0177386442767542,0.1902981996536255
1708438110.4330614,-1.1058391332626343,-1.681401868859762,-2.5268383661853235,2.281768484706543,-1.017763916646139,0.19044317305088043
1708438110.435052,-1.105880856513977,-1.6813398800291957,-2.526878897343771,2.2818161684223632,-1.0177848974811,0.1905418485403061
1708438110.437089,-1.105841875076294,-1.681364198724264,-2.5269039312945765,2.281852884883545,-1.01774770418276,0.19063802063465118
1708438110.4390557,-1.1058628559112549,-1.681389947930807,-2.5269323031054896,2.281804247493408,-1.017742935811178,0.1907425820827484
1708438110.4410973,-1.1058871746063232,-1.6813317737975062,-2.526939932500021,2.2818400102802734,-1.0177925268756312,0.1908789426088333
1708438110.443058,-1.1059244871139526,-1.6813527546324671,-2.5269368330584925,2.281843824977539,-1.017813507710592,0.19101449847221375
1708438110.4450688,-1.1059653759002686,-1.6813599071898402,-2.5269323031054896,2.281848116511963,-1.0178092161761683,0.19116291403770447
1708438110.4470649,-1.1059682369232178,-1.6813494167723597,-2.52688175836672,2.2818848329731445,-1.0177715460406702,0.1912735402584076
1708438110.449051,-1.1059609651565552,-1.6813494167723597,-2.526939932500021,2.2818967539020996,-1.0178092161761683,0.19145767390727997
1708438110.451081,-1.1059880256652832,-1.6813537083067835,-2.526939932500021,2.281867666835449,-1.0178120771991175,0.1915610283613205
1708438110.4530761,-1.1059972047805786,-1.6813661060728968,-2.526931111012594,2.281895800227783,-1.0178077856646937,0.19172054529190063
1708438110.4551075,-1.106029987335205,-1.6813575230040492,-2.526907269154684,2.281919403667114,-1.0178163687335413,0.191832035779953
1708438110.4570756,-1.1060535907745361,-1.6813165150084437,-2.526886288319723,2.2819525438496093,-1.0178077856646937,0.1920333355665207
1708438110.459082,-1.1060311794281006,-1.6813165150084437,-2.526898447667257,2.2819277483173828,-1.0178402105914515,0.1921963095664978
1708438110.4610898,-1.1060283184051514,-1.6813627682127894,-2.526935640965597,2.281932516688965,-1.0178449789630335,0.19236420094966888
1708438110.4631066,-1.106067419052124,-1.6812931499876917,-2.526943031941549,2.281919403667114,-1.0178731123553675,0.19251134991645813
1708438110.465104,-1.106056571006775,-1.6813165150084437,-2.526907269154684,2.2819363313862304,-1.0178640524493616,0.19267886877059937
1708438110.4671292,-1.1060431003570557,-1.681345125237936,-2.5269280115710657,2.2819277483173828,-1.0178807417498987,0.19285063445568085
1708438110.4690633,-1.1060640811920166,-1.6813794575133265,-2.52690297762026,2.281942768687866,-1.0179136435138147,0.193031445145607
1708438110.47106,-1.106079339981079,-1.6813298664488734,-2.526870075856344,2.2820045190998535,-1.0178759733783167,0.193246990442276
1708438110.4730742,-1.106109380722046,-1.681296011010641,-2.526923481618063,2.2819840151020507,-1.0178597609149378,0.1934419423341751
1708438110.4750972,-1.1060749292373657,-1.6813136539854945,-2.526890579854147,2.282015247935913,-1.017905060444967,0.19364990293979645
1708438110.477143,-1.106083869934082,-1.6813298664488734,-2.526911799107687,2.2819904524036865,-1.017900292073385,0.19385258853435516
1708438110.4790676,-1.1060868501663208,-1.681375642816061,-2.5268951098071497,2.282019777888916,-1.0178869406329554,0.1940595954656601
1708438110.481084,-1.1060549020767212,-1.6813298664488734,-2.5268576780902308,2.282057209605835,-1.0178869406329554,0.1942954808473587
1708438110.4830623,-1.1061077117919922,-1.681277414361471,-2.526911799107687,2.281987352962158,-1.017911736165182,0.19457635283470154
1708438110.4850528,-1.106165885925293,-1.6812817058958949,-2.5269323031054896,2.2820440965839843,-1.0179031530963343,0.194828063249588
1708438110.487074,-1.106132984161377,-1.6812902889647425,-2.526919190083639,2.2820278841206054,-1.0178960005389612,0.19509951770305634
1708438110.48906,-1.1060987710952759,-1.6812778911986292,-2.526911799107687,2.2820517259785156,-1.0178960005389612,0.1953762024641037
1708438110.4910548,-1.1060912609100342,-1.6812817058958949,-2.5269206205951136,2.2820398050495605,-1.017846409474508,0.19564282894134521
1708438110.493072,-1.1061151027679443,-1.681347509423727,-2.526878897343771,2.2820440965839843,-1.017874542866842,0.19589866697788239
1708438110.4950805,-1.1061524152755737,-1.6813017330565394,-2.526907269154684,2.28202406942334,-1.017907444630758,0.19615788757801056
1708438110.4970918,-1.106094241142273,-1.6813179455199183,-2.5268951098071497,2.282015247935913,-1.017883602772848,0.19648973643779755
1708438110.4990704,-1.1061813831329346,-1.6813136539854945,-2.526907269154684,2.282026930446289,-1.017855469380514,0.19670774042606354
1708438110.5010529,-1.10615074634552,-1.6813255749144496,-2.526870075856344,2.2820398050495605,-1.017846409474508,0.19710925221443176
1708438110.5032852,-1.1061434745788574,-1.6812735996642054,-2.526890579854147,2.282031221980713,-1.017905060444967,0.1973596215248108
1708438110.5050669,-1.1061677932739258,-1.6813470325865687,-2.526878897343771,2.282076521510742,-1.0178435484515589,0.19766777753829956
1708438110.5071058,-1.1061961650848389,-1.6812902889647425,-2.526956383381979,2.2820679384418945,-1.017883602772848,0.1979791522026062
1708438110.509082,-1.1062052249908447,-1.6812645397581996,-2.526907269154684,2.2820193010517578,-1.0179207960711878,0.19830691814422607
1708438110.5111272,-1.106146216392517,-1.6812883816161097,-2.526910368596212,2.2821122842976074,-1.0178926626788538,0.19871073961257935
1708438110.5131447,-1.1061753034591675,-1.681277414361471,-2.52690297762026,2.2820517259785156,-1.017867390309469,0.19898073375225067
1708438110.5151231,-1.1061373949050903,-1.6813298664488734,-2.5269039312945765,2.2820679384418945,-1.0178917090045374,0.19941028952598572
1708438110.517102,-1.1061960458755493,-1.6813341579832972,-2.526923481618063,2.282092733974121,-1.017900292073385,0.19979660212993622
1708438110.5191376,-1.1061960458755493,-1.681343217889303,-2.5269280115710657,2.2820722299763183,-1.017911736165182,0.2001919001340866
1708438110.5211675,-1.1061960458755493,-1.6812902889647425,-2.5268951098071497,2.2820517259785156,-1.0178583304034632,0.20056426525115967
1708438110.523137,-1.106154441833496,-1.6812688312926234,-2.5268896261798304,2.2820722299763183,-1.017874542866842,0.2009073793888092
1708438110.5251038,-1.106203556060791,-1.6812440357603968,-2.526878897343771,2.2820722299763183,-1.0178211371051233,0.20130228996276855
1708438110.5271974,-1.1062244176864624,-1.6812902889647425,-2.526898447667257,2.2820679384418945,-1.017846409474508,0.2017182558774948
1708438110.5291493,-1.106203556060791,-1.6813136539854945,-2.5269115606891077,2.2820023733326416,-1.017900292073385,0.20212137699127197
1708438110.5311,-1.1062079668045044,-1.6813136539854945,-2.5269323031054896,2.2820398050495605,-1.017850701008932,0.20252859592437744
1708438110.5331094,-1.1060762405395508,-1.6813341579832972,-2.526935640965597,2.2820755678364257,-1.0178878943072718,0.20287083089351654
1708438110.5351326,-1.1061887741088867,-1.6813599071898402,-2.5269816557513636,2.282031221980713,-1.0178878943072718,0.20331159234046936
1708438110.5372279,-1.1061463356018066,-1.681338449517721,-2.526919190083639,2.2820517259785156,-1.0178807417498987,0.2037065625190735
1708438110.5391417,-1.1061588525772095,-1.6812974415221156,-2.5269280115710657,2.282087488765381,-1.0178969542132776,0.20408093929290771
1708438110.541112,-1.106175184249878,-1.6812859974303187,-2.5269323031054896,2.2820398050495605,-1.0178597609149378,0.2044847011566162
1708438110.5431585,-1.1061797142028809,-1.681338449517721,-2.526923481618063,2.282052918071411,-1.0179465452777308,0.20490388572216034
1708438110.5451293,-1.1061553955078125,-1.6813513241209925,-2.5269280115710657,2.282048388118408,-1.0178869406329554,0.2053099125623703
1708438110.5470917,-1.1061389446258545,-1.6812993488707484,-2.526886288319723,2.281981869334839,-1.017855469380514,0.20575430989265442
1708438110.5490685,-1.1061632633209229,-1.6813298664488734,-2.52690297762026,2.2820615011402587,-1.017916504536764,0.20621414482593536
1708438110.551079,-1.106110692024231,-1.6812602482237757,-2.526907269154684,2.2819904524036865,-1.0178716818438929,0.20660366117954254
1708438110.5530567,-1.1061031818389893,-1.6813179455199183,-2.526907269154684,2.282048388118408,-1.0178878943072718,0.2071579098701477
1708438110.5550807,-1.1061360836029053,-1.6812859974303187,-2.5268951098071497,2.2819904524036865,-1.0178716818438929,0.20756961405277252
1708438110.5570557,-1.1061315536499023,-1.6813179455199183,-2.526865545903341,2.282048388118408,-1.0178716818438929,0.20809878408908844
1708438110.5590885,-1.1061166524887085,-1.681333681146139,-2.52690297762026,2.2819711404987792,-1.0178716818438929,0.20861929655075073
1708438110.5610776,-1.1060659885406494,-1.6813627682127894,-2.526907269154684,2.282019777888916,-1.0178716818438929,0.2090492844581604
1708438110.5631468,-1.106088399887085,-1.6813341579832972,-2.52690297762026,2.2820121484943847,-1.017862621937887,0.2095360904932022
1708438110.5650847,-1.1060295104980469,-1.6813537083067835,-2.526907269154684,2.281914635295532,-1.017911736165182,0.2100057601928711
1708438110.5671108,-1.1060267686843872,-1.6813165150084437,-2.526911799107687,2.2819108205982666,-1.017867390309469,0.21055041253566742
1708438110.5690894,-1.105974555015564,-1.681394716302389,-2.5269160906421106,2.2819031912037353,-1.0178960005389612,0.211041659116745
1708438110.5710928,-1.1060118675231934,-1.6813661060728968,-2.526923481618063,2.281912012691162,-1.017916504536764,0.2115345299243927
1708438110.573087,-1.105959177017212,-1.6814271412291468,-2.5268622080432337,2.281839295024536,-1.0178960005389612,0.21206291019916534
1708438110.5750866,-1.1058809757232666,-1.6814271412291468,-2.526914660130636,2.281848593349121,-1.017883602772848,0.2125815451145172
1708438110.577145,-1.1059036254882812,-1.6814257107176722,-2.526919190083639,2.281832380885742,-1.0179207960711878,0.21306771039962769
1708438110.5791368,-1.1059128046035767,-1.6814786396422328,-2.526939932500021,2.2817889887043457,-1.017834488545553,0.21357586979866028
1708438110.5810707,-1.1058509349822998,-1.6814238033690394,-2.526919190083639,2.28174798070874,-1.017874542866842,0.21415208280086517
1708438110.5831125,-1.1058361530303955,-1.6814772091307582,-2.526931111012594,2.2817041116901855,-1.017855469380514,0.21463444828987122
1708438110.5850627,-1.1057476997375488,-1.6814953289427699,-2.526951853428976,2.2816716867634277,-1.0178106466876429,0.2150469571352005
1708438110.5870712,-1.1056984663009644,-1.6815864048399867,-2.5269671122180384,2.2816387849995117,-1.0178421179400843,0.21566465497016907
1708438110.589094,-1.1056756973266602,-1.6815687618651332,-2.5269926230060022,2.281554623241089,-1.0178149382220667,0.21617045998573303
1708438110.5910733,-1.1055691242218018,-1.681626935998434,-2.5269792715655726,2.281559391612671,-1.0178435484515589,0.21666517853736877
1708438110.593071,-1.1055798530578613,-1.6816655598082484,-2.526994291936056,2.2815281587788085,-1.0178597609149378,0.2171870619058609
1708438110.5950663,-1.1054823398590088,-1.6816894016661585,-2.52704888979067,2.2814923959919433,-1.0178597609149378,0.21773211658000946
1708438110.5971062,-1.1053842306137085,-1.681671758691305,-2.527039353047506,2.281472368831299,-1.017874542866842,0.218287855386734
1708438110.5990758,-1.1053156852722168,-1.681758543054098,-2.5270734469043177,2.281388445491455,-1.0179584662066858,0.21877352893352509
1708438110.601065,-1.1052709817886353,-1.6818224392332972,-2.527092758809225,2.2813030916401367,-1.017900292073385,0.21928919851779938
1708438110.603136,-1.105219841003418,-1.6818167171873988,-2.5270870367633265,2.2812515932270507,-1.0178983847247522,0.21986015141010284
1708438110.6050622,-1.105041265487671,-1.6818725071349085,-2.5271244684802454,2.2811881738850097,-1.0179360548602503,0.22035053372383118
1708438110.6071064,-1.104907512664795,-1.6819335422911585,-2.5271199385272425,2.2810672956654052,-1.0179360548602503,0.22089378535747528
1708438110.6090722,-1.1048462390899658,-1.681939264337057,-2.527106587086813,2.281002922649048,-1.0179479757892054,0.22140124440193176
1708438110.611163,-1.1046922206878662,-1.682082315484518,-2.527142588292257,2.2808782297321777,-1.0179227034198206,0.221923366189003
1708438110.613131,-1.1045571565628052,-1.6820885143675746,-2.527191940938131,2.2808236318775634,-1.0179980436908167,0.22243860363960266
1708438110.615101,-1.104396104812622,-1.6821814976134242,-2.5271998087512415,2.280691071147583,-1.0179479757892054,0.22298504412174225
1708438110.61713,-1.104219913482666,-1.6822458706297816,-2.5272563139544886,2.280538244838379,-1.0179513136493128,0.22348257899284363
1708438110.61911,-1.1040610074996948,-1.6823226414122523,-2.527250353490011,2.2804393011280517,-1.0179675261126917,0.22406373918056488
1708438110.6210964,-1.103868842124939,-1.6823531589903773,-2.527332607899801,2.2803403574177246,-1.0180438200580042,0.22456157207489014
1708438110.623126,-1.1036484241485596,-1.6824776134886683,-2.5273566881762903,2.2801479536243896,-1.0180795828448694,0.22510166466236115
1708438110.6250792,-1.1033614873886108,-1.6824828586974085,-2.527395788823263,2.2799500662037353,-1.0181410948382776,0.22560344636440277
1708438110.627128,-1.10313880443573,-1.682592054406637,-2.5274527708636683,2.2798101144978027,-1.0181353727923792,0.2261522114276886
1708438110.6291301,-1.1029679775238037,-1.682704587975973,-2.5274277369128626,2.2797295290180664,-1.0181191603290003,0.2266455739736557
1708438110.6310894,-1.1026993989944458,-1.6828237972655238,-2.5274558703051966,2.2794956403919677,-1.0182445685016077,0.2271965742111206
1708438110.6330924,-1.1024311780929565,-1.6828872166075648,-2.527512852345602,2.279322786922119,-1.0182402769671839,0.22772660851478577
1708438110.635129,-1.1021190881729126,-1.6830440960326136,-2.5275724569903772,2.2791237074085693,-1.0182927290545862,0.22829198837280273
1708438110.6371422,-1.101806640625,-1.6831141910948695,-2.527566973363058,2.278907461757324,-1.0183447043048304,0.22879789769649506
1708438110.6390915,-1.1014412641525269,-1.6832672558226527,-2.5276148954974573,2.2786266046711425,-1.0183761755572718,0.22938144207000732
1708438110.6410673,-1.1011475324630737,-1.6833917103209437,-2.5276225248919886,2.2783610063740234,-1.0184572378741663,0.22992479801177979
1708438110.6431308,-1.1007812023162842,-1.6836124859251917,-2.5276957193957728,2.278175039882324,-1.018442455922262,0.23034948110580444
1708438110.645073,-1.100447177886963,-1.683737417260641,-2.5277393499957483,2.277940197581909,-1.0185230414019983,0.23095348477363586
1708438110.647104,-1.100091576576233,-1.6838304005064906,-2.5278335253344935,2.2776879507252197,-1.0185826460467737,0.23151320219039917
1708438110.6490738,-1.0996161699295044,-1.6840516529478968,-2.5278354326831263,2.2773381906696777,-1.0186637083636683,0.23197904229164124
1708438110.6510863,-1.0992249250411987,-1.6842266521849574,-2.5279162565814417,2.2770468431660156,-1.018735710774557,0.23246584832668304
1708438110.6530693,-1.09877347946167,-1.6843987903990687,-2.5279808680163782,2.27671925603833,-1.0188234488116663,0.23305374383926392
1708438110.6550682,-1.0982424020767212,-1.6846305332579554,-2.5280047098742884,2.2764131265827636,-1.0189197699176233,0.23352080583572388
1708438110.6570897,-1.097779393196106,-1.6848217449583949,-2.528100554143087,2.275998993510864,-1.018970791493551,0.23400770127773285
1708438110.6590738,-1.097381830215454,-1.6850701771178187,-2.5281410853015345,2.275651379222534,-1.0190919081317347,0.23444968461990356
1708438110.661091,-1.0968031883239746,-1.6853305302061976,-2.5281804243670862,2.2752548891254882,-1.0191267172442835,0.23494082689285278
1708438110.6631174,-1.0963340997695923,-1.6855579815306605,-2.5283101240741175,2.2749244409748535,-1.0192297140704554,0.23540158569812775
1708438110.6650858,-1.0958179235458374,-1.6857692203917445,-2.5283570925342005,2.2745043474384765,-1.0193236509906214,0.23579750955104828
1708438110.6671607,-1.0952274799346924,-1.6860000095763148,-2.528400246297018,2.274144335384033,-1.0193985144244593,0.23631034791469574
1708438110.669069,-1.0947085618972778,-1.6863004169859828,-2.5284889380084437,2.273728294963501,-1.019508186970846,0.23676548898220062
1708438110.671102,-1.0941236019134521,-1.6865416965880335,-2.5285475889789026,2.2732876974293212,-1.0195830504046839,0.23722420632839203
1708438110.6730998,-1.0934990644454956,-1.6868912182249964,-2.528665844594137,2.27292983114209,-1.0196297804461878,0.23771563172340393
1708438110.675081,-1.092889428138733,-1.6872440777220667,-2.528748337422506,2.272383375758789,-1.0197747389422815,0.2381327897310257
1708438110.6771612,-1.0923199653625488,-1.6874929867186488,-2.528770987187521,2.271965427989624,-1.0199106375323694,0.23863816261291504
1708438110.6791158,-1.0915982723236084,-1.6878582439818324,-2.5289176146136683,2.2714811998554687,-1.0200145880328577,0.23904453217983246
1708438110.68106,-1.0909558534622192,-1.6881400547423304,-2.5289509932147425,2.2709976869770507,-1.0201337973224085,0.23952871561050415
1708438110.6830955,-1.0902714729309082,-1.6885367832579554,-2.529048267995016,2.2705184656330566,-1.0202744642840784,0.23995566368103027
1708438110.6851285,-1.089510440826416,-1.6889029941954554,-2.5291696230517786,2.2700392442890625,-1.0203331152545374,0.2403540462255478
1708438110.687111,-1.0888071060180664,-1.689280172387594,-2.529268805180685,2.2694882589527587,-1.0204604307757776,0.24082212150096893
1708438110.6890683,-1.0880467891693115,-1.6896621189513148,-2.529331986104147,2.26898901044812,-1.0206459204303187,0.2411794513463974
1708438110.6910574,-1.0872522592544556,-1.6900254688658656,-2.5295069853412073,2.268396778697632,-1.0207327047931116,0.2415180802345276
1708438110.693074,-1.086383581161499,-1.6904064617552699,-2.5296056906329554,2.2678374487110595,-1.0208686033831995,0.24199768900871277
1708438110.695059,-1.0856579542160034,-1.690812727014059,-2.5296688715564173,2.2672476011463623,-1.0209944883929651,0.24243764579296112
1708438110.6971042,-1.0848301649093628,-1.6911617718138636,-2.529748503361837,2.2666489320942382,-1.0211446920977991,0.2428199052810669
1708438110.699072,-1.083960771560669,-1.6915818653502406,-2.5298848787890833,2.2660950857349853,-1.0213044325457972,0.24319441616535187
1708438110.701097,-1.083105206489563,-1.6920000515379847,-2.5299511591540735,2.26543037473645,-1.0214808622943323,0.24363568425178528
1708438110.7031026,-1.082170009613037,-1.6924482784666957,-2.5301337877856653,2.2647625642963867,-1.0216110388385218,0.24398186802864075
1708438110.7050643,-1.0813363790512085,-1.6929031811156214,-2.5302117506610315,2.264131708736084,-1.0217717329608362,0.24437686800956726
1708438110.7071087,-1.080370306968689,-1.6933142147459925,-2.5303199926959437,2.2634541231342773,-1.0219224135028284,0.2447570562362671
1708438110.7090714,-1.079422950744629,-1.6938148937621058,-2.5304608980761927,2.2628163534351806,-1.0220783392535608,0.2450990080833435
1708438110.7110612,-1.0784693956375122,-1.6942650280394496,-2.530539099370138,2.2620183664509277,-1.022242848073141,0.24552303552627563
1708438110.7131248,-1.0773870944976807,-1.6946894131102503,-2.530700747166769,2.261298342342041,-1.0223868528949183,0.24589307606220245
1708438110.7150965,-1.0764423608779907,-1.6951781711974085,-2.530820671712057,2.2605506616779785,-1.022552792225973,0.24623197317123413
1708438110.7170968,-1.0753364562988281,-1.6956364117064417,-2.5309765974627894,2.2598270612904052,-1.0227263609515589,0.2465393990278244
1708438110.7190983,-1.0743255615234375,-1.6961285076537074,-2.5311337153064173,2.259075565929077,-1.0227959791766565,0.24692820012569427
1708438110.7211053,-1.0732529163360596,-1.6966234646239222,-2.5312448183642786,2.2583443361469726,-1.0229442755328577,0.24720880389213562
1708438110.7231758,-1.0721668004989624,-1.6971413097777308,-2.531384531651632,2.257539673442505,-1.0231130758868616,0.24756944179534912
1708438110.7251117,-1.0709917545318604,-1.697681566277975,-2.5315404574023646,2.2567733961292724,-1.0232399145709437,0.2479739636182785
1708438110.7271025,-1.069854497909546,-1.6982294521727503,-2.5317369143115442,2.255887909526489,-1.023444954548971,0.24825628101825714
1708438110.7291527,-1.0687248706817627,-1.6987868748106898,-2.5318973700152796,2.255032940501831,-1.0235641638385218,0.24859900772571564
1708438110.7311246,-1.0675349235534668,-1.6993867359557093,-2.532053534184591,2.2541562753864746,-1.0237796942340296,0.24894322454929352
1708438110.7331624,-1.0663516521453857,-1.6998878918089808,-2.532163206730978,2.253305121059082,-1.023958985005514,0.2492622584104538
1708438110.7351577,-1.0651757717132568,-1.7003895244994105,-2.5323551336871546,2.252368612880371,-1.0241606871234339,0.24957366287708282
1708438110.7371838,-1.0639656782150269,-1.7009803257384242,-2.532569233571188,2.251526041621826,-1.0243881384478968,0.24989256262779236
1708438110.7391214,-1.06267511844635,-1.7015558681883753,-2.532738272343771,2.2505835729786376,-1.0246217886554163,0.2502036988735199
1708438110.7411113,-1.061420202255249,-1.702174802819723,-2.5329018274890345,2.249654932613037,-1.0248187224017542,0.2505284547805786
1708438110.743119,-1.0601153373718262,-1.7027942142882289,-2.5330446402179163,2.248631163234375,-1.0250347296344202,0.25083115696907043
1708438110.7450776,-1.0587921142578125,-1.703400274316305,-2.53324538866152,2.2476960855671386,-1.025325123463766,0.25108155608177185
1708438110.7471087,-1.0574439764022827,-1.7040392361082972,-2.5333803335772913,2.2467192846485595,-1.0255230108844202,0.2513807415962219
1708438110.7490869,-1.0561751127243042,-1.7046781979002894,-2.533564869557516,2.2457331854053955,-1.0257023016559046,0.25166842341423035
1708438110.7510536,-1.0547810792922974,-1.7053395710387171,-2.5337076822863978,2.2447632986256103,-1.0259373823748987,0.25193169713020325
1708438110.753069,-1.05341374874115,-1.7059580288329066,-2.5339115301715296,2.243764801616333,-1.0261691252337855,0.2522399425506592
1708438110.7550802,-1.0520602464675903,-1.706620832482809,-2.534067455922262,2.2427863317677,-1.0263941923724573,0.2524828612804413
1708438110.7570758,-1.0506010055541992,-1.7073618374266566,-2.5342755953418177,2.2417632776447753,-1.026548210774557,0.25275370478630066
1708438110.7591212,-1.0491783618927002,-1.7079268894591273,-2.534530226384298,2.24066607534375,-1.0267351309405726,0.2530421316623688
1708438110.7611248,-1.0476561784744263,-1.7086874447264613,-2.53467303911318,2.239600105876587,-1.0269659201251429,0.2533211410045624
1708438110.7631662,-1.0462976694107056,-1.709397932092184,-2.5348814169513147,2.2384461599537353,-1.0271981398211878,0.253633588552475
1708438110.7651026,-1.044728398323059,-1.710076471368307,-2.5350733439074915,2.2373925882526855,-1.027461353932516,0.25387153029441833
1708438110.767134,-1.0432634353637695,-1.710766454736227,-2.5352280775653284,2.2362324434467773,-1.027726952229635,0.2541627287864685
1708438110.769085,-1.0417183637619019,-1.711592813531393,-2.5353944937335413,2.2351297575184326,-1.0280278364764612,0.2543938457965851
1708438110.7710748,-1.040145993232727,-1.7123280964293421,-2.535640303288595,2.23397080480542,-1.0282624403582972,0.2546460032463074
1708438110.7731137,-1.03854238986969,-1.7130562267699183,-2.5358248392688196,2.232820911998413,-1.0285218397723597,0.2549092173576355
1708438110.7751584,-1.0369549989700317,-1.7137953243651332,-2.5359957853900355,2.231701298350952,-1.0287612120257776,0.25511229038238525
1708438110.7771585,-1.035362958908081,-1.7145453892149867,-2.5362208525287073,2.230572147960327,-1.029008690510885,0.2553918957710266
1708438110.7790961,-1.0337148904800415,-1.715311666528219,-2.536370817814962,2.2292870718189697,-1.029271427785055,0.25559550523757935
1708438110.7810624,-1.032029151916504,-1.7161265812315882,-2.536599938069479,2.228160544032715,-1.0295069853412073,0.2557736337184906
1708438110.783132,-1.0303590297698975,-1.716889043847555,-2.5368576685534876,2.2269505697437744,-1.0297792593585413,0.2560584545135498
1708438110.7851036,-1.0286755561828613,-1.7176529369749964,-2.537064854298727,2.2257236677357177,-1.0299919287311,0.2563103139400482
1708438110.7871401,-1.0269469022750854,-1.718517919579977,-2.537288252507345,2.224505587215088,-1.0302565733539026,0.25647690892219543
1708438110.7890866,-1.0251966714859009,-1.7192746601500453,-2.537475649510519,2.2231923776813964,-1.0305746237384241,0.2567087411880493
1708438110.7910736,-1.0234320163726807,-1.7201281986632289,-2.537687365208761,2.2219013410755615,-1.0308950583087366,0.2569856345653534
1708438110.793088,-1.0216528177261353,-1.7210003338255824,-2.5378881136523646,2.2206389146992187,-1.031205956135885,0.25714391469955444
1708438110.7950711,-1.0198962688446045,-1.7217923603453578,-2.53818923631777,2.219287081355713,-1.0314682165728968,0.25735169649124146
1708438110.797089,-1.0181314945220947,-1.7227422199644984,-2.538330618535177,2.2179645734974365,-1.0317509810077112,0.2575593590736389
1708438110.799076,-1.0162643194198608,-1.7235256634154261,-2.53857928911318,2.216608448619507,-1.0320757071124476,0.2578030526638031
1708438110.8010619,-1.0143935680389404,-1.7244039974608363,-2.5388041178332728,2.2151984411427,-1.0323174635516565,0.2579425275325775
1708438110.8030827,-1.0124844312667847,-1.725335260430807,-2.539076630269186,2.213848515147827,-1.0326464811908167,0.2582027018070221
