Eg3-git/Classifiers/Data Collection/u6/u6www4_ur3e_joint_states.csv
time,elbow_joint,shoulder_lift_joint,shoulder_pan_joint,wrist_1_joint,wrist_2_joint,wrist_3_joint
1708438161.175417,-1.1060118675231934,-1.681345125237936,-2.526358429585592,2.2815591531940917,-1.0168731848346155,0.1583838164806366
1708438161.1774693,-1.1060649156570435,-1.6814147434630335,-2.526412312184469,2.281632586116455,-1.0168855826007288,0.15845230221748352
1708438161.179395,-1.1060237884521484,-1.6813932857909144,-2.526419703160421,2.281624956721924,-1.0169060865985315,0.15849702060222626
1708438161.1813896,-1.1060400009155273,-1.681401868859762,-2.526386801396505,2.2815915781208496,-1.0168898741351526,0.15847645699977875
1708438161.1834111,-1.1060314178466797,-1.681368967095846,-2.5263825098620813,2.2816120821186523,-1.0169017950641077,0.15845990180969238
1708438161.1853595,-1.1060725450515747,-1.6813861332335414,-2.526424233113424,2.2816294866749267,-1.0169017950641077,0.15848077833652496
1708438161.187401,-1.1060194969177246,-1.6813489399352015,-2.526403252278463,2.2815634447285156,-1.0169137159930628,0.15845118463039398
1708438161.1893592,-1.1060237884521484,-1.6813489399352015,-2.526440683995382,2.2815720277973632,-1.0168941656695765,0.15849269926548004
1708438161.191379,-1.1060433387756348,-1.6813603840269984,-2.52645713487734,2.2815872865864257,-1.0169060865985315,0.15841129422187805
1708438161.19345,-1.1060032844543457,-1.6813661060728968,-2.526424233113424,2.2815677362629394,-1.0169222990619105,0.15850894153118134
1708438161.195387,-1.1060237884521484,-1.6813732586302699,-2.526337448750631,2.281616373653076,-1.0169222990619105,0.15850132703781128
1708438161.197341,-1.1060314178466797,-1.6813818416991175,-2.526363197957174,2.2816120821186523,-1.016886059437887,0.158427432179451
1708438161.199392,-1.1060118675231934,-1.681430002252096,-2.52637488046755,2.281628294582031,-1.0168984572040003,0.15844686329364777
1708438161.2013555,-1.1060357093811035,-1.6813975773253382,-2.526391331349508,2.281660719508789,-1.0168855826007288,0.15848398208618164
1708438161.203391,-1.1060032844543457,-1.681368967095846,-2.526386801396505,2.2815915781208496,-1.0169299284564417,0.158431738615036
1708438161.205378,-1.1060442924499512,-1.6813532314696253,-2.526379410420553,2.2815915781208496,-1.0169060865985315,0.15845991671085358
1708438161.2073612,-1.1060357093811035,-1.681368967095846,-2.526424233113424,2.2816206651875,-1.0168898741351526,0.15846340358257294
1708438161.209371,-1.1060487031936646,-1.6814147434630335,-2.526424233113424,2.2816077905842285,-1.0169356505023401,0.15848830342292786
1708438161.2113686,-1.1060936450958252,-1.681368967095846,-2.52637488046755,2.2815753656574707,-1.0168731848346155,0.1584555059671402
1708438161.213366,-1.1060271263122559,-1.6814428768553675,-2.526367489491598,2.2816206651875,-1.0169060865985315,0.158468559384346
1708438161.2153895,-1.1060442924499512,-1.6813856563963832,-2.526407782231466,2.2816240030476074,-1.0168941656695765,0.15848830342292786
1708438161.2173629,-1.1060519218444824,-1.6813732586302699,-2.526403252278463,2.2816120821186523,-1.0169270674334925,0.15848830342292786
1708438161.219379,-1.1060271263122559,-1.6813904247679652,-2.526412312184469,2.2815796571918945,-1.0169137159930628,0.15851645171642303
1708438161.221348,-1.106022596359253,-1.681340833703512,-2.5264151732074183,2.2816120821186523,-1.016881291066305,0.1584642231464386
1708438161.2233639,-1.1060107946395874,-1.6814028225340785,-2.5263541380511683,2.2815958696552734,-1.016881291066305,0.1584554761648178
1708438161.2253675,-1.1060444116592407,-1.6813732586302699,-2.526445213948385,2.2815591531940917,-1.0168898741351526,0.15848830342292786
1708438161.2274067,-1.1060529947280884,-1.6813603840269984,-2.526386801396505,2.281628294582031,-1.0169222990619105,0.158427432179451
1708438161.2293856,-1.1060444116592407,-1.6814428768553675,-2.526403252278463,2.2816206651875,-1.0168898741351526,0.15845118463039398
1708438161.2313664,-1.1060118675231934,-1.6813775501646937,-2.52637488046755,2.281660719508789,-1.0168855826007288,0.15847206115722656
1708438161.2333999,-1.1060150861740112,-1.6813575230040492,-2.526412312184469,2.2816240030476074,-1.0169017950641077,0.15847204625606537
1708438161.235376,-1.1060280799865723,-1.6813775501646937,-2.526358429585592,2.281636877650879,-1.0169222990619105,0.15845990180969238
1708438161.237436,-1.1059945821762085,-1.681340833703512,-2.52637488046755,2.2816077905842285,-1.0169270674334925,0.15848077833652496
1708438161.239399,-1.1059956550598145,-1.6813732586302699,-2.5263822714435022,2.281582995052002,-1.0168898741351526,0.15843500196933746
1708438161.241365,-1.1060194969177246,-1.6813661060728968,-2.526407782231466,2.281636877650879,-1.0168688933001917,0.15843923389911652
1708438161.2433631,-1.1060237884521484,-1.6813494167723597,-2.5263825098620813,2.281576319331787,-1.0169313589679163,0.15851645171642303
1708438161.2453365,-1.1060768365859985,-1.6814104519286097,-2.526395861302511,2.2815796571918945,-1.0168898741351526,0.15847966074943542
1708438161.2473543,-1.1060152053833008,-1.681406160394186,-2.526407782231466,2.2815839487263183,-1.0168855826007288,0.15846343338489532
1708438161.2493868,-1.1060314178466797,-1.6813489399352015,-2.5263660589801233,2.2815796571918945,-1.0168941656695765,0.15845666825771332
1708438161.2513616,-1.1060237884521484,-1.6813293896117152,-2.5264363924609583,2.2816530901142578,-1.0169060865985315,0.15843065083026886
1708438161.2533755,-1.1060400009155273,-1.681389947930807,-2.5264061133014124,2.281660719508789,-1.0169594923602503,0.1584554761648178
1708438161.2553737,-1.1060032844543457,-1.681361814538473,-2.5263569990741175,2.2816034990498046,-1.0168731848346155,0.15848390758037567
1708438161.2574148,-1.105991244316101,-1.681406160394186,-2.526419703160421,2.281600161189697,-1.0169103781329554,0.1584317535161972
1708438161.259396,-1.1060519218444824,-1.6813975773253382,-2.526407782231466,2.281648798579834,-1.0169313589679163,0.15849700570106506
1708438161.2614002,-1.1060400009155273,-1.681368967095846,-2.5263541380511683,2.28164450704541,-1.0168855826007288,0.15849271416664124
1708438161.2634137,-1.1060280799865723,-1.6813732586302699,-2.526428763066427,2.281660719508789,-1.0169222990619105,0.1584230214357376
1708438161.265371,-1.1060400009155273,-1.6813813648619593,-2.526358668004171,2.2815839487263183,-1.0169299284564417,0.15848080813884735
1708438161.2673936,-1.1059988737106323,-1.6813813648619593,-2.526386801396505,2.2815915781208496,-1.0169060865985315,0.15845230221748352
1708438161.269365,-1.1059988737106323,-1.6813932857909144,-2.526419703160421,2.2815753656574707,-1.016843620930807,0.15841986238956451
1708438161.2713842,-1.1060357093811035,-1.6813932857909144,-2.526395861302511,2.28164450704541,-1.0169509092914026,0.1584479957818985
1708438161.2734127,-1.1060194969177246,-1.681368967095846,-2.526341740285055,2.2816530901142578,-1.0169256369220179,0.15846854448318481
1708438161.2754138,-1.105966329574585,-1.6813322506346644,-2.5263615290271204,2.2816120821186523,-1.0169180075274866,0.158468559384346
1708438161.2774339,-1.1060237884521484,-1.681406160394186,-2.526370350514547,2.28164450704541,-1.0169017950641077,0.15845990180969238
1708438161.2793908,-1.1060194969177246,-1.681345125237936,-2.526370350514547,2.28164450704541,-1.0168898741351526,0.1584479659795761
1708438161.2813601,-1.1059988737106323,-1.6814514599242152,-2.526341978703634,2.28164450704541,-1.01689321199526,0.15844033658504486
1708438161.2833958,-1.1060194969177246,-1.6813603840269984,-2.526391331349508,2.2816402155109863,-1.0168975035296839,0.15845990180969238
1708438161.285361,-1.1060150861740112,-1.681389947930807,-2.526379410420553,2.2816521364399414,-1.0169552008258265,0.15845230221748352
1708438161.287438,-1.1060562133789062,-1.6813732586302699,-2.526407782231466,2.2816359239765625,-1.0168731848346155,0.15843172371387482
1708438161.2893996,-1.1060476303100586,-1.6813813648619593,-2.526403252278463,2.281628294582031,-1.0169342199908655,0.15842299163341522
1708438161.2914193,-1.1060400009155273,-1.6813732586302699,-2.526388470326559,2.281628294582031,-1.0168975035296839,0.15847720205783844
1708438161.2933736,-1.1060606241226196,-1.6814428768553675,-2.52637488046755,2.281648798579834,-1.016881291066305,0.15843172371387482
1708438161.2953408,-1.1060357093811035,-1.6813932857909144,-2.52637488046755,2.281582995052002,-1.0168898741351526,0.15839894115924835
1708438161.2973592,-1.1060150861740112,-1.681361814538473,-2.526440683995382,2.2816530901142578,-1.0168688933001917,0.15841630101203918
1708438161.2993648,-1.1060194969177246,-1.6813975773253382,-2.52637488046755,2.281616373653076,-1.01689321199526,0.1584000289440155
1708438161.3013554,-1.1060400009155273,-1.6813489399352015,-2.5264061133014124,2.281578465098999,-1.0169270674334925,0.1583838164806366
1708438161.3033676,-1.1060487031936646,-1.681418081323141,-2.526412312184469,2.2816077905842285,-1.016909424458639,0.15835534036159515
1708438161.305329,-1.1060357093811035,-1.681368967095846,-2.526424233113424,2.281660719508789,-1.01689321199526,0.15834781527519226
1708438161.3073943,-1.1060194969177246,-1.681401868859762,-2.526407782231466,2.281616373653076,-1.0168898741351526,0.15835535526275635
1708438161.3093724,-1.106019377708435,-1.6813446484007777,-2.526386801396505,2.281656427974365,-1.0168975035296839,0.15840117633342743
1708438161.3113847,-1.1060293912887573,-1.681340833703512,-2.526395861302511,2.2816402155109863,-1.0169017950641077,0.15833157300949097
1708438161.313429,-1.1060062646865845,-1.6813775501646937,-2.5264151732074183,2.281582995052002,-1.016881291066305,0.1583893597126007
1708438161.315376,-1.1060031652450562,-1.6813818416991175,-2.5264363924609583,2.281665011043213,-1.016881291066305,0.15833239257335663
1708438161.3173783,-1.1060075759887695,-1.6814342937865199,-2.526412312184469,2.28164450704541,-1.0169389883624476,0.15836085379123688
1708438161.319366,-1.1059620380401611,-1.6814104519286097,-2.526395861302511,2.28164450704541,-1.0168522039996546,0.15836085379123688
1708438161.3213632,-1.1060357093811035,-1.6813603840269984,-2.526419703160421,2.2816359239765625,-1.016881291066305,0.15831613540649414
1708438161.3233838,-1.1060476303100586,-1.6814104519286097,-2.526433054600851,2.2816359239765625,-1.0168898741351526,0.1583564579486847
1708438161.3254788,-1.1060357093811035,-1.6813942394652308,-2.5263822714435022,2.2816521364399414,-1.0169714132892054,0.15831612050533295
1708438161.327422,-1.1060161590576172,-1.681406160394186,-2.526379410420553,2.2816154199787597,-1.0168975035296839,0.15832042694091797
1708438161.3293872,-1.1060400009155273,-1.6814147434630335,-2.526419703160421,2.2816433149525146,-1.0169299284564417,0.15839362144470215
1708438161.3313825,-1.1060237884521484,-1.6813646755614222,-2.526358668004171,2.281628294582031,-1.0169389883624476,0.15832805633544922
1708438161.3334227,-1.1060020923614502,-1.6813856563963832,-2.5263660589801233,2.281628294582031,-1.016876522694723,0.15831181406974792
1708438161.3353658,-1.1060649156570435,-1.681389947930807,-2.526358668004171,2.2816478449055175,-1.0168898741351526,0.15829558670520782
1708438161.3373895,-1.1060161590576172,-1.681406160394186,-2.5264318625079554,2.2816197115131835,-1.0169103781329554,0.15829114615917206
1708438161.3393786,-1.1060271263122559,-1.681389947930807,-2.5264063517199915,2.281590147609375,-1.0169180075274866,0.15833242237567902
1708438161.3413815,-1.1060161590576172,-1.6813975773253382,-2.5264151732074183,2.281656427974365,-1.0169389883624476,0.15829989314079285
1708438161.3433719,-1.1060107946395874,-1.681406160394186,-2.526403252278463,2.281594677562378,-1.0169051329242151,0.15829117596149445
1708438161.3453407,-1.1060280799865723,-1.6813775501646937,-2.526386801396505,2.2816197115131835,-1.016909424458639,0.1583489626646042
1708438161.3473887,-1.1060442924499512,-1.6813661060728968,-2.526428524647848,2.2816402155109863,-1.01689321199526,0.15831613540649414
1708438161.3493474,-1.1060400009155273,-1.6814104519286097,-2.526403252278463,2.2816359239765625,-1.0169313589679163,0.15836188197135925
1708438161.3513665,-1.1060476303100586,-1.6814266643919886,-2.5264318625079554,2.2816077905842285,-1.0169299284564417,0.15833665430545807
1708438161.3533845,-1.1059621572494507,-1.681406160394186,-2.526412312184469,2.2816197115131835,-1.0169060865985315,0.15828366577625275
1708438161.3553593,-1.1059750318527222,-1.6814385853209437,-2.5263779799090784,2.281588240260742,-1.0169017950641077,0.15829989314079285
1708438161.35739,-1.106052041053772,-1.681361814538473,-2.5263825098620813,2.281660719508789,-1.0168841520892542,0.15833237767219543
1708438161.3593926,-1.1060433387756348,-1.6813985309996546,-2.526403252278463,2.2816197115131835,-1.0169103781329554,0.15828797221183777
1708438161.361391,-1.1060152053833008,-1.681406160394186,-2.526424233113424,2.2816271024891357,-1.0168898741351526,0.15831613540649414
1708438161.3634489,-1.1060032844543457,-1.6813646755614222,-2.5264106432544153,2.281582995052002,-1.0169256369220179,0.15824687480926514
1708438161.3654237,-1.1060519218444824,-1.6814104519286097,-2.526428763066427,2.2816120821186523,-1.0169222990619105,0.1583128422498703
1708438161.3674297,-1.1059988737106323,-1.681406160394186,-2.526436154042379,2.281660719508789,-1.0169270674334925,0.15832476317882538
1708438161.369398,-1.106022596359253,-1.6813770733275355,-2.5264318625079554,2.2816154199787597,-1.016876522694723,0.1582966148853302
1708438161.371375,-1.106048583984375,-1.6813732586302699,-2.526386801396505,2.2816120821186523,-1.016888443623678,0.15830421447753906
1708438161.3733816,-1.1060444116592407,-1.681430002252096,-2.5264151732074183,2.2815915781208496,-1.0168855826007288,0.1582760512828827
1708438161.375402,-1.1059956550598145,-1.6813985309996546,-2.5264106432544153,2.2816733556934814,-1.0168975035296839,0.1583409309387207
1708438161.377401,-1.1060194969177246,-1.6813770733275355,-2.5263660589801233,2.2816359239765625,-1.0169222990619105,0.1582760512828827
1708438161.3794384,-1.1060280799865723,-1.6813603840269984,-2.526358429585592,2.281656427974365,-1.0168731848346155,0.1582435816526413
1708438161.3813863,-1.1060811281204224,-1.6813532314696253,-2.5263822714435022,2.2816197115131835,-1.0168855826007288,0.15826742351055145
1708438161.3833869,-1.1060487031936646,-1.681418081323141,-2.5263569990741175,2.2816402155109863,-1.0168975035296839,0.1582597941160202
1708438161.385377,-1.1060595512390137,-1.681389947930807,-2.5263987223254603,2.2816402155109863,-1.0169137159930628,0.1583128422498703
1708438161.387382,-1.1060118675231934,-1.681368967095846,-2.526419703160421,2.2816530901142578,-1.0169180075274866,0.15830421447753906
1708438161.3893764,-1.1060487031936646,-1.6813775501646937,-2.5264151732074183,2.281610890025757,-1.0169222990619105,0.1582966148853302
1708438161.3913846,-1.1060031652450562,-1.681389947930807,-2.5263989607440394,2.281656427974365,-1.0169222990619105,0.15831613540649414
1708438161.3934321,-1.1060562133789062,-1.6813208065428675,-2.526440683995382,2.2816034990498046,-1.0169342199908655,0.1582760512828827
1708438161.395403,-1.106052041053772,-1.6813646755614222,-2.526403252278463,2.28164450704541,-1.01689321199526,0.1583215296268463
1708438161.3973489,-1.1060031652450562,-1.6813494167723597,-2.526337448750631,2.2816521364399414,-1.016881291066305,0.1582717001438141
1708438161.399358,-1.1060271263122559,-1.6813775501646937,-2.526379410420553,2.2816240030476074,-1.0169060865985315,0.15827174484729767
1708438161.4013512,-1.1060357093811035,-1.681406160394186,-2.526407782231466,2.281616373653076,-1.0169389883624476,0.1583290845155716
1708438161.4033809,-1.1060400009155273,-1.681389947930807,-2.526386801396505,2.2816647726246337,-1.0168774763690394,0.1582966148853302
1708438161.4053369,-1.1060400009155273,-1.6813856563963832,-2.526403252278463,2.2816240030476074,-1.0169270674334925,0.15828469395637512
1708438161.4073536,-1.1060357093811035,-1.6813293896117152,-2.526423994694845,2.2816120821186523,-1.0168975035296839,0.15826737880706787
1708438161.4093423,-1.1060444116592407,-1.6813250980772914,-2.526419703160421,2.281656427974365,-1.0169256369220179,0.15830092132091522
1708438161.4113598,-1.1060118675231934,-1.6814342937865199,-2.5263734499560755,2.2816402155109863,-1.016876522694723,0.15829229354858398
1708438161.4133668,-1.1060194969177246,-1.6813446484007777,-2.526407782231466,2.2816521364399414,-1.0169299284564417,0.15825550258159637
1708438161.415363,-1.1060118675231934,-1.6813646755614222,-2.5263941923724573,2.281599207515381,-1.0168731848346155,0.15829229354858398
1708438161.4173603,-1.1060519218444824,-1.6813942394652308,-2.5263987223254603,2.281599207515381,-1.0169389883624476,0.15830954909324646
1708438161.4193513,-1.1060280799865723,-1.6813732586302699,-2.526416603718893,2.2816402155109863,-1.0168688933001917,0.15823927521705627
1708438161.4213617,-1.1060194969177246,-1.6813985309996546,-2.526407782231466,2.281660242671631,-1.0168941656695765,0.15828797221183777
1708438161.4233804,-1.1060118675231934,-1.681401868859762,-2.526412312184469,2.2816225725361328,-1.0169060865985315,0.15830422937870026
1708438161.4255157,-1.1060724258422852,-1.6813775501646937,-2.526440683995382,2.2816154199787597,-1.016881291066305,0.1583290845155716
1708438161.427373,-1.1060032844543457,-1.6813646755614222,-2.526404682789938,2.2816359239765625,-1.016909424458639,0.1582966148853302
1708438161.4294121,-1.1060442924499512,-1.6813489399352015,-2.5263941923724573,2.2816316324421386,-1.0168731848346155,0.1582641303539276
1708438161.4313657,-1.1060107946395874,-1.681389947930807,-2.5263941923724573,2.2816521364399414,-1.0168855826007288,0.15828798711299896
1708438161.4333968,-1.10600745677948,-1.681406160394186,-2.526370350514547,2.281610890025757,-1.0169389883624476,0.15828798711299896
1708438161.435367,-1.1060357093811035,-1.6814137897887171,-2.526391331349508,2.281685991878174,-1.016909424458639,0.15825225412845612
1708438161.437437,-1.1060075759887695,-1.681368967095846,-2.526423994694845,2.281660719508789,-1.0169180075274866,0.1582966148853302
1708438161.4394324,-1.1060314178466797,-1.6813575230040492,-2.526403252278463,2.2816316324421386,-1.0169017950641077,0.15823489427566528
1708438161.4413788,-1.1060314178466797,-1.6814342937865199,-2.526407782231466,2.281610890025757,-1.0168641249286097,0.15827171504497528
1708438161.4433377,-1.1060682535171509,-1.681406160394186,-2.526437584553854,2.281610890025757,-1.0168774763690394,0.1582922786474228
1708438161.4453447,-1.1060237884521484,-1.6814137897887171,-2.526403252278463,2.2816359239765625,-1.0168975035296839,0.15829335153102875
1708438161.4473643,-1.1060020923614502,-1.6813575230040492,-2.526436154042379,2.281616373653076,-1.0169313589679163,0.15832911431789398
1708438161.4493709,-1.1060314178466797,-1.6813813648619593,-2.526424233113424,2.2816077905842285,-1.0169342199908655,0.15825220942497253
1708438161.451348,-1.1060476303100586,-1.6813770733275355,-2.526419703160421,2.28168170034375,-1.0169060865985315,0.15828366577625275
1708438161.4533327,-1.1060442924499512,-1.6813489399352015,-2.526419703160421,2.2816433149525146,-1.0169017950641077,0.15826739370822906
1708438161.4553473,-1.1060032844543457,-1.6813775501646937,-2.526407782231466,2.281655712718628,-1.0169017950641077,0.1583171933889389
1708438161.4574256,-1.1060237884521484,-1.6813856563963832,-2.526412312184469,2.2816402155109863,-1.01689321199526,0.1583128720521927
1708438161.4594016,-1.1060487031936646,-1.6814147434630335,-2.526403252278463,2.281599207515381,-1.0169389883624476,0.1582966148853302
1708438161.4613585,-1.1060152053833008,-1.6814104519286097,-2.526452604924337,2.2816271024891357,-1.016876522694723,0.1582435518503189
1708438161.463337,-1.1059869527816772,-1.6813365421690882,-2.5263822714435022,2.281677170390747,-1.0168941656695765,0.15829987823963165
1708438161.4653387,-1.1060638427734375,-1.6814052067198695,-2.5263541380511683,2.2816225725361328,-1.0168722311602991,0.1582966148853302
1708438161.4673262,-1.1059999465942383,-1.681418081323141,-2.5263660589801233,2.2816733556934814,-1.0169060865985315,0.1583084911108017
1708438161.4693692,-1.1060194969177246,-1.6814505062498988,-2.52637488046755,2.281554861659668,-1.0168688933001917,0.15823598206043243
1708438161.4713624,-1.1060725450515747,-1.6813942394652308,-2.52637488046755,2.28164450704541,-1.0168941656695765,0.1582641303539276
1708438161.4733737,-1.1060487031936646,-1.6813603840269984,-2.526386801396505,2.2816433149525146,-1.0169103781329554,0.1582966148853302
1708438161.4754603,-1.1060519218444824,-1.6813646755614222,-2.5263658205615442,2.281610890025757,-1.0169180075274866,0.15828903019428253
1708438161.477419,-1.1059869527816772,-1.681406160394186,-2.526433054600851,2.281610890025757,-1.0169180075274866,0.15830853581428528
1708438161.479421,-1.1060032844543457,-1.6814028225340785,-2.5263541380511683,2.2816197115131835,-1.01689321199526,0.15828362107276917
1708438161.481404,-1.1059988737106323,-1.6813813648619593,-2.526395861302511,2.2816316324421386,-1.0169180075274866,0.1582966148853302
1708438161.483414,-1.1060118675231934,-1.681401868859762,-2.5264151732074183,2.2816433149525146,-1.0168774763690394,0.15829990804195404
1708438161.4853787,-1.1059901714324951,-1.6813489399352015,-2.526423994694845,2.281566782588623,-1.0168522039996546,0.15831288695335388
1708438161.4873848,-1.1060194969177246,-1.6813732586302699,-2.526379410420553,2.281578465098999,-1.0169432798968714,0.158255472779274
1708438161.4894152,-1.1060194969177246,-1.6813322506346644,-2.526428524647848,2.2816359239765625,-1.0169432798968714,0.15826746821403503
1708438161.4913902,-1.1060271263122559,-1.681446214715475,-2.5263987223254603,2.281628294582031,-1.0169256369220179,0.1582803726196289
1708438161.4933703,-1.1059870719909668,-1.6813813648619593,-2.5263987223254603,2.2816402155109863,-1.0169060865985315,0.15830090641975403
1708438161.495386,-1.1060152053833008,-1.6814223728575648,-2.526445213948385,2.281648798579834,-1.0169270674334925,0.15829989314079285
1708438161.4973958,-1.1060032844543457,-1.681446214715475,-2.526419703160421,2.2816240030476074,-1.0168941656695765,0.1583290845155716
1708438161.4993672,-1.106032371520996,-1.6814233265318812,-2.526419703160421,2.2816316324421386,-1.0169461409198206,0.1583280861377716
1708438161.501355,-1.1060032844543457,-1.681401868859762,-2.526386801396505,2.281648798579834,-1.0168641249286097,0.15828369557857513
1708438161.5033643,-1.1060682535171509,-1.681389947930807,-2.526395861302511,2.2816240030476074,-1.0169137159930628,0.15832912921905518
1708438161.5053566,-1.1060562133789062,-1.6813932857909144,-2.526391331349508,2.2816902834125976,-1.0169222990619105,0.1583496332168579
1708438161.5073855,-1.1060280799865723,-1.6814342937865199,-2.526379410420553,2.2816478449055175,-1.0168898741351526,0.15830421447753906
1708438161.5093563,-1.106006383895874,-1.6813322506346644,-2.5263569990741175,2.281655712718628,-1.0169060865985315,0.15828800201416016
1708438161.5113554,-1.1060107946395874,-1.681401868859762,-2.526424233113424,2.281594677562378,-1.0169060865985315,0.15831615030765533
1708438161.5133824,-1.1060357093811035,-1.6813770733275355,-2.526412312184469,2.2816120821186523,-1.01689321199526,0.15829116106033325
1708438161.5153875,-1.1060314178466797,-1.6813532314696253,-2.526423994694845,2.281594677562378,-1.0168975035296839,0.15826743841171265
1708438161.5173838,-1.1060032844543457,-1.6813494167723597,-2.526423994694845,2.281656427974365,-1.0169137159930628,0.15836188197135925
1708438161.5193708,-1.1060150861740112,-1.6813279591002406,-2.5263987223254603,2.2816402155109863,-1.0169060865985315,0.15831610560417175
1708438161.521336,-1.1060357093811035,-1.6813932857909144,-2.526395861302511,2.2816225725361328,-1.016881291066305,0.15826743841171265
1708438161.523358,-1.1060725450515747,-1.681361814538473,-2.5264106432544153,2.2816225725361328,-1.0169342199908655,0.1583452820777893
1708438161.5253913,-1.1059869527816772,-1.6813489399352015,-2.5264151732074183,2.2816733556934814,-1.0168975035296839,0.15829229354858398
1708438161.5274065,-1.1060563325881958,-1.681401868859762,-2.5263569990741175,2.2816900449940185,-1.0168975035296839,0.15830741822719574
1708438161.5294037,-1.1060476303100586,-1.681401868859762,-2.5263987223254603,2.2816478449055175,-1.0168975035296839,0.15826743841171265
1708438161.531378,-1.1060271263122559,-1.6813603840269984,-2.526403252278463,2.2816197115131835,-1.0168898741351526,0.15832915902137756
1708438161.5334089,-1.1060314178466797,-1.6813975773253382,-2.526436154042379,2.281656427974365,-1.0168688933001917,0.15827174484729767
1708438161.535392,-1.1060357093811035,-1.681418081323141,-2.526424233113424,2.2816034990498046,-1.016855541859762,0.15830422937870026
1708438161.5374053,-1.1060400009155273,-1.6813489399352015,-2.5264151732074183,2.281610890025757,-1.0169342199908655,0.15830853581428528
1708438161.539411,-1.1060032844543457,-1.6814094982542933,-2.5263660589801233,2.281606360072754,-1.0168975035296839,0.15832045674324036
1708438161.54137,-1.1060487031936646,-1.6814223728575648,-2.5263987223254603,2.281677170390747,-1.0169432798968714,0.1583290845155716
1708438161.543391,-1.1060444116592407,-1.6813646755614222,-2.5264318625079554,2.281685991878174,-1.0168975035296839,0.15831613540649414
1708438161.5454097,-1.1060638427734375,-1.6813575230040492,-2.5264363924609583,2.281660719508789,-1.0169137159930628,0.15828797221183777
1708438161.5473938,-1.106032371520996,-1.6813932857909144,-2.5263825098620813,2.281685991878174,-1.0168855826007288,0.15826311707496643
1708438161.549361,-1.1060357093811035,-1.6813646755614222,-2.5263825098620813,2.281630440349243,-1.0168889204608362,0.1582598239183426
1708438161.5514112,-1.1060271263122559,-1.6814137897887171,-2.526403252278463,2.2816402155109863,-1.0168975035296839,0.15827171504497528
1708438161.5533686,-1.1060194969177246,-1.6813732586302699,-2.52647835413088,2.2816387849995117,-1.0169060865985315,0.15827494859695435
1708438161.555369,-1.1060442924499512,-1.6813813648619593,-2.5263779799090784,2.281685991878174,-1.0168898741351526,0.15826742351055145
1708438161.5574055,-1.1059869527816772,-1.681312700311178,-2.526403252278463,2.2815872865864257,-1.0168722311602991,0.15829229354858398
1708438161.559448,-1.1060357093811035,-1.6813732586302699,-2.5263987223254603,2.2816034990498046,-1.01689321199526,0.1583290845155716
1708438161.561417,-1.1060487031936646,-1.6814223728575648,-2.5263660589801233,2.2817141252705078,-1.0169180075274866,0.15832476317882538
1708438161.563393,-1.1060606241226196,-1.6813732586302699,-2.5263987223254603,2.2816402155109863,-1.0169389883624476,0.15828366577625275
1708438161.565439,-1.1060194969177246,-1.6814104519286097,-2.5264151732074183,2.2816776472279052,-1.0169137159930628,0.15829989314079285
1708438161.5674021,-1.1060194969177246,-1.6813732586302699,-2.526419703160421,2.2816359239765625,-1.0169060865985315,0.15829558670520782
1708438161.5693655,-1.1059625148773193,-1.681418081323141,-2.5264151732074183,2.2816359239765625,-1.0169332663165491,0.15829989314079285
1708438161.5713513,-1.1060161590576172,-1.681345125237936,-2.526436154042379,2.2816647726246337,-1.0168975035296839,0.15828797221183777
1708438161.5733793,-1.1060682535171509,-1.681361814538473,-2.526403252278463,2.2816478449055175,-1.016921345387594,0.15826311707496643
1708438161.5754142,-1.1060442924499512,-1.681340833703512,-2.526436154042379,2.2816945749470214,-1.016888443623678,0.15836948156356812
1708438161.5773926,-1.1060682535171509,-1.6814137897887171,-2.526433054600851,2.2816240030476074,-1.0169137159930628,0.15832476317882538
1708438161.5793924,-1.1060400009155273,-1.6813856563963832,-2.5263987223254603,2.281582995052002,-1.0169299284564417,0.15826742351055145
1708438161.5814345,-1.1059901714324951,-1.6813165150084437,-2.526403252278463,2.2816776472279052,-1.01689321199526,0.15831613540649414
1708438161.5834298,-1.1060476303100586,-1.6813975773253382,-2.5264151732074183,2.2816154199787597,-1.016921345387594,0.15833237767219543
1708438161.585361,-1.1059956550598145,-1.681368967095846,-2.5264363924609583,2.281656427974365,-1.0169509092914026,0.15830853581428528
1708438161.5873678,-1.1060314178466797,-1.681361814538473,-2.5264061133014124,2.2816271024891357,-1.0169790426837366,0.15831181406974792
1708438161.5893688,-1.1060638427734375,-1.6813646755614222,-2.5263987223254603,2.2816316324421386,-1.0169504324542444,0.1582804173231125
1708438161.5913918,-1.1060357093811035,-1.681406160394186,-2.526419703160421,2.2816402155109863,-1.0169137159930628,0.15832476317882538
1708438161.5934556,-1.1060562133789062,-1.6813732586302699,-2.5264273325549524,2.28168170034375,-1.0168841520892542,0.15835325419902802
1708438161.5953677,-1.1060562133789062,-1.6813732586302699,-2.5264151732074183,2.2816478449055175,-1.0169714132892054,0.15835325419902802
1708438161.5973592,-1.1060519218444824,-1.6813985309996546,-2.5263987223254603,2.2817064958759765,-1.0169461409198206,0.15832047164440155
1708438161.5994,-1.1060161590576172,-1.6813942394652308,-2.52637488046755,2.281677170390747,-1.0169170538531702,0.15830741822719574
1708438161.601382,-1.1060442924499512,-1.6813646755614222,-2.526428524647848,2.2816733556934814,-1.0169170538531702,0.15832476317882538
1708438161.603373,-1.1059750318527222,-1.6813575230040492,-2.52645713487734,2.281660719508789,-1.0169256369220179,0.15837380290031433
1708438161.6053395,-1.1060681343078613,-1.681389947930807,-2.5263822714435022,2.281684561366699,-1.0169180075274866,0.15835325419902802
1708438161.6073797,-1.1059913635253906,-1.6813775501646937,-2.5264363924609583,2.2816387849995117,-1.0169418493853968,0.15831933915615082
1708438161.6093636,-1.1060357093811035,-1.681361814538473,-2.5264228026019495,2.2816690641590576,-1.0169747511493128,0.15829989314079285
1708438161.6113646,-1.1060476303100586,-1.6813942394652308,-2.5263987223254603,2.281606360072754,-1.0169051329242151,0.15830738842487335
1708438161.613414,-1.1060161590576172,-1.681427618066305,-2.526419703160421,2.28164450704541,-1.0169051329242151,0.15831930935382843
1708438161.6153817,-1.1060638427734375,-1.6813532314696253,-2.5264151732074183,2.2816402155109863,-1.0169418493853968,0.15829989314079285
1708438161.617404,-1.1060357093811035,-1.6814342937865199,-2.5264273325549524,2.2816271024891357,-1.0169332663165491,0.15831181406974792
1708438161.6193538,-1.1060357093811035,-1.6813446484007777,-2.5264151732074183,2.281656427974365,-1.016949478779928,0.15834888815879822
1708438161.621339,-1.1060400009155273,-1.6813856563963832,-2.5263987223254603,2.2816225725361328,-1.0169451872455042,0.15830306708812714
1708438161.6233816,-1.1060152053833008,-1.681401868859762,-2.5264151732074183,2.2816433149525146,-1.0168798605548304,0.1583651602268219
1708438161.6253846,-1.1060442924499512,-1.6814094982542933,-2.5264273325549524,2.281685991878174,-1.0169671217547815,0.15831613540649414
1708438161.6273968,-1.1060271263122559,-1.6813775501646937,-2.5264318625079554,2.2816271024891357,-1.016921345387594,0.15831933915615082
1708438161.6293893,-1.1059621572494507,-1.681368967095846,-2.5264347235309046,2.2816433149525146,-1.0169332663165491,0.1583695262670517
1708438161.6313703,-1.1060237884521484,-1.6813818416991175,-2.5264139811145228,2.281677170390747,-1.0169332663165491,0.15831181406974792
1708438161.6333563,-1.1060314178466797,-1.6814104519286097,-2.5264273325549524,2.2816647726246337,-1.0169451872455042,0.15832366049289703
1708438161.6353636,-1.1059750318527222,-1.6813818416991175,-2.5264106432544153,2.281677170390747,-1.0169628302203577,0.15833237767219543
1708438161.6373794,-1.1060280799865723,-1.6813889942564906,-2.5264061133014124,2.2817181783863525,-1.0169451872455042,0.15833237767219543
1708438161.6394043,-1.1060606241226196,-1.6813813648619593,-2.526419703160421,2.2816690641590576,-1.0169537703143519,0.1583489626646042
1708438161.6413748,-1.1060032844543457,-1.6814104519286097,-2.5264063517199915,2.281634493465088,-1.0169580618487757,0.15830306708812714
1708438161.6433504,-1.1059826612472534,-1.6813856563963832,-2.5264063517199915,2.281677170390747,-1.016965691243307,0.15829995274543762
1708438161.645335,-1.1060237884521484,-1.6813646755614222,-2.5264678637133997,2.2816387849995117,-1.016961399708883,0.15829989314079285
1708438161.647361,-1.1060357093811035,-1.6813575230040492,-2.5263944307910364,2.281610890025757,-1.0169408957110804,0.15834780037403107
1708438161.6493623,-1.106052041053772,-1.6813646755614222,-2.526419703160421,2.2816521364399414,-1.0169318358050745,0.15833671391010284
1708438161.6513677,-1.1060682535171509,-1.681406160394186,-2.526403252278463,2.2816197115131835,-1.016961399708883,0.1583489626646042
1708438161.6533725,-1.1060161590576172,-1.6813661060728968,-2.5264182726489466,2.2816359239765625,-1.016949478779928,0.15833152830600739
1708438161.6553576,-1.1060237884521484,-1.6813446484007777,-2.5264273325549524,2.281634493465088,-1.0169571081744593,0.15832050144672394
1708438161.657377,-1.1060357093811035,-1.681340833703512,-2.5264151732074183,2.281655712718628,-1.0169571081744593,0.1582944095134735
1708438161.659368,-1.1060271263122559,-1.6814009151854457,-2.5264363924609583,2.281737728709839,-1.0169528166400355,0.15833239257335663
1708438161.6613352,-1.1059913635253906,-1.6813646755614222,-2.5264106432544153,2.2816316324421386,-1.0169528166400355,0.1582825630903244
1708438161.6633859,-1.1060433387756348,-1.6813646755614222,-2.526419703160421,2.2816433149525146,-1.0169451872455042,0.15838144719600677
1708438161.6653836,-1.1060893535614014,-1.681406160394186,-2.5264318625079554,2.2816433149525146,-1.016989533101217,0.1583402156829834
1708438161.6673944,-1.1060194969177246,-1.6814104519286097,-2.5264692942248743,2.2816733556934814,-1.016961399708883,0.15831930935382843
1708438161.6693628,-1.1060314178466797,-1.681406160394186,-2.5264318625079554,2.2816640573688964,-1.016993824635641,0.15830303728580475
1708438161.671364,-1.1060314178466797,-1.6813494167723597,-2.526445213948385,2.281705065364502,-1.0169289747821253,0.1583564579486847
1708438161.6733632,-1.1060118675231934,-1.6813775501646937,-2.5264392534839075,2.281630201930664,-1.016982380543844,0.15833589434623718
1708438161.6755035,-1.1060487031936646,-1.681406160394186,-2.5263899008380335,2.2816478449055175,-1.0170019308673304,0.15836837887763977
1708438161.6774037,-1.1059869527816772,-1.68133606533193,-2.5264106432544153,2.2816387849995117,-1.0169695059405726,0.15832804143428802
1708438161.679433,-1.1060487031936646,-1.681368967095846,-2.5264392534839075,2.281685991878174,-1.0169528166400355,0.1583564430475235
1708438161.6814291,-1.106032371520996,-1.6813975773253382,-2.5264766852008265,2.281660242671631,-1.0169852415667933,0.15835215151309967
1708438161.6833918,-1.1060032844543457,-1.681406160394186,-2.5264228026019495,2.281697912807129,-1.0169852415667933,0.15835213661193848
1708438161.6853812,-1.1060807704925537,-1.6814419231810511,-2.5264318625079554,2.281651421184204,-1.017010513936178,0.15836837887763977
1708438161.687381,-1.1060357093811035,-1.681418081323141,-2.526452604924337,2.281677170390747,-1.0169695059405726,0.1583489328622818
1708438161.6894236,-1.1060476303100586,-1.6813732586302699,-2.5264061133014124,2.2816733556934814,-1.016989533101217,0.15831181406974792
1708438161.6914332,-1.1060400009155273,-1.681406160394186,-2.5264106432544153,2.2816683489033203,-1.0169809500323694,0.15831930935382843
1708438161.6933558,-1.1059988737106323,-1.681389947930807,-2.5264392534839075,2.2816759782978515,-1.0169852415667933,0.15831930935382843
1708438161.6953943,-1.1060400009155273,-1.6813942394652308,-2.5264151732074183,2.2816683489033203,-1.0170062224017542,0.15837712585926056
1708438161.6973693,-1.1059988737106323,-1.6813646755614222,-2.526386801396505,2.2817258077808837,-1.0170109907733362,0.15835648775100708
1708438161.6993732,-1.1060476303100586,-1.6813975773253382,-2.5263853708850306,2.281752749080322,-1.0169852415667933,0.15836837887763977
1708438161.701356,-1.1060681343078613,-1.681340833703512,-2.5264812151538294,2.281740828151367,-1.0169976393329065,0.15838924050331116
1708438161.7033572,-1.106006383895874,-1.681430002252096,-2.5264061133014124,2.2817441660114746,-1.0169933477984827,0.1583150327205658
1708438161.705381,-1.1060595512390137,-1.681401868859762,-2.5264483133899134,2.2818009096333007,-1.0169718901263636,0.15835213661193848
1708438161.7073472,-1.1060357093811035,-1.681368967095846,-2.5263941923724573,2.2817956644245605,-1.0170214811908167,0.15834781527519226
1708438161.7093387,-1.1059826612472534,-1.6813975773253382,-2.5264106432544153,2.2818161684223632,-1.0170257727252405,0.15837709605693817
1708438161.711328,-1.1060075759887695,-1.6813646755614222,-2.5264228026019495,2.2817794519611816,-1.0170453230487269,0.15835213661193848
1708438161.7133663,-1.1059988737106323,-1.6814714870848597,-2.5264106432544153,2.281792326564453,-1.017057243977682,0.1583564579486847
1708438161.7153919,-1.1059826612472534,-1.6814223728575648,-2.5263779799090784,2.2817718225666503,-1.017012898121969,0.15832287073135376
1708438161.7173846,-1.1060237884521484,-1.6813932857909144,-2.5264301935779017,2.2817794519611816,-1.0170334021197718,0.15830741822719574
1708438161.7193673,-1.1060161590576172,-1.681401868859762,-2.5263987223254603,2.281812830562256,-1.0170648733722132,0.15833589434623718
1708438161.721387,-1.1060476303100586,-1.681401868859762,-2.5264273325549524,2.2817880350300292,-1.0171106497394007,0.15833589434623718
1708438161.7233799,-1.1060980558395386,-1.6813813648619593,-2.526403252278463,2.281796618098877,-1.01709491411318,0.15835213661193848
1708438161.7254033,-1.1060476303100586,-1.6813603840269984,-2.5264483133899134,2.2818214136311035,-1.0170171896563929,0.1583564579486847
1708438161.7273827,-1.1060638427734375,-1.6813775501646937,-2.5264363924609583,2.2817556101032714,-1.0170705954181116,0.1583063006401062
1708438161.7294028,-1.1059707403182983,-1.681401868859762,-2.5264483133899134,2.281780405635498,-1.017000977193014,0.15838493406772614
1708438161.7313805,-1.1060519218444824,-1.6813732586302699,-2.5264301935779017,2.2818161684223632,-1.0171106497394007,0.15834341943264008
1708438161.7334085,-1.106022596359253,-1.681406160394186,-2.5264228026019495,2.2817956644245605,-1.0170319716082972,0.15831933915615082
1708438161.7353928,-1.1060400009155273,-1.6813532314696253,-2.5264318625079554,2.2818118768879394,-1.0170705954181116,0.15834781527519226
1708438161.7374024,-1.1060606241226196,-1.6813489399352015,-2.5263987223254603,2.2818452554890136,-1.0170734564410608,0.15835966169834137
1708438161.7394583,-1.1059783697128296,-1.681406637231344,-2.5264106432544153,2.2817556101032714,-1.0171149412738245,0.15834341943264008
1708438161.741358,-1.1059707403182983,-1.681418081323141,-2.5264273325549524,2.2817751604267578,-1.0170453230487269,0.15834781527519226
1708438161.7433975,-1.106040120124817,-1.6814104519286097,-2.5264151732074183,2.281824751491211,-1.017041031514303,0.15840117633342743
1708438161.7453392,-1.1060280799865723,-1.6813532314696253,-2.5264139811145228,2.2818280893513183,-1.0170777479754847,0.15837621688842773
1708438161.7473624,-1.1060031652450562,-1.6813446484007777,-2.5264318625079554,2.28184096395459,-1.0170496145831507,0.15843717753887177
1708438161.7494016,-1.1059576272964478,-1.6813732586302699,-2.526419703160421,2.281747027034424,-1.0170615355121058,0.15835963189601898
1708438161.7513337,-1.1060357093811035,-1.6813813648619593,-2.5264723936664026,2.2818009096333007,-1.017008129750387,0.15835966169834137
1708438161.7533894,-1.1060487031936646,-1.6813489399352015,-2.5263972918139856,2.281824751491211,-1.0170248190509241,0.15832287073135376
1708438161.7553484,-1.1060118675231934,-1.6813446484007777,-2.5264228026019495,2.281796618098877,-1.0170367399798792,0.1584293693304062
1708438161.757411,-1.1059869527816772,-1.6813904247679652,-2.5264061133014124,2.281735344524048,-1.0170539061175745,0.15835966169834137
1708438161.759451,-1.1059869527816772,-1.681401868859762,-2.5264182726489466,2.2817675310322265,-1.0170319716082972,0.1584043800830841
1708438161.761409,-1.1060152053833008,-1.6813813648619593,-2.5264363924609583,2.2817632394978027,-1.0170453230487269,0.1583838164806366
1708438161.7634053,-1.1060075759887695,-1.6813775501646937,-2.5264647642718714,2.281808539027832,-1.017057243977682,0.15835534036159515
1708438161.7653887,-1.106035590171814,-1.6813775501646937,-2.5264514128314417,2.2817675310322265,-1.017052952443258,0.1584414839744568
1708438161.767409,-1.1059999465942383,-1.6813856563963832,-2.526403252278463,2.2817599016376953,-1.0170734564410608,0.15836328268051147
1708438161.7694182,-1.1060043573379517,-1.681368967095846,-2.5264559427844446,2.281792326564453,-1.0170615355121058,0.15835098922252655
1708438161.7713947,-1.1059956550598145,-1.6813684902586878,-2.5264273325549524,2.2817599016376953,-1.0170705954181116,0.1584043949842453
1708438161.773396,-1.1059880256652832,-1.681394716302389,-2.5264106432544153,2.2817441660114746,-1.017012898121969,0.1583838164806366
1708438161.775416,-1.1060400009155273,-1.6814185581602992,-2.5264228026019495,2.2817837434956054,-1.0170868078814905,0.15842412412166595
1708438161.7773774,-1.1060118675231934,-1.681401868859762,-2.5264514128314417,2.281756563777588,-1.0170171896563929,0.15837189555168152
1708438161.7794738,-1.1060529947280884,-1.6813684902586878,-2.5263899008380335,2.281731052989624,-1.0170496145831507,0.15841980278491974
1708438161.7834306,-1.1059505939483643,-1.6813527546324671,-2.5264106432544153,2.281735344524048,-1.017041031514303,0.15840327739715576
1708438161.7853951,-1.1059463024139404,-1.6813765964903773,-2.5264273325549524,2.281714840526245,-1.0170376936541956,0.1584610491991043
1708438161.7874007,-1.1060130596160889,-1.6813684902586878,-2.5264228026019495,2.28174798070874,-1.0170496145831507,0.15845990180969238
1708438161.7893624,-1.1059880256652832,-1.6813975773253382,-2.5264061133014124,2.281764193172119,-1.0170615355121058,0.15848396718502045
1708438161.791354,-1.105959415435791,-1.6813394031920375,-2.5264151732074183,2.2818009096333007,-1.017041031514303,0.1584642231464386
1708438161.7933993,-1.1059925556182861,-1.6814094982542933,-2.5264228026019495,2.28174798070874,-1.017012898121969,0.15846340358257294
1708438161.795417,-1.1059637069702148,-1.6813856563963832,-2.526407782231466,2.281719132060669,-1.017029110585348,0.15849702060222626
1708438161.7973583,-1.1059799194335938,-1.681364198724264,-2.5264151732074183,2.281752272243164,-1.017041031514303,0.15844371914863586
1708438161.7993946,-1.1059560775756836,-1.681410928765768,-2.5264318625079554,2.2817484575458984,-1.0170496145831507,0.15854497253894806
1708438161.8013926,-1.1059386730194092,-1.6813885174193324,-2.5263987223254603,2.281714840526245,-1.0170376936541956,0.15844246745109558
1708438161.803353,-1.1059268712997437,-1.6813765964903773,-2.5264392534839075,2.2817653852650146,-1.0170205275165003,0.15845990180969238
1708438161.8053274,-1.1059311628341675,-1.681434770623678,-2.5264301935779017,2.2817815977283935,-1.0170248190509241,0.15850897133350372
1708438161.8073692,-1.1059386730194092,-1.681439062158102,-2.5264437834369105,2.2817203241535644,-1.0170496145831507,0.15848830342292786
1708438161.8093476,-1.1059799194335938,-1.6814137897887171,-2.5264723936664026,2.2817160326191406,-1.0170992056476038,0.15849268436431885
1708438161.8113534,-1.105972409248352,-1.6813813648619593,-2.5264106432544153,2.2817246156879882,-1.0170334021197718,0.15847088396549225
1708438161.813386,-1.1059812307357788,-1.6814052067198695,-2.526440683995382,2.2816836076923828,-1.0170705954181116,0.15847966074943542
1708438161.8154032,-1.1059637069702148,-1.6813723049559535,-2.5264063517199915,2.281716986293457,-1.017012898121969,0.15847532451152802
1708438161.8173432,-1.105947494506836,-1.6814304790892542,-2.5264061133014124,2.281705065364502,-1.0170615355121058,0.15846338868141174
1708438161.8193502,-1.1059679985046387,-1.6814424000182093,-2.5264318625079554,2.2816640573688964,-1.0170791784869593,0.15846773982048035
1708438161.8213623,-1.105947494506836,-1.6814185581602992,-2.526419703160421,2.2816690641590576,-1.0170453230487269,0.15846773982048035
1708438161.823369,-1.1059637069702148,-1.6814052067198695,-2.5264106432544153,2.2816387849995117,-1.0170453230487269,0.15850451588630676
1708438161.8254442,-1.105947494506836,-1.6813484630980433,-2.5264392534839075,2.2816478449055175,-1.017020050679342,0.15852873027324677
1708438161.8273852,-1.1059843301773071,-1.681364198724264,-2.5264812151538294,2.2816478449055175,-1.0170615355121058,0.15848399698734283
1708438161.8293695,-1.1059443950653076,-1.681422849694723,-2.5263987223254603,2.2816120821186523,-1.0170205275165003,0.15846773982048035
1708438161.8313468,-1.1059067249298096,-1.6814381084837855,-2.5264480749713343,2.2816077905842285,-1.0170162359820765,0.15852437913417816
1708438161.8333719,-1.1059229373931885,-1.681401868859762,-2.5264647642718714,2.281628294582031,-1.0170453230487269,0.158512145280838
1708438161.8354177,-1.1059517860412598,-1.6814214191832484,-2.5264392534839075,2.28158084928479,-1.0170248190509241,0.15848398208618164
1708438161.837425,-1.1059443950653076,-1.6814257107176722,-2.5264559427844446,2.281608744258545,-1.0170581976519983,0.1584915816783905
1708438161.8394048,-1.1058861017227173,-1.6813842258849085,-2.5264437834369105,2.281563921565674,-1.0170214811908167,0.15847532451152802
1708438161.8413484,-1.1059112548828125,-1.6814381084837855,-2.5264106432544153,2.2816294866749267,-1.0170453230487269,0.15849155187606812
1708438161.8433673,-1.1058861017227173,-1.6814304790892542,-2.5264363924609583,2.281555100078247,-1.0170248190509241,0.15850453078746796
1708438161.845372,-1.1059036254882812,-1.6814333401122035,-2.5264106432544153,2.281531496638916,-1.0170367399798792,0.15848830342292786
1708438161.8473701,-1.1058993339538574,-1.6814257107176722,-2.5264392534839075,2.2816294866749267,-1.0170496145831507,0.15850022435188293
1708438161.849396,-1.105912446975708,-1.6814257107176722,-2.5264061133014124,2.281613274211548,-1.0170171896563929,0.15846340358257294
1708438161.8513422,-1.1058704853057861,-1.6814214191832484,-2.5264273325549524,2.2815677362629394,-1.017041031514303,0.15850025415420532
1708438161.853333,-1.1058704853057861,-1.6813975773253382,-2.5264888445483606,2.281604452724121,-1.0170496145831507,0.15844608843326569
1708438161.85534,-1.1058993339538574,-1.6814919910826625,-2.5264812151538294,2.281559391612671,-1.0170453230487269,0.15847648680210114
1708438161.8573794,-1.1058874130249023,-1.6814829311766566,-2.5264018217669886,2.281538887614868,-1.0170496145831507,0.1585243195295334
1708438161.8594317,-1.105907917022705,-1.6813961468138636,-2.5264228026019495,2.2815324503132324,-1.0170539061175745,0.15843498706817627
1708438161.861393,-1.1058917045593262,-1.6814032993712367,-2.5264347235309046,2.2815562921711425,-1.0170615355121058,0.15851213037967682
1708438161.8634138,-1.105907917022705,-1.6814333401122035,-2.5264273325549524,2.281498833293579,-1.0170171896563929,0.158512145280838
1708438161.8653965,-1.105883002281189,-1.6813975773253382,-2.5264723936664026,2.2815238672443847,-1.0170376936541956,0.15847967565059662
1708438161.8673997,-1.1058704853057861,-1.6814547977843226,-2.5264812151538294,2.2815324503132324,-1.0170248190509241,0.15852516889572144
1708438161.8693736,-1.105863094329834,-1.681427618066305,-2.526452604924337,2.2815162378498535,-1.0170376936541956,0.15850022435188293
1708438161.8713524,-1.1058835983276367,-1.6814590893187464,-2.5264228026019495,2.2814969259449462,-1.0170748869525355,0.15844687819480896
1708438161.8733604,-1.1059287786483765,-1.6814424000182093,-2.5264678637133997,2.281557484264038,-1.017029110585348,0.15846343338489532
1708438161.8754725,-1.1058597564697266,-1.6815201244749964,-2.5264931360827845,2.2815205293842773,-1.0170539061175745,0.15850451588630676
1708438161.8773923,-1.105876088142395,-1.681469579736227,-2.5263941923724573,2.2815660673328857,-1.0170453230487269,0.15847094357013702
1708438161.8794434,-1.1058024168014526,-1.6814786396422328,-2.5264931360827845,2.2814625936695556,-1.017041031514303,0.1584916114807129
1708438161.881406,-1.105863094329834,-1.681465288201803,-2.5264559427844446,2.281529350871704,-1.0170171896563929,0.158528670668602
1708438161.8833973,-1.1058392524719238,-1.681514402429098,-2.5264273325549524,2.281508608455322,-1.0170038382159632,0.15849590301513672
1708438161.8853743,-1.10586416721344,-1.6815387211241664,-2.5264228026019495,2.281475468272827,-1.0170095602618616,0.1584915816783905
1708438161.8873923,-1.1058478355407715,-1.681530614892477,-2.5264228026019495,2.2814923959919433,-1.0170539061175745,0.1584753543138504
1708438161.8893974,-1.1057980060577393,-1.681554456750387,-2.5264647642718714,2.281463785762451,-1.0170581976519983,0.15850894153118134
1708438161.8914065,-1.10586416721344,-1.6815387211241664,-2.5264483133899134,2.2815043169208984,-1.0170171896563929,0.158512145280838
1708438161.8933668,-1.1058522462844849,-1.6815501652159632,-2.5264061133014124,2.28147999822583,-1.017012898121969,0.15844255685806274
1708438161.8953593,-1.1058186292648315,-1.6814962826170863,-2.5264437834369105,2.2814313608356933,-1.0170376936541956,0.1584915816783905
1708438161.8973784,-1.1058391332626343,-1.6815296612181605,-2.5264228026019495,2.281435652370117,-1.0170257727252405,0.15848718583583832
1708438161.899391,-1.1058316230773926,-1.6815253696837367,-2.5264318625079554,2.281428022975586,-1.017029110585348,0.15850022435188293
1708438161.9013636,-1.1058273315429688,-1.6815082035460414,-2.5264318625079554,2.281447573299072,-1.0170658270465296,0.15850453078746796
1708438161.9033852,-1.1058435440063477,-1.6815296612181605,-2.5263779799090784,2.281428022975586,-1.0170496145831507,0.15852439403533936
1708438161.9053454,-1.10586416721344,-1.6815444431700648,-2.5264106432544153,2.281459255809448,-1.0170705954181116,0.15846343338489532
1708438161.9073758,-1.1058229207992554,-1.6816402874388636,-2.5264392534839075,2.281447573299072,-1.017012898121969,0.15844683349132538
1708438161.909359,-1.1058273315429688,-1.6816026173033656,-2.5264392534839075,2.28145615636792,-1.0170496145831507,0.15850453078746796
1708438161.9113758,-1.1058154106140137,-1.6815501652159632,-2.5264318625079554,2.2814928728291015,-1.0170205275165003,0.15850453078746796
1708438161.9133487,-1.1058392524719238,-1.6815773449339808,-2.5263987223254603,2.281447573299072,-1.0170086065875452,0.15849702060222626
1708438161.915374,-1.105851173400879,-1.6815577946104945,-2.5264902750598353,2.281451864833496,-1.0170334021197718,0.15847206115722656
1708438161.9173622,-1.1058359146118164,-1.6816026173033656,-2.5264318625079554,2.2814928728291015,-1.0170462767230433,0.1584709733724594
1708438161.91936,-1.1058186292648315,-1.6815444431700648,-2.5264392534839075,2.2814313608356933,-1.0170086065875452,0.15852870047092438
1708438161.921349,-1.1058197021484375,-1.6815577946104945,-2.5264514128314417,2.2814366060444335,-1.0170171896563929,0.15850897133350372
1708438161.9233751,-1.1058597564697266,-1.681573053399557,-2.52638823190798,2.281463785762451,-1.0170496145831507,0.15850453078746796
1708438161.9254565,-1.1058067083358765,-1.6815444431700648,-2.5264514128314417,2.281423731441162,-1.017000977193014,0.15847532451152802
1708438161.927408,-1.1058154106140137,-1.6815115414061488,-2.5264766852008265,2.28145615636792,-1.0170496145831507,0.15849269926548004
1708438161.9294262,-1.1058316230773926,-1.68150057415151,-2.5264318625079554,2.2814323145100097,-1.0170658270465296,0.15849590301513672
1708438161.9313564,-1.1057778596878052,-1.6815206013121546,-2.5264514128314417,2.2814766603657226,-1.0170367399798792,0.15848715603351593
1708438161.933375,-1.1058316230773926,-1.681568285027975,-2.5264437834369105,2.2813708025166015,-1.0170510450946253,0.15852521359920502
1708438161.9353855,-1.1057746410369873,-1.6815229854979457,-2.5264514128314417,2.281484289760254,-1.0170496145831507,0.15845908224582672
1708438161.9373863,-1.1057672500610352,-1.6815906963744105,-2.5264678637133997,2.281451864833496,-1.0170705954181116,0.15849590301513672
1708438161.9394128,-1.1058197021484375,-1.681540151635641,-2.5264347235309046,2.281379385585449,-1.017029110585348,0.1584915816783905
1708438161.9413538,-1.1057865619659424,-1.6815206013121546,-2.5264139811145228,2.2814766603657226,-1.0170214811908167,0.15847647190093994
1708438161.9433672,-1.1057908535003662,-1.6815444431700648,-2.5264392534839075,2.2814809519001464,-1.0170376936541956,0.15850022435188293
1708438161.94537,-1.105783462524414,-1.6815577946104945,-2.526454273854391,2.2814852434345703,-1.017029110585348,0.15851646661758423
1708438161.9473777,-1.105771541595459,-1.6815368137755335,-2.5264273325549524,2.28145615636792,-1.0170453230487269,0.15854497253894806
1708438161.9494116,-1.1058077812194824,-1.6816054783263148,-2.5264347235309046,2.281435652370117,-1.0170334021197718,0.15845908224582672
1708438161.95134,-1.1057584285736084,-1.6815535030760707,-2.5264182726489466,2.281439943904541,-1.0170334021197718,0.15850892663002014
1708438161.9533994,-1.1058040857315063,-1.6815082035460414,-2.5264514128314417,2.281428022975586,-1.0170539061175745,0.15848398208618164
1708438161.9553504,-1.1057921648025513,-1.681584974328512,-2.5264723936664026,2.2814313608356933,-1.017041031514303,0.15847532451152802
1708438161.9573693,-1.1058285236358643,-1.6815997562804164,-2.5264061133014124,2.281411810512207,-1.0170376936541956,0.15845906734466553
1708438161.9593844,-1.1058040857315063,-1.6816116772093714,-2.5264437834369105,2.28146140157666,-1.016991917287008,0.15848398208618164
1708438161.9614303,-1.105800747871399,-1.6815296612181605,-2.5264483133899134,2.2814766603657226,-1.0170419851886194,0.15845121443271637
1708438161.963404,-1.105783462524414,-1.6815277538695277,-2.5264228026019495,2.2814408975788574,-1.0170453230487269,0.15848830342292786
1708438161.9653852,-1.1058040857315063,-1.6815253696837367,-2.5264139811145228,2.281416102046631,-1.0170334021197718,0.15846340358257294
1708438161.967409,-1.1057921648025513,-1.6815453968443812,-2.5264514128314417,2.281428022975586,-1.017041031514303,0.1585654318332672
1708438161.9694254,-1.1057791709899902,-1.6815577946104945,-2.5264256636248987,2.281439943904541,-1.0170453230487269,0.15846340358257294
1708438161.9714165,-1.1057908535003662,-1.6815906963744105,-2.5264139811145228,2.2814289766499023,-1.0170214811908167,0.15845908224582672
1708438161.9733822,-1.1057335138320923,-1.681589265862936,-2.5264347235309046,2.2814604479023437,-1.0170171896563929,0.15847966074943542
1708438161.9753785,-1.105771541595459,-1.6815577946104945,-2.5264514128314417,2.2814571100422363,-1.0170615355121058,0.15848398208618164
1708438161.9773684,-1.105799674987793,-1.6816235981383265,-2.5264437834369105,2.281444235438965,-1.0170171896563929,0.15852439403533936
1708438161.9793696,-1.1057584285736084,-1.6815501652159632,-2.5264437834369105,2.281387968654297,-1.017029110585348,0.15850022435188293
1708438161.981388,-1.1058372259140015,-1.681568285027975,-2.5264182726489466,2.281444235438965,-1.0170539061175745,0.15846340358257294
1708438161.9834769,-1.1057746410369873,-1.6815453968443812,-2.5264106432544153,2.281416102046631,-1.016996208821432,0.1584349423646927
1708438161.9853985,-1.1058166027069092,-1.6815206013121546,-2.526452604924337,2.2814323145100097,-1.017012898121969,0.158512145280838
1708438161.9873927,-1.1058447360992432,-1.681584974328512,-2.5264273325549524,2.2814604479023437,-1.0170705954181116,0.15850023925304413
1708438161.9893754,-1.1057953834533691,-1.6815773449339808,-2.5264437834369105,2.281428022975586,-1.0170453230487269,0.15847095847129822
1708438161.9913905,-1.1057584285736084,-1.6816073856749476,-2.5264604727374476,2.281407518977783,-1.0170701185809534,0.1584555208683014
1708438161.993425,-1.1058166027069092,-1.6815864048399867,-2.5264228026019495,2.2814528185078125,-1.0170453230487269,0.15846340358257294
1708438161.995396,-1.105820894241333,-1.6815906963744105,-2.5264604727374476,2.281501455897949,-1.0170376936541956,0.15848283469676971
1708438161.9973621,-1.105771541595459,-1.681540151635641,-2.5264468828784388,2.2814203935810546,-1.0170539061175745,0.15846776962280273
1708438161.9994369,-1.1057466268539429,-1.681589265862936,-2.5264604727374476,2.281444235438965,-1.0170453230487269,0.15850022435188293
1708438162.0013561,-1.1058040857315063,-1.6815129719176234,-2.5264151732074183,2.281444235438965,-1.0170086065875452,0.15845990180969238
1708438162.0033798,-1.1058239936828613,-1.6815773449339808,-2.5264273325549524,2.281428022975586,-1.0170453230487269,0.15847206115722656
1708438162.0053475,-1.105771541595459,-1.6815277538695277,-2.5264301935779017,2.2813750940510253,-1.0170052687274378,0.15847206115722656
1708438162.0073586,-1.105820894241333,-1.6815906963744105,-2.5264392534839075,2.2814604479023437,-1.0170615355121058,0.15846771001815796
1708438162.0093565,-1.105799674987793,-1.6815906963744105,-2.5264437834369105,2.281428022975586,-1.0170367399798792,0.15852870047092438
1708438162.011346,-1.1057822704315186,-1.6816069088377894,-2.5264437834369105,2.2814366060444335,-1.0170300642596644,0.1585286557674408
1708438162.0134,-1.1057509183883667,-1.6815535030760707,-2.5264018217669886,2.281439943904541,-1.0170376936541956,0.15848401188850403
1708438162.0153553,-1.1058372259140015,-1.6815906963744105,-2.5264182726489466,2.281444235438965,-1.0170496145831507,0.1585417538881302
1708438162.017379,-1.1058077812194824,-1.6815253696837367,-2.5264483133899134,2.281435652370117,-1.0170248190509241,0.15850022435188293
1708438162.0193598,-1.1057953834533691,-1.6815368137755335,-2.5264647642718714,2.281411810512207,-1.0170334021197718,0.15852439403533936
1708438162.0213587,-1.1057628393173218,-1.681573053399557,-2.5264514128314417,2.281444235438965,-1.0170581976519983,0.15850777924060822
1708438162.0233827,-1.105799674987793,-1.6815935573973597,-2.5264692942248743,2.2814041811176757,-1.0170539061175745,0.15848828852176666
1708438162.0253983,-1.1057746410369873,-1.6816073856749476,-2.5263972918139856,2.281379385585449,-1.0170214811908167,0.1584709882736206
1708438162.027411,-1.1057628393173218,-1.6815773449339808,-2.5264392534839075,2.2814041811176757,-1.0170205275165003,0.15849164128303528
1708438162.029419,-1.1058077812194824,-1.6815296612181605,-2.5264437834369105,2.2814528185078125,-1.0170052687274378,0.15841880440711975
1708438162.0313966,-1.1057791709899902,-1.681573053399557,-2.5264139811145228,2.2814106184193115,-1.0170376936541956,0.15844251215457916
1708438162.0334122,-1.1057908535003662,-1.6815277538695277,-2.5264514128314417,2.281473322505615,-1.0170539061175745,0.15845471620559692
1708438162.0353804,-1.105799674987793,-1.681554456750387,-2.5264723936664026,2.2813913065144042,-1.0170376936541956,0.1584753543138504
1708438162.0373693,-1.10576593875885,-1.6815444431700648,-2.5264256636248987,2.281423731441162,-1.017012898121969,0.15847532451152802
1708438162.039424,-1.1058253049850464,-1.6815501652159632,-2.5264228026019495,2.2814604479023437,-1.017029110585348,0.1584555208683014
1708438162.0413873,-1.1057629585266113,-1.6815115414061488,-2.5264273325549524,2.2814690309711914,-1.0170171896563929,0.15849590301513672
1708438162.0434067,-1.1057746410369873,-1.6815501652159632,-2.5264766852008265,2.281444235438965,-1.0170171896563929,0.15849590301513672
1708438162.04536,-1.1058521270751953,-1.6815296612181605,-2.5264468828784388,2.281465931529663,-1.017029110585348,0.15850022435188293
1708438162.047364,-1.1057953834533691,-1.6815535030760707,-2.5264106432544153,2.2814246851154785,-1.0170419851886194,0.15850022435188293
1708438162.0494382,-1.1057865619659424,-1.681554456750387,-2.5264347235309046,2.281444235438965,-1.0170376936541956,0.1584959179162979
1708438162.051381,-1.105771541595459,-1.6815906963744105,-2.5264228026019495,2.2814647394367675,-1.0170038382159632,0.15848718583583832
1708438162.05335,-1.1057672500610352,-1.6815368137755335,-2.5264392534839075,2.2814203935810546,-1.0170496145831507,0.15852080285549164
1708438162.055364,-1.105837106704712,-1.6815082035460414,-2.5264106432544153,2.281473322505615,-1.0170453230487269,0.15850456058979034
1708438162.057395,-1.1058077812194824,-1.6815906963744105,-2.5264723936664026,2.2814246851154785,-1.0169966856585901,0.15848398208618164
1708438162.0594194,-1.105787754058838,-1.6814948521056117,-2.5264273325549524,2.281387968654297,-1.0170539061175745,0.15848398208618164
1708438162.06138,-1.1057791709899902,-1.681540151635641,-2.5264273325549524,2.2814485269733886,-1.0170658270465296,0.15846773982048035
1708438162.0634027,-1.1058359146118164,-1.6815501652159632,-2.5264273325549524,2.2814151483723144,-1.0170705954181116,0.15842297673225403
1708438162.0653589,-1.105771541595459,-1.6815296612181605,-2.5264559427844446,2.2814604479023437,-1.017012898121969,0.15850022435188293
1708438162.0673928,-1.1057703495025635,-1.6815453968443812,-2.5264723936664026,2.2814766603657226,-1.0170171896563929,0.1584642231464386
1708438162.0693655,-1.1058123111724854,-1.6815453968443812,-2.5264483133899134,2.2814485269733886,-1.0170171896563929,0.15845122933387756
1708438162.0713553,-1.105832815170288,-1.6815949879088343,-2.5264106432544153,2.281493826503418,-1.0170367399798792,0.15846773982048035
1708438162.0733762,-1.105799674987793,-1.6815368137755335,-2.5264437834369105,2.281444235438965,-1.0170334021197718,0.15850022435188293
1708438162.0753853,-1.1057953834533691,-1.681509634057516,-2.5263899008380335,2.2814766603657226,-1.0170376936541956,0.1584503948688507
1708438162.07743,-1.1058285236358643,-1.6815906963744105,-2.5264318625079554,2.2814928728291015,-1.0170453230487269,0.15848830342292786
1708438162.0793939,-1.105771541595459,-1.6815253696837367,-2.5264678637133997,2.281468077296875,-1.0170581976519983,0.15852077305316925
1708438162.0813835,-1.1058239936828613,-1.6815010509886683,-2.5264483133899134,2.281435652370117,-1.0170052687274378,0.1584349423646927
1708438162.083368,-1.1058034896850586,-1.6815220318236292,-2.5263972918139856,2.281411810512207,-1.0170419851886194,0.15848398208618164
1708438162.08537,-1.1058077812194824,-1.6815277538695277,-2.5264139811145228,2.281501455897949,-1.0170171896563929,0.15851645171642303
1708438162.087372,-1.1058285236358643,-1.6815411053099574,-2.5264514128314417,2.281468077296875,-1.0170453230487269,0.15845118463039398
1708438162.0893693,-1.1058565378189087,-1.6815668545165003,-2.5264468828784388,2.2814387518116455,-1.0170496145831507,0.15849269926548004
1708438162.0914037,-1.1057746410369873,-1.6815411053099574,-2.5264151732074183,2.2814885812946777,-1.0170171896563929,0.15846773982048035
1708438162.0934381,-1.1058403253555298,-1.68150057415151,-2.5264347235309046,2.2814203935810546,-1.017029110585348,0.1584555059671402
1708438162.095381,-1.1057822704315186,-1.6816159687437953,-2.5264106432544153,2.281423731441162,-1.0170581976519983,0.15847967565059662
1708438162.097407,-1.1058491468429565,-1.6814962826170863,-2.5264392534839075,2.2814928728291015,-1.0170419851886194,0.15850448608398438
1708438162.099402,-1.1058359146118164,-1.6816207371153773,-2.5264228026019495,2.281447573299072,-1.0170658270465296,0.1584317684173584
1708438162.1013575,-1.1058316230773926,-1.681563516656393,-2.5264106432544153,2.2814194399067382,-1.0170052687274378,0.15854163467884064
1708438162.1033676,-1.1058316230773926,-1.6815368137755335,-2.5264678637133997,2.2814647394367675,-1.017057243977682,0.15849696099758148
1708438162.1053846,-1.1058109998703003,-1.6815444431700648,-2.5264559427844446,2.2814809519001464,-1.0170615355121058,0.15848396718502045
1708438162.1074026,-1.1058316230773926,-1.6815535030760707,-2.526454273854391,2.2814151483723144,-1.0170820395099085,0.1584511548280716
1708438162.1093693,-1.1058392524719238,-1.6815296612181605,-2.5264092127429407,2.2815183836170654,-1.0170868078814905,0.15845118463039398
1708438162.1113503,-1.1057865619659424,-1.6815296612181605,-2.52640945116152,2.28147999822583,-1.0170248190509241,0.1584511548280716
1708438162.1133797,-1.1058403253555298,-1.6815172634520472,-2.5264843145953577,2.28150121747937,-1.0170539061175745,0.15845118463039398
1708438162.115352,-1.1058273315429688,-1.6815172634520472,-2.5264843145953577,2.2815098005482177,-1.0170171896563929,0.15844686329364777
1708438162.1173837,-1.1058965921401978,-1.6815253696837367,-2.526463333760397,2.281475468272827,-1.0170214811908167,0.1584392637014389
1708438162.119361,-1.1057865619659424,-1.6814948521056117,-2.5264347235309046,2.281463785762451,-1.0170114676104944,0.158418670296669
1708438162.1213875,-1.1058522462844849,-1.6815625629820765,-2.5264514128314417,2.281484289760254,-1.0170157591449183,0.15845990180969238
1708438162.1233795,-1.1058359146118164,-1.6815625629820765,-2.5264273325549524,2.281463785762451,-1.0170248190509241,0.15845991671085358
1708438162.1254008,-1.105876088142395,-1.6814753017821253,-2.5264347235309046,2.2814549642750244,-1.0170496145831507,0.158431738615036
1708438162.1274145,-1.1058392524719238,-1.6815129719176234,-2.526404921208517,2.28147999822583,-1.017041031514303,0.1584479659795761
1708438162.1293492,-1.10586416721344,-1.681512018243307,-2.5264514128314417,2.2814387518116455,-1.0170038382159632,0.1584729105234146
1708438162.1313725,-1.1058597564697266,-1.6815453968443812,-2.5264018217669886,2.281468077296875,-1.0170367399798792,0.15850140154361725
1708438162.1333861,-1.1058143377304077,-1.6815453968443812,-2.526463333760397,2.281475468272827,-1.0171015898333948,0.1584230214357376
1708438162.1353827,-1.1058673858642578,-1.6814905605711878,-2.5264185110675257,2.281517429942749,-1.0170615355121058,0.1584642082452774
1708438162.1374168,-1.1058392524719238,-1.6815949879088343,-2.526463333760397,2.281468077296875,-1.017057243977682,0.15845990180969238
1708438162.1393912,-1.105892300605774,-1.681540151635641,-2.5264723936664026,2.2814549642750244,-1.0170367399798792,0.158431738615036
1708438162.141355,-1.1059008836746216,-1.6815387211241664,-2.5264468828784388,2.2814969259449462,-1.0170367399798792,0.1584349125623703
1708438162.1433737,-1.1058835983276367,-1.68150057415151,-2.526463333760397,2.2815205293842773,-1.0170992056476038,0.1583794355392456
1708438162.1453903,-1.1058154106140137,-1.6815296612181605,-2.526442352925436,2.2814923959919433,-1.0170319716082972,0.158431738615036
1708438162.1474078,-1.1058597564697266,-1.6815129719176234,-2.5264931360827845,2.2815324503132324,-1.017029110585348,0.15839572250843048
1708438162.1493733,-1.1058716773986816,-1.6815453968443812,-2.5264468828784388,2.281491442317627,-1.017069164906637,0.1584130972623825
1708438162.1513574,-1.1058305501937866,-1.6814919910826625,-2.5264888445483606,2.281479521388672,-1.0170777479754847,0.1583794802427292
1708438162.1533904,-1.1058348417282104,-1.6815039120116175,-2.5264514128314417,2.2814461427875976,-1.0170858542071741,0.15838496387004852
1708438162.1553557,-1.1058716773986816,-1.6815172634520472,-2.5264678637133997,2.2815205293842773,-1.0170858542071741,0.15836085379123688
1708438162.1573598,-1.105879306793213,-1.6815220318236292,-2.52643329301943,2.2815324503132324,-1.0170772711383265,0.15828248858451843
1708438162.1593924,-1.105896234512329,-1.6815368137755335,-2.526470724736349,2.2815064626881103,-1.0170930067645472,0.15829987823963165
1708438162.1613836,-1.1058542728424072,-1.6815339527525843,-2.52651292482485,2.2815562921711425,-1.0170844236956995,0.1582760065793991
1708438162.1633937,-1.105912446975708,-1.6815577946104945,-2.5265608469592493,2.2815562921711425,-1.0170772711383265,0.15826742351055145
1708438162.165396,-1.105896234512329,-1.6815501652159632,-2.5265517870532435,2.281592531795166,-1.0171011129962366,0.15825439989566803
1708438162.1674383,-1.105896234512329,-1.68150057415151,-2.5265968481646937,2.2815422254749755,-1.0171130339251917,0.15832042694091797
1708438162.169407,-1.1059242486953735,-1.6815082035460414,-2.5265756289111536,2.2816576200672607,-1.0171259085284632,0.15827174484729767
1708438162.1713965,-1.105896234512329,-1.6815253696837367,-2.526609007512228,2.281665011043213,-1.017120663319723,0.15833339095115662
1708438162.1733794,-1.105928659439087,-1.6815296612181605,-2.526587788258688,2.281582995052002,-1.0171011129962366,0.15824690461158752
1708438162.1754057,-1.1059036254882812,-1.6814633808531703,-2.526595417653219,2.2815753656574707,-1.0170930067645472,0.15828903019428253
1708438162.1773732,-1.1059036254882812,-1.6815477810301722,-2.526628319417135,2.281632586116455,-1.0171054045306605,0.15824785828590393
1708438162.1794047,-1.105912446975708,-1.6814843616881312,-2.5265939871417444,2.2816206651875,-1.017163101826803,0.15829332172870636
1708438162.181405,-1.1058874130249023,-1.6814724407591761,-2.5265894571887415,2.2816240030476074,-1.0171378294574183,0.15829335153102875
1708438162.1833987,-1.1058874130249023,-1.6815053425230921,-2.5266552607165735,2.281632586116455,-1.0171368757831019,0.15825217962265015
1708438162.1853716,-1.105879306793213,-1.681465288201803,-2.526635710393087,2.2815796571918945,-1.017160717641012,0.15821510553359985
1708438162.1874242,-1.1059361696243286,-1.6814857921996058,-2.5266476313220423,2.2815753656574707,-1.017148796712057,0.15827704966068268
1708438162.1893861,-1.1059198379516602,-1.6814772091307582,-2.5266552607165735,2.281604452724121,-1.0171030203448694,0.15824902057647705
1708438162.1913712,-1.1058917045593262,-1.681493421594137,-2.526635710393087,2.2816120821186523,-1.0171902815448206,0.15824900567531586
1708438162.1934285,-1.1059155464172363,-1.6814724407591761,-2.5266626516925257,2.2816154199787597,-1.0172155539142054,0.1582324504852295
1708438162.1953921,-1.1058874130249023,-1.681460519830221,-2.5266552607165735,2.2815958696552734,-1.017160717641012,0.15824460983276367
1708438162.1974003,-1.1058993339538574,-1.6814724407591761,-2.5266462008105677,2.2816034990498046,-1.0171650091754358,0.1582237035036087
1708438162.199368,-1.105883002281189,-1.681526323358053,-2.5266101996051233,2.2816521364399414,-1.017193619404928,0.15822485089302063
1708438162.2013514,-1.1059449911117554,-1.6815082035460414,-2.5266640822040003,2.2816197115131835,-1.017205540333883,0.15821292996406555
1708438162.2033665,-1.105928659439087,-1.6815067730345667,-2.5266805330859583,2.281656427974365,-1.0171969572650355,0.15822052955627441
1708438162.2053616,-1.105894923210144,-1.6814857921996058,-2.5266507307635706,2.2816359239765625,-1.0172165075885218,0.1581638604402542
1708438162.2073681,-1.1059198379516602,-1.6815387211241664,-2.526682202016012,2.281599207515381,-1.0172770659076136,0.15821735560894012
1708438162.2093685,-1.1059529781341553,-1.681498189965719,-2.526641909276144,2.2816402155109863,-1.017240349446432,0.15821735560894012
1708438162.2113342,-1.1059606075286865,-1.6815067730345667,-2.526707712803976,2.2816945749470214,-1.0173056761371058,0.15817372500896454
1708438162.2133608,-1.1059229373931885,-1.681460519830221,-2.5266597906695765,2.2816225725361328,-1.017297093068258,0.1581159383058548
1708438162.2153292,-1.1059404611587524,-1.6814786396422328,-2.52667481104006,2.2816945749470214,-1.0173786322223108,0.1581563651561737
1708438162.2173753,-1.1059274673461914,-1.6814662418761195,-2.526679340993063,2.2816387849995117,-1.017353359852926,0.15814445912837982
1708438162.2193735,-1.1059361696243286,-1.6814333401122035,-2.5266581217395228,2.281651421184204,-1.01738149324526,0.15811161696910858
1708438162.2213778,-1.1059186458587646,-1.6814381084837855,-2.526691261922018,2.2816683489033203,-1.0173566977130335,0.1581290066242218
1708438162.2234068,-1.1059398651123047,-1.6814137897887171,-2.52667481104006,2.281705065364502,-1.0173481146441858,0.1580996960401535
1708438162.225372,-1.1059443950653076,-1.6813599071898402,-2.52667481104006,2.2817584711262207,-1.0173566977130335,0.15807561576366425
1708438162.2273986,-1.1058861017227173,-1.6814185581602992,-2.526686731969015,2.281655712718628,-1.0174182097064417,0.15810060501098633
1708438162.2293596,-1.1059311628341675,-1.6813932857909144,-2.526691261922018,2.281716986293457,-1.0174091498004358,0.15806810557842255
1708438162.2313702,-1.105959415435791,-1.681422849694723,-2.526686731969015,2.281728907222412,-1.017404858266012,0.1580810844898224
1708438162.2333918,-1.1059679985046387,-1.681401868859762,-2.52669865289797,2.281778259868286,-1.0174091498004358,0.15808868408203125
1708438162.235379,-1.1059268712997437,-1.6813732586302699,-2.526703182850973,2.2817653852650146,-1.0174287001239222,0.15801577270030975
1708438162.2373703,-1.1059637069702148,-1.6813599071898402,-2.526677672063009,2.281756563777588,-1.017416779194967,0.15803644061088562
1708438162.2393577,-1.1059517860412598,-1.6813527546324671,-2.5267723242389124,2.2818021017261962,-1.0174525419818323,0.1580648422241211
1708438162.241417,-1.1059229373931885,-1.681361814538473,-2.526707712803976,2.2817815977283935,-1.0174534956561487,0.15804076194763184
1708438162.2433832,-1.1059229373931885,-1.6813494167723597,-2.526715103779928,2.281784697169922,-1.01746112505068,0.15806134045124054
1708438162.2453551,-1.1059229373931885,-1.6813909016051234,-2.52669865289797,2.281768484706543,-1.0174439589129847,0.15804938971996307
1708438162.2473676,-1.1059355735778809,-1.6813527546324671,-2.5267227331744593,2.281796618098877,-1.0174720923053187,0.1580047607421875
1708438162.24937,-1.1059198379516602,-1.68133606533193,-2.526703182850973,2.281824751491211,-1.0174687544452112,0.1579754501581192
1708438162.251372,-1.1059361696243286,-1.681328912774557,-2.526727263127462,2.2818171220966796,-1.0174558798419397,0.15798093378543854
1708438162.25336,-1.1059311628341675,-1.681394716302389,-2.5267632643329065,2.281824751491211,-1.0174720923053187,0.1580299586057663
1708438162.2553802,-1.1059274673461914,-1.6813208065428675,-2.5267391840564173,2.2818290430256347,-1.0175212065326136,0.15800592303276062
1708438162.25743,-1.105972409248352,-1.681345125237936,-2.5267513434039515,2.281747027034424,-1.0175569693194788,0.15798087418079376
1708438162.2593641,-1.1059311628341675,-1.6813494167723597,-2.5267797152148646,2.2817675310322265,-1.0174997488604944,0.15797223150730133
1708438162.261386,-1.1059398651123047,-1.6813732586302699,-2.5268049875842493,2.28174798070874,-1.017524544392721,0.15796113014221191
1708438162.2633855,-1.1059768199920654,-1.6813904247679652,-2.5267842451678675,2.2818161684223632,-1.017536465321676,0.157944917678833
1708438162.2653744,-1.105972409248352,-1.6813684902586878,-2.5267632643329065,2.2818333345600585,-1.0175812880145472,0.157931849360466
1708438162.2674038,-1.1060011386871338,-1.6813575230040492,-2.5267871061908167,2.2817773061939697,-1.01756459871401,0.15792085230350494
1708438162.269409,-1.1059843301773071,-1.681345125237936,-2.5267961660968226,2.2817999559589843,-1.0175688902484339,0.15796642005443573
1708438162.2713966,-1.1059517860412598,-1.6813165150084437,-2.5267213026629847,2.281824751491211,-1.0175440947162073,0.15794162452220917
1708438162.2733738,-1.1059799194335938,-1.6813527546324671,-2.5267825762378138,2.2818290430256347,-1.0175812880145472,0.15790490806102753
1708438162.2753563,-1.105954885482788,-1.6813684902586878,-2.5268035570727747,2.281792326564453,-1.0176337401019495,0.15788528323173523
1708438162.2773912,-1.1059311628341675,-1.6814032993712367,-2.526815954838888,2.2818075853535156,-1.0175798575030726,0.1579102724790573
1708438162.2793844,-1.1059925556182861,-1.6813684902586878,-2.526799027119772,2.2818290430256347,-1.0175841490374964,0.15787747502326965
1708438162.2813807,-1.1059679985046387,-1.68133606533193,-2.5267980734454554,2.281820459956787,-1.0176008383380335,0.1578121781349182
1708438162.2833927,-1.1059925556182861,-1.6813775501646937,-2.526806894932882,2.2817436891743164,-1.017559830342428,0.15790702402591705
1708438162.285365,-1.10597562789917,-1.6814037762083949,-2.526820484791891,2.281804247493408,-1.0176246801959437,0.15786239504814148
1708438162.2873762,-1.1059430837631226,-1.681345125237936,-2.526799027119772,2.2817751604267578,-1.0176485220538538,0.15779276192188263
1708438162.2893744,-1.1059517860412598,-1.681333681146139,-2.526815954838888,2.2817837434956054,-1.0175955931292933,0.15781646966934204
1708438162.2913835,-1.1059430837631226,-1.681394716302389,-2.526839796696798,2.2818614679523925,-1.017616097127096,0.15786661207675934
1708438162.293388,-1.1060011386871338,-1.6813527546324671,-2.526818815861837,2.281832380885742,-1.0176475683795374,0.15777647495269775
1708438162.2953572,-1.1060174703598022,-1.6813575230040492,-2.526844326649801,2.2817999559589843,-1.01770526567568,0.15779277682304382
1708438162.297369,-1.1059837341308594,-1.6813403568663539,-2.52682334581484,2.2817513185688476,-1.017721954976217,0.15781328082084656
1708438162.2993796,-1.1059925556182861,-1.6813317737975062,-2.5268145243274134,2.2818192678638916,-1.0176757017718714,0.1578143835067749
1708438162.3013518,-1.106024980545044,-1.6813575230040492,-2.52682334581484,2.281869812602661,-1.0176637808429163,0.15774483978748322
1708438162.3033888,-1.1060174703598022,-1.6813661060728968,-2.526811424885885,2.2817718225666503,-1.0177000204669397,0.15772074460983276
1708438162.3054101,-1.1059668064117432,-1.6813661060728968,-2.52682334581484,2.2818612295338134,-1.0177577177630823,0.15776540338993073
1708438162.3073816,-1.105959415435791,-1.681394716302389,-2.5268026033984583,2.2818280893513183,-1.0177033583270472,0.15776219964027405
1708438162.3094237,-1.1059799194335938,-1.6813732586302699,-2.5267935434924524,2.281853123302124,-1.01772386232485,0.15770010650157928
1708438162.3113518,-1.105954885482788,-1.681345125237936,-2.526853148137228,2.281848593349121,-1.0177596251117151,0.15774564445018768
1708438162.3134177,-1.1059880256652832,-1.681307931939596,-2.526832405720846,2.2818354803272705,-1.017763916646139,0.1577337086200714
1708438162.3153713,-1.105954885482788,-1.6813661060728968,-2.5268264452563685,2.2818192678638916,-1.0177596251117151,0.15772616863250732
1708438162.3173995,-1.1060130596160889,-1.6813856563963832,-2.526832405720846,2.2818030554005126,-1.0177519957171839,0.15766838192939758
1708438162.3193905,-1.106008768081665,-1.6813775501646937,-2.526820484791891,2.2818655210682373,-1.0177844206439417,0.15770553052425385
1708438162.3213475,-1.105971097946167,-1.6813527546324671,-2.526835266743795,2.2818192678638916,-1.0177715460406702,0.15765655040740967
1708438162.3234203,-1.1059880256652832,-1.68143953899526,-2.526839796696798,2.281766338939331,-1.0177267233477991,0.1576814502477646
1708438162.3254387,-1.1059880256652832,-1.6813684902586878,-2.5268636385547083,2.2818149763294677,-1.0177386442767542,0.15759240090847015
1708438162.3274117,-1.1060413122177124,-1.6813494167723597,-2.5268636385547083,2.2818237978168945,-1.0177844206439417,0.15764547884464264
1708438162.3294034,-1.1060324907302856,-1.6813732586302699,-2.526835266743795,2.281836672420166,-1.0177314917193812,0.1576303392648697
1708438162.3313975,-1.1059925556182861,-1.6813990078368128,-2.52686053911318,2.2818400102802734,-1.0177844206439417,0.1576184332370758
1708438162.3334463,-1.1059837341308594,-1.6813537083067835,-2.5268412272082728,2.2818161684223632,-1.0177844206439417,0.15758563578128815
1708438162.335388,-1.106004238128662,-1.6813661060728968,-2.5268755594836634,2.281832380885742,-1.01774770418276,0.15756510198116302
1708438162.3374314,-1.1060194969177246,-1.6813575230040492,-2.5268800894366663,2.281820459956787,-1.0177682081805628,0.1575617790222168
1708438162.3394065,-1.1060118675231934,-1.6813732586302699,-2.5268755594836634,2.2818774419971923,-1.0177801291095179,0.15753795206546783
1708438162.3413672,-1.105991244316101,-1.6813661060728968,-2.5268128553973597,2.2818612295338134,-1.017817799245016,0.1574932038784027
1708438162.3433862,-1.1059925556182861,-1.6813990078368128,-2.5268545786487024,2.281844301814697,-1.0178220907794397,0.1575138419866562
1708438162.345381,-1.1059625148773193,-1.6813575230040492,-2.5268591086017054,2.2817913728901367,-1.0177801291095179,0.15750624239444733
1708438162.347376,-1.1060161590576172,-1.68133606533193,-2.5268307367907923,2.2818192678638916,-1.017763916646139,0.1574615240097046
1708438162.349349,-1.1059956550598145,-1.6813904247679652,-2.5268591086017054,2.28188602506604,-1.0177801291095179,0.1574258655309677
1708438162.3513534,-1.1060161590576172,-1.6813775501646937,-2.5268471876727503,2.2818161684223632,-1.0178001562701624,0.157381072640419
1708438162.3534102,-1.1059925556182861,-1.6813575230040492,-2.526839796696798,2.2817751604267578,-1.0177796522723597,0.15736569464206696
1708438162.3553572,-1.1060161590576172,-1.6813317737975062,-2.5268381277667444,2.281902237529419,-1.0178340117083948,0.1574104130268097
1708438162.3573697,-1.1059999465942383,-1.6813866100706996,-2.5268517176257532,2.281848593349121,-1.0177715460406702,0.157316654920578
1708438162.3593597,-1.106024980545044,-1.6813537083067835,-2.5268591086017054,2.2817751604267578,-1.0177672545062464,0.15733841061592102
1708438162.3613696,-1.1059837341308594,-1.6813379726805628,-2.5268307367907923,2.2818612295338134,-1.0177882353412073,0.1572904884815216
1708438162.3633845,-1.106008768081665,-1.6813584766783656,-2.526867930089132,2.2818118768879394,-1.0177882353412073,0.1572338491678238
1708438162.365372,-1.1060075759887695,-1.6813246212401332,-2.5269010702716272,2.2818280893513183,-1.017824951802389,0.1572338491678238
1708438162.3673892,-1.105947494506836,-1.6813470325865687,-2.5268307367907923,2.281848116511963,-1.017813507710592,0.15716536343097687
1708438162.3693686,-1.1059625148773193,-1.6814032993712367,-2.5268755594836634,2.2818524080463867,-1.017775837575094,0.15717408061027527
1708438162.3713741,-1.1060118675231934,-1.6813527546324671,-2.5269010702716272,2.2817794519611816,-1.0177715460406702,0.1571340262889862
1708438162.3733826,-1.105954885482788,-1.6813203297057093,-2.5268338362323206,2.2817956644245605,-1.017775837575094,0.15711016952991486
1708438162.3774254,-1.1060367822647095,-1.6813732586302699,-2.5268591086017054,2.2818075853535156,-1.0178044478045862,0.15705542266368866
1708438162.3793676,-1.1059956550598145,-1.6812616787352503,-2.5269010702716272,2.2818569379993896,-1.0177882353412073,0.15703167021274567
1708438162.3813674,-1.1059999465942383,-1.6813537083067835,-2.5268755594836634,2.2817913728901367,-1.0178001562701624,0.15700210630893707
1708438162.3834257,-1.105979323387146,-1.6813165150084437,-2.5268664995776575,2.2818524080463867,-1.0177629629718226,0.1569584757089615
1708438162.3853893,-1.1059837341308594,-1.6813527546324671,-2.5268262068377894,2.281844301814697,-1.0177672545062464,0.15696287155151367
1708438162.3873935,-1.1060205698013306,-1.6813494167723597,-2.5268219153033655,2.2818118768879394,-1.0177844206439417,0.15687455236911774
1708438162.3893678,-1.1060161590576172,-1.6813403568663539,-2.52688438097109,2.2818354803272705,-1.0178001562701624,0.15688326954841614
1708438162.3913512,-1.105958104133606,-1.6813990078368128,-2.5268800894366663,2.281852884883545,-1.0177882353412073,0.15681910514831543
1708438162.3933752,-1.1060161590576172,-1.6813575230040492,-2.5268920103656214,2.2817868429371337,-1.0177925268756312,0.1567995846271515
1708438162.3953524,-1.1059956550598145,-1.6813904247679652,-2.526872460042135,2.281848593349121,-1.0177958647357386,0.15669862926006317
1708438162.3974657,-1.106004238128662,-1.681361814538473,-2.5268753210650843,2.28184096395459,-1.0177839438067835,0.1567072719335556
1708438162.399379,-1.106024980545044,-1.681394716302389,-2.526856247578756,2.2818400102802734,-1.017841641102926,0.15662653744220734
1708438162.401347,-1.1059880256652832,-1.6813732586302699,-2.526856247578756,2.2818118768879394,-1.0177839438067835,0.15657004714012146
1708438162.4033494,-1.106008768081665,-1.6813484630980433,-2.5268264452563685,2.2818655210682373,-1.0178001562701624,0.1565351039171219
1708438162.4053721,-1.1059869527816772,-1.681410928765768,-2.526818815861837,2.2818354803272705,-1.0177796522723597,0.15645869076251984
1708438162.40737,-1.106008768081665,-1.6813684902586878,-2.5268545786487024,2.281848593349121,-1.0177958647357386,0.15639491379261017
1708438162.4093378,-1.105979323387146,-1.6813527546324671,-2.526856247578756,2.2818311887928466,-1.0177715460406702,0.15631842613220215
1708438162.4113724,-1.1059925556182861,-1.681394716302389,-2.5268099943744105,2.2818569379993896,-1.0178044478045862,0.15628275275230408
1708438162.4133592,-1.1060205698013306,-1.6813990078368128,-2.526839796696798,2.28184096395459,-1.017796818410055,0.15621934831142426
1708438162.4153748,-1.105991244316101,-1.6813527546324671,-2.526835266743795,2.28188602506604,-1.0177314917193812,0.15617139637470245
1708438162.4173746,-1.1060280799865723,-1.6813866100706996,-2.5268099943744105,2.2817868429371337,-1.0177391211139124,0.15612459182739258
1708438162.4193575,-1.1060529947280884,-1.681394716302389,-2.52682334581484,2.2818192678638916,-1.017735783253805,0.15599516034126282
1708438162.4213731,-1.105959415435791,-1.6813990078368128,-2.526835266743795,2.2817956644245605,-1.0177648703204554,0.15591555833816528
1708438162.4233809,-1.1060161590576172,-1.6813165150084437,-2.526835266743795,2.2818290430256347,-1.017707649861471,0.15580245852470398
1708438162.4253783,-1.105979323387146,-1.681328912774557,-2.5268681685077112,2.281852884883545,-1.0176919142352503,0.15578041970729828
1708438162.4273925,-1.10597562789917,-1.6813122234740199,-2.5268190542804163,2.2818400102802734,-1.0177324453936976,0.1556597650051117
1708438162.4293556,-1.1059837341308594,-1.6813856563963832,-2.5268381277667444,2.281852884883545,-1.0177086035357874,0.15557177364826202
1708438162.4313774,-1.1060280799865723,-1.6813575230040492,-2.5268755594836634,2.28184096395459,-1.0177205244647425,0.15544307231903076
1708438162.4333594,-1.1059925556182861,-1.6813494167723597,-2.526785437260763,2.281836672420166,-1.0176680723773401,0.15532347559928894
1708438162.4353716,-1.1060205698013306,-1.6814319096007289,-2.5267980734454554,2.2818612295338134,-1.0177248159991663,0.15529724955558777
1708438162.4374108,-1.1060118675231934,-1.6813823185362757,-2.526835266743795,2.2818237978168945,-1.0176714102374476,0.15515699982643127
1708438162.4393551,-1.1060205698013306,-1.681333681146139,-2.5268142859088343,2.281776114101074,-1.0176594893084925,0.15502393245697021
1708438162.4413784,-1.105954885482788,-1.681345125237936,-2.526869599019186,2.281804247493408,-1.017700497304098,0.15490400791168213
1708438162.4433477,-1.1059668064117432,-1.681361814538473,-2.52682334581484,2.2817632394978027,-1.0176799933062952,0.15477252006530762
1708438162.4453518,-1.106008768081665,-1.681410928765768,-2.5268035570727747,2.2817837434956054,-1.0176518599139612,0.15465711057186127
1708438162.4473562,-1.10599684715271,-1.6813584766783656,-2.526815954838888,2.28184096395459,-1.0176637808429163,0.15456216037273407
1708438162.4493592,-1.1059925556182861,-1.6813856563963832,-2.526827875767843,2.2817956644245605,-1.0176146666156214,0.15440666675567627
1708438162.4513664,-1.105971097946167,-1.6813527546324671,-2.5268035570727747,2.2818118768879394,-1.01764423051943,0.15431074798107147
1708438162.4533834,-1.105958104133606,-1.6813661060728968,-2.526794497166769,2.281836672420166,-1.017604176198141,0.1541745960712433
1708438162.455347,-1.1059956550598145,-1.6813494167723597,-2.526778046284811,2.281848593349121,-1.0175641218768519,0.15409961342811584
1708438162.457365,-1.1060367822647095,-1.6813823185362757,-2.526778046284811,2.2818118768879394,-1.0175727049456995,0.1539764255285263
1708438162.459369,-1.1059956550598145,-1.6813751659789027,-2.5267661253558558,2.2818237978168945,-1.0175560156451624,0.1538575142621994
1708438162.4613605,-1.1060324907302856,-1.681364198724264,-2.5267871061908167,2.2817837434956054,-1.0174949804889124,0.15363897383213043
1708438162.4633722,-1.105979323387146,-1.6813441715636195,-2.5267542044269007,2.2818192678638916,-1.0175483862506312,0.1535082459449768
1708438162.4653594,-1.1059707403182983,-1.6813751659789027,-2.5267513434039515,2.281808539027832,-1.0175002256976526,0.1533604860305786
1708438162.467355,-1.1059837341308594,-1.681410928765768,-2.5267513434039515,2.2817956644245605,-1.0174973646747034,0.15317650139331818
1708438162.4693398,-1.1060161590576172,-1.6814271412291468,-2.5267604033099573,2.2818075853535156,-1.0174644629107874,0.15298940241336823
1708438162.4713392,-1.1059956550598145,-1.6813823185362757,-2.5267558733569544,2.2817956644245605,-1.0174201170550745,0.15283237397670746
1708438162.473347,-1.1060324907302856,-1.6813751659789027,-2.526727263127462,2.2818009096333007,-1.0174363295184534,0.15263186395168304
1708438162.4753706,-1.1059999465942383,-1.6813866100706996,-2.526757303868429,2.281808539027832,-1.017449204121725,0.15248079597949982
1708438162.47738,-1.106008768081665,-1.6813708744444789,-2.526677672063009,2.281848593349121,-1.0173800627337855,0.15235869586467743
1708438162.479357,-1.1059880256652832,-1.6813427410521449,-2.526665989552633,2.2818290430256347,-1.0173919836627405,0.15214964747428894
1708438162.4814117,-1.105971097946167,-1.6813732586302699,-2.526691261922018,2.2818333345600585,-1.0174344221698206,0.151953786611557
1708438162.4833984,-1.1060529947280884,-1.6813527546324671,-2.526707712803976,2.2818171220966796,-1.0173552672015589,0.151836097240448
1708438162.4853797,-1.1060118675231934,-1.6813708744444789,-2.5266717115985315,2.281878634090088,-1.0173185507403772,0.15161937475204468
1708438162.4873736,-1.1060075759887695,-1.681345125237936,-2.5266838709460657,2.281812830562256,-1.0173686186419886,0.15139542520046234
1708438162.4893932,-1.106004238128662,-1.6813866100706996,-2.5266671816455286,2.2817880350300292,-1.017299000416891,0.15122757852077484
1708438162.49144,-1.1060205698013306,-1.681422849694723,-2.5266597906695765,2.281804247493408,-1.0173566977130335,0.1510729342699051
1708438162.4933789,-1.1060367822647095,-1.6813866100706996,-2.5266552607165735,2.281747027034424,-1.0173209349261683,0.1508355587720871
1708438162.4953427,-1.10597562789917,-1.681328912774557,-2.5266884008990687,2.2818009096333007,-1.0173209349261683,0.15065811574459076
1708438162.4973466,-1.1060161590576172,-1.6813484630980433,-2.5266643206225794,2.281776114101074,-1.0173047224627894,0.15043364465236664
1708438162.4993546,-1.1060161590576172,-1.6813537083067835,-2.5266462008105677,2.281792326564453,-1.017280403767721,0.15018139779567719
1708438162.5013506,-1.1059956550598145,-1.681345125237936,-2.5266476313220423,2.2817999559589843,-1.01725942293276,0.15000616014003754
1708438162.5033553,-1.1059869527816772,-1.6813661060728968,-2.5266597906695765,2.281776114101074,-1.0172727743731897,0.14967212080955505
1708438162.5053651,-1.1060237884521484,-1.6813494167723597,-2.5266266504870813,2.2817599016376953,-1.017219368611471,0.1495431661605835
1708438162.5073583,-1.1059707403182983,-1.6813403568663539,-2.5266311804400843,2.281764193172119,-1.0172117392169397,0.1493110954761505
1708438162.5093505,-1.1060487031936646,-1.6813708744444789,-2.526635710393087,2.2817880350300292,-1.0172207991229456,0.14909148216247559
1708438162.5113678,-1.1060444116592407,-1.6813494167723597,-2.5266147295581263,2.2818171220966796,-1.0172045866595667,0.14884008467197418
1708438162.5133803,-1.1060487031936646,-1.6813904247679652,-2.5265939871417444,2.281752272243164,-1.0171969572650355,0.1486285924911499
1708438162.515357,-1.1060118675231934,-1.6813823185362757,-2.526635710393087,2.2817599016376953,-1.0171926657306116,0.14837723970413208
1708438162.5173726,-1.1060563325881958,-1.681394716302389,-2.526602808629171,2.281784697169922,-1.0171926657306116,0.14814622700214386
1708438162.5193477,-1.1060400009155273,-1.6813823185362757,-2.526607338582174,2.2817441660114746,-1.017205540333883,0.14785242080688477
1708438162.5213826,-1.1060357093811035,-1.681333681146139,-2.5265982786761683,2.281764193172119,-1.017193619404928,0.14761382341384888
1708438162.5233524,-1.1060519218444824,-1.6813684902586878,-2.52661639848818,2.2817889887043457,-1.0171640555011194,0.14734609425067902
1708438162.5253508,-1.1060357093811035,-1.6813732586302699,-2.526578728352682,2.2818009096333007,-1.017176930104391,0.14713816344738007
1708438162.5273712,-1.1060314178466797,-1.6813708744444789,-2.526562039052145,2.281709595317505,-1.017148796712057,0.14687496423721313
1708438162.5293565,-1.1060563325881958,-1.681410928765768,-2.526611868535177,2.281780405635498,-1.017132584248678,0.14664778113365173
1708438162.5313852,-1.1060400009155273,-1.6813732586302699,-2.526545588170187,2.2817436891743164,-1.0171650091754358,0.14636069536209106
1708438162.5333703,-1.1060357093811035,-1.6814185581602992,-2.526590887700216,2.281752272243164,-1.0171249548541468,0.14612139761447906
1708438162.5353637,-1.1060314178466797,-1.6813575230040492,-2.526562039052145,2.2818171220966796,-1.0171335379229944,0.14582502841949463
1708438162.537402,-1.1060433387756348,-1.6813575230040492,-2.5265966097461146,2.2817062574573974,-1.0171173254596155,0.14553004503250122
1708438162.5393662,-1.1060444116592407,-1.681345125237936,-2.526562039052145,2.281752272243164,-1.0171130339251917,0.14520977437496185
1708438162.5413742,-1.1060606241226196,-1.6813732586302699,-2.526583258305685,2.2817889887043457,-1.0171411673175257,0.1449337899684906
1708438162.543387,-1.1061099767684937,-1.6813775501646937,-2.526595417653219,2.2817773061939697,-1.0171039740191858,0.14467929303646088
1708438162.5453548,-1.1060161590576172,-1.6813575230040492,-2.526637140904562,2.281735344524048,-1.0171039740191858,0.1443834900856018
1708438162.5473857,-1.1060487031936646,-1.6813775501646937,-2.526583258305685,2.2816964822956542,-1.0171778837787073,0.14412133395671844
1708438162.549357,-1.1060205698013306,-1.6813732586302699,-2.526562039052145,2.281757040614746,-1.017142120991842,0.14384613931179047
1708438162.5513575,-1.1059869527816772,-1.681364198724264,-2.526604477559225,2.2816802698322753,-1.0171335379229944,0.14358292520046234
1708438162.5533555,-1.1059837341308594,-1.6813246212401332,-2.5265381971942347,2.2816597658344726,-1.0171173254596155,0.14329583942890167
1708438162.5553625,-1.1059880256652832,-1.681364198724264,-2.526557509099142,2.281684561366699,-1.0171216169940394,0.14307425916194916
1708438162.557387,-1.1060161590576172,-1.6813661060728968,-2.526620928441183,2.2816387849995117,-1.0170930067645472,0.1427217572927475
1708438162.5593681,-1.1059623956680298,-1.6813527546324671,-2.526587788258688,2.281578465098999,-1.0171011129962366,0.1424674689769745
1708438162.5613794,-1.1059679985046387,-1.681394716302389,-2.526583258305685,2.281636877650879,-1.0171259085284632,0.14215527474880219
1708438162.563408,-1.105954885482788,-1.681345125237936,-2.526607338582174,2.2815796571918945,-1.0170887152301233,0.14188137650489807
1708438162.5653827,-1.1059398651123047,-1.6813856563963832,-2.526557509099142,2.281592531795166,-1.0170844236956995,0.14166346192359924
1708438162.5673888,-1.1059143543243408,-1.6814137897887171,-2.526553217564718,2.2815839487263183,-1.0170887152301233,0.14130161702632904
1708438162.5693672,-1.105972409248352,-1.6813732586302699,-2.52665359178652,2.2815958696552734,-1.0171011129962366,0.1409788727760315
1708438162.5713673,-1.1059529781341553,-1.6813556156554164,-2.526562039052145,2.28158084928479,-1.0171130339251917,0.1406915932893753
1708438162.5733788,-1.1059112548828125,-1.681422849694723,-2.526578728352682,2.2815980154224853,-1.0170930067645472,0.1404011845588684
1708438162.5753765,-1.105851173400879,-1.6814137897887171,-2.526604477559225,2.2815486627766113,-1.0171707312213343,0.14011752605438232
1708438162.5774002,-1.10587477684021,-1.681455751458639,-2.526604477559225,2.281503363246582,-1.0171216169940394,0.13985224068164825
1708438162.5793781,-1.1057980060577393,-1.6813932857909144,-2.5266132990466517,2.281507654781006,-1.017120663319723,0.13956481218338013
1708438162.58141,-1.1057908535003662,-1.6814466915526332,-2.526604477559225,2.2814969259449462,-1.0171087423907679,0.13926181197166443
1708438162.5833988,-1.1057791709899902,-1.681474348107809,-2.526590887700216,2.281459255809448,-1.017099682484762,0.13894210755825043
1708438162.585377,-1.1057109832763672,-1.681497713128561,-2.52661639848818,2.2814690309711914,-1.0171235243426722,0.1386471390724182
1708438162.5873904,-1.105682134628296,-1.6815053425230921,-2.526595417653219,2.2814084726520996,-1.0171411673175257,0.13833926618099213
1708438162.58936,-1.1056756973266602,-1.6816135845580042,-2.526644531880514,2.281380816096924,-1.0171902815448206,0.13804922997951508
1708438162.5913491,-1.1056431531906128,-1.681634088555807,-2.526607338582174,2.281320257777832,-1.0171530882464808,0.13773272931575775
1708438162.5933614,-1.1055991649627686,-1.681592126885885,-2.5266147295581263,2.2813288408466796,-1.0171812216388147,0.13746297359466553
1708438162.595396,-1.1055517196655273,-1.681650777856344,-2.526656452809469,2.2812678056904296,-1.0171683470355433,0.1371837854385376
1708438162.5973854,-1.105482816696167,-1.6816860638060511,-2.5266597906695765,2.2812043863483886,-1.0171893278705042,0.1368686556816101
1708438162.599363,-1.1054184436798096,-1.6816894016661585,-2.5266643206225794,2.281155748958252,-1.0171683470355433,0.1365445852279663
1708438162.6013713,-1.1053133010864258,-1.6817075214781703,-2.5266221205340784,2.2811404901691894,-1.017233673726217,0.13627779483795166
1708438162.6033864,-1.105311393737793,-1.6817804775633753,-2.5266552607165735,2.281104250545166,-1.0172489325152796,0.13602471351623535
1708438162.605353,-1.1051613092422485,-1.6817804775633753,-2.5267091433154505,2.281027241344116,-1.0173099676715296,0.1357254981994629
1708438162.6073906,-1.1051390171051025,-1.681829114953512,-2.5266626516925257,2.2809995847889404,-1.017329517995016,0.1354425996541977
1708438162.6093647,-1.105022668838501,-1.6819125614561976,-2.526691261922018,2.2809769350239257,-1.0173371473895472,0.13516223430633545
1708438162.6113563,-1.1048970222473145,-1.681939264337057,-2.526752773915426,2.280872030849121,-1.0173895994769495,0.13484296202659607
1708438162.6133862,-1.104821801185608,-1.6820546589293421,-2.5267513434039515,2.2808775144764404,-1.017421070729391,0.13453932106494904
1708438162.6153817,-1.1047347784042358,-1.6820608578123988,-2.5267558733569544,2.2807718950458984,-1.017432991658346,0.13424089550971985
1708438162.6173851,-1.1046019792556763,-1.682162424127096,-2.526825014744894,2.2806922632404785,-1.017489258443014,0.1339614987373352
1708438162.6193707,-1.1045023202896118,-1.6821490726866664,-2.526825014744894,2.2805628019520263,-1.0174644629107874,0.13371141254901886
1708438162.6214094,-1.104382038116455,-1.682216306725973,-2.526811424885885,2.280543728465698,-1.0174363295184534,0.1333876997232437
1708438162.6233952,-1.1042176485061646,-1.6823049984373988,-2.5268681685077112,2.2804316717335205,-1.0174678007708948,0.13314546644687653
1708438162.625391,-1.1040695905685425,-1.6823860607542933,-2.5268710295306605,2.2803241449543457,-1.0175450483905237,0.13289500772953033
1708438162.6273882,-1.1039303541183472,-1.6824075184264125,-2.526956383381979,2.2802368837543945,-1.017524544392721,0.13257534801959991
1708438162.6293945,-1.1036858558654785,-1.6825500927367152,-2.526907269154684,2.2800943094440917,-1.0175812880145472,0.13226816058158875
1708438162.6314044,-1.1035786867141724,-1.682596822778219,-2.5269883314715784,2.2800609308430175,-1.0175769964801233,0.1320372372865677
1708438162.6334002,-1.1033538579940796,-1.6827103100218714,-2.5270209948169153,2.27994887411084,-1.0176737944232386,0.1317218691110611
1708438162.6353903,-1.10317862033844,-1.6828180752196253,-2.527060333882467,2.279763622874878,-1.017700497304098,0.1314631551504135
1708438162.6373687,-1.1029539108276367,-1.6828237972655238,-2.5270541349994105,2.279679699535034,-1.0177696386920374,0.13112673163414001
1708438162.6394165,-1.1026893854141235,-1.682955881158346,-2.5271363894092005,2.2794594007679443,-1.0178206602679651,0.13085663318634033
1708438162.6414213,-1.1024610996246338,-1.6830889187254847,-2.527201000844137,2.279355211848877,-1.0179045836078089,0.13064546883106232
1708438162.643364,-1.102229356765747,-1.6831323109068812,-2.5272772947894495,2.2791876035877685,-1.0180061499225062,0.1303054839372635
1708438162.6453688,-1.101920485496521,-1.6832896671690882,-2.5273121039019983,2.2790722089954834,-1.018081013356344,0.130054771900177
1708438162.6473866,-1.1016852855682373,-1.6833631000914515,-2.5272777716266077,2.278916283244751,-1.0181525389300745,0.12982000410556793
