Eg3-git/Classifiers/Data Collection/u6/u6xyz2_ur3e_joint_states.csv
time,elbow_joint,shoulder_lift_joint,shoulder_pan_joint,wrist_1_joint,wrist_2_joint,wrist_3_joint
1708438212.7956483,-1.1083672046661377,-1.6801120243468226,-2.5261827150927942,2.2840191560932617,-1.0165975729571741,0.21039056777954102
1708438212.7976525,-1.1083463430404663,-1.6801945171751917,-2.526179854069845,2.2839736181446533,-1.0165818373309534,0.21038611233234406
1708438212.7996998,-1.1083507537841797,-1.6801372967162074,-2.5261545817004603,2.284048004741333,-1.0166271368609827,0.21035009622573853
1708438212.8016534,-1.1083910465240479,-1.6800924740233363,-2.526170794163839,2.284010573024414,-1.0165889898883265,0.210362046957016
1708438212.8036988,-1.1083910465240479,-1.6801415882506312,-2.526146952305929,2.283989830608032,-1.0165522734271448,0.2103964388370514
1708438212.8056824,-1.1083552837371826,-1.6801210842528285,-2.526170794163839,2.283978148097656,-1.0165732542621058,0.21042783558368683
1708438212.8076947,-1.1083626747131348,-1.6801239452757777,-2.526139561329977,2.284039183253906,-1.0165732542621058,0.21039961278438568
1708438212.8096478,-1.108372688293457,-1.6800948582091273,-2.526175324116842,2.2840306001850585,-1.016601864491598,0.21040694415569305
1708438212.8116815,-1.1083954572677612,-1.6800991497435511,-2.526187245045797,2.2840511041828613,-1.016601864491598,0.2103322148323059
1708438212.8137434,-1.1083626747131348,-1.6802102528014125,-2.5261991659747522,2.2840229707905273,-1.0166104475604456,0.21040692925453186
1708438212.8156853,-1.1083910465240479,-1.6801239452757777,-2.526203695927755,2.284071608180664,-1.016590420399801,0.21041440963745117
1708438212.8176906,-1.1084154844284058,-1.6800791225829066,-2.5261991659747522,2.284039183253906,-1.016601864491598,0.2103738784790039
1708438212.8197002,-1.108402967453003,-1.6801563702025355,-2.526187245045797,2.2840229707905273,-1.0165861288653772,0.2104368805885315
1708438212.8216562,-1.1084415912628174,-1.6801492176451625,-2.526203695927755,2.284014864558838,-1.0166304747210901,0.2104368507862091
1708438212.8236518,-1.1084108352661133,-1.6801282368102015,-2.5261827150927942,2.284087820644043,-1.0166013876544397,0.2104683816432953
1708438212.8256445,-1.1083909273147583,-1.6801682911314906,-2.5261827150927942,2.283968134517334,-1.0165990034686487,0.21041887998580933
1708438212.827668,-1.1084288358688354,-1.6800486050047816,-2.5261917749988,2.2840792375751953,-1.016646687184469,0.21044877171516418
1708438212.8296456,-1.1084370613098145,-1.6801163158812464,-2.5261827150927942,2.284055395717285,-1.0165861288653772,0.2104475200176239
1708438212.8316185,-1.1084108352661133,-1.6801191769041957,-2.5262261072741907,2.2840987878986816,-1.0166142622577112,0.21039512753486633
1708438212.8336887,-1.1083537340164185,-1.6801520786681117,-2.526179854069845,2.28412310659375,-1.0165861288653772,0.21038898825645447
1708438212.8356223,-1.108381986618042,-1.6801239452757777,-2.5261991659747522,2.284106894130371,-1.016557518635885,0.21046549081802368
1708438212.8376403,-1.1083626747131348,-1.6801282368102015,-2.5262203852282923,2.284106894130371,-1.0166104475604456,0.2104024738073349
1708438212.8396287,-1.1083745956420898,-1.6800757847227992,-2.5261917749988,2.2841221529194335,-1.0165975729571741,0.21043527126312256
1708438212.8416388,-1.1083656549453735,-1.6801029644408167,-2.526146952305929,2.2841924864002685,-1.0166433493243616,0.2104475051164627
1708438212.8436775,-1.1083954572677612,-1.6801535091795863,-2.526187245045797,2.284129782313965,-1.0166142622577112,0.2104397714138031
1708438212.8456194,-1.1083282232284546,-1.6801582775511683,-2.526196066533224,2.284175081843994,-1.0166271368609827,0.21042636036872864
1708438212.8476539,-1.108424425125122,-1.6801535091795863,-2.526229206715719,2.2841102319904785,-1.0165818373309534,0.21041883528232574
1708438212.8497148,-1.1084028482437134,-1.6801039181151332,-2.5261500517474573,2.284118815059326,-1.016590420399801,0.21037714183330536
1708438212.8516724,-1.1083492040634155,-1.6801372967162074,-2.526170794163839,2.2841264444538574,-1.0166104475604456,0.2104397416114807
1708438212.8536708,-1.108424425125122,-1.6801115475096644,-2.5262325445758265,2.2840446668812255,-1.0166314283954065,0.21040090918540955
1708438212.8556387,-1.1083821058273315,-1.6800791225829066,-2.526224676762716,2.2841059404560546,-1.016557518635885,0.21042506396770477
1708438212.857676,-1.1084370613098145,-1.6801039181151332,-2.526207987462179,2.2841719824024658,-1.0165694395648401,0.2103845626115799
1708438212.8596423,-1.108381986618042,-1.6801492176451625,-2.526187245045797,2.2841221529194335,-1.0166104475604456,0.21045486629009247
1708438212.861674,-1.108402967453003,-1.6800500355162562,-2.5261738936053675,2.28412310659375,-1.016573731099264,0.21040093898773193
1708438212.863729,-1.1083937883377075,-1.680105825463766,-2.526175324116842,2.2841383653828125,-1.0166390577899378,0.21042177081108093
1708438212.8656511,-1.1083626747131348,-1.6801120243468226,-2.5261917749988,2.284135027522705,-1.016557518635885,0.2104339748620987
1708438212.867622,-1.1083909273147583,-1.6800743542113246,-2.526179854069845,2.28414694845166,-1.0165608564959925,0.21040993928909302
1708438212.8696241,-1.1084073781967163,-1.6800996265807093,-2.526187245045797,2.2840983110615234,-1.0165818373309534,0.2104308307170868
1708438212.8716216,-1.1084154844284058,-1.6801210842528285,-2.5261500517474573,2.2840940195270996,-1.0166261831866663,0.21048468351364136
1708438212.8736632,-1.1084119081497192,-1.6800991497435511,-2.5262368361102503,2.284102602595947,-1.0165694395648401,0.2103981226682663
1708438212.8756192,-1.108377456665039,-1.680155416528219,-2.526170794163839,2.284118815059326,-1.0166061560260218,0.21043401956558228
1708438212.8776512,-1.108381986618042,-1.6801492176451625,-2.526203695927755,2.2841707903095703,-1.0165694395648401,0.2104099690914154
1708438212.8796442,-1.1084154844284058,-1.6800924740233363,-2.5261827150927942,2.284151239986084,-1.016618553792135,0.21041734516620636
1708438212.8816404,-1.1084200143814087,-1.6800791225829066,-2.5261917749988,2.2841059404560546,-1.0166595617877405,0.21040543913841248
1708438212.8836596,-1.1084061861038208,-1.6801401577391566,-2.5262158552752894,2.284118815059326,-1.0165823141681116,0.21045197546482086
1708438212.8856256,-1.1084108352661133,-1.6801163158812464,-2.5261665026294153,2.2841059404560546,-1.0166228453265589,0.21040090918540955
1708438212.887617,-1.1084578037261963,-1.6801415882506312,-2.526220146809713,2.2841145235249023,-1.0165732542621058,0.21044306457042694
1708438212.8896203,-1.1083638668060303,-1.6801120243468226,-2.5261827150927942,2.284151239986084,-1.0166228453265589,0.21046386659145355
1708438212.8916235,-1.1084154844284058,-1.6801372967162074,-2.526187245045797,2.2841178613850097,-1.0165861288653772,0.21049222350120544
1708438212.8936293,-1.108377456665039,-1.6800619564452113,-2.5261693636523646,2.2841707903095703,-1.0165861288653772,0.21045641601085663
1708438212.89564,-1.1083682775497437,-1.6801611385741175,-2.5262113253222864,2.284102602595947,-1.0166261831866663,0.2104339897632599
1708438212.897664,-1.108427882194519,-1.6801163158812464,-2.526187245045797,2.284102602595947,-1.0165932814227503,0.21044303476810455
1708438212.8996906,-1.108389139175415,-1.6801444492735804,-2.5262067953692835,2.284102602595947,-1.0166104475604456,0.21042510867118835
1708438212.9016635,-1.1083937883377075,-1.6801039181151332,-2.5262067953692835,2.2841221529194335,-1.0166228453265589,0.21038904786109924
1708438212.90364,-1.1083519458770752,-1.6801701984801234,-2.5261738936053675,2.28412310659375,-1.016573731099264,0.21043400466442108
1708438212.9057074,-1.108460783958435,-1.6801120243468226,-2.526207987462179,2.284139319057129,-1.016634766255514,0.21043847501277924
1708438212.9076574,-1.108377456665039,-1.6801325283446253,-2.5261781851397913,2.284151239986084,-1.0166509787188929,0.21045486629009247
1708438212.90966,-1.108444333076477,-1.6801625690855921,-2.5262113253222864,2.284151239986084,-1.0166228453265589,0.21043847501277924
1708438212.9116247,-1.1084489822387695,-1.6801163158812464,-2.5261991659747522,2.284167452449463,-1.016601864491598,0.21043403446674347
1708438212.9136724,-1.1083972454071045,-1.6801563702025355,-2.5262532869922083,2.28414694845166,-1.016634766255514,0.21044595539569855
1708438212.9157336,-1.1084061861038208,-1.6800834141173304,-2.526224676762716,2.284151239986084,-1.0166271368609827,0.2104414999485016
1708438212.9176257,-1.1084232330322266,-1.6801372967162074,-2.5262323061572474,2.284158869380615,-1.0166509787188929,0.21043401956558228
1708438212.9196188,-1.1084188222885132,-1.6800834141173304,-2.526191536580221,2.284129782313965,-1.0165651480304163,0.2103964388370514
1708438212.9216282,-1.1083937883377075,-1.6801492176451625,-2.5261827150927942,2.284163160915039,-1.0166304747210901,0.2104564607143402
1708438212.9236207,-1.1083984375,-1.6801401577391566,-2.526203695927755,2.2841264444538574,-1.016662899647848,0.21047872304916382
1708438212.9256518,-1.1084351539611816,-1.6800619564452113,-2.5262280146228235,2.284130735988281,-1.0166104475604456,0.21043850481510162
1708438212.9276266,-1.1083773374557495,-1.6800881824889125,-2.5261946360217493,2.284167452449463,-1.0166142622577112,0.21048924326896667
1708438212.9296193,-1.108456015586853,-1.680108209649557,-2.526203695927755,2.284175081843994,-1.016601864491598,0.2104758322238922
1708438212.931614,-1.1083984375,-1.6801039181151332,-2.526207987462179,2.28414694845166,-1.0165861288653772,0.2104475200176239
1708438212.9336443,-1.1084325313568115,-1.6801325283446253,-2.5261781851397913,2.2841178613850097,-1.0166304747210901,0.21045199036598206
1708438212.935612,-1.108377456665039,-1.6801372967162074,-2.5262368361102503,2.2841059404560546,-1.0165818373309534,0.21047285199165344
1708438212.9376166,-1.1083984375,-1.6801210842528285,-2.5261991659747522,2.2841836649128417,-1.0165932814227503,0.2103964388370514
1708438212.9396286,-1.1084470748901367,-1.6801296673216761,-2.5262325445758265,2.2841102319904785,-1.0166423956500452,0.2104475200176239
1708438212.9416196,-1.1084017753601074,-1.6800948582091273,-2.526207987462179,2.2841340738483886,-1.016646687184469,0.21039354801177979
1708438212.9436212,-1.1084028482437134,-1.6801535091795863,-2.5262487570392054,2.2841664987751464,-1.0166304747210901,0.21042177081108093
1708438212.9456213,-1.1084351539611816,-1.6801191769041957,-2.5262280146228235,2.2841340738483886,-1.0166543165790003,0.21042177081108093
1708438212.9476256,-1.1084470748901367,-1.6800991497435511,-2.5261991659747522,2.2841102319904785,-1.0166099707232874,0.2104053795337677
1708438212.9497406,-1.1083972454071045,-1.6800948582091273,-2.526170794163839,2.2841481405445556,-1.0166304747210901,0.2104475200176239
1708438212.951694,-1.108444333076477,-1.6801210842528285,-2.5261784235583704,2.2841178613850097,-1.0166381041156214,0.21041283011436462
1708438212.953663,-1.1084061861038208,-1.6800815067686976,-2.5262158552752894,2.284106894130371,-1.0166099707232874,0.21045488119125366
1708438212.9557161,-1.108456015586853,-1.6801120243468226,-2.526220146809713,2.284080906505249,-1.0166705290423792,0.21040090918540955
1708438212.9576442,-1.1084232330322266,-1.6801563702025355,-2.5261991659747522,2.2841827112385253,-1.0166543165790003,0.21042507886886597
1708438212.9596524,-1.1084187030792236,-1.6801539860167445,-2.5262487570392054,2.2841707903095703,-1.0166338125811976,0.21041737496852875
1708438212.9616385,-1.1084489822387695,-1.6800948582091273,-2.5262158552752894,2.2841264444538574,-1.0166338125811976,0.21037715673446655
1708438212.963682,-1.1083682775497437,-1.6801325283446253,-2.5262067953692835,2.284179373378418,-1.0166671911822718,0.21045193076133728
1708438212.9657648,-1.108361005783081,-1.6801282368102015,-2.5262354055987757,2.28414694845166,-1.0166013876544397,0.21046681702136993
1708438212.967631,-1.1084098815917969,-1.6801463566222132,-2.5261901060687464,2.284135027522705,-1.0166295210467737,0.21043401956558228
1708438212.9696546,-1.1084108352661133,-1.6801372967162074,-2.5261946360217493,2.2841836649128417,-1.0166218916522425,0.21045199036598206
1708438212.9716468,-1.1084307432174683,-1.6801072559752406,-2.5262325445758265,2.2841426569172363,-1.0166261831866663,0.21049222350120544
1708438212.9736428,-1.1083972454071045,-1.6801401577391566,-2.5262368361102503,2.284175081843994,-1.0166381041156214,0.21045483648777008
1708438212.9756458,-1.1084108352661133,-1.6800743542113246,-2.5261812845813196,2.284139319057129,-1.0166099707232874,0.21045197546482086
1708438212.977631,-1.108427882194519,-1.6801282368102015,-2.526220146809713,2.2841264444538574,-1.0166381041156214,0.2104053646326065
1708438212.9796424,-1.1084442138671875,-1.6800667248167933,-2.5262442270862024,2.2841221529194335,-1.0166543165790003,0.21045488119125366
1708438212.9816542,-1.1084325313568115,-1.6801253757872523,-2.5262234846698206,2.2841102319904785,-1.0166133085833948,0.21041283011436462
1708438212.98363,-1.1084142923355103,-1.6800457439818324,-2.5262067953692835,2.2841924864002685,-1.0166829268084925,0.21043527126312256
1708438212.9856317,-1.108427882194519,-1.6801744900145472,-2.5261991659747522,2.2841102319904785,-1.0166500250445765,0.21044304966926575
1708438212.9876323,-1.1083847284317017,-1.6800834141173304,-2.5262532869922083,2.284158869380615,-1.0166829268084925,0.2104295939207077
1708438212.9896398,-1.1084351539611816,-1.680108209649557,-2.5262399355517786,2.284151239986084,-1.01662522951235,0.21043403446674347
1708438212.991636,-1.1084325313568115,-1.680108209649557,-2.5262189547168177,2.2840897279926757,-1.0166829268084925,0.21041443943977356
1708438212.9936252,-1.1083984375,-1.6801444492735804,-2.5262308756457728,2.2841102319904785,-1.0166743437396448,0.21043848991394043
1708438212.9956195,-1.1084108352661133,-1.6800981960692347,-2.526222054158346,2.2841145235249023,-1.0167110602008265,0.21038462221622467
1708438212.9976418,-1.1083801984786987,-1.6801120243468226,-2.5262725988971155,2.2841221529194335,-1.016637150441305,0.2104308009147644
1708438212.9997442,-1.1084370613098145,-1.6800991497435511,-2.526242796574728,2.2841102319904785,-1.0166743437396448,0.21042181551456451
1708438213.001697,-1.1084351539611816,-1.6800857983031214,-2.5262518564807337,2.284151239986084,-1.0166786352740687,0.2104683816432953
1708438213.0037024,-1.1083801984786987,-1.6801492176451625,-2.526259247456686,2.2841836649128417,-1.0167024771319788,0.21048028767108917
1708438213.005709,-1.108427882194519,-1.6801611385741175,-2.526193443928854,2.284097357387207,-1.0166457335101526,0.21046841144561768
1708438213.007703,-1.1084232330322266,-1.6800710163512171,-2.526296679173605,2.28414694845166,-1.0166414419757288,0.21039357781410217
1708438213.0096633,-1.1084351539611816,-1.6801344356932582,-2.5262354055987757,2.2841221529194335,-1.0166729132281702,0.21041440963745117
1708438213.011651,-1.108467936515808,-1.6801401577391566,-2.526242796574728,2.284135027522705,-1.016677204762594,0.21045489609241486
1708438213.0136788,-1.108372688293457,-1.6800981960692347,-2.526210133229391,2.284125490779541,-1.0167349020587366,0.21042631566524506
1708438213.015685,-1.1084325313568115,-1.6801415882506312,-2.526308838521139,2.284135027522705,-1.0166857878314417,0.21042633056640625
1708438213.0176976,-1.108427882194519,-1.6801210842528285,-2.526283327733175,2.284130735988281,-1.0167349020587366,0.21045488119125366
1708438213.0196943,-1.1084017753601074,-1.6801191769041957,-2.526320759450094,2.2841340738483886,-1.0167306105243128,0.21038903295993805
1708438213.0217063,-1.108436942100525,-1.6800905666747035,-2.5262745062457483,2.2841264444538574,-1.01671010652651,0.21045942604541779
1708438213.0236938,-1.1084154844284058,-1.6801520786681117,-2.5263238588916224,2.284139319057129,-1.0166938940631312,0.21042631566524506
1708438213.0256708,-1.108439564704895,-1.6800857983031214,-2.5263267199145716,2.284135027522705,-1.0167468229876917,0.2104172706604004
1708438213.0276883,-1.1084017753601074,-1.6801120243468226,-2.5263238588916224,2.284085198039673,-1.016670052205221,0.21041889488697052
1708438213.0296755,-1.1084516048431396,-1.6801325283446253,-2.5263477007495325,2.284179373378418,-1.0167024771319788,0.21045038104057312
1708438213.031711,-1.1084142923355103,-1.6801072559752406,-2.5263808409320276,2.284175081843994,-1.016698185597555,0.21037261188030243
1708438213.0336769,-1.1084061861038208,-1.6801444492735804,-2.526328150426046,2.28412310659375,-1.0167058149920862,0.21044306457042694
1708438213.0356271,-1.108389139175415,-1.6800881824889125,-2.5263477007495325,2.28412310659375,-1.0166571776019495,0.21034696698188782
1708438213.0376506,-1.1083937883377075,-1.680112978021139,-2.5263267199145716,2.2841481405445556,-1.0166729132281702,0.21039801836013794
1708438213.0396311,-1.1084489822387695,-1.6801163158812464,-2.5263565222369593,2.2841426569172363,-1.0166853109942835,0.21038158237934113
1708438213.0416286,-1.108424425125122,-1.6801492176451625,-2.5262940565692347,2.2840728002735595,-1.0166729132281702,0.21041885018348694
1708438213.04371,-1.108386516571045,-1.6801463566222132,-2.526317898427145,2.284158869380615,-1.0167143980609339,0.21042335033416748
1708438213.045678,-1.108381986618042,-1.6801253757872523,-2.5263221899615687,2.2840983110615234,-1.0167058149920862,0.21043246984481812
1708438213.0476618,-1.1084396839141846,-1.6801163158812464,-2.5263267199145716,2.284151239986084,-1.016726318989889,0.21036645770072937
1708438213.0496886,-1.1084108352661133,-1.6800948582091273,-2.5263431707965296,2.284118815059326,-1.0167015234576624,0.21034564077854156
1708438213.05178,-1.1083773374557495,-1.6801444492735804,-2.5263267199145716,2.28414694845166,-1.0166938940631312,0.21035008132457733
1708438213.0536966,-1.1084028482437134,-1.6801072559752406,-2.5263810793506067,2.2841717439838867,-1.0167177359210413,0.21030059456825256
1708438213.055704,-1.1084188222885132,-1.6801401577391566,-2.5263477007495325,2.2840940195270996,-1.0166896025287073,0.2103709578514099
1708438213.0576687,-1.108381986618042,-1.6801325283446253,-2.5263386408435267,2.284118815059326,-1.01671010652651,0.21037548780441284
1708438213.0596466,-1.1083821058273315,-1.6800834141173304,-2.5263357798205774,2.284118815059326,-1.0166853109942835,0.21029773354530334
1708438213.0616512,-1.1083984375,-1.6801210842528285,-2.526301447545187,2.28414694845166,-1.0167143980609339,0.210333451628685
1708438213.0636594,-1.1084108352661133,-1.6801535091795863,-2.526301447545187,2.2840706545063476,-1.0167501608477991,0.21034562587738037
1708438213.0657058,-1.108427882194519,-1.6800757847227992,-2.5263477007495325,2.284135027522705,-1.0167220274554651,0.21032145619392395
1708438213.0676467,-1.1083910465240479,-1.6801210842528285,-2.5262895266162317,2.2841426569172363,-1.0167740027057093,0.21032148599624634
1708438213.0696418,-1.108424425125122,-1.6801039181151332,-2.5263899008380335,2.284118815059326,-1.0167134443866175,0.2103050798177719
1708438213.0716455,-1.1084108352661133,-1.6800791225829066,-2.5263477007495325,2.2840937811085205,-1.0167296568499964,0.21033941209316254
1708438213.0736892,-1.1084578037261963,-1.6801492176451625,-2.526301447545187,2.28412310659375,-1.0167458693133753,0.21029767394065857
1708438213.0756397,-1.108370065689087,-1.6801239452757777,-2.5263431707965296,2.284111424083374,-1.0167177359210413,0.21040402352809906
1708438213.077702,-1.108389139175415,-1.6801444492735804,-2.5263357798205774,2.284127636546753,-1.0167339483844202,0.21033784747123718
1708438213.0796368,-1.1083954572677612,-1.6801864109435023,-2.5263147989856165,2.284069462413452,-1.0167220274554651,0.21034687757492065
1708438213.081665,-1.108377456665039,-1.6801210842528285,-2.5263298193561,2.284135027522705,-1.0166896025287073,0.21032148599624634
1708438213.0836642,-1.108384609222412,-1.6801372967162074,-2.526376549397604,2.2841502863117675,-1.0166972319232386,0.21029770374298096
1708438213.0856826,-1.1083745956420898,-1.6801120243468226,-2.526317898427145,2.2841145235249023,-1.016754452382223,0.21032603085041046
1708438213.0876813,-1.108381986618042,-1.6801444492735804,-2.5262699762927454,2.284078283900879,-1.0167501608477991,0.21033945679664612
1708438213.0896473,-1.108428955078125,-1.6801358662047328,-2.5263312498675745,2.284139319057129,-1.0167015234576624,0.21037554740905762
1708438213.0916457,-1.1083670854568481,-1.6801239452757777,-2.526350800191061,2.2841319280811767,-1.0167706648456019,0.21029770374298096
1708438213.0936491,-1.1083656549453735,-1.6801120243468226,-2.5262985865222376,2.284102602595947,-1.016738239918844,0.2102886289358139
1708438213.0956779,-1.1084028482437134,-1.6801654301085414,-2.5263105074511927,2.284069462413452,-1.0167458693133753,0.2103169709444046
1708438213.0976486,-1.108428955078125,-1.6800857983031214,-2.5263312498675745,2.28412310659375,-1.016726318989889,0.21034690737724304
1708438213.0996616,-1.1083999872207642,-1.6801415882506312,-2.5262954870807093,2.2841762739368896,-1.016754452382223,0.21036356687545776
1708438213.101667,-1.1083790063858032,-1.6800857983031214,-2.5263519922839563,2.2841145235249023,-1.0167534987079065,0.21030664443969727
1708438213.103671,-1.1083745956420898,-1.6801163158812464,-2.5263221899615687,2.284085436458252,-1.0167296568499964,0.21033495664596558
1708438213.1056745,-1.1083954572677612,-1.680108209649557,-2.5263193289386194,2.284089966411255,-1.0167620817767542,0.21026909351348877
1708438213.1077006,-1.108381986618042,-1.6800981960692347,-2.5263686815844935,2.284139319057129,-1.0167458693133753,0.21037553250789642
1708438213.1096637,-1.1083984375,-1.6800948582091273,-2.5263267199145716,2.284115715617798,-1.0167253653155726,0.2103513479232788
1708438213.1116498,-1.1083537340164185,-1.6801253757872523,-2.5262985865222376,2.2840944963642578,-1.0167134443866175,0.2103724479675293
1708438213.1136854,-1.1083954572677612,-1.6801015339293421,-2.5263431707965296,2.284106894130371,-1.0167372862445276,0.21034398674964905
1708438213.11572,-1.1083909273147583,-1.6801210842528285,-2.5263553301440638,2.2840825754353027,-1.0167620817767542,0.21031853556632996
1708438213.1176467,-1.1083581447601318,-1.6800991497435511,-2.5263400713550013,2.2840446668812255,-1.0167134443866175,0.21028992533683777
1708438213.1196256,-1.1083909273147583,-1.6801210842528285,-2.5263553301440638,2.2840749460407714,-1.0167220274554651,0.21032759547233582
1708438213.1216347,-1.1083791255950928,-1.6801492176451625,-2.5263147989856165,2.2840825754353027,-1.0167620817767542,0.21033048629760742
1708438213.123655,-1.1083954572677612,-1.6801730595030726,-2.5263598600970667,2.284115715617798,-1.0167792479144495,0.21034392714500427
1708438213.1256478,-1.1083626747131348,-1.6801239452757777,-2.5263598600970667,2.284089966411255,-1.0167587439166468,0.2102932333946228
1708438213.1276731,-1.1083954572677612,-1.6801492176451625,-2.5263193289386194,2.284127636546753,-1.0167501608477991,0.21034392714500427
1708438213.1296346,-1.1083745956420898,-1.6801372967162074,-2.5263221899615687,2.2841362196156005,-1.0167587439166468,0.21029770374298096
1708438213.1316316,-1.1083999872207642,-1.6801163158812464,-2.526367489491598,2.284143849010132,-1.0167296568499964,0.21031120419502258
1708438213.1336403,-1.1083672046661377,-1.6801372967162074,-2.5263059774981897,2.284106894130371,-1.0167673269854944,0.21033942699432373
1708438213.1356559,-1.1083507537841797,-1.6801163158812464,-2.5263598600970667,2.284041090602539,-1.016778294240133,0.2103021889925003
1708438213.1376348,-1.1083954572677612,-1.6801463566222132,-2.5263519922839563,2.28412310659375,-1.0167253653155726,0.2103034257888794
1708438213.139671,-1.1084117889404297,-1.6801210842528285,-2.5263267199145716,2.2840770918079834,-1.0167220274554651,0.2103021889925003
1708438213.14162,-1.1083791255950928,-1.6800576649107875,-2.526301447545187,2.284057541484497,-1.016738239918844,0.2103424072265625
1708438213.1436303,-1.1083954572677612,-1.6801163158812464,-2.5263193289386194,2.284066362971924,-1.0166767279254358,0.21031410992145538
1708438213.1456184,-1.1083581447601318,-1.6800791225829066,-2.5263221899615687,2.2840987878986816,-1.0167058149920862,0.21029448509216309
1708438213.1476393,-1.1083462238311768,-1.6801444492735804,-2.5263341108905237,2.284053249950073,-1.0166972319232386,0.21034395694732666
1708438213.1497333,-1.1084208488464355,-1.6801492176451625,-2.5263102690326136,2.2841030794331054,-1.0167220274554651,0.21030661463737488
1708438213.1516411,-1.1083507537841797,-1.6801582775511683,-2.5263553301440638,2.284111424083374,-1.0167015234576624,0.21030664443969727
1708438213.15367,-1.108377456665039,-1.6801253757872523,-2.5263400713550013,2.2840825754353027,-1.0167220274554651,0.21029900014400482
1708438213.155666,-1.1083626747131348,-1.6801072559752406,-2.5263176600085657,2.284073753947876,-1.016726318989889,0.21025718748569489
1708438213.1576335,-1.1083298921585083,-1.680108209649557,-2.5263193289386194,2.284073753947876,-1.0167091528521937,0.21032299101352692
1708438213.1596599,-1.108420968055725,-1.6801253757872523,-2.526316229497091,2.2840983110615234,-1.016754452382223,0.21029768884181976
1708438213.1616566,-1.1083701848983765,-1.6800834141173304,-2.5263074080096644,2.2840868669697265,-1.016754452382223,0.21024538576602936
1708438213.163704,-1.1083507537841797,-1.6801654301085414,-2.5263147989856165,2.284111424083374,-1.0167458693133753,0.2103230357170105
1708438213.1656373,-1.1083626747131348,-1.6801372967162074,-2.5263519922839563,2.2840706545063476,-1.016726318989889,0.210264652967453
1708438213.1676507,-1.1083835363388062,-1.6801253757872523,-2.5263519922839563,2.284111424083374,-1.0166896025287073,0.210293248295784
1708438213.169649,-1.1083507537841797,-1.6801492176451625,-2.5263147989856165,2.2841073709675292,-1.016738239918844,0.21034397184848785
1708438213.1716127,-1.1083492040634155,-1.6801253757872523,-2.5263105074511927,2.2841030794331054,-1.0167425314532679,0.2103528380393982
1708438213.1736164,-1.1083537340164185,-1.6801282368102015,-2.5262985865222376,2.284053249950073,-1.016726318989889,0.210261732339859
1708438213.1756513,-1.1083298921585083,-1.680108209649557,-2.5263238588916224,2.284078283900879,-1.0167468229876917,0.2103111892938614
1708438213.1776235,-1.1083791255950928,-1.6801072559752406,-2.5263686815844935,2.284111424083374,-1.016726318989889,0.21025720238685608
1708438213.1796267,-1.108370065689087,-1.6801120243468226,-2.5263028780566614,2.284106894130371,-1.016738239918844,0.2103021740913391
1708438213.1816146,-1.1083298921585083,-1.6801191769041957,-2.5263565222369593,2.284085674876831,-1.0166896025287073,0.21032457053661346
1708438213.1836305,-1.1083791255950928,-1.6800991497435511,-2.5262940565692347,2.284069462413452,-1.016698185597555,0.21030662953853607
1708438213.1856284,-1.1083537340164185,-1.6800948582091273,-2.5263193289386194,2.2840825754353027,-1.0167220274554651,0.21027809381484985
1708438213.187626,-1.1083507537841797,-1.6800881824889125,-2.5263028780566614,2.284102602595947,-1.0166814962970179,0.21030786633491516
1708438213.1896238,-1.1083462238311768,-1.6801163158812464,-2.5263028780566614,2.284127636546753,-1.0167067686664026,0.21031562983989716
1708438213.1916215,-1.1083388328552246,-1.6801039181151332,-2.5263028780566614,2.284111424083374,-1.0166896025287073,0.21023760735988617
1708438213.1936214,-1.1083462238311768,-1.680108209649557,-2.5263267199145716,2.284106894130371,-1.0167425314532679,0.2102825939655304
1708438213.195619,-1.1083954572677612,-1.680080076257223,-2.5263238588916224,2.2840825754353027,-1.0167511145221155,0.21028545498847961
1708438213.1976235,-1.1084073781967163,-1.6801372967162074,-2.5263105074511927,2.2840706545063476,-1.0166729132281702,0.21026910841464996
1708438213.1997797,-1.1083418130874634,-1.6801535091795863,-2.5263400713550013,2.284106894130371,-1.0167306105243128,0.21028991043567657
1708438213.201676,-1.108320951461792,-1.6801325283446253,-2.526284996663229,2.2841242986866455,-1.0166938940631312,0.2103111445903778
1708438213.2036772,-1.1083670854568481,-1.6801372967162074,-2.5263193289386194,2.284073753947876,-1.0166857878314417,0.21034394204616547
1708438213.2056708,-1.1083835363388062,-1.6801582775511683,-2.5263267199145716,2.284050150508545,-1.0167067686664026,0.21025721728801727
1708438213.207674,-1.1083791255950928,-1.680108209649557,-2.5263477007495325,2.2840825754353027,-1.0166657606707972,0.21030662953853607
1708438213.2097046,-1.1083910465240479,-1.6801120243468226,-2.5263477007495325,2.284050150508545,-1.01671010652651,0.21028994023799896
1708438213.211648,-1.108332872390747,-1.6800791225829066,-2.5263193289386194,2.2840825754353027,-1.0166614691363733,0.21029448509216309
1708438213.21366,-1.1083433628082275,-1.6801210842528285,-2.5262985865222376,2.284078283900879,-1.0167349020587366,0.21032597124576569
1708438213.21573,-1.1083463430404663,-1.6800991497435511,-2.5263147989856165,2.284106894130371,-1.0166896025287073,0.21027648448944092
1708438213.2176924,-1.1083626747131348,-1.6801120243468226,-2.5262821356402796,2.284132881755493,-1.0166743437396448,0.21030665934085846
1708438213.2196665,-1.1083507537841797,-1.6800700626769007,-2.5263357798205774,2.2840868669697265,-1.0166857878314417,0.21029449999332428
1708438213.2216468,-1.1083492040634155,-1.6801401577391566,-2.5262866655932825,2.2841362196156005,-1.016670052205221,0.21028538048267365
1708438213.2236965,-1.1083582639694214,-1.68009676555776,-2.5263477007495325,2.284099741572998,-1.0166943709002894,0.21031564474105835
1708438213.2256978,-1.1083463430404663,-1.6801072559752406,-2.526361052189962,2.2840825754353027,-1.0167186895953577,0.21028254926204681
1708438213.2277064,-1.1084073781967163,-1.6801654301085414,-2.5263193289386194,2.2840944963642578,-1.0166533629046839,0.21029451489448547
1708438213.2296731,-1.1083581447601318,-1.6801210842528285,-2.5263193289386194,2.2840425211140136,-1.0166743437396448,0.21027807891368866
1708438213.231711,-1.1083999872207642,-1.6801372967162074,-2.5262776056872767,2.284115715617798,-1.0166872183429163,0.21026453375816345
1708438213.2336733,-1.108370065689087,-1.6801120243468226,-2.5263403097735804,2.284115715617798,-1.0166576544391077,0.21028991043567657
1708438213.235626,-1.1083672046661377,-1.6801492176451625,-2.5262866655932825,2.2840825754353027,-1.0166338125811976,0.21031856536865234
1708438213.237641,-1.1083552837371826,-1.6800905666747035,-2.526349131261007,2.284029646510742,-1.016702953969137,0.2102765589952469
1708438213.2396424,-1.108420729637146,-1.6801120243468226,-2.5262742678271692,2.284095450038574,-1.0166500250445765,0.21033942699432373
1708438213.2416446,-1.1083954572677612,-1.6801120243468226,-2.5263193289386194,2.284066362971924,-1.0166829268084925,0.2103230506181717
1708438213.2436244,-1.1083999872207642,-1.6800791225829066,-2.5263074080096644,2.2840987878986816,-1.0166381041156214,0.2102944701910019
1708438213.2456372,-1.1083253622055054,-1.6801239452757777,-2.526316229497091,2.2841076093861084,-1.0166047255145472,0.21030788123607635
1708438213.2476318,-1.1083910465240479,-1.6801072559752406,-2.526245896016256,2.2840944963642578,-1.0166099707232874,0.21032759547233582
1708438213.2497208,-1.1083745956420898,-1.6800857983031214,-2.5262625853167933,2.2841405111500244,-1.0166295210467737,0.21031567454338074
1708438213.2516625,-1.1083835363388062,-1.6801654301085414,-2.5262699762927454,2.2840825754353027,-1.0166381041156214,0.21030215919017792
1708438213.2537038,-1.1083791255950928,-1.6801444492735804,-2.526300017033712,2.284078283900879,-1.0166218916522425,0.21027645468711853
1708438213.2556942,-1.1083745956420898,-1.6800743542113246,-2.5263074080096644,2.284115715617798,-1.016618553792135,0.21028545498847961
1708438213.2576754,-1.1083418130874634,-1.6800991497435511,-2.526278797780172,2.284078283900879,-1.0166142622577112,0.21033939719200134
1708438213.2596638,-1.1083999872207642,-1.6800409756102503,-2.5262954870807093,2.284066362971924,-1.0166433493243616,0.2103021740913391
1708438213.2616487,-1.1083954572677612,-1.6800948582091273,-2.526300017033712,2.2840792375751953,-1.0165932814227503,0.2103276252746582
1708438213.2636688,-1.1084117889404297,-1.6801163158812464,-2.526266876851217,2.284078283900879,-1.016601864491598,0.21028992533683777
1708438213.2657301,-1.108386516571045,-1.6801210842528285,-2.526278797780172,2.284089966411255,-1.016601864491598,0.21030664443969727
1708438213.2676785,-1.1083910465240479,-1.6800757847227992,-2.526332680379049,2.2841200071522216,-1.0165618101703089,0.21029898524284363
1708438213.2696364,-1.1083626747131348,-1.6801296673216761,-2.526292149220602,2.2840706545063476,-1.0166061560260218,0.21030789613723755
1708438213.2716413,-1.1083835363388062,-1.6801325283446253,-2.52627140680422,2.2840868669697265,-1.0165608564959925,0.21028992533683777
1708438213.2736483,-1.1084414720535278,-1.6800948582091273,-2.526259247456686,2.284078283900879,-1.0165208021747034,0.2102363556623459
1708438213.2756364,-1.1083745956420898,-1.6801163158812464,-2.5262473265277308,2.2841362196156005,-1.0166032950030726,0.2103230357170105
1708438213.2776525,-1.108402967453003,-1.6801253757872523,-2.5262234846698206,2.284066362971924,-1.016590420399801,0.21029895544052124
1708438213.2796624,-1.1083234548568726,-1.68009676555776,-2.5262368361102503,2.2840544420429687,-1.0165661017047327,0.21035581827163696
1708438213.2816305,-1.1083563566207886,-1.6801210842528285,-2.5261991659747522,2.2841200071522216,-1.0165703932391565,0.21031567454338074
1708438213.2836413,-1.1083790063858032,-1.6800905666747035,-2.5261367003070276,2.284041329021118,-1.0166075865374964,0.2102944701910019
1708438213.2856286,-1.1083910465240479,-1.6800948582091273,-2.5262234846698206,2.284106894130371,-1.0166147390948694,0.2103140503168106
1708438213.2877417,-1.1083582639694214,-1.6801210842528285,-2.5262158552752894,2.284127636546753,-1.0165498892413538,0.21033938229084015
1708438213.2896266,-1.1083537340164185,-1.6801372967162074,-2.526245896016256,2.2840749460407714,-1.0166104475604456,0.21031567454338074
1708438213.29162,-1.1083462238311768,-1.6800834141173304,-2.526207987462179,2.284085674876831,-1.0165651480304163,0.210285484790802
1708438213.293654,-1.1083507537841797,-1.6800667248167933,-2.526187245045797,2.2840944963642578,-1.0165413061725062,0.21027357876300812
1708438213.2956197,-1.1084154844284058,-1.6801325283446253,-2.526158873234884,2.2840651708790283,-1.0165861288653772,0.21034395694732666
1708438213.2976482,-1.1084028482437134,-1.6800834141173304,-2.526179854069845,2.284069462413452,-1.0165823141681116,0.21035732328891754
1708438213.2997253,-1.108424425125122,-1.6801372967162074,-2.526163403187887,2.284115715617798,-1.0165746847735804,0.21032299101352692
1708438213.3016536,-1.108381986618042,-1.6801344356932582,-2.5261381308185022,2.2840706545063476,-1.0165498892413538,0.21030661463737488
1708438213.3036525,-1.108402967453003,-1.6801415882506312,-2.526187245045797,2.2840706545063476,-1.01654559770693,0.21032756567001343
1708438213.3056736,-1.1083656549453735,-1.6801821194090785,-2.526175324116842,2.2841200071522216,-1.0165703932391565,0.21031856536865234
1708438213.3076656,-1.1084414720535278,-1.6801444492735804,-2.526163403187887,2.284106894130371,-1.0166061560260218,0.21029770374298096
1708438213.3096886,-1.108372688293457,-1.6800757847227992,-2.5261545817004603,2.284106894130371,-1.0165541807757776,0.21026909351348877
1708438213.311641,-1.1084073781967163,-1.6801163158812464,-2.526207987462179,2.2840706545063476,-1.0165584723102015,0.2103320211172104
1708438213.313687,-1.1083984375,-1.6801239452757777,-2.5261784235583704,2.284111424083374,-1.0165990034686487,0.21030959486961365
1708438213.3157392,-1.108389139175415,-1.6801654301085414,-2.526212517415182,2.2840868669697265,-1.0165908972369593,0.21029448509216309
1708438213.3176708,-1.1083518266677856,-1.6801492176451625,-2.5261946360217493,2.2841030794331054,-1.0166075865374964,0.21029449999332428
1708438213.3196323,-1.1084016561508179,-1.680080076257223,-2.5261827150927942,2.2841030794331054,-1.0165780226336878,0.21030662953853607
1708438213.32164,-1.1084061861038208,-1.6800905666747035,-2.526170794163839,2.28412310659375,-1.0165303389178675,0.2103111892938614
1708438213.3236825,-1.1084232330322266,-1.6800991497435511,-2.526212517415182,2.284085674876831,-1.0165379683123987,0.21029449999332428
1708438213.3256316,-1.1083910465240479,-1.6801444492735804,-2.5261827150927942,2.2840825754353027,-1.0165618101703089,0.2103409469127655
1708438213.3276737,-1.108389139175415,-1.6800548038878382,-2.526179854069845,2.284085674876831,-1.0165661017047327,0.21029448509216309
1708438213.3296556,-1.1084187030792236,-1.6801401577391566,-2.526208225880758,2.2840911585041503,-1.0165746847735804,0.21031564474105835
1708438213.331632,-1.1084232330322266,-1.6801415882506312,-2.526179854069845,2.284089966411255,-1.0165990034686487,0.21036478877067566
1708438213.3336818,-1.108472466468811,-1.680108209649557,-2.526220146809713,2.2841319280811767,-1.0165260473834437,0.21026909351348877
1708438213.335628,-1.108456015586853,-1.6801039181151332,-2.526175324116842,2.284045858974121,-1.016529385243551,0.21030664443969727
1708438213.3376458,-1.1084606647491455,-1.6801253757872523,-2.526187245045797,2.2840868669697265,-1.0165746847735804,0.21029448509216309
1708438213.3396463,-1.1084061861038208,-1.6801654301085414,-2.5261216799365442,2.2840825754353027,-1.0165498892413538,0.21029448509216309
1708438213.3416371,-1.1084061861038208,-1.6800619564452113,-2.526203695927755,2.2840446668812255,-1.0165908972369593,0.21031564474105835
1708438213.3436594,-1.108421802520752,-1.6800991497435511,-2.5261665026294153,2.284111900920532,-1.0165661017047327,0.2102825939655304
1708438213.3456604,-1.108427882194519,-1.6801163158812464,-2.5261946360217493,2.284111424083374,-1.0165141264544886,0.21033939719200134
1708438213.347644,-1.1084516048431396,-1.6800619564452113,-2.5261827150927942,2.2840587335773925,-1.0165098349200647,0.21029448509216309
1708438213.3497658,-1.1084232330322266,-1.6801163158812464,-2.5261784235583704,2.284106894130371,-1.0165131727801722,0.21029448509216309
1708438213.3516817,-1.1084061861038208,-1.6801039181151332,-2.5261545817004603,2.2840630251118164,-1.0165703932391565,0.21029894053936005
1708438213.3536727,-1.1084142923355103,-1.6801253757872523,-2.5262234846698206,2.2841319280811767,-1.0165465513812464,0.21032756567001343
1708438213.3556604,-1.108472466468811,-1.6800991497435511,-2.526187245045797,2.2840987878986816,-1.0165346304522913,0.21029894053936005
1708438213.3576527,-1.108384609222412,-1.6800548038878382,-2.5261827150927942,2.284115715617798,-1.0165184179889124,0.21026909351348877
1708438213.3596828,-1.1084262132644653,-1.6801415882506312,-2.526220146809713,2.2840825754353027,-1.0165141264544886,0.2102646380662918
1708438213.3616626,-1.1084589958190918,-1.680080076257223,-2.5261381308185022,2.284041329021118,-1.0164817015277308,0.21027356386184692
1708438213.3636775,-1.1084306240081787,-1.68009676555776,-2.5261827150927942,2.284106894130371,-1.0165312925921839,0.2103230208158493
1708438213.3656976,-1.1084887981414795,-1.680108209649557,-2.5261946360217493,2.284106894130371,-1.0164616743670862,0.2102932631969452
1708438213.3677084,-1.1085007190704346,-1.6800948582091273,-2.5261946360217493,2.2841362196156005,-1.016454044972555,0.21031410992145538
1708438213.369676,-1.1084635257720947,-1.6800295315184535,-2.526170794163839,2.2841030794331054,-1.0164669195758265,0.21029448509216309
1708438213.3716476,-1.1084187030792236,-1.6801239452757777,-2.5261827150927942,2.284130735988281,-1.0164592901812952,0.21033649146556854
1708438213.3736224,-1.1084589958190918,-1.6801344356932582,-2.526217047368185,2.284139319057129,-1.0164592901812952,0.21026018261909485
1708438213.3756413,-1.1084635257720947,-1.680108209649557,-2.5261903444873255,2.284106894130371,-1.0164583365069788,0.21028994023799896
1708438213.3776233,-1.1084262132644653,-1.6800710163512171,-2.526224676762716,2.2840825754353027,-1.0164421240436,0.210285484790802
1708438213.379643,-1.1084798574447632,-1.6800924740233363,-2.5261619726764124,2.284106894130371,-1.0164626280414026,0.2103021889925003
1708438213.3816519,-1.1084425449371338,-1.6801625690855921,-2.526203695927755,2.2840944963642578,-1.016437832509176,0.21037369966506958
1708438213.3836384,-1.1084635257720947,-1.6800948582091273,-2.526187245045797,2.2841145235249023,-1.0164874235736292,0.21024981141090393
1708438213.3856585,-1.1084381341934204,-1.6800710163512171,-2.5261500517474573,2.2841319280811767,-1.0164626280414026,0.2103603333234787
1708438213.3876457,-1.1084544658660889,-1.6801253757872523,-2.526158873234884,2.2841319280811767,-1.0164831320392054,0.2103230208158493
1708438213.3896675,-1.1084425449371338,-1.6801296673216761,-2.526212517415182,2.284106894130371,-1.0164302031146448,0.21033203601837158
1708438213.3916373,-1.1084873676300049,-1.6801072559752406,-2.5261917749988,2.284073753947876,-1.0164788405047815,0.21027356386184692
1708438213.3936563,-1.108466386795044,-1.6800924740233363,-2.526187245045797,2.28412310659375,-1.0164702574359339,0.21029771864414215
1708438213.395624,-1.1084665060043335,-1.6801039181151332,-2.526224676762716,2.284073753947876,-1.016486946736471,0.2102646380662918
1708438213.3976235,-1.1084425449371338,-1.6801253757872523,-2.5261545817004603,2.284089966411255,-1.0164507071124476,0.21028101444244385
1708438213.3997,-1.1084709167480469,-1.6801072559752406,-2.5261500517474573,2.284127636546753,-1.0164583365069788,0.210285484790802
1708438213.4016914,-1.1085082292556763,-1.6801210842528285,-2.5261619726764124,2.2840620714375,-1.0164464155780237,0.2102932631969452
1708438213.4036753,-1.108466386795044,-1.6800991497435511,-2.5261500517474573,2.28414694845166,-1.016425911580221,0.21026909351348877
1708438213.4056733,-1.1084425449371338,-1.68009676555776,-2.526175324116842,2.284089966411255,-1.0164302031146448,0.21029448509216309
1708438213.4076781,-1.1085036993026733,-1.6800548038878382,-2.526163403187887,2.2840651708790283,-1.0164507071124476,0.210261732339859
1708438213.4096677,-1.1084409952163696,-1.6800905666747035,-2.526142660771505,2.2841319280811767,-1.0164745489703577,0.2102854698896408
1708438213.411653,-1.1084917783737183,-1.6800338230528773,-2.526158873234884,2.2840987878986816,-1.0164344946490687,0.2103021889925003
1708438213.413687,-1.108511209487915,-1.680112978021139,-2.5262113253222864,2.284139319057129,-1.0164626280414026,0.21030965447425842
1708438213.415674,-1.1084425449371338,-1.6800667248167933,-2.5261367003070276,2.2840446668812255,-1.0164712111102503,0.21031856536865234
1708438213.4176764,-1.1084544658660889,-1.680108209649557,-2.5261917749988,2.284130735988281,-1.016437832509176,0.21027356386184692
1708438213.4197009,-1.1084425449371338,-1.6801015339293421,-2.5262413660632532,2.28418938695874,-1.0164302031146448,0.2103021740913391
1708438213.4216902,-1.10849928855896,-1.6801210842528285,-2.526188675557272,2.284078283900879,-1.0164421240436,0.21032759547233582
1708438213.423656,-1.10849928855896,-1.6800948582091273,-2.5261784235583704,2.2840770918079834,-1.016409699116842,0.21028253436088562
1708438213.4256392,-1.1084873676300049,-1.6800710163512171,-2.5262413660632532,2.284102602595947,-1.0164192358600062,0.21028101444244385
1708438213.4276402,-1.1085020303726196,-1.680059095422262,-2.526229206715719,2.2840944963642578,-1.0164464155780237,0.21027809381484985
1708438213.429703,-1.108511209487915,-1.680112978021139,-2.5261545817004603,2.2841319280811767,-1.0164669195758265,0.21026909351348877
1708438213.4316308,-1.108466386795044,-1.6801492176451625,-2.526203695927755,2.284106894130371,-1.0164507071124476,0.21028994023799896
1708438213.4336612,-1.1085020303726196,-1.680150648156637,-2.5261665026294153,2.284118815059326,-1.0164302031146448,0.2103021889925003
1708438213.4356332,-1.1085282564163208,-1.6800924740233363,-2.5261827150927942,2.284127636546753,-1.0164507071124476,0.2103230357170105
1708438213.437663,-1.1084603071212769,-1.6801492176451625,-2.526203695927755,2.2841555315205078,-1.016425911580221,0.2102453112602234
1708438213.4396384,-1.1085282564163208,-1.6800791225829066,-2.526220146809713,2.284102602595947,-1.0165250937091272,0.21026906371116638
1708438213.4416606,-1.1084500551223755,-1.6800948582091273,-2.526196066533224,2.2840944963642578,-1.0164755026446741,0.2103637009859085
1708438213.4436834,-1.108478307723999,-1.680059095422262,-2.5261827150927942,2.2840944963642578,-1.0164302031146448,0.21036924421787262
1708438213.4456306,-1.108494758605957,-1.6800548038878382,-2.526196066533224,2.284102602595947,-1.0164182821856897,0.21028994023799896
1708438213.4476397,-1.1084855794906616,-1.680084844628805,-2.5261784235583704,2.284102602595947,-1.0164020697223108,0.2102735936641693
1708438213.449701,-1.1084709167480469,-1.6801344356932582,-2.526170794163839,2.2840770918079834,-1.016409699116842,0.21028253436088562
1708438213.4516354,-1.1084855794906616,-1.6801296673216761,-2.526170794163839,2.284143849010132,-1.0164702574359339,0.21030664443969727
1708438213.4536595,-1.108466386795044,-1.6801253757872523,-2.526170794163839,2.284118815059326,-1.0164344946490687,0.21026459336280823
1708438213.4556441,-1.108478307723999,-1.680108209649557,-2.5261336008654993,2.28412310659375,-1.0164955298053187,0.21030664443969727
1708438213.457647,-1.1085190773010254,-1.6800991497435511,-2.526207987462179,2.284127636546753,-1.0164335409747522,0.21026906371116638
1708438213.45967,-1.1084647178649902,-1.680108209649557,-2.5261917749988,2.284163160915039,-1.0164669195758265,0.21028102934360504
1708438213.4616287,-1.1085518598556519,-1.6800891361632289,-2.526170794163839,2.2840983110615234,-1.0164831320392054,0.21031567454338074
1708438213.4636807,-1.1085445880889893,-1.680068155328268,-2.5261665026294153,2.284139319057129,-1.016425911580221,0.21036478877067566
1708438213.4656527,-1.1084766387939453,-1.6800724468626917,-2.526146952305929,2.284118815059326,-1.0164583365069788,0.21029767394065857
1708438213.4676392,-1.1084692478179932,-1.6801253757872523,-2.526187245045797,2.284167452449463,-1.0164745489703577,0.21032017469406128
1708438213.469664,-1.1084855794906616,-1.680112978021139,-2.526200596486227,2.284139319057129,-1.0164592901812952,0.21032758057117462
1708438213.471644,-1.1084975004196167,-1.6800710163512171,-2.52620512643923,2.2841102319904785,-1.016425911580221,0.21035294234752655
1708438213.473661,-1.10849928855896,-1.6800619564452113,-2.526203695927755,2.284111424083374,-1.0164387861834925,0.21025267243385315
1708438213.4756331,-1.1085309982299805,-1.6801463566222132,-2.52613073984255,2.2841264444538574,-1.0164626280414026,0.2103111892938614
1708438213.4776318,-1.1085190773010254,-1.680063386956686,-2.526142422352926,2.2840983110615234,-1.0164583365069788,0.210282564163208
1708438213.479666,-1.1085145473480225,-1.6801120243468226,-2.526142422352926,2.284135027522705,-1.0164669195758265,0.2103201001882553
1708438213.4816582,-1.1085190773010254,-1.680080076257223,-2.526203695927755,2.28412310659375,-1.0164302031146448,0.21030664443969727
1708438213.4836814,-1.1085220575332642,-1.6801239452757777,-2.5261917749988,2.284085674876831,-1.0164745489703577,0.21027803421020508
1708438213.4856436,-1.1084930896759033,-1.68009676555776,-2.5261917749988,2.284158869380615,-1.0164702574359339,0.21033498644828796
1708438213.4876657,-1.1085383892059326,-1.6800891361632289,-2.5261619726764124,2.2841145235249023,-1.0164421240436,0.2103394865989685
1708438213.4896371,-1.1085445880889893,-1.6801015339293421,-2.5261665026294153,2.284130735988281,-1.0164054075824183,0.2103320062160492
1708438213.491623,-1.1085681915283203,-1.680112978021139,-2.5261500517474573,2.284073753947876,-1.0164421240436,0.2103111892938614
1708438213.4936485,-1.108514666557312,-1.6801372967162074,-2.5261545817004603,2.284139319057129,-1.0164998213397425,0.21036039292812347
1708438213.495637,-1.1085548400878906,-1.6801372967162074,-2.526187245045797,2.28412310659375,-1.016491715108053,0.210331991314888
1708438213.4976428,-1.1085474491119385,-1.6800924740233363,-2.5261545817004603,2.2841383653828125,-1.0164054075824183,0.2103021889925003
1708438213.4996953,-1.1085355281829834,-1.6800428829588832,-2.5262158552752894,2.2841643530079345,-1.016454044972555,0.21031856536865234
1708438213.5016422,-1.1084975004196167,-1.6800924740233363,-2.526200596486227,2.284101648921631,-1.0164421240436,0.21027356386184692
1708438213.5036638,-1.1084766387939453,-1.680040021935934,-2.526203695927755,2.2840983110615234,-1.016454044972555,0.2103111892938614
1708438213.5056846,-1.1085518598556519,-1.680035253564352,-2.526158873234884,2.2841426569172363,-1.0164788405047815,0.21031562983989716
1708438213.5076642,-1.1085190773010254,-1.6801172695555628,-2.526187245045797,2.2840983110615234,-1.016425911580221,0.2103320062160492
1708438213.5096958,-1.1085667610168457,-1.680068155328268,-2.5261738936053675,2.2840983110615234,-1.0164292494403284,0.21022409200668335
1708438213.511645,-1.1085429191589355,-1.6800428829588832,-2.526163403187887,2.2841555315205078,-1.0164464155780237,0.21028101444244385
1708438213.5136976,-1.1085548400878906,-1.680080076257223,-2.526220146809713,2.284101648921631,-1.0164669195758265,0.2103320062160492
1708438213.5156925,-1.1085965633392334,-1.6801296673216761,-2.5261665026294153,2.284118815059326,-1.0164549986468714,0.21029448509216309
1708438213.5176532,-1.1085518598556519,-1.680059095422262,-2.526187245045797,2.2841102319904785,-1.0164583365069788,0.21027810871601105
1708438213.5196567,-1.1085339784622192,-1.680108209649557,-2.526196066533224,2.284130735988281,-1.0164626280414026,0.2102765589952469
1708438213.5216525,-1.1085339784622192,-1.6800991497435511,-2.5261665026294153,2.2841221529194335,-1.0164464155780237,0.21034395694732666
1708438213.5236452,-1.1085474491119385,-1.6801210842528285,-2.5261665026294153,2.2841102319904785,-1.0164173285113733,0.21028099954128265
1708438213.5256307,-1.1085518598556519,-1.680112978021139,-2.526170794163839,2.2841426569172363,-1.0164302031146448,0.2103201001882553
1708438213.5276484,-1.1085429191589355,-1.680084844628805,-2.526163403187887,2.284151239986084,-1.0165074507342737,0.21031564474105835
1708438213.5296845,-1.1085355281829834,-1.680059095422262,-2.526212517415182,2.284118815059326,-1.016486946736471,0.21034841239452362
1708438213.5316541,-1.1085429191589355,-1.6800948582091273,-2.526158873234884,2.2841502863117675,-1.0164788405047815,0.210377037525177
1708438213.5336342,-1.1085593700408936,-1.680105825463766,-2.52613073984255,2.2841340738483886,-1.0164302031146448,0.210285484790802
1708438213.5356867,-1.1085965633392334,-1.6801220379271449,-2.5261665026294153,2.2841426569172363,-1.016486946736471,0.210285484790802
1708438213.5376296,-1.1085548400878906,-1.680143495599264,-2.5261545817004603,2.2841664987751464,-1.0164669195758265,0.2102750986814499
1708438213.5396605,-1.1085683107376099,-1.6801296673216761,-2.526187245045797,2.2842201429554443,-1.0164421240436,0.21027813851833344
1708438213.5416474,-1.1085729598999023,-1.6800757847227992,-2.5261829535113733,2.2842115598865966,-1.0164421240436,0.2102646380662918
1708438213.5436661,-1.1085474491119385,-1.680080076257223,-2.526184145604269,2.2842351633259277,-1.0164583365069788,0.2103021889925003
1708438213.5456955,-1.1085965633392334,-1.680155416528219,-2.5261545817004603,2.2841898637958984,-1.0164335409747522,0.21033939719200134
1708438213.5476732,-1.1085355281829834,-1.6800385914244593,-2.526187245045797,2.284210367793701,-1.0164626280414026,0.21031121909618378
1708438213.549672,-1.108580231666565,-1.68009676555776,-2.526175324116842,2.2842137056538085,-1.0164955298053187,0.21029448509216309
1708438213.5516455,-1.1085354089736938,-1.6800834141173304,-2.5261500517474573,2.2842418390461425,-1.0164216200457972,0.21028701961040497
1708438213.5536635,-1.1085458993911743,-1.6801253757872523,-2.5261545817004603,2.2842461305805664,-1.0164788405047815,0.21031564474105835
1708438213.5556867,-1.1085712909698486,-1.6801015339293421,-2.526203695927755,2.284270926112793,-1.016437832509176,0.2103230208158493
1708438213.5576622,-1.1085429191589355,-1.680080076257223,-2.52620512643923,2.2842461305805664,-1.0164583365069788,0.2102765142917633
1708438213.5596704,-1.1085474491119385,-1.6800667248167933,-2.526196066533224,2.2842914301105957,-1.0164912382708948,0.2103409469127655
1708438213.5616457,-1.1086009740829468,-1.6801296673216761,-2.526146952305929,2.2842256265827636,-1.0164583365069788,0.21029773354530334
1708438213.5636656,-1.1085712909698486,-1.680035253564352,-2.526187245045797,2.2842492300220947,-1.0164454619037073,0.21026621758937836
1708438213.5656707,-1.1085593700408936,-1.6800881824889125,-2.5261827150927942,2.2842094141193847,-1.0164507071124476,0.21033650636672974
1708438213.567664,-1.1085294485092163,-1.6800934276976527,-2.5261336008654993,2.2842580515095214,-1.0164387861834925,0.21027812361717224
1708438213.5696583,-1.1085832118988037,-1.6801253757872523,-2.526142660771505,2.2842742639729003,-1.016454044972555,0.2102571427822113
1708438213.5716302,-1.1085220575332642,-1.680051942864889,-2.526170794163839,2.284222288722656,-1.0164788405047815,0.21029150485992432
1708438213.5736597,-1.1085429191589355,-1.680051942864889,-2.5261665026294153,2.2842342096516113,-1.016437832509176,0.21026906371116638
1708438213.5756938,-1.1085145473480225,-1.680026193658346,-2.526175324116842,2.284287138576172,-1.0164912382708948,0.21029606461524963
1708438213.5776603,-1.10859215259552,-1.6800815067686976,-2.526179854069845,2.2842137056538085,-1.0164454619037073,0.2102453112602234
1708438213.5796628,-1.1085339784622192,-1.6800881824889125,-2.526170794163839,2.284259005183838,-1.0164497534381312,0.21031692624092102
1708438213.581639,-1.1085355281829834,-1.680068155328268,-2.526233736668722,2.2842418390461425,-1.0164702574359339,0.2103484570980072
1708438213.5836558,-1.108563780784607,-1.6800772152342738,-2.5261784235583704,2.284259005183838,-1.0164826552020472,0.21025872230529785
1708438213.5856843,-1.1085385084152222,-1.680084844628805,-2.5261545817004603,2.284299774760864,-1.0164583365069788,0.21029150485992432
1708438213.5876591,-1.1085429191589355,-1.6801148853697718,-2.526187245045797,2.2842094141193847,-1.0164626280414026,0.21024978160858154
1708438213.5896368,-1.1085667610168457,-1.6800772152342738,-2.526203695927755,2.2842580515095214,-1.0164302031146448,0.2102285921573639
1708438213.5916452,-1.1085548400878906,-1.680068155328268,-2.526170794163839,2.28422658025708,-1.016413990651266,0.2102661281824112
1708438213.593693,-1.1085667610168457,-1.680014272729391,-2.5261784235583704,2.284254713649414,-1.0164626280414026,0.2102796733379364
1708438213.5956583,-1.108563780784607,-1.6800891361632289,-2.5261545817004603,2.2842795091816406,-1.0165117422686976,0.21024200320243835
1708438213.5976489,-1.1085383892059326,-1.6800934276976527,-2.5261991659747522,2.2842094141193847,-1.016425911580221,0.21027511358261108
1708438213.5996284,-1.108580231666565,-1.680080076257223,-2.5261917749988,2.2842632967182617,-1.0164745489703577,0.21024200320243835
1708438213.60165,-1.1085011959075928,-1.680084844628805,-2.5261381308185022,2.2842623430439453,-1.016437832509176,0.21028852462768555
1708438213.6036718,-1.1085712909698486,-1.680084844628805,-2.526151482258932,2.2842256265827636,-1.016486946736471,0.21020658314228058
1708438213.6056905,-1.1085593700408936,-1.680080076257223,-2.526170794163839,2.2842418390461425,-1.016454044972555,0.21017789840698242
1708438213.6076772,-1.1085832118988037,-1.6800667248167933,-2.5261545817004603,2.284282847041748,-1.016454044972555,0.21022741496562958
1708438213.6096652,-1.108587622642517,-1.6800710163512171,-2.526142660771505,2.284259005183838,-1.0164583365069788,0.21025988459587097
1708438213.6116815,-1.108580231666565,-1.680084844628805,-2.5261381308185022,2.2842256265827636,-1.016454044972555,0.21020957827568054
1708438213.6136541,-1.1085339784622192,-1.680063386956686,-2.5261665026294153,2.284222288722656,-1.016498867665426,0.21021854877471924
1708438213.6156514,-1.108580231666565,-1.680068155328268,-2.526212517415182,2.2842342096516113,-1.0164206663714808,0.21024200320243835
1708438213.6176693,-1.108575701713562,-1.680112978021139,-2.5261455217944544,2.2842342096516113,-1.0164745489703577,0.21018542349338531
1708438213.6196644,-1.1085622310638428,-1.680084844628805,-2.526220146809713,2.2842632967182617,-1.016437832509176,0.2102346271276474
1708438213.6216555,-1.108587622642517,-1.680063386956686,-2.526187245045797,2.2842299181171875,-1.01650315919985,0.21021859347820282
1708438213.6236377,-1.1085832118988037,-1.680063863793844,-2.5261574427234095,2.2842137056538085,-1.0164454619037073,0.2102319747209549
1708438213.6256766,-1.1085667610168457,-1.680068155328268,-2.5261619726764124,2.2842580515095214,-1.0164497534381312,0.21023200452327728
1708438213.627643,-1.1085667610168457,-1.680047174493307,-2.5261827150927942,2.2842461305805664,-1.0164826552020472,0.21025538444519043
1708438213.6296535,-1.10859215259552,-1.6800562343993128,-2.526224676762716,2.2842461305805664,-1.01646596590151,0.21021410822868347
1708438213.6316507,-1.1085175275802612,-1.6800934276976527,-2.5261173884021204,2.2842179971882324,-1.01650315919985,0.2102229744195938
1708438213.6336856,-1.1085383892059326,-1.6801220379271449,-2.526170794163839,2.2843126493641357,-1.016498867665426,0.21021103858947754
1708438213.635655,-1.1085712909698486,-1.680051942864889,-2.526163403187887,2.284299774760864,-1.0164573828326624,0.21020656824111938
1708438213.6376305,-1.1085383892059326,-1.6800605259337367,-2.526170794163839,2.2842179971882324,-1.0164583365069788,0.21020221710205078
1708438213.639666,-1.1085965633392334,-1.680026193658346,-2.5261917749988,2.2842654424854736,-1.0165117422686976,0.21025536954402924
1708438213.6416433,-1.1085667610168457,-1.6801172695555628,-2.526158873234884,2.2842342096516113,-1.0164740721331995,0.21017350256443024
1708438213.6436594,-1.1085294485092163,-1.6800281010069789,-2.526187245045797,2.2842866617390136,-1.0164826552020472,0.21020658314228058
1708438213.6456735,-1.1085548400878906,-1.680063386956686,-2.5261665026294153,2.2842060762592773,-1.016486946736471,0.21018549799919128
1708438213.647632,-1.1085503101348877,-1.6800605259337367,-2.526187245045797,2.284172459239624,-1.0164912382708948,0.21019433438777924
1708438213.6496267,-1.1085401773452759,-1.6800724468626917,-2.5261665026294153,2.2842179971882324,-1.01650315919985,0.2102319896221161
1708438213.6516354,-1.1085712909698486,-1.680051942864889,-2.5261946360217493,2.2842535215565185,-1.0164573828326624,0.2102033644914627
1708438213.6537046,-1.1085383892059326,-1.6801015339293421,-2.5261946360217493,2.284299774760864,-1.0165355841266077,0.21017801761627197
1708438213.655685,-1.1085593700408936,-1.6800891361632289,-2.5262325445758265,2.2842179971882324,-1.016498867665426,0.21022295951843262
1708438213.6576805,-1.1085383892059326,-1.680068155328268,-2.526224676762716,2.284266634578369,-1.0165107885943812,0.21019887924194336
1708438213.6596491,-1.1085548400878906,-1.6800724468626917,-2.5261991659747522,2.2842535215565185,-1.0164979139911097,0.2102465182542801
1708438213.6616826,-1.1085683107376099,-1.680084844628805,-2.526229206715719,2.284304066295288,-1.0164945761310022,0.21021105349063873
1708438213.6636348,-1.108563780784607,-1.6800562343993128,-2.5261693636523646,2.28422658025708,-1.0165217558490198,0.21023644506931305
1708438213.6656616,-1.1084930896759033,-1.680068155328268,-2.5262113253222864,2.2842299181171875,-1.0165346304522913,0.21022742986679077
1708438213.667651,-1.108575701713562,-1.6800772152342738,-2.5261693636523646,2.284266634578369,-1.0165465513812464,0.2101869434118271
1708438213.6696486,-1.1084930896759033,-1.680063386956686,-2.526170794163839,2.284218950862549,-1.0166118780719202,0.21025985479354858
1708438213.6716316,-1.1085190773010254,-1.6801015339293421,-2.526212517415182,2.2842342096516113,-1.016590420399801,0.21022742986679077
1708438213.6736627,-1.1084930896759033,-1.6800381145873011,-2.526207987462179,2.2842299181171875,-1.0165975729571741,0.21027658879756927
1708438213.6756582,-1.1085894107818604,-1.680051942864889,-2.5262158552752894,2.284242792720459,-1.0166099707232874,0.21021100878715515
1708438213.6776578,-1.1085548400878906,-1.680063386956686,-2.526203695927755,2.28422658025708,-1.0165889898883265,0.21025991439819336
1708438213.6796887,-1.1084975004196167,-1.6800815067686976,-2.5261827150927942,2.284177227611206,-1.0166304747210901,0.210227370262146
1708438213.681627,-1.108511209487915,-1.6800443134703578,-2.5261693636523646,2.2842299181171875,-1.0166142622577112,0.21024352312088013
1708438213.6836386,-1.1084811687469482,-1.680110593835348,-2.526203695927755,2.284254713649414,-1.0166381041156214,0.21022294461727142
1708438213.6856372,-1.1085518598556519,-1.6800605259337367,-2.5261858145343226,2.2842060762592773,-1.0166586081134241,0.21020661294460297
1708438213.687673,-1.1085264682769775,-1.6800233326353968,-2.526187245045797,2.28420273839917,-1.0166543165790003,0.2102319747209549
1708438213.6896467,-1.1085355281829834,-1.6800843677916468,-2.5261574427234095,2.284194155330322,-1.0166295210467737,0.2101779580116272
1708438213.691637,-1.1085145473480225,-1.6800381145873011,-2.5262323061572474,2.2842470842548828,-1.0166338125811976,0.21021105349063873
1708438213.6936922,-1.108490228652954,-1.680108209649557,-2.5261946360217493,2.2841898637958984,-1.0166872183429163,0.21021102368831635
1708438213.6956346,-1.1085326671600342,-1.680063386956686,-2.5262325445758265,2.2841784197041015,-1.0166218916522425,0.21022741496562958
1708438213.697663,-1.1084601879119873,-1.6800991497435511,-2.5261500517474573,2.28422658025708,-1.0166414419757288,0.2102644145488739
1708438213.6996493,-1.1085491180419922,-1.6800757847227992,-2.526207987462179,2.2842351633259277,-1.0166381041156214,0.21021103858947754
1708438213.701716,-1.1084738969802856,-1.6801039181151332,-2.5262323061572474,2.28420273839917,-1.0167024771319788,0.21021859347820282
1708438213.7036777,-1.1084754467010498,-1.6801039181151332,-2.5261648336993616,2.284153385753296,-1.0167229811297815,0.21018245816230774
1708438213.7056673,-1.108417272567749,-1.6801163158812464,-2.5262280146228235,2.2841664987751464,-1.0167220274554651,0.21022556722164154
1708438213.7076967,-1.1084754467010498,-1.680047174493307,-2.5262113253222864,2.2841858106800537,-1.0167186895953577,0.2102200984954834
1708438213.709692,-1.108511209487915,-1.6801344356932582,-2.5262323061572474,2.284153385753296,-1.0166657606707972,0.21018989384174347
1708438213.7117019,-1.1084306240081787,-1.6800991497435511,-2.526220146809713,2.284203215236328,-1.0167143980609339,0.21016466617584229
1708438213.7136776,-1.1084754467010498,-1.680080076257223,-2.5261903444873255,2.284153385753296,-1.016738239918844,0.21017342805862427
1708438213.7156696,-1.108456015586853,-1.680063386956686,-2.5262280146228235,2.2841903406330566,-1.0167425314532679,0.21020787954330444
1708438213.717673,-1.1084470748901367,-1.680112978021139,-2.5262280146228235,2.284175081843994,-1.0167177359210413,0.2102021872997284
1708438213.719639,-1.1084108352661133,-1.6800757847227992,-2.526203695927755,2.2841426569172363,-1.016738239918844,0.21024352312088013
1708438213.7216253,-1.1083937883377075,-1.6801463566222132,-2.5262280146228235,2.284139319057129,-1.0167339483844202,0.21023644506931305
1708438213.7236629,-1.1083656549453735,-1.6801282368102015,-2.5262396971331995,2.284118815059326,-1.016766373311178,0.21028557419776917
1708438213.7256265,-1.1084200143814087,-1.6800619564452113,-2.5262487570392054,2.2840825754353027,-1.0167534987079065,0.21022740006446838
1708438213.727648,-1.108402967453003,-1.6801253757872523,-2.5262518564807337,2.284078283900879,-1.016716782246725,0.21020221710205078
1708438213.7296987,-1.1083537340164185,-1.6801163158812464,-2.5262892881976526,2.284050150508545,-1.0167697111712855,0.21016907691955566
1708438213.7317004,-1.108402967453003,-1.680063863793844,-2.5263012091266077,2.284050150508545,-1.0167978445636194,0.2102229744195938
1708438213.7336395,-1.1083656549453735,-1.6800991497435511,-2.5262354055987757,2.2840143877216796,-1.0168021360980433,0.21025541424751282
1708438213.7356317,-1.1083552837371826,-1.6800924740233363,-2.526250425969259,2.2840275007435302,-1.0167773405658167,0.21021410822868347
1708438213.7376337,-1.108359694480896,-1.6800757847227992,-2.526278797780172,2.2840275007435302,-1.0168307463275355,0.21028852462768555
1708438213.7396367,-1.1082935333251953,-1.6801120243468226,-2.5263119379626673,2.2840186792561035,-1.0168502966510218,0.21031245589256287
1708438213.7416239,-1.1083688735961914,-1.6801163158812464,-2.5262909571277063,2.28398243963208,-1.0168374220477503,0.2103005349636078
1708438213.743629,-1.1082441806793213,-1.680112978021139,-2.5263147989856165,2.2840279775806884,-1.0168007055865687,0.21030491590499878
1708438213.7456532,-1.108283281326294,-1.6801039181151332,-2.526376549397604,2.283970518703125,-1.016874138508932,0.21025267243385315
1708438213.7476478,-1.1082295179367065,-1.6801344356932582,-2.5263808409320276,2.283933563823364,-1.0168622175799769,0.21033206582069397
1708438213.7496886,-1.108250379562378,-1.6801625690855921,-2.526383940373556,2.2839791017719726,-1.0168612639056605,0.2103140950202942
1708438213.7516582,-1.108250379562378,-1.6801463566222132,-2.526372019444601,2.2839595514484863,-1.0168374220477503,0.21036037802696228
1708438213.7536545,-1.1082005500793457,-1.6801625690855921,-2.526383940373556,2.283853455180786,-1.016857926045553,0.210359126329422
1708438213.7556531,-1.1082594394683838,-1.6800924740233363,-2.5263825098620813,2.283853455180786,-1.016869846974508,0.21037551760673523
1708438213.7576537,-1.108197808265686,-1.6800710163512171,-2.526379410420553,2.2839159208485107,-1.0168407599078577,0.2103709578514099
1708438213.7596538,-1.1081829071044922,-1.680112978021139,-2.526403252278463,2.2838503557392578,-1.0169180075274866,0.21039056777954102
1708438213.7616584,-1.1081874370574951,-1.6800500355162562,-2.526403252278463,2.2838052946278076,-1.016860310231344,0.2104024887084961
1708438213.7636902,-1.1081337928771973,-1.6800710163512171,-2.526407782231466,2.2838634687611084,-1.0169385115252894,0.21041887998580933
1708438213.7656662,-1.1081501245498657,-1.6800881824889125,-2.526403252278463,2.2837933736988525,-1.0169299284564417,0.21046391129493713
1708438213.7676654,-1.1081607341766357,-1.6800948582091273,-2.5264151732074183,2.2838546472736816,-1.0169580618487757,0.21048319339752197
1708438213.769653,-1.1080927848815918,-1.680080076257223,-2.526419464741842,2.2838303285786132,-1.0169571081744593,0.21050280332565308
1708438213.7716203,-1.1080825328826904,-1.6801535091795863,-2.526436154042379,2.2838215070911865,-1.0169852415667933,0.21053433418273926
1708438213.7736578,-1.1080751419067383,-1.6800905666747035,-2.5264347235309046,2.2838193613239746,-1.0169780890094202,0.2106027901172638
1708438213.775647,-1.1080751419067383,-1.6801492176451625,-2.526442352925436,2.283794565791748,-1.0170300642596644,0.21065080165863037
1708438213.7776496,-1.1080224514007568,-1.6801282368102015,-2.5264273325549524,2.2837912279316406,-1.0169933477984827,0.21067944169044495
1708438213.779707,-1.1080687046051025,-1.6801492176451625,-2.5264886061297815,2.2837750154682617,-1.0170171896563929,0.21075567603111267
1708438213.781677,-1.1080150604248047,-1.6801611385741175,-2.5264468828784388,2.283648653621338,-1.0170376936541956,0.21079009771347046
1708438213.7836506,-1.1079986095428467,-1.6801253757872523,-2.5264514128314417,2.2837137418934326,-1.017090145741598,0.21089646220207214
1708438213.785628,-1.107920527458191,-1.6801282368102015,-2.52649170557131,2.2836944299885253,-1.0170615355121058,0.21093255281448364
1708438213.7876577,-1.1079338788986206,-1.6801682911314906,-2.526508394871847,2.283691092128418,-1.0170815626727503,0.21096518635749817
1708438213.789631,-1.1079628467559814,-1.6801444492735804,-2.5264843145953577,2.283679171199463,-1.017097298298971,0.2110922634601593
1708438213.7916274,-1.1078976392745972,-1.6801444492735804,-2.526524607335226,2.2836178976246337,-1.0171173254596155,0.2111598402261734
1708438213.7936506,-1.1079068183898926,-1.6801687679686488,-2.526499334965841,2.283651037807129,-1.0171335379229944,0.21116454899311066
1708438213.795635,-1.1078569889068604,-1.6801473102965296,-2.526461903248922,2.2836429315754394,-1.0171659628497522,0.2112574726343155
1708438213.7976518,-1.1078377962112427,-1.680154939691061,-2.52656060854067,2.2835823732563476,-1.0171573797809046,0.2113499939441681
1708438213.7996283,-1.107830286026001,-1.68017639736318,-2.526511255894796,2.2835704523273925,-1.0171898047076624,0.21137113869190216
1708438213.8016558,-1.107818365097046,-1.6802169285216273,-2.526593271886007,2.283607168788574,-1.0171735922442835,0.2115461528301239
1708438213.8036704,-1.1078155040740967,-1.6802283726134242,-2.5265801588641565,2.2835909563251953,-1.0172022024737757,0.21161796152591705
1708438213.8056605,-1.1078245639801025,-1.6802660427489222,-2.526533905659811,2.2835134702869873,-1.0171683470355433,0.2117212861776352
1708438213.8076746,-1.1078007221221924,-1.6802479229369105,-2.5265308062182825,2.2835470873066406,-1.017221752797262,0.21180963516235352
1708438213.8096573,-1.1077508926391602,-1.6802174053587855,-2.526587788258688,2.283522291774414,-1.0172012487994593,0.21191014349460602
1708438213.8116622,-1.10772705078125,-1.6802760563292445,-2.5265665690051478,2.283515616054199,-1.0172207991229456,0.21201038360595703
1708438213.8136744,-1.107738971710205,-1.6802808247008265,-2.5265923182116907,2.2834788995930175,-1.0172413031207483,0.21210436522960663
1708438213.8156703,-1.1077523231506348,-1.6803285084166468,-2.5265501181231897,2.28345434247937,-1.0172002951251429,0.21219725906848907
1708438213.817759,-1.1076908111572266,-1.680270334283346,-2.5266416708575647,2.2834176260181884,-1.0173018614398401,0.2122841775417328
1708438213.8196898,-1.1076580286026,-1.6802789173521937,-2.526562039052145,2.2834674555012207,-1.0173175970660608,0.21240559220314026
1708438213.8216798,-1.1075894832611084,-1.6802946529784144,-2.526644531880514,2.283487482661865,-1.017313305531637,0.21245764195919037
1708438213.8236828,-1.107617735862732,-1.6803528271117152,-2.5266268889056605,2.2834231096455078,-1.0173566977130335,0.21264949440956116
1708438213.8256836,-1.107607364654541,-1.6803347072997035,-2.5266059080706995,2.283402605647705,-1.0173524061786097,0.21274828910827637
1708438213.827653,-1.1076147556304932,-1.6803719005980433,-2.526602808629171,2.2834316927143554,-1.0173853079425257,0.2129010260105133
1708438213.829688,-1.1075738668441772,-1.68042053798818,-2.5266476313220423,2.2833542066761474,-1.0174697081195276,0.2129834145307541
1708438213.8316941,-1.1075994968414307,-1.6804124317564906,-2.5266476313220423,2.2834243017384033,-1.0174482504474085,0.21312864124774933
1708438213.8336935,-1.1075665950775146,-1.6804248295226039,-2.5266342798816126,2.2833306032368164,-1.0174935499774378,0.21329763531684875
1708438213.835648,-1.1075472831726074,-1.6803661785521449,-2.5266884008990687,2.283363028163574,-1.0174930731402796,0.21335753798484802
1708438213.8376813,-1.1075280904769897,-1.6803661785521449,-2.5266881624804896,2.283339186305664,-1.0174930731402796,0.21355654299259186
1708438213.8396466,-1.1075326204299927,-1.6804315052428187,-2.5266881624804896,2.2833759027668457,-1.017484490071432,0.21373793482780457
1708438213.8416364,-1.107473611831665,-1.680460592309469,-2.5266838709460657,2.2833358484455566,-1.0174759070025843,0.21384407579898834
1708438213.8436534,-1.1074588298797607,-1.6805054150023402,-2.526707712803976,2.283294840449951,-1.0175374189959925,0.21399085223674774
1708438213.8456364,-1.107460379600525,-1.6804758510985316,-2.526686731969015,2.2832421499439697,-1.0175002256976526,0.2141599953174591
1708438213.8476586,-1.1074230670928955,-1.6804758510985316,-2.526691261922018,2.28328721105542,-1.0175321737872522,0.21431559324264526
1708438213.849654,-1.1073681116104126,-1.6804124317564906,-2.526703182850973,2.2832466798969726,-1.0175774733172815,0.2144337296485901
1708438213.8516755,-1.1074192523956299,-1.6805368862547816,-2.5267227331744593,2.283280058498047,-1.017552677785055,0.21460871398448944
1708438213.8536785,-1.1074162721633911,-1.6804667911925257,-2.5267346541034144,2.2832109171101074,-1.017613712941305,0.21478867530822754
1708438213.8556385,-1.1073297262191772,-1.680462499658102,-2.526749912892477,2.2832109171101074,-1.0175560156451624,0.21497711539268494
1708438213.857675,-1.1073386669158936,-1.6805063686766566,-2.526782814656393,2.283203287715576,-1.0175965468036097,0.21517038345336914
1708438213.8596804,-1.1073216199874878,-1.6805111370482386,-2.5268123785602015,2.2832037645527343,-1.0175965468036097,0.21531713008880615
1708438213.8616352,-1.1073278188705444,-1.6805111370482386,-2.5267706553088587,2.2832164007374267,-1.017571274434225,0.21549242734909058
1708438213.863657,-1.107245922088623,-1.6805654964842738,-2.526839796696798,2.2831951814838867,-1.0176366011248987,0.215745210647583
1708438213.865642,-1.1072711944580078,-1.680551668206686,-2.526844088231222,2.2831637102314453,-1.0176852385150355,0.21596553921699524
1708438213.8677285,-1.1072547435760498,-1.6805697880186976,-2.5268517176257532,2.2831100660511474,-1.017717186604635,0.21609845757484436
1708438213.869643,-1.1072384119033813,-1.680535455743307,-2.52682334581484,2.2831100660511474,-1.017691437398092,0.21635636687278748
1708438213.8716447,-1.1072473526000977,-1.680554529229635,-2.526867930089132,2.283135100001953,-1.0177000204669397,0.21657028794288635
1708438213.8736851,-1.1071783304214478,-1.680575510064596,-2.526872460042135,2.283139391536377,-1.0177400747882288,0.21682757139205933
1708438213.8756495,-1.1071946620941162,-1.6805969677367152,-2.5268426577197474,2.28316514074292,-1.0178011099444788,0.21705088019371033
1708438213.8776581,-1.107158899307251,-1.6805712185301722,-2.5268383661853235,2.2831320005604248,-1.0178573767291468,0.21728727221488953
1708438213.8796988,-1.107158899307251,-1.6806203327574671,-2.5269084612475794,2.28304569303479,-1.0178888479815882,0.21749377250671387
1708438213.8816504,-1.1071680784225464,-1.6805993519225062,-2.5268951098071497,2.283111734981201,-1.0178802649127405,0.21767494082450867
1708438213.883653,-1.107089877128601,-1.6805993519225062,-2.526951853428976,2.283116026515625,-1.0179246107684534,0.21796414256095886
1708438213.8856447,-1.107106328010559,-1.6806236706175746,-2.526956383381979,2.283099814052246,-1.0179045836078089,0.21827378869056702
1708438213.887678,-1.1071152687072754,-1.6806427441039027,-2.526943031941549,2.2830943304249267,-1.0179522673236292,0.218520849943161
1708438213.8896492,-1.1071317195892334,-1.6807223759093226,-2.5269058386432093,2.2830392557331542,-1.0179641882525843,0.21873801946640015
1708438213.8916426,-1.1071003675460815,-1.6806336841978968,-2.526947561894552,2.283017559642456,-1.0180042425738733,0.21902680397033691
1708438213.8937287,-1.1070631742477417,-1.6805840931334437,-2.5270000139819544,2.2830392557331542,-1.0179913679706019,0.2193397581577301
1708438213.895665,-1.1070460081100464,-1.680667062798971,-2.5270002524005335,2.2829899030872802,-1.0180123488055628,0.21956148743629456
1708438213.8976634,-1.1070340871810913,-1.68068327526235,-2.5269838015185755,2.2830192285725097,-1.0179742018329065,0.21992361545562744
1708438213.899664,-1.1070268154144287,-1.6806656322874964,-2.5270448366748255,2.2829910951801757,-1.0180395285235804,0.2201453447341919
1708438213.9016807,-1.1070029735565186,-1.6806537113585414,-2.5270357767688196,2.2830115991779785,-1.0181048552142542,0.22046557068824768
1708438213.9036539,-1.1070075035095215,-1.6806580028929652,-2.527085606251852,2.282974882716797,-1.0181034247027796,0.22078439593315125
1708438213.9056525,-1.1070029735565186,-1.680699964562887,-2.5270260016070765,2.2829348283955078,-1.0180991331683558,0.22106456756591797
1708438213.9076424,-1.1070001125335693,-1.6807075939574183,-2.5270870367633265,2.2829910951801757,-1.018127743397848,0.22141161561012268
1708438213.909644,-1.1070283651351929,-1.6807900867857875,-2.527100388203756,2.2829271990009765,-1.018155876790182,0.22175610065460205
1708438213.9117107,-1.1070327758789062,-1.6807152233519496,-2.527073685322897,2.282914085979126,-1.0181754271136683,0.2220422923564911
1708438213.9136555,-1.1070091724395752,-1.6807481251158656,-2.5270825068103235,2.2829877573200683,-1.0181668440448206,0.2223624289035797
1708438213.9156764,-1.1069717407226562,-1.6807719669737757,-2.5271123091327112,2.2829360204884033,-1.0182440916644495,0.2227005660533905
1708438213.9176595,-1.1069519519805908,-1.6807433567442835,-2.5270944277392786,2.282952232951782,-1.0182765165912073,0.2230525016784668
1708438213.9196367,-1.106902003288269,-1.6807719669737757,-2.527168099080221,2.282911463374756,-1.018219296132223,0.22329789400100708
1708438213.9217222,-1.1068992614746094,-1.6807838879027308,-2.527172390614645,2.282919092769287,-1.0182879606830042,0.22367069125175476
1708438213.9236302,-1.1069400310516357,-1.6807838879027308,-2.527130667363302,2.2829276758381347,-1.0182989279376429,0.22402676939964294
1708438213.9256568,-1.1069157123565674,-1.6808048687376917,-2.527179781590597,2.282919092769287,-1.0183919111834925,0.2243156135082245
1708438213.927641,-1.1068873405456543,-1.6808082065977992,-2.5271502176867884,2.2829102712818603,-1.018379036580221,0.22470048069953918
1708438213.9296873,-1.1068702936172485,-1.6808039150633753,-2.5272370020495813,2.2828704553791503,-1.0183985869037073,0.22505666315555573
1708438213.9316335,-1.1068347692489624,-1.68078674892568,-2.5271742979632776,2.282911463374756,-1.0184639135943812,0.22541603446006775
1708438213.9336567,-1.1068421602249146,-1.6807495556273402,-2.5272071997271937,2.2829276758381347,-1.0184100309955042,0.22577980160713196
1708438213.9356332,-1.1068511009216309,-1.6808229885497035,-2.5272517840014856,2.282879038447998,-1.0184338728534144,0.2261512130498886
1708438213.9376357,-1.1068063974380493,-1.6808139286436976,-2.527246061955587,2.2828866678425292,-1.0184820334063929,0.22652743756771088
1708438213.9396374,-1.106836199760437,-1.6808272800841273,-2.527226511632101,2.282895250911377,-1.0185187498675745,0.22689388692378998
1708438213.9416368,-1.1068050861358643,-1.680828710595602,-2.527276102696554,2.282808943385742,-1.0184853712665003,0.22730271518230438
1708438213.9436402,-1.1067869663238525,-1.6807900867857875,-2.5273149649249476,2.2828542429157714,-1.0185588041888636,0.2276318371295929
1708438213.9456332,-1.1067836284637451,-1.6808272800841273,-2.527299944554464,2.2828594881245117,-1.018545929585592,0.2280512899160385
1708438213.9476388,-1.106796145439148,-1.6808186970152796,-2.5273566881762903,2.2828189569660644,-1.0185416380511683,0.22845852375030518
1708438213.949684,-1.1067298650741577,-1.6808387241759242,-2.5273435751544397,2.2828263479420166,-1.0185859839068812,0.22887159883975983
1708438213.9516797,-1.106767177581787,-1.6808468304076136,-2.5273929278003138,2.282834692592285,-1.0186103026019495,0.22927424311637878
1708438213.9536505,-1.106750726699829,-1.6808515987791957,-2.5273497740374964,2.28284661352124,-1.0186427275287073,0.2296396940946579
1708438213.9556456,-1.1067478656768799,-1.6808496914305628,-2.5273662249194544,2.2828351694294433,-1.018613640462057,0.23012158274650574
1708438213.9576802,-1.1067224740982056,-1.6808425388731898,-2.5273991266833704,2.282789631480835,-1.0187557379352015,0.23051953315734863
1708438213.9596639,-1.1067806482315063,-1.6808377705016078,-2.5274351278888147,2.282843752498291,-1.0187752882586878,0.23094189167022705
1708438213.9616568,-1.1066516637802124,-1.6808544598021449,-2.527426306401388,2.2828683096119384,-1.0188186804400843,0.23144787549972534
1708438213.9636548,-1.1067450046539307,-1.680861612359518,-2.5274351278888147,2.2828306394764404,-1.0188143889056605,0.23180434107780457
1708438213.9657037,-1.1066815853118896,-1.6809035740294398,-2.527442518864767,2.2827982145496826,-1.0188301245318812,0.23222953081130981
1708438213.9676697,-1.1066951751708984,-1.680892129937643,-2.527487341557638,2.2828306394764404,-1.018862549458639,0.23264378309249878
1708438213.9696648,-1.1067030429840088,-1.6808740101256312,-2.527548853551046,2.2828306394764404,-1.0188735167132776,0.2330661416053772
1708438213.971626,-1.1066668033599854,-1.680885454217428,-2.527473751698629,2.2828070360371093,-1.0189064184771937,0.23344025015830994
1708438213.973637,-1.1067041158676147,-1.680857320825094,-2.5275264422046106,2.282864971751831,-1.018937889729635,0.2338746190071106
1708438213.975643,-1.1066668033599854,-1.680894514123434,-2.5275803248034876,2.282860680217407,-1.0189898649798792,0.23441803455352783
1708438213.9776514,-1.1066385507583618,-1.680840631524557,-2.527550284062521,2.2827951151081542,-1.0190056006061,0.23481905460357666
1708438213.9796536,-1.106701135635376,-1.680918355981344,-2.5275428930865687,2.282815619105957,-1.0190628210650843,0.2352820634841919
1708438213.9816346,-1.106635570526123,-1.68092741588735,-2.527607504521505,2.282811327571533,-1.0190823713885706,0.23571732640266418
1708438213.9836273,-1.1066220998764038,-1.6809517345824183,-2.5276315847979944,2.282811327571533,-1.0190942923175257,0.23622481524944305
1708438213.9856489,-1.106628179550171,-1.6809092960753382,-2.5275984446154993,2.282799406642578,-1.0191095511065882,0.23670576512813568
1708438213.9876404,-1.106628179550171,-1.680944105187887,-2.5276735464679163,2.2827951151081542,-1.0191252867328089,0.23713551461696625
1708438213.9896405,-1.1065573692321777,-1.6808811626830042,-2.5276556650744837,2.282815619105957,-1.0191782156573694,0.23767715692520142
1708438213.9916344,-1.106628179550171,-1.680918355981344,-2.5277212301837366,2.2828189569660644,-1.0191777388202112,0.23810935020446777
1708438213.993642,-1.1065857410430908,-1.6808763943114222,-2.527679506932394,2.282791777248047,-1.0192015806781214,0.23860062658786774
1708438213.995652,-1.106559157371521,-1.6809426746764125,-2.527703348790304,2.2827865320393066,-1.0192740599261683,0.23911720514297485
1708438213.997647,-1.106554627418518,-1.6809026203551234,-2.527703348790304,2.282755060786865,-1.0192893187152308,0.23961129784584045
1708438213.9996262,-1.1065919399261475,-1.6809092960753382,-2.527715269719259,2.2827669817158203,-1.0193136374102991,0.24003712832927704
1708438214.0017235,-1.1065397262573242,-1.6809588871397914,-2.5277722517596644,2.282843752498291,-1.0193136374102991,0.24059496819972992
1708438214.0036645,-1.106581687927246,-1.6809545956053675,-2.527785603200094,2.2827669817158203,-1.0193527380572718,0.2410186529159546
1708438214.0056636,-1.1065016984939575,-1.6809050045409144,-2.5277469793902796,2.2828189569660644,-1.019376579915182,0.24155323207378387
1708438214.007689,-1.1065232753753662,-1.6808935604491175,-2.5277918020831507,2.282799406642578,-1.019437615071432,0.24202273786067963
1708438214.009681,-1.106526255607605,-1.6809307537474574,-2.5277708212481897,2.282787485713623,-1.019489590321676,0.2424558401107788
1708438214.0116835,-1.106489896774292,-1.6809750996031703,-2.527794901524679,2.2827703195759277,-1.0195258299456995,0.2429557591676712
1708438214.0136797,-1.1065034866333008,-1.6809479198851527,-2.527827803288595,2.2827789026447753,-1.0195205847369593,0.24347932636737823
1708438214.0157359,-1.1065107583999634,-1.6809336147704066,-2.5277860800372522,2.282815619105957,-1.0195282141314905,0.243941068649292
1708438214.017651,-1.1065107583999634,-1.6809174023070277,-2.5278757254229944,2.282811327571533,-1.0195639769183558,0.24446433782577515
1708438214.0196943,-1.1064631938934326,-1.6810203991331996,-2.5278175512896937,2.2828361231037597,-1.019670311604635,0.244934543967247
1708438214.021685,-1.106512427330017,-1.6809660396971644,-2.5279014746295374,2.2827746111103515,-1.019726578389303,0.2454422414302826
1708438214.0236924,-1.1064677238464355,-1.6809469662108363,-2.5278669039355677,2.2827951151081542,-1.0196316877948206,0.2459404319524765
1708438214.0256872,-1.1065258979797363,-1.6809660396971644,-2.5279043356524866,2.2827951151081542,-1.0197041670428675,0.2465018928050995
1708438214.0276778,-1.1064512729644775,-1.6809784374632777,-2.52788216272463,2.282799406642578,-1.0197084585772913,0.24700108170509338
1708438214.0296774,-1.1064722537994385,-1.6809693775572718,-2.527907435094015,2.2827908235737304,-1.019740406666891,0.24747085571289062
1708438214.031652,-1.1064026355743408,-1.6809784374632777,-2.5279601255999964,2.282831831569336,-1.019768540059225,0.24803951382637024
1708438214.0336497,-1.1063770055770874,-1.6809903583922328,-2.5279386679278772,2.282775564784668,-1.019792381917135,0.2485501766204834
1708438214.0356574,-1.1063952445983887,-1.6809455356993617,-2.5279675165759485,2.2828242021748046,-1.019815746937887,0.24904124438762665
1708438214.037641,-1.1064026355743408,-1.6809784374632777,-2.5279341379748743,2.282843752498291,-1.0198567549334925,0.2495397925376892
1708438214.0396605,-1.106369972229004,-1.6809693775572718,-2.5280032793628138,2.282791777248047,-1.0198763052569788,0.25007855892181396
1708438214.0416434,-1.1063863039016724,-1.6809946499266566,-2.528010908757345,2.282775564784668,-1.0198915640460413,0.2505621910095215
1708438214.0436347,-1.106408715248108,-1.6809588871397914,-2.5279791990863245,2.2828122812458496,-1.0199201742755335,0.2509917914867401
1708438214.0456471,-1.106420636177063,-1.6809612713255824,-2.527994219456808,2.2827951151081542,-1.0199807325946253,0.25158917903900146
1708438214.0476515,-1.1063475608825684,-1.6810022793211878,-2.528027359639303,2.2827257353016357,-1.0199883619891565,0.25205039978027344
1708438214.049658,-1.106306791305542,-1.6810232601561488,-2.528060261403219,2.282771273250244,-1.0200331846820276,0.2525483965873718
1708438214.0517037,-1.106335163116455,-1.681014200250143,-2.528039518986837,2.2827789026447753,-1.0200074354754847,0.25311872363090515
1708438214.0537174,-1.106306791305542,-1.6810680828490199,-2.5280543009387415,2.2828165727802734,-1.0200160185443323,0.25358450412750244
1708438214.0556664,-1.1063158512115479,-1.680972238580221,-2.5280678907977503,2.2827388483234863,-1.0201213995562952,0.2541516125202179
1708438214.0576684,-1.1062710285186768,-1.6810065708556117,-2.528074089680807,2.282763643855713,-1.0200756231891077,0.25458598136901855
1708438214.0596735,-1.1062636375427246,-1.68103088955068,-2.5280948320971888,2.282775564784668,-1.0201042334186,0.25503769516944885
1708438214.0616467,-1.1062666177749634,-1.680977006951803,-2.52810246149172,2.2827347952076416,-1.0201242605792444,0.25560641288757324
1708438214.0636778,-1.1062482595443726,-1.6810385189452113,-2.528135363255636,2.282763643855713,-1.0201399962054651,0.2561139464378357
1708438214.0656624,-1.1062653064727783,-1.6810633144774378,-2.528114382420675,2.2827185827442626,-1.020196262990133,0.25657084584236145
1708438214.0676622,-1.1061946153640747,-1.6810862026610316,-2.528114382420675,2.2827023702808837,-1.0201790968524378,0.2570542097091675
1708438214.069632,-1.106191635131836,-1.6810742817320765,-2.528168026600973,2.2826787668415527,-1.0202401320086878,0.2576073408126831
1708438214.0716255,-1.106134295463562,-1.6810409031310023,-2.5281220118152063,2.2827069002338867,-1.0201991240130823,0.2581300735473633
1708438214.0736485,-1.1061599254608154,-1.6810742817320765,-2.5281501452075403,2.2826503950306396,-1.0202801863299769,0.258600115776062
1708438214.0756478,-1.1061270236968994,-1.6810819111266078,-2.5281999746905726,2.2826668459125976,-1.020287815724508,0.25916457176208496
1708438214.0776818,-1.1060749292373657,-1.6811472378172816,-2.5282235781299036,2.2826596933552246,-1.020315949116842,0.25966426730155945
1708438214.079713,-1.106083869934082,-1.681131502191061,-2.5282281080829065,2.282611055965088,-1.0203316847430628,0.26011383533477783
1708438214.0816784,-1.1060595512390137,-1.681124826470846,-2.528226677571432,2.282557888621948,-1.0203469435321253,0.260591983795166
1708438214.083681,-1.1059834957122803,-1.6811863384642542,-2.528264109288351,2.282547636623047,-1.0204122702227991,0.26114821434020996
1708438214.085639,-1.10597562789917,-1.6812344990172328,-2.5282300154315394,2.282555027598999,-1.020423714314596,0.26160526275634766
1708438214.0876744,-1.1058974266052246,-1.681230207482809,-2.528300110493795,2.2825400072285156,-1.0204394499408167,0.2622368633747101
1708438214.08965,-1.1058827638626099,-1.681197305718893,-2.5282867590533655,2.282479448909424,-1.020447079335348,0.26276254653930664
1708438214.0916746,-1.1058226823806763,-1.681270261804098,-2.5282941500293177,2.282447500819824,-1.0204342047320765,0.2632894515991211
1708438214.093637,-1.1057862043380737,-1.6813036404051722,-2.528318230305807,2.282427950496338,-1.020475212727682,0.2637311518192291
1708438214.0956361,-1.1057924032211304,-1.6812974415221156,-2.5283153692828577,2.2823659616657714,-1.020527187977926,0.26416099071502686
1708438214.0976503,-1.105694055557251,-1.6814247570433558,-2.528330389653341,2.2822980123707275,-1.0205100218402308,0.2647266387939453
1708438214.0996604,-1.1056921482086182,-1.6813732586302699,-2.528346840535299,2.2822817999073486,-1.0205310026751917,0.2651459574699402
1708438214.1016552,-1.1056026220321655,-1.6814333401122035,-2.5283706823932093,2.2822834688374023,-1.0205710569964808,0.2656758725643158
1708438214.1036532,-1.1055827140808105,-1.6814457378783167,-2.5283616224872034,2.282235785121582,-1.0206239859210413,0.26612943410873413
1708438214.1056526,-1.105501651763916,-1.6814800701537074,-2.52842623392214,2.2822434145161132,-1.020594898854391,0.26658904552459717
1708438214.1076767,-1.1054675579071045,-1.6815220318236292,-2.5284934679614466,2.2822038370319824,-1.020606819783346,0.26707547903060913
1708438214.1096706,-1.105435848236084,-1.6815039120116175,-2.528483215962545,2.2821757036396484,-1.020651642476217,0.26761341094970703
1708438214.1116505,-1.105342984199524,-1.6816383800902308,-2.5285115877734583,2.282099171275757,-1.0206430594073694,0.26812970638275146
1708438214.1136942,-1.1052381992340088,-1.6816655598082484,-2.5285311380969446,2.282059355373047,-1.0206592718707483,0.26859816908836365
1708438214.1156583,-1.1052062511444092,-1.6816593609251917,-2.52850586572756,2.2820355135151367,-1.0206831137286585,0.26909682154655457
1708438214.1176877,-1.105085015296936,-1.681793829003805,-2.528567377720968,2.281991644496582,-1.0206945578204554,0.26954713463783264
1708438214.1196566,-1.1050100326538086,-1.6818181476988734,-2.5286031405078333,2.281890316600464,-1.0207951704608362,0.2700902819633484
1708438214.1216474,-1.1049301624298096,-1.6818777523436488,-2.5286555925952356,2.281839533443115,-1.0207942167865198,0.27055540680885315
1708438214.1236556,-1.1048163175582886,-1.6819592914977015,-2.5286839644061487,2.2818161684223632,-1.0208423773394983,0.2710792124271393
1708438214.12565,-1.1047385931015015,-1.681981702844137,-2.5286992231952112,2.2817436891743164,-1.0208662191974085,0.27156248688697815
1708438214.1279063,-1.1045690774917603,-1.6820546589293421,-2.5287604967700403,2.281700773830078,-1.020914379750387,0.2720452547073364
1708438214.1296487,-1.1044867038726807,-1.682110448876852,-2.5287755171405237,2.2815720277973632,-1.0209501425372522,0.27249875664711
1708438214.1316602,-1.104383111000061,-1.6821323833861292,-2.5287755171405237,2.2815119463154296,-1.0210474173175257,0.2729582190513611
1708438214.1336536,-1.1041926145553589,-1.6822658977904261,-2.528799597417013,2.2813748556324462,-1.0210264364825647,0.273436576128006
1708438214.1356537,-1.104062795639038,-1.6823212109007777,-2.5288265387164515,2.281282826060913,-1.0210946241961878,0.27388420701026917
1708438214.1376333,-1.1038398742675781,-1.6823679409422816,-2.5288718382464808,2.2812158304401855,-1.021113697682516,0.2743386924266815
1708438214.1396608,-1.1036983728408813,-1.6825176678099574,-2.528961483632223,2.281111641521118,-1.0211623350726526,0.274858295917511
1708438214.14164,-1.1034384965896606,-1.6825643978514613,-2.528985325490133,2.2809595304676513,-1.0211775938617151,0.2752232849597931
1708438214.1436274,-1.1032928228378296,-1.6827389202513636,-2.5290167967425745,2.2807976442524414,-1.0212295691119593,0.27569133043289185
1708438214.1456606,-1.1030728816986084,-1.6828328571715296,-2.528994623814718,2.280686779613159,-1.0213149229632776,0.2761090099811554
1708438214.1476529,-1.1028988361358643,-1.6828676662840785,-2.529088560734884,2.2805682855793457,-1.0213301817523401,0.2765469551086426
1708438214.1496427,-1.1026155948638916,-1.6829964123167933,-2.529087845479147,2.2803918558308105,-1.0213616530047815,0.2770307958126068
1708438214.1516356,-1.1023132801055908,-1.6831118069090785,-2.529168430958883,2.2801987367817382,-1.021421257649557,0.2774824798107147
1708438214.1536558,-1.1020756959915161,-1.683240076104635,-2.5291627089129847,2.280092402095459,-1.0215466658221644,0.2778804302215576
1708438214.1556425,-1.10182785987854,-1.6834055385985316,-2.529257122670309,2.2798845010944824,-1.0215652624713343,0.27831605076789856
1708438214.157675,-1.10151207447052,-1.6834918461241664,-2.5292943159686487,2.279647036189697,-1.0216696898089808,0.27873724699020386
1708438214.1596484,-1.1012392044067383,-1.6836449108519496,-2.529302183781759,2.2794462877460937,-1.0217135588275355,0.279198557138443
1708438214.161668,-1.100952386856079,-1.6837288341917933,-2.5294323603259485,2.2792507845112304,-1.021768871937887,0.2795410454273224
1708438214.1636796,-1.100603461265564,-1.6839152775206507,-2.529455010090963,2.279090567226074,-1.0218494574176233,0.2800132930278778
1708438214.165635,-1.1003162860870361,-1.6840836010374964,-2.5295148531543177,2.2788924413868408,-1.021961514149801,0.2803967595100403
1708438214.1676326,-1.0999306440353394,-1.6842385731139125,-2.529579226170675,2.278639240855835,-1.0220215956317347,0.28080666065216064
1708438214.1696649,-1.09959876537323,-1.684362073937887,-2.5296765009509485,2.278416081065796,-1.022149387990133,0.2811943590641022
1708438214.1716757,-1.0992432832717896,-1.6844846210875453,-2.529764954243795,2.2781881529041748,-1.0221932570086878,0.28164294362068176
1708438214.1736448,-1.09886634349823,-1.6847554645934046,-2.529783550892965,2.277890606517456,-1.0222771803485315,0.281950980424881
1708438214.175647,-1.0984452962875366,-1.6849471531310023,-2.529900137578146,2.2776266771503906,-1.0224087874041956,0.2823505103588104
1708438214.1776612,-1.0979790687561035,-1.685108324090475,-2.5299511591540735,2.2772983747669677,-1.022529427205221,0.2827169895172119
1708438214.1796467,-1.0975970029830933,-1.6853825054564417,-2.5300143400775355,2.2770232397266845,-1.022583309804098,0.2831675708293915
1708438214.1817007,-1.0972113609313965,-1.6856228313841761,-2.530132834111349,2.2767276006885986,-1.0227239767657679,0.28352025151252747
1708438214.1836283,-1.096762776374817,-1.6858059368529261,-2.5302332083331507,2.276366873378418,-1.0227955023394983,0.2838480770587921
1708438214.1856537,-1.0963068008422852,-1.6860047779478968,-2.5303261915790003,2.276071472758911,-1.0228913466082972,0.2841891646385193
1708438214.187635,-1.0958203077316284,-1.686247011224264,-2.530389134083883,2.275752468700073,-1.0229957739459437,0.2845974862575531
1708438214.189637,-1.095284104347229,-1.6865211925902308,-2.530447785054342,2.2754239278980712,-1.0231927076922815,0.2849239408969879
1708438214.1916351,-1.0947562456130981,-1.68674959758901,-2.530572001134054,2.275020046825073,-1.023315731679098,0.28529199957847595
1708438214.1936269,-1.0942116975784302,-1.687019487420553,-2.5307083765613,2.2745913702198486,-1.0233987013446253,0.285613477230072
1708438214.1956236,-1.093660593032837,-1.6872807941832484,-2.530783478413717,2.274260922069214,-1.0235870520221155,0.28598126769065857
1708438214.197657,-1.0930187702178955,-1.6875807247557582,-2.530886952077047,2.2738446432301025,-1.0237305800067347,0.28627505898475647
1708438214.19963,-1.0924025774002075,-1.6878839931883753,-2.5310190359698694,2.2734288412281494,-1.0239270369159144,0.28657853603363037
1708438214.2016344,-1.0918233394622803,-1.688216348687643,-2.531144920979635,2.2730259138294677,-1.0240052382098597,0.28692981600761414
1708438214.203633,-1.091145396232605,-1.6885811291136683,-2.531285587941305,2.272556944484375,-1.024198357258932,0.28722912073135376
1708438214.2056472,-1.0905195474624634,-1.6888805828490199,-2.5314295927630823,2.272162361735962,-1.0243538061725062,0.287492573261261
1708438214.2076821,-1.0898345708847046,-1.6892358265318812,-2.5315080324756067,2.271608515376709,-1.0245707670794886,0.28783223032951355
1708438214.20964,-1.0891636610031128,-1.689524313012594,-2.531656328831808,2.2712549406239013,-1.0247209707843226,0.2880890965461731
1708438214.2116513,-1.0884019136428833,-1.6898566685118617,-2.531771723424093,2.2706572252460937,-1.0249541441546839,0.28835129737854004
1708438214.2136943,-1.0876909494400024,-1.6903025112547816,-2.5319531599627894,2.2702595430561523,-1.0250924269305628,0.28865209221839905
1708438214.2157054,-1.0869135856628418,-1.6906644306578578,-2.532104555760519,2.2696778017231445,-1.0253132025348108,0.28902900218963623
1708438214.2177055,-1.0861586332321167,-1.691005369225973,-2.532220188771383,2.269148512477539,-1.025492016469137,0.28926682472229004
1708438214.2196922,-1.0853792428970337,-1.6913978062071742,-2.5323968569384974,2.2685836988636474,-1.025712792073385,0.2895630896091461
1708438214.2216506,-1.0845310688018799,-1.6918302975096644,-2.532532040272848,2.268097086543701,-1.0258873144732874,0.28982648253440857
1708438214.2237003,-1.0836822986602783,-1.6922465763487757,-2.532722059880392,2.267498417491577,-1.0261643568622034,0.2900763154029846
1708438214.22566,-1.0828548669815063,-1.6926890812315882,-2.5328694025622767,2.2668842512318115,-1.0263107458697718,0.29029911756515503
1708438214.2276847,-1.0819737911224365,-1.6930872402586878,-2.533058230076925,2.266321821803711,-1.0265510717975062,0.2906284034252167
1708438214.229657,-1.0810779333114624,-1.6935068569579066,-2.533187452946798,2.2657710748859863,-1.026750389729635,0.29083484411239624
1708438214.2316346,-1.080138087272644,-1.6939894161620082,-2.5333924929248255,2.265155001277588,-1.0269864241229456,0.2910621166229248
1708438214.233663,-1.079148292541504,-1.6944405041136683,-2.5335965792285364,2.264441652888916,-1.027205769215719,0.29128509759902954
1708438214.2356632,-1.0781949758529663,-1.694899698297018,-2.533768955861227,2.2638212877460937,-1.0274527708636683,0.2914752960205078
1708438214.2376628,-1.0772684812545776,-1.6954189739623011,-2.5339489618884485,2.2631704050251464,-1.0277145544635218,0.2917352020740509
1708438214.2396474,-1.076257586479187,-1.6958781681456507,-2.5341978708850306,2.2624949651905517,-1.0279167334186,0.2919389009475708
1708438214.2416427,-1.0752241611480713,-1.6964107952513636,-2.5343523661242884,2.2618271547504882,-1.0281603972064417,0.2922114133834839
1708438214.24368,-1.074195146560669,-1.6969496212401332,-2.5345564524279993,2.2610906797596435,-1.0284197966205042,0.2923562228679657
1708438214.2456455,-1.073164463043213,-1.6974317036070765,-2.534760300313131,2.260314865703247,-1.0287073294269007,0.2925926148891449
1708438214.2477567,-1.0720863342285156,-1.6979781589903773,-2.535025660191671,2.2596191602894287,-1.02897817293276,0.29279330372810364
1708438214.2497127,-1.0709357261657715,-1.6985494099059046,-2.5351980368243616,2.258936329478882,-1.029278580342428,0.292996346950531
1708438214.2516673,-1.0698699951171875,-1.6990720234312953,-2.53542143503298,2.2581941324421386,-1.0295456091510218,0.29319995641708374
1708438214.2536948,-1.0687038898468018,-1.6997057400145472,-2.535661284123556,2.257380648250244,-1.0298774878131312,0.293321430683136
1708438214.2556534,-1.067576289176941,-1.7002226314940394,-2.535877291356222,2.256600542659424,-1.0301697889911097,0.29359176754951477
1708438214.2577174,-1.0664395093917847,-1.700841566125387,-2.5360680262195032,2.2557636934467773,-1.0305092970477503,0.2936849296092987
1708438214.2596667,-1.065239667892456,-1.7014357052245082,-2.5362959543811243,2.254964752788208,-1.030799690877096,0.29390135407447815
1708438214.2616513,-1.0640134811401367,-1.7019440136351527,-2.536532704030172,2.254112883205078,-1.0311487356769007,0.29404062032699585
1708438214.2636545,-1.0628031492233276,-1.702675004998678,-2.5367770830737513,2.2532338339039306,-1.0314763228045862,0.2941097617149353
1708438214.2656872,-1.061543345451355,-1.7032252750792445,-2.5370622316943567,2.2524096208759765,-1.0318148771869105,0.2942904233932495
