Eg3-git/Classifiers/Data Collection/u6/u6xyz5_ur3e_joint_states.csv
time,elbow_joint,shoulder_lift_joint,shoulder_pan_joint,wrist_1_joint,wrist_2_joint,wrist_3_joint
1708438272.4420183,-1.1064600944519043,-1.6811777553954066,-2.5256927649127405,2.2816998201557617,-1.015564266835348,-0.03589994112123662
1708438272.4439597,-1.1064926385879517,-1.6812268696227015,-2.5256791750537317,2.281719132060669,-1.0155451933490198,-0.03585845628847295
1708438272.4459655,-1.1064677238464355,-1.6811686954894007,-2.5256927649127405,2.2817234235950927,-1.0155318419085901,-0.03588277498354131
1708438272.4479482,-1.106512427330017,-1.6811520061888636,-2.5256174246417444,2.2817160326191406,-1.0155318419085901,-0.0359113852130335
1708438272.4499507,-1.1064547300338745,-1.6811806164183558,-2.5256503264056605,2.281735344524048,-1.0155108610736292,-0.0359271208392542
1708438272.451948,-1.1065213680267334,-1.6812483272948207,-2.5256593863116663,2.2817160326191406,-1.0155614058123987,-0.03588706651796514
1708438272.4539616,-1.1064926385879517,-1.6812344990172328,-2.5256593863116663,2.2817160326191406,-1.0155404249774378,-0.03590709367860967
1708438272.456001,-1.1064308881759644,-1.6812178097166957,-2.5256338755237024,2.2817978101917724,-1.0155976454364222,-0.035894219075338185
1708438272.457953,-1.1064807176589966,-1.6811939678587855,-2.5256384054767054,2.2817279535480957,-1.015557114277975,-0.03591519991029912
1708438272.4600182,-1.1064720153808594,-1.6812063656248988,-2.5256593863116663,2.2817653852650146,-1.0155451933490198,-0.035894219075338185
1708438272.4619737,-1.1064720153808594,-1.6812197170653285,-2.525635544453756,2.281719132060669,-1.015536133443014,-0.035878960286275685
1708438272.4640105,-1.106488585472107,-1.6810981235899867,-2.5256548563586634,2.2817396360584716,-1.015536133443014,-0.035891358052388966
1708438272.4660015,-1.1064811944961548,-1.6811939678587855,-2.5256503264056605,2.281695528621338,-1.015515152608053,-0.03587466875185186
1708438272.4679952,-1.1064189672470093,-1.681197305718893,-2.5256791750537317,2.2816836076923828,-1.015536133443014,-0.03588706651796514
1708438272.4699857,-1.1064677238464355,-1.6811400852599085,-2.525635544453756,2.2817653852650146,-1.015536133443014,-0.035915676747457326
1708438272.471989,-1.1064395904541016,-1.6811610660948695,-2.5256593863116663,2.2817117410847167,-1.0155523459063929,-0.03589994112123662
1708438272.47396,-1.1065120697021484,-1.6811539135374964,-2.5256639162646692,2.2817322450825195,-1.0155318419085901,-0.03591949144472295
1708438272.4759657,-1.1064438819885254,-1.6812197170653285,-2.5256713072406214,2.2817773061939697,-1.015557114277975,-0.03585845628847295
1708438272.4779682,-1.1064481735229492,-1.6812030277647914,-2.5256758371936243,2.281757040614746,-1.015536133443014,-0.03588706651796514
1708438272.480009,-1.1064481735229492,-1.6812268696227015,-2.5256457964526575,2.2817279535480957,-1.0155285040484827,-0.035869900380269826
1708438272.4819844,-1.1064515113830566,-1.6811658344664515,-2.5256474653827112,2.281719132060669,-1.0155108610736292,-0.0359113852130335
1708438272.483967,-1.1064796447753906,-1.6811686954894007,-2.5256548563586634,2.2817322450825195,-1.0155776182757776,-0.03587466875185186
1708438272.4859545,-1.1065164804458618,-1.6812111339964808,-2.5256882349597376,2.2816998201557617,-1.015557114277975,-0.03591519991029912
1708438272.4879584,-1.1065294742584229,-1.6812402210631312,-2.5256791750537317,2.2817396360584716,-1.0155523459063929,-0.035878960286275685
1708438272.4899426,-1.1064481735229492,-1.6811891994872035,-2.5256882349597376,2.2816836076923828,-1.0155733267413538,-0.03588277498354131
1708438272.4919477,-1.1064481735229492,-1.6811849079527796,-2.5256548563586634,2.281695528621338,-1.0155437628375452,-0.03590709367860967
1708438272.4939888,-1.1064146757125854,-1.6811939678587855,-2.5256338755237024,2.2817610937305908,-1.015536133443014,-0.035878960286275685
1708438272.4959512,-1.1064515113830566,-1.6811744175352992,-2.5256639162646692,2.2817234235950927,-1.015548054371969,-0.035837952290670216
1708438272.497956,-1.1063884496688843,-1.6811982593932093,-2.5257089773761194,2.2816921907612304,-1.015515152608053,-0.03592378297914678
1708438272.4999838,-1.1064600944519043,-1.6811777553954066,-2.5256593863116663,2.281740828151367,-1.015519920979635,-0.035878960286275685
1708438272.501997,-1.1064472198486328,-1.6812268696227015,-2.5256639162646692,2.2817441660114746,-1.015515152608053,-0.03588706651796514
1708438272.5039992,-1.1064839363098145,-1.6811567745604457,-2.525668446217672,2.2817203241535644,-1.01556903520693,-0.03588277498354131
1708438272.505991,-1.1064515113830566,-1.6812154255309046,-2.5256593863116663,2.2817084032246093,-1.015564266835348,-0.035895649586812794
1708438272.5080228,-1.1064189672470093,-1.6811701260008753,-2.5256758371936243,2.281815214748047,-1.0155318419085901,-0.03587037721742803
1708438272.5100424,-1.1064926385879517,-1.6811520061888636,-2.5256429354297083,2.2817396360584716,-1.0155599753009241,-0.03587037721742803
1708438272.5120454,-1.1064351797103882,-1.6811982593932093,-2.5256667772876185,2.2816998201557617,-1.0155318419085901,-0.03589851060976201
1708438272.513997,-1.1064385175704956,-1.681202074090475,-2.5256174246417444,2.2817234235950927,-1.0155122915851038,-0.03587848344911748
1708438272.5160463,-1.1064468622207642,-1.6812111339964808,-2.5256972948657435,2.2817365366169433,-1.015564266835348,-0.03588277498354131
1708438272.517995,-1.1064558029174805,-1.6811891994872035,-2.5256593863116663,2.2818140226551513,-1.0155227820025843,-0.03590280214418584
1708438272.5199916,-1.1064720153808594,-1.6811863384642542,-2.5256927649127405,2.2817117410847167,-1.0155122915851038,-0.03587466875185186
1708438272.5219874,-1.1064766645431519,-1.6811777553954066,-2.525668446217672,2.2817203241535644,-1.015519920979635,-0.03588706651796514
1708438272.524024,-1.1064634323120117,-1.6811939678587855,-2.5257182757007044,2.281822605723999,-1.0155523459063929,-0.03585416475404912
1708438272.5260434,-1.1064677238464355,-1.6812154255309046,-2.5256639162646692,2.281756563777588,-1.0155318419085901,-0.03593665758241826
1708438272.5279553,-1.1064515113830566,-1.6811863384642542,-2.5256264845477503,2.281719132060669,-1.0155437628375452,-0.03588277498354131
1708438272.529956,-1.1064515113830566,-1.6812344990172328,-2.525651995335714,2.2817279535480957,-1.015552822743551,-0.03587037721742803
1708438272.5319896,-1.1065207719802856,-1.6811639271178187,-2.5256100336657923,2.2817815977283935,-1.0154989401446741,-0.03588277498354131
1708438272.5339928,-1.1065025329589844,-1.6812359295287074,-2.5256055037127894,2.281740828151367,-1.015552822743551,-0.03587466875185186
1708438272.5359962,-1.1064722537994385,-1.6812435589232386,-2.5256474653827112,2.281752749080322,-1.015536133443014,-0.03590709367860967
1708438272.5379739,-1.1064839363098145,-1.6811729870238246,-2.52566105524172,2.2816998201557617,-1.015519920979635,-0.03593141237367803
1708438272.5399888,-1.1064180135726929,-1.6811329327025355,-2.5256100336657923,2.281719132060669,-1.015536133443014,-0.035849873219625294
1708438272.5419357,-1.1064677238464355,-1.6811939678587855,-2.525611464177267,2.2816781240650634,-1.01550800005068,-0.035895649586812794
1708438272.543949,-1.1064839363098145,-1.6811701260008753,-2.525602404271261,2.28170291959729,-1.0155451933490198,-0.03589851060976201
1708438272.5459642,-1.1064839363098145,-1.6811820469298304,-2.525602404271261,2.281756563777588,-1.015536133443014,-0.0358660856830042
1708438272.5479822,-1.106525182723999,-1.681202074090475,-2.52561599413027,2.281768484706543,-1.0155003706561487,-0.03591519991029912
1708438272.5499666,-1.1064351797103882,-1.6811982593932093,-2.5255425612079065,2.281719132060669,-1.0155404249774378,-0.03588706651796514
1708438272.551961,-1.1064796447753906,-1.6812221012511195,-2.5255470911609095,2.281768484706543,-1.0154879728900355,-0.03585416475404912
1708438272.554025,-1.1064472198486328,-1.6811701260008753,-2.5255680719958704,2.281731052989624,-1.0155046621905726,-0.03589851060976201
1708438272.555939,-1.1064459085464478,-1.6812111339964808,-2.5255754629718226,2.2817815977283935,-1.015487019215719,-0.03588277498354131
1708438272.5579445,-1.10651695728302,-1.6811610660948695,-2.5255304018603724,2.2817396360584716,-1.015503231679098,-0.0359113852130335
1708438272.559973,-1.1064796447753906,-1.6811610660948695,-2.5255349318133753,2.28174798070874,-1.01550800005068,-0.0359113852130335
1708438272.5619748,-1.1064796447753906,-1.6812030277647914,-2.5255184809314173,2.2818052011677246,-1.0155285040484827,-0.03590280214418584
1708438272.563952,-1.106536626815796,-1.6812178097166957,-2.5255680719958704,2.2817935186573486,-1.015482250844137,-0.03587037721742803
1708438272.5659647,-1.106532335281372,-1.6811567745604457,-2.5255184809314173,2.281756563777588,-1.0154913107501429,-0.03582603136171514
1708438272.567999,-1.106532335281372,-1.6811891994872035,-2.5255349318133753,2.2817322450825195,-1.015496079121725,-0.035849873219625294
1708438272.56996,-1.1064839363098145,-1.6811939678587855,-2.5255394617663782,2.2817599016376953,-1.0155213514911097,-0.03588706651796514
1708438272.5720046,-1.1065154075622559,-1.6811610660948695,-2.5255606810199183,2.2818009096333007,-1.0155752340899866,-0.03588706651796514
1708438272.5739808,-1.1064796447753906,-1.6811686954894007,-2.5255606810199183,2.281768484706543,-1.0155122915851038,-0.035878960286275685
1708438272.5759926,-1.106528878211975,-1.6812221012511195,-2.5255516211139124,2.281768484706543,-1.0155122915851038,-0.03590280214418584
1708438272.5779881,-1.1065154075622559,-1.6811205349364222,-2.5255394617663782,2.2818052011677246,-1.0154836813556116,-0.03589851060976201
1708438272.5800035,-1.1065278053283691,-1.6812154255309046,-2.525543991719381,2.2818171220966796,-1.015496079121725,-0.035891358052388966
1708438272.5820687,-1.1065397262573242,-1.6811539135374964,-2.5255184809314173,2.281804247493408,-1.0155046621905726,-0.03590757051576787
1708438272.5839636,-1.106510877609253,-1.6812311611571253,-2.5255470911609095,2.281764193172119,-1.0155003706561487,-0.03582603136171514
1708438272.5859518,-1.106532335281372,-1.6811491451659144,-2.5255425612079065,2.2818052011677246,-1.0154879728900355,-0.03590280214418584
1708438272.5879622,-1.1065397262573242,-1.6811896763243617,-2.5255349318133753,2.2817653852650146,-1.0155046621905726,-0.03587466875185186
1708438272.589944,-1.1065561771392822,-1.6812359295287074,-2.5255349318133753,2.281824751491211,-1.0154722372638147,-0.035853211079732716
1708438272.5919628,-1.106506586074829,-1.6811582050719203,-2.5255635420428675,2.281776114101074,-1.0154641310321253,-0.03588992754091436
1708438272.5939817,-1.1065678596496582,-1.6811982593932093,-2.5255394617663782,2.2817773061939697,-1.0154808203326624,-0.03587466875185186
1708438272.59596,-1.1065634489059448,-1.6811820469298304,-2.5255516211139124,2.281804247493408,-1.0154765287982386,-0.0358660856830042
1708438272.597953,-1.1065516471862793,-1.6811982593932093,-2.5255349318133753,2.2817837434956054,-1.0155137220965784,-0.03591949144472295
1708438272.6000125,-1.106531023979187,-1.6811639271178187,-2.5255394617663782,2.2817718225666503,-1.0155094305621546,-0.035878960286275685
1708438272.6020274,-1.1065559387207031,-1.6811939678587855,-2.5255304018603724,2.281820459956787,-1.0154746214496058,-0.03587037721742803
1708438272.6039674,-1.106572151184082,-1.6812197170653285,-2.5255606810199183,2.281770630473755,-1.0155046621905726,-0.03593141237367803
1708438272.605955,-1.1065603494644165,-1.6812268696227015,-2.525543991719381,2.281836672420166,-1.0155165831195276,-0.035874191914693654
1708438272.6079643,-1.1065516471862793,-1.6811686954894007,-2.5255394617663782,2.2818612295338134,-1.0154722372638147,-0.035894219075338185
1708438272.6099405,-1.1065559387207031,-1.6811806164183558,-2.5255726019488733,2.2818030554005126,-1.0154722372638147,-0.035878960286275685
1708438272.6119857,-1.106547236442566,-1.6811849079527796,-2.525527540837423,2.2817880350300292,-1.0154460112201136,-0.035910908375875294
1708438272.6139526,-1.10661780834198,-1.6811820469298304,-2.525581661854879,2.281794472331665,-1.015505615864889,-0.035845581685201466
1708438272.6160119,-1.106593370437622,-1.681193014184469,-2.5255561510669153,2.2818731504627685,-1.0154808203326624,-0.035910908375875294
1708438272.6179852,-1.106542706489563,-1.6812221012511195,-2.5255349318133753,2.2817913728901367,-1.0154297987567347,-0.03590709367860967
1708438272.6199646,-1.106600284576416,-1.6811610660948695,-2.5255635420428675,2.2818280893513183,-1.0154269377337855,-0.03587466875185186
1708438272.6219897,-1.1065516471862793,-1.6812063656248988,-2.5255139509784144,2.2818237978168945,-1.0154312292682093,-0.03590280214418584
1708438272.6239636,-1.106554627418518,-1.6811820469298304,-2.525565210972921,2.281804247493408,-1.0154674688922327,-0.035891358052388966
1708438272.6259546,-1.1065917015075684,-1.6811820469298304,-2.5255935827838343,2.2818655210682373,-1.0154684225665491,-0.035828415547506154
1708438272.6279585,-1.1065963506698608,-1.6811686954894007,-2.5255561510669153,2.2818354803272705,-1.0154479185687464,-0.03593188921083623
1708438272.6299782,-1.1065500974655151,-1.6811477146544398,-2.5255680719958704,2.2818237978168945,-1.015461270009176,-0.03590709367860967
1708438272.6320078,-1.106608271598816,-1.6811729870238246,-2.5255516211139124,2.281848593349121,-1.015456501637594,-0.03590709367860967
1708438272.633946,-1.1065831184387207,-1.6811658344664515,-2.5255890528308313,2.281810684795044,-1.015470329915182,-0.03591519991029912
1708438272.635935,-1.1065905094146729,-1.6812030277647914,-2.5255516211139124,2.281843824977539,-1.015444580708639,-0.03587466875185186
1708438272.6379542,-1.1065549850463867,-1.6811658344664515,-2.5255635420428675,2.2818569379993896,-1.0154641310321253,-0.03588277498354131
1708438272.6399953,-1.1065993309020996,-1.6811701260008753,-2.5255890528308313,2.2818686205097656,-1.0154522101031702,-0.03585702577699834
1708438272.6419568,-1.106607437133789,-1.6812030277647914,-2.5255516211139124,2.281843824977539,-1.015456501637594,-0.035919968281881154
1708438272.643981,-1.1066163778305054,-1.6811982593932093,-2.5255470911609095,2.281839533443115,-1.0154193083392542,-0.03591615358461553
1708438272.645944,-1.1065828800201416,-1.6811477146544398,-2.5255394617663782,2.2818311887928466,-1.0154240767108362,-0.035919968281881154
1708438272.647967,-1.1065618991851807,-1.6811982593932093,-2.5255606810199183,2.2818848329731445,-1.015510384236471,-0.0359271208392542
1708438272.6499596,-1.1065667867660522,-1.6811939678587855,-2.5255425612079065,2.281928225154541,-1.0154522101031702,-0.03588277498354131
1708438272.6519372,-1.1065782308578491,-1.6812244854369105,-2.5255304018603724,2.281900091762207,-1.0154731909381312,-0.03588706651796514
1708438272.6539633,-1.1065993309020996,-1.6811891994872035,-2.5255590120898646,2.281928225154541,-1.0154193083392542,-0.03592282930483037
1708438272.6559439,-1.1065665483474731,-1.6812178097166957,-2.5255516211139124,2.2818924623676757,-1.0154922644244593,-0.0359271208392542
1708438272.657946,-1.1066324710845947,-1.6811658344664515,-2.52552301088442,2.2819408613392334,-1.0154808203326624,-0.035891358052388966
1708438272.659948,-1.1066367626190186,-1.6812435589232386,-2.525543991719381,2.2819570738026123,-1.0154359976397913,-0.03592425981630498
1708438272.6619687,-1.1065993309020996,-1.6811891994872035,-2.5255394617663782,2.281923933620117,-1.0154240767108362,-0.03585702577699834
1708438272.6639974,-1.1065946817398071,-1.6812111339964808,-2.5255799929248255,2.281923933620117,-1.0154641310321253,-0.03588277498354131
1708438272.6659908,-1.1065785884857178,-1.6811491451659144,-2.5255606810199183,2.2819363313862304,-1.015461270009176,-0.03588277498354131
1708438272.6679876,-1.1065948009490967,-1.6811896763243617,-2.5255606810199183,2.281919403667114,-1.0154684225665491,-0.03590757051576787
1708438272.6699812,-1.106574296951294,-1.6811939678587855,-2.5255394617663782,2.2819320398518066,-1.0154898802386683,-0.035894219075338185
1708438272.6720116,-1.106607437133789,-1.6811539135374964,-2.5255470911609095,2.281928225154541,-1.0154946486102503,-0.03590280214418584
1708438272.6739829,-1.1066367626190186,-1.6811820469298304,-2.5255606810199183,2.2819570738026123,-1.0154150168048304,-0.03584176698793584
1708438272.675966,-1.106623649597168,-1.6812359295287074,-2.5255258719073694,2.2819077211567382,-1.015477482472555,-0.03584176698793584
1708438272.6779726,-1.1065948009490967,-1.6811863384642542,-2.5255304018603724,2.2819151121326904,-1.0154684225665491,-0.03590280214418584
1708438272.6799862,-1.1066279411315918,-1.6811582050719203,-2.5255590120898646,2.281928225154541,-1.015456501637594,-0.03591519991029912
1708438272.6820247,-1.106608271598816,-1.6811567745604457,-2.5255425612079065,2.281923456782959,-1.01542836824526,-0.035918537770406544
1708438272.6839607,-1.106623649597168,-1.6812287769713343,-2.5255349318133753,2.2819363313862304,-1.0154193083392542,-0.03589851060976201
1708438272.6859477,-1.1066193580627441,-1.6811658344664515,-2.5255304018603724,2.2819320398518066,-1.0154240767108362,-0.03591519991029912
1708438272.6880035,-1.106558084487915,-1.6812197170653285,-2.5255845228778284,2.281928225154541,-1.015505615864889,-0.03591519991029912
1708438272.6899657,-1.1066372394561768,-1.6811863384642542,-2.5255964438067835,2.2819570738026123,-1.0154150168048304,-0.03591519991029912
1708438272.691977,-1.106607437133789,-1.6811729870238246,-2.5255964438067835,2.2819031912037353,-1.015444580708639,-0.035891358052388966
1708438272.6939516,-1.106611728668213,-1.6812311611571253,-2.5255003611194056,2.2819363313862304,-1.0154522101031702,-0.03589851060976201
1708438272.6959426,-1.1065754890441895,-1.6811357937254847,-2.5255425612079065,2.2818752962299804,-1.015456501637594,-0.03588706651796514
1708438272.6979542,-1.1065698862075806,-1.6812154255309046,-2.5255094210254114,2.2819108205982666,-1.0154073874102991,-0.03583747545351201
1708438272.6999924,-1.1065905094146729,-1.6812063656248988,-2.5255470911609095,2.2819205957600097,-1.0154522101031702,-0.03589851060976201
1708438272.7020314,-1.1065417528152466,-1.6811849079527796,-2.5255470911609095,2.2819151121326904,-1.0154450575457972,-0.03586942354311162
1708438272.7039933,-1.10660719871521,-1.6811820469298304,-2.5255590120898646,2.281928225154541,-1.0154479185687464,-0.03586131731142217
1708438272.7060204,-1.1066162586212158,-1.6811977825560511,-2.5255561510669153,2.2819482523151855,-1.0154479185687464,-0.03591519991029912
1708438272.7080076,-1.1065905094146729,-1.6811891994872035,-2.5255516211139124,2.2818915086933593,-1.0154240767108362,-0.03587037721742803
1708438272.7100341,-1.106611728668213,-1.6811939678587855,-2.5255470911609095,2.281916304225586,-1.0154269377337855,-0.03591519991029912
1708438272.7120297,-1.1066162586212158,-1.6811610660948695,-2.5256009737597864,2.28196565687146,-1.0154240767108362,-0.03592425981630498
1708438272.7140412,-1.1066324710845947,-1.6811658344664515,-2.5255590120898646,2.2819525438496093,-1.0154684225665491,-0.03590757051576787
1708438272.7160017,-1.1066324710845947,-1.6811777553954066,-2.5255935827838343,2.281923933620117,-1.0154655615436,-0.03589851060976201
1708438272.7180014,-1.1065948009490967,-1.6811863384642542,-2.52552301088442,2.28196565687146,-1.0154121557818812,-0.03589851060976201
1708438272.7199802,-1.1065948009490967,-1.6811820469298304,-2.5255516211139124,2.2819408613392334,-1.0154522101031702,-0.035910908375875294
1708438272.7219722,-1.1066279411315918,-1.6811400852599085,-2.5255590120898646,2.2819687563129882,-1.0154193083392542,-0.03593618074526006
1708438272.723987,-1.106623649597168,-1.6812359295287074,-2.5255544821368616,2.2818915086933593,-1.0154731909381312,-0.03587371507753545
1708438272.725975,-1.106611728668213,-1.6811982593932093,-2.5255590120898646,2.2819408613392334,-1.0154359976397913,-0.035906616841451466
1708438272.7280107,-1.1065782308578491,-1.681202074090475,-2.5255680719958704,2.2819031912037353,-1.01542836824526,-0.03589851060976201
1708438272.7299788,-1.1066036224365234,-1.6812106571593226,-2.5255425612079065,2.281919403667114,-1.0154402891742151,-0.035910908375875294
1708438272.7319777,-1.1065700054168701,-1.6812030277647914,-2.5255799929248255,2.281939669246338,-1.0154193083392542,-0.035885159169332326
1708438272.7339644,-1.1065831184387207,-1.6811686954894007,-2.5255845228778284,2.281919403667114,-1.0154269377337855,-0.035865608845846
1708438272.7360106,-1.1066324710845947,-1.6811982593932093,-2.5255499521838587,2.2819151121326904,-1.0154312292682093,-0.03593188921083623
1708438272.7380676,-1.106608271598816,-1.6812268696227015,-2.5255590120898646,2.281977577800415,-1.015444580708639,-0.03592282930483037
1708438272.7399967,-1.1065828800201416,-1.6812197170653285,-2.5255754629718226,2.2818869787403564,-1.0154402891742151,-0.03585702577699834
1708438272.7419324,-1.1065948009490967,-1.6812221012511195,-2.5255561510669153,2.281919403667114,-1.0154150168048304,-0.03594810167421514
1708438272.7439566,-1.1065874099731445,-1.6811777553954066,-2.5255754629718226,2.281923933620117,-1.0154808203326624,-0.035910908375875294
1708438272.7459884,-1.106623649597168,-1.6812111339964808,-2.5255470911609095,2.281916304225586,-1.0154193083392542,-0.03586131731142217
1708438272.747981,-1.1066036224365234,-1.6811939678587855,-2.5255184809314173,2.2819151121326904,-1.0154121557818812,-0.03585702577699834
1708438272.749989,-1.1065738201141357,-1.6811686954894007,-2.5255890528308313,2.2818471628376464,-1.0154240767108362,-0.03592425981630498
1708438272.7519438,-1.1065782308578491,-1.6811758480467738,-2.5255425612079065,2.281895800227783,-1.0154855887042444,-0.035957161580221
1708438272.7539961,-1.1066036224365234,-1.6811849079527796,-2.5255964438067835,2.281900091762207,-1.015461270009176,-0.03593475023378545
1708438272.755971,-1.1065946817398071,-1.6812435589232386,-2.5255380312549036,2.2819077211567382,-1.0154431501971644,-0.03588706651796514
1708438272.7579873,-1.106574296951294,-1.6812459431090296,-2.5255680719958704,2.2818752962299804,-1.0154641310321253,-0.0359271208392542
1708438272.7599742,-1.1065831184387207,-1.681230207482809,-2.5255258719073694,2.2818795877644042,-1.0154359976397913,-0.03587800661195928
1708438272.7619805,-1.1066205501556396,-1.6812063656248988,-2.5255709330188196,2.281888170833252,-1.0154989401446741,-0.035889450703756154
1708438272.7639961,-1.106571078300476,-1.6811477146544398,-2.5256131331073206,2.2819410997578125,-1.0154522101031702,-0.035891358052388966
1708438272.765968,-1.1065635681152344,-1.6811891994872035,-2.5255680719958704,2.2819086748310546,-1.0154641310321253,-0.0359271208392542
1708438272.7680423,-1.106554627418518,-1.6811891994872035,-2.525578323994772,2.281932516688965,-1.0154240767108362,-0.03589851060976201
1708438272.7699633,-1.1065473556518555,-1.6811729870238246,-2.5256009737597864,2.2818848329731445,-1.0154641310321253,-0.03587466875185186
1708438272.7720137,-1.106554627418518,-1.681193014184469,-2.525578323994772,2.281888170833252,-1.015456501637594,-0.03589851060976201
1708438272.7739909,-1.1065797805786133,-1.6812311611571253,-2.5256009737597864,2.281900091762207,-1.0154522101031702,-0.03591519991029912
1708438272.7759566,-1.1065889596939087,-1.681230207482809,-2.5256248156176966,2.2819205957600097,-1.015477482472555,-0.03584939638246709
1708438272.7780416,-1.1065473556518555,-1.6811939678587855,-2.5255544821368616,2.281822605723999,-1.0154193083392542,-0.03589851060976201
1708438272.7799842,-1.1065959930419922,-1.6811849079527796,-2.5255213419543665,2.281867666835449,-1.0154684225665491,-0.03586131731142217
1708438272.7820625,-1.1065354347229004,-1.6812392673888148,-2.52561599413027,2.2819010454365234,-1.015444580708639,-0.035889450703756154
1708438272.7839656,-1.1065680980682373,-1.6811982593932093,-2.5255828539477747,2.2818643289753417,-1.015477482472555,-0.03587466875185186
1708438272.7859585,-1.1065154075622559,-1.6811758480467738,-2.52561599413027,2.281860037440918,-1.0154946486102503,-0.03584939638246709
1708438272.7880106,-1.106514811515808,-1.6812063656248988,-2.5255919138537806,2.2818354803272705,-1.015444580708639,-0.03590280214418584
1708438272.789969,-1.1065561771392822,-1.681197305718893,-2.5255709330188196,2.2818354803272705,-1.0154522101031702,-0.03591519991029912
1708438272.7919636,-1.1065324544906616,-1.6811686954894007,-2.5255380312549036,2.2818075853535156,-1.0154150168048304,-0.03597623506654912
1708438272.7939634,-1.1065678596496582,-1.6812344990172328,-2.5256009737597864,2.2818161684223632,-1.015456501637594,-0.03588277498354131
1708438272.7959793,-1.106536626815796,-1.6812178097166957,-2.5255470911609095,2.2817913728901367,-1.0154431501971644,-0.035891358052388966
1708438272.7979732,-1.1064808368682861,-1.6812178097166957,-2.5255919138537806,2.281832380885742,-1.0155180136310022,-0.03587466875185186
1708438272.799996,-1.1064571142196655,-1.681225915948385,-2.52561599413027,2.2817837434956054,-1.0154388586627405,-0.035894219075338185
1708438272.8019965,-1.106461524963379,-1.681291242639059,-2.5255919138537806,2.2818421560474853,-1.0154522101031702,-0.03589851060976201
1708438272.803982,-1.1065034866333008,-1.6812993488707484,-2.5256176630603235,2.2817935186573486,-1.015456501637594,-0.03590280214418584
1708438272.805963,-1.106528401374817,-1.6812688312926234,-2.5255664030658167,2.281812830562256,-1.0154522101031702,-0.03593188921083623
1708438272.8079445,-1.1065423488616943,-1.681333681146139,-2.525611464177267,2.281756563777588,-1.0154522101031702,-0.03589851060976201
1708438272.8099759,-1.1065196990966797,-1.6813494167723597,-2.5255664030658167,2.2817727762409667,-1.0154641310321253,-0.03587371507753545
1708438272.8119664,-1.1064342260360718,-1.6813494167723597,-2.525632683430807,2.28174798070874,-1.0154402891742151,-0.03589851060976201
1708438272.8139598,-1.106494665145874,-1.681284090081686,-2.5255664030658167,2.2818302351185302,-1.015444580708639,-0.03592425981630498
1708438272.8159678,-1.106512188911438,-1.6813045940794886,-2.5255664030658167,2.2817279535480957,-1.0153940359698694,-0.03590280214418584
1708438272.818042,-1.1064661741256714,-1.6813045940794886,-2.5255873839007776,2.281731052989624,-1.015510384236471,-0.03588277498354131
1708438272.8200161,-1.1065120697021484,-1.6813823185362757,-2.5255544821368616,2.281707211131714,-1.0154150168048304,-0.035889450703756154
1708438272.8219972,-1.1064661741256714,-1.6813122234740199,-2.5255544821368616,2.281719132060669,-1.0154731909381312,-0.03593188921083623
1708438272.8240156,-1.1064677238464355,-1.681328912774557,-2.5256086031543177,2.2817773061939697,-1.0154970327960413,-0.03589851060976201
1708438272.8260217,-1.1065459251403809,-1.6813775501646937,-2.5256462732898157,2.281752272243164,-1.0155013243304651,-0.03591519991029912
1708438272.8280146,-1.106532335281372,-1.6813823185362757,-2.5255873839007776,2.2817322450825195,-1.0154522101031702,-0.03594381013979131
1708438272.82999,-1.106512427330017,-1.6813775501646937,-2.5255635420428675,2.2817203241535644,-1.0154808203326624,-0.03587371507753545
1708438272.8319938,-1.1064385175704956,-1.6813484630980433,-2.5255709330188196,2.2817441660114746,-1.0154598394977015,-0.03591519991029912
1708438272.8340518,-1.1064989566802979,-1.6813904247679652,-2.5255873839007776,2.2816802698322753,-1.0154765287982386,-0.03593904176820928
1708438272.8359861,-1.1064379215240479,-1.6813527546324671,-2.5255709330188196,2.2817739683338623,-1.0154879728900355,-0.03589851060976201
1708438272.8380473,-1.1065213680267334,-1.681410928765768,-2.5255799929248255,2.2817160326191406,-1.0154879728900355,-0.03593618074526006
1708438272.8399837,-1.10651695728302,-1.6814137897887171,-2.5256205240832728,2.2816921907612304,-1.0154388586627405,-0.03589851060976201
1708438272.8419642,-1.1064807176589966,-1.6813904247679652,-2.5255919138537806,2.281695528621338,-1.0154431501971644,-0.03589851060976201
1708438272.843959,-1.106423020362854,-1.6813708744444789,-2.525578323994772,2.281667395229004,-1.0154722372638147,-0.035894219075338185
1708438272.8459463,-1.106418490409851,-1.681361814538473,-2.5255664030658167,2.2817365366169433,-1.0154922644244593,-0.03593331972231084
1708438272.8479643,-1.1064600944519043,-1.6813684902586878,-2.525578323994772,2.2817279535480957,-1.0154808203326624,-0.03589755693544561
1708438272.849961,-1.1064319610595703,-1.681406637231344,-2.525595013295309,2.2817739683338623,-1.0154431501971644,-0.03587800661195928
1708438272.85195,-1.1064484119415283,-1.6813990078368128,-2.525585953389303,2.2817739683338623,-1.0154922644244593,-0.03593188921083623
1708438272.8539627,-1.106436848640442,-1.681328912774557,-2.525611464177267,2.2816964822956542,-1.0155013243304651,-0.035889450703756154
1708438272.85595,-1.1064236164093018,-1.6813003025450648,-2.525599543248312,2.281712694759033,-1.0154836813556116,-0.03593188921083623
1708438272.85796,-1.1064071655273438,-1.6813751659789027,-2.525595013295309,2.281630201930664,-1.0155046621905726,-0.03590280214418584
1708438272.8599608,-1.1063486337661743,-1.6813708744444789,-2.525569264088766,2.281672640437744,-1.0154855887042444,-0.035865608845846
1708438272.8619623,-1.1063624620437622,-1.6813708744444789,-2.52566105524172,2.281688852901123,-1.0154431501971644,-0.03588706651796514
1708438272.8639596,-1.1063907146453857,-1.6813379726805628,-2.5257108847247522,2.2816921907612304,-1.0154922644244593,-0.03591615358461553
1708438272.8659787,-1.1064116954803467,-1.6813255749144496,-2.525672976170675,2.281705065364502,-1.0154922644244593,-0.03588706651796514
1708438272.868035,-1.1063698530197144,-1.681361814538473,-2.5256667772876185,2.281712694759033,-1.0154507795916956,-0.03584510484804326
1708438272.8700156,-1.1064039468765259,-1.681333681146139,-2.525703016911642,2.281712694759033,-1.0154922644244593,-0.03588706651796514
1708438272.8720016,-1.1063508987426758,-1.681406637231344,-2.525707546864645,2.281630201930664,-1.0154922644244593,-0.03588277498354131
1708438272.8740451,-1.1063995361328125,-1.6813823185362757,-2.525731388722555,2.2816640573688964,-1.0154674688922327,-0.03587466875185186
1708438272.8759687,-1.1063345670700073,-1.6813661060728968,-2.525714937840597,2.2816647726246337,-1.0154388586627405,-0.035865608845846
1708438272.8779917,-1.1064287424087524,-1.681361814538473,-2.525773588811056,2.2816402155109863,-1.0154641310321253,-0.03590757051576787
1708438272.8799834,-1.1063640117645264,-1.681345125237936,-2.5257194677936,2.2816433149525146,-1.0154855887042444,-0.03591519991029912
1708438272.8820014,-1.1064157485961914,-1.681345125237936,-2.52576452890505,2.281594677562378,-1.0155137220965784,-0.035865608845846
1708438272.8840187,-1.1063787937164307,-1.681361814538473,-2.52574330965151,2.2816034990498046,-1.0155013243304651,-0.03585368791689092
1708438272.885973,-1.1063876152038574,-1.681345125237936,-2.525747839604513,2.2816271024891357,-1.0154674688922327,-0.03587037721742803
1708438272.8880305,-1.1063790321350098,-1.6813990078368128,-2.52574330965151,2.2816690641590576,-1.0154722372638147,-0.03587466875185186
1708438272.8899674,-1.1063790321350098,-1.6813684902586878,-2.525738779698507,2.2816359239765625,-1.0154593626605433,-0.03587037721742803
1708438272.8919756,-1.106384515762329,-1.6813775501646937,-2.5258095900165003,2.281660719508789,-1.0154879728900355,-0.03586274782289678
1708438272.8939862,-1.1064038276672363,-1.6813661060728968,-2.5257194677936,2.281554861659668,-1.0154879728900355,-0.03591615358461553
1708438272.8959513,-1.1063508987426758,-1.681345125237936,-2.525722328816549,2.281600161189697,-1.0154674688922327,-0.035825554524556935
1708438272.8979535,-1.1063507795333862,-1.681394716302389,-2.525726858769552,2.281616373653076,-1.0154879728900355,-0.035878960286275685
1708438272.8999617,-1.1063995361328125,-1.6813537083067835,-2.525759998952047,2.2816573816486816,-1.0154836813556116,-0.03585845628847295
1708438272.90199,-1.1063714027404785,-1.681361814538473,-2.52574330965151,2.281616373653076,-1.0155122915851038,-0.0359118620501917
1708438272.90399,-1.1063624620437622,-1.6813732586302699,-2.525756899510519,2.2815345960804443,-1.0154836813556116,-0.03584176698793584
1708438272.905998,-1.1063686609268188,-1.6813990078368128,-2.52576452890505,2.2815725046345214,-1.0155046621905726,-0.035808865224019826
1708438272.9080276,-1.1063967943191528,-1.6813093624510707,-2.525698486958639,2.28158084928479,-1.0155375639544886,-0.03584653535951787
1708438272.9100456,-1.106416940689087,-1.681361814538473,-2.525710407887594,2.281588240260742,-1.0154879728900355,-0.035834614430562794
1708438272.912029,-1.106338620185852,-1.6813732586302699,-2.525710407887594,2.281506224269531,-1.0155213514911097,-0.03584653535951787
1708438272.914045,-1.1063475608825684,-1.6813246212401332,-2.525731388722555,2.281597061748169,-1.0155046621905726,-0.03586417833437139
1708438272.9160187,-1.1063686609268188,-1.6813165150084437,-2.5257015864001673,2.2816206651875,-1.0154789129840296,-0.03584462801088506
1708438272.9180317,-1.1063321828842163,-1.6813494167723597,-2.525752369557516,2.281559391612671,-1.0155304113971155,-0.03579408327211553
1708438272.9200168,-1.1063519716262817,-1.6813427410521449,-2.525769058858053,2.281559391612671,-1.0154879728900355,-0.03578645387758428
1708438272.9219923,-1.1063026189804077,-1.6813708744444789,-2.5257554689990442,2.281597061748169,-1.0155003706561487,-0.03579074541200811
1708438272.924076,-1.1062994003295898,-1.6813537083067835,-2.525752369557516,2.281597061748169,-1.0154879728900355,-0.03578645387758428
1708438272.9260266,-1.1063321828842163,-1.6813003025450648,-2.525710407887594,2.281547709102295,-1.0154836813556116,-0.03576261201967412
1708438272.9279804,-1.1063319444656372,-1.6813494167723597,-2.525740448628561,2.281550808543823,-1.0154722372638147,-0.035799805318013966
1708438272.9299748,-1.1063438653945923,-1.681361814538473,-2.5257180372821253,2.2815591531940917,-1.0155165831195276,-0.035738770161763966
1708438272.9319685,-1.1062982082366943,-1.6813494167723597,-2.525752369557516,2.281592531795166,-1.015496079121725,-0.035738770161763966
1708438272.9339883,-1.106311321258545,-1.6813427410521449,-2.525747839604513,2.281576319331787,-1.015515152608053,-0.03569680849184209
1708438272.9360318,-1.106311321258545,-1.6813527546324671,-2.5257180372821253,2.281538887614868,-1.0155375639544886,-0.035750691090719044
1708438272.9379952,-1.106311321258545,-1.681345125237936,-2.525710407887594,2.281563921565674,-1.0154722372638147,-0.035713020955221
1708438272.9399538,-1.1063275337219238,-1.6813484630980433,-2.525738779698507,2.2815839487263183,-1.0155213514911097,-0.035752121602193654
1708438272.9419644,-1.1063156127929688,-1.68133606533193,-2.525769058858053,2.281592531795166,-1.0155285040484827,-0.035743061696187794
1708438272.9439826,-1.1062694787979126,-1.6813913784422816,-2.52574330965151,2.2815465170093994,-1.0155003706561487,-0.03575641313661748
1708438272.9459581,-1.1062582731246948,-1.6813484630980433,-2.525735918675558,2.281555100078247,-1.0155122915851038,-0.03576833406557256
1708438272.9479704,-1.106311321258545,-1.681328912774557,-2.525723997746603,2.281585140819214,-1.0154913107501429,-0.03570110002626592
1708438272.94998,-1.1063275337219238,-1.681361814538473,-2.525705877934591,2.2815720277973632,-1.0154836813556116,-0.03578025499452764
1708438272.9519734,-1.1063318252563477,-1.6813494167723597,-2.525710407887594,2.2815958696552734,-1.0155046621905726,-0.03571015993227178
1708438272.953966,-1.106311321258545,-1.6813494167723597,-2.525735918675558,2.2815140920826416,-1.0155285040484827,-0.035752121602193654
1708438272.9559584,-1.1063023805618286,-1.6813708744444789,-2.52577788034548,2.28158084928479,-1.0155046621905726,-0.03577882448305303
1708438272.9579585,-1.1062864065170288,-1.6813661060728968,-2.525714937840597,2.2815937238880615,-1.0155122915851038,-0.035738770161763966
1708438272.959956,-1.1063189506530762,-1.6813155613341273,-2.525705877934591,2.281555100078247,-1.0155375639544886,-0.035738770161763966
1708438272.961954,-1.1063156127929688,-1.681361814538473,-2.5257194677936,2.2815345960804443,-1.015496079121725,-0.035743061696187794
1708438272.9639838,-1.106311321258545,-1.6814032993712367,-2.525776449834005,2.281585140819214,-1.0155494848834437,-0.035738770161763966
1708438272.965985,-1.1062908172607422,-1.681361814538473,-2.5257194677936,2.281608744258545,-1.0155332724200647,-0.03576833406557256
1708438272.9680696,-1.1063232421875,-1.6813732586302699,-2.5257194677936,2.281563921565674,-1.0155122915851038,-0.035682026539937794
1708438272.970042,-1.1063520908355713,-1.6813775501646937,-2.525731388722555,2.281559391612671,-1.0155046621905726,-0.035712544118062794
1708438272.9720278,-1.1062785387039185,-1.681328912774557,-2.525731388722555,2.2815520006367187,-1.015496079121725,-0.03574735323061162
1708438272.9739928,-1.1063202619552612,-1.68133606533193,-2.525747839604513,2.281597061748169,-1.0155285040484827,-0.03573066393007451
1708438272.975977,-1.1063023805618286,-1.6813732586302699,-2.525747839604513,2.28153578817334,-1.0155165831195276,-0.03570682207216436
1708438272.9779887,-1.106311321258545,-1.6813909016051234,-2.525735918675558,2.28158084928479,-1.0155122915851038,-0.03572589555849248
1708438272.9800498,-1.1062755584716797,-1.681296011010641,-2.525686566029684,2.281550808543823,-1.0155165831195276,-0.03576404253114873
1708438272.9820213,-1.1062593460083008,-1.6813494167723597,-2.525703016911642,2.281519575709961,-1.0155285040484827,-0.03569347063173467
1708438272.9839945,-1.1062546968460083,-1.6813427410521449,-2.525703016911642,2.281576319331787,-1.0155003706561487,-0.035743061696187794
1708438272.985972,-1.1062841415405273,-1.681345125237936,-2.525703016911642,2.281559391612671,-1.0154913107501429,-0.035682026539937794
1708438272.9880254,-1.1062546968460083,-1.6813208065428675,-2.525723997746603,2.281499071712158,-1.0154836813556116,-0.03575641313661748
1708438272.989967,-1.1062755584716797,-1.6813165150084437,-2.525752131138937,2.2816175657459716,-1.0154789129840296,-0.03571921983827764
1708438272.9919584,-1.1062920093536377,-1.6813494167723597,-2.5257120768176478,2.281563921565674,-1.0155256430255335,-0.03566486040224248
1708438272.9939947,-1.1062917709350586,-1.6812883816161097,-2.525740448628561,2.2815725046345214,-1.0155165831195276,-0.035723511372701466
1708438272.9959567,-1.1062917709350586,-1.6813427410521449,-2.525710407887594,2.281531496638916,-1.0154507795916956,-0.035738770161763966
1708438272.9979653,-1.1063004732131958,-1.6813208065428675,-2.525723997746603,2.28153578817334,-1.0154832045184534,-0.03569966951479131
1708438272.9999504,-1.106283187866211,-1.6813537083067835,-2.525707546864645,2.2815767961689453,-1.0154913107501429,-0.035682026539937794
1708438273.0019796,-1.1063200235366821,-1.6813403568663539,-2.5256622473346155,2.2816261488148193,-1.01550800005068,-0.03569347063173467
1708438273.0039968,-1.1062636375427246,-1.6813823185362757,-2.5256531874286097,2.2815400797077636,-1.0155213514911097,-0.03570682207216436
1708438273.0059867,-1.1062712669372559,-1.6813494167723597,-2.525710407887594,2.28158084928479,-1.0155614058123987,-0.0356977621661585
1708438273.0079677,-1.1062474250793457,-1.681333681146139,-2.525665585194723,2.281563921565674,-1.015496079121725,-0.0356829802142542
1708438273.0099773,-1.1062874794006348,-1.68133606533193,-2.5257375876056116,2.2815894323536376,-1.0154746214496058,-0.03569966951479131
1708438273.0119777,-1.1062798500061035,-1.6813575230040492,-2.525710407887594,2.2815520006367187,-1.0155332724200647,-0.035720173512594044
1708438273.0139942,-1.1062886714935303,-1.6813661060728968,-2.5256791750537317,2.2815725046345214,-1.0155451933490198,-0.03567105928529912
1708438273.0159523,-1.1062798500061035,-1.6813775501646937,-2.5257328192340296,2.2815520006367187,-1.0155122915851038,-0.03566962877382451
1708438273.0180721,-1.106296181678772,-1.68133606533193,-2.5256577173816126,2.281563921565674,-1.0155494848834437,-0.035691086445943654
1708438273.0200002,-1.1062755584716797,-1.6813422642149867,-2.5256837050067347,2.281519575709961,-1.0155213514911097,-0.035650078450338185
1708438273.0220184,-1.1062474250793457,-1.6813575230040492,-2.5257285276996058,2.281531496638916,-1.0155614058123987,-0.035637680684224904
1708438273.024009,-1.1063156127929688,-1.6813599071898402,-2.5256956259356897,2.2815605837055664,-1.0155332724200647,-0.03568011919130498
1708438273.0259857,-1.1062474250793457,-1.681345125237936,-2.525686566029684,2.28156487523999,-1.0155122915851038,-0.03564674059023076
1708438273.0280097,-1.1062841415405273,-1.6813684902586878,-2.525714937840597,2.281531496638916,-1.0155165831195276,-0.03561860719789678
1708438273.029988,-1.1063004732131958,-1.681361814538473,-2.525703016911642,2.281552954311035,-1.0155332724200647,-0.03561145464052373
1708438273.0320048,-1.1062620878219604,-1.681361814538473,-2.525670353566305,2.281559391612671,-1.0154836813556116,-0.03560239473451787
1708438273.0340571,-1.1062798500061035,-1.6813775501646937,-2.5257330576526087,2.2815562921711425,-1.0154698530780237,-0.03561145464052373
1708438273.035978,-1.1063158512115479,-1.681296011010641,-2.5257120768176478,2.281491442317627,-1.0155003706561487,-0.035607163106099904
1708438273.0380383,-1.1062960624694824,-1.68141569713735,-2.525686566029684,2.2815238672443847,-1.0155466238604944,-0.03561145464052373
1708438273.039974,-1.1063004732131958,-1.6813527546324671,-2.525686566029684,2.281475229854248,-1.0154913107501429,-0.035564724599019826
1708438273.042023,-1.1063004732131958,-1.6813155613341273,-2.525707546864645,2.2815205293842773,-1.0155094305621546,-0.03561383882631475
1708438273.0439944,-1.1062636375427246,-1.6813661060728968,-2.5256791750537317,2.2815324503132324,-1.0155046621905726,-0.035570923482076466
1708438273.0459564,-1.106284499168396,-1.681333681146139,-2.5257194677936,2.281486912364624,-1.0155046621905726,-0.035582844411031544
1708438273.0479627,-1.1062382459640503,-1.6813775501646937,-2.525670115147726,2.2814881044575195,-1.0154913107501429,-0.035566155110494435
1708438273.0499558,-1.1062301397323608,-1.6813904247679652,-2.5257166067706507,2.2815043169208984,-1.0154674688922327,-0.035627190266744435
1708438273.051969,-1.1062593460083008,-1.6813751659789027,-2.5256791750537317,2.2815162378498535,-1.0155242125140589,-0.03560239473451787
1708438273.0539632,-1.1062724590301514,-1.6813661060728968,-2.525707546864645,2.281475468272827,-1.0155165831195276,-0.03559428850282842
1708438273.0559554,-1.1062393188476562,-1.681345125237936,-2.5257137457477015,2.2815162378498535,-1.01550800005068,-0.03564435640443975
1708438273.0579438,-1.1062023639678955,-1.68133606533193,-2.5256791750537317,2.2815043169208984,-1.0154913107501429,-0.035607163106099904
1708438273.0599654,-1.1062755584716797,-1.6813751659789027,-2.5257046858416956,2.281533642406128,-1.0155332724200647,-0.03561145464052373
1708438273.0619535,-1.106284260749817,-1.6813904247679652,-2.5257046858416956,2.2814881044575195,-1.0155165831195276,-0.03562480608095342
1708438273.0639694,-1.1062231063842773,-1.6813775501646937,-2.5256882349597376,2.2814387518116455,-1.0155094305621546,-0.03561574617494756
1708438273.065956,-1.1062347888946533,-1.6813661060728968,-2.5256882349597376,2.28154103338208,-1.0155661741839808,-0.03559476533998662
1708438273.0680149,-1.1062231063842773,-1.6813494167723597,-2.5257001558886927,2.28150121747937,-1.0154789129840296,-0.03561145464052373
1708438273.0699697,-1.1062593460083008,-1.6813527546324671,-2.525674645100729,2.2814506727406005,-1.0154836813556116,-0.03562289873232061
1708438273.071998,-1.1062228679656982,-1.6813484630980433,-2.5256882349597376,2.2814060884663085,-1.0155451933490198,-0.03561383882631475
1708438273.0739677,-1.1062605381011963,-1.681361814538473,-2.5257120768176478,2.2814923959919433,-1.0155165831195276,-0.03565580049623662
1708438273.0759885,-1.1062301397323608,-1.6813990078368128,-2.5256837050067347,2.28150121747937,-1.0155213514911097,-0.03561145464052373
1708438273.0779977,-1.1061861515045166,-1.68133606533193,-2.525703016911642,2.2814711767384033,-1.0155285040484827,-0.03557807603944951
1708438273.0800169,-1.1062185764312744,-1.681394716302389,-2.5256622473346155,2.2815660673328857,-1.0154789129840296,-0.03558999696840459
1708438273.0820265,-1.1062427759170532,-1.6813813648619593,-2.5257120768176478,2.2814549642750244,-1.0154879728900355,-0.03561574617494756
1708438273.0839808,-1.1062023639678955,-1.6814152203001917,-2.5257285276996058,2.281447573299072,-1.0155451933490198,-0.03559905687441045
1708438273.0859387,-1.1062023639678955,-1.6813775501646937,-2.5257001558886927,2.281517429942749,-1.0155332724200647,-0.035648647938863576
1708438273.0879867,-1.1062891483306885,-1.6813575230040492,-2.5257375876056116,2.281459255809448,-1.0155213514911097,-0.03560239473451787
1708438273.089972,-1.1062768697738647,-1.6813775501646937,-2.525691095982687,2.281475468272827,-1.0155375639544886,-0.03559476533998662
1708438273.0919542,-1.1062605381011963,-1.6813684902586878,-2.5256639162646692,2.281468077296875,-1.0155332724200647,-0.03559476533998662
1708438273.093978,-1.106231927871704,-1.681406637231344,-2.5256548563586634,2.2815183836170654,-1.0154789129840296,-0.03561145464052373
1708438273.095943,-1.1062393188476562,-1.6813441715636195,-2.5256503264056605,2.281475468272827,-1.015487019215719,-0.03559476533998662
1708438273.0979664,-1.1062273979187012,-1.681364198724264,-2.5256667772876185,2.2814838129230957,-1.015487019215719,-0.035631958638326466
1708438273.099937,-1.1062109470367432,-1.6813823185362757,-2.525686566029684,2.2814766603657226,-1.0154836813556116,-0.03566915193666631
1708438273.101954,-1.106215476989746,-1.68133606533193,-2.5256791750537317,2.28150121747937,-1.01550800005068,-0.03557807603944951
1708438273.1040103,-1.1061959266662598,-1.6813575230040492,-2.5257166067706507,2.281475468272827,-1.0154746214496058,-0.03561860719789678
1708438273.105997,-1.106231927871704,-1.6813775501646937,-2.5257092157946985,2.2814881044575195,-1.0155285040484827,-0.035607163106099904
1708438273.1080194,-1.1062273979187012,-1.6813708744444789,-2.5257211367236536,2.2814885812946777,-1.0155165831195276,-0.0355914274798792
1708438273.11003,-1.1061861515045166,-1.6814271412291468,-2.5257120768176478,2.28147999822583,-1.0154789129840296,-0.035607163106099904
1708438273.1119916,-1.1062244176864624,-1.6813751659789027,-2.5256956259356897,2.2814885812946777,-1.0155122915851038,-0.035639588032857716
1708438273.1139984,-1.1061667203903198,-1.6814037762083949,-2.5257166067706507,2.281513138408325,-1.015515152608053,-0.03554088274110967
1708438273.1159961,-1.106215476989746,-1.6813494167723597,-2.5257120768176478,2.281439943904541,-1.0155094305621546,-0.03561574617494756
1708438273.1180108,-1.1061797142028809,-1.681394716302389,-2.5257120768176478,2.281439943904541,-1.015496079121725,-0.03558713594545537
1708438273.1199906,-1.106178641319275,-1.6813122234740199,-2.5257092157946985,2.2814225393482666,-1.0155165831195276,-0.03561145464052373
1708438273.1219945,-1.106231689453125,-1.681361814538473,-2.5256956259356897,2.2814194399067382,-1.0155003706561487,-0.03561717668642217
1708438273.1240163,-1.1061592102050781,-1.681328912774557,-2.5257046858416956,2.281472368831299,-1.0155165831195276,-0.03562289873232061
1708438273.1260011,-1.106208086013794,-1.6813856563963832,-2.5256837050067347,2.281447573299072,-1.0155375639544886,-0.035573784505025685
1708438273.1279678,-1.106203556060791,-1.6813823185362757,-2.5257001558886927,2.28147999822583,-1.0154789129840296,-0.03565103212465459
1708438273.1299908,-1.1061830520629883,-1.681406637231344,-2.5256713072406214,2.28145615636792,-1.0155003706561487,-0.03564054170717412
1708438273.131965,-1.1062284708023071,-1.6814304790892542,-2.5256667772876185,2.281463785762451,-1.0154913107501429,-0.03561383882631475
1708438273.1339638,-1.106175422668457,-1.6813904247679652,-2.5256248156176966,2.2814923959919433,-1.0154507795916956,-0.035582844411031544
1708438273.1360495,-1.1062273979187012,-1.681410928765768,-2.5256713072406214,2.2814430433460693,-1.015496079121725,-0.035627190266744435
1708438273.138082,-1.106187343597412,-1.6813684902586878,-2.5256927649127405,2.2814809519001464,-1.0154913107501429,-0.03561145464052373
1708438273.1399858,-1.106220006942749,-1.681422849694723,-2.5256429354297083,2.281484289760254,-1.0154913107501429,-0.03560239473451787
1708438273.141985,-1.1062111854553223,-1.6813904247679652,-2.5256593863116663,2.281451864833496,-1.0155165831195276,-0.03558713594545537
1708438273.1439784,-1.1061618328094482,-1.681422849694723,-2.5256758371936243,2.2814203935810546,-1.0155332724200647,-0.03561145464052373
1708438273.1459637,-1.1061961650848389,-1.6814094982542933,-2.5256264845477503,2.281505509013794,-1.0155451933490198,-0.03563529649843389
1708438273.1479695,-1.1061797142028809,-1.6813975773253382,-2.5256758371936243,2.2814194399067382,-1.0154674688922327,-0.035639588032857716
1708438273.1499684,-1.1061961650848389,-1.6813813648619593,-2.5256713072406214,2.281472368831299,-1.0155094305621546,-0.03561860719789678
1708438273.1519518,-1.1061797142028809,-1.6813975773253382,-2.5256593863116663,2.281451864833496,-1.0155213514911097,-0.03559428850282842
1708438273.1539612,-1.106191635131836,-1.6813932857909144,-2.5256503264056605,2.2814690309711914,-1.0154879728900355,-0.03560334840883428
1708438273.155962,-1.1061667203903198,-1.6813551388182582,-2.5256384054767054,2.2814809519001464,-1.015496079121725,-0.03559905687441045
1708438273.157953,-1.106215476989746,-1.681401868859762,-2.525635544453756,2.2814809519001464,-1.015496079121725,-0.03561574617494756
1708438273.1599638,-1.106199026107788,-1.6813527546324671,-2.525606934224264,2.281447573299072,-1.015496079121725,-0.035636250172750294
1708438273.1619549,-1.106163501739502,-1.6813551388182582,-2.525573794041769,2.2814366060444335,-1.0155256430255335,-0.03559905687441045
1708438273.1639798,-1.1061797142028809,-1.681455751458639,-2.5255499521838587,2.2814151483723144,-1.0154674688922327,-0.03559476533998662
1708438273.1659708,-1.106163501739502,-1.681406637231344,-2.5255828539477747,2.2814571100422363,-1.0155094305621546,-0.03561860719789678
1708438273.1680615,-1.1061588525772095,-1.6813823185362757,-2.5255635420428675,2.281435652370117,-1.0154674688922327,-0.03558999696840459
1708438273.1700191,-1.1061229705810547,-1.6813856563963832,-2.5255139509784144,2.2814528185078125,-1.0155242125140589,-0.03558570543398076
1708438273.1720252,-1.1061590909957886,-1.681422849694723,-2.525543991719381,2.2814323145100097,-1.0155656973468226,-0.03561860719789678
1708438273.1739948,-1.1062047481536865,-1.681361814538473,-2.5255470911609095,2.28145615636792,-1.015536133443014,-0.03566009203066045
1708438273.1759932,-1.1061842441558838,-1.6814271412291468,-2.5255771319018763,2.281494064921997,-1.015519920979635,-0.035627190266744435
1708438273.1779928,-1.1061797142028809,-1.68133606533193,-2.5255349318133753,2.28145615636792,-1.0155165831195276,-0.035627190266744435
1708438273.180013,-1.1061928272247314,-1.6813684902586878,-2.5255304018603724,2.281411810512207,-1.01550800005068,-0.035627190266744435
1708438273.18204,-1.1061303615570068,-1.6813975773253382,-2.5255349318133753,2.2814809519001464,-1.0154836813556116,-0.035607163106099904
1708438273.1839874,-1.1061888933181763,-1.6814152203001917,-2.5255516211139124,2.2815345960804443,-1.015503231679098,-0.03561574617494756
1708438273.186017,-1.1061596870422363,-1.6813813648619593,-2.5255680719958704,2.2814151483723144,-1.015487019215719,-0.035627190266744435
1708438273.1879935,-1.106163501739502,-1.6813904247679652,-2.5255139509784144,2.2814528185078125,-1.0155122915851038,-0.035593811665670216
1708438273.189972,-1.1061840057373047,-1.681406637231344,-2.525548521672384,2.2814604479023437,-1.0155242125140589,-0.03558570543398076
1708438273.191977,-1.1061596870422363,-1.6813484630980433,-2.5255470911609095,2.2814366060444335,-1.0155285040484827,-0.035648647938863576
1708438273.1939836,-1.1061723232269287,-1.6813856563963832,-2.525565210972921,2.281423731441162,-1.0155003706561487,-0.03563529649843389
1708438273.1959589,-1.106175422668457,-1.6814137897887171,-2.5255139509784144,2.281407518977783,-1.0155332724200647,-0.035598103200094044
1708438273.197949,-1.106163501739502,-1.6814094982542933,-2.5255516211139124,2.281451864833496,-1.0155213514911097,-0.035589043294088185
1708438273.1999516,-1.1061639785766602,-1.681434770623678,-2.5255799929248255,2.2814854818531494,-1.0155046621905726,-0.03562289873232061
1708438273.2019875,-1.1061797142028809,-1.6813723049559535,-2.5255680719958704,2.281444235438965,-1.015496079121725,-0.035631958638326466
1708438273.2040336,-1.1061639785766602,-1.681406637231344,-2.5255516211139124,2.281416102046631,-1.0155046621905726,-0.035607163106099904
1708438273.2060149,-1.106163501739502,-1.681406637231344,-2.5255754629718226,2.281439943904541,-1.015528980885641,-0.03568441072572881
1708438273.2079887,-1.1061640977859497,-1.6813856563963832,-2.5255394617663782,2.2814852434345703,-1.0154808203326624,-0.03563529649843389
1708438273.2099533,-1.106191635131836,-1.6813975773253382,-2.5255561510669153,2.2814485269733886,-1.0155451933490198,-0.03560239473451787
1708438273.2120032,-1.106142282485962,-1.6814185581602992,-2.5255425612079065,2.2814485269733886,-1.0155404249774378,-0.03562051454652959
1708438273.2139657,-1.1061640977859497,-1.6813765964903773,-2.5255635420428675,2.281423731441162,-1.0155423323260706,-0.03562623659242803
1708438273.2159922,-1.1061465740203857,-1.6814094982542933,-2.5255394617663782,2.281416102046631,-1.01550800005068,-0.03564435640443975
1708438273.218017,-1.1061959266662598,-1.6813932857909144,-2.5255425612079065,2.2814032274433593,-1.0155122915851038,-0.035607163106099904
1708438273.2200048,-1.1062047481536865,-1.6813856563963832,-2.5255680719958704,2.28145615636792,-1.0155165831195276,-0.03561383882631475
1708438273.2219954,-1.1061508655548096,-1.6813684902586878,-2.5255394617663782,2.2814766603657226,-1.015496079121725,-0.03558570543398076
1708438273.224016,-1.1061477661132812,-1.6814094982542933,-2.5255845228778284,2.281423731441162,-1.01550800005068,-0.03560239473451787
1708438273.2259963,-1.1062078475952148,-1.6813975773253382,-2.5255516211139124,2.2814809519001464,-1.0155165831195276,-0.03564674059023076
1708438273.2280126,-1.1061228513717651,-1.681434770623678,-2.5255561510669153,2.281411810512207,-1.0155003706561487,-0.035637680684224904
1708438273.2299984,-1.1061346530914307,-1.6813723049559535,-2.5255890528308313,2.281428022975586,-1.0155046621905726,-0.03568441072572881
1708438273.2320194,-1.1061797142028809,-1.6813975773253382,-2.5255919138537806,2.2814485269733886,-1.0155423323260706,-0.03563529649843389
1708438273.2340224,-1.10615074634552,-1.681401868859762,-2.5255184809314173,2.2813913065144042,-1.015496079121725,-0.03563100496401006
1708438273.2360036,-1.1062121391296387,-1.6814214191832484,-2.5255349318133753,2.28146140157666,-1.0155375639544886,-0.03561383882631475
1708438273.238001,-1.1061723232269287,-1.6813775501646937,-2.5255470911609095,2.2814571100422363,-1.0155213514911097,-0.03560525575746709
1708438273.239973,-1.1061465740203857,-1.681364198724264,-2.5255561510669153,2.2814604479023437,-1.0155122915851038,-0.035598103200094044
1708438273.2419722,-1.1061677932739258,-1.681364198724264,-2.5255680719958704,2.2814647394367675,-1.0155003706561487,-0.03560239473451787
1708438273.2439685,-1.106163501739502,-1.6813975773253382,-2.5255606810199183,2.2814084726520996,-1.015470329915182,-0.03564435640443975
1708438273.2459588,-1.1061639785766602,-1.681443830529684,-2.5255516211139124,2.281416102046631,-1.0155213514911097,-0.03565103212465459
1708438273.247978,-1.1061723232269287,-1.6813599071898402,-2.5255964438067835,2.2814032274433593,-1.0155213514911097,-0.03566009203066045
1708438273.2499456,-1.1061508655548096,-1.6814137897887171,-2.5255799929248255,2.281435652370117,-1.0154746214496058,-0.035642449055806935
1708438273.2519653,-1.1061933040618896,-1.6813813648619593,-2.5255516211139124,2.2814690309711914,-1.0155122915851038,-0.03564674059023076
1708438273.253974,-1.1061885356903076,-1.6814094982542933,-2.5255394617663782,2.281489534968994,-1.015536133443014,-0.03563529649843389
1708438273.2559605,-1.1061797142028809,-1.6813932857909144,-2.5255664030658167,2.281444235438965,-1.0155003706561487,-0.035668198262349904
1708438273.257976,-1.1062090396881104,-1.6813684902586878,-2.5255470911609095,2.2814323145100097,-1.0154789129840296,-0.035709683095113576
1708438273.2599723,-1.1061639785766602,-1.6814466915526332,-2.5255561510669153,2.2814323145100097,-1.0155213514911097,-0.03564674059023076
1708438273.2619598,-1.1061797142028809,-1.681422849694723,-2.5255561510669153,2.281468077296875,-1.01550800005068,-0.03563529649843389
1708438273.2639906,-1.1061972379684448,-1.6814304790892542,-2.5255964438067835,2.2814571100422363,-1.015496079121725,-0.03564435640443975
1708438273.265952,-1.1062047481536865,-1.6813961468138636,-2.5255304018603724,2.2814408975788574,-1.0154879728900355,-0.03562623659242803
1708438273.2680323,-1.1061508655548096,-1.6814094982542933,-2.5255680719958704,2.2814571100422363,-1.0155165831195276,-0.03561383882631475
1708438273.27001,-1.1061677932739258,-1.6813975773253382,-2.5255561510669153,2.281407518977783,-1.0154550711261194,-0.035659138356344044
1708438273.2720091,-1.106163501739502,-1.6813723049559535,-2.5255845228778284,2.281428022975586,-1.0154913107501429,-0.03566009203066045
1708438273.273987,-1.1061723232269287,-1.6813813648619593,-2.5255304018603724,2.2814528185078125,-1.0155213514911097,-0.03563100496401006
1708438273.2759595,-1.106163501739502,-1.681422849694723,-2.5255635420428675,2.2814571100422363,-1.0154836813556116,-0.03561383882631475
1708438273.2779865,-1.1061303615570068,-1.6813813648619593,-2.5255561510669153,2.281395598048828,-1.0155451933490198,-0.0356219450580042
1708438273.2800071,-1.1061632633209229,-1.6813932857909144,-2.5255635420428675,2.2814194399067382,-1.0155614058123987,-0.03565580049623662
1708438273.2820637,-1.106203556060791,-1.6814094982542933,-2.5255935827838343,2.2814366060444335,-1.0155165831195276,-0.03563529649843389
1708438273.2839944,-1.1062003374099731,-1.6813813648619593,-2.5255470911609095,2.281473322505615,-1.01550800005068,-0.03560954729189092
1708438273.2859447,-1.106163501739502,-1.6813723049559535,-2.5255799929248255,2.2814766603657226,-1.0154836813556116,-0.03563529649843389
1708438273.287977,-1.1062047481536865,-1.681364198724264,-2.5255544821368616,2.2814366060444335,-1.0155003706561487,-0.035663906727926076
1708438273.2899685,-1.1061596870422363,-1.681401868859762,-2.5255635420428675,2.281399889583252,-1.0155285040484827,-0.035639588032857716
1708438273.291988,-1.1061346530914307,-1.6814094982542933,-2.5255890528308313,2.281439943904541,-1.0155003706561487,-0.03564674059023076
1708438273.2940276,-1.1061596870422363,-1.681450983087057,-2.5255425612079065,2.2814528185078125,-1.0155122915851038,-0.03563529649843389
1708438273.29597,-1.1061184406280518,-1.681443830529684,-2.5255335013019007,2.281395598048828,-1.0154789129840296,-0.03566342989076787
1708438273.2979891,-1.1061389446258545,-1.6814304790892542,-2.5255635420428675,2.281407518977783,-1.0155242125140589,-0.03564435640443975
1708438273.2999887,-1.1061928272247314,-1.6814257107176722,-2.5255799929248255,2.281416102046631,-1.0155213514911097,-0.035627190266744435
1708438273.301959,-1.1061389446258545,-1.6813484630980433,-2.5255919138537806,2.28137914716687,-1.0154970327960413,-0.035668198262349904
1708438273.3040342,-1.1061885356903076,-1.6813351116576136,-2.5255499521838587,2.281383677119873,-1.0154879728900355,-0.03563100496401006
1708438273.306017,-1.1061640977859497,-1.6813975773253382,-2.5255919138537806,2.281411810512207,-1.0155003706561487,-0.035668198262349904
1708438273.3080425,-1.1061797142028809,-1.6813975773253382,-2.5255799929248255,2.2813750940510253,-1.0155122915851038,-0.035637680684224904
1708438273.310044,-1.1061346530914307,-1.6813599071898402,-2.5255919138537806,2.2814323145100097,-1.0155451933490198,-0.03565580049623662
1708438273.3120031,-1.1061885356903076,-1.6813599071898402,-2.5255544821368616,2.2814032274433593,-1.0155003706561487,-0.03565103212465459
1708438273.314015,-1.1061592102050781,-1.6814466915526332,-2.5255499521838587,2.2814323145100097,-1.0154789129840296,-0.03563529649843389
1708438273.315986,-1.1061315536499023,-1.6813856563963832,-2.5255425612079065,2.281444235438965,-1.0155332724200647,-0.03563100496401006
1708438273.3180318,-1.1061089038848877,-1.6814137897887171,-2.525578323994772,2.2814203935810546,-1.0155285040484827,-0.035607163106099904
1708438273.3199983,-1.1061184406280518,-1.6813599071898402,-2.5255425612079065,2.281428022975586,-1.0154746214496058,-0.03560239473451787
1708438273.322025,-1.1061797142028809,-1.6813975773253382,-2.5255890528308313,2.2814647394367675,-1.0155003706561487,-0.035654846821920216
1708438273.3239975,-1.1062052249908447,-1.6813589535155238,-2.5255680719958704,2.281428022975586,-1.015487019215719,-0.03562623659242803
1708438273.325992,-1.1061508655548096,-1.6813885174193324,-2.5255680719958704,2.281399889583252,-1.0154836813556116,-0.035663906727926076
1708438273.3280168,-1.1061508655548096,-1.6813813648619593,-2.5255799929248255,2.2814485269733886,-1.0154836813556116,-0.03565580049623662
1708438273.3299854,-1.1061797142028809,-1.6814381084837855,-2.5255470911609095,2.2814604479023437,-1.0155332724200647,-0.03568011919130498
1708438273.3319845,-1.1061346530914307,-1.6814424000182093,-2.5255919138537806,2.2814289766499023,-1.0155165831195276,-0.03563529649843389
1708438273.3340244,-1.1061797142028809,-1.6814304790892542,-2.5255845228778284,2.281428022975586,-1.0154913107501429,-0.035668198262349904
1708438273.3360064,-1.106191635131836,-1.6814214191832484,-2.5255470911609095,2.2813870149799804,-1.015496079121725,-0.03560525575746709
1708438273.3380296,-1.1061677932739258,-1.6814094982542933,-2.5255470911609095,2.281449719066284,-1.0155003706561487,-0.03567535081972295
1708438273.3400168,-1.1061723232269287,-1.6814137897887171,-2.5255964438067835,2.2814408975788574,-1.0154674688922327,-0.03570539156068975
1708438273.3419633,-1.1061592102050781,-1.6813723049559535,-2.5255590120898646,2.281411810512207,-1.0155242125140589,-0.03566009203066045
1708438273.3439841,-1.1061391830444336,-1.6813551388182582,-2.5255799929248255,2.2814203935810546,-1.0155003706561487,-0.03568441072572881
1708438273.3459754,-1.1061797142028809,-1.6813932857909144,-2.5255919138537806,2.281444235438965,-1.0154789129840296,-0.03568441072572881
1708438273.3479805,-1.106126070022583,-1.6813975773253382,-2.525557343159811,2.2814528185078125,-1.0155332724200647,-0.03569204012026006
1708438273.349975,-1.1061465740203857,-1.6813975773253382,-2.525573794041769,2.2814084726520996,-1.0155614058123987,-0.03560954729189092
1708438273.351964,-1.1061888933181763,-1.6814052067198695,-2.5256131331073206,2.281399889583252,-1.0155165831195276,-0.03565580049623662
1708438273.3539968,-1.106137990951538,-1.681364198724264,-2.5256131331073206,2.281428022975586,-1.0154922644244593,-0.03568441072572881
1708438273.3559885,-1.1061465740203857,-1.6814137897887171,-2.5255919138537806,2.2813374239155273,-1.0154913107501429,-0.03562623659242803
1708438273.3579655,-1.1061184406280518,-1.6813975773253382,-2.5255544821368616,2.28145615636792,-1.0155537764178675,-0.035654846821920216
1708438273.3600092,-1.106163501739502,-1.6813885174193324,-2.5255919138537806,2.2814528185078125,-1.01550800005068,-0.03567105928529912
1708438273.3619604,-1.1061959266662598,-1.6814424000182093,-2.5255873839007776,2.2814203935810546,-1.015487019215719,-0.0356219450580042
1708438273.3639717,-1.1061465740203857,-1.6813932857909144,-2.5255754629718226,2.281428022975586,-1.0155242125140589,-0.035666767750875294
1708438273.365958,-1.1061639785766602,-1.6813885174193324,-2.5256176630603235,2.281428022975586,-1.0155122915851038,-0.03561765352358037
1708438273.3681033,-1.1061553955078125,-1.6813556156554164,-2.5256295839892786,2.281428022975586,-1.01550800005068,-0.03569204012026006
1708438273.3700411,-1.1062047481536865,-1.6813961468138636,-2.5256131331073206,2.281489534968994,-1.0155165831195276,-0.03568727174867803
1708438273.3720214,-1.1061797142028809,-1.6813932857909144,-2.52555758157839,2.2814246851154785,-1.0155122915851038,-0.03568441072572881
1708438273.3739853,-1.1061723232269287,-1.6813675365843714,-2.5255544821368616,2.2814974027821044,-1.0155537764178675,-0.03563529649843389
1708438273.3759909,-1.1061959266662598,-1.6814052067198695,-2.5255709330188196,2.2814604479023437,-1.0155242125140589,-0.035666767750875294
1708438273.3780313,-1.1061766147613525,-1.6813856563963832,-2.5255754629718226,2.2814408975788574,-1.0154631773578089,-0.035666767750875294
1708438273.3800213,-1.1061553955078125,-1.6814304790892542,-2.5256086031543177,2.281477614040039,-1.01550800005068,-0.03567105928529912
1708438273.3820233,-1.1061766147613525,-1.6813680134215296,-2.5255828539477747,2.281395598048828,-1.0155213514911097,-0.035720173512594044
1708438273.3840606,-1.1061797142028809,-1.6813961468138636,-2.5255664030658167,2.2814604479023437,-1.0154789129840296,-0.03568631807436162
1708438273.3860183,-1.1061959266662598,-1.6813599071898402,-2.5255828539477747,2.281428022975586,-1.0154836813556116,-0.03571015993227178
1708438273.3879619,-1.1061547994613647,-1.6814137897887171,-2.525569264088766,2.281428022975586,-1.0155003706561487,-0.03578311601747686
1708438273.3900182,-1.106163501739502,-1.6814094982542933,-2.525573794041769,2.28146140157666,-1.0155122915851038,-0.035804096852437794
1708438273.3919618,-1.1061840057373047,-1.6814547977843226,-2.5255873839007776,2.281444235438965,-1.015496079121725,-0.03578788438905889
1708438273.3939655,-1.1061959266662598,-1.6813932857909144,-2.525573794041769,2.2814032274433593,-1.0155046621905726,-0.035734001790181935
1708438273.395992,-1.106126070022583,-1.6813842258849085,-2.525595013295309,2.281439943904541,-1.0155165831195276,-0.03579074541200811
1708438273.3979616,-1.1061592102050781,-1.6814257107176722,-2.525585953389303,2.2813662725635986,-1.0154722372638147,-0.03572541872133428
1708438273.3999822,-1.1062078475952148,-1.681455751458639,-2.5256205240832728,2.2814766603657226,-1.0155256430255335,-0.035741631184713185
1708438273.401967,-1.1061596870422363,-1.6814166508116664,-2.525590483342306,2.2814366060444335,-1.0155122915851038,-0.03576690355409795
1708438273.4040005,-1.1061707735061646,-1.6814137897887171,-2.525578323994772,2.281445189113281,-1.0155375639544886,-0.03581887880434209
1708438273.4060397,-1.1061840057373047,-1.6814166508116664,-2.525611464177267,2.2814647394367675,-1.01550800005068,-0.03579885164369756
1708438273.4079905,-1.1061465740203857,-1.6814052067198695,-2.525628153477804,2.281444235438965,-1.0155614058123987,-0.03579551378359014
1708438273.4099686,-1.1061797142028809,-1.6813599071898402,-2.525611464177267,2.281411810512207,-1.0155165831195276,-0.03584462801088506
1708438273.411967,-1.1061592102050781,-1.681406637231344,-2.525599543248312,2.281451864833496,-1.015496079121725,-0.035816494618551076
1708438273.4139621,-1.1062122583389282,-1.681422849694723,-2.52561599413027,2.281435652370117,-1.0154827276812952,-0.03578168550600225
1708438273.4159985,-1.1061391830444336,-1.681422849694723,-2.525649134312765,2.2814485269733886,-1.015487019215719,-0.03577739397157842
1708438273.4180202,-1.1061547994613647,-1.6814171276488246,-2.525656525288717,2.2814323145100097,-1.0155404249774378,-0.035810295735494435
1708438273.420027,-1.1061508655548096,-1.6813723049559535,-2.525677506123678,2.2814313608356933,-1.0155733267413538,-0.035749260579244435
1708438273.4219847,-1.1061378717422485,-1.6814052067198695,-2.5256972948657435,2.28147999822583,-1.0155404249774378,-0.03581220308412725
1708438273.4240122,-1.106216549873352,-1.6814094982542933,-2.5256713072406214,2.281447573299072,-1.015618626271383,-0.03577310243715459
1708438273.4260352,-1.1061677932739258,-1.6813813648619593,-2.5257256666766565,2.281439943904541,-1.015519920979635,-0.03579885164369756
1708438273.4280055,-1.1061303615570068,-1.681401868859762,-2.525703016911642,2.2814604479023437,-1.015548054371969,-0.035805527363912404
1708438273.4300318,-1.1062289476394653,-1.6814052067198695,-2.525723997746603,2.2814647394367675,-1.0155108610736292,-0.035807434712545216
1708438273.4320047,-1.106163501739502,-1.681401868859762,-2.525723997746603,2.281472368831299,-1.015557114277975,-0.03581887880434209
1708438273.4340448,-1.1062216758728027,-1.6814137897887171,-2.525714937840597,2.281444235438965,-1.0155242125140589,-0.03583127657045537
1708438273.4360375,-1.1061140298843384,-1.68141569713735,-2.525734249745504,2.281428022975586,-1.0155242125140589,-0.035801235829488576
1708438273.4379904,-1.1062240600585938,-1.6813765964903773,-2.525780979787008,2.2814690309711914,-1.0155404249774378,-0.035817925130025685
1708438273.4399607,-1.1061797142028809,-1.6814052067198695,-2.525734249745504,2.2814032274433593,-1.0155523459063929,-0.035822693501607716
1708438273.4419563,-1.106191635131836,-1.6813842258849085,-2.5257554689990442,2.281463785762451,-1.0155599753009241,-0.035876099263326466
1708438273.4439774,-1.106203556060791,-1.6814185581602992,-2.5258005301104944,2.2814029890247802,-1.015576187764303,-0.03587466875185186
1708438273.4459739,-1.1062121391296387,-1.681406637231344,-2.5257795492755335,2.2814809519001464,-1.0155556837665003,-0.035894219075338185
1708438273.4479656,-1.1061797142028809,-1.681394716302389,-2.5257795492755335,2.2814809519001464,-1.0156124273883265,-0.03585702577699834
1708438273.4499595,-1.1061724424362183,-1.681364198724264,-2.5257719198810022,2.2814971643635253,-1.0156081358539026,-0.03589851060976201
1708438273.4519677,-1.1061592102050781,-1.6814304790892542,-2.5257795492755335,2.2814151483723144,-1.0155919233905237,-0.03589851060976201
1708438273.453959,-1.1062403917312622,-1.6814424000182093,-2.5257750193225306,2.281451864833496,-1.0156005064593714,-0.03594381013979131
1708438273.45595,-1.106216549873352,-1.6813932857909144,-2.5257373491870325,2.281472368831299,-1.0156157652484339,-0.03593904176820928
1708438273.4580326,-1.1062002182006836,-1.6813885174193324,-2.5257750193225306,2.281451864833496,-1.0156410376178187,-0.035967651997701466
1708438273.4599578,-1.106216549873352,-1.6813961468138636,-2.5257673899279993,2.281517429942749,-1.0156319777118128,-0.03592139879335576
1708438273.4619915,-1.1062415838241577,-1.6814304790892542,-2.5257869402514856,2.2814268308826904,-1.0156438986407679,-0.035962883626119435
1708438273.4639935,-1.1061797142028809,-1.6813932857909144,-2.5258079210864466,2.281484289760254,-1.0156810919391077,-0.03598672548402959
1708438273.4659586,-1.1061797142028809,-1.6813932857909144,-2.5258124510394495,2.281517429942749,-1.015667740498678,-0.03598672548402959
1708438273.4679925,-1.1061465740203857,-1.6813932857909144,-2.5258033911334437,2.28147999822583,-1.015683952962057,-0.03596192995180303
1708438273.4700174,-1.1061711311340332,-1.681434770623678,-2.5258124510394495,2.28145615636792,-1.0156753698932093,-0.036043945943013966
1708438273.471996,-1.106175422668457,-1.6813904247679652,-2.5257914702044886,2.28147999822583,-1.0156996885882776,-0.0360186735736292
1708438273.4739997,-1.106175422668457,-1.6813975773253382,-2.5258787314044397,2.28150121747937,-1.0157321135150355,-0.035969082509176076
1708438273.4759634,-1.1061711311340332,-1.6813904247679652,-2.52584416071047,2.2815098005482177,-1.0157201925860804,-0.036051575337545216
1708438273.4779735,-1.1061797142028809,-1.6814214191832484,-2.525810782109396,2.28145615636792,-1.0157650152789515,-0.03603488603700811
1708438273.479965,-1.1062002182006836,-1.6814185581602992,-2.525818411503927,2.281447573299072,-1.0157159010516565,-0.03609210649599248
1708438273.4820414,-1.1061797142028809,-1.6814137897887171,-2.5258410612689417,2.2814931112476806,-1.0157187620746058,-0.03605491319765264
1708438273.4840186,-1.1061547994613647,-1.6813599071898402,-2.525810782109396,2.281484289760254,-1.0157559553729456,-0.03608304658998662
1708438273.4859872,-1.1062359809875488,-1.681406637231344,-2.525806252156393,2.281423731441162,-1.0157440344439905,-0.036120239888326466
1708438273.4879816,-1.106187343597412,-1.681394716302389,-2.525832001362936,2.281484289760254,-1.0157235304461878,-0.03609925905336553
1708438273.48996,-1.1061830520629883,-1.6814466915526332,-2.5258305708514612,2.2814549642750244,-1.015759293233053,-0.03611880937685186
1708438273.4919608,-1.1062284708023071,-1.6813885174193324,-2.52586800256838,2.28147999822583,-1.0157998243915003,-0.036135498677388966
1708438273.493971,-1.106203556060791,-1.6814185581602992,-2.52586800256838,2.2814668852039794,-1.0157626310931605,-0.036130730305806935
1708438273.495941,-1.1061677932739258,-1.6814514599242152,-2.52582294145693,2.2814668852039794,-1.0158236662494105,-0.03611308733095342
1708438273.4979565,-1.1061797142028809,-1.6813765964903773,-2.525827471409933,2.281517429942749,-1.0157893339740198,-0.03619987169374639
1708438273.4999518,-1.1062078475952148,-1.6813723049559535,-2.525851551686422,2.281507654781006,-1.0158937613116663,-0.03622800508608037
1708438273.5019553,-1.106175422668457,-1.6813856563963832,-2.525818411503927,2.2815238672443847,-1.0158713499652308,-0.03617602983583623
1708438273.5040069,-1.1062284708023071,-1.681406637231344,-2.525813881550924,2.281533642406128,-1.0158713499652308,-0.03614503542055303
1708438273.506021,-1.106203556060791,-1.681434770623678,-2.52584416071047,2.281491442317627,-1.0159195105182093,-0.03624326387514287
1708438273.508045,-1.106231689453125,-1.68143953899526,-2.525818411503927,2.281597061748169,-1.0159357229815882,-0.03621799150575811
1708438273.510027,-1.1062231063842773,-1.6814137897887171,-2.5258873144732874,2.2815465170093994,-1.0159524122821253,-0.03618032137026006
1708438273.5120401,-1.1062273979187012,-1.6813508472838343,-2.5258873144732874,2.2815796571918945,-1.0159180800067347,-0.036220852528707326
1708438273.5140448,-1.1061992645263672,-1.6813575230040492,-2.525884453450338,2.281653328532837,-1.0159509817706507,-0.03630048433412725
1708438273.5160196,-1.1062273979187012,-1.68141569713735,-2.5258634726153772,2.28164450704541,-1.016005818043844,-0.03629428545107061
1708438273.5180342,-1.1062363386154175,-1.6813732586302699,-2.5259116331683558,2.2816197115131835,-1.0159509817706507,-0.03629428545107061
1708438273.5200138,-1.106231689453125,-1.6814094982542933,-2.5258379618274134,2.281599207515381,-1.0159419218646448,-0.03631812730898076
1708438273.521981,-1.1062241792678833,-1.6813684902586878,-2.5258827845202845,2.281590147609375,-1.0160005728351038,-0.03635007539858037
1708438273.5240183,-1.1061992645263672,-1.6814094982542933,-2.525944534932272,2.281660242671631,-1.0159924666034144,-0.03633767763246709
1708438273.5259936,-1.106187343597412,-1.6813765964903773,-2.5259280840503138,2.281655712718628,-1.0159791151629847,-0.036365811024801076
1708438273.5279822,-1.1062617301940918,-1.6813813648619593,-2.525956455861227,2.2816387849995117,-1.015982453023092,-0.03642303148378545
1708438273.5300367,-1.106203556060791,-1.6813436947264613,-2.5258947054492396,2.2815872865864257,-1.015965763722555,-0.03641826311220342
1708438273.531988,-1.106220006942749,-1.6813484630980433,-2.525951925908224,2.2816387849995117,-1.016019646321432,-0.03639585176576787
1708438273.5340154,-1.1061992645263672,-1.6813856563963832,-2.525959316884176,2.2816647726246337,-1.0160182158099573,-0.03642923036684209
1708438273.5359716,-1.106260895729065,-1.68141569713735,-2.525905434285299,2.2816733556934814,-1.016043488179342,-0.03644878069032842
1708438273.5380206,-1.106187343597412,-1.6814094982542933,-2.525938336049215,2.281685991878174,-1.0160601774798792,-0.03650218645204717
1708438273.5400312,-1.1062111854553223,-1.6813932857909144,-2.5260255972491663,2.281634493465088,-1.0160349051104944,-0.03649312654604131
1708438273.5419598,-1.106231689453125,-1.6813551388182582,-2.525933806096212,2.2816433149525146,-1.0160468260394495,-0.03649360338319951
1708438273.5439694,-1.1061662435531616,-1.6813904247679652,-2.5259788672076624,2.2816683489033203,-1.0160377661334437,-0.036536995564596
1708438273.5459845,-1.1062359809875488,-1.6814137897887171,-2.5259817282306116,2.2816478449055175,-1.0160916487323206,-0.03652984300722295
1708438273.5479658,-1.1062068939208984,-1.6813575230040492,-2.5259788672076624,2.2816271024891357,-1.016074005757467,-0.03653270403017217
1708438273.549954,-1.1062241792678833,-1.6814052067198695,-2.5260403792010706,2.281618281001709,-1.0161693731891077,-0.03661042848695928
1708438273.5519514,-1.1061573028564453,-1.681427618066305,-2.5259953180896204,2.281634493465088,-1.016135040913717,-0.03661805788149053
1708438273.5539768,-1.106269121170044,-1.681364198724264,-2.5259907881366175,2.281613989467285,-1.0162056128131312,-0.0366137663470667
1708438273.5559845,-1.106215476989746,-1.6813856563963832,-2.5259817282306116,2.281677170390747,-1.0161526838885706,-0.036707703267232716
1708438273.55795,-1.1061992645263672,-1.681410928765768,-2.5260570685016077,2.2816597658344726,-1.0162079969989222,-0.036695305501119435
1708438273.560005,-1.1062347888946533,-1.6813394031920375,-2.5259984175311487,2.2817084032246093,-1.0161855856524866,-0.036657158528463185
1708438273.5619562,-1.1062111854553223,-1.6814424000182093,-2.5260120073901575,2.281712694759033,-1.0162561575519007,-0.03669101396669561
1708438273.5639768,-1.1062517166137695,-1.6813441715636195,-2.5260570685016077,2.281712694759033,-1.01625901857485,-0.036722962056295216
1708438273.5659695,-1.1062273979187012,-1.6813684902586878,-2.5260239283191126,2.2817084032246093,-1.0162761847125452,-0.036733452473775685
1708438273.5679667,-1.1062273979187012,-1.681364198724264,-2.5260570685016077,2.281716986293457,-1.01628286043276,-0.03673774400819951
1708438273.5700228,-1.106215476989746,-1.6813904247679652,-2.5259984175311487,2.2816921907612304,-1.0162909666644495,-0.036799256001607716
1708438273.5720444,-1.106256127357483,-1.6813732586302699,-2.5260313192950647,2.28166310369458,-1.0163071791278284,-0.036750141774312794
1708438273.574022,-1.106247901916504,-1.6813732586302699,-2.526076618825094,2.281740828151367,-1.0163400808917444,-0.036811176930562794
1708438273.5759761,-1.106260895729065,-1.6813441715636195,-2.526038948689596,2.2817203241535644,-1.0163057486163538,-0.03677255312074834
1708438273.5779855,-1.1062273979187012,-1.681394716302389,-2.526067558919088,2.281695528621338,-1.0163667837726038,-0.036809746419088185
1708438273.5799704,-1.1062142848968506,-1.6813765964903773,-2.526101891194479,2.2816998201557617,-1.0163715521441858,-0.0368579069720667
1708438273.5820127,-1.1062273979187012,-1.6813484630980433,-2.526050869618551,2.281756563777588,-1.016346279774801,-0.03686219850649053
1708438273.5840003,-1.1061980724334717,-1.6813436947264613,-2.526072088872091,2.2817727762409667,-1.0163252989398401,-0.03684550920595342
1708438273.5859575,-1.1062111854553223,-1.681364198724264,-2.526067558919088,2.2818052011677246,-1.0163806120501917,-0.03693229356874639
1708438273.5880039,-1.1063026189804077,-1.6813403568663539,-2.5260749498950403,2.2817935186573486,-1.016350571309225,-0.03687411943544561
1708438273.5899599,-1.1062772274017334,-1.681364198724264,-2.5260794798480433,2.2818378645130615,-1.0163596312152308,-0.03686076799501592
1708438273.591953,-1.106236457824707,-1.6813856563963832,-2.5261123816119593,2.2817484575458984,-1.016329590474264,-0.03691465059389287
1708438273.593973,-1.1062562465667725,-1.6813575230040492,-2.526116911564962,2.281752272243164,-1.016383473073141,-0.03690463701357061
1708438273.5959463,-1.106256127357483,-1.6813732586302699,-2.5260987917529505,2.281784697169922,-1.0163877646075647,-0.03690559068788701
1708438273.597964,-1.1062562465667725,-1.6813975773253382,-2.5261078516589563,2.2817267614552,-1.0163787047015589,-0.036913696919576466
1708438273.5999775,-1.1062257289886475,-1.6814094982542933,-2.5260584990130823,2.2817436891743164,-1.0163534323321741,-0.036899868641988576
1708438273.6019616,-1.1062636375427246,-1.6813732586302699,-2.5261362234698694,2.2817436891743164,-1.0164359251605433,-0.036908928547994435
1708438273.6039913,-1.106284499168396,-1.681401868859762,-2.5261107126819056,2.28174798070874,-1.0164182821856897,-0.03693753877748662
1708438273.6060202,-1.1062517166137695,-1.681345125237936,-2.5261152426349085,2.2818009096333007,-1.0164268652545374,-0.036962334309713185
1708438273.6079643,-1.1062099933624268,-1.6813661060728968,-2.526139561329977,2.281820459956787,-1.0164182821856897,-0.036913696919576466
1708438273.6099515,-1.1062474250793457,-1.6813684902586878,-2.5261316935168665,2.281776114101074,-1.0164373556720179,-0.036948506032125294
1708438273.611944,-1.1062382459640503,-1.6813732586302699,-2.5261181036578577,2.281824751491211,-1.0164702574359339,-0.036948506032125294
1708438273.6139557,-1.1062679290771484,-1.681368967095846,-2.526151482258932,2.281780405635498,-1.0164583365069788,-0.036957565938131154
1708438273.615949,-1.1062463521957397,-1.6812988720335902,-2.526200834904806,2.2817794519611816,-1.0164945761310022,-0.036953274403707326
1708438273.6180186,-1.106283187866211,-1.6813775501646937,-2.526209894810812,2.281796618098877,-1.016486946736471,-0.036962334309713185
1708438273.620027,-1.1062712669372559,-1.681368967095846,-2.52616793314089,2.281812830562256,-1.0164945761310022,-0.036969963704244435
1708438273.6219985,-1.1062593460083008,-1.6813045940794886,-2.526163403187887,2.2817999559589843,-1.0164783636676233,-0.03688031831850225
1708438273.6240368,-1.1062874794006348,-1.6812955341734828,-2.526196304951803,2.28184096395459,-1.0164693037616175,-0.036933724080221
1708438273.625985,-1.1063083410263062,-1.6813537083067835,-2.5261827150927942,2.281804247493408,-1.0165107885943812,-0.036896530781881154
1708438273.627996,-1.1062546968460083,-1.6813379726805628,-2.5261498133288782,2.2818075853535156,-1.0165107885943812,-0.03690034547914678
1708438273.6300006,-1.1063202619552612,-1.6813732586302699,-2.526142422352926,2.2817794519611816,-1.0164974371539515,-0.036896530781881154
1708438273.6320224,-1.106278896331787,-1.681345125237936,-2.5261917749988,2.2818524080463867,-1.0165184179889124,-0.036896530781881154
1708438273.634035,-1.106283187866211,-1.681345125237936,-2.5262158552752894,2.2818655210682373,-1.0165675322162073,-0.03686362901796514
1708438273.6360118,-1.1063083410263062,-1.6813799343504847,-2.526203695927755,2.281848593349121,-1.0165632406817835,-0.036913696919576466
1708438273.6379666,-1.1062918901443481,-1.6813661060728968,-2.526208225880758,2.2818612295338134,-1.0165584723102015,-0.036959473286763966
1708438273.6399803,-1.1063318252563477,-1.681364198724264,-2.5261917749988,2.2818731504627685,-1.0165661017047327,-0.036884609852926076
1708438273.641957,-1.1063039302825928,-1.6813584766783656,-2.526187245045797,2.2818774419971923,-1.0165703932391565,-0.03690702119936162
1708438273.6440074,-1.1063395738601685,-1.6813990078368128,-2.5261662642108362,2.2818311887928466,-1.0165780226336878,-0.03690702119936162
1708438273.6459723,-1.1063522100448608,-1.6813661060728968,-2.526229445134298,2.2818795877644042,-1.016568962727682,-0.03683644929994756
1708438273.6479566,-1.106339454650879,-1.681361814538473,-2.526203695927755,2.2818514543720703,-1.0166061560260218,-0.03677684465517217
1708438273.649988,-1.1062976121902466,-1.6814037762083949,-2.5261781851397913,2.281883879298828,-1.0166142622577112,-0.03679353395570928
1708438273.6519759,-1.1063776016235352,-1.6813751659789027,-2.526203695927755,2.28196565687146,-1.0166261831866663,-0.036734882985250294
1708438273.653951,-1.106360673904419,-1.6813093624510707,-2.5261946360217493,2.2819363313862304,-1.0166218916522425,-0.03676921526064092
1708438273.6559768,-1.1063441038131714,-1.6813379726805628,-2.5262158552752894,2.2819320398518066,-1.0166423956500452,-0.0367658774005335
1708438273.6579704,-1.1063432693481445,-1.6813074551024378,-2.5262370745288294,2.281984968776367,-1.0166409651385706,-0.036718193684713185
1708438273.659994,-1.106307029724121,-1.6813165150084437,-2.5262234846698206,2.282017393703125,-1.0166423956500452,-0.0366290251361292
1708438273.6619635,-1.1062812805175781,-1.6813708744444789,-2.5262203852282923,2.2819687563129882,-1.0166662375079554,-0.03662091890443975
1708438273.6640136,-1.1063804626464844,-1.681282182733053,-2.5261691252337855,2.2819720941730957,-1.016670052205221,-0.03658038774599248
1708438273.6659749,-1.1063156127929688,-1.6813909016051234,-2.5262203852282923,2.281987352962158,-1.0166528860675257,-0.03658658662904912
1708438273.668024,-1.1063432693481445,-1.6813255749144496,-2.5262280146228235,2.281991644496582,-1.0166619459735315,-0.03654176393617803
1708438273.6700387,-1.106335163116455,-1.6813045940794886,-2.5262113253222864,2.281984968776367,-1.0166576544391077,-0.03649360338319951
1708438273.672047,-1.1064178943634033,-1.6813017330565394,-2.5262609163867396,2.281947298640869,-1.0166743437396448,-0.036475483571187794
1708438273.6740124,-1.1063305139541626,-1.6813003025450648,-2.5262683073626917,2.281947298640869,-1.0166528860675257,-0.03640205064882451
1708438273.675994,-1.106396198272705,-1.6813346348204554,-2.5262609163867396,2.281995936031006,-1.0166662375079554,-0.03633767763246709
1708438273.6779828,-1.1063756942749023,-1.6812688312926234,-2.5262637774096888,2.2820045190998535,-1.0166743437396448,-0.03628093401064092
1708438273.6799867,-1.1063640117645264,-1.6813017330565394,-2.5262637774096888,2.2819720941730957,-1.0166619459735315,-0.03618079820741826
1708438273.6820686,-1.1063624620437622,-1.6812731228270472,-2.526292387639181,2.281975432033203,-1.0166619459735315,-0.036171738301412404
1708438273.6839936,-1.1063206195831299,-1.6812569103636683,-2.526301447545187,2.282003565425537,-1.0166619459735315,-0.0361102263080042
1708438273.6859875,-1.1064457893371582,-1.6813036404051722,-2.52622634569277,2.2820121484943847,-1.0166857878314417,-0.03597718874086553
1708438273.687975,-1.1063668727874756,-1.6812416515746058,-2.52627140680422,2.281987352962158,-1.0166857878314417,-0.03594667116274053
1708438273.689977,-1.1064190864562988,-1.681225915948385,-2.5262308756457728,2.28202406942334,-1.0167487303363245,-0.0357592741595667
1708438273.6919622,-1.1064280271530151,-1.6812392673888148,-2.5262518564807337,2.2820615011402587,-1.0167234579669397,-0.03569680849184209
1708438273.693966,-1.1064481735229492,-1.6812111339964808,-2.526284996663229,2.282076521510742,-1.0166900793658655,-0.035576645527974904
1708438273.6959708,-1.1064071655273438,-1.6812073192992152,-2.5262637774096888,2.2820560175129394,-1.0166848341571253,-0.03544360796083623
1708438273.6979663,-1.106405258178711,-1.6812435589232386,-2.526280466710226,2.2820355135151367,-1.01671010652651,-0.03534156480898076
1708438273.6999664,-1.1064531803131104,-1.6811820469298304,-2.52627140680422,2.282071276302002,-1.0167129675494593,-0.03520375887026006
1708438273.7019796,-1.1064453125,-1.6811672649779261,-2.526304546986715,2.2820560175129394,-1.0166924635516565,-0.03504401842226201
1708438273.7039692,-1.1064319610595703,-1.681183477441305,-2.526304546986715,2.282116575832031,-1.01671010652651,-0.03488380113710576
1708438273.706037,-1.1064366102218628,-1.6811381779112757,-2.52627140680422,2.2821292120167236,-1.0167177359210413,-0.03478843370546514
1708438273.7080112,-1.1064276695251465,-1.6811791859068812,-2.5262368361102503,2.282082958812378,-1.0167177359210413,-0.034656826649801076
1708438273.7100284,-1.1064141988754272,-1.681129594842428,-2.526283327733175,2.2821037012287597,-1.0167220274554651,-0.034496609364644826
1708438273.7120104,-1.1064071655273438,-1.681129594842428,-2.526262346898214,2.282132311458252,-1.01671010652651,-0.034362141286031544
1708438273.7140374,-1.1064677238464355,-1.6811090908446253,-2.526320997868673,2.282116098994873,-1.01671010652651,-0.034185234700338185
1708438273.7160356,-1.106423020362854,-1.6810890636839808,-2.5262909571277063,2.282111807460449,-1.016672436391012,-0.034070793782369435
1708438273.7180376,-1.1064600944519043,-1.6811191044249476,-2.52631646791567,2.2821194368549804,-1.0166891256915491,-0.03391486803163701
1708438273.719993,-1.106439471244812,-1.6811267338194789,-2.526278797780172,2.282120628947876,-1.0167024771319788,-0.033759419118062794
1708438273.7219803,-1.1064720153808594,-1.6811267338194789,-2.526266876851217,2.2821356493183593,-1.016731087361471,-0.033596340809957326
1708438273.7240052,-1.106512427330017,-1.681150575677389,-2.526266876851217,2.282221241588257,-1.016738239918844,-0.033341232930318654
1708438273.725988,-1.1064677238464355,-1.6811429462828578,-2.526304546986715,2.28218857824292,-1.016759220753805,-0.03316098848451787
1708438273.7280128,-1.1064633131027222,-1.681084772149557,-2.526224915181295,2.2821919161030273,-1.01677114168276,-0.032920185719625294
1708438273.7300632,-1.1064677238464355,-1.6811148128905238,-2.5263238588916224,2.28223363935437,-1.0167620817767542,-0.032752815877096
1708438273.732006,-1.1064989566802979,-1.681105752984518,-2.5262954870807093,2.282196207637451,-1.0167458693133753,-0.032585922871724904
1708438273.7340438,-1.106548547744751,-1.6810771427550257,-2.526259247456686,2.2822038370319824,-1.0167205969439905,-0.03238231340517217
1708438273.7360291,-1.1065324544906616,-1.681131502191061,-2.526283327733175,2.2822038370319824,-1.0167129675494593,-0.032166306172506154
1708438273.7380376,-1.1065278053283691,-1.6811071834959925,-2.5263119379626673,2.2822038370319824,-1.0167577902423304,-0.03195077577699834
1708438273.7400064,-1.106576919555664,-1.6811191044249476,-2.526278797780172,2.2822326856800537,-1.0167577902423304,-0.03170949617494756
1708438273.7420413,-1.106514811515808,-1.681059022943014,-2.526283327733175,2.282251997584961,-1.0167296568499964,-0.031502548848287404
1708438273.744077,-1.1065725088119507,-1.6811267338194789,-2.5262535254107874,2.2822725015827636,-1.0166953245746058,-0.03127509752382451
1708438273.7459993,-1.1065754890441895,-1.681176324883932,-2.5262909571277063,2.2821990686604003,-1.0167458693133753,-0.031081978474752248
1708438273.747962,-1.1065590381622314,-1.6811191044249476,-2.5262909571277063,2.282263918513916,-1.0167668501483362,-0.030766789113179982
1708438273.7499804,-1.1065919399261475,-1.6810771427550257,-2.526287857686178,2.282263918513916,-1.0167458693133753,-0.0305560270892542
1708438273.7519684,-1.106608271598816,-1.6811100445189417,-2.5262580553637903,2.2822672563740234,-1.0167787710772913,-0.030292336140767873
1708438273.753965,-1.1065635681152344,-1.6810680828490199,-2.5262954870807093,2.2822834688374023,-1.0167620817767542,-0.02998811403383428
1708438273.7560112,-1.1066328287124634,-1.6810819111266078,-2.5262578169452112,2.28229205190625,-1.0167325178729456,-0.02973634401430303
1708438273.7579575,-1.1065946817398071,-1.6810981235899867,-2.526283327733175,2.28229205190625,-1.0167248884784144,-0.029427353535787404
1708438273.7599604,-1.1065948009490967,-1.6810819111266078,-2.526296917592184,2.2822834688374023,-1.0167740027057093,-0.029142681752340138
1708438273.761952,-1.106652021408081,-1.6810699901976527,-2.526304546986715,2.2823166090198974,-1.0167620817767542,-0.028888527547017873
1708438273.7640142,-1.106581211090088,-1.6810580692686976,-2.526300017033712,2.282299204463623,-1.0167697111712855,-0.028645817433492482
1708438273.7659533,-1.106619119644165,-1.6810952625670375,-2.52625018755068,2.2823239999958496,-1.0166996161090296,-0.028308693562642873
1708438273.7679887,-1.106623649597168,-1.6810742817320765,-2.526254717503683,2.2823077875324707,-1.0167534987079065,-0.02803689638246709
1708438273.7700396,-1.1066429615020752,-1.6810771427550257,-2.526304546986715,2.282299204463623,-1.0167654196368616,-0.02775890031923467
1708438273.771976,-1.1066802740097046,-1.6810580692686976,-2.5262909571277063,2.2823068338581542,-1.0167129675494593,-0.027376953755513966
1708438273.774044,-1.1066848039627075,-1.6810904941954554,-2.526259247456686,2.282393379802368,-1.0167248884784144,-0.027130905781881154
1708438273.7759786,-1.106635570526123,-1.6810862026610316,-2.5262742678271692,2.282363100642822,-1.016787354146139,-0.02686626115907842
1708438273.7779734,-1.1067346334457397,-1.681103845635885,-2.526254717503683,2.282339258784912,-1.016799275075094,-0.026483837758199513
1708438273.7799797,-1.1066997051239014,-1.6810623608031214,-2.526283327733175,2.2823847967335205,-1.0167415777789515,-0.026209656392232716
1708438273.782078,-1.1066832542419434,-1.6810080013670863,-2.526275936757223,2.2823964792438964,-1.0167668501483362,-0.025815312062398732
1708438273.7839968,-1.1066832542419434,-1.6810385189452113,-2.5262697378741663,2.2824086385914306,-1.0167205969439905,-0.02550822893251592
1708438273.7859993,-1.1067286729812622,-1.681054254571432,-2.526278797780172,2.2823144632526855,-1.0167787710772913,-0.025126282368795216
1708438273.787982,-1.1066582202911377,-1.681005140344137,-2.5263329187976282,2.2824174600788574,-1.0167129675494593,-0.024815861378804982
1708438273.7899585,-1.106662392616272,-1.6810833416380824,-2.526262346898214,2.2823423582264404,-1.0167458693133753,-0.024435345326558888
1708438273.7919543,-1.1067122220993042,-1.681009431878561,-2.526309076939718,2.2823871809193115,-1.016787354146139,-0.024097267781392873
1708438273.7939854,-1.1067237854003906,-1.681009431878561,-2.526275936757223,2.2824248510548095,-1.0167086760150355,-0.023761574422017873
1708438273.795966,-1.1067477464675903,-1.6810084782042445,-2.526266876851217,2.2823828893848876,-1.0167415777789515,-0.023418728505269826
1708438273.7979836,-1.1067403554916382,-1.6810451946654261,-2.5262580553637903,2.2824160295673828,-1.0167458693133753,-0.02305156389345342
1708438273.7999687,-1.106750726699829,-1.68103088955068,-2.526262346898214,2.2824646669575195,-1.0167248884784144,-0.02269155183901006
1708438273.801956,-1.1067850589752197,-1.6810475788512171,-2.5262742678271692,2.28237430631604,-1.0167458693133753,-0.022281471882955373
1708438273.8039992,-1.1067895889282227,-1.6810342274107875,-2.5262954870807093,2.2824765878864746,-1.0167339483844202,-0.021903340016500294
1708438273.8059773,-1.1067790985107422,-1.6810723743834437,-2.5263074080096644,2.282456083888672,-1.0167415777789515,-0.02149850526918584
1708438273.8079956,-1.106783390045166,-1.680993219415182,-2.526287857686178,2.2824150758930664,-1.0166967550860804,-0.021131817494527638
1708438273.809978,-1.10677170753479,-1.6810666523375453,-2.526278797780172,2.282468004817627,-1.0167205969439905,-0.02070314088930303
1708438273.8119676,-1.1067790985107422,-1.6810170612730921,-2.526283327733175,2.2824312883564453,-1.0166996161090296,-0.020326916371480763
1708438273.8141217,-1.1068122386932373,-1.6810714207091273,-2.526283327733175,2.282484217281006,-1.0167220274554651,-0.019953552876607716
1708438273.8159745,-1.1067914962768555,-1.6810022793211878,-2.526241127644674,2.282468004817627,-1.0167177359210413,-0.01953298250307256
1708438273.8179717,-1.1067699193954468,-1.6810008488097132,-2.5263283888446253,2.2824999529072265,-1.0167205969439905,-0.019153896962301076
1708438273.8200262,-1.1067899465560913,-1.6809560261168421,-2.526262346898214,2.282487078303955,-1.0167620817767542,-0.018725220357076466
1708438273.8220472,-1.1068227291107178,-1.6810022793211878,-2.52625018755068,2.2824999529072265,-1.0167415777789515,-0.01830608049501592
1708438273.8240087,-1.1067869663238525,-1.6810218296446742,-2.526266876851217,2.2825323778339843,-1.0167620817767542,-0.01788646379579717
1708438273.8259802,-1.106801986694336,-1.680986066857809,-2.526304546986715,2.282547636623047,-1.0167620817767542,-0.017438713704244435
1708438273.8279762,-1.1068272590637207,-1.6809479198851527,-2.52625018755068,2.2825237947651367,-1.0167296568499964,-0.016994778309957326
1708438273.829957,-1.1068391799926758,-1.6809975109496058,-2.5262909571277063,2.282614155406616,-1.0167248884784144,-0.01654702821840459
1708438273.832024,-1.1068302392959595,-1.6809784374632777,-2.526337210332052,2.282519503230713,-1.016738239918844,-0.01617890993227178
1708438273.833994,-1.1067854166030884,-1.6809693775572718,-2.5262368361102503,2.2825400072285156,-1.01671010652651,-0.015790287648336232
1708438273.8359814,-1.106896162033081,-1.6809784374632777,-2.5263283888446253,2.2825605112263183,-1.0166848341571253,-0.015324894581929982
1708438273.8379805,-1.1068556308746338,-1.6809874973692835,-2.526266876851217,2.282559557552002,-1.0167010466205042,-0.014959160481588185
1708438273.8400056,-1.1068702936172485,-1.6809874973692835,-2.52627140680422,2.2826132017322998,-1.0167129675494593,-0.014490429555074513
1708438273.8419611,-1.106879472732544,-1.6809503040709437,-2.526296917592184,2.282608910197876,-1.0167177359210413,-0.01401073137392217
1708438273.8439734,-1.1069084405899048,-1.680979391137594,-2.5262954870807093,2.282592697734497,-1.016719166432516,-0.013554875050679982
1708438273.8459706,-1.1069248914718628,-1.6809455356993617,-2.526283327733175,2.2824813562580566,-1.016726318989889,-0.013070408497945607
1708438273.8479614,-1.1068965196609497,-1.6809412441649378,-2.52627140680422,2.28253881513562,-1.0167549292193812,-0.012639824544088185
1708438273.8499663,-1.1068992614746094,-1.680979391137594,-2.5262954870807093,2.282588167781494,-1.016731087361471,-0.01217681566347295
1708438273.852002,-1.106906533241272,-1.6809398136534632,-2.526300017033712,2.2825915056416015,-1.016726318989889,-0.011704746876851857
1708438273.8539884,-1.1069400310516357,-1.680918355981344,-2.5262742678271692,2.282616301173828,-1.0167115370379847,-0.01128703752626592
1708438273.855961,-1.106902003288269,-1.6809503040709437,-2.526283327733175,2.282529039973877,-1.016719166432516,-0.010780159627095998
1708438273.8579588,-1.106931209564209,-1.6809426746764125,-2.526266876851217,2.2826239305683593,-1.016644302998678,-0.010286633168355763
1708438273.859967,-1.106947422027588,-1.6809092960753382,-2.526262346898214,2.282616301173828,-1.0166900793658655,-0.009896103535787404
1708438273.8620152,-1.106980800628662,-1.6808935604491175,-2.526275936757223,2.282636805171631,-1.0166457335101526,-0.009391132985250294
1708438273.8639529,-1.106989860534668,-1.680983682672018,-2.5263074080096644,2.282566710109375,-1.0166834036456507,-0.008850876485006154
1708438273.865976,-1.107010841369629,-1.68092741588735,-2.52627140680422,2.282602234477661,-1.0166834036456507,-0.00835591951479131
1708438273.8680031,-1.1069879531860352,-1.6809383831419886,-2.5262697378741663,2.282672806377075,-1.0166338125811976,-0.007896248494283498
1708438273.8700225,-1.1069636344909668,-1.680885454217428,-2.526283327733175,2.282594843501709,-1.0166991392718714,-0.007449928914205373
1708438273.872051,-1.1069717407226562,-1.6808978519835414,-2.526300017033712,2.282602234477661,-1.0166457335101526,-0.006974522267476857
1708438273.8739889,-1.1069376468658447,-1.6809069118895472,-2.526262346898214,2.2826272684284667,-1.0167072455035608,-0.006507698689595998
1708438273.8759751,-1.1070045232772827,-1.680894514123434,-2.526283327733175,2.282614155406616,-1.0166338125811976,-0.0060494581805627945
1708438273.877992,-1.1070045232772827,-1.6808811626830042,-2.526292387639181,2.282639189357422,-1.0166743437396448,-0.005536858235494435
1708438273.8800046,-1.1070150136947632,-1.6808740101256312,-2.526287857686178,2.2826315599628906,-1.0166743437396448,-0.0050614515887659195
1708438273.8820388,-1.1070313453674316,-1.6809317074217738,-2.52631646791567,2.2827047544666748,-1.0166500250445765,-0.004603211079732716
1708438273.8840027,-1.107040286064148,-1.680918355981344,-2.526278797780172,2.2826754289814453,-1.0166290442096155,-0.004109207783834279
1708438273.885959,-1.1069955825805664,-1.6809317074217738,-2.526304546986715,2.282684012050293,-1.0166338125811976,-0.0036504904376428726
1708438273.887972,-1.1070104837417603,-1.6808787784972132,-2.526245657597677,2.282650871867798,-1.0166290442096155,-0.003232304249898732
1708438273.8899837,-1.107038974761963,-1.6808978519835414,-2.526245657597677,2.282691641444824,-1.0166543165790003,-0.0027726332293909195
1708438273.8919547,-1.1070194244384766,-1.68092741588735,-2.526300017033712,2.28264228879895,-1.0166218916522425,-0.0022929350482385757
1708438273.8939612,-1.107040286064148,-1.6808988056578578,-2.526304546986715,2.282695932979248,-1.0166218916522425,-0.0018776098834436539
