Eg3-git/Classifiers/Data Collection/u6/u6xyz1_ur3e_joint_states.csv
time,elbow_joint,shoulder_lift_joint,shoulder_pan_joint,wrist_1_joint,wrist_2_joint,wrist_3_joint
1708438194.6395674,-1.1057015657424927,-1.6815926037230433,-2.5261107126819056,2.281228705043457,-1.0163353125201624,0.09432204067707062
1708438194.64154,-1.1058177947998047,-1.6815763912596644,-2.526179854069845,2.281179352397583,-1.0163353125201624,0.09436037391424179
1708438194.6435728,-1.105799913406372,-1.6815644703307093,-2.5261650721179407,2.2811881738850097,-1.0162823835956019,0.09432296454906464
1708438194.645527,-1.1057907342910767,-1.681629320184225,-2.52614409128298,2.2811967569538574,-1.0163148085223597,0.09437516331672668
1708438194.6475792,-1.1057714223861694,-1.6815968952574671,-2.5261271635638636,2.2812043863483886,-1.0162909666644495,0.09436345100402832
1708438194.6495306,-1.105799913406372,-1.6816092930235804,-2.5261316935168665,2.2812256056019287,-1.0163105169879358,0.0944080650806427
1708438194.6515386,-1.105759620666504,-1.6816593609251917,-2.5260780493365687,2.281221314067505,-1.0163233915912073,0.09437940269708633
1708438194.6535468,-1.1058214902877808,-1.6815597019591273,-2.5260868708239954,2.2812086778828125,-1.0162952581988733,0.09430230408906937
1708438194.6555622,-1.105799913406372,-1.681629320184225,-2.5261123816119593,2.281221314067505,-1.0162671248065394,0.09435153007507324
1708438194.6575625,-1.1057671308517456,-1.681584974328512,-2.526038948689596,2.2812537389942626,-1.0162785688983362,0.09434406459331512
1708438194.6595507,-1.1058332920074463,-1.6815406284727992,-2.526043478642599,2.281221314067505,-1.0162785688983362,0.09431425482034683
1708438194.6615677,-1.1057789325714111,-1.681584974328512,-2.52606445947756,2.281175060863159,-1.016294304524557,0.09435916692018509
1708438194.6636405,-1.1057953834533691,-1.6815968952574671,-2.526048008595602,2.281232996577881,-1.0162742773639124,0.09433086216449738
1708438194.6655712,-1.105783462524414,-1.6815935573973597,-2.526050869618551,2.281224413509033,-1.01634389558901,0.09435918182134628
1708438194.667586,-1.1058169603347778,-1.6815673313536585,-2.526010338460104,2.281228705043457,-1.0162909666644495,0.09432211518287659
1708438194.6695614,-1.1057907342910767,-1.681584974328512,-2.526022259389059,2.2812082010456542,-1.016315762196676,0.09430541843175888
1708438194.6715531,-1.1057387590408325,-1.6815806827940882,-2.52600604692568,2.2812158304401855,-1.0163114706622522,0.09431861340999603
1708438194.6735537,-1.1057789325714111,-1.6816092930235804,-2.5260899702655237,2.2812492090412597,-1.0162985960589808,0.09431421011686325
1708438194.6755772,-1.1057626008987427,-1.6815673313536585,-2.526010338460104,2.281292601222656,-1.0163028875934046,0.09430994838476181
1708438194.6775956,-1.1058077812194824,-1.681629320184225,-2.526052538548605,2.2812396722980957,-1.0163114706622522,0.09435915946960449
1708438194.6795661,-1.105828881263733,-1.681622167626852,-2.5260029474841517,2.2812883096882324,-1.0162823835956019,0.09433084726333618
1708438194.6815374,-1.1058213710784912,-1.6816712818541468,-2.5259984175311487,2.2813495832630615,-1.0162628332721155,0.09439603239297867
1708438194.683582,-1.1058151721954346,-1.681617876092428,-2.5259817282306116,2.281258984203003,-1.0163028875934046,0.09439263492822647
1708438194.6855638,-1.105803370475769,-1.681601186791891,-2.5260074774371546,2.281348391170166,-1.0162952581988733,0.09434404224157333
1708438194.6875465,-1.1057988405227661,-1.681622167626852,-2.52596098581423,2.2813407617756347,-1.0162952581988733,0.09439175575971603
1708438194.6895182,-1.1058497428894043,-1.681601186791891,-2.526052538548605,2.2813114362904052,-1.016278092061178,0.09435916692018509
1708438194.6915262,-1.1058719158172607,-1.6816336117186488,-2.5260358492480677,2.281392737025879,-1.0162866751300257,0.09440479427576065
1708438194.6935916,-1.1058316230773926,-1.681589265862936,-2.5259652773486536,2.281332178706787,-1.0162461439715784,0.09440042078495026
1708438194.6955388,-1.105852484703064,-1.6816398106017054,-2.526043478642599,2.281315966243408,-1.016278092061178,0.0943678617477417
1708438194.6975107,-1.1058151721954346,-1.681617876092428,-2.52600604692568,2.281315966243408,-1.0163028875934046,0.09437666088342667
1708438194.699521,-1.1057742834091187,-1.6815644703307093,-2.5260313192950647,2.2813073831745605,-1.0163276831256312,0.09433960914611816
1708438194.7015452,-1.105852484703064,-1.681573053399557,-2.5260239283191126,2.281348391170166,-1.0163200537311,0.09431861340999603
1708438194.7036169,-1.1058733463287354,-1.6816421947874964,-2.5260029474841517,2.281348391170166,-1.0162699858294886,0.09438817203044891
1708438194.7055295,-1.1058107614517212,-1.6815773449339808,-2.526022259389059,2.2813936907001953,-1.0162742773639124,0.09440486133098602
1708438194.707553,-1.1058270931243896,-1.681589265862936,-2.52606445947756,2.2813688951679687,-1.0162866751300257,0.09436473995447159
1708438194.7095375,-1.1058063507080078,-1.6816097698607386,-2.5260074774371546,2.2814182478138427,-1.0162866751300257,0.09436345100402832
1708438194.711519,-1.105864405632019,-1.68162264446401,-2.526048008595602,2.28135268270459,-1.0163114706622522,0.09438379853963852
1708438194.7136378,-1.1057943105697632,-1.6815535030760707,-2.525993887578146,2.281364603633545,-1.0163233915912073,0.0943751335144043
1708438194.7156181,-1.1058316230773926,-1.681584974328512,-2.5260523001300257,2.281380816096924,-1.016331974660055,0.09434844553470612
1708438194.7176135,-1.1058197021484375,-1.6815773449339808,-2.526048008595602,2.281336470241211,-1.0162985960589808,0.09433086216449738
1708438194.7195716,-1.1058926582336426,-1.6815859280028285,-2.5260029474841517,2.281360312099121,-1.0163071791278284,0.09428609162569046
1708438194.7215607,-1.105864405632019,-1.6815196476378382,-2.5260239283191126,2.281356020564697,-1.01634389558901,0.09431861340999603
1708438194.7235582,-1.1058435440063477,-1.6815210781493128,-2.5260358492480677,2.28135268270459,-1.0162628332721155,0.09437219798564911
1708438194.725545,-1.105905294418335,-1.6815577946104945,-2.526050869618551,2.2813116747089843,-1.0162952581988733,0.09438379853963852
1708438194.7275963,-1.1058927774429321,-1.6815620861449183,-2.5260570685016077,2.281336470241211,-1.0162742773639124,0.09436782449483871
1708438194.729575,-1.1058599948883057,-1.6815620861449183,-2.526092831288473,2.281348391170166,-1.0162742773639124,0.09432298690080643
1708438194.731609,-1.1058927774429321,-1.6814805469908656,-2.5260778109179896,2.281315966243408,-1.0162542502032679,0.09433086216449738
1708438194.7335598,-1.1058346033096313,-1.6815253696837367,-2.526017967854635,2.2813688951679687,-1.0163233915912073,0.09433955699205399
1708438194.7355459,-1.105870246887207,-1.6815368137755335,-2.526038948689596,2.281344099635742,-1.0162952581988733,0.09433524310588837
1708438194.7375848,-1.1058509349822998,-1.6814772091307582,-2.5260313192950647,2.2814056116291503,-1.0162952581988733,0.09430230408906937
1708438194.7395825,-1.105879306793213,-1.6815539799132289,-2.5260358492480677,2.2813398081013183,-1.0162909666644495,0.09435590356588364
1708438194.7415843,-1.1058719158172607,-1.681509634057516,-2.526052538548605,2.281388445491455,-1.0163114706622522,0.09433183073997498
1708438194.7435317,-1.1058300733566284,-1.6814781628050746,-2.526048008595602,2.2813765245625,-1.01628286043276,0.09437215328216553
1708438194.7455235,-1.1058971881866455,-1.6815182171263636,-2.52606445947756,2.2813398081013183,-1.0162671248065394,0.0943155586719513
1708438194.7475495,-1.1058673858642578,-1.681493421594137,-2.5260284582721155,2.281348391170166,-1.0162461439715784,0.09434504061937332
1708438194.7495472,-1.1058717966079712,-1.6814738712706507,-2.5260313192950647,2.281384153957031,-1.0163233915912073,0.0943484678864479
1708438194.7515237,-1.1058837175369263,-1.6814738712706507,-2.5260148684131067,2.281380816096924,-1.016261402760641,0.0943484753370285
1708438194.7535517,-1.105879306793213,-1.6814772091307582,-2.52600604692568,2.281388445491455,-1.0163114706622522,0.09431993216276169
1708438194.755554,-1.1059008836746216,-1.681420465508932,-2.5260239283191126,2.281315966243408,-1.0163114706622522,0.09428734332323074
1708438194.757556,-1.105879306793213,-1.6815225086607875,-2.5260148684131067,2.281384153957031,-1.0162785688983362,0.09429923444986343
1708438194.7595243,-1.1058963537216187,-1.6814457378783167,-2.526048008595602,2.281380816096924,-1.0162866751300257,0.09424693882465363
1708438194.7615502,-1.105870246887207,-1.681465288201803,-2.5260284582721155,2.281356020564697,-1.0163071791278284,0.0942632257938385
1708438194.7635922,-1.1058917045593262,-1.6814614735045375,-2.526050869618551,2.2813355165668945,-1.0163233915912073,0.09425131976604462
1708438194.7656002,-1.1059008836746216,-1.6814943752684535,-2.525989596043722,2.2813309866138916,-1.0162866751300257,0.09426760673522949
1708438194.7675657,-1.105849266052246,-1.6814824543394984,-2.5260358492480677,2.2813765245625,-1.0162542502032679,0.09421993792057037
1708438194.7695723,-1.105858325958252,-1.681469579736227,-2.5260074774371546,2.281372233028076,-1.0162866751300257,0.09421993046998978
1708438194.7715416,-1.1058871746063232,-1.6814867458739222,-2.5260494391070765,2.2813073831745605,-1.0163233915912073,0.09426566958427429
1708438194.773567,-1.1058827638626099,-1.681420465508932,-2.526048008595602,2.2813970285603027,-1.0163071791278284,0.09426441043615341
1708438194.7755606,-1.1059244871139526,-1.6814943752684535,-2.5260358492480677,2.281364603633545,-1.0162866751300257,0.09417944401502609
1708438194.7776237,-1.1059244871139526,-1.6814614735045375,-2.5260148684131067,2.281360312099121,-1.0163310209857386,0.09419605135917664
1708438194.7795854,-1.1059128046035767,-1.681441446343893,-2.5259984175311487,2.2813073831745605,-1.0162742773639124,0.09421992301940918
1708438194.7815359,-1.1059036254882812,-1.6814528904356898,-2.5260570685016077,2.281372233028076,-1.0163114706622522,0.09423185139894485
1708438194.783616,-1.1059036254882812,-1.681497713128561,-2.526034418736593,2.281356020564697,-1.0162909666644495,0.09423311054706573
1708438194.785521,-1.1058701276779175,-1.6814609966673792,-2.5260642210589808,2.281344099635742,-1.0163396040545862,0.09418736398220062
1708438194.787561,-1.1059455871582031,-1.6814528904356898,-2.526052538548605,2.281388445491455,-1.0163276831256312,0.09423182904720306
1708438194.7895339,-1.1059244871139526,-1.6814528904356898,-2.5260568300830286,2.2813970285603027,-1.0162909666644495,0.09419173002243042
1708438194.791518,-1.1059671640396118,-1.6814457378783167,-2.526022259389059,2.2813278871723632,-1.0162585417376917,0.09417949616909027
1708438194.7935264,-1.1059490442276,-1.681469579736227,-2.526043478642599,2.281372233028076,-1.0162952581988733,0.09422428905963898
1708438194.7955303,-1.1059446334838867,-1.681481500665182,-2.526059929524557,2.2813193041035156,-1.0162785688983362,0.09414347261190414
1708438194.7975283,-1.105889916419983,-1.6814443073668421,-2.526055399571554,2.2813965517231445,-1.0163191000567835,0.09417511522769928
1708438194.799532,-1.1059019565582275,-1.681441446343893,-2.526104990636007,2.281372233028076,-1.0162585417376917,0.09418828785419464
1708438194.8015096,-1.1059353351593018,-1.6814352474608363,-2.526026789342062,2.2813569742390136,-1.01628286043276,0.09420052915811539
1708438194.8035164,-1.1059318780899048,-1.6814900837340296,-2.526043478642599,2.281372233028076,-1.0162585417376917,0.09414343535900116
1708438194.8055224,-1.1059445142745972,-1.681531091729635,-2.5260687510119837,2.281388445491455,-1.0163114706622522,0.09416316449642181
1708438194.8076286,-1.1059398651123047,-1.681437154809469,-2.526055399571554,2.281356020564697,-1.01634389558901,0.09415572881698608
1708438194.8095262,-1.105959177017212,-1.681465288201803,-2.526010576878683,2.2813355165668945,-1.0162742773639124,0.09420489519834518
1708438194.8115208,-1.1059398651123047,-1.681509634057516,-2.526038948689596,2.281388445491455,-1.0162785688983362,0.094204843044281
1708438194.8135827,-1.105922818183899,-1.6814400158324183,-2.526059929524557,2.2813679414936523,-1.0162823835956019,0.09414792060852051
1708438194.8155828,-1.1059398651123047,-1.6814571819701136,-2.526043478642599,2.281332178706787,-1.0162866751300257,0.09416092187166214
1708438194.817557,-1.1059563159942627,-1.6814285717406214,-2.526038948689596,2.2813679414936523,-1.0162542502032679,0.09410220384597778
1708438194.8195865,-1.105922818183899,-1.6814943752684535,-2.526048008595602,2.2813965517231445,-1.0162785688983362,0.09412835538387299
1708438194.8215559,-1.105922818183899,-1.681465288201803,-2.526010338460104,2.28142158567395,-1.0162866751300257,0.09414036571979523
1708438194.8235786,-1.1059845685958862,-1.681470056573385,-2.526059929524557,2.2813398081013183,-1.0162909666644495,0.09412835538387299
1708438194.8255584,-1.1059445142745972,-1.6814824543394984,-2.526059929524557,2.281409664744995,-1.0163105169879358,0.09414463490247726
1708438194.8275614,-1.105922818183899,-1.6814457378783167,-2.5260358492480677,2.281372233028076,-1.0163515249835413,0.09417752921581268
1708438194.8295894,-1.1059517860412598,-1.681481500665182,-2.5259862581836146,2.2814053732105712,-1.0162785688983362,0.09413716942071915
1708438194.8315847,-1.105906367301941,-1.681441446343893,-2.526052538548605,2.281442089671753,-1.0162909666644495,0.09411684423685074
1708438194.8335767,-1.1059398651123047,-1.681465288201803,-2.526010338460104,2.2813851076313476,-1.0162823835956019,0.0940871462225914
1708438194.8355365,-1.1059519052505493,-1.6814571819701136,-2.5260465780841272,2.2813796240040283,-1.0162699858294886,0.09412407875061035
1708438194.8375778,-1.1059094667434692,-1.6814443073668421,-2.526043478642599,2.2813591200062255,-1.0162699858294886,0.09410461038351059
1708438194.8395383,-1.1059563159942627,-1.6814781628050746,-2.526072088872091,2.2813965517231445,-1.0163310209857386,0.09414595365524292
1708438194.8415413,-1.1059473752975464,-1.6814528904356898,-2.526067558919088,2.2813765245625,-1.0163071791278284,0.09407202899456024
1708438194.8435495,-1.1059637069702148,-1.6814986668028773,-2.5260642210589808,2.2813796240040283,-1.0163114706622522,0.09407202899456024
1708438194.8455212,-1.1059517860412598,-1.6814571819701136,-2.526046339665548,2.2813517290302734,-1.0162909666644495,0.09411337226629257
1708438194.8475463,-1.1059563159942627,-1.681441446343893,-2.526048008595602,2.2814203935810546,-1.016315762196676,0.09406767040491104
1708438194.8495104,-1.105906367301941,-1.681465288201803,-2.5260313192950647,2.2813965517231445,-1.0162742773639124,0.09403477609157562
1708438194.8515093,-1.1059818267822266,-1.6814333401122035,-2.52600604692568,2.2813796240040283,-1.0163310209857386,0.09404785931110382
1708438194.8535612,-1.1059592962265015,-1.6814400158324183,-2.526059929524557,2.2814408975788574,-1.0163071791278284,0.09408394992351532
1708438194.8555655,-1.1059682369232178,-1.6814609966673792,-2.526059929524557,2.2814053732105712,-1.016294304524557,0.09406892210245132
1708438194.8575678,-1.1059682369232178,-1.6814238033690394,-2.5260420481311243,2.281356020564697,-1.0162823835956019,0.09414590150117874
1708438194.8595357,-1.1059138774871826,-1.681465288201803,-2.5260358492480677,2.281384153957031,-1.0163310209857386,0.09405574947595596
1708438194.8615286,-1.1059927940368652,-1.6814857921996058,-2.526088539754049,2.281399889583252,-1.0163396040545862,0.09409268200397491
1708438194.8636029,-1.10597562789917,-1.6814571819701136,-2.526092831288473,2.2813965517231445,-1.0163148085223597,0.09408077597618103
1708438194.8655872,-1.1059309244155884,-1.6815434894957484,-2.526081148778097,2.2814127641865234,-1.0163071791278284,0.09406447410583496
1708438194.8675926,-1.1059801578521729,-1.681469579736227,-2.526046339665548,2.2813634115406494,-1.016306225453512,0.09406447410583496
1708438194.8695652,-1.1059428453445435,-1.681531091729635,-2.526038948689596,2.2814289766499023,-1.0163267294513147,0.09405574947595596
1708438194.8715467,-1.1059772968292236,-1.6814824543394984,-2.526125733052389,2.2813634115406494,-1.0163233915912073,0.09406892210245132
1708438194.8735845,-1.1059309244155884,-1.681469579736227,-2.5260587374316614,2.281416102046631,-1.0163191000567835,0.09404350072145462
1708438194.8755322,-1.1059801578521729,-1.6814457378783167,-2.526059929524557,2.2813548284718017,-1.0162785688983362,0.09406892210245132
1708438194.877581,-1.1059772968292236,-1.6814328632750453,-2.526046339665548,2.2814203935810546,-1.0162656942950647,0.09401974827051163
1708438194.8795748,-1.106001615524292,-1.6814290485777796,-2.526055399571554,2.281425877208374,-1.016294304524557,0.09402842074632645
1708438194.881563,-1.1059592962265015,-1.6814781628050746,-2.526034657155172,2.2813796240040283,-1.0162785688983362,0.0940360277891159
1708438194.8835862,-1.1059681177139282,-1.681469579736227,-2.526113812123434,2.2814289766499023,-1.0163353125201624,0.09401093423366547
1708438194.8855124,-1.1059473752975464,-1.681481500665182,-2.526038948689596,2.2814289766499023,-1.0163071791278284,0.09401974827051163
1708438194.8875198,-1.1059517860412598,-1.6814290485777796,-2.526072088872091,2.2814203935810546,-1.0163191000567835,0.0940447524189949
1708438194.8895242,-1.1059545278549194,-1.6814614735045375,-2.526013437901632,2.281395598048828,-1.0163233915912073,0.09404786676168442
1708438194.891516,-1.105959177017212,-1.6814376316466273,-2.526055399571554,2.281428022975586,-1.0163353125201624,0.0940776914358139
1708438194.8935487,-1.1059563159942627,-1.6814781628050746,-2.526034418736593,2.2814323145100097,-1.0162866751300257,0.09403158724308014
1708438194.8955166,-1.1059845685958862,-1.6815034351744593,-2.5260630289660853,2.281444235438965,-1.0163071791278284,0.0940939337015152
1708438194.8975947,-1.1059681177139282,-1.6814781628050746,-2.5260587374316614,2.281468077296875,-1.0163105169879358,0.09404786676168442
1708438194.8995702,-1.1059428453445435,-1.6814781628050746,-2.526034657155172,2.281479521388672,-1.0163310209857386,0.09408076107501984
1708438194.9015396,-1.1059561967849731,-1.6814528904356898,-2.526059929524557,2.281475468272827,-1.0163148085223597,0.09407328069210052
1708438194.9035554,-1.1059709787368774,-1.6814457378783167,-2.526050869618551,2.2815324503132324,-1.0163267294513147,0.0940404012799263
1708438194.9055212,-1.1059972047805786,-1.6815148792662562,-2.526050869618551,2.2815000253864746,-1.0163634459124964,0.09401091933250427
1708438194.9075506,-1.105959177017212,-1.6814781628050746,-2.526084009801046,2.281569405192993,-1.0163396040545862,0.09404042363166809
1708438194.9095352,-1.1059093475341797,-1.6814857921996058,-2.526043478642599,2.2815162378498535,-1.0163300673114222,0.09408198297023773
1708438194.9115443,-1.1059889793395996,-1.6814328632750453,-2.526072088872091,2.2815443712421875,-1.0162823835956019,0.09406892210245132
1708438194.913577,-1.106001615524292,-1.6814872227110804,-2.526026789342062,2.281519575709961,-1.0163233915912073,0.09406889230012894
1708438194.9156473,-1.1059682369232178,-1.6814400158324183,-2.526034657155172,2.281552954311035,-1.0163267294513147,0.09406891465187073
1708438194.917584,-1.106001615524292,-1.6814571819701136,-2.526072088872091,2.28154103338208,-1.0163386503802698,0.09402412176132202
1708438194.9196105,-1.1059398651123047,-1.6814738712706507,-2.52608830133547,2.2814668852039794,-1.0163472334491175,0.0940360575914383
1708438194.9215567,-1.10597562789917,-1.6814824543394984,-2.526034418736593,2.281557245845459,-1.0163310209857386,0.09407328814268112
1708438194.9235613,-1.1059380769729614,-1.6814657650389613,-2.526043478642599,2.281524820918701,-1.0163353125201624,0.09407324343919754
1708438194.9255407,-1.1059801578521729,-1.6814161739745082,-2.526092831288473,2.2815162378498535,-1.016306225453512,0.09407761693000793
1708438194.927551,-1.106001615524292,-1.6814943752684535,-2.5260959307300013,2.2815324503132324,-1.016290012990133,0.09407761693000793
1708438194.9295928,-1.105997085571289,-1.6814328632750453,-2.526059929524557,2.28156487523999,-1.0163429419146937,0.09407330304384232
1708438194.9316185,-1.1060044765472412,-1.6814528904356898,-2.526043478642599,2.2815119463154296,-1.0163386503802698,0.0940733253955841
1708438194.9336114,-1.1059836149215698,-1.6814857921996058,-2.526084009801046,2.2814711767384033,-1.016318146382467,0.09404914081096649
1708438194.9356227,-1.1060044765472412,-1.681465288201803,-2.526034657155172,2.2815541464039306,-1.016322437916891,0.09406891465187073
1708438194.937639,-1.105959177017212,-1.6814328632750453,-2.526072088872091,2.2815605837055664,-1.016306225453512,0.09398689866065979
1708438194.9395928,-1.105995535850525,-1.6815105877318324,-2.5260465780841272,2.2815238672443847,-1.0163310209857386,0.0940852239727974
1708438194.9415452,-1.1059926748275757,-1.681420465508932,-2.526067558919088,2.281508608455322,-1.0163148085223597,0.09405667334794998
1708438194.9435415,-1.1059681177139282,-1.681448598901266,-2.5260749498950403,2.2814957338520507,-1.0163148085223597,0.09406892955303192
1708438194.945544,-1.1059726476669312,-1.6814614735045375,-2.526043478642599,2.2815400797077636,-1.0163472334491175,0.0940360277891159
1708438194.9475522,-1.105959177017212,-1.6814872227110804,-2.526055399571554,2.281573458308838,-1.0163105169879358,0.09404786676168442
1708438194.9495673,-1.1059472560882568,-1.6814457378783167,-2.526055399571554,2.281508608455322,-1.016318146382467,0.09406104683876038
1708438194.9515514,-1.1059926748275757,-1.6814943752684535,-2.526092831288473,2.2815281587788085,-1.0162695089923304,0.09407328814268112
1708438194.953557,-1.10591721534729,-1.6814772091307582,-2.526067558919088,2.281552954311035,-1.016350571309225,0.09405232965946198
1708438194.9555545,-1.1059845685958862,-1.6813951931395472,-2.5260301272021692,2.2815281587788085,-1.016278092061178,0.094056636095047
1708438194.957531,-1.1059845685958862,-1.681441446343893,-2.526116673146383,2.2815000253864746,-1.0163429419146937,0.09407330304384232
1708438194.9595354,-1.1059836149215698,-1.681387563745016,-2.5261078516589563,2.281508608455322,-1.0163267294513147,0.09405574947595596
1708438194.9615614,-1.1059880256652832,-1.6815062961974085,-2.52608830133547,2.2814335066029052,-1.0163472334491175,0.09410148113965988
1708438194.9635863,-1.1059545278549194,-1.6814443073668421,-2.5260687510119837,2.2815000253864746,-1.016322437916891,0.09411333501338959
1708438194.9655945,-1.1059800386428833,-1.6814247570433558,-2.5260749498950403,2.281479521388672,-1.0163396040545862,0.09404787421226501
1708438194.9676082,-1.106013536453247,-1.6814738712706507,-2.5260794798480433,2.2814711767384033,-1.016318146382467,0.09403160214424133
1708438194.9695687,-1.106001615524292,-1.6815139255919398,-2.52608830133547,2.281508608455322,-1.0163267294513147,0.09408079087734222
1708438194.9716089,-1.1059472560882568,-1.681437154809469,-2.5260420481311243,2.281524820918701,-1.0163105169879358,0.09404352307319641
1708438194.973549,-1.105959177017212,-1.6815062961974085,-2.526055399571554,2.2815324503132324,-1.016294304524557,0.09405145794153214
1708438194.975569,-1.1059664487838745,-1.6814943752684535,-2.5261078516589563,2.2814828592487792,-1.016334358845846,0.0940852165222168
1708438194.9778922,-1.105959177017212,-1.6814900837340296,-2.5260630289660853,2.28147999822583,-1.0163429419146937,0.09405136108398438
1708438194.979557,-1.105954647064209,-1.681465288201803,-2.526050869618551,2.28154103338208,-1.0163310209857386,0.09411328285932541
1708438194.9816496,-1.1059682369232178,-1.6814781628050746,-2.5260465780841272,2.281475468272827,-1.0163429419146937,0.09406448155641556
1708438194.983616,-1.1059926748275757,-1.6815034351744593,-2.526055399571554,2.28154103338208,-1.0163472334491175,0.09411334991455078
1708438194.9855719,-1.106001615524292,-1.6814285717406214,-2.526072088872091,2.2815324503132324,-1.016372028981344,0.09409701824188232
1708438194.9875715,-1.1059664487838745,-1.6814781628050746,-2.526059929524557,2.281508608455322,-1.0162985960589808,0.09409266710281372
1708438194.9895473,-1.1059880256652832,-1.681469579736227,-2.526050869618551,2.2815443712421875,-1.016318146382467,0.09412989020347595
1708438194.9915679,-1.1059845685958862,-1.6814781628050746,-2.526088539754049,2.281479521388672,-1.0162738005267542,0.09406012296676636
1708438194.9935546,-1.105997085571289,-1.6815268001952113,-2.526080910359518,2.281536741847656,-1.0163105169879358,0.09406012296676636
1708438194.9955645,-1.106034517288208,-1.6815020046629847,-2.526055399571554,2.281589909190796,-1.0163105169879358,0.09402281045913696
1708438194.9975457,-1.1059836149215698,-1.6814290485777796,-2.5260630289660853,2.281529350871704,-1.0163429419146937,0.09412993490695953
1708438194.99953,-1.10600745677948,-1.681469579736227,-2.526092831288473,2.281479521388672,-1.0163591543780726,0.09404698014259338
1708438195.0015302,-1.1060237884521484,-1.681465288201803,-2.5260301272021692,2.2815205293842773,-1.0163105169879358,0.09411239624023438
1708438195.0035377,-1.1059428453445435,-1.6815020046629847,-2.526076380406515,2.2815205293842773,-1.0162909666644495,0.09406325221061707
1708438195.005555,-1.1059709787368774,-1.6814161739745082,-2.5260687510119837,2.28147999822583,-1.0163148085223597,0.09407952427864075
1708438195.007554,-1.1059836149215698,-1.681437154809469,-2.526055399571554,2.2815779882618408,-1.0163472334491175,0.09407639503479004
1708438195.0095289,-1.10601806640625,-1.6814900837340296,-2.526067558919088,2.2814838129230957,-1.016334358845846,0.09407638758420944
1708438195.0115373,-1.1059637069702148,-1.6814609966673792,-2.526104990636007,2.2815238672443847,-1.0163105169879358,0.09405901283025742
1708438195.0136082,-1.1059709787368774,-1.681470056573385,-2.5260465780841272,2.2815162378498535,-1.0163267294513147,0.09411238878965378
1708438195.0155947,-1.1059954166412354,-1.6814290485777796,-2.526050869618551,2.281430168742798,-1.0163548628436487,0.09406769275665283
1708438195.0175514,-1.1060043573379517,-1.6814500294127406,-2.526072088872091,2.2814838129230957,-1.0163310209857386,0.09412118792533875
1708438195.0195704,-1.1060327291488647,-1.6815105877318324,-2.526050869618551,2.2814668852039794,-1.016350571309225,0.09412834048271179
1708438195.0216053,-1.1059880256652832,-1.681448598901266,-2.526088539754049,2.2815281587788085,-1.0163353125201624,0.09410813450813293
1708438195.0235736,-1.1060535907745361,-1.681420465508932,-2.526043478642599,2.2814969259449462,-1.0163310209857386,0.09409579634666443
1708438195.0255811,-1.1059880256652832,-1.6814457378783167,-2.526046339665548,2.2815324503132324,-1.0163634459124964,0.09412834048271179
1708438195.0275724,-1.1059999465942383,-1.681437154809469,-2.5260794798480433,2.281524820918701,-1.016290012990133,0.09411537647247314
1708438195.0295575,-1.1059709787368774,-1.6814781628050746,-2.526084009801046,2.28154103338208,-1.016306225453512,0.09407839179039001
1708438195.0315619,-1.1059709787368774,-1.6814457378783167,-2.5260465780841272,2.2815043169208984,-1.0162738005267542,0.09411683678627014
1708438195.0335808,-1.1060044765472412,-1.681420465508932,-2.526038948689596,2.281459255809448,-1.0163105169879358,0.09410813450813293
1708438195.035548,-1.1059880256652832,-1.681437154809469,-2.526050869618551,2.281589909190796,-1.0163148085223597,0.09414792060852051
1708438195.0375404,-1.1060044765472412,-1.6814657650389613,-2.5260630289660853,2.281442089671753,-1.016318146382467,0.09414792060852051
1708438195.0395267,-1.1060254573822021,-1.6815105877318324,-2.526067558919088,2.2814838129230957,-1.0163148085223597,0.09416452050209045
1708438195.041553,-1.1059455871582031,-1.6814614735045375,-2.5260868708239954,2.2815043169208984,-1.0163634459124964,0.09420141577720642
1708438195.04354,-1.10597562789917,-1.6814609966673792,-2.526034657155172,2.2814923959919433,-1.0163267294513147,0.09421800822019577
1708438195.0455213,-1.1059410572052002,-1.6814986668028773,-2.526080910359518,2.281545563335083,-1.016294304524557,0.09421800822019577
1708438195.0475383,-1.1059926748275757,-1.6814443073668421,-2.526067558919088,2.281513138408325,-1.0162695089923304,0.09418392181396484
1708438195.049555,-1.1059637069702148,-1.6815062961974085,-2.526038948689596,2.2814625936695556,-1.0162976423846644,0.09421365708112717
1708438195.05157,-1.1059709787368774,-1.681420465508932,-2.5260794798480433,2.28154103338208,-1.016322437916891,0.094209223985672
1708438195.0535614,-1.105979084968567,-1.681441446343893,-2.526055399571554,2.2814711767384033,-1.0163148085223597,0.09414693713188171
1708438195.0555208,-1.1059800386428833,-1.681437154809469,-2.526055399571554,2.2814625936695556,-1.016322437916891,0.09418392181396484
1708438195.0575514,-1.1060118675231934,-1.681469579736227,-2.526104752217428,2.281479521388672,-1.0162985960589808,0.09422114491462708
1708438195.0595236,-1.1059880256652832,-1.6814571819701136,-2.526076618825094,2.281524820918701,-1.0163105169879358,0.0942080020904541
1708438195.061525,-1.1059926748275757,-1.6814567051329554,-2.526067558919088,2.281529350871704,-1.0163267294513147,0.09417076408863068
1708438195.0635984,-1.1059880256652832,-1.681469579736227,-2.5259926954852503,2.281545563335083,-1.016257111226217,0.09420052170753479
1708438195.065554,-1.106001615524292,-1.6814900837340296,-2.5260749498950403,2.281513138408325,-1.0163267294513147,0.0942254364490509
1708438195.0675738,-1.105950117111206,-1.6814900837340296,-2.5260301272021692,2.2814969259449462,-1.0163591543780726,0.09423737972974777
1708438195.0695395,-1.1059545278549194,-1.681441446343893,-2.526055399571554,2.281536741847656,-1.016294304524557,0.0942080020904541
1708438195.0715718,-1.1060208082199097,-1.6815105877318324,-2.526104990636007,2.2815000253864746,-1.0163310209857386,0.09419608116149902
1708438195.0735562,-1.1059834957122803,-1.681469579736227,-2.526067558919088,2.281508608455322,-1.0163105169879358,0.09419608116149902
1708438195.075541,-1.1059637069702148,-1.681481500665182,-2.526076380406515,2.281533642406128,-1.016322437916891,0.09420052170753479
1708438195.0775747,-1.1059664487838745,-1.681470056573385,-2.526104752217428,2.2814549642750244,-1.0163310209857386,0.09419260919094086
1708438195.0795665,-1.105959177017212,-1.681465288201803,-2.526109282170431,2.2815043169208984,-1.0163148085223597,0.09419608116149902
1708438195.0815434,-1.1059682369232178,-1.6815020046629847,-2.526059929524557,2.281458302135132,-1.0163386503802698,0.09419174492359161
1708438195.0835724,-1.1060044765472412,-1.681497713128561,-2.526055399571554,2.2814711767384033,-1.0163310209857386,0.09418740123510361
1708438195.0855412,-1.1059709787368774,-1.681448598901266,-2.526038948689596,2.2814711767384033,-1.016334358845846,0.0942080095410347
1708438195.0875483,-1.1059576272964478,-1.6814857921996058,-2.526104752217428,2.281524820918701,-1.0163148085223597,0.09416317939758301
1708438195.0895457,-1.1059709787368774,-1.681469579736227,-2.526072088872091,2.281536741847656,-1.0163634459124964,0.09414686262607574
1708438195.0915382,-1.105959177017212,-1.6814285717406214,-2.5260959307300013,2.281513138408325,-1.0163105169879358,0.0942036435008049
1708438195.0935476,-1.1059834957122803,-1.681441446343893,-2.526067558919088,2.2814923959919433,-1.0163267294513147,0.09421354532241821
1708438195.0955305,-1.1060044765472412,-1.6814781628050746,-2.526067558919088,2.281484289760254,-1.0163019339190882,0.09419608116149902
1708438195.097546,-1.1060091257095337,-1.6814900837340296,-2.526076380406515,2.281475468272827,-1.016318146382467,0.09422425180673599
1708438195.0995338,-1.1059545278549194,-1.681481500665182,-2.526038948689596,2.281513138408325,-1.0163105169879358,0.09422425925731659
1708438195.1015217,-1.1059880256652832,-1.6814500294127406,-2.526034657155172,2.2814711767384033,-1.0163267294513147,0.09421124309301376
1708438195.1035542,-1.106013536453247,-1.681469579736227,-2.526055399571554,2.2814711767384033,-1.0163148085223597,0.0942123532295227
1708438195.1055298,-1.105950117111206,-1.6814609966673792,-2.526076618825094,2.2814969259449462,-1.0163267294513147,0.09417517483234406
1708438195.1075678,-1.1060044765472412,-1.681465288201803,-2.526067558919088,2.2814881044575195,-1.0163634459124964,0.09421233832836151
1708438195.1095679,-1.106001615524292,-1.6814290485777796,-2.5260584990130823,2.281468077296875,-1.0163591543780726,0.09421122074127197
1708438195.1115246,-1.1059592962265015,-1.681497713128561,-2.526076618825094,2.281459255809448,-1.0163591543780726,0.09421677887439728
1708438195.1135938,-1.1060163974761963,-1.681437154809469,-2.526038948689596,2.2814923959919433,-1.0163267294513147,0.09420366585254669
1708438195.1155903,-1.1059972047805786,-1.6814657650389613,-2.526050869618551,2.28147999822583,-1.0163191000567835,0.09420368075370789
1708438195.1175802,-1.105950117111206,-1.6814738712706507,-2.526072088872091,2.281521721477173,-1.0162656942950647,0.09416315704584122
1708438195.1195822,-1.10597562789917,-1.6814781628050746,-2.526046339665548,2.281472368831299,-1.0163310209857386,0.09417949616909027
1708438195.1215303,-1.1059926748275757,-1.681441446343893,-2.526046339665548,2.2814923959919433,-1.0163148085223597,0.09424488246440887
1708438195.1235626,-1.105954647064209,-1.681448598901266,-2.5260749498950403,2.281513138408325,-1.0163558165179651,0.09419606626033783
1708438195.1255612,-1.10597562789917,-1.6814290485777796,-2.526092831288473,2.2814430433460693,-1.0163071791278284,0.0942080020904541
1708438195.127532,-1.1059709787368774,-1.681441446343893,-2.5260794798480433,2.2815260130115966,-1.016346279774801,0.09418737888336182
1708438195.12958,-1.1059926748275757,-1.6814738712706507,-2.5260749498950403,2.2814549642750244,-1.0162857214557093,0.094200499355793
1708438195.1316178,-1.105921745300293,-1.681481500665182,-2.526050869618551,2.2814268308826904,-1.0163591543780726,0.09420915693044662
1708438195.1335793,-1.1059926748275757,-1.6815196476378382,-2.526046339665548,2.2814463812061767,-1.0163353125201624,0.0942286029458046
1708438195.13558,-1.105921745300293,-1.681408544579977,-2.5260301272021692,2.2814668852039794,-1.0163148085223597,0.0942005068063736
1708438195.1376219,-1.1059972047805786,-1.681441446343893,-2.526072088872091,2.281447573299072,-1.0162985960589808,0.09417949616909027
1708438195.139529,-1.1059457063674927,-1.6814457378783167,-2.5260584990130823,2.281513138408325,-1.0163310209857386,0.09423742443323135
1708438195.141546,-1.1059880256652832,-1.681441446343893,-2.526034418736593,2.281444235438965,-1.0163753668414515,0.09419175982475281
1708438195.143528,-1.105959177017212,-1.6814443073668421,-2.526055399571554,2.2814885812946777,-1.0163105169879358,0.09419607371091843
1708438195.1455557,-1.1059545278549194,-1.681481500665182,-2.526043478642599,2.281468077296875,-1.0163267294513147,0.0942080020904541
1708438195.1475425,-1.1060208082199097,-1.681497713128561,-2.5260794798480433,2.281447573299072,-1.0163148085223597,0.09420371055603027
1708438195.1495564,-1.1059291362762451,-1.6814772091307582,-2.526067558919088,2.281463785762451,-1.016306225453512,0.09419604390859604
1708438195.1515355,-1.1059263944625854,-1.6814528904356898,-2.526092831288473,2.281463785762451,-1.0163105169879358,0.09419608116149902
1708438195.1535554,-1.1059972047805786,-1.6815225086607875,-2.526043478642599,2.2815000253864746,-1.016306225453512,0.0942286029458046
1708438195.1555638,-1.10601806640625,-1.6815062961974085,-2.526055399571554,2.281468077296875,-1.0163105169879358,0.0942286029458046
1708438195.15754,-1.10597562789917,-1.6814443073668421,-2.526100460683004,2.2814928728291015,-1.0163353125201624,0.09423736482858658
1708438195.159555,-1.1059800386428833,-1.6815434894957484,-2.5260630289660853,2.2814151483723144,-1.016294304524557,0.09424176067113876
1708438195.1615222,-1.1059836149215698,-1.6814772091307582,-2.526034657155172,2.2813662725635986,-1.0163148085223597,0.09420366585254669
1708438195.1635575,-1.1059709787368774,-1.6815020046629847,-2.526076380406515,2.28145615636792,-1.0163310209857386,0.09424931555986404
1708438195.1655674,-1.1059637069702148,-1.681465288201803,-2.526092831288473,2.281399889583252,-1.016290012990133,0.09421233832836151
1708438195.1675708,-1.106046438217163,-1.6814614735045375,-2.526043478642599,2.281484289760254,-1.0163148085223597,0.09423734992742538
1708438195.1695678,-1.1059637069702148,-1.6814571819701136,-2.52611214319338,2.281472368831299,-1.0163429419146937,0.0942080020904541
1708438195.171543,-1.1059709787368774,-1.681481500665182,-2.526076380406515,2.2814604479023437,-1.0163386503802698,0.09423302859067917
1708438195.1735785,-1.1059709787368774,-1.6814075909056605,-2.526059691105978,2.281428022975586,-1.0162985960589808,0.09421558678150177
1708438195.1755495,-1.1059681177139282,-1.6814738712706507,-2.526072088872091,2.2814974027821044,-1.0163105169879358,0.09418744593858719
1708438195.177574,-1.105938196182251,-1.6814290485777796,-2.526050869618551,2.281387968654297,-1.0163267294513147,0.09422431886196136
1708438195.1795678,-1.1059517860412598,-1.6814614735045375,-2.526046339665548,2.2814366060444335,-1.0163591543780726,0.09418738633394241
1708438195.181573,-1.1059517860412598,-1.6814738712706507,-2.5260959307300013,2.281338616008423,-1.0163267294513147,0.09416766464710236
1708438195.1835835,-1.1059772968292236,-1.6814857921996058,-2.526100222264425,2.2813922601887207,-1.0163267294513147,0.09419608116149902
1708438195.185574,-1.1059726476669312,-1.6814614735045375,-2.526038948689596,2.2813028532215576,-1.016306225453512,0.0942080095410347
1708438195.1875658,-1.1059726476669312,-1.681497713128561,-2.5260630289660853,2.281324549312256,-1.0163472334491175,0.09419607371091843
1708438195.1895807,-1.1059319972991943,-1.6814657650389613,-2.526067558919088,2.2813288408466796,-1.0163310209857386,0.09419608116149902
1708438195.191543,-1.1059353351593018,-1.6814943752684535,-2.5260630289660853,2.2813936907001953,-1.0163105169879358,0.09419606626033783
1708438195.1935465,-1.1059845685958862,-1.681437154809469,-2.5260465780841272,2.281304045314453,-1.0163267294513147,0.09419935196638107
1708438195.195566,-1.1059489250183105,-1.6814772091307582,-2.5260706583606165,2.281320257777832,-1.016290012990133,0.09416650235652924
1708438195.1975384,-1.1059472560882568,-1.6814609966673792,-2.5260420481311243,2.281287117595337,-1.0163548628436487,0.09419174492359161
1708438195.1995375,-1.1059846878051758,-1.6814738712706507,-2.526017967854635,2.2813333707996826,-1.0162985960589808,0.09417083114385605
1708438195.201533,-1.1059309244155884,-1.6814772091307582,-2.526043478642599,2.281320257777832,-1.0163191000567835,0.09416648000478745
1708438195.2035599,-1.1059890985488892,-1.681493421594137,-2.5260301272021692,2.2812504011341552,-1.0163429419146937,0.09418301284313202
1708438195.2055357,-1.1059353351593018,-1.6814524135985316,-2.526050869618551,2.2813116747089843,-1.0163148085223597,0.0942123606801033
1708438195.207532,-1.1059473752975464,-1.6814857921996058,-2.526084009801046,2.2813731867023925,-1.016306225453512,0.09418740123510361
1708438195.209559,-1.1059398651123047,-1.6814943752684535,-2.526104990636007,2.2813288408466796,-1.0163148085223597,0.09419174492359161
1708438195.2115796,-1.105894684791565,-1.6814781628050746,-2.5260704199420374,2.2813278871723632,-1.016306225453512,0.09417081624269485
1708438195.2135797,-1.1059517860412598,-1.6814781628050746,-2.5260630289660853,2.2812952238270263,-1.016290012990133,0.09416641294956207
1708438195.2156353,-1.1059490442276,-1.681481500665182,-2.526133124028341,2.281315966243408,-1.016322437916891,0.09422425925731659
1708438195.2180152,-1.105911135673523,-1.6814781628050746,-2.5260704199420374,2.28135268270459,-1.0163019339190882,0.09421992301940918
1708438195.219553,-1.1059318780899048,-1.6814824543394984,-2.526050869618551,2.2813612657734375,-1.0163267294513147,0.09426112473011017
1708438195.221565,-1.105906367301941,-1.681420465508932,-2.5260584990130823,2.281336470241211,-1.0163472334491175,0.09421992301940918
1708438195.2235758,-1.1059274673461914,-1.6814729175963343,-2.526072088872091,2.2813116747089843,-1.0163634459124964,0.09423302114009857
1708438195.2255418,-1.105885624885559,-1.6814614735045375,-2.526088539754049,2.2813612657734375,-1.0163591543780726,0.09423297643661499
1708438195.2275798,-1.1059364080429077,-1.6815225086607875,-2.5260868708239954,2.281287117595337,-1.0163019339190882,0.09415889531373978
1708438195.2295575,-1.105911135673523,-1.6814609966673792,-2.526067558919088,2.28135268270459,-1.0163386503802698,0.0942242443561554
1708438195.2315419,-1.1059398651123047,-1.6814567051329554,-2.526067558919088,2.2813688951679687,-1.0163548628436487,0.0942416861653328
1708438195.2335663,-1.105906367301941,-1.681437154809469,-2.5260584990130823,2.2812504011341552,-1.0163138548480433,0.09415889531373978
1708438195.235557,-1.1059274673461914,-1.681481500665182,-2.5260584990130823,2.2812914091297607,-1.0163300673114222,0.0942080020904541
1708438195.2375853,-1.1059244871139526,-1.681465288201803,-2.526046339665548,2.281320257777832,-1.0163548628436487,0.09421992301940918
1708438195.2395413,-1.1059155464172363,-1.6814891300597132,-2.526084009801046,2.2813731867023925,-1.0163267294513147,0.09416213631629944
1708438195.2415364,-1.1059080362319946,-1.6814857921996058,-2.526076618825094,2.281270905131958,-1.0163267294513147,0.09418740123510361
1708438195.2435594,-1.105940818786621,-1.6814528904356898,-2.526067558919088,2.281324549312256,-1.0163677374469202,0.09426555037498474
1708438195.2455382,-1.105894684791565,-1.681441446343893,-2.5260630289660853,2.281320257777832,-1.016334358845846,0.09419932216405869
1708438195.2476037,-1.1058992147445679,-1.6814443073668421,-2.5260959307300013,2.2812914091297607,-1.0163667837726038,0.09419174492359161
1708438195.2495425,-1.1059291362762451,-1.6814891300597132,-2.526084009801046,2.2813407617756347,-1.0163310209857386,0.09421230107545853
1708438195.251566,-1.1058992147445679,-1.681481500665182,-2.526128594075338,2.2813214498707275,-1.016346279774801,0.09419608116149902
1708438195.2535825,-1.1058917045593262,-1.681497713128561,-2.5260329882251185,2.2813171583363037,-1.016374413167135,0.09417523443698883
1708438195.2555635,-1.1058872938156128,-1.6814857921996058,-2.526055399571554,2.281320257777832,-1.0163429419146937,0.09421678632497787
1708438195.2575738,-1.105865716934204,-1.6814781628050746,-2.5260420481311243,2.2813002306171875,-1.0163386503802698,0.09421680122613907
1708438195.2595446,-1.1058917045593262,-1.6814524135985316,-2.526088539754049,2.281324549312256,-1.01636249223818,0.09424050152301788
1708438195.2615411,-1.1059200763702393,-1.6815258465208949,-2.5260630289660853,2.281270905131958,-1.0163429419146937,0.09418740123510361
1708438195.2636042,-1.1058746576309204,-1.681493421594137,-2.526050869618551,2.2812504011341552,-1.016350571309225,0.09419608116149902
1708438195.2655911,-1.1058701276779175,-1.6815020046629847,-2.526076618825094,2.281315966243408,-1.0163829962359827,0.0942242294549942
1708438195.2675815,-1.1058300733566284,-1.681497713128561,-2.5260630289660853,2.2813731867023925,-1.0163477102862757,0.09423184394836426
1708438195.2695596,-1.105878233909607,-1.6814247570433558,-2.526088539754049,2.281324549312256,-1.0163787047015589,0.09417089074850082
1708438195.2715461,-1.1059080362319946,-1.6815182171263636,-2.526072088872091,2.281348391170166,-1.0163715521441858,0.09417951107025146
1708438195.2735672,-1.105841875076294,-1.6815182171263636,-2.526046339665548,2.2812997537800292,-1.0163996855365198,0.0942242220044136
1708438195.2755558,-1.1059081554412842,-1.6815182171263636,-2.526072088872091,2.2813688951679687,-1.016428295766012,0.09416213631629944
1708438195.2775905,-1.105879306793213,-1.681497713128561,-2.5260794798480433,2.2813030916401367,-1.0163863340960901,0.09415888041257858
1708438195.2796264,-1.1058629751205444,-1.6815053425230921,-2.5261123816119593,2.281320257777832,-1.0163701216327112,0.09421231597661972
1708438195.2815924,-1.105870246887207,-1.6814657650389613,-2.5261197725879114,2.281320257777832,-1.0164106527911585,0.09419175237417221
1708438195.283575,-1.1058917045593262,-1.6815062961974085,-2.526084009801046,2.281324549312256,-1.0164316336261194,0.09425672143697739
1708438195.2855403,-1.105858325958252,-1.6814443073668421,-2.5260630289660853,2.2812914091297607,-1.0164225737201136,0.09421233087778091
1708438195.2875404,-1.1058963537216187,-1.6815344295897425,-2.5260959307300013,2.281287117595337,-1.0164344946490687,0.09416323900222778
1708438195.2895498,-1.105879306793213,-1.681497713128561,-2.526121203099386,2.2813407617756347,-1.0164344946490687,0.09420367330312729
1708438195.2915602,-1.1058717966079712,-1.6814614735045375,-2.5261123816119593,2.2813893991657714,-1.0164387861834925,0.09422865509986877
1708438195.2935567,-1.1058554649353027,-1.6814891300597132,-2.5260749498950403,2.281308336848877,-1.0164511839496058,0.09421361237764359
1708438195.2955585,-1.1058582067489624,-1.6815062961974085,-2.526116673146383,2.2813002306171875,-1.0164387861834925,0.09416648000478745
1708438195.297593,-1.1058435440063477,-1.681509634057516,-2.5260661284076136,2.2813126283833007,-1.0164473692523401,0.09415888786315918
1708438195.299558,-1.105879306793213,-1.6814738712706507,-2.5261033217059534,2.2813538747974853,-1.0164430777179163,0.09422425925731659
1708438195.3015597,-1.105879306793213,-1.6814567051329554,-2.5261197725879114,2.2813235956379394,-1.016413990651266,0.0942285805940628
1708438195.303609,-1.1058300733566284,-1.6814772091307582,-2.5260868708239954,2.281320257777832,-1.0164507071124476,0.0941830649971962
1708438195.3055637,-1.105853796005249,-1.681420465508932,-2.5261078516589563,2.281324549312256,-1.0164063612567347,0.0942286029458046
1708438195.3075805,-1.1058090925216675,-1.6814609966673792,-2.526084009801046,2.28135268270459,-1.0164874235736292,0.09418313950300217
1708438195.3095589,-1.1058673858642578,-1.681521554986471,-2.5261078516589563,2.281315966243408,-1.0164831320392054,0.09424050152301788
1708438195.3115363,-1.105897307395935,-1.681448598901266,-2.5261243025409144,2.281386299724243,-1.0165041128741663,0.0942036509513855
1708438195.3135798,-1.1058554649353027,-1.6814891300597132,-2.5260749498950403,2.281324549312256,-1.0164344946490687,0.09421676397323608
1708438195.315619,-1.105818271636963,-1.6814772091307582,-2.526128594075338,2.2813126283833007,-1.0164387861834925,0.09419174492359161
1708438195.3175733,-1.1058852672576904,-1.681481500665182,-2.5260749498950403,2.2813288408466796,-1.0164464155780237,0.09418392181396484
1708438195.319602,-1.1058018207550049,-1.6814900837340296,-2.5261078516589563,2.281282826060913,-1.0164583365069788,0.09419934451580048
1708438195.3215752,-1.1058673858642578,-1.681448598901266,-2.5260914007769983,2.281324549312256,-1.0164583365069788,0.09417523443698883
1708438195.3235986,-1.1058971881866455,-1.6814400158324183,-2.5260868708239954,2.281282826060913,-1.0164182821856897,0.094204843044281
1708438195.3255582,-1.1058316230773926,-1.681493421594137,-2.5261197725879114,2.2813333707996826,-1.0164254347430628,0.09417519718408585
1708438195.3275516,-1.1058480739593506,-1.6814900837340296,-2.5261061827289026,2.281320257777832,-1.0164626280414026,0.0942285805940628
1708438195.3295894,-1.1058763265609741,-1.681469579736227,-2.526101891194479,2.281374378795288,-1.016409699116842,0.09420482814311981
1708438195.3316665,-1.1058270931243896,-1.681448598901266,-2.52614409128298,2.281370087260864,-1.0165122191058558,0.09420366585254669
1708438195.3335893,-1.1058599948883057,-1.681481500665182,-2.526142422352926,2.281278534526489,-1.0164583365069788,0.0942036509513855
1708438195.335579,-1.1058435440063477,-1.681497713128561,-2.5261917749988,2.2813495832630615,-1.0164745489703577,0.0942286029458046
1708438195.3375783,-1.1058480739593506,-1.6815139255919398,-2.5262578169452112,2.28135268270459,-1.0164702574359339,0.09418740123510361
1708438195.3395567,-1.1058807373046875,-1.6814967594542445,-2.5261858145343226,2.281348391170166,-1.016461197529928,0.09419608116149902
1708438195.3415601,-1.1058435440063477,-1.6814772091307582,-2.5262280146228235,2.281336470241211,-1.0164302031146448,0.09421992301940918
1708438195.3435965,-1.1058510541915894,-1.681497713128561,-2.5262518564807337,2.281270905131958,-1.0164063612567347,0.09425677359104156
1708438195.3455453,-1.1058346033096313,-1.6815625629820765,-2.5262022654162806,2.2813126283833007,-1.016385857258932,0.09421233832836151
1708438195.347538,-1.1058346033096313,-1.6814528904356898,-2.5262308756457728,2.2812720972248535,-1.0164302031146448,0.09421558678150177
1708438195.349606,-1.1058719158172607,-1.6814738712706507,-2.5262473265277308,2.2812957006641845,-1.0164268652545374,0.0941874086856842
1708438195.3515453,-1.1058435440063477,-1.6815020046629847,-2.5262683073626917,2.281324549312256,-1.0164421240436,0.09416321665048599
1708438195.3535683,-1.1058598756790161,-1.681497713128561,-2.526233975087301,2.2813333707996826,-1.0164626280414026,0.09417518973350525
1708438195.3555608,-1.105818271636963,-1.6814967594542445,-2.526287857686178,2.2813731867023925,-1.0164626280414026,0.09419934451580048
1708438195.3575501,-1.1058480739593506,-1.6815153561034144,-2.526259247456686,2.2813002306171875,-1.016425911580221,0.0942004919052124
1708438195.3595362,-1.1058181524276733,-1.681448598901266,-2.526292387639181,2.2813126283833007,-1.0164788405047815,0.09417953342199326
1708438195.3615298,-1.1058688163757324,-1.681493421594137,-2.5263012091266077,2.2813171583363037,-1.0164507071124476,0.09421993046998978
1708438195.3635418,-1.1058435440063477,-1.6815258465208949,-2.526254717503683,2.281282826060913,-1.0164302031146448,0.09424483776092529
1708438195.3655996,-1.1058497428894043,-1.6814729175963343,-2.5262354055987757,2.2812914091297607,-1.0164344946490687,0.09421992301940918
1708438195.3675704,-1.1058554649353027,-1.6815139255919398,-2.5262518564807337,2.2813936907001953,-1.0165050665484827,0.09420366585254669
1708438195.369558,-1.1058316230773926,-1.681493421594137,-2.5262637774096888,2.2813214498707275,-1.0164793173419397,0.09417518228292465
1708438195.3715546,-1.1057817935943604,-1.6815105877318324,-2.5262892881976526,2.2813657957264404,-1.0164626280414026,0.09422425925731659
1708438195.3735507,-1.1058152914047241,-1.6814848385252894,-2.526275936757223,2.281320257777832,-1.0164168516742151,0.09420371055603027
1708438195.375547,-1.1058152914047241,-1.6814848385252894,-2.5262144247638147,2.2813278871723632,-1.0164745489703577,0.0942285805940628
1708438195.3775504,-1.1058197021484375,-1.6815558872618617,-2.5261977354632776,2.2813214498707275,-1.0164960066424769,0.0942167416214943
1708438195.3795745,-1.1058405637741089,-1.681469579736227,-2.5262144247638147,2.2813569742390136,-1.016486946736471,0.0942080020904541
1708438195.3815534,-1.1058241128921509,-1.681509634057516,-2.5262234846698206,2.281304045314453,-1.0164626280414026,0.09417635202407837
1708438195.383559,-1.105873465538025,-1.6814638576903285,-2.5262473265277308,2.281324549312256,-1.0164583365069788,0.094228595495224
1708438195.3855448,-1.1058107614517212,-1.6814900837340296,-2.5262473265277308,2.281282826060913,-1.016486946736471,0.094191774725914
1708438195.3875394,-1.1058107614517212,-1.6815139255919398,-2.526242796574728,2.281308336848877,-1.0164302031146448,0.09423619508743286
1708438195.389555,-1.1058272123336792,-1.6815020046629847,-2.5262473265277308,2.2812914091297607,-1.0164344946490687,0.09419175237417221
1708438195.3915534,-1.105847954750061,-1.681469579736227,-2.526242796574728,2.2813045221516113,-1.0164464155780237,0.0941874235868454
1708438195.3935637,-1.1058197021484375,-1.6815468273558558,-2.5262354055987757,2.281308336848877,-1.0164716879474085,0.09421559423208237
1708438195.3955383,-1.105868935585022,-1.6814857921996058,-2.5262354055987757,2.2813407617756347,-1.0164464155780237,0.09417518228292465
1708438195.3975391,-1.1057853698730469,-1.6815062961974085,-2.5262354055987757,2.2813126283833007,-1.0164182821856897,0.09423617273569107
1708438195.3995583,-1.1058272123336792,-1.6814891300597132,-2.526242796574728,2.2812997537800292,-1.0164302031146448,0.09418310225009918
1708438195.4015415,-1.1058435440063477,-1.6814609966673792,-2.526259247456686,2.281315966243408,-1.016491715108053,0.09419934451580048
1708438195.4035482,-1.1057944297790527,-1.681481500665182,-2.5262444655047815,2.2812632757374267,-1.0164421240436,0.09422425180673599
1708438195.4055529,-1.105852484703064,-1.6815344295897425,-2.5262399355517786,2.2813407617756347,-1.0165002981769007,0.09418310225009918
1708438195.4075644,-1.105803370475769,-1.681509634057516,-2.5262563864337366,2.281324549312256,-1.016486946736471,0.09423184394836426
1708438195.409557,-1.1058733463287354,-1.6815258465208949,-2.5262354055987757,2.2813045221516113,-1.0164302031146448,0.09421128779649734
1708438195.4115388,-1.1058272123336792,-1.681509634057516,-2.526210133229391,2.2812954622456054,-1.0164421240436,0.09426549077033997
1708438195.4135623,-1.105864405632019,-1.6814524135985316,-2.5262637774096888,2.28135268270459,-1.016491715108053,0.09422318637371063
1708438195.4155784,-1.1058272123336792,-1.6814772091307582,-2.5262771288501185,2.2813257414051513,-1.0164583365069788,0.09424048662185669
1708438195.4175627,-1.105880856513977,-1.6814729175963343,-2.5262308756457728,2.281287117595337,-1.0164373556720179,0.09418316930532455
1708438195.4195502,-1.105836033821106,-1.681481500665182,-2.5262354055987757,2.281308336848877,-1.0164583365069788,0.0942198857665062
1708438195.4215426,-1.1058480739593506,-1.6815411053099574,-2.5262563864337366,2.2813288408466796,-1.0164464155780237,0.09421559423208237
1708438195.4235451,-1.1058763265609741,-1.6814805469908656,-2.5262308756457728,2.281315966243408,-1.0164373556720179,0.0942404568195343
1708438195.4255602,-1.105818271636963,-1.681497713128561,-2.5262308756457728,2.281287117595337,-1.0164793173419397,0.09419504553079605
1708438195.4275398,-1.1057898998260498,-1.6815053425230921,-2.5261977354632776,2.2813612657734375,-1.016454044972555,0.09424476325511932
1708438195.429617,-1.1058763265609741,-1.681493421594137,-2.5262308756457728,2.281287117595337,-1.0164702574359339,0.09424049407243729
1708438195.4315584,-1.105847954750061,-1.6815511188902796,-2.5262938181506556,2.281308813686035,-1.0164421240436,0.09425674378871918
1708438195.433557,-1.1057565212249756,-1.6815139255919398,-2.526193443928854,2.281324549312256,-1.016437832509176,0.09422421455383301
1708438195.435549,-1.1058391332626343,-1.6814729175963343,-2.5262399355517786,2.2812957006641845,-1.0164464155780237,0.09424376487731934
1708438195.4375477,-1.105777382850647,-1.6815139255919398,-2.5262609163867396,2.2813538747974853,-1.01640493074526,0.09425570070743561
1708438195.4395447,-1.1058361530303955,-1.6815010509886683,-2.5262683073626917,2.2813288408466796,-1.0164135138141077,0.09422755241394043
1708438195.4415283,-1.1058077812194824,-1.6814729175963343,-2.5262022654162806,2.2812763887592773,-1.0164344946490687,0.09422323852777481
1708438195.443558,-1.1058270931243896,-1.6815053425230921,-2.5262399355517786,2.2813333707996826,-1.0164583365069788,0.09421563148498535
1708438195.4455628,-1.1058435440063477,-1.6814729175963343,-2.526259247456686,2.281287117595337,-1.016454044972555,0.09424807131290436
1708438195.4478815,-1.1058018207550049,-1.6815225086607875,-2.5262473265277308,2.2813171583363037,-1.016421143208639,0.09426863491535187
1708438195.4495454,-1.1058316230773926,-1.6815301380553187,-2.5262609163867396,2.2813495832630615,-1.0164745489703577,0.09426863491535187
1708438195.4515402,-1.105864405632019,-1.681521554986471,-2.5262022654162806,2.2813045221516113,-1.0164597670184534,0.09421992301940918
1708438195.4535613,-1.105836033821106,-1.6814729175963343,-2.5262189547168177,2.2813002306171875,-1.0164583365069788,0.09422323107719421
1708438195.4555576,-1.1058063507080078,-1.681509634057516,-2.5262308756457728,2.2812632757374267,-1.0164793173419397,0.09420373290777206
1708438195.4575593,-1.1058272123336792,-1.6814772091307582,-2.5262563864337366,2.2813612657734375,-1.0164302031146448,0.09423182904720306
1708438195.4595332,-1.1058361530303955,-1.6815225086607875,-2.5261946360217493,2.281336470241211,-1.0164182821856897,0.09421132504940033
1708438195.461543,-1.105812430381775,-1.6814524135985316,-2.5262144247638147,2.2813419538685302,-1.0164673964129847,0.0942925363779068
1708438195.4635692,-1.1057863235473633,-1.6814848385252894,-2.5262113253222864,2.281308336848877,-1.0164836088763636,0.09426431357860565
1708438195.4655445,-1.1058361530303955,-1.6815139255919398,-2.5262113253222864,2.281304045314453,-1.0164673964129847,0.09430109709501266
1708438195.4675703,-1.1058554649353027,-1.6815053425230921,-2.5262113253222864,2.2813333707996826,-1.0164182821856897,0.09427297860383987
1708438195.4695485,-1.1058554649353027,-1.6815010509886683,-2.5261693636523646,2.2813126283833007,-1.016421143208639,0.09421129524707794
1708438195.4715462,-1.1058226823806763,-1.6814567051329554,-2.5262067953692835,2.2812632757374267,-1.0164240042315882,0.09426863491535187
1708438195.4735644,-1.1058270931243896,-1.681493421594137,-2.5261574427234095,2.281275196666382,-1.0164583365069788,0.0942404717206955
1708438195.475557,-1.1058062314987183,-1.6815062961974085,-2.526203695927755,2.2813450533100585,-1.0164583365069788,0.09425568580627441
1708438195.4775927,-1.1058480739593506,-1.6815020046629847,-2.5262532869922083,2.2813450533100585,-1.016486946736471,0.09425998479127884
1708438195.47959,-1.1058616638183594,-1.681521554986471,-2.5262189547168177,2.2812914091297607,-1.0164421240436,0.09426863491535187
1708438195.4815435,-1.1058107614517212,-1.6815468273558558,-2.5262067953692835,2.2812997537800292,-1.0164168516742151,0.09426433593034744
1708438195.4835618,-1.1058226823806763,-1.6815296612181605,-2.5261991659747522,2.2812914091297607,-1.0164373556720179,0.09427192807197571
1708438195.4855297,-1.1058270931243896,-1.6814729175963343,-2.5261781851397913,2.281258984203003,-1.0164673964129847,0.09421129524707794
1708438195.487553,-1.1057988405227661,-1.6814891300597132,-2.526203695927755,2.2813333707996826,-1.0164254347430628,0.0942188948392868
1708438195.48953,-1.105864405632019,-1.6814609966673792,-2.5262158552752894,2.2813171583363037,-1.0164583365069788,0.09425998479127884
1708438195.4915478,-1.1058568954467773,-1.681481500665182,-2.5261738936053675,2.2813116747089843,-1.0164793173419397,0.09423185139894485
1708438195.4935613,-1.105864405632019,-1.6814738712706507,-2.5261827150927942,2.2813657957264404,-1.0164421240436,0.09420257806777954
1708438195.4955547,-1.1058391332626343,-1.6814609966673792,-2.5262325445758265,2.28135268270459,-1.0164626280414026,0.09425888955593109
1708438195.4975588,-1.105880856513977,-1.6814857921996058,-2.5261858145343226,2.2813612657734375,-1.0164836088763636,0.09426865726709366
1708438195.4995525,-1.105847954750061,-1.6814729175963343,-2.5262158552752894,2.2813126283833007,-1.0164583365069788,0.09423945099115372
1708438195.5015357,-1.1058599948883057,-1.681469579736227,-2.5261648336993616,2.2813235956379394,-1.0164626280414026,0.09426762908697128
1708438195.5035439,-1.105847954750061,-1.681497713128561,-2.5262532869922083,2.2813333707996826,-1.0164015928851526,0.09425568580627441
1708438195.505526,-1.1058151721954346,-1.6815382442870082,-2.5261917749988,2.2813450533100585,-1.0164793173419397,0.0942426547408104
1708438195.5075405,-1.1058272123336792,-1.681521554986471,-2.5261991659747522,2.2813450533100585,-1.0164135138141077,0.09426329284906387
1708438195.5095367,-1.105864405632019,-1.6815349064269007,-2.526203695927755,2.2813538747974853,-1.0164302031146448,0.09426649659872055
1708438195.5115333,-1.1058807373046875,-1.6815053425230921,-2.5261901060687464,2.281287117595337,-1.0164583365069788,0.09431663900613785
1708438195.5135844,-1.1058435440063477,-1.6815301380553187,-2.5262158552752894,2.281332178706787,-1.0164302031146448,0.09431231021881104
1708438195.515614,-1.1058272123336792,-1.6814609966673792,-2.5262022654162806,2.281308336848877,-1.0164507071124476,0.0943317636847496
1708438195.5175931,-1.1058599948883057,-1.6814772091307582,-2.5261991659747522,2.281336470241211,-1.0164421240436,0.09439239650964737
1708438195.5195546,-1.1058390140533447,-1.6815301380553187,-2.5261827150927942,2.2813073831745605,-1.016421143208639,0.09435925632715225
1708438195.5215437,-1.105825424194336,-1.681509634057516,-2.526187245045797,2.2814056116291503,-1.0164302031146448,0.09435152262449265
1708438195.5235775,-1.1058852672576904,-1.6814924679198207,-2.5262325445758265,2.2812997537800292,-1.0164702574359339,0.09431444853544235
1708438195.525566,-1.1058346033096313,-1.6814857921996058,-2.5262697378741663,2.281287117595337,-1.0164879004107874,0.09429395198822021
1708438195.5275962,-1.105864405632019,-1.6815391979613246,-2.526187245045797,2.281324549312256,-1.0164225737201136,0.09440454840660095
1708438195.5295775,-1.1058316230773926,-1.681448598901266,-2.5261781851397913,2.2813288408466796,-1.0164549986468714,0.09434298425912857
1708438195.5315628,-1.1058807373046875,-1.681493421594137,-2.5261946360217493,2.281304045314453,-1.0164302031146448,0.09439170360565186
1708438195.533589,-1.1058510541915894,-1.6815382442870082,-2.526203695927755,2.2814058500477294,-1.0164626280414026,0.09436345100402832
1708438195.5355744,-1.1058346033096313,-1.6814729175963343,-2.5261917749988,2.281304045314453,-1.0164254347430628,0.09437650442123413
1708438195.5375535,-1.1058346033096313,-1.6814891300597132,-2.5261917749988,2.281315966243408,-1.01640493074526,0.09436345100402832
1708438195.5395737,-1.1058107614517212,-1.6815258465208949,-2.5261827150927942,2.2813126283833007,-1.0164745489703577,0.09438297897577286
1708438195.5415468,-1.1058346033096313,-1.6814772091307582,-2.526170794163839,2.281315966243408,-1.0164063612567347,0.09438367933034897
1708438195.5435448,-1.1058673858642578,-1.6814567051329554,-2.5262280146228235,2.2813820081898193,-1.0164435545550745,0.0943664163351059
1708438195.5455747,-1.1058719158172607,-1.6815062961974085,-2.5261662642108362,2.2813407617756347,-1.0164182821856897,0.09438367933034897
1708438195.547552,-1.105818271636963,-1.6814729175963343,-2.5261381308185022,2.2812794882008056,-1.0164225737201136,0.09440352767705917
1708438195.5495617,-1.105830192565918,-1.6815339527525843,-2.5261662642108362,2.281348391170166,-1.0164092222796839,0.09437648206949234
1708438195.5516026,-1.1059142351150513,-1.681465288201803,-2.526170794163839,2.281315966243408,-1.0164507071124476,0.09437936544418335
1708438195.5535574,-1.105841875076294,-1.6814729175963343,-2.526187245045797,2.281315966243408,-1.0164015928851526,0.0943751335144043
1708438195.5555649,-1.1058510541915894,-1.6814891300597132,-2.52620512643923,2.281287117595337,-1.0164507071124476,0.09434721618890762
1708438195.5575686,-1.1058582067489624,-1.6814729175963343,-2.526146952305929,2.2813407617756347,-1.016433064137594,0.09435584396123886
1708438195.559561,-1.1058344841003418,-1.6814309559264125,-2.526170794163839,2.281304045314453,-1.0163772741900843,0.09439169615507126
1708438195.561562,-1.1058510541915894,-1.6814967594542445,-2.526203695927755,2.281372233028076,-1.016433064137594,0.09439239650964737
1708438195.563608,-1.1058582067489624,-1.6814686260619105,-2.526170794163839,2.2813450533100585,-1.0164464155780237,0.09440017491579056
1708438195.5656135,-1.1058329343795776,-1.6815258465208949,-2.5261917749988,2.281380816096924,-1.0164344946490687,0.09438373893499374
1708438195.567603,-1.105905294418335,-1.6815301380553187,-2.526142422352926,2.2813235956379394,-1.0164344946490687,0.09434721618890762
1708438195.5695693,-1.105864405632019,-1.6814848385252894,-2.526170794163839,2.281332178706787,-1.0164344946490687,0.09440793097019196
1708438195.571567,-1.105879306793213,-1.6815382442870082,-2.526146952305929,2.281344099635742,-1.0164225737201136,0.09434298425912857
1708438195.5735629,-1.1058838367462158,-1.6815601787962855,-2.5261271635638636,2.2813970285603027,-1.0164015928851526,0.09438297152519226
1708438195.575567,-1.105879306793213,-1.681542535821432,-2.5261107126819056,2.281304045314453,-1.0164387861834925,0.0943751186132431
1708438195.5775876,-1.1058746576309204,-1.6815468273558558,-2.5261316935168665,2.2813731867023925,-1.0164759794818323,0.09439592063426971
1708438195.579579,-1.1058746576309204,-1.6814891300597132,-2.5261197725879114,2.2813333707996826,-1.0164106527911585,0.09437938034534454
1708438195.5815697,-1.105879306793213,-1.681497713128561,-2.5261576811419886,2.2813612657734375,-1.0163944403277796,0.09437073767185211
1708438195.5835712,-1.105841875076294,-1.6815344295897425,-2.5260630289660853,2.2812914091297607,-1.0164030233966272,0.09440793097019196
1708438195.585571,-1.1058763265609741,-1.681493421594137,-2.5261078516589563,2.281344099635742,-1.0164030233966272,0.09438367933034897
1708438195.587543,-1.1058927774429321,-1.6814891300597132,-2.5260661284076136,2.281360312099121,-1.0164149443255823,0.09439489990472794
1708438195.5895407,-1.1058582067489624,-1.6814729175963343,-2.5260959307300013,2.2813774782368164,-1.0164197126971644,0.09436344355344772
1708438195.5915396,-1.1058509349822998,-1.681497713128561,-2.5260420481311243,2.28135268270459,-1.0164015928851526,0.09436345100402832
1708438195.5935674,-1.1058717966079712,-1.6815382442870082,-2.526022259389059,2.281360312099121,-1.0164316336261194,0.09436346590518951
1708438195.5955534,-1.10591721534729,-1.681493421594137,-2.526059929524557,2.28135268270459,-1.016390625630514,0.09437514841556549
1708438195.5975516,-1.105879306793213,-1.6814481220641078,-2.526055399571554,2.28135268270459,-1.0163944403277796,0.09438729286193848
1708438195.599573,-1.1058917045593262,-1.6814285717406214,-2.526043478642599,2.281372233028076,-1.0164015928851526,0.09438370168209076
1708438195.6015902,-1.1058837175369263,-1.681493421594137,-2.526050869618551,2.281348391170166,-1.0164063612567347,0.09430578351020813
1708438195.6035666,-1.105865716934204,-1.681493421594137,-2.526076618825094,2.2813278871723632,-1.0164063612567347,0.09438366442918777
1708438195.6055439,-1.1059274673461914,-1.681509634057516,-2.526038948689596,2.2813517290302734,-1.0163896719561976,0.09434721618890762
1708438195.6075728,-1.1058746576309204,-1.6814848385252894,-2.526048008595602,2.2813355165668945,-1.0164554754840296,0.09431803226470947
1708438195.60955,-1.1058871746063232,-1.6815344295897425,-2.526043478642599,2.281413956279419,-1.0164597670184534,0.09436776489019394
1708438195.6115441,-1.105865716934204,-1.6814772091307582,-2.526059929524557,2.2813278871723632,-1.0163896719561976,0.09433098882436752
1708438195.613553,-1.105894684791565,-1.681521554986471,-2.5260313192950647,2.281388445491455,-1.0164225737201136,0.09432995319366455
1708438195.6155868,-1.1059291362762451,-1.6814400158324183,-2.526076618825094,2.2813517290302734,-1.0164015928851526,0.09437070786952972
1708438195.6176124,-1.1059199571609497,-1.6814848385252894,-2.526072088872091,2.2813893991657714,-1.0163987318622034,0.09436343610286713
1708438195.6195939,-1.10591721534729,-1.6814891300597132,-2.5260642210589808,2.281388445491455,-1.0163772741900843,0.09436776489019394
1708438195.6215854,-1.1059155464172363,-1.6815663776793421,-2.526076618825094,2.2813688951679687,-1.0164197126971644,0.09431371837854385
1708438195.6235492,-1.1058882474899292,-1.6814762554564417,-2.526072088872091,2.281392737025879,-1.0163701216327112,0.09433100372552872
1708438195.6255395,-1.1058735847473145,-1.6815129719176234,-2.526104752217428,2.281372233028076,-1.0164197126971644,0.09436777979135513
1708438195.6275368,-1.1058565378189087,-1.6814848385252894,-2.526050869618551,2.281384153957031,-1.016412083302633,0.09436779469251633
1708438195.6295419,-1.1059155464172363,-1.6814609966673792,-2.526013437901632,2.281372233028076,-1.0164268652545374,0.09440025687217712
1708438195.6315806,-1.1059789657592773,-1.681497713128561,-2.526067558919088,2.2813679414936523,-1.0163610617267054,0.09434298425912857
1708438195.6335886,-1.1058746576309204,-1.6814729175963343,-2.526043478642599,2.2814010816761474,-1.0164077917682093,0.09434837102890015
1708438195.6355658,-1.1059244871139526,-1.6815182171263636,-2.526059929524557,2.2814053732105712,-1.0164197126971644,0.09436345845460892
1708438195.6375575,-1.1058992147445679,-1.6814443073668421,-2.526026789342062,2.2813634115406494,-1.0164268652545374,0.09435921162366867
1708438195.6395402,-1.105870246887207,-1.681465288201803,-2.526067558919088,2.2813679414936523,-1.0163863340960901,0.09435154497623444
1708438195.6415687,-1.1059319972991943,-1.681493421594137,-2.526038948689596,2.2813796240040283,-1.0163729826556605,0.09434299916028976
1708438195.6435418,-1.1059244871139526,-1.681521554986471,-2.526052538548605,2.281372233028076,-1.016412083302633,0.09433095157146454
1708438195.6455348,-1.1059110164642334,-1.6814609966673792,-2.526043478642599,2.281430407161377,-1.0163863340960901,0.09431438148021698
1708438195.6475432,-1.1058990955352783,-1.6814352474608363,-2.52600604692568,2.2814203935810546,-1.0163863340960901,0.09433961659669876
1708438195.6495414,-1.105922818183899,-1.681497713128561,-2.526010338460104,2.2814041811176757,-1.0163729826556605,0.09436026960611343
1708438195.6515596,-1.1058783531188965,-1.681481500665182,-2.526043478642599,2.2813753324696044,-1.0163853804217737,0.09433092921972275
1708438195.653547,-1.105922818183899,-1.6814772091307582,-2.526072088872091,2.2813190656849365,-1.016390625630514,0.09435585141181946
1708438195.6555412,-1.1059490442276,-1.681437154809469,-2.5260420481311243,2.2813266950794677,-1.0163491407977503,0.09440909326076508
1708438195.657568,-1.105906367301941,-1.6814848385252894,-2.526050869618551,2.2813355165668945,-1.0163820425616663,0.09432300925254822
1708438195.6595452,-1.1059699058532715,-1.681493421594137,-2.526067558919088,2.2814084726520996,-1.0163701216327112,0.09433094412088394
1708438195.6615524,-1.1059319972991943,-1.6814772091307582,-2.526043478642599,2.281372233028076,-1.0163701216327112,0.09436462819576263
1708438195.6635795,-1.1059608459472656,-1.6815020046629847,-2.5260914007769983,2.2814084726520996,-1.0163701216327112,0.09435585886240005
1708438195.6655562,-1.1059653759002686,-1.6814400158324183,-2.5260749498950403,2.281387968654297,-1.0163987318622034,0.09431874006986618
1708438195.6675737,-1.1059445142745972,-1.6814357242979945,-2.5260420481311243,2.2813796240040283,-1.0164030233966272,0.09434833377599716
1708438195.6695547,-1.1059563159942627,-1.6814524135985316,-2.526034657155172,2.281372233028076,-1.0163610617267054,0.09432309120893478
1708438195.671535,-1.105885624885559,-1.6814161739745082,-2.526055399571554,2.2814172941395263,-1.0163820425616663,0.09431438893079758
1708438195.6735675,-1.1059445142745972,-1.6815182171263636,-2.526092831288473,2.2813548284718017,-1.0163701216327112,0.09431122988462448
1708438195.675571,-1.1058855056762695,-1.6815020046629847,-2.526072088872091,2.2814408975788574,-1.0163491407977503,0.09429933875799179
1708438195.6775525,-1.1059354543685913,-1.6814772091307582,-2.526046339665548,2.2813867765614013,-1.0163987318622034,0.09433529525995255
1708438195.6795352,-1.105906367301941,-1.6815225086607875,-2.5260630289660853,2.2814172941395263,-1.016390625630514,0.09427428990602493
1708438195.6815653,-1.1059609651565552,-1.6815225086607875,-2.5260632673846644,2.281461639995239,-1.0164240042315882,0.09432417154312134
1708438195.6835802,-1.1059774160385132,-1.6815344295897425,-2.526017967854635,2.2814604479023437,-1.0163863340960901,0.09429168701171875
1708438195.685564,-1.1059608459472656,-1.681521554986471,-2.526092831288473,2.28147999822583,-1.0163582007037562,0.09427512437105179
1708438195.6876266,-1.1059473752975464,-1.6815053425230921,-2.5260630289660853,2.2814881044575195,-1.0164106527911585,0.09425457566976547
1708438195.6895573,-1.1059398651123047,-1.6814567051329554,-2.526072088872091,2.2814838129230957,-1.0163944403277796,0.09423081576824188
1708438195.6915495,-1.1059398651123047,-1.681481500665182,-2.526017967854635,2.2815779882618408,-1.0164106527911585,0.09424807876348495
1708438195.693596,-1.1059845685958862,-1.681493421594137,-2.5260420481311243,2.281529350871704,-1.0164030233966272,0.09421231597661972
1708438195.6955633,-1.1059428453445435,-1.6815225086607875,-2.526055399571554,2.2815119463154296,-1.0163729826556605,0.0942004844546318
1708438195.6975715,-1.1059353351593018,-1.681448598901266,-2.526085440312521,2.2815162378498535,-1.0163944403277796,0.09422103315591812
1708438195.6995401,-1.1059354543685913,-1.6814328632750453,-2.526022259389059,2.2815043169208984,-1.0163944403277796,0.09422854334115982
1708438195.7015486,-1.1059637069702148,-1.6814242802061976,-2.526067558919088,2.2814668852039794,-1.0164240042315882,0.09415032714605331
1708438195.7035444,-1.1059800386428833,-1.6815172634520472,-2.526104752217428,2.2815324503132324,-1.0163610617267054,0.09419609606266022
1708438195.705545,-1.1059309244155884,-1.6815339527525843,-2.526076618825094,2.2815825182148437,-1.0164273420916956,0.09420479089021683
1708438195.7075434,-1.1059094667434692,-1.6814848385252894,-2.526088539754049,2.281524820918701,-1.0164106527911585,0.09412728250026703
1708438195.709534,-1.1059472560882568,-1.681497713128561,-2.526034418736593,2.281552954311035,-1.0164030233966272,0.09420479834079742
1708438195.7115822,-1.1059592962265015,-1.6814805469908656,-2.5260630289660853,2.2815043169208984,-1.0163863340960901,0.09417951852083206
1708438195.7135506,-1.1059561967849731,-1.6815225086607875,-2.526038948689596,2.281524820918701,-1.0164063612567347,0.0942135602235794
1708438195.7155476,-1.1059890985488892,-1.6814524135985316,-2.526076618825094,2.2815119463154296,-1.016390625630514,0.09417631477117538
1708438195.7176175,-1.105959177017212,-1.681469579736227,-2.526067558919088,2.281536741847656,-1.0164030233966272,0.09414351731538773
1708438195.7195556,-1.1059726476669312,-1.6814857921996058,-2.5260794798480433,2.281524820918701,-1.0163686911212366,0.09415224939584732
1708438195.7215817,-1.105954647064209,-1.6814686260619105,-2.526067558919088,2.2815162378498535,-1.0163820425616663,0.09412407875061035
1708438195.7235928,-1.1059561967849731,-1.681465288201803,-2.5260630289660853,2.281552954311035,-1.0164316336261194,0.09415654838085175
1708438195.72556,-1.1058975458145142,-1.681481500665182,-2.526100460683004,2.281557245845459,-1.0164435545550745,0.0941445454955101
1708438195.7275925,-1.1059353351593018,-1.6815010509886683,-2.5261359850512903,2.2815324503132324,-1.0164182821856897,0.0940428376197815
1708438195.729561,-1.1059428453445435,-1.6814900837340296,-2.526067558919088,2.28156487523999,-1.0163896719561976,0.09411239624023438
1708438195.7315695,-1.1059472560882568,-1.681521554986471,-2.5260987917529505,2.281479521388672,-1.0164645353900355,0.0940479040145874
1708438195.7335665,-1.1059398651123047,-1.6814891300597132,-2.5260868708239954,2.281447573299072,-1.0163863340960901,0.09406014531850815
1708438195.7355633,-1.1059563159942627,-1.6815139255919398,-2.5260704199420374,2.2815281587788085,-1.0164435545550745,0.09406447410583496
1708438195.7375844,-1.1060106754302979,-1.6814609966673792,-2.5260735193835657,2.2815119463154296,-1.0163987318622034,0.0940273255109787
1708438195.7395835,-1.1059637069702148,-1.6814772091307582,-2.526100460683004,2.281513138408325,-1.0164316336261194,0.09401984512805939
1708438195.741553,-1.1059561967849731,-1.6814686260619105,-2.5260542074786585,2.281475468272827,-1.0164225737201136,0.09399914741516113
1708438195.7436068,-1.1059889793395996,-1.681481500665182,-2.5261243025409144,2.2815043169208984,-1.0164092222796839,0.09400792419910431
1708438195.7455559,-1.1059353351593018,-1.6814857921996058,-2.526100222264425,2.2814578252979736,-1.0164507071124476,0.09404902160167694
1708438195.7475517,-1.105993628501892,-1.6814609966673792,-2.5260942617999476,2.281479521388672,-1.0164554754840296,0.09402847290039062
1708438195.749575,-1.1059473752975464,-1.6814524135985316,-2.5260584990130823,2.281479521388672,-1.0164554754840296,0.09401655197143555
1708438195.7516031,-1.1059889793395996,-1.681448598901266,-2.5261574427234095,2.2815205293842773,-1.0164421240436,0.09395565092563629
1708438195.7535758,-1.1059926748275757,-1.6814943752684535,-2.5260942617999476,2.2815162378498535,-1.0164135138141077,0.0939394012093544
1708438195.7555366,-1.105933666229248,-1.6814528904356898,-2.5261152426349085,2.281545563335083,-1.0164716879474085,0.09397294372320175
1708438195.7575796,-1.1059681177139282,-1.6814900837340296,-2.5261650721179407,2.281508608455322,-1.0165002981769007,0.09393613040447235
1708438195.7595577,-1.1059129238128662,-1.6815139255919398,-2.526172463093893,2.2815000253864746,-1.0164793173419397,0.09392315149307251
1708438195.7615695,-1.1059138774871826,-1.6815139255919398,-2.526139561329977,2.281529350871704,-1.0164826552020472,0.09396536648273468
1708438195.7635672,-1.105997085571289,-1.6814567051329554,-2.526135031376974,2.28147999822583,-1.0164702574359339,0.09395670890808105
1708438195.7655625,-1.10597562789917,-1.681493421594137,-2.526196304951803,2.281507654781006,-1.016461197529928,0.09392070770263672
1708438195.7675867,-1.1059517860412598,-1.6814528904356898,-2.5261827150927942,2.2815400797077636,-1.016519848500387,0.0939328670501709
1708438195.7695348,-1.1059637069702148,-1.6815020046629847,-2.5261781851397913,2.28154103338208,-1.0165155569659632,0.09392502158880234
1708438195.771549,-1.10597562789917,-1.6815139255919398,-2.5262487570392054,2.281519575709961,-1.0165184179889124,0.09388934820890427
1708438195.7735524,-1.1059845685958862,-1.6814609966673792,-2.5262354055987757,2.2815779882618408,-1.0164945761310022,0.09390560537576675
1708438195.7755485,-1.105926513671875,-1.681497713128561,-2.5262473265277308,2.2815000253864746,-1.0164855162249964,0.09390560537576675
1708438195.777547,-1.1059772968292236,-1.681448598901266,-2.5262234846698206,2.2814668852039794,-1.0165022055255335,0.09386086463928223
1708438195.7795548,-1.1059561967849731,-1.681481500665182,-2.5262113253222864,2.2815605837055664,-1.0165184179889124,0.09382868558168411
1708438195.7815664,-1.1059637069702148,-1.6815301380553187,-2.5262189547168177,2.2815205293842773,-1.0165289084063929,0.09376729279756546
1708438195.7835526,-1.105954647064209,-1.681481500665182,-2.526238505040304,2.2815162378498535,-1.01654559770693,0.09380125999450684
1708438195.7855716,-1.1059681177139282,-1.6814857921996058,-2.526238266621725,2.2814711767384033,-1.0165703932391565,0.0938132032752037
1708438195.7875714,-1.1059926748275757,-1.6814891300597132,-2.52627140680422,2.2815000253864746,-1.0165694395648401,0.09380124509334564
1708438195.7895396,-1.1058974266052246,-1.6814524135985316,-2.526280466710226,2.281581087703369,-1.0166390577899378,0.09373600780963898
1708438195.7915432,-1.1059428453445435,-1.6815139255919398,-2.526292387639181,2.281536741847656,-1.016634766255514,0.09376093745231628
1708438195.7935805,-1.1059637069702148,-1.681481500665182,-2.526259247456686,2.281573458308838,-1.016646687184469,0.0937521904706955
1708438195.7955353,-1.1059472560882568,-1.6814848385252894,-2.526275936757223,2.2815000253864746,-1.0166099707232874,0.09373242408037186
1708438195.7975745,-1.1059800386428833,-1.681469579736227,-2.52627140680422,2.2814838129230957,-1.0166457335101526,0.09377064555883408
1708438195.79959,-1.1059681177139282,-1.681497713128561,-2.526309076939718,2.281503363246582,-1.0166543165790003,0.09367616474628448
1708438195.8015492,-1.1059428453445435,-1.681493421594137,-2.526287857686178,2.2815119463154296,-1.0166814962970179,0.09367724508047104
1708438195.8035948,-1.106006145477295,-1.681497713128561,-2.526337210332052,2.2815000253864746,-1.0166786352740687,0.09370215237140656
1708438195.805562,-1.1059845685958862,-1.681493421594137,-2.526344601308004,2.281536741847656,-1.016670052205221,0.09365341812372208
1708438195.8075666,-1.1059263944625854,-1.6814567051329554,-2.5263193289386194,2.281507654781006,-1.016670052205221,0.09365773946046829
1708438195.8095417,-1.1059681177139282,-1.6814443073668421,-2.5263477007495325,2.281479521388672,-1.0166938940631312,0.09364984184503555
1708438195.8115752,-1.1059889793395996,-1.681481500665182,-2.5263431707965296,2.2815119463154296,-1.0167186895953577,0.09359212219715118
1708438195.813556,-1.1059845685958862,-1.681448598901266,-2.5263431707965296,2.2815162378498535,-1.01671010652651,0.09359364956617355
1708438195.8155732,-1.1059637069702148,-1.6815020046629847,-2.5263341108905237,2.2815238672443847,-1.0166857878314417,0.0935087502002716
1708438195.8175693,-1.1059801578521729,-1.6814857921996058,-2.526376549397604,2.28156487523999,-1.0167177359210413,0.09357483685016632
1708438195.819559,-1.105959177017212,-1.681481500665182,-2.526400391255514,2.281475229854248,-1.0167015234576624,0.09352612495422363
1708438195.8215837,-1.1059534549713135,-1.681465288201803,-2.526367489491598,2.2815162378498535,-1.0167458693133753,0.09353916347026825
1708438195.8235574,-1.1059608459472656,-1.681509634057516,-2.5263553301440638,2.281561775798462,-1.0167091528521937,0.0934576541185379
1708438195.8255582,-1.106006145477295,-1.6814848385252894,-2.526395861302511,2.2815562921711425,-1.016766373311178,0.09345003962516785
1708438195.8275828,-1.1059398651123047,-1.6815062961974085,-2.526363197957174,2.2814838129230957,-1.0167902151690882,0.09339340776205063
1708438195.8295667,-1.1059490442276,-1.6815010509886683,-2.526391331349508,2.2814957338520507,-1.0168426672564905,0.09339772164821625
1708438195.8315606,-1.1059445142745972,-1.6814891300597132,-2.526391331349508,2.28154103338208,-1.0168588797198694,0.09339892119169235
1708438195.833559,-1.1059064865112305,-1.681542535821432,-2.526412312184469,2.2814625936695556,-1.0168903509723108,0.09339020401239395
1708438195.835599,-1.1059319972991943,-1.681493421594137,-2.5264151732074183,2.2814711767384033,-1.016930882130758,0.09335851669311523
1708438195.8376045,-1.105906367301941,-1.6814891300597132,-2.5264318625079554,2.281569405192993,-1.0169428030597132,0.09337146580219269
1708438195.839555,-1.1059244871139526,-1.681521554986471,-2.5264273325549524,2.2814463812061767,-1.0169170538531702,0.09329891204833984
1708438195.8415625,-1.1058673858642578,-1.6814609966673792,-2.5264483133899134,2.281549854869507,-1.0169809500323694,0.0932791456580162
1708438195.8435361,-1.1058300733566284,-1.681493421594137,-2.5263987223254603,2.2814711767384033,-1.0170343557940882,0.09326291084289551
1708438195.84555,-1.1058465242385864,-1.6815172634520472,-2.5264318625079554,2.281508608455322,-1.0170214811908167,0.09321387857198715
1708438195.8475518,-1.1058390140533447,-1.6815129719176234,-2.5264151732074183,2.2814463812061767,-1.0170419851886194,0.09320306777954102
1708438195.8495398,-1.1058106422424316,-1.6815582714476527,-2.526479784642355,2.2814549642750244,-1.0170734564410608,0.09317922592163086
1708438195.8515782,-1.1057953834533691,-1.6815663776793421,-2.5265007654773157,2.281468077296875,-1.0170930067645472,0.0931389108300209
1708438195.8535435,-1.1057534217834473,-1.681528230706686,-2.5265007654773157,2.281439943904541,-1.0170887152301233,0.09315185248851776
1708438195.8555484,-1.1057058572769165,-1.6816054783263148,-2.526494805012838,2.281472368831299,-1.0171378294574183,0.09307069331407547
1708438195.8575356,-1.1057193279266357,-1.681617876092428,-2.526499334965841,2.281428022975586,-1.0171259085284632,0.09305953979492188
1708438195.85953,-1.1056876182556152,-1.681674142877096,-2.526515785847799,2.281447573299072,-1.0171173254596155,0.09306816756725311
1708438195.8615298,-1.1056921482086182,-1.681685586968893,-2.5265443960772913,2.2814041811176757,-1.0171368757831019,0.09299644827842712
1708438195.8635354,-1.105635404586792,-1.6816684208311976,-2.5265381971942347,2.2814289766499023,-1.0171530882464808,0.09295066446065903
1708438195.8655572,-1.1056252717971802,-1.6817056141295375,-2.5265381971942347,2.2813278871723632,-1.017132584248678,0.09293577820062637
1708438195.8675961,-1.105542540550232,-1.681704660455221,-2.526604477559225,2.2813073831745605,-1.017172638569967,0.09288787096738815
1708438195.8695714,-1.1054778099060059,-1.6817976437010707,-2.526628319417135,2.281280680293701,-1.0172260443316858,0.09280745685100555
1708438195.871588,-1.1054720878601074,-1.6817604504027308,-2.526607338582174,2.281224413509033,-1.0172250906573694,0.09278440475463867
1708438195.873622,-1.1054720878601074,-1.6818253002562464,-2.5266597906695765,2.281191273326538,-1.0172975699054163,0.09273216873407364
1708438195.8755593,-1.1053996086120605,-1.6818982563414515,-2.5266552607165735,2.2811762529560546,-1.0173457304583948,0.09270832687616348
1708438195.877584,-1.1053611040115356,-1.681897302667135,-2.5267213026629847,2.281127615565918,-1.0173490683185022,0.09263545274734497
1708438195.8795676,-1.105262041091919,-1.6819454632201136,-2.5267649332629603,2.2810544210621337,-1.0174015204059046,0.09261239320039749
1708438195.8815773,-1.1052061319351196,-1.6819693050780238,-2.5267015139209192,2.281027241344116,-1.017421070729391,0.09257344156503677
1708438195.883612,-1.1051751375198364,-1.682021280328268,-2.5267766157733362,2.2810770708271484,-1.0174287001239222,0.09250495582818985
1708438195.8855648,-1.1050673723220825,-1.6820813618102015,-2.5267871061908167,2.2809108930775146,-1.0174849669085901,0.09244400262832642
1708438195.8876235,-1.104990839958191,-1.682108541528219,-2.526865307484762,2.280928297633789,-1.0174959341632288,0.09240174293518066
1708438195.8895488,-1.1049063205718994,-1.6821848354735316,-2.5268800894366663,2.2808806139179687,-1.0175731817828577,0.09237005561590195
1708438195.8915544,-1.104799747467041,-1.6822625599303187,-2.5269084612475794,2.2808453279682617,-1.0175517241107386,0.09229759126901627
1708438195.8936183,-1.1046783924102783,-1.6823250255980433,-2.526907269154684,2.280695362682007,-1.0175965468036097,0.09222221374511719
1708438195.895547,-1.1045645475387573,-1.6823488674559535,-2.526926581059591,2.280655546779297,-1.017604176198141,0.0921049416065216
1708438195.8975565,-1.1044584512710571,-1.6824289760985316,-2.526952091847555,2.2806331354328613,-1.0176604429828089,0.09202997386455536
1708438195.899548,-1.1044039726257324,-1.6824804745116175,-2.5269838015185755,2.280454321498535,-1.0177367369281214,0.09199067205190659
1708438195.9015374,-1.1042299270629883,-1.6825081310667933,-2.527109448109762,2.2804242807575683,-1.0177682081805628,0.0918777585029602
1708438195.90354,-1.1040492057800293,-1.6825815639891566,-2.5271080175982874,2.280287190074585,-1.0178487936602991,0.09180249273777008
1708438195.905556,-1.103896975517273,-1.6826697788634242,-2.5271156469928187,2.2801875311085205,-1.0178640524493616,0.09175121784210205
1708438195.907575,-1.10374116897583,-1.6827031574644984,-2.527144257222311,2.2800866800495605,-1.0179403463946741,0.09162646532058716
1708438195.9095666,-1.1035361289978027,-1.6828490696349085,-2.527154509221212,2.2800327974506835,-1.0180490652667444,0.09153804183006287
1708438195.9115443,-1.1033183336257935,-1.6828705273070277,-2.5271921793567103,2.2798964220234375,-1.0180805365191858,0.0914064347743988
1708438195.9135642,-1.1032150983810425,-1.6829801998534144,-2.5272565523730677,2.279751701945923,-1.0181077162372034,0.09134700149297714
1708438195.9155805,-1.102952480316162,-1.6830927334227503,-2.527276341115133,2.2796315389820556,-1.018151585255758,0.09123482555150986
1708438195.917589,-1.1027512550354004,-1.6831394634642542,-2.5273314158069056,2.279507561320923,-1.0182679335223597,0.09114754945039749
1708438195.9196079,-1.1024868488311768,-1.6832391224303187,-2.5273526350604456,2.279350920314453,-1.0182951132403772,0.09105635434389114
1708438195.9215925,-1.102280855178833,-1.6833626232542933,-2.5274365584002894,2.2792650896259765,-1.018367115651266,0.090899758040905
1708438195.9235895,-1.1019989252090454,-1.683446546594137,-2.5275052229510706,2.2790352541157226,-1.0184639135943812,0.09079664945602417
1708438195.9255733,-1.1017767190933228,-1.6835552654662074,-2.5275006929980677,2.2788631159016113,-1.018543545399801,0.09058365970849991
1708438195.9275978,-1.101487398147583,-1.6836916408934535,-2.5275803248034876,2.2786750036427,-1.0186155478106897,0.09051739424467087
1708438195.929606,-1.101190447807312,-1.6837450466551722,-2.527623955403463,2.2785681921192626,-1.0186827818499964,0.09039442241191864
1708438195.9315996,-1.100947618484497,-1.683974405328268,-2.5276525656329554,2.278360052699707,-1.0186894575702112,0.09021837264299393
1708438195.9335809,-1.1007015705108643,-1.684061666528219,-2.5277121702777308,2.2781924444385986,-1.0188072363482874,0.0901322141289711
1708438195.9356122,-1.1003223657608032,-1.684181352654928,-2.5277887026416224,2.2779595094868164,-1.0188863913165491,0.08992338925600052
1708438195.9375982,-1.0999804735183716,-1.6843420467772425,-2.527849022542135,2.277752323741577,-1.0189626852618616,0.08981260657310486
1708438195.9395993,-1.099714994430542,-1.684469839135641,-2.52789551416506,2.2775038915821533,-1.019067112599508,0.08964064717292786
1708438195.9415698,-1.099402666091919,-1.6846333942809046,-2.52794319788088,2.2773002821156005,-1.0191791693316858,0.08946429193019867
1708438195.943587,-1.099029541015625,-1.6848169765868128,-2.52805740038027,2.277015371913574,-1.0192459265338343,0.08931364119052887
1708438195.9455492,-1.098719596862793,-1.6849757633604945,-2.528116051350729,2.276787443751953,-1.019346062337057,0.08912193030118942
1708438195.9475799,-1.0983021259307861,-1.6851688824095667,-2.528201405202047,2.2765368658253173,-1.019433323537008,0.08892099559307098
1708438195.9495497,-1.0979511737823486,-1.6852785549559535,-2.528252188359396,2.276275797481201,-1.019557301198141,0.08875802159309387
1708438195.9515462,-1.0975412130355835,-1.6855603657164515,-2.528343741093771,2.2760252195545654,-1.01967698732485,0.08858705312013626
1708438195.9535892,-1.0971752405166626,-1.6856419048705042,-2.5284653345691126,2.2757085996815185,-1.0198381582843226,0.08839161694049835
1708438195.955545,-1.09674870967865,-1.685885568658346,-2.5285401980029505,2.2754248815723876,-1.0199297110186976,0.08824120461940765
1708438195.9575453,-1.0963174104690552,-1.6861831150450648,-2.528609100972311,2.2750436502644042,-1.0200570265399378,0.08801735192537308
1708438195.9595628,-1.0958808660507202,-1.6863905392088832,-2.528729025517599,2.2748259741016845,-1.020172421132223,0.08783770352602005
1708438195.9615352,-1.095425009727478,-1.6865931950011195,-2.528804127370016,2.274413748378418,-1.0203774611102503,0.08755709230899811
1708438195.9635963,-1.09492826461792,-1.6868664226927699,-2.528907601033346,2.2740036684223632,-1.0205243269549769,0.08738767355680466
1708438195.965659,-1.0944087505340576,-1.6871620617308558,-2.5290709177600306,2.273664637202881,-1.0206564108477991,0.08711035549640656
1708438195.9675992,-1.093928337097168,-1.6873852215208949,-2.529099766408102,2.2733334737965087,-1.0208118597613733,0.08688434958457947
1708438195.9695995,-1.0933750867843628,-1.6875912151732386,-2.5292163530932825,2.2729496198841552,-1.02094012895693,0.08663271367549896
1708438195.9716115,-1.0929107666015625,-1.6878859005370082,-2.529315773640768,2.272646351451538,-1.0210149923907679,0.08638035506010056
1708438195.9735918,-1.0923378467559814,-1.6881171665587367,-2.529430929814474,2.272164984340332,-1.0211823622332972,0.08617068827152252
1708438195.9756107,-1.091679573059082,-1.6884986362852992,-2.529621426259176,2.2718705373951416,-1.0213621298419397,0.08585416525602341
1708438195.9775722,-1.091105341911316,-1.6887809238829554,-2.5298283735858362,2.271475239390991,-1.02155048051943,0.08558974415063858
1708438195.9795606,-1.090406894683838,-1.6891175709166468,-2.5298972765551966,2.2709943491169433,-1.0217388311969202,0.08535168319940567
1708438195.981601,-1.089816927909851,-1.689404150048727,-2.5300219694720667,2.270603581065796,-1.021954361592428,0.08507680147886276
1708438195.9835553,-1.0891127586364746,-1.6897598705687464,-2.5301206747638147,2.270045443172119,-1.0220573584186,0.084740549325943
1708438195.9855626,-1.0884698629379272,-1.6900655231871546,-2.53025728860964,2.2696475225635986,-1.022285286580221,0.08445791155099869
1708438195.9875634,-1.0877554416656494,-1.6904064617552699,-2.5303967634784144,2.269148989314697,-1.0224855581866663,0.08415147662162781
1708438195.9895432,-1.0870333909988403,-1.6907860241331996,-2.5305827299701136,2.268749876613281,-1.0226848761187952,0.08388057351112366
1708438195.9915454,-1.0863656997680664,-1.6910754642882289,-2.530680481587545,2.268263502711914,-1.0228970686541956,0.0835782140493393
1708438195.993535,-1.0855765342712402,-1.6915041408934535,-2.5308406988727015,2.267620010966919,-1.0231125990497034,0.08322682976722717
1708438195.995528,-1.0848032236099243,-1.6918875179686488,-2.531001154576437,2.2671543794819335,-1.0233681837665003,0.08291425555944443
1708438195.9975648,-1.084003210067749,-1.692266126672262,-2.531145159398214,2.2665578561970214,-1.023628060017721,0.08250213414430618
1708438195.9995255,-1.0831931829452515,-1.6926208935179652,-2.531365458165304,2.2660109239765625,-1.0238507429706019,0.08210284262895584
1708438196.001539,-1.0823675394058228,-1.6930409870543421,-2.5315049330340784,2.2654477792927246,-1.024109188710348,0.08174187690019608
1708438196.003539,-1.0815786123275757,-1.6935087643065394,-2.531698528920309,2.2648185926624755,-1.024431053792135,0.08143199980258942
1708438196.005526,-1.080710530281067,-1.6939684353270472,-2.5318530241595667,2.2641939359852294,-1.024621311818258,0.08107572793960571
1708438196.0075245,-1.0797741413116455,-1.694383283654684,-2.5320971647845667,2.263627453441284,-1.0249221960650843,0.08067148923873901
1708438196.0095372,-1.078883409500122,-1.6948138676085414,-2.532236639653341,2.262967033977173,-1.0251110235797327,0.08034001290798187
1708438196.011532,-1.077921986579895,-1.6951900921263636,-2.532470766698019,2.2623724180408935,-1.0254119078265589,0.07991155236959457
1708438196.0135484,-1.0769826173782349,-1.6957241497435511,-2.5326507727252405,2.2617243963428955,-1.0256379286395472,0.07948434352874756
1708438196.0155573,-1.0760059356689453,-1.6961451969542445,-2.532844130192892,2.261077805156372,-1.0258978048907679,0.07909209281206131
1708438196.0175843,-1.0750144720077515,-1.6966048679747523,-2.533058468495504,2.2603558736988525,-1.0261452833758753,0.07866954803466797
1708438196.0196307,-1.0740505456924438,-1.697193285027975,-2.5332730452166956,2.259652777309082,-1.0264371077166956,0.07821276783943176
1708438196.021645,-1.0729893445968628,-1.6976796589293421,-2.5334695021258753,2.2589239317127685,-1.0266884008990687,0.07781369239091873
1708438196.023543,-1.071889042854309,-1.6982432804503382,-2.5337467829333704,2.258237763042114,-1.0270498434649866,0.07737322896718979
1708438196.0255783,-1.070870041847229,-1.6987782917418421,-2.5339584986316126,2.2575058180042724,-1.0273163954364222,0.07692546397447586
1708438196.0275512,-1.0697883367538452,-1.699308534661764,-2.5342028776751917,2.2567097383686523,-1.0276559034930628,0.07645437121391296
1708438196.0295846,-1.068652868270874,-1.6998101673521937,-2.534416977559225,2.2559732633778076,-1.0280097166644495,0.07601067423820496
1708438196.031639,-1.0675829648971558,-1.7004176578917445,-2.534649674092428,2.2551488119312744,-1.0283024946795862,0.07552766054868698
1708438196.033563,-1.066415786743164,-1.700968404809469,-2.534916702901022,2.2544142442890625,-1.0286982695208948,0.07507643848657608
1708438196.0355916,-1.0653066635131836,-1.7015592060484828,-2.5351653734790247,2.253530426616333,-1.0290182272540491,0.07457195967435837
1708438196.0375524,-1.0641001462936401,-1.7021781406798304,-2.535405222569601,2.252767487163208,-1.0293539206134241,0.07405503839254379
1708438196.0395534,-1.0629339218139648,-1.70280184368276,-2.5356951395617884,2.2518998819538574,-1.0297091642962855,0.07359729707241058
1708438196.0415626,-1.0617003440856934,-1.7033711872496546,-2.5359421412097376,2.25100223600354,-1.0301697889911097,0.07302892953157425
1708438196.0435479,-1.0605096817016602,-1.7039767704405726,-2.536236588154928,2.2501107889362792,-1.030510727559225,0.07251682877540588
1708438196.0455618,-1.0592092275619507,-1.7045828304686488,-2.536471668873922,2.249230309123657,-1.0308588186847132,0.07205794006586075
1708438196.0475507,-1.0579464435577393,-1.7052537403502406,-2.5366843382464808,2.248267813319824,-1.031304661427633,0.07151512056589127
1708438196.049579,-1.0566943883895874,-1.7059041462340296,-2.537035051976339,2.247405453319214,-1.0316746870623987,0.07096410542726517
1708438196.0515661,-1.0553985834121704,-1.706555028954977,-2.537302557622091,2.246414824123047,-1.0321686903582972,0.07035931944847107
1708438196.053555,-1.0540432929992676,-1.707254549066061,-2.5376036802874964,2.2456018167683105,-1.0325291792498987,0.0698687732219696
1708438196.0555665,-1.0527254343032837,-1.7079745731749476,-2.5379229227649134,2.244650049800537,-1.0329888502704065,0.06930452585220337
1708438196.0575488,-1.051413893699646,-1.7086049518980921,-2.538168970738546,2.2437092500874023,-1.033436123524801,0.06868389993906021
1708438196.059607,-1.0500361919403076,-1.709271093408102,-2.5384612719165247,2.2427138525196533,-1.033811394368307,0.0681656002998352
1708438196.0615683,-1.0486259460449219,-1.7100030384459437,-2.5387449900256556,2.241748018855713,-1.0342090765582483,0.06753994524478912
1708438196.063558,-1.0471071004867554,-1.7106887302794398,-2.539107863103048,2.2406949239918212,-1.0347092787372034,0.06701560318470001
1708438196.0655935,-1.0456687211990356,-1.7114387951292933,-2.53934890428652,2.2397278982349853,-1.0351827780352991,0.06640710681676865
1708438196.0676143,-1.0441930294036865,-1.7122374973692835,-2.53973895708193,2.2386771875568847,-1.035607639943258,0.06582840532064438
1708438196.0695674,-1.0427745580673218,-1.7129436932005824,-2.540053908024923,2.2377044397541503,-1.0360587278949183,0.06517129391431808
1708438196.0715957,-1.0412523746490479,-1.7136560879149378,-2.540399138127462,2.236706419582031,-1.0365341345416468,0.06456468999385834
1708438196.0735686,-1.0397967100143433,-1.7144562206664027,-2.5407303015338343,2.2356454569050292,-1.0369771162616175,0.063949353992939
1708438196.0755537,-1.0382474660873413,-1.7152334652342738,-2.5410543123828333,2.2345380026051025,-1.0374987761126917,0.06328229606151581
1708438196.0775828,-1.0366109609603882,-1.7159949741759242,-2.5414441267596644,2.233494921321533,-1.0379331747638147,0.06270662695169449
1708438196.0795908,-1.035062313079834,-1.71679749111318,-2.5417707602130335,2.2323824602314453,-1.038452450429098,0.06206827610731125
1708438196.0816057,-1.03343665599823,-1.7176128826537074,-2.542133871709005,2.231255217189453,-1.0389178434955042,0.06138349696993828
1708438196.0835726,-1.031836748123169,-1.7183424435057582,-2.542480770741598,2.2300960260578613,-1.0394123236285608,0.06072448566555977
1708438196.0856066,-1.0302282571792603,-1.7192183933653773,-2.5428629557238978,2.22907464086499,-1.0399168173419397,0.0600481778383255
1708438196.087599,-1.0285345315933228,-1.7199703655638636,-2.5432844797717493,2.22787253438916,-1.0404451529132288,0.0594429187476635
1708438196.0895627,-1.026848316192627,-1.7208401165404261,-2.543609682713644,2.2266978460499267,-1.0410292784320276,0.05873379856348038
1708438196.0915303,-1.0250954627990723,-1.7216907940306605,-2.54401141801943,2.225541515941284,-1.0415142218219202,0.05800943076610565
1708438196.0935786,-1.0233891010284424,-1.7225896320738734,-2.5444400946246546,2.2243174749561767,-1.0421279112445276,0.05731068179011345
1708438196.0955474,-1.0217044353485107,-1.7234064541258753,-2.5447941462146204,2.2230898576923828,-1.0426448027240198,0.05658084526658058
1708438196.097574,-1.0199161767959595,-1.7242680988707484,-2.5451768080340784,2.221918984050415,-1.04321796098818,0.055870577692985535
1708438196.099541,-1.0182255506515503,-1.7251893482603968,-2.5456553141223353,2.220719738597534,-1.0437715689288538,0.05513554438948631
1708438196.101535,-1.0163573026657104,-1.7260323963561,-2.546079699193136,2.2194859224506835,-1.0443256537066858,0.05443394184112549
1708438196.1035757,-1.0145509243011475,-1.726995130578512,-2.54651123682131,2.2182256418415527,-1.0449050108539026,0.05361904203891754
1708438196.1055534,-1.0127092599868774,-1.7278806171812953,-2.546948258076803,2.2168654638477783,-1.0455291906939905,0.05287648364901543
1708438196.107564,-1.0108369588851929,-1.728737016717428,-2.547412697468893,2.2155961233326416,-1.0461118857013147,0.0521429069340229
1708438196.1095624,-1.0089504718780518,-1.7298103771605433,-2.547851864491598,2.2143167692371826,-1.046746555958883,0.05132967233657837
