Eg3-git/Classifiers/Data Collection/u6/u6xyz4_ur3e_joint_states.csv
time,elbow_joint,shoulder_lift_joint,shoulder_pan_joint,wrist_1_joint,wrist_2_joint,wrist_3_joint
1708438252.1218593,-1.1130094528198242,-1.6776014767088832,-2.5262606779681605,2.288890524501465,-1.016454044972555,0.1066349446773529
1708438252.1238892,-1.1130051612854004,-1.677547117272848,-2.5262354055987757,2.288919611568115,-1.0164673964129847,0.10670042783021927
1708438252.1258855,-1.1130213737487793,-1.677580019036764,-2.5262158552752894,2.2889434534260253,-1.0164421240436,0.10667228698730469
1708438252.127894,-1.1129801273345947,-1.677580019036764,-2.5262308756457728,2.2889608579822998,-1.016461197529928,0.10666343569755554
1708438252.1298583,-1.1130008697509766,-1.6776086292662562,-2.5262442270862024,2.288890524501465,-1.0164745489703577,0.10669343173503876
1708438252.131881,-1.1129800081253052,-1.6775280437865199,-2.526203457509176,2.2889467912861328,-1.0164626280414026,0.10664400458335876
1708438252.1338885,-1.1130170822143555,-1.6775280437865199,-2.5262067953692835,2.2889877992817382,-1.0164945761310022,0.10658114403486252
1708438252.1358638,-1.1130340099334717,-1.6776024303831996,-2.5261979738818567,2.2889348703571777,-1.016531769429342,0.10668899118900299
1708438252.1378775,-1.1130502223968506,-1.6775247059264125,-2.5262308756457728,2.2889553743549804,-1.016433064137594,0.10668119788169861
1708438252.1398797,-1.113025188446045,-1.6775876484312953,-2.5262067953692835,2.2888893324085693,-1.016540829335348,0.10662762820720673
1708438252.1418698,-1.113037109375,-1.6775580845274867,-2.5261946360217493,2.2889877992817382,-1.0164302031146448,0.10663207620382309
1708438252.1438875,-1.1130326986312866,-1.6775380573668421,-2.5261738936053675,2.288954182262085,-1.01646596590151,0.10662318766117096
1708438252.1458697,-1.113065242767334,-1.6775042019286097,-2.5261946360217493,2.2889749246784667,-1.0164902845965784,0.10661869496107101
1708438252.1478994,-1.113077163696289,-1.6775289974608363,-2.5261858145343226,2.2890493112751464,-1.0164583365069788,0.10661537200212479
1708438252.149866,-1.1130284070968628,-1.67753328899526,-2.5262354055987757,2.289003534907959,-1.016486946736471,0.10664398968219757
1708438252.1518571,-1.113093376159668,-1.6775504551329554,-2.526219193135397,2.2889949518391113,-1.016461197529928,0.10662760585546494
1708438252.1539013,-1.113049030303955,-1.6775366268553675,-2.5262323061572474,2.2889949518391113,-1.016486946736471,0.10664103925228119
1708438252.1559105,-1.113081455230713,-1.6775175533690394,-2.5262280146228235,2.289027376765869,-1.0164783636676233,0.10662436485290527
1708438252.157885,-1.1130977869033813,-1.6775266132750453,-2.5262487570392054,2.289055510158203,-1.01646596590151,0.10665746033191681
1708438252.1598475,-1.1130728721618652,-1.6774975262083949,-2.5261457602130335,2.289067431087158,-1.016491715108053,0.10664846003055573
1708438252.1618574,-1.113049030303955,-1.677542348901266,-2.5262067953692835,2.289088650340698,-1.0164783636676233,0.10663207620382309
1708438252.1638544,-1.113077163696289,-1.6775008640685023,-2.526214663182394,2.2890469270893554,-1.0164826552020472,0.10662879794836044
1708438252.1658685,-1.1130565404891968,-1.6774918041624964,-2.5261991659747522,2.289078875178955,-1.0164569059955042,0.10658714920282364
1708438252.1678538,-1.113064169883728,-1.677488466302389,-2.5261917749988,2.2890962797352294,-1.0164583365069788,0.10663957893848419
1708438252.1698554,-1.1131216287612915,-1.6775175533690394,-2.5262067953692835,2.2891124921986084,-1.016449276600973,0.10661248117685318
1708438252.1718585,-1.1130684614181519,-1.677493234673971,-2.5262606779681605,2.2890800672718505,-1.01646596590151,0.10659895837306976
1708438252.173866,-1.1131172180175781,-1.677493234673971,-2.5262280146228235,2.28904573499646,-1.0164836088763636,0.10663207620382309
1708438252.1758735,-1.1131010055541992,-1.6775266132750453,-2.526210133229391,2.2890145021625976,-1.016503636037008,0.10665291547775269
1708438252.1779711,-1.1130967140197754,-1.6774560413756312,-2.526219193135397,2.289071245784424,-1.016433064137594,0.10660797357559204
1708438252.1799333,-1.1131010055541992,-1.6774631939330042,-2.5261903444873255,2.2890919882008056,-1.0164702574359339,0.10664550960063934
1708438252.181899,-1.1131216287612915,-1.677493234673971,-2.5262442270862024,2.2890307146259765,-1.0164826552020472,0.10661984235048294
1708438252.1839173,-1.1131172180175781,-1.6775380573668421,-2.5262234846698206,2.2890631395527343,-1.0164583365069788,0.10659607499837875
1708438252.1858978,-1.113105297088623,-1.6774441204466761,-2.5262518564807337,2.289033814067505,-1.0164583365069788,0.1066618412733078
1708438252.1878994,-1.1131210327148438,-1.677493234673971,-2.5261991659747522,2.289055510158203,-1.016519848500387,0.10658558458089828
1708438252.1898756,-1.1131460666656494,-1.677469392816061,-2.5262158552752894,2.28904573499646,-1.016486946736471,0.1066124439239502
1708438252.1918643,-1.1130967140197754,-1.6775051556029261,-2.526253048573629,2.2890757757374267,-1.0164702574359339,0.1066153421998024
1708438252.1940355,-1.1130890846252441,-1.6774517498412074,-2.5261979738818567,2.289033814067505,-1.0164745489703577,0.10662884265184402
1708438252.1958659,-1.1131210327148438,-1.677481313745016,-2.5262561480151575,2.2890757757374267,-1.0164960066424769,0.10659898072481155
1708438252.1978645,-1.1130597591400146,-1.6774360142149867,-2.5262067953692835,2.2890588480183105,-1.016461197529928,0.10661090910434723
1708438252.1998842,-1.1131384372711182,-1.6774770222105921,-2.5262234846698206,2.289071245784424,-1.016449276600973,0.10658860206604004
1708438252.2018871,-1.1131129264831543,-1.677488466302389,-2.5262234846698206,2.2890588480183105,-1.0164960066424769,0.10661982744932175
1708438252.203944,-1.1131341457366943,-1.6774841747679652,-2.5261991659747522,2.2890218931385498,-1.016454044972555,0.10662437230348587
1708438252.20593,-1.113080382347107,-1.677488466302389,-2.5261903444873255,2.2890218931385498,-1.0164702574359339,0.10656183212995529
1708438252.2078724,-1.1131083965301514,-1.677493234673971,-2.5262158552752894,2.289071245784424,-1.0164745489703577,0.1066034585237503
1708438252.209913,-1.113080382347107,-1.677535196343893,-2.5262234846698206,2.2890874582478027,-1.016433064137594,0.10658709704875946
1708438252.2118955,-1.1130847930908203,-1.6774770222105921,-2.5262067953692835,2.28906695425,-1.0164702574359339,0.10661982744932175
1708438252.213872,-1.1131341457366943,-1.6774975262083949,-2.5262067953692835,2.2891294199177246,-1.0165122191058558,0.10662881284952164
1708438252.2159264,-1.1131298542022705,-1.677488466302389,-2.526203457509176,2.2890264230915527,-1.0164783636676233,0.10660497099161148
1708438252.2178729,-1.1131253242492676,-1.6774975262083949,-2.5262368361102503,2.2890800672718505,-1.0164826552020472,0.10661689192056656
1708438252.2199156,-1.1131372451782227,-1.6775757275023402,-2.5261991659747522,2.2890543180653076,-1.0164783636676233,0.1066124439239502
1708438252.2218666,-1.113157868385315,-1.6775666675963343,-2.5261991659747522,2.289078875178955,-1.0165107885943812,0.106633260846138
1708438252.2238576,-1.1131534576416016,-1.6775666675963343,-2.526187245045797,2.2890800672718505,-1.0165155569659632,0.10656745731830597
1708438252.2258623,-1.1131372451782227,-1.6774918041624964,-2.5262113253222864,2.2890631395527343,-1.0165064970599573,0.1066124439239502
1708438252.2278917,-1.113157868385315,-1.6775247059264125,-2.5261858145343226,2.2890874582478027,-1.0164735952960413,0.1066124439239502
1708438252.2299001,-1.1131372451782227,-1.6775175533690394,-2.5261991659747522,2.2891294199177246,-1.016503636037008,0.10660052299499512
1708438252.231875,-1.1131097078323364,-1.6775199375548304,-2.5262487570392054,2.2890631395527343,-1.0164902845965784,0.10658415406942368
1708438252.2338808,-1.11316978931427,-1.6775099239745082,-2.5262113253222864,2.2890218931385498,-1.0164902845965784,0.1066124439239502
1708438252.2358983,-1.1131166219711304,-1.6775742969908656,-2.5261576811419886,2.2890800672718505,-1.016536060963766,0.10657525062561035
1708438252.237899,-1.1131253242492676,-1.6775132618346156,-2.526220146809713,2.2890350061604003,-1.016503636037008,0.10659607499837875
1708438252.239907,-1.1130955219268799,-1.6775175533690394,-2.5262234846698206,2.289071245784424,-1.016503636037008,0.10660802572965622
1708438252.2418597,-1.1131415367126465,-1.6775247059264125,-2.5261991659747522,2.2890800672718505,-1.0164745489703577,0.10660797357559204
1708438252.2438579,-1.1131041049957275,-1.677460332910055,-2.5262561480151575,2.2891005712696533,-1.016507927571432,0.10664545744657516
1708438252.2458804,-1.1131503582000732,-1.6774975262083949,-2.5262277762042444,2.28906695425,-1.016498867665426,0.10662586987018585
1708438252.2478654,-1.1130921840667725,-1.6775218449034632,-2.5261903444873255,2.289071245784424,-1.0164373556720179,0.10657526552677155
1708438252.2499003,-1.1131253242492676,-1.6775051556029261,-2.5261946360217493,2.2890800672718505,-1.0164826552020472,0.10656628012657166
1708438252.2518406,-1.1131298542022705,-1.6774960956969203,-2.5261533896075647,2.2891082006641845,-1.0164421240436,0.10659607499837875
1708438252.2538643,-1.1131384372711182,-1.6775008640685023,-2.526175324116842,2.2890757757374267,-1.016507927571432,0.1065511405467987
1708438252.2559083,-1.1130847930908203,-1.6775099239745082,-2.526203457509176,2.2890500265308837,-1.016454044972555,0.10656628012657166
1708438252.2578902,-1.1131298542022705,-1.6775266132750453,-2.5262158552752894,2.2890469270893554,-1.016449276600973,0.10666626691818237
1708438252.2598543,-1.1130684614181519,-1.6775051556029261,-2.526253048573629,2.2890962797352294,-1.0164569059955042,0.10662882775068283
1708438252.2618642,-1.1130716800689697,-1.6775132618346156,-2.5261784235583704,2.289092941875122,-1.0164449850665491,0.10660497099161148
1708438252.2638617,-1.1130921840667725,-1.6775247059264125,-2.5261829535113733,2.2890800672718505,-1.016461197529928,0.10661537945270538
1708438252.265859,-1.1131129264831543,-1.6775456867613734,-2.5262442270862024,2.2890469270893554,-1.0164778868304651,0.10659904032945633
1708438252.2678838,-1.1130967140197754,-1.6774875126280726,-2.526187245045797,2.2890381056019287,-1.0164449850665491,0.10659162700176239
1708438252.269854,-1.113157868385315,-1.677530904809469,-2.5261979738818567,2.289078875178955,-1.016498867665426,0.10662435740232468
1708438252.271849,-1.1131010055541992,-1.6775099239745082,-2.526187245045797,2.2890145021625976,-1.016531769429342,0.10661248117685318
1708438252.2738636,-1.113064169883728,-1.6774679623045863,-2.526219193135397,2.289076014156006,-1.016519848500387,0.1065916046500206
1708438252.2758458,-1.1131041049957275,-1.6775218449034632,-2.5262067953692835,2.289067431087158,-1.0164855162249964,0.1066124439239502
1708438252.2779124,-1.1130759716033936,-1.67753328899526,-2.5261946360217493,2.2890307146259765,-1.01646596590151,0.10659607499837875
1708438252.2799313,-1.113105297088623,-1.6775380573668421,-2.5261665026294153,2.289010210628174,-1.0165274778949183,0.10665445029735565
1708438252.2818618,-1.1131010055541992,-1.6774589023985804,-2.526231114064352,2.2890145021625976,-1.01646596590151,0.10658860206604004
1708438252.2838676,-1.1131216287612915,-1.6775380573668421,-2.5261829535113733,2.2890187936970214,-1.0165022055255335,0.10656749457120895
1708438252.2858646,-1.1130609512329102,-1.6774975262083949,-2.5261991659747522,2.289055510158203,-1.0164702574359339,0.10662436485290527
1708438252.287884,-1.113121509552002,-1.677559038201803,-2.5261622110949915,2.2890843588062744,-1.0165107885943812,0.10659166425466537
1708438252.2898655,-1.1130479574203491,-1.6775175533690394,-2.5261650721179407,2.2890350061604003,-1.016568962727682,0.10658417642116547
1708438252.2918818,-1.1131010055541992,-1.6774841747679652,-2.5262487570392054,2.2890145021625976,-1.0165155569659632,0.10659606754779816
1708438252.2938583,-1.113105297088623,-1.6775413952269496,-2.5261784235583704,2.2890359598347167,-1.0164693037616175,0.10665282607078552
1708438252.2958436,-1.1131097078323364,-1.67753328899526,-2.5262113253222864,2.2890068727680664,-1.0165107885943812,0.10659608989953995
1708438252.297875,-1.1130684614181519,-1.6775547466673792,-2.5262368361102503,2.2890187936970214,-1.0165393988238733,0.10660800337791443
1708438252.2998781,-1.1130967140197754,-1.6775490246214808,-2.5262067953692835,2.289059801692627,-1.0164449850665491,0.10657526552677155
1708438252.301882,-1.1130890846252441,-1.6775289974608363,-2.5261991659747522,2.2890025812336425,-1.0164735952960413,0.1066332757472992
1708438252.3039172,-1.1130728721618652,-1.6775099239745082,-2.5261784235583704,2.2889744478413085,-1.0164945761310022,0.10658861696720123
1708438252.3059149,-1.1130890846252441,-1.6774841747679652,-2.526187245045797,2.289043589229248,-1.0164826552020472,0.10662132501602173
1708438252.3078744,-1.1130728721618652,-1.67753328899526,-2.5261829535113733,2.289015455836914,-1.016498867665426,0.1066499799489975
1708438252.309854,-1.113049030303955,-1.6775132618346156,-2.526187245045797,2.28896610319104,-1.0165107885943812,0.10660950839519501
1708438252.311864,-1.1130890846252441,-1.6775366268553675,-2.526196066533224,2.2890350061604003,-1.0164855162249964,0.10658417642116547
1708438252.313866,-1.1130207777023315,-1.6775084934630335,-2.526253048573629,2.289047880763672,-1.0164735952960413,0.10658860206604004
1708438252.3158588,-1.113037109375,-1.6775366268553675,-2.526220146809713,2.288954182262085,-1.0164855162249964,0.10660052299499512
1708438252.3178594,-1.1130609512329102,-1.6775266132750453,-2.5262323061572474,2.2890230852314453,-1.016519848500387,0.106612429022789
1708438252.3198428,-1.1130082607269287,-1.6775623760619105,-2.5262234846698206,2.2890285688587646,-1.0164569059955042,0.10659606754779816
1708438252.3218517,-1.1130695343017578,-1.6775084934630335,-2.5261784235583704,2.288933678264282,-1.0164945761310022,0.10661094635725021
1708438252.3238637,-1.113053321838379,-1.6774827442564906,-2.5262280146228235,2.288877411479614,-1.016498867665426,0.10663207620382309
1708438252.3258753,-1.1130082607269287,-1.6775132618346156,-2.5262113253222864,2.2889348703571777,-1.0165022055255335,0.10657970607280731
1708438252.3279028,-1.1130207777023315,-1.6775366268553675,-2.5262280146228235,2.288893623942993,-1.016531769429342,0.10661689192056656
1708438252.3298733,-1.113066554069519,-1.6775247059264125,-2.5262158552752894,2.2889033991047363,-1.0164902845965784,0.10659901797771454
1708438252.331854,-1.1130008697509766,-1.6775652370848597,-2.5262158552752894,2.2889315324970703,-1.016519848500387,0.10655403137207031
1708438252.3338878,-1.1130470037460327,-1.6775742969908656,-2.5261946360217493,2.288879080409668,-1.016498867665426,0.10663770139217377
1708438252.33587,-1.1130125522613525,-1.6775042019286097,-2.5262487570392054,2.288900299663208,-1.0164702574359339,0.1066528931260109
1708438252.3378627,-1.1130383014678955,-1.6775742969908656,-2.526219193135397,2.2888216215321044,-1.0164569059955042,0.10661247372627258
1708438252.3398993,-1.1130545139312744,-1.677499910394186,-2.5262158552752894,2.288822813625,-1.0164702574359339,0.10659162700176239
1708438252.3418615,-1.1130425930023193,-1.6775905094542445,-2.5261946360217493,2.2888142305561523,-1.0164945761310022,0.10662877559661865
1708438252.343906,-1.1130125522613525,-1.6775175533690394,-2.5261829535113733,2.28884665548291,-1.016503636037008,0.10664843767881393
1708438252.3458953,-1.1130051612854004,-1.6775456867613734,-2.5262323061572474,2.2888876634785156,-1.0165107885943812,0.10667382180690765
1708438252.3478773,-1.1129639148712158,-1.6775371036925257,-2.5262234846698206,2.288830443019531,-1.016519848500387,0.1065916121006012
1708438252.3498697,-1.1129932403564453,-1.6775652370848597,-2.5261784235583704,2.2888313966938476,-1.0164902845965784,0.10666481405496597
1708438252.3518827,-1.1129889488220215,-1.6775862179198207,-2.5261741320239466,2.2888476091572265,-1.0164902845965784,0.10665743052959442
1708438252.3538923,-1.1129770278930664,-1.6775833568968714,-2.5261665026294153,2.2888433176228027,-1.016564671193258,0.10663650929927826
1708438252.3558807,-1.112985610961914,-1.6775442562498988,-2.5261784235583704,2.2888519006916503,-1.016498867665426,0.10662761330604553
1708438252.3578722,-1.1129693984985352,-1.6776114902892054,-2.526187245045797,2.2888519006916503,-1.016547981892721,0.10663656145334244
1708438252.3598685,-1.1129531860351562,-1.6775323353209437,-2.5261903444873255,2.2887701231190185,-1.0164769331561487,0.1066034585237503
1708438252.3618567,-1.112932562828064,-1.6776024303831996,-2.5261917749988,2.288806601161621,-1.0165513197528284,0.1066395491361618
1708438252.363871,-1.1129080057144165,-1.6775580845274867,-2.5262067953692835,2.28876702367749,-1.0164693037616175,0.10661984980106354
1708438252.365843,-1.1129693984985352,-1.6776148281493128,-2.5261738936053675,2.2888237672993164,-1.0164526144610804,0.10662881284952164
1708438252.367882,-1.1129212379455566,-1.6775890789427699,-2.5261381308185022,2.288803740138672,-1.0164974371539515,0.10666036605834961
1708438252.3699188,-1.1129707098007202,-1.6776305637755335,-2.526220146809713,2.288771315211914,-1.0164693037616175,0.10665743052959442
1708438252.3718748,-1.1129169464111328,-1.6775623760619105,-2.526220146809713,2.2887465196796875,-1.016531769429342,0.10666036605834961
1708438252.373867,-1.1129299402236938,-1.6775771580138148,-2.5261576811419886,2.288747473354004,-1.0165184179889124,0.10666478425264359
1708438252.3758657,-1.1128844022750854,-1.6775723896422328,-2.5261829535113733,2.288747473354004,-1.0164945761310022,0.10662762820720673
1708438252.3779109,-1.1128973960876465,-1.6776038608946742,-2.5261946360217493,2.2887226778217773,-1.0165155569659632,0.10667674243450165
1708438252.3799453,-1.1128767728805542,-1.6776343784727992,-2.526187245045797,2.288715048427246,-1.0164855162249964,0.10663652420043945
1708438252.3818798,-1.1129136085510254,-1.6776172123351039,-2.5261991659747522,2.2887517648884277,-1.0164569059955042,0.10661537945270538
1708438252.3839068,-1.1129060983657837,-1.6776534519591273,-2.5262280146228235,2.2887279230305175,-1.0165155569659632,0.10667379200458527
1708438252.3859181,-1.1128811836242676,-1.6776238880553187,-2.526187245045797,2.288677616710327,-1.016503636037008,0.10666926205158234
1708438252.387902,-1.1128778457641602,-1.6776863537230433,-2.5261545817004603,2.2887517648884277,-1.016498867665426,0.10669787228107452
1708438252.389891,-1.1128661632537842,-1.6776944599547328,-2.526170794163839,2.2886623579212646,-1.016461197529928,0.10668444633483887
1708438252.3918705,-1.112831711769104,-1.6776896915831507,-2.5262025038348597,2.288679762477539,-1.016531769429342,0.10668118298053741
1708438252.3939064,-1.112886905670166,-1.677676340142721,-2.5262368361102503,2.2886873918720703,-1.0164745489703577,0.10670232027769089
1708438252.3958497,-1.1128404140472412,-1.6776639423766078,-2.5261665026294153,2.2886623579212646,-1.0165155569659632,0.10670500993728638
1708438252.3978593,-1.1128404140472412,-1.6776639423766078,-2.526207987462179,2.288712187404297,-1.016536060963766,0.10664699226617813
1708438252.3998575,-1.1128692626953125,-1.6777340374388636,-2.5261991659747522,2.2886506754108886,-1.0164406935321253,0.10668721795082092
1708438252.4018438,-1.1128160953521729,-1.6777340374388636,-2.5261917749988,2.288647337550781,-1.016498867665426,0.10668444633483887
1708438252.4038787,-1.1128660440444946,-1.67771639446401,-2.5261576811419886,2.2886592584797363,-1.0165436903582972,0.10669612884521484
1708438252.4059324,-1.112853765487671,-1.677711626092428,-2.526175324116842,2.2887045580097656,-1.0165184179889124,0.10669612884521484
1708438252.4078956,-1.112852931022644,-1.677709241906637,-2.526224676762716,2.288679762477539,-1.0164974371539515,0.10671250522136688
1708438252.4099112,-1.1128206253051758,-1.6777779064574183,-2.5261665026294153,2.288695974940918,-1.0164678732501429,0.10671543329954147
1708438252.4118888,-1.1128323078155518,-1.6777378521361292,-2.5261784235583704,2.288684054011963,-1.0165436903582972,0.10671249777078629
1708438252.4139202,-1.1128323078155518,-1.677770277062887,-2.5261829535113733,2.288647337550781,-1.0165141264544886,0.10670804977416992
1708438252.4159276,-1.112795352935791,-1.6777240238585414,-2.5261991659747522,2.2886623579212646,-1.0165274778949183,0.10670359432697296
1708438252.417867,-1.1128623485565186,-1.6777330837645472,-2.526196066533224,2.288647337550781,-1.016519848500387,0.10672441869974136
1708438252.4198854,-1.1128087043762207,-1.6777612171568812,-2.526224676762716,2.288619204158447,-1.0164855162249964,0.10672321170568466
1708438252.4218602,-1.1128323078155518,-1.677720685998434,-2.526203457509176,2.288602276439331,-1.0164902845965784,0.10671543329954147
1708438252.4238565,-1.1128160953521729,-1.6777821979918421,-2.526175324116842,2.2886721330830078,-1.0164240042315882,0.10675296187400818
1708438252.4258697,-1.1128249168395996,-1.6777240238585414,-2.526191536580221,2.288602276439331,-1.0164855162249964,0.10674559324979782
1708438252.42788,-1.1127642393112183,-1.677742143670553,-2.526187245045797,2.2886311250874023,-1.0164569059955042,0.1067604199051857
1708438252.4298735,-1.1128087043762207,-1.677711626092428,-2.5261829535113733,2.288651629085205,-1.0164855162249964,0.1066826656460762
1708438252.4318666,-1.112772822380066,-1.6777330837645472,-2.5261917749988,2.288623495692871,-1.0164783636676233,0.1067860946059227
1708438252.4338605,-1.1127891540527344,-1.6776720486082972,-2.526109282170431,2.288643999690674,-1.0164826552020472,0.10678155720233917
1708438252.4358766,-1.1128053665161133,-1.677742143670553,-2.5262158552752894,2.2886311250874023,-1.0164855162249964,0.10676489025354385
1708438252.437895,-1.1128140687942505,-1.6776882610716761,-2.526175324116842,2.28863970815625,-1.0165022055255335,0.10679349303245544
1708438252.4398866,-1.1127398014068604,-1.677715917626852,-2.5261917749988,2.28863970815625,-1.0164602438556116,0.1067396029829979
1708438252.4418514,-1.1127772331237793,-1.6777578792967738,-2.5261917749988,2.2886311250874023,-1.016519848500387,0.10674699395895004
1708438252.4438798,-1.112786054611206,-1.6777001820006312,-2.526175324116842,2.288635416621826,-1.0164855162249964,0.10676483809947968
1708438252.4458663,-1.112786054611206,-1.6776958904662074,-2.526170794163839,2.288623495692871,-1.0164693037616175,0.10680984705686569
1708438252.4479218,-1.1127158403396606,-1.677720685998434,-2.5261545817004603,2.2886485296436767,-1.0165274778949183,0.10678153485059738
1708438252.4498775,-1.112748384475708,-1.677715917626852,-2.526212278996603,2.288606567973755,-1.0165107885943812,0.10674698650836945
1708438252.451845,-1.1127278804779053,-1.677711626092428,-2.5261381308185022,2.2886108595081787,-1.0164449850665491,0.10672328621149063
1708438252.4538667,-1.112695336341858,-1.677713533441061,-2.5261829535113733,2.2885946470447998,-1.0165107885943812,0.10672622174024582
1708438252.455862,-1.1127159595489502,-1.6777378521361292,-2.526184145604269,2.2886690336414794,-1.0164812246905726,0.10674849897623062
1708438252.4578645,-1.112736701965332,-1.677715917626852,-2.5261622110949915,2.2886108595081787,-1.0165436903582972,0.10677267611026764
1708438252.4598508,-1.1127572059631348,-1.6776792011656703,-2.526170794163839,2.288632794017456,-1.0165141264544886,0.10680989921092987
1708438252.4618423,-1.1127610206604004,-1.6776744327940882,-2.526142660771505,2.2886196809956054,-1.016486946736471,0.10674696415662766
1708438252.4638746,-1.1127610206604004,-1.6777659855284632,-2.526203457509176,2.2885450559803466,-1.0165274778949183,0.10679198056459427
1708438252.4658635,-1.112736701965332,-1.6777378521361292,-2.526220146809713,2.288582964534424,-1.0164945761310022,0.1067395955324173
1708438252.4678555,-1.1127278804779053,-1.677711626092428,-2.526187245045797,2.288550539607666,-1.0165064970599573,0.10676809400320053
1708438252.4698563,-1.1127409934997559,-1.6777330837645472,-2.5261665026294153,2.2885958391376953,-1.016486946736471,0.10678905993700027
1708438252.4718757,-1.112724781036377,-1.677711626092428,-2.5261784235583704,2.28858391820874,-1.0164855162249964,0.10673061013221741
1708438252.4738622,-1.1127452850341797,-1.677720685998434,-2.526187245045797,2.2885958391376953,-1.0164945761310022,0.10675925016403198
1708438252.4758506,-1.1126997470855713,-1.6777578792967738,-2.5262156168567103,2.288576288814209,-1.016461197529928,0.10683823376893997
1708438252.4779048,-1.112748384475708,-1.6777340374388636,-2.526170794163839,2.288543863887451,-1.016503636037008,0.10676812380552292
1708438252.4799168,-1.1127616167068481,-1.677683492700094,-2.526187245045797,2.2885472017475585,-1.0164735952960413,0.10681729018688202
1708438252.481879,-1.1127409934997559,-1.677748819390768,-2.526220146809713,2.2885429102131347,-1.0164735952960413,0.10679198056459427
1708438252.483922,-1.112724781036377,-1.677742143670553,-2.526175324116842,2.288526697749756,-1.0164783636676233,0.10678450763225555
1708438252.4858747,-1.1127947568893433,-1.677711626092428,-2.526187245045797,2.2885472017475585,-1.016498867665426,0.10677558183670044
1708438252.4879103,-1.1127159595489502,-1.6777378521361292,-2.526170794163839,2.2885967928120117,-1.0164735952960413,0.10675926506519318
1708438252.4899294,-1.112749695777893,-1.677720685998434,-2.526196066533224,2.2884859281727294,-1.0164945761310022,0.10680389404296875
1708438252.4918706,-1.1127614974975586,-1.6776586971678675,-2.5261917749988,2.288527651424072,-1.0164526144610804,0.10675035417079926
1708438252.493919,-1.1127420663833618,-1.6776968441405238,-2.5261738936053675,2.2886087137409667,-1.0164826552020472,0.10677115619182587
1708438252.4958987,-1.1126846075057983,-1.677720685998434,-2.5261827150927942,2.2885677057453613,-1.0165227095233362,0.1067994236946106
1708438252.4978688,-1.1127290725708008,-1.6777378521361292,-2.5261665026294153,2.2885309892841796,-1.0164945761310022,0.10678307712078094
1708438252.4999025,-1.1127128601074219,-1.677713533441061,-2.5261545817004603,2.288571997279785,-1.016547981892721,0.10682769864797592
1708438252.5018675,-1.1126846075057983,-1.6776882610716761,-2.5262158552752894,2.2885677057453613,-1.0165155569659632,0.10680390894412994
1708438252.503881,-1.1127171516418457,-1.677774568597311,-2.526175324116842,2.2885591226765136,-1.016503636037008,0.10679201036691666
1708438252.5058873,-1.1127301454544067,-1.67775358776235,-2.526126209889547,2.2885958391376953,-1.016531769429342,0.10680389404296875
1708438252.507938,-1.1126641035079956,-1.6777378521361292,-2.5261784235583704,2.288576288814209,-1.0164526144610804,0.10680385679006577
1708438252.5098941,-1.1126856803894043,-1.677742143670553,-2.526191536580221,2.2885309892841796,-1.0165141264544886,0.10687272250652313
1708438252.5118594,-1.1127582788467407,-1.6777249775328578,-2.5261917749988,2.2885805803486328,-1.0164855162249964,0.10683965682983398
1708438252.5138953,-1.1126846075057983,-1.6777249775328578,-2.526207987462179,2.2885872560688476,-1.0165022055255335,0.10686490684747696
1708438252.5158713,-1.1127182245254517,-1.6777340374388636,-2.5261665026294153,2.288571997279785,-1.016531769429342,0.10681277513504028
1708438252.5178766,-1.1127009391784668,-1.677720685998434,-2.526187245045797,2.288571997279785,-1.0164783636676233,0.10683217644691467
1708438252.5198476,-1.1126888990402222,-1.677676340142721,-2.526203457509176,2.28856007635083,-1.0164650122271937,0.10689808428287506
1708438252.5218625,-1.1127701997756958,-1.6777249775328578,-2.5261917749988,2.288548155421875,-1.0165022055255335,0.10686491429805756
1708438252.5238452,-1.112749695777893,-1.6777578792967738,-2.5261338392840784,2.288555784816406,-1.0164826552020472,0.10683662444353104
1708438252.5258489,-1.1127095222473145,-1.6777287922301234,-2.5262332598315638,2.2885514932819824,-1.0165064970599573,0.10684414207935333
1708438252.527907,-1.1127171516418457,-1.6777073345580042,-2.526175324116842,2.2885352808186035,-1.0164945761310022,0.10679944604635239
1708438252.5299182,-1.1126933097839355,-1.6777287922301234,-2.526187245045797,2.288604422206543,-1.0164945761310022,0.10688161104917526
1708438252.5319126,-1.1127333641052246,-1.6777569256224574,-2.5261665026294153,2.2885710436054687,-1.0165346304522913,0.10685741901397705
1708438252.5339012,-1.1127171516418457,-1.677744527856344,-2.5261502901660364,2.2885677057453613,-1.0165064970599573,0.10683219134807587
1708438252.5358768,-1.112724781036377,-1.6777659855284632,-2.526187245045797,2.2885352808186035,-1.0164783636676233,0.10682331770658493
1708438252.5378685,-1.1127301454544067,-1.6777569256224574,-2.526203457509176,2.2885429102131347,-1.0164902845965784,0.10680389404296875
1708438252.5398588,-1.1127420663833618,-1.677720685998434,-2.526187245045797,2.2885796266743164,-1.0165022055255335,0.1068277359008789
1708438252.5419285,-1.1127420663833618,-1.6777287922301234,-2.5261545817004603,2.288588209743164,-1.0165022055255335,0.10687834769487381
1708438252.5438807,-1.1127214431762695,-1.677744527856344,-2.526203457509176,2.2885514932819824,-1.0164855162249964,0.1068410724401474
1708438252.545846,-1.1126683950424194,-1.67771639446401,-2.526203457509176,2.288588209743164,-1.0165107885943812,0.10679502785205841
1708438252.5478806,-1.1126933097839355,-1.677720685998434,-2.5261738936053675,2.2885753351398925,-1.0165227095233362,0.10683663189411163
1708438252.549862,-1.1127128601074219,-1.6777073345580042,-2.5261991659747522,2.28858391820874,-1.0164693037616175,0.10684552043676376
1708438252.5518708,-1.1127171516418457,-1.677742143670553,-2.526212278996603,2.288571997279785,-1.0164483229266565,0.10676977038383484
1708438252.5538573,-1.1126922369003296,-1.6777249775328578,-2.5261991659747522,2.2886249262043457,-1.016531769429342,0.10678308457136154
1708438252.5558734,-1.1127333641052246,-1.67775358776235,-2.526175324116842,2.2885591226765136,-1.0164316336261194,0.10678307712078094
1708438252.5578609,-1.112725853919983,-1.6777073345580042,-2.526203457509176,2.288571997279785,-1.016515080128805,0.10685299336910248
1708438252.5598524,-1.1127009391784668,-1.677711626092428,-2.5261946360217493,2.2885634142109375,-1.0165155569659632,0.10682026296854019
1708438252.5618298,-1.112724781036377,-1.6777001820006312,-2.5261665026294153,2.288555784816406,-1.0165107885943812,0.10684855282306671
1708438252.5638642,-1.1126933097839355,-1.6777249775328578,-2.526224676762716,2.2885591226765136,-1.0164902845965784,0.10680389404296875
1708438252.5658648,-1.1127214431762695,-1.6777249775328578,-2.526175324116842,2.2885309892841796,-1.0165155569659632,0.10682026296854019
1708438252.5678797,-1.1126309633255005,-1.677746435204977,-2.526220146809713,2.288571997279785,-1.016503636037008,0.10682328790426254
1708438252.5698643,-1.1126813888549805,-1.6777249775328578,-2.5262067953692835,2.288571997279785,-1.0164902845965784,0.10682026296854019
1708438252.5718536,-1.112684726715088,-1.6776925526061,-2.5261991659747522,2.288592501277588,-1.0164945761310022,0.1068618893623352
1708438252.573866,-1.1127095222473145,-1.6776925526061,-2.526187245045797,2.2885514932819824,-1.0165022055255335,0.10683664679527283
1708438252.5758615,-1.112696647644043,-1.6776968441405238,-2.526187245045797,2.2885309892841796,-1.0164693037616175,0.1068410724401474
1708438252.5779247,-1.1126890182495117,-1.677685400048727,-2.5261738936053675,2.288600130672119,-1.0164616743670862,0.10679055750370026
1708438252.579916,-1.1127420663833618,-1.6777049503722132,-2.5261784235583704,2.2885634142109375,-1.016498867665426,0.1068277359008789
1708438252.5819073,-1.1127052307128906,-1.677746435204977,-2.526203457509176,2.2885894018360595,-1.0165274778949183,0.10679499804973602
1708438252.5838795,-1.112749695777893,-1.677676340142721,-2.5262606779681605,2.28858391820874,-1.0165064970599573,0.1068618893623352
1708438252.5858662,-1.1126923561096191,-1.677709241906637,-2.526220146809713,2.2885796266743164,-1.0165064970599573,0.10682026296854019
1708438252.5878859,-1.1127376556396484,-1.6777049503722132,-2.526187245045797,2.288612051601074,-1.0165184179889124,0.10682328045368195
1708438252.589865,-1.1126728057861328,-1.6777249775328578,-2.526212278996603,2.288534327144287,-1.016536060963766,0.10681883990764618
1708438252.5918636,-1.1127009391784668,-1.677774568597311,-2.5261829535113733,2.28858391820874,-1.016498867665426,0.10681136697530746
1708438252.593881,-1.1127095222473145,-1.677720685998434,-2.526170794163839,2.288604422206543,-1.0165379683123987,0.10685299336910248
1708438252.5958524,-1.1127052307128906,-1.6777659855284632,-2.5261457602130335,2.2885634142109375,-1.0165064970599573,0.10679499804973602
1708438252.5979037,-1.1127009391784668,-1.6777669392027796,-2.526196066533224,2.2885021406361084,-1.016531769429342,0.10683218389749527
1708438252.5998807,-1.1126890182495117,-1.6777659855284632,-2.526207987462179,2.2885472017475585,-1.0165064970599573,0.10683218389749527
1708438252.6018713,-1.112737774848938,-1.6777249775328578,-2.5261917749988,2.2885958391376953,-1.0165107885943812,0.10678752511739731
1708438252.6038995,-1.1127095222473145,-1.6777049503722132,-2.5261917749988,2.2885958391376953,-1.0164812246905726,0.10682026296854019
1708438252.6058989,-1.112749695777893,-1.6777049503722132,-2.526224676762716,2.288550539607666,-1.0164902845965784,0.10675034672021866
1708438252.6079133,-1.1127128601074219,-1.677713533441061,-2.5262067953692835,2.288616343135498,-1.0164945761310022,0.10679641366004944
1708438252.6099043,-1.1127290725708008,-1.677748819390768,-2.526187245045797,2.2885872560688476,-1.0164735952960413,0.10680834949016571
1708438252.6118886,-1.1127409934997559,-1.677709241906637,-2.5261665026294153,2.2885429102131347,-1.0164826552020472,0.10678752511739731
1708438252.6139235,-1.1127452850341797,-1.677711626092428,-2.5262158552752894,2.2885958391376953,-1.0164735952960413,0.1067667007446289
1708438252.6159258,-1.1127127408981323,-1.677774568597311,-2.5261784235583704,2.2885915476032714,-1.0164783636676233,0.10682915151119232
1708438252.6178777,-1.1127171516418457,-1.677659650842184,-2.526170794163839,2.288604422206543,-1.0164826552020472,0.10676677525043488
1708438252.619845,-1.1127052307128906,-1.6777330837645472,-2.5261829535113733,2.2886077600666503,-1.016498867665426,0.10680393129587173
1708438252.6218677,-1.1127095222473145,-1.6777292690672816,-2.5261829535113733,2.2885872560688476,-1.016498867665426,0.10684855282306671
1708438252.6238363,-1.1126922369003296,-1.6776744327940882,-2.5261665026294153,2.2885915476032714,-1.0165393988238733,0.10675782710313797
1708438252.625842,-1.112737774848938,-1.6776882610716761,-2.526212517415182,2.2885710436054687,-1.0165107885943812,0.10678305476903915
1708438252.6279125,-1.112737774848938,-1.6777712307372035,-2.526220146809713,2.2886077600666503,-1.0165107885943812,0.10680389404296875
1708438252.629869,-1.1127290725708008,-1.6776958904662074,-2.5261917749988,2.288582964534424,-1.0164902845965784,0.1068127378821373
1708438252.6319547,-1.1127095222473145,-1.677713533441061,-2.526179615651266,2.2885915476032714,-1.016533676777975,0.10675034672021866
1708438252.633891,-1.1127128601074219,-1.6776792011656703,-2.5261293093310755,2.2885915476032714,-1.0165303389178675,0.10677115619182587
1708438252.6359155,-1.112724781036377,-1.677711626092428,-2.5262113253222864,2.28858391820874,-1.0165837446795862,0.10675929486751556
1708438252.6378565,-1.1127333641052246,-1.6777249775328578,-2.5261829535113733,2.2886034685322265,-1.0165289084063929,0.1068008691072464
1708438252.639877,-1.1126922369003296,-1.6776882610716761,-2.526187245045797,2.2885946470447998,-1.0165212790118616,0.10673955827951431
1708438252.6418908,-1.1127701997756958,-1.6777788601317347,-2.526163403187887,2.288582964534424,-1.0165422598468226,0.10676814615726471
1708438252.6438727,-1.1127419471740723,-1.6777001820006312,-2.5261903444873255,2.2885753351398925,-1.0165465513812464,0.10681720823049545
1708438252.6459055,-1.1127041578292847,-1.6777049503722132,-2.5261829535113733,2.28858391820874,-1.0165956656085413,0.10674255341291428
1708438252.6478784,-1.1126965284347534,-1.6777292690672816,-2.5261946360217493,2.2885677057453613,-1.0165141264544886,0.10678001493215561
1708438252.6498487,-1.1127290725708008,-1.677711626092428,-2.5261917749988,2.28855483114209,-1.0165422598468226,0.10680539160966873
1708438252.6518316,-1.1126760244369507,-1.6777378521361292,-2.526184145604269,2.2886108595081787,-1.0165556112872522,0.10678008943796158
1708438252.6538334,-1.1127376556396484,-1.6777402363219203,-2.526207987462179,2.288582964534424,-1.0165751616107386,0.10673060268163681
1708438252.6558409,-1.1126923561096191,-1.6777659855284632,-2.526203457509176,2.288628264064453,-1.0165379683123987,0.10683057457208633
1708438252.6578434,-1.112749695777893,-1.6777569256224574,-2.526170794163839,2.2886196809956054,-1.0165365378009241,0.10672615468502045
1708438252.6598518,-1.1127420663833618,-1.67771639446401,-2.5262323061572474,2.288600130672119,-1.0165050665484827,0.10673505812883377
1708438252.6618583,-1.1126922369003296,-1.677687784234518,-2.526187245045797,2.2886366087147216,-1.0165627638446253,0.10675147920846939
1708438252.6638458,-1.1127870082855225,-1.677713533441061,-2.526203457509176,2.2886485296436767,-1.0165422598468226,0.10675923526287079
1708438252.6658778,-1.112736701965332,-1.6777249775328578,-2.5261991659747522,2.2886409002491455,-1.0165498892413538,0.10676814615726471
1708438252.6678662,-1.1127452850341797,-1.6777249775328578,-2.5261784235583704,2.2886571127125244,-1.0165541807757776,0.10672322660684586
1708438252.6698434,-1.112724781036377,-1.6777001820006312,-2.526170794163839,2.2885796266743164,-1.0165541807757776,0.10679193586111069
1708438252.671832,-1.1127625703811646,-1.6777378521361292,-2.5262158552752894,2.288578434581421,-1.0165541807757776,0.10672000795602798
1708438252.6738365,-1.1127128601074219,-1.6777330837645472,-2.5262158552752894,2.2885946470447998,-1.0165498892413538,0.10671430081129074
1708438252.675844,-1.1126933097839355,-1.677709241906637,-2.526187245045797,2.2886366087147216,-1.016568962727682,0.10670360177755356
1708438252.67788,-1.1127333641052246,-1.677713533441061,-2.5262025038348597,2.288550539607666,-1.016533676777975,0.10673213005065918
1708438252.6799324,-1.1127052307128906,-1.6776925526061,-2.526187245045797,2.2886034685322265,-1.016533676777975,0.10678155720233917
1708438252.681947,-1.1127409934997559,-1.6776701412596644,-2.526224438344137,2.2886034685322265,-1.0166037718402308,0.10672768205404282
1708438252.6839023,-1.1127128601074219,-1.6777249775328578,-2.526179615651266,2.28855483114209,-1.0165289084063929,0.10669910162687302
1708438252.6858864,-1.1127203702926636,-1.6776792011656703,-2.5261784235583704,2.288623495692871,-1.0165703932391565,0.10672768205404282
1708438252.687899,-1.112737774848938,-1.6776968441405238,-2.5262487570392054,2.2885946470447998,-1.0165541807757776,0.10673213005065918
1708438252.6898909,-1.112709641456604,-1.677718301812643,-2.5262280146228235,2.2886196809956054,-1.0165703932391565,0.10671685636043549
1708438252.691918,-1.1126846075057983,-1.677720685998434,-2.5262280146228235,2.2886034685322265,-1.016594711934225,0.10673665255308151
1708438252.6939156,-1.1127333641052246,-1.677713533441061,-2.526220146809713,2.2886196809956054,-1.0165289084063929,0.10675306618213654
1708438252.6958964,-1.1126683950424194,-1.6777225933470667,-2.526207987462179,2.2885710436054687,-1.0165570417987269,0.10673215985298157
1708438252.6978638,-1.1127409934997559,-1.6776925526061,-2.5261829535113733,2.2886239725300292,-1.016573731099264,0.10666213929653168
1708438252.6998584,-1.112708568572998,-1.677742143670553,-2.5261531511889856,2.2886108595081787,-1.016540829335348,0.10674555599689484
1708438252.7018766,-1.112736701965332,-1.677742143670553,-2.5261827150927942,2.2886409002491455,-1.0165498892413538,0.10668444633483887
1708438252.7038763,-1.1127128601074219,-1.6777340374388636,-2.526236597691671,2.2886196809956054,-1.0165541807757776,0.1066889837384224
1708438252.7059135,-1.1127214431762695,-1.677709241906637,-2.5262113253222864,2.2886485296436767,-1.0165498892413538,0.10670357942581177
1708438252.7078526,-1.1126890182495117,-1.6777249775328578,-2.5262487570392054,2.288574143046997,-1.0165913740741175,0.10668008774518967
1708438252.7098665,-1.1127409934997559,-1.677770277062887,-2.5261829535113733,2.288623495692871,-1.0165498892413538,0.10670050233602524
1708438252.7118933,-1.1127128601074219,-1.6776882610716761,-2.526220146809713,2.288627787227295,-1.0165618101703089,0.10672575980424881
1708438252.7138536,-1.1127333641052246,-1.677713533441061,-2.5262280146228235,2.288574143046997,-1.0166037718402308,0.10667116194963455
1708438252.7158604,-1.1126965284347534,-1.677737375298971,-2.5262070337878626,2.288643999690674,-1.0165661017047327,0.10672886669635773
1708438252.71785,-1.1127009391784668,-1.6777249775328578,-2.5261815229998987,2.2886430460163574,-1.0165703932391565,0.10662612318992615
1708438252.7198496,-1.1127171516418457,-1.6776749096312464,-2.5261827150927942,2.2886108595081787,-1.0166061560260218,0.10671687871217728
1708438252.7218444,-1.1127333641052246,-1.6777779064574183,-2.5261500517474573,2.288619204158447,-1.0166109243976038,0.10669343173503876
1708438252.7238562,-1.1127333641052246,-1.677711626092428,-2.5262442270862024,2.2886311250874023,-1.0166061560260218,0.10668114572763443
1708438252.7258685,-1.1126879453659058,-1.6777330837645472,-2.5262158552752894,2.2886883455463867,-1.016627613698141,0.10666774958372116
1708438252.7279744,-1.1127128601074219,-1.677744527856344,-2.5262158552752894,2.2886268335529785,-1.0165570417987269,0.10664401948451996
1708438252.7299135,-1.112736701965332,-1.6777330837645472,-2.5261991659747522,2.2887047964283447,-1.0166304747210901,0.10666926205158234
1708438252.7318928,-1.112724781036377,-1.677744527856344,-2.5261502901660364,2.288707895869873,-1.016601864491598,0.10666927695274353
1708438252.7339294,-1.1127784252166748,-1.677720685998434,-2.526224676762716,2.288669987315796,-1.0166142622577112,0.10666339099407196
1708438252.7358766,-1.112724781036377,-1.677720685998434,-2.526253048573629,2.2886993128010253,-1.0165885130511683,0.10669343173503876
1708438252.7378917,-1.1127572059631348,-1.6777779064574183,-2.526203457509176,2.2886904913135986,-1.0165770689593714,0.10670050233602524
1708438252.739882,-1.1127333641052246,-1.6777569256224574,-2.5261738936053675,2.2887367445179443,-1.016618553792135,0.10667672753334045
1708438252.7418728,-1.1127452850341797,-1.6777330837645472,-2.5261903444873255,2.2886945444294433,-1.0166304747210901,0.10664106160402298
1708438252.743923,-1.112753987312317,-1.6777330837645472,-2.5262280146228235,2.2887279230305175,-1.016568962727682,0.10666479170322418
1708438252.7459147,-1.112708568572998,-1.6777578792967738,-2.526203457509176,2.288707895869873,-1.0166218916522425,0.10669343173503876
1708438252.7478528,-1.1126922369003296,-1.6777049503722132,-2.5262280146228235,2.288703604335449,-1.0165975729571741,0.10666481405496597
1708438252.749855,-1.1127420663833618,-1.677711626092428,-2.5261991659747522,2.288752956981323,-1.0166261831866663,0.10661537945270538
1708438252.7518477,-1.112708568572998,-1.677720685998434,-2.526253048573629,2.2887324529835205,-1.0166338125811976,0.10661865025758743
1708438252.7538464,-1.112765908241272,-1.6777011356749476,-2.5262323061572474,2.288703604335449,-1.016592804585592,0.10662765800952911
1708438252.7558377,-1.1127452850341797,-1.6776372394957484,-2.5262280146228235,2.2886904913135986,-1.0166304747210901,0.10661095380783081
1708438252.7578526,-1.1127171516418457,-1.6777001820006312,-2.5261991659747522,2.2887117105671386,-1.0166590849505823,0.10663207620382309
1708438252.7598512,-1.1126728057861328,-1.6776968441405238,-2.5262323061572474,2.288752956981323,-1.0166142622577112,0.10667819529771805
1708438252.7618613,-1.1127452850341797,-1.6776882610716761,-2.526236597691671,2.2886904913135986,-1.0166352430926722,0.10665743052959442
1708438252.763849,-1.1126922369003296,-1.6776925526061,-2.5262113253222864,2.2886947828480224,-1.0166304747210901,0.1066812053322792
1708438252.7658503,-1.112765908241272,-1.677742143670553,-2.5261665026294153,2.288735552425049,-1.0166381041156214,0.10664106160402298
1708438252.767843,-1.1127009391784668,-1.6777578792967738,-2.5262280146228235,2.2887236314960937,-1.0165966192828577,0.10660342872142792
1708438252.7698522,-1.1126922369003296,-1.6777383289732875,-2.526207987462179,2.2887117105671386,-1.016651455556051,0.10666187107563019
1708438252.771838,-1.1126759052276611,-1.677709241906637,-2.5262396971331995,2.2887367445179443,-1.0166423956500452,0.10666926205158234
1708438252.7738764,-1.112737774848938,-1.677709241906637,-2.5261946360217493,2.288703604335449,-1.0166876951800745,0.10664397478103638
1708438252.7758324,-1.1126879453659058,-1.6777049503722132,-2.5261784235583704,2.2886668878742675,-1.0166590849505823,0.10661537200212479
1708438252.7778795,-1.1126923561096191,-1.6777049503722132,-2.5262158552752894,2.28871933996167,-1.0166099707232874,0.10664844512939453
1708438252.7798903,-1.112724781036377,-1.6776968441405238,-2.5262113253222864,2.288735552425049,-1.0166338125811976,0.10666929185390472
1708438252.7818797,-1.1127334833145142,-1.6776968441405238,-2.5262234846698206,2.2887441354938964,-1.0166261831866663,0.10667379200458527
1708438252.7838802,-1.112680435180664,-1.6776968441405238,-2.5262067953692835,2.2887441354938964,-1.0166743437396448,0.10663652420043945
1708438252.7858527,-1.1127084493637085,-1.6777240238585414,-2.526219193135397,2.2886785703846435,-1.0166500250445765,0.10664995014667511
1708438252.7878642,-1.1127128601074219,-1.677746435204977,-2.5261696020709437,2.2886785703846435,-1.0167034308062952,0.10667673498392105
1708438252.7898715,-1.1127495765686035,-1.677713533441061,-2.5262156168567103,2.288707419032715,-1.0166590849505823,0.10663207620382309
1708438252.7918968,-1.1126922369003296,-1.677742143670553,-2.5262399355517786,2.2886742788502197,-1.0165680090533655,0.10662881284952164
1708438252.7939167,-1.1127159595489502,-1.6776639423766078,-2.5262025038348597,2.2887205320545654,-1.0166457335101526,0.10661983489990234
1708438252.7958868,-1.1127614974975586,-1.677676340142721,-2.5262234846698206,2.2887279230305175,-1.0166381041156214,0.1066320538520813
1708438252.7978456,-1.112724781036377,-1.677709241906637,-2.5261903444873255,2.2887648779102783,-1.0166457335101526,0.10659162700176239
1708438252.7998517,-1.112752914428711,-1.6776720486082972,-2.5262487570392054,2.2887722688862304,-1.0166218916522425,0.10667379200458527
1708438252.8018801,-1.1127452850341797,-1.6776925526061,-2.5262234846698206,2.2886742788502197,-1.016616169606344,0.1066332533955574
1708438252.8038862,-1.112724781036377,-1.677713533441061,-2.5262399355517786,2.2887367445179443,-1.0166290442096155,0.1066603809595108
1708438252.8058832,-1.112774133682251,-1.6777249775328578,-2.5262234846698206,2.2886785703846435,-1.0166619459735315,0.10660350322723389
1708438252.8079126,-1.1127409934997559,-1.6777240238585414,-2.5262323061572474,2.2887324529835205,-1.0166752974139612,0.10668713599443436
1708438252.8099124,-1.1127203702926636,-1.6776925526061,-2.526193682347433,2.288675470943115,-1.0166290442096155,0.10664107650518417
1708438252.8118994,-1.1127290725708008,-1.6777049503722132,-2.5262234846698206,2.2886742788502197,-1.0166834036456507,0.10659898072481155
1708438252.8139372,-1.112732172012329,-1.677737375298971,-2.526214663182394,2.2886742788502197,-1.0166743437396448,0.10663652420043945
1708438252.8159046,-1.1127042770385742,-1.6777330837645472,-2.5262113253222864,2.2887236314960937,-1.0166991392718714,0.10667374730110168
1708438252.8179078,-1.1127614974975586,-1.6777659855284632,-2.5261696020709437,2.288703127498291,-1.0166834036456507,0.10663209110498428
1708438252.8198645,-1.112736701965332,-1.6777001820006312,-2.526253048573629,2.288707419032715,-1.0166500250445765,0.10660800337791443
1708438252.8218768,-1.112765908241272,-1.6776677570738734,-2.526219193135397,2.2886947828480224,-1.016670052205221,0.10660342872142792
1708438252.8238945,-1.1127454042434692,-1.677737375298971,-2.5261858145343226,2.2886366087147216,-1.0166900793658655,0.10659902542829514
1708438252.825871,-1.112736701965332,-1.6776792011656703,-2.5261784235583704,2.2886904913135986,-1.0166576544391077,0.10665739327669144
1708438252.8279085,-1.1127452850341797,-1.677659650842184,-2.5262487570392054,2.2887205320545654,-1.0167024771319788,0.10662436485290527
1708438252.8298655,-1.112748384475708,-1.6777330837645472,-2.5262637774096888,2.2887560564228515,-1.0166786352740687,0.10666186362504959
1708438252.8318825,-1.1127946376800537,-1.677713533441061,-2.5262067953692835,2.2887517648884277,-1.0167143980609339,0.10658707469701767
1708438252.833875,-1.1127572059631348,-1.6777659855284632,-2.5261946360217493,2.2887324529835205,-1.016719166432516,0.10662880539894104
1708438252.835877,-1.112752914428711,-1.6777240238585414,-2.5262025038348597,2.288707419032715,-1.0166857878314417,0.10666926205158234
1708438252.8379025,-1.112774133682251,-1.677748819390768,-2.5262067953692835,2.2887398439594726,-1.0166500250445765,0.10662878304719925
1708438252.8398836,-1.1127610206604004,-1.6777073345580042,-2.5262561480151575,2.288735552425049,-1.0166786352740687,0.10668712854385376
1708438252.8418767,-1.1127978563308716,-1.6777340374388636,-2.5262561480151575,2.2887279230305175,-1.0166247526751917,0.10659902542829514
1708438252.8438668,-1.1127653121948242,-1.677711626092428,-2.5261903444873255,2.288707419032715,-1.0166366736041468,0.10666637122631073
1708438252.8459115,-1.1127815246582031,-1.6777287922301234,-2.5262890497790735,2.2887679773518066,-1.0166857878314417,0.10660498589277267
1708438252.8479083,-1.1127278804779053,-1.6777712307372035,-2.5262725988971155,2.2887117105671386,-1.0166938940631312,0.10664401948451996
1708438252.8498833,-1.1127235889434814,-1.677715917626852,-2.526219193135397,2.288731260890625,-1.0166576544391077,0.1065916121006012
1708438252.8518424,-1.1127572059631348,-1.677713533441061,-2.526219193135397,2.28871933996167,-1.0166948477374476,0.10662434995174408
1708438252.8538663,-1.1127610206604004,-1.6777049503722132,-2.5262308756457728,2.2886904913135986,-1.0167024771319788,0.10660798847675323
1708438252.8558526,-1.1127805709838867,-1.6777402363219203,-2.5261979738818567,2.2887603479572753,-1.016632382069723,0.10663206875324249
1708438252.857857,-1.112752914428711,-1.677709241906637,-2.5262280146228235,2.288707419032715,-1.0167072455035608,0.10655856877565384
1708438252.859856,-1.1127729415893555,-1.677748819390768,-2.5262473265277308,2.288703127498291,-1.0166814962970179,0.10661689192056656
1708438252.861851,-1.1127192974090576,-1.677709241906637,-2.5262396971331995,2.2887279230305175,-1.0167072455035608,0.10659606754779816
1708438252.8638704,-1.1127440929412842,-1.6777330837645472,-2.5262113253222864,2.288726969356201,-1.0166290442096155,0.10658417642116547
1708438252.865854,-1.112748384475708,-1.677720685998434,-2.5262280146228235,2.28871933996167,-1.0167034308062952,0.10658419877290726
1708438252.8678513,-1.1127610206604004,-1.6777240238585414,-2.526193682347433,2.2887517648884277,-1.016665283833639,0.10661688446998596
1708438252.8698893,-1.1127278804779053,-1.677676340142721,-2.5262113253222864,2.288707419032715,-1.0166857878314417,0.10658267140388489
1708438252.8718462,-1.1127029657363892,-1.6776677570738734,-2.5262354055987757,2.2887236314960937,-1.016665283833639,0.10660342872142792
1708438252.8738809,-1.1127815246582031,-1.677718301812643,-2.526214663182394,2.2887236314960937,-1.016670052205221,0.106612429022789
1708438252.8758554,-1.1127784252166748,-1.6776968441405238,-2.5262396971331995,2.288735552425049,-1.0166528860675257,0.10662136971950531
1708438252.8778813,-1.1127610206604004,-1.677685400048727,-2.526226584111349,2.288703127498291,-1.0167072455035608,0.10656747967004776
1708438252.8799214,-1.112748384475708,-1.6776730022826136,-2.5262606779681605,2.2887236314960937,-1.0167024771319788,0.10660958290100098
1708438252.881897,-1.1127772331237793,-1.6777011356749476,-2.5262442270862024,2.288735552425049,-1.0166814962970179,0.1065630167722702
1708438252.8838952,-1.112752914428711,-1.6777249775328578,-2.5262680689441126,2.288735552425049,-1.0166743437396448,0.10658415406942368
1708438252.8858602,-1.1127440929412842,-1.6777378521361292,-2.5262680689441126,2.2887441354938964,-1.0166814962970179,0.10661689937114716
1708438252.8878937,-1.1127610206604004,-1.6777383289732875,-2.526210133229391,2.288726969356201,-1.0167072455035608,0.10658859461545944
1708438252.8898857,-1.1127772331237793,-1.677713533441061,-2.5262396971331995,2.2886742788502197,-1.016644302998678,0.10655856877565384
1708438252.8919249,-1.1127815246582031,-1.677683492700094,-2.526259247456686,2.2887560564228515,-1.0166900793658655,0.1065421998500824
1708438252.8938773,-1.1127804517745972,-1.6776882610716761,-2.526217762623922,2.2887398439594726,-1.0166786352740687,0.1066422238945961
1708438252.895861,-1.1127815246582031,-1.6776720486082972,-2.5262847582446497,2.2887398439594726,-1.0167024771319788,0.10659313946962357
1708438252.8978674,-1.112817406654358,-1.6777249775328578,-2.5262354055987757,2.28871933996167,-1.016719166432516,0.10657967627048492
1708438252.8998964,-1.1127729415893555,-1.6777249775328578,-2.5262518564807337,2.2887560564228515,-1.016644302998678,0.106633260846138
1708438252.901838,-1.112768530845642,-1.6776720486082972,-2.5262396971331995,2.2887279230305175,-1.0167072455035608,0.10661689192056656
1708438252.9038384,-1.1128216981887817,-1.6776720486082972,-2.5262473265277308,2.2887722688862304,-1.0167024771319788,0.10659313946962357
1708438252.9058654,-1.1127761602401733,-1.677676340142721,-2.5262113253222864,2.28871933996167,-1.0166814962970179,0.10655544698238373
1708438252.9079075,-1.1127891540527344,-1.677713533441061,-2.5262234846698206,2.28871933996167,-1.016670052205221,0.10662133991718292
1708438252.9098732,-1.1128097772598267,-1.677681108514303,-2.5262354055987757,2.288759394282959,-1.0166938940631312,0.10656745731830597
1708438252.9118674,-1.112841248512268,-1.6777621708311976,-2.5262234846698206,2.288747473354004,-1.016665283833639,0.10658415406942368
1708438252.9138517,-1.1127761602401733,-1.6777378521361292,-2.526226584111349,2.288703127498291,-1.0166767279254358,0.10658860206604004
1708438252.9158683,-1.1127598285675049,-1.677709241906637,-2.5262680689441126,2.28871933996167,-1.016698185597555,0.1066228374838829
1708438252.9178672,-1.112845540046692,-1.6777378521361292,-2.526193682347433,2.288710756892822,-1.0167396704303187,0.10660497099161148
1708438252.919847,-1.1128159761428833,-1.677742143670553,-2.5262308756457728,2.288707419032715,-1.0166948477374476,0.10657190531492233
1708438252.9218335,-1.1128541231155396,-1.677720685998434,-2.5262518564807337,2.2887398439594726,-1.0167024771319788,0.10658860206604004
1708438252.9238458,-1.112829327583313,-1.677709241906637,-2.526243034993307,2.2887798982807617,-1.016665283833639,0.10655553638935089
1708438252.9258418,-1.1127880811691284,-1.677709241906637,-2.5262518564807337,2.288781090373657,-1.0166767279254358,0.10663770139217377
1708438252.927881,-1.1128129959106445,-1.6776629887022914,-2.5262308756457728,2.288731260890625,-1.0166857878314417,0.10660950839519501
1708438252.9299052,-1.1128010749816895,-1.6776925526061,-2.526210133229391,2.288787527675293,-1.0166900793658655,0.10658709704875946
1708438252.9318938,-1.1128010749816895,-1.677746435204977,-2.526226584111349,2.288759394282959,-1.0166857878314417,0.10661686956882477
1708438252.9339373,-1.1128292083740234,-1.67775358776235,-2.5262354055987757,2.288715048427246,-1.0166857878314417,0.10657968372106552
1708438252.935853,-1.1128129959106445,-1.6777578792967738,-2.5262473265277308,2.2887722688862304,-1.0166619459735315,0.10660193860530853
1708438252.9378548,-1.1128053665161133,-1.677774568597311,-2.5262308756457728,2.2887517648884277,-1.0166528860675257,0.10655558854341507
1708438252.9398885,-1.1128584146499634,-1.677720685998434,-2.5262025038348597,2.2887560564228515,-1.0166710058795374,0.10658860206604004
1708438252.9418607,-1.1128129959106445,-1.6777073345580042,-2.5262890497790735,2.288759394282959,-1.0166743437396448,0.1065630167722702
1708438252.9439344,-1.1128249168395996,-1.677742143670553,-2.5262635389911097,2.2887603479572753,-1.016670052205221,0.10659314692020416
1708438252.9459026,-1.1127599477767944,-1.6776720486082972,-2.5262680689441126,2.2887064653583984,-1.0166814962970179,0.10659314692020416
1708438252.9478638,-1.1128379106521606,-1.6777001820006312,-2.5262561480151575,2.2887798982807617,-1.0166743437396448,0.10661830008029938
1708438252.9498522,-1.1128010749816895,-1.6777378521361292,-2.5262396971331995,2.288731260890625,-1.0167072455035608,0.10656888037919998
1708438252.9518445,-1.1127805709838867,-1.677713533441061,-2.5262308756457728,2.288715048427246,-1.0166857878314417,0.10660497099161148
1708438252.9538643,-1.1128705739974976,-1.6776968441405238,-2.5262635389911097,2.2887679773518066,-1.0166366736041468,0.10656299442052841
1708438252.955868,-1.1128292083740234,-1.6776477299132289,-2.526219193135397,2.2887517648884277,-1.0166409651385706,0.1066589280962944
1708438252.9578485,-1.1128249168395996,-1.6776720486082972,-2.5262308756457728,2.2887517648884277,-1.016665283833639,0.10659313946962357
1708438252.9598796,-1.1128623485565186,-1.6777330837645472,-2.5262308756457728,2.2887765604206542,-1.0167277495013636,0.10660052299499512
1708438252.9618454,-1.1128422021865845,-1.6776720486082972,-2.5262354055987757,2.2886945444294433,-1.0166743437396448,0.1065554991364479
1708438252.9638977,-1.1128292083740234,-1.677713533441061,-2.5262234846698206,2.2887918192097167,-1.0166814962970179,0.10660193860530853
1708438252.9658494,-1.112862467765808,-1.6777049503722132,-2.5262768904315394,2.288738890285156,-1.0167072455035608,0.10662131011486053
1708438252.9678667,-1.1127924919128418,-1.677718301812643,-2.526243034993307,2.288731260890625,-1.0166609922992151,0.10658860206604004
1708438252.9698792,-1.1128087043762207,-1.67765535930776,-2.526226584111349,2.2887398439594726,-1.016672436391012,0.10660950839519501
1708438252.9718597,-1.1128206253051758,-1.6777249775328578,-2.5262635389911097,2.2887679773518066,-1.0166619459735315,0.10658414661884308
1708438252.9738727,-1.1127934455871582,-1.677659650842184,-2.5262308756457728,2.2887798982807617,-1.0166900793658655,0.10658416152000427
1708438252.9758937,-1.1128292083740234,-1.677718301812643,-2.5262354055987757,2.28874318181958,-1.0166814962970179,0.10657645761966705
1708438252.9778821,-1.1128010749816895,-1.677685400048727,-2.526210133229391,2.2887236314960937,-1.0166409651385706,0.10659164190292358
1708438252.9798846,-1.1127880811691284,-1.6777669392027796,-2.5262308756457728,2.288731260890625,-1.0166409651385706,0.10653946548700333
1708438252.9818535,-1.1128411293029785,-1.677681108514303,-2.526226584111349,2.2887517648884277,-1.0166528860675257,0.1065797433257103
1708438252.983904,-1.112853765487671,-1.6777340374388636,-2.5263097921954554,2.2887636858173828,-1.0166543165790003,0.10659313201904297
1708438252.9858906,-1.1128206253051758,-1.6777330837645472,-2.526214663182394,2.2887722688862304,-1.016670052205221,0.10660497099161148
1708438252.987861,-1.1127880811691284,-1.677720685998434,-2.5262561480151575,2.288735552425049,-1.0166409651385706,0.10657645016908646
1708438252.9898698,-1.1127804517745972,-1.6776567898192347,-2.5262518564807337,2.288747473354004,-1.0166409651385706,0.10657188296318054
1708438252.9919102,-1.112799882888794,-1.6777249775328578,-2.52623421350588,2.2887279230305175,-1.016670052205221,0.10657522827386856
1708438252.9938984,-1.1128292083740234,-1.677713533441061,-2.5262308756457728,2.28874318181958,-1.0167072455035608,0.10656007379293442
1708438252.995955,-1.1128336191177368,-1.677742143670553,-2.5262354055987757,2.288738890285156,-1.0166919867144983,0.10658411681652069
1708438252.9978442,-1.1128087043762207,-1.6777049503722132,-2.5262113253222864,2.2887636858173828,-1.016632382069723,0.10658863931894302
1708438252.99984,-1.1128368377685547,-1.677709241906637,-2.5262308756457728,2.288792772884033,-1.0166457335101526,0.10660499334335327
1708438253.0018528,-1.1127642393112183,-1.6777383289732875,-2.5262473265277308,2.2887398439594726,-1.0166752974139612,0.10662445425987244
1708438253.0038435,-1.1128368377685547,-1.6777292690672816,-2.526193682347433,2.2887441354938964,-1.0166786352740687,0.10658863186836243
1708438253.0058498,-1.1128042936325073,-1.6777340374388636,-2.5262473265277308,2.2887367445179443,-1.0166409651385706,0.10657970607280731
1708438253.0079381,-1.1127599477767944,-1.6776720486082972,-2.526193682347433,2.2887117105671386,-1.0166366736041468,0.10664106905460358
1708438253.0099251,-1.112866759300232,-1.6777621708311976,-2.5262280146228235,2.2886785703846435,-1.0166834036456507,0.10666637867689133
1708438253.0119412,-1.1128087043762207,-1.677683492700094,-2.5262442270862024,2.288726969356201,-1.0166338125811976,0.106633260846138
1708438253.0138934,-1.1127848625183105,-1.677742143670553,-2.5262308756457728,2.2887117105671386,-1.0166085402118128,0.10655851662158966
1708438253.0159223,-1.1128010749816895,-1.6776925526061,-2.5262396971331995,2.2886947828480224,-1.0166834036456507,0.10663207620382309
1708438253.0179222,-1.1127815246582031,-1.677770277062887,-2.526219193135397,2.288715048427246,-1.0166338125811976,0.10664550960063934
1708438253.0198824,-1.112786054611206,-1.677737375298971,-2.5262518564807337,2.288703604335449,-1.0166457335101526,0.10664995014667511
1708438253.0218737,-1.1127815246582031,-1.677791257897848,-2.526226584111349,2.2886947828480224,-1.0166338125811976,0.10666927695274353
1708438253.0238605,-1.1127642393112183,-1.6777330837645472,-2.5262487570392054,2.288669987315796,-1.0166543165790003,0.10657067596912384
1708438253.0258615,-1.1127440929412842,-1.677711626092428,-2.5262442270862024,2.2886623579212646,-1.0166099707232874,0.10663207620382309
1708438253.027957,-1.1127409934997559,-1.6777569256224574,-2.526222054158346,2.2886504369923095,-1.0166662375079554,0.1066528931260109
1708438253.0298767,-1.1127041578292847,-1.6777659855284632,-2.5262234846698206,2.2886180120655517,-1.0165966192828577,0.10666926205158234
1708438253.0319426,-1.112786054611206,-1.6777478657164515,-2.5262768904315394,2.288632317180298,-1.0166710058795374,0.10669012367725372
1708438253.0338843,-1.1127616167068481,-1.6777197323241175,-2.5261858145343226,2.2886647421070556,-1.0166218916522425,0.10663328319787979
1708438253.035886,-1.1127171516418457,-1.6777764759459437,-2.526214663182394,2.2885991769978027,-1.0166304747210901,0.10663952678442001
1708438253.0378685,-1.1127095222473145,-1.6777645550169886,-2.5262067953692835,2.2885514932819824,-1.0165842215167444,0.10665136575698853
1708438253.039866,-1.1127052307128906,-1.677864213983053,-2.5262561480151575,2.2885352808186035,-1.0166338125811976,0.10669343173503876
1708438253.0418527,-1.1126726865768433,-1.6778089008727015,-2.5262561480151575,2.2885352808186035,-1.0166304747210901,0.1066722720861435
1708438253.043868,-1.112657070159912,-1.6777807674803675,-2.5262234846698206,2.288458986873291,-1.0166171232806605,0.10671249777078629
1708438253.0458956,-1.1126245260238647,-1.6778046093382777,-2.5262680689441126,2.2885281282612304,-1.016592804585592,0.10668006539344788
1708438253.0478683,-1.112617015838623,-1.6778212986388148,-2.5262518564807337,2.2884220319935302,-1.0166099707232874,0.10676942020654678
1708438253.0498571,-1.1126213073730469,-1.6778418026366175,-2.526210133229391,2.288473053569458,-1.0166142622577112,0.10671541094779968
1708438253.0518544,-1.1125686168670654,-1.677845140496725,-2.5262396971331995,2.288391275996826,-1.016627613698141,0.10674849897623062
1708438253.0538697,-1.1125198602676392,-1.677817007104391,-2.5262354055987757,2.288379355067871,-1.016618553792135,0.10674405097961426
1708438253.0558512,-1.1124961376190186,-1.6778408489623011,-2.526219193135397,2.288367434138916,-1.0165727774249476,0.10678457468748093
1708438253.0578825,-1.1125211715698242,-1.677807947198385,-2.5262518564807337,2.28841416418042,-1.016623322163717,0.10675597190856934
1708438253.0598562,-1.1124942302703857,-1.6778823337950648,-2.5262561480151575,2.28825490056958,-1.0166352430926722,0.10677115619182587
1708438253.0618882,-1.1124942302703857,-1.6778389416136683,-2.5262768904315394,2.288271113032959,-1.0166142622577112,0.10679200291633606
1708438253.0638466,-1.1124491691589355,-1.6778556309142054,-2.5262518564807337,2.2882465559193115,-1.0165885130511683,0.10678305476903915
1708438253.0658617,-1.1123970746994019,-1.6779257259764613,-2.5262280146228235,2.2882110315510253,-1.0165770689593714,0.10686491429805756
1708438253.0678694,-1.1123394966125488,-1.6778956852354945,-2.5262561480151575,2.2881502348133544,-1.016601864491598,0.10686491429805756
1708438253.069866,-1.1123483180999756,-1.6779290638365687,-2.526243034993307,2.288207693690918,-1.0166109243976038,0.10688011348247528
1708438253.0718489,-1.1122676134109497,-1.6779529056944789,-2.5262561480151575,2.2881344991871337,-1.0166352430926722,0.10685930401086807
1708438253.0738661,-1.112288236618042,-1.678009649316305,-2.5262518564807337,2.2881063657947998,-1.016573731099264,0.10688464343547821
1708438253.075846,-1.1122493743896484,-1.6780177555479945,-2.526210133229391,2.288132353419922,-1.0166304747210901,0.10694150626659393
1708438253.0778842,-1.112220048904419,-1.6779962978758753,-2.5262680689441126,2.2880312639423828,-1.016590420399801,0.10696980357170105
1708438253.0799065,-1.1122461557388306,-1.6780654392638148,-2.526243034993307,2.2880560594746093,-1.0166142622577112,0.10691165924072266
1708438253.081871,-1.112197995185852,-1.6780067882933558,-2.5262561480151575,2.2879835802265625,-1.0166423956500452,0.1069355309009552
1708438253.0839076,-1.1121578216552734,-1.6779934368529261,-2.526275936757223,2.28799216329541,-1.016599480305807,0.10698463767766953
1708438253.085885,-1.11212158203125,-1.67804016689443,-2.5262847582446497,2.2878784376331787,-1.016618553792135,0.10701766610145569
1708438253.087937,-1.1121259927749634,-1.678080221215719,-2.526210133229391,2.287872000331543,-1.0166099707232874,0.10696225613355637
1708438253.0898838,-1.1120327711105347,-1.6781159840025843,-2.5262396971331995,2.287823362941406,-1.016618553792135,0.10696682333946228
1708438253.0918767,-1.1119681596755981,-1.6782194576659144,-2.5262680689441126,2.287757559413574,-1.0165975729571741,0.10699091106653214
1708438253.0939152,-1.1119813919067383,-1.6781808338561,-2.526259247456686,2.2877067762562255,-1.016564671193258,0.10702363401651382
1708438253.095873,-1.1119706630706787,-1.678204198876852,-2.5262518564807337,2.2876948553272705,-1.016655747090475,0.10710102319717407
1708438253.0978885,-1.1119298934936523,-1.678249021569723,-2.526217762623922,2.2876791197010498,-1.016564671193258,0.10703437030315399
1708438253.099853,-1.1118779182434082,-1.6782614193358363,-2.526222054158346,2.2876521784016113,-1.0166304747210901,0.10705964267253876
1708438253.1018515,-1.1117953062057495,-1.6783343754210414,-2.5262847582446497,2.2875427442738037,-1.016601864491598,0.10713560879230499
1708438253.1038852,-1.1118054389953613,-1.678324361840719,-2.526275936757223,2.287543936366699,-1.0166142622577112,0.10710287094116211
1708438253.10588,-1.1116876602172852,-1.6783691845335902,-2.5262680689441126,2.287494583720825,-1.0166142622577112,0.10713563114404678
1708438253.1079254,-1.11171293258667,-1.6784006557860316,-2.52627140680422,2.2874514299580078,-1.0165727774249476,0.10713442414999008
1708438253.1098828,-1.1116362810134888,-1.6784249744811,-2.5262847582446497,2.287452383632324,-1.0166352430926722,0.10719124972820282
1708438253.1118414,-1.1115974187850952,-1.6784478626646937,-2.526222054158346,2.287351055736206,-1.016651455556051,0.1071254089474678
1708438253.1138685,-1.1115480661392212,-1.6784678898253382,-2.52630860010256,2.287339611644409,-1.0166142622577112,0.1072031632065773
1708438253.1158452,-1.1114479303359985,-1.6785527668394984,-2.5262635389911097,2.2873408037373046,-1.0166876951800745,0.10724039375782013
1708438253.117843,-1.1114609241485596,-1.6784965000548304,-2.5262680689441126,2.2872556883045654,-1.0166457335101526,0.10726418346166611
1708438253.1198509,-1.1114296913146973,-1.6785532436766566,-2.5262635389911097,2.2871951299854736,-1.0166471640216272,0.10727624595165253
1708438253.1218472,-1.1114277839660645,-1.678558965722555,-2.526217762623922,2.287216826076172,-1.0166338125811976,0.10722558200359344
1708438253.123877,-1.1113171577453613,-1.6785713634886683,-2.526250425969259,2.287114306087158,-1.0166500250445765,0.10729135572910309
1708438253.1258383,-1.1112569570541382,-1.678631444970602,-2.526250425969259,2.287071629161499,-1.0166171232806605,0.10728684812784195
1708438253.1278734,-1.1112298965454102,-1.6786471805968226,-2.526313130055563,2.287007971400879,-1.0166366736041468,0.10733182728290558
1708438253.1298862,-1.1111491918563843,-1.678657671014303,-2.526287619267599,2.2869795995899658,-1.0166576544391077,0.10729876905679703
1708438253.1318681,-1.111080288887024,-1.6786791286864222,-2.5262821356402796,2.2869607645222167,-1.0166857878314417,0.10734345763921738
1708438253.133872,-1.1110663414001465,-1.678732534448141,-2.526348892842428,2.2868756490894775,-1.0167072455035608,0.10732563585042953
1708438253.135873,-1.111000657081604,-1.6787268124022425,-2.526344362889425,2.286820097560547,-1.016665283833639,0.10734645277261734
1708438253.1378565,-1.1109455823898315,-1.6787463627257289,-2.5262954870807093,2.2867674070545654,-1.0166938940631312,0.10737355053424835
1708438253.1398432,-1.1109418869018555,-1.6788069210448207,-2.5263400713550013,2.2867416578480224,-1.0166857878314417,0.10736159980297089
1708438253.141891,-1.1108698844909668,-1.6788598499693812,-2.5263059774981897,2.2866641718098144,-1.016698185597555,0.10742305964231491
1708438253.143961,-1.1107922792434692,-1.6788436375060023,-2.5263386408435267,2.286628409022949,-1.0166633764850062,0.10736608505249023
1708438253.1458592,-1.1107454299926758,-1.6788584194579066,-2.5263312498675745,2.2865640360065917,-1.01677114168276,0.10741554945707321
1708438253.147857,-1.1107182502746582,-1.6788798771300257,-2.5263298193561,2.2865373331257324,-1.0167458693133753,0.1074468195438385
1708438253.1498652,-1.1106538772583008,-1.6788374386229457,-2.526367489491598,2.2864443498798828,-1.0167368094073694,0.10740208625793457
1708438253.151885,-1.1105362176895142,-1.678873201409811,-2.526350800191061,2.286404772395752,-1.016778294240133,0.1074751615524292
1708438253.1538606,-1.1105092763900757,-1.6789514027037562,-2.526404682789938,2.286372347468994,-1.0167697111712855,0.1074545830488205
1708438253.1558628,-1.110435962677002,-1.6789704761900843,-2.526395861302511,2.286308928126953,-1.0167740027057093,0.10742762684822083
1708438253.157939,-1.1104015111923218,-1.6789785824217738,-2.52641207376589,2.286231203670166,-1.0168102423297327,0.10754843056201935
1708438253.159854,-1.110352635383606,-1.6790276966490687,-2.526403252278463,2.2861718374439697,-1.0168550650226038,0.10750223696231842
1708438253.1618507,-1.1102482080459595,-1.679026266137594,-2.526452604924337,2.2860960203358154,-1.016862694417135,0.10754278302192688
1708438253.1638453,-1.11020827293396,-1.6790172062315882,-2.526440683995382,2.2860886293598632,-1.016890827809469,0.107551708817482
1708438253.1658645,-1.110156774520874,-1.6790434322752894,-2.526376787816183,2.2860209184833984,-1.0168941656695765,0.10753048211336136
1708438253.1678746,-1.1101784706115723,-1.6790996990599574,-2.5264514128314417,2.285984440440796,-1.0169346968280237,0.10753825306892395
1708438253.1698575,-1.110122799873352,-1.6790534458556117,-2.5264959971057337,2.2858919340321044,-1.0169451872455042,0.10754270106554031
1708438253.1718512,-1.1099845170974731,-1.6791383228697718,-2.5264959971057337,2.285844250316284,-1.0169761816607874,0.10756199806928635
1708438253.1738596,-1.1099456548690796,-1.6791612110533656,-2.5264840761767786,2.2858454424091796,-1.0169809500323694,0.10752768814563751
1708438253.1758976,-1.1099300384521484,-1.6792432270445765,-2.526494805012838,2.2857820230671386,-1.0170157591449183,0.10758158564567566
1708438253.177888,-1.1098816394805908,-1.6792007885374964,-2.52653676668276,2.2857090669819335,-1.0170930067645472,0.10762160271406174
1708438253.1799078,-1.1098098754882812,-1.679213663140768,-2.526503864918844,2.2856289583393554,-1.0171392599688929,0.10758888721466064
1708438253.1819136,-1.1097378730773926,-1.679253717462057,-2.526557509099142,2.285580797786377,-1.0171173254596155,0.10762929916381836
1708438253.1839218,-1.1096738576889038,-1.6793109379210414,-2.5265191237079065,2.2855493265339355,-1.017127815877096,0.1075664609670639
1708438253.1859071,-1.1096301078796387,-1.6792975864806117,-2.5264816919909876,2.28544466077771,-1.0171321074115198,0.10766202211380005
1708438253.18788,-1.1095943450927734,-1.6793467007079066,-2.5265353361712855,2.285425825709961,-1.0171893278705042,0.10769819468259811
1708438253.1898773,-1.1094598770141602,-1.679390092889303,-2.5266009012805384,2.2853688436695556,-1.0172351042376917,0.10770709812641144
1708438253.191898,-1.1094341278076172,-1.6794153652586878,-2.5265472571002405,2.2853001791187744,-1.0172174612628382,0.10774001479148865
1708438253.193909,-1.109377145767212,-1.6794082127013148,-2.52653414407839,2.285273237819336,-1.0172579924212855,0.107693612575531
1708438253.195901,-1.109342098236084,-1.6794125042357386,-2.526599947606222,2.285217447871826,-1.0172517935382288,0.10771298408508301
1708438253.1978683,-1.1092687845230103,-1.679497858087057,-2.526599947606222,2.2852024275013427,-1.017301384602682,0.10771596431732178
1708438253.19986,-1.1092256307601929,-1.679509779016012,-2.526578728352682,2.285076542491577,-1.0173166433917444,0.1077532172203064
1708438253.2018719,-1.1091372966766357,-1.6795665226378382,-2.5265656153308313,2.28505723058667,-1.0173285643206995,0.10777576267719269
1708438253.2038553,-1.10910964012146,-1.6795398197569789,-2.526632610951559,2.284989281291626,-1.0173609892474573,0.10780113935470581
1708438253.2058659,-1.109037160873413,-1.67958464244985,-2.5266268889056605,2.28495375692334,-1.0173810164081019,0.10777726024389267
1708438253.2079468,-1.1089738607406616,-1.6796919308104457,-2.526619259511129,2.2849137026020507,-1.0174182097064417,0.10782524198293686
1708438253.209903,-1.1089587211608887,-1.6797028980650843,-2.5266926924334925,2.2848328787037353,-1.0174005667315882,0.10782074183225632
1708438253.211937,-1.1089223623275757,-1.6796518764891566,-2.5266509691821497,2.2848052221485595,-1.0174124876605433,0.10786545276641846
1708438253.2138903,-1.108829140663147,-1.6797253094115199,-2.5266881624804896,2.2847654062458496,-1.0174434820758265,0.10788491368293762
1708438253.2159,-1.1087409257888794,-1.679758211175436,-2.526679340993063,2.2846900659748535,-1.0174897352801722,0.10790573060512543
1708438253.2178953,-1.1087390184402466,-1.6797734699644984,-2.526662890111105,2.2845629888721923,-1.0175259749041956,0.10784310102462769
1708438253.219889,-1.1087020635604858,-1.6798421345152796,-2.526736084614889,2.2845937448688964,-1.017512623463766,0.10792984813451767
1708438253.2219021,-1.1086583137512207,-1.6798898182311,-2.526719395314352,2.2844998079487304,-1.0175321737872522,0.1079208254814148
1708438253.223863,-1.1085611581802368,-1.679896970788473,-2.526776377354757,2.2844979006000976,-1.0175860563861292,0.10795682668685913
1708438253.2258787,-1.1085103750228882,-1.679880758325094,-2.5267391840564173,2.2844289976307373,-1.0175817648517054,0.1079687550663948
1708438253.227918,-1.1084579229354858,-1.679948469201559,-2.5267260710345667,2.284377022380493,-1.0176084677325647,0.10800153017044067
1708438253.2299392,-1.1084340810775757,-1.679960390130514,-2.5267303625689905,2.2843870359608154,-1.0175874868976038,0.10805857181549072
1708438253.2319243,-1.1083613634109497,-1.6799937687315882,-2.5267913977252405,2.2842976289936523,-1.0176203886615198,0.10804061591625214
1708438253.2339232,-1.108383297920227,-1.6800605259337367,-2.526766363774435,2.2842580515095214,-1.0176289717303675,0.10807785391807556
1708438253.235891,-1.1082937717437744,-1.6800533733763636,-2.526773754750387,2.284177227611206,-1.017656151448385,0.10805989056825638
1708438253.2378647,-1.1082429885864258,-1.6800147495665492,-2.526844088231222,2.2841426569172363,-1.017689053212301,0.10811642557382584
1708438253.2398722,-1.108214259147644,-1.6801039181151332,-2.526832167302267,2.2840520578571777,-1.0177205244647425,0.10809856653213501
1708438253.2419047,-1.1081185340881348,-1.6801444492735804,-2.5268145243274134,2.284057541484497,-1.0177071730243128,0.10809856653213501
1708438253.2439206,-1.1080740690231323,-1.6801821194090785,-2.5268591086017054,2.284022017116211,-1.0177400747882288,0.10816897451877594
1708438253.2459514,-1.108030080795288,-1.680122514764303,-2.5268471876727503,2.283978148097656,-1.0177729765521448,0.1081722229719162
1708438253.2478642,-1.1079901456832886,-1.680204530755514,-2.5268622080432337,2.2839059072681884,-1.017742935811178,0.10820043087005615
1708438253.249884,-1.1079461574554443,-1.6802441082396449,-2.526878897343771,2.283869667644165,-1.0178044478045862,0.10823619365692139
1708438253.2518563,-1.10784113407135,-1.6802836857237757,-2.526923481618063,2.2838913637348632,-1.0178163687335413,0.10823917388916016
1708438253.2538652,-1.1078261137008667,-1.680279394189352,-2.526919190083639,2.2837859827229003,-1.0178688208209437,0.10823917388916016
1708438253.2558575,-1.107725977897644,-1.680312295953268,-2.526931111012594,2.2837137418934326,-1.0178597609149378,0.10828867554664612
1708438253.2579231,-1.1077183485031128,-1.6803347072997035,-2.526935640965597,2.283670588130615,-1.0178878943072718,0.10831117630004883
1708438253.259882,-1.1076862812042236,-1.68034090618276,-2.526947323475973,2.283646746272705,-1.017937485371725,0.1083202064037323
1708438253.2618535,-1.1076312065124512,-1.6803513966002406,-2.526996914540426,2.2836105066486816,-1.0179360548602503,0.10833045840263367
1708438253.2638485,-1.1075949668884277,-1.6804248295226039,-2.5269342104541224,2.283550186748169,-1.0179479757892054,0.1083916425704956
1708438253.265853,-1.10749351978302,-1.6804315052428187,-2.526938501988546,2.283526583308838,-1.0179718176471155,0.10840389132499695
1708438253.2678428,-1.1075279712677002,-1.6804353199400843,-2.526970450078146,2.2834371763416748,-1.0179780165301722,0.10843227803707123
1708438253.2698507,-1.107380747795105,-1.680504938165182,-2.5270031134234827,2.283430739040039,-1.0179947058307093,0.10840234160423279
1708438253.2718697,-1.107340693473816,-1.680469652215475,-2.5270734469043177,2.2834197717854003,-1.0180395285235804,0.1084473580121994
1708438253.2738924,-1.107325792312622,-1.680490633050436,-2.527039353047506,2.283351107234619,-1.0181010405169886,0.10845470428466797
1708438253.2758381,-1.1072863340377808,-1.680535455743307,-2.527039353047506,2.28331105291333,-1.018083397542135,0.10849493741989136
1708438253.2778633,-1.107278823852539,-1.680575510064596,-2.5269809404956263,2.2832628923603515,-1.018127743397848,0.10852771997451782
1708438253.2799048,-1.1072142124176025,-1.680624624291891,-2.527100388203756,2.2832228380390625,-1.018144432698385,0.10852646827697754
1708438253.2818894,-1.1071991920471191,-1.6805860004820765,-2.5270589033709925,2.28318635999646,-1.0181682745562952,0.10860428214073181
1708438253.2839305,-1.107175350189209,-1.6806355915465296,-2.5271199385272425,2.2831670480915527,-1.0181563536273401,0.10856544971466064
1708438253.285891,-1.1071184873580933,-1.6806594334044398,-2.5270989576922815,2.283127470607422,-1.0181873480426233,0.10863101482391357
1708438253.2878745,-1.1070795059204102,-1.68064608196401,-2.5270989576922815,2.283038302058838,-1.0182369391070765,0.10867124795913696
1708438253.2899067,-1.1070432662963867,-1.680676122704977,-2.5271273295031946,2.2830425935932617,-1.0182150045977991,0.10868638753890991
1708438253.2918892,-1.1069955825805664,-1.6806699238219203,-2.527114216481344,2.2830144602009277,-1.0182927290545862,0.10869830846786499
1708438253.2939138,-1.1069222688674927,-1.6807433567442835,-2.52714711824526,2.2829500871845703,-1.0183127562152308,0.1087433397769928
1708438253.29589,-1.1068861484527588,-1.6807733974852503,-2.527154509221212,2.282940312022827,-1.0183122793780726,0.10882413387298584
1708438253.2978547,-1.1068661212921143,-1.6807176075377406,-2.5271876494037073,2.282902880305908,-1.0183523336993616,0.1087954044342041
1708438253.2998579,-1.1068511009216309,-1.6808320484557093,-2.5271664301501673,2.2828263479420166,-1.0183642546283167,0.10882993042469025
1708438253.3018656,-1.1068272590637207,-1.6808320484557093,-2.527186457310812,2.282805843944214,-1.0184090773211878,0.10887052863836288
1708438253.3038635,-1.1067628860473633,-1.68084778408193,-2.5271998087512415,2.2827493387409667,-1.018395725880758,0.10888984799385071
1708438253.3059168,-1.106677770614624,-1.6808601818480433,-2.527198378239767,2.2827886778065185,-1.0183895269977015,0.10890167951583862
1708438253.307915,-1.1067237854003906,-1.6808659038939417,-2.527259174977438,2.2827231126972656,-1.0184467474566858,0.10895416140556335
1708438253.3098886,-1.1066581010818481,-1.6808787784972132,-2.527259174977438,2.2826503950306396,-1.0184629599200647,0.10897666215896606
1708438253.3118658,-1.1066681146621704,-1.68092741588735,-2.527206007634298,2.282667799586914,-1.018449608479635,0.10898569226264954
1708438253.3138373,-1.1065579652786255,-1.6810018024840296,-2.527254883443014,2.2826315599628906,-1.0185158888446253,0.10904520750045776
1708438253.3158584,-1.1065993309020996,-1.6809264622130335,-2.5272539297686976,2.2825345236011962,-1.0185306707965296,0.10911859571933746
1708438253.317853,-1.1065678596496582,-1.6809703312315882,-2.5272911230670374,2.2825838762470703,-1.0185678640948694,0.10912624001502991
1708438253.319848,-1.106528401374817,-1.6809412441649378,-2.5272956530200403,2.282559557552002,-1.018574062977926,0.10915274918079376
1708438253.3218517,-1.1065154075622559,-1.6810275516905726,-2.5273478666888636,2.2825237947651367,-1.0186322371112269,0.10913921147584915
1708438253.323872,-1.1064395904541016,-1.6810485325255335,-2.5273118654834192,2.2824711042591552,-1.0186308065997522,0.1092575266957283
1708438253.3258507,-1.1063982248306274,-1.6810385189452113,-2.5273552576648157,2.2824062544056396,-1.0186546484576624,0.1092977523803711
1708438253.3279052,-1.1064071655273438,-1.6810499630370082,-2.5273552576648157,2.28239552556958,-1.0186741987811487,0.10930395126342773
1708438253.329924,-1.1063790321350098,-1.6810757122435511,-2.5273435751544397,2.2823616701313476,-1.018632713948385,0.10935792326927185
1708438253.3319113,-1.1062980890274048,-1.6811071834959925,-2.527371946965353,2.282409115428589,-1.018714729939596,0.10935192555189133
1708438253.3339398,-1.1063200235366821,-1.6811639271178187,-2.5273707548724573,2.282294912929199,-1.0187433401690882,0.10936826467514038
1708438253.3359032,-1.1062549352645874,-1.6811100445189417,-2.527395788823263,2.2823023039051513,-1.0187504927264612,0.10942339897155762
1708438253.3379061,-1.106202244758606,-1.6811181507506312,-2.5274277369128626,2.2822746473499755,-1.0187791029559534,0.10945940017700195
1708438253.3398798,-1.106215476989746,-1.6810876331725062,-2.5274153391467493,2.282203360194824,-1.0187581221209925,0.10951337218284607
1708438253.3419034,-1.1061590909957886,-1.681124826470846,-2.5274439493762415,2.2822272020527343,-1.0188058058368128,0.10952073335647583
1708438253.34395,-1.1061391830444336,-1.68117155651235,-2.5274277369128626,2.2821950155445556,-1.018827263508932,0.10956394672393799
1708438253.345906,-1.10611093044281,-1.68119539837026,-2.5274022261248987,2.282158299083374,-1.0188301245318812,0.10957908630371094
1708438253.347895,-1.1060914993286133,-1.681183477441305,-2.5274394194232386,2.2821151453205566,-1.0188701788531702,0.10962708294391632
1708438253.3498716,-1.1060519218444824,-1.6812030277647914,-2.527426306401388,2.282139940852783,-1.0189111868487757,0.10967335104942322
1708438253.3518548,-1.1060237884521484,-1.6812221012511195,-2.5274842421161097,2.282148523921631,-1.018893067036764,0.10969557613134384
1708438253.353887,-1.105971097946167,-1.6812221012511195,-2.527517382298605,2.282043142909668,-1.0189717451678675,0.10968201607465744
1708438253.3558636,-1.1059268712997437,-1.6812793217101039,-2.527475420628683,2.2820841509052734,-1.0189216772662562,0.10974669456481934
1708438253.3578877,-1.105972409248352,-1.68127503017568,-2.527450148259298,2.282010956401489,-1.0189617315875452,0.10983183979988098
1708438253.3598464,-1.105883002281189,-1.681230207482809,-2.5274739901172083,2.2819785314747314,-1.0189693609820765,0.1098271831870079
1708438253.3618858,-1.105858564376831,-1.68127503017568,-2.52751595178713,2.2820002275654296,-1.0190189520465296,0.10984230041503906
1708438253.3638654,-1.1058716773986816,-1.6813107929625453,-2.5275026003467005,2.281951590175293,-1.0190098921405237,0.10990818589925766
1708438253.3658803,-1.1058273315429688,-1.6812859974303187,-2.5275397936450403,2.281939669246338,-1.0190056006061,0.1098858192563057
1708438253.367867,-1.1057628393173218,-1.6813036404051722,-2.5275517145739954,2.2818988996693115,-1.0190380255328577,0.1099289134144783
1708438253.369893,-1.1057583093643188,-1.6812902889647425,-2.5275891462909144,2.281912012691162,-1.01909047762026,0.11000671237707138
1708438253.3718712,-1.1057639122009277,-1.6812778911986292,-2.527538601552145,2.2818545538135986,-1.0190485159503382,0.11000224202871323
1708438253.3738995,-1.1057357788085938,-1.6812645397581996,-2.5275428930865687,2.281855745906494,-1.0191429297076624,0.11000518500804901
1708438253.3758714,-1.1057076454162598,-1.6813222370543421,-2.5276132265674036,2.281778021449707,-1.0191052595721644,0.11002159118652344
1708438253.3778758,-1.105638861656189,-1.6813017330565394,-2.527566973363058,2.281881733531616,-1.0191267172442835,0.1100650280714035
1708438253.379948,-1.1056758165359497,-1.6813627682127894,-2.527571503316061,2.2817913728901367,-1.0191624800311487,0.11007238179445267
1708438253.381913,-1.1055904626846313,-1.6813136539854945,-2.527571503316061,2.2817675310322265,-1.0191624800311487,0.1101546585559845
1708438253.3838873,-1.1055666208267212,-1.6813403568663539,-2.527607504521505,2.2817727762409667,-1.0191534201251429,0.11012192815542221
1708438253.385899,-1.1055917739868164,-1.681333681146139,-2.5275822321521204,2.2817484575458984,-1.019214932118551,0.11016061902046204
1708438253.3878691,-1.1056123971939087,-1.6813866100706996,-2.5276477972613733,2.2817441660114746,-1.0191696325885218,0.110255166888237
1708438253.389873,-1.1055885553359985,-1.6813775501646937,-2.5275865236865442,2.281707211131714,-1.0191777388202112,0.11023712903261185
1708438253.3919516,-1.1055022478103638,-1.6813599071898402,-2.5276315847979944,2.2816428381153564,-1.019193474446432,0.11025352030992508
1708438253.3939402,-1.1055065393447876,-1.681406637231344,-2.5276103655444544,2.281745119685791,-1.0192387739764612,0.11021145433187485
1708438253.395903,-1.1054633855819702,-1.681328912774557,-2.5276599566089075,2.28162591039624,-1.0191777388202112,0.11032204329967499
1708438253.3978605,-1.1055046319961548,-1.6813599071898402,-2.5276389757739466,2.281700773830078,-1.0192058722125452,0.11028481274843216
1708438253.3999057,-1.1054558753967285,-1.6813813648619593,-2.5276673475848597,2.2816387849995117,-1.0192254225360315,0.11037014424800873
1708438253.4019048,-1.1054840087890625,-1.6813885174193324,-2.527654234563009,2.281677170390747,-1.0192254225360315,0.11036266386508942
1708438253.4038584,-1.1054482460021973,-1.6814094982542933,-2.5276883284198206,2.2817022043415527,-1.0192254225360315,0.11036550253629684
1708438253.4058669,-1.1054558753967285,-1.681441446343893,-2.52769118944277,2.2816647726246337,-1.0192416349994105,0.11039257049560547
1708438253.4079094,-1.1053909063339233,-1.6814214191832484,-2.527658764516012,2.281590147609375,-1.0192373434649866,0.11042986065149307
1708438253.4099343,-1.1054115295410156,-1.6814004383482875,-2.5276334921466272,2.281616373653076,-1.0192330519305628,0.11035053431987762
1708438253.411913,-1.1053953170776367,-1.6814290485777796,-2.52769118944277,2.281648798579834,-1.0192702452289026,0.11044918745756149
1708438253.4139059,-1.105383276939392,-1.6814614735045375,-2.5277121702777308,2.2815958696552734,-1.0192654768573206,0.11042828112840652
1708438253.415907,-1.105355143547058,-1.6814199886717738,-2.527658526097433,2.281608744258545,-1.019252125416891,0.1104746162891388
1708438253.4179277,-1.105355143547058,-1.681497713128561,-2.5277164618121546,2.2815634447285156,-1.019256893788473,0.1103910356760025
1708438253.4199243,-1.105339527130127,-1.681481500665182,-2.5276735464679163,2.281597061748169,-1.019268814717428,0.11043727397918701
1708438253.4219432,-1.1053187847137451,-1.681509634057516,-2.527666155491964,2.281538887614868,-1.0193184057818812,0.1104462593793869
1708438253.4239216,-1.105372667312622,-1.681554456750387,-2.5276618639575403,2.281613274211548,-1.0193169752704065,0.11043282598257065
1708438253.425917,-1.105372667312622,-1.6815053425230921,-2.527707640324728,2.281547709102295,-1.0193093458758753,0.11035827547311783
1708438253.4278862,-1.1053156852722168,-1.6815501652159632,-2.527654234563009,2.2815281587788085,-1.0193169752704065,0.11045821011066437
1708438253.4298913,-1.105324387550354,-1.6815411053099574,-2.5276780764209192,2.281519337291382,-1.0193374792682093,0.11039552837610245
1708438253.4319203,-1.105312466621399,-1.6815277538695277,-2.527658526097433,2.2815400797077636,-1.0193002859698694,0.11035051941871643
1708438253.4339266,-1.1052788496017456,-1.6815277538695277,-2.527703348790304,2.281581087703369,-1.0193422476397913,0.11041641235351562
1708438253.4359057,-1.1052594184875488,-1.6815625629820765,-2.527654234563009,2.2815486627766113,-1.0193408171283167,0.11038358509540558
1708438253.4378915,-1.1052842140197754,-1.68158020595693,-2.527691427861349,2.2815281587788085,-1.0193212668048304,0.11035491526126862
1708438253.439878,-1.1052637100219727,-1.6815444431700648,-2.527761522923605,2.281536741847656,-1.0193241278277796,0.11035938560962677
1708438253.441893,-1.1052875518798828,-1.681634088555807,-2.527666155491964,2.281557484264038,-1.0193689505206507,0.11035943776369095
1708438253.4438708,-1.1052930355072021,-1.681584974328512,-2.5277119318591517,2.2814711767384033,-1.0193360487567347,0.11035208404064178
1708438253.4459298,-1.1053135395050049,-1.681626935998434,-2.527666155491964,2.281585379237793,-1.0193613211261194,0.11035208404064178
1708438253.4478965,-1.105281114578247,-1.681596418420309,-2.5277121702777308,2.2815000253864746,-1.0193541685687464,0.11036553233861923
1708438253.4498763,-1.1052517890930176,-1.6816250286498011,-2.527715269719259,2.2815205293842773,-1.0193823019610804,0.1103070080280304
1708438253.451852,-1.1052812337875366,-1.6816417179503382,-2.5276957193957728,2.281459255809448,-1.0193451086627405,0.11029505729675293
1708438253.453857,-1.1052649021148682,-1.6816793880858363,-2.52771503130068,2.2815262514301757,-1.0193241278277796,0.11030123382806778
1708438253.455873,-1.105202317237854,-1.6816283665099085,-2.527682367955343,2.28150121747937,-1.0193241278277796,0.11022365838289261
1708438253.4579048,-1.1051992177963257,-1.6816536388792933,-2.527719561253683,2.2814928728291015,-1.0193570295916956,0.11031021177768707
1708438253.4598942,-1.105247974395752,-1.6816703281798304,-2.527666155491964,2.281513138408325,-1.0193002859698694,0.1102159321308136
1708438253.4618497,-1.1051666736602783,-1.6816464863219203,-2.5277283827411097,2.281447573299072,-1.0193975607501429,0.11027172207832336
1708438253.4639087,-1.1051874160766602,-1.6815878353514613,-2.527670685444967,2.2814323145100097,-1.019343678151266,0.1101725697517395
1708438253.46587,-1.105231761932373,-1.6816612682738246,-2.52763802209963,2.281383677119873,-1.0193570295916956,0.1101725846529007
1708438253.4678888,-1.1052002906799316,-1.6816374264159144,-2.527642313634054,2.281445189113281,-1.0193613211261194,0.11014866828918457
1708438253.469852,-1.105203628540039,-1.6816703281798304,-2.527666155491964,2.2814366060444335,-1.0193570295916956,0.11013834178447723
1708438253.4718978,-1.1051678657531738,-1.681582590142721,-2.527719561253683,2.2814053732105712,-1.0193689505206507,0.11006499826908112
1708438253.4738631,-1.1051840782165527,-1.6816207371153773,-2.527674976979391,2.2813710409351806,-1.0193408171283167,0.10998259484767914
1708438253.4758513,-1.105179786682129,-1.6816464863219203,-2.527670685444967,2.281413956279419,-1.0193331877337855,0.11002735048532486
1708438253.47787,-1.1051548719406128,-1.6816374264159144,-2.52769118944277,2.281388445491455,-1.0193002859698694,0.10996045917272568
1708438253.479938,-1.105191707611084,-1.6816159687437953,-2.527707640324728,2.2813765245625,-1.0193408171283167,0.10997851192951202
1708438253.4818943,-1.10514235496521,-1.6816493473448695,-2.5276957193957728,2.281344099635742,-1.0193570295916956,0.1099170446395874
1708438253.4839394,-1.10516357421875,-1.6816331348814906,-2.5276957193957728,2.2813970285603027,-1.0192835966693323,0.10987940430641174
1708438253.4858813,-1.1051722764968872,-1.6816207371153773,-2.527670447026388,2.281360312099121,-1.0193541685687464,0.10985711216926575
1708438253.4879005,-1.10516357421875,-1.6816331348814906,-2.5277164618121546,2.2813612657734375,-1.0193169752704065,0.10982716083526611
1708438253.4899094,-1.1051840782165527,-1.6816159687437953,-2.527703348790304,2.2812957006641845,-1.0193374792682093,0.10975226014852524
1708438253.4918785,-1.1051435470581055,-1.6815954647459925,-2.527663056050436,2.281348391170166,-1.0193288961993616,0.109737828373909
1708438253.4939716,-1.1051678657531738,-1.681591650048727,-2.527670685444967,2.281332178706787,-1.0193002859698694,0.10971516370773315
1708438253.4958918,-1.1051766872406006,-1.6816655598082484,-2.527646843587057,2.2813820081898193,-1.0192793051349085,0.10964187979698181
1708438253.497877,-1.1052091121673584,-1.6816584072508753,-2.527666155491964,2.281348391170166,-1.019275967274801,0.10958199203014374
1708438253.4998536,-1.1051928997039795,-1.6816984615721644,-2.527642313634054,2.281324549312256,-1.0193465391742151,0.10948936641216278
1708438253.5018826,-1.1051597595214844,-1.6816584072508753,-2.5277164618121546,2.2813002306171875,-1.0193255583392542,0.10947901010513306
1708438253.5038898,-1.1051766872406006,-1.681650777856344,-2.527663056050436,2.28135268270459,-1.019252125416891,0.10934144258499146
1708438253.5058727,-1.1051640510559082,-1.6816326580443324,-2.527646843587057,2.281308336848877,-1.0192435423480433,0.10931876301765442
1708438253.5079477,-1.1051435470581055,-1.6816541157164515,-2.52763802209963,2.2812504011341552,-1.0192449728595179,0.10923963785171509
1708438253.509891,-1.105179786682129,-1.681681295434469,-2.5276673475848597,2.2812883096882324,-1.0192702452289026,0.10913798213005066
1708438253.5118942,-1.1051552295684814,-1.6816727123656214,-2.5276227633105677,2.2812601762958984,-1.0192402044879358,0.10909485816955566
1708438253.513905,-1.1051928997039795,-1.6816584072508753,-2.5276435057269495,2.281313105220459,-1.0192120710956019,0.10899859666824341
1708438253.515855,-1.1051597595214844,-1.6816984615721644,-2.5276599566089075,2.2813045221516113,-1.0192373434649866,0.10890308022499084
1708438253.5178566,-1.105179786682129,-1.6816727123656214,-2.5276103655444544,2.281308813686035,-1.0191953817950647,0.108845055103302
1708438253.5198643,-1.1051509380340576,-1.6816240749754847,-2.5276103655444544,2.2812883096882324,-1.0191925207721155,0.1087520644068718
1708438253.5218558,-1.1051435470581055,-1.6816851101317347,-2.5276477972613733,2.2812957006641845,-1.0192015806781214,0.10861155390739441
1708438253.5238693,-1.1051552295684814,-1.6817180118956507,-2.5276358763324183,2.2813054758259277,-1.019217316304342,0.10854756832122803
1708438253.5258496,-1.1051591634750366,-1.6817103825011195,-2.5276358763324183,2.2812678056904296,-1.0191600958453577,0.10847696661949158
1708438253.5278642,-1.1051316261291504,-1.6816894016661585,-2.527623716984884,2.2812883096882324,-1.019217316304342,0.10840679705142975
1708438253.529912,-1.1051766872406006,-1.6817389927306117,-2.527640406285421,2.28129689275708,-1.019193474446432,0.10826912522315979
1708438253.5319076,-1.1052383184432983,-1.6816894016661585,-2.527579132710592,2.281284971828125,-1.019128147755758,0.1081988513469696
1708438253.533916,-1.1051883697509766,-1.6816684208311976,-2.527611796055929,2.281240625972412,-1.019104305897848,0.10799124836921692
1708438253.535921,-1.1051509380340576,-1.6817103825011195,-2.527587954198019,2.281264467830322,-1.0191295782672327,0.10787147283554077
1708438253.5378711,-1.1051597595214844,-1.6817370853819789,-2.5275657812701624,2.28129689275708,-1.0191548506366175,0.10785782337188721
1708438253.5398738,-1.1051466464996338,-1.6816760502257289,-2.527616326008932,2.2812482553669433,-1.0191176573382776,0.10769342631101608
1708438253.54187,-1.1051840782165527,-1.6817251644530238,-2.527587954198019,2.281268759364746,-1.0190604368792933,0.10764256119728088
1708438253.5438607,-1.1052058935165405,-1.6817013225951136,-2.527566973363058,2.2812773424335937,-1.0190694967852991,0.1075306236743927
1708438253.5459218,-1.1051509380340576,-1.6817208729186,-2.5275548140155237,2.2812773424335937,-1.019078556691305,0.10740181058645248
1708438253.5478776,-1.1051509380340576,-1.681704660455221,-2.5275309721576136,2.2811998563953857,-1.018996540700094,0.10733172297477722
1708438253.5498657,-1.1051766872406006,-1.6817089519896449,-2.5275264422046106,2.2811707693287353,-1.0189679304706019,0.10725706815719604
1708438253.5518756,-1.1051684617996216,-1.681760927239889,-2.5275428930865687,2.2812039095112304,-1.0189855734454554,0.10714021325111389
1708438253.5538497,-1.1051435470581055,-1.6817208729186,-2.5275474230395716,2.2811264234730224,-1.0189407507525843,0.10705071687698364
1708438253.5558484,-1.1050958633422852,-1.6817361317076625,-2.5275517145739954,2.2811481195637207,-1.018958870564596,0.10690122842788696
1708438253.5579083,-1.1051197052001953,-1.6817847690977992,-2.5275235811816614,2.281143828029297,-1.0189335981952112,0.10678882896900177
1708438253.5598495,-1.1051207780838013,-1.6817895374693812,-2.527522150670187,2.2811600404926757,-1.018872086201803,0.10666661709547043
1708438253.5618396,-1.1050677299499512,-1.6817804775633753,-2.5274863878833216,2.281177206630371,-1.0189021269427698,0.10655391216278076
1708438253.5638442,-1.1050593852996826,-1.6818167171873988,-2.5275397936450403,2.281115933055542,-1.0188940207110804,0.10648372769355774
1708438253.5658467,-1.105072021484375,-1.6818138561644496,-2.5274739901172083,2.281165285701416,-1.0188453833209437,0.10633888840675354
1708438253.567844,-1.1050225496292114,-1.6818496189513148,-2.5275114218341272,2.281120463008545,-1.0188539663897913,0.10626430064439774
1708438253.5698445,-1.1050519943237305,-1.681862016717428,-2.527544085179464,2.281088038081787,-1.0188139120685022,0.10616844892501831
1708438253.5719094,-1.1049838066101074,-1.6818486652769984,-2.5275278727160853,2.281080408687256,-1.018851105366842,0.10600686818361282
1708438253.5738466,-1.1049667596817017,-1.681831499139303,-2.5275278727160853,2.28103153287854,-1.018796745930807,0.1059034913778305
1708438253.5758402,-1.10495924949646,-1.6818810902037562,-2.527548615132467,2.2810072141834716,-1.0187810103045862,0.10581687837839127
1708438253.5778556,-1.1049437522888184,-1.6819077930846156,-2.527478281651632,2.2809833723255615,-1.0188058058368128,0.10564027726650238
1708438253.5798702,-1.1048555374145508,-1.6819125614561976,-2.5274739901172083,2.280984564418457,-1.0187986532794397,0.10557326674461365
1708438253.5819201,-1.1048791408538818,-1.6819244823851527,-2.5274694601642054,2.280956431026123,-1.0187657515155237,0.10545379668474197
1708438253.5839047,-1.1047991514205933,-1.6819526157774867,-2.527536694203512,2.2809125620075683,-1.0187538305865687,0.1053355485200882
1708438253.5859172,-1.1047271490097046,-1.6819592914977015,-2.52751595178713,2.280904455775879,-1.0187624136554163,0.10519036650657654
1708438253.5878792,-1.1047358512878418,-1.6820322475829066,-2.527445618306295,2.280794544810913,-1.0187581221209925,0.10507529973983765
1708438253.5899146,-1.1046432256698608,-1.681985994378561,-2.5274620691882532,2.28083245336499,-1.0187581221209925,0.1049017459154129
