Eg3-git/Classifiers/Data Collection/u6/u6xyz3_ur3e_joint_states.csv
time,elbow_joint,shoulder_lift_joint,shoulder_pan_joint,wrist_1_joint,wrist_2_joint,wrist_3_joint
1708438233.8477845,-1.1047966480255127,-1.6821171245970667,-2.526590887700216,2.28046099721875,-1.017325226460592,0.0936577320098877
1708438233.8497574,-1.1047714948654175,-1.6820770702757777,-2.5265710989581507,2.280440493220947,-1.0172961393939417,0.0936577320098877
1708438233.8517408,-1.1047462224960327,-1.6820842228331507,-2.5265591780291956,2.280444784755371,-1.0173209349261683,0.09362918138504028
1708438233.8537588,-1.1048212051391602,-1.682019372979635,-2.5265517870532435,2.280489130611084,-1.0173080603228968,0.09368762373924255
1708438233.8557541,-1.1047759056091309,-1.6820279560484828,-2.5265546480761927,2.280510349864624,-1.0173047224627894,0.09363207221031189
1708438233.8577406,-1.104801058769226,-1.6820441685118617,-2.5265188852893274,2.280465288753174,-1.0173404852496546,0.0936623066663742
1708438233.859768,-1.104837417602539,-1.6820856533446253,-2.5265398661242884,2.280468626613281,-1.017369572316305,0.09362918138504028
1708438233.8617473,-1.1047388315200806,-1.6820970974364222,-2.5265188852893274,2.280489130611084,-1.017329517995016,0.0936577320098877
1708438233.8637512,-1.1047922372817993,-1.6820322475829066,-2.5265234152423304,2.2805589872547607,-1.0173566977130335,0.09359151124954224
1708438233.8657756,-1.1047759056091309,-1.6820651493468226,-2.526511255894796,2.280449076289795,-1.0173209349261683,0.09360823035240173
1708438233.8677437,-1.1047639846801758,-1.6820484600462855,-2.5265067259417933,2.2804524141499023,-1.0172885099994105,0.09360051900148392
1708438233.869744,-1.1047476530075073,-1.6820656261839808,-2.526515785847799,2.2804934221455078,-1.0172842184649866,0.0936831459403038
1708438233.8717613,-1.1048085689544678,-1.6820408306517542,-2.5265324751483362,2.280538483256958,-1.0172885099994105,0.09361281991004944
1708438233.8737497,-1.1047639846801758,-1.6820527515807093,-2.5265067259417933,2.2804242807575683,-1.017325226460592,0.09364879131317139
1708438233.8757546,-1.1047803163528442,-1.6820279560484828,-2.5265067259417933,2.28046099721875,-1.0172842184649866,0.09360376000404358
1708438233.8777533,-1.1047345399856567,-1.6820250950255335,-2.5265443960772913,2.2805179792591552,-1.0172598997699183,0.0936623066663742
1708438233.8797367,-1.104767084121704,-1.6820279560484828,-2.5265021959887903,2.280456705684326,-1.0172928015338343,0.09365907311439514
1708438233.881753,-1.104787826538086,-1.6820365391173304,-2.5264902750598353,2.2804524141499023,-1.0172928015338343,0.09365005046129227
1708438233.883728,-1.1047922372817993,-1.6819879017271937,-2.5264647642718714,2.280428572291992,-1.0173166433917444,0.09362918138504028
1708438233.885727,-1.1048210859298706,-1.6820527515807093,-2.5265021959887903,2.280465288753174,-1.0173371473895472,0.0936577320098877
1708438233.8877501,-1.1047922372817993,-1.682016511956686,-2.5265024344073694,2.280456705684326,-1.0173175970660608,0.09366965293884277
1708438233.889758,-1.104743242263794,-1.6820689640440882,-2.526515785847799,2.280428572291992,-1.017325226460592,0.09367131441831589
1708438233.891755,-1.1048129796981812,-1.6820527515807093,-2.526511255894796,2.2804533678242187,-1.0172928015338343,0.0936410129070282
1708438233.893742,-1.10477876663208,-1.6820126972594203,-2.5265234152423304,2.2804199892231445,-1.0172761122332972,0.09364266693592072
1708438233.895746,-1.1048330068588257,-1.6820079288878382,-2.52656060854067,2.2804524141499023,-1.0173056761371058,0.09369051456451416
1708438233.8977432,-1.1048041582107544,-1.6820689640440882,-2.5264738241778772,2.280489130611084,-1.0172551313983362,0.093662329018116
1708438233.8997676,-1.1048121452331543,-1.681995531121725,-2.526557747517721,2.2805060583302,-1.0173099676715296,0.09364102780818939
1708438233.9017537,-1.1048210859298706,-1.6820398769774378,-2.5265517870532435,2.280416651363037,-1.0172932783709925,0.0936577320098877
1708438233.9037786,-1.1047922372817993,-1.6820727787413539,-2.5265234152423304,2.2804362016865234,-1.0172932783709925,0.09365005791187286
1708438233.9057484,-1.1048210859298706,-1.682051797906393,-2.5264738241778772,2.2804815012165527,-1.0172975699054163,0.09362626075744629
1708438233.9077566,-1.1048330068588257,-1.6820970974364222,-2.526461903248922,2.2805232244678955,-1.0172889868365687,0.09365907311439514
1708438233.9097404,-1.1047788858413696,-1.6820398769774378,-2.526494805012838,2.2804478841968994,-1.017240349446432,0.09362011402845383
1708438233.9117467,-1.1048166751861572,-1.6820560894408167,-2.5265398661242884,2.280468626613281,-1.017268482838766,0.09360371530056
1708438233.913755,-1.104799747467041,-1.682051797906393,-2.5265279451953333,2.280480309123657,-1.0172932783709925,0.09359607100486755
1708438233.915774,-1.1048611402511597,-1.6820150814452113,-2.526499334965841,2.280489130611084,-1.0172889868365687,0.09368319809436798
1708438233.9177682,-1.1048240661621094,-1.6820560894408167,-2.526511255894796,2.2804316717335205,-1.0172608534442347,0.0936005488038063
1708438233.9197574,-1.104799747467041,-1.682051797906393,-2.5265443960772913,2.280480309123657,-1.0172856489764612,0.09362015873193741
1708438233.921761,-1.104853868484497,-1.6820036373534144,-2.5264814535724085,2.280468626613281,-1.0172565619098108,0.09358709305524826
1708438233.9238207,-1.1048166751861572,-1.6820727787413539,-2.526494805012838,2.280472918147705,-1.017224136983053,0.09362916648387909
1708438233.9257896,-1.1048284769058228,-1.6820484600462855,-2.526515785847799,2.280514641399048,-1.0172446409808558,0.0936456099152565
1708438233.9278035,-1.104870080947876,-1.6820408306517542,-2.526508394871847,2.280468626613281,-1.0172250906573694,0.09362918138504028
1708438233.9298155,-1.1048240661621094,-1.6819998226561488,-2.5265324751483362,2.280472918147705,-1.0172608534442347,0.09365005046129227
1708438233.9317586,-1.1048121452331543,-1.6820484600462855,-2.526511255894796,2.2804857927509765,-1.017212216054098,0.09364558011293411
1708438233.9337804,-1.104819655418396,-1.6820398769774378,-2.5264979044543665,2.2804972368427734,-1.0172532240497034,0.09365451335906982
1708438233.9357502,-1.1048448085784912,-1.6820150814452113,-2.526499334965841,2.280428572291992,-1.0172651449786585,0.09363807737827301
1708438233.9377513,-1.1048121452331543,-1.6820603809752406,-2.5265324751483362,2.2804977136799316,-1.0172446409808558,0.09362015128135681
1708438233.9397929,-1.1048375368118286,-1.6820813618102015,-2.5265067259417933,2.280468626613281,-1.0172165075885218,0.09361276030540466
1708438233.9417596,-1.104799747467041,-1.682035585443014,-2.5265021959887903,2.2804199892231445,-1.0172207991229456,0.09366682171821594
1708438233.9437926,-1.1048121452331543,-1.6820646725096644,-2.5265021959887903,2.2804972368427734,-1.0172856489764612,0.09362459182739258
1708438233.9457734,-1.1048493385314941,-1.6820570431151332,-2.526499334965841,2.280477209682129,-1.017224136983053,0.0936577320098877
1708438233.9477692,-1.104799747467041,-1.6820208034911097,-2.526499334965841,2.2805060583302,-1.0173018614398401,0.09362173080444336
1708438233.9497783,-1.1047863960266113,-1.6820398769774378,-2.526499334965841,2.28048483907666,-1.0172737280475062,0.09362918138504028
1708438233.951744,-1.104799747467041,-1.6820441685118617,-2.526511255894796,2.2804640966602783,-1.0172489325152796,0.09362921118736267
1708438233.9537506,-1.1048033237457275,-1.6820279560484828,-2.5265234152423304,2.280514641399048,-1.0172489325152796,0.09364558756351471
1708438233.9557679,-1.1048625707626343,-1.6820408306517542,-2.5265234152423304,2.280489130611084,-1.0172413031207483,0.09363365173339844
1708438233.9577537,-1.1047744750976562,-1.6820312939085902,-2.5265143553363245,2.280489130611084,-1.017252270375387,0.09362459182739258
1708438233.9597492,-1.104781985282898,-1.682012220422262,-2.526520315800802,2.2804760175892334,-1.0172575155841272,0.09361729770898819
1708438233.9617848,-1.1048448085784912,-1.6820312939085902,-2.5265021959887903,2.280477209682129,-1.0172165075885218,0.0935889482498169
1708438233.963766,-1.1048240661621094,-1.6820484600462855,-2.5264976660357874,2.2804524141499023,-1.0172532240497034,0.09362015128135681
1708438233.9657784,-1.1048240661621094,-1.6820527515807093,-2.526461903248922,2.280514641399048,-1.0172737280475062,0.09363363683223724
1708438233.9677875,-1.1048284769058228,-1.6820365391173304,-2.5265234152423304,2.2804478841968994,-1.0172079245196741,0.09365451335906982
1708438233.9697783,-1.1048403978347778,-1.6820646725096644,-2.526494805012838,2.280444784755371,-1.0172856489764612,0.093662329018116
1708438233.971742,-1.1047581434249878,-1.6820208034911097,-2.526511255894796,2.280480309123657,-1.0172370115863245,0.09359607845544815
1708438233.9737651,-1.1048493385314941,-1.6820322475829066,-2.5265443960772913,2.280456705684326,-1.0172284285174769,0.09365327656269073
1708438233.9757528,-1.1047700643539429,-1.6820842228331507,-2.526487175618307,2.2804815012165527,-1.0172932783709925,0.0936577320098877
1708438233.9777672,-1.1048085689544678,-1.6820560894408167,-2.5265067259417933,2.280477209682129,-1.0172651449786585,0.09365911036729813
1708438233.979747,-1.1047863960266113,-1.682023664514059,-2.5265770594226282,2.280526562328003,-1.0172284285174769,0.09361277520656586
1708438233.9817338,-1.1047906875610352,-1.682035585443014,-2.5265021959887903,2.2804977136799316,-1.0172575155841272,0.09366671741008759
1708438233.9837532,-1.104819655418396,-1.6820560894408167,-2.526511255894796,2.2804524141499023,-1.0172770659076136,0.09361723810434341
1708438233.985729,-1.104795217514038,-1.6820365391173304,-2.5265262762652796,2.280456705684326,-1.0172413031207483,0.09365903586149216
1708438233.9877603,-1.104787826538086,-1.6820484600462855,-2.5265234152423304,2.2804524141499023,-1.0172694365130823,0.09368017315864563
1708438233.989842,-1.104799747467041,-1.682012220422262,-2.5264859835254114,2.28046099721875,-1.0172985235797327,0.09362918138504028
1708438233.991787,-1.104825496673584,-1.6820570431151332,-2.5265021959887903,2.280468626613281,-1.0172207991229456,0.09360820055007935
1708438233.9937913,-1.1048121452331543,-1.6820293865599574,-2.526541296635763,2.2805060583302,-1.0172489325152796,0.0936487689614296
1708438233.9957778,-1.1048375368118286,-1.6820527515807093,-2.5265398661242884,2.2804929453083496,-1.0172293821917933,0.09365907311439514
1708438233.9977806,-1.1048041582107544,-1.6820646725096644,-2.5265021959887903,2.280444784755371,-1.0172207991229456,0.09363365173339844
1708438233.9997816,-1.1048210859298706,-1.6820322475829066,-2.5264979044543665,2.280456705684326,-1.0172250906573694,0.09362918138504028
1708438234.0017598,-1.1048656702041626,-1.6820208034911097,-2.5265353361712855,2.280489130611084,-1.0172370115863245,0.09359145164489746
1708438234.0038054,-1.1048167943954468,-1.6820208034911097,-2.5265234152423304,2.2805060583302,-1.0172370115863245,0.09364557266235352
1708438234.0057755,-1.1048418283462524,-1.6820365391173304,-2.5265143553363245,2.2804903227039794,-1.0172413031207483,0.09361279010772705
1708438234.0078046,-1.104837417602539,-1.6820408306517542,-2.52656060854067,2.280449076289795,-1.017212216054098,0.09358704090118408
1708438234.009747,-1.104852318763733,-1.682019372979635,-2.5265279451953333,2.2805020052143554,-1.0172207991229456,0.09361279010772705
1708438234.0117717,-1.1048359870910645,-1.6820084057249964,-2.5265234152423304,2.2804857927509765,-1.017240349446432,0.09364557266235352
1708438234.0138202,-1.104781985282898,-1.6820484600462855,-2.5265067259417933,2.2804934221455078,-1.0172293821917933,0.09365004301071167
1708438234.0157812,-1.1048537492752075,-1.6820398769774378,-2.5265279451953333,2.280468626613281,-1.0172651449786585,0.09364557266235352
1708438234.01786,-1.1047700643539429,-1.6820603809752406,-2.5265279451953333,2.280428572291992,-1.0172131697284144,0.09362629055976868
1708438234.019746,-1.104795217514038,-1.681990762750143,-2.5265143553363245,2.280444784755371,-1.0172489325152796,0.0936172604560852
1708438234.0217307,-1.1047908067703247,-1.6820689640440882,-2.526553217564718,2.2804929453083496,-1.0172489325152796,0.0936577320098877
1708438234.0237544,-1.1047700643539429,-1.6820484600462855,-2.5265067259417933,2.28046099721875,-1.0172694365130823,0.09366229176521301
1708438234.0257494,-1.1047744750976562,-1.6820646725096644,-2.526553217564718,2.280480309123657,-1.0172079245196741,0.0936172604560852
1708438234.0277972,-1.1048493385314941,-1.6820107899107875,-2.5265067259417933,2.28046099721875,-1.0172317663775843,0.09360957145690918
1708438234.0297697,-1.1048033237457275,-1.6820560894408167,-2.526565138493673,2.280477209682129,-1.0172370115863245,0.09363365173339844
1708438234.0317757,-1.1048448085784912,-1.682051797906393,-2.526494805012838,2.2804316717335205,-1.0172250906573694,0.09359607100486755
1708438234.033768,-1.1048359870910645,-1.6820770702757777,-2.5265324751483362,2.280510349864624,-1.0172975699054163,0.09362015128135681
1708438234.035756,-1.1047989130020142,-1.682051797906393,-2.5265398661242884,2.2804934221455078,-1.0172446409808558,0.09360054135322571
1708438234.0377476,-1.1048166751861572,-1.682019372979635,-2.5265324751483362,2.280477209682129,-1.017212216054098,0.09357251971960068
1708438234.0397692,-1.104825496673584,-1.6820603809752406,-2.5264902750598353,2.280510349864624,-1.0171926657306116,0.09363812208175659
1708438234.0417502,-1.1047788858413696,-1.6820365391173304,-2.5265234152423304,2.2804695802875976,-1.01727801958193,0.09363064169883728
1708438234.0437622,-1.1047744750976562,-1.6820279560484828,-2.5265353361712855,2.2805308538624267,-1.0172370115863245,0.09359350800514221
1708438234.0457537,-1.1048284769058228,-1.6821056805052699,-2.5265279451953333,2.280489130611084,-1.0172207991229456,0.09359349310398102
1708438234.0477376,-1.1048493385314941,-1.6820603809752406,-2.5265279451953333,2.280510349864624,-1.0172250906573694,0.0935889258980751
1708438234.0497746,-1.104795217514038,-1.6820603809752406,-2.5265324751483362,2.2804815012165527,-1.017270867024557,0.09363812208175659
1708438234.0517437,-1.1048210859298706,-1.6820365391173304,-2.526548687611715,2.280456705684326,-1.0172174612628382,0.09363067150115967
1708438234.0537963,-1.104787826538086,-1.681995531121725,-2.5265067259417933,2.280468626613281,-1.017261807118551,0.093579962849617
1708438234.0557592,-1.1048418283462524,-1.68206848720693,-2.5264902750598353,2.280440493220947,-1.0172370115863245,0.09362173080444336
1708438234.0577655,-1.104767084121704,-1.6820365391173304,-2.526511255894796,2.280456705684326,-1.0172651449786585,0.09359603375196457
1708438234.0597756,-1.1047714948654175,-1.6821142635741175,-2.5265234152423304,2.2804524141499023,-1.0172002951251429,0.09363813698291779
1708438234.0617526,-1.1048041582107544,-1.6820250950255335,-2.5265188852893274,2.280477209682129,-1.017224136983053,0.09358149766921997
1708438234.063801,-1.1048240661621094,-1.6820408306517542,-2.5265021959887903,2.280465288753174,-1.017261807118551,0.09357251971960068
1708438234.0657694,-1.1048493385314941,-1.6820322475829066,-2.526548687611715,2.280477209682129,-1.0172413031207483,0.09356808662414551
1708438234.0677462,-1.1048041582107544,-1.6820641956725062,-2.526511255894796,2.280444784755371,-1.0172489325152796,0.09361842274665833
1708438234.0697978,-1.1048403978347778,-1.6821056805052699,-2.5265067259417933,2.28046099721875,-1.0172207991229456,0.0936274528503418
1708438234.0717738,-1.1048330068588257,-1.6820365391173304,-2.5265234152423304,2.280449076289795,-1.0172575155841272,0.09357709437608719
1708438234.0737684,-1.1048330068588257,-1.682023664514059,-2.5265145937549036,2.280449076289795,-1.0172813574420374,0.09357255697250366
1708438234.0757775,-1.1048418283462524,-1.6820279560484828,-2.5264979044543665,2.280428572291992,-1.017212216054098,0.09363812208175659
1708438234.0777724,-1.1048041582107544,-1.682061334649557,-2.5265563170062464,2.28048483907666,-1.0172131697284144,0.09358148276805878
1708438234.0797415,-1.1048041582107544,-1.682016511956686,-2.5265279451953333,2.280428572291992,-1.0172250906573694,0.09357709437608719
1708438234.0817406,-1.104837417602539,-1.6819869480528773,-2.5265398661242884,2.2804414468952636,-1.0172088781939905,0.09357251971960068
1708438234.0837462,-1.1047536134719849,-1.6820408306517542,-2.5265234152423304,2.2804533678242187,-1.0171883741961878,0.09360954165458679
1708438234.085755,-1.1048129796981812,-1.6820527515807093,-2.5265637079821985,2.280456705684326,-1.0172823111163538,0.09360237419605255
1708438234.0877755,-1.1048448085784912,-1.6820279560484828,-2.5265353361712855,2.280468626613281,-1.0171969572650355,0.09359349310398102
1708438234.0897982,-1.104837417602539,-1.6820322475829066,-2.5265427271472376,2.2803842264362792,-1.0172250906573694,0.09357709437608719
1708438234.091773,-1.1047743558883667,-1.682012220422262,-2.5266132990466517,2.2805144029804687,-1.0172327200519007,0.09357709437608719
1708438234.0937514,-1.1047863960266113,-1.682012220422262,-2.526548687611715,2.280456705684326,-1.0171721617328089,0.0936095342040062
1708438234.0957801,-1.1048375368118286,-1.682023664514059,-2.5265265146838587,2.280489130611084,-1.0172131697284144,0.09356068819761276
1708438234.0977902,-1.104787826538086,-1.6820603809752406,-2.5265188852893274,2.2804414468952636,-1.0172413031207483,0.09360957145690918
1708438234.099791,-1.1048611402511597,-1.682077547112936,-2.5265801588641565,2.280465288753174,-1.0172575155841272,0.09360682964324951
1708438234.1018124,-1.1047625541687012,-1.682019372979635,-2.5265353361712855,2.28046099721875,-1.0172413031207483,0.09357405453920364
1708438234.1037974,-1.1047908067703247,-1.6820928059019984,-2.5265188852893274,2.280432863826416,-1.0172327200519007,0.09358444809913635
1708438234.105767,-1.1048041582107544,-1.6820603809752406,-2.5265143553363245,2.280432863826416,-1.0172045866595667,0.09363816678524017
1708438234.1077385,-1.1047743558883667,-1.682016511956686,-2.5265308062182825,2.2804815012165527,-1.0172045866595667,0.09363965690135956
1708438234.1097512,-1.1048167943954468,-1.6820036373534144,-2.5265770594226282,2.280416651363037,-1.0172489325152796,0.09358597546815872
1708438234.1117415,-1.1048085689544678,-1.6820398769774378,-2.5265308062182825,2.2805020052143554,-1.0172370115863245,0.09363069385290146
1708438234.1137726,-1.1047699451446533,-1.6820279560484828,-2.5264976660357874,2.280444784755371,-1.0172370115863245,0.09359349310398102
1708438234.1157858,-1.1048085689544678,-1.6820641956725062,-2.5265188852893274,2.2804857927509765,-1.0172293821917933,0.09358303248882294
1708438234.117782,-1.1047625541687012,-1.6820484600462855,-2.5265145937549036,2.2804900842854003,-1.0172575155841272,0.09358147531747818
1708438234.119771,-1.1048121452331543,-1.6820322475829066,-2.5265517870532435,2.2804815012165527,-1.0172293821917933,0.09357863664627075
1708438234.121799,-1.1048418283462524,-1.6821009121336878,-2.5265608469592493,2.280432863826416,-1.017261807118551,0.0936228558421135
1708438234.1237912,-1.104837417602539,-1.6820856533446253,-2.5265100638019007,2.280416651363037,-1.0172250906573694,0.09356066584587097
1708438234.1257799,-1.104795217514038,-1.6820322475829066,-2.5265279451953333,2.28046099721875,-1.0172207991229456,0.0935528352856636
1708438234.1277516,-1.1048330068588257,-1.681995531121725,-2.5265517870532435,2.280468626613281,-1.0171883741961878,0.09356187283992767
1708438234.129764,-1.1048166751861572,-1.6820928059019984,-2.5266056696521204,2.2804414468952636,-1.01727801958193,0.09358149766921997
1708438234.1317568,-1.104799747467041,-1.6820270023741664,-2.5265308062182825,2.2804533678242187,-1.0172207991229456,0.09357251226902008
1708438234.1337554,-1.1047759056091309,-1.6819998226561488,-2.5265353361712855,2.2804695802875976,-1.0172165075885218,0.0935664176940918
1708438234.13574,-1.104787826538086,-1.6820322475829066,-2.5265265146838587,2.280400438899658,-1.0172131697284144,0.09359943866729736
1708438234.137759,-1.1048166751861572,-1.682073255578512,-2.5264979044543665,2.2804815012165527,-1.0171640555011194,0.09359043836593628
1708438234.139764,-1.1048121452331543,-1.6820770702757777,-2.5265067259417933,2.2804414468952636,-1.0172207991229456,0.0935978889465332
1708438234.141743,-1.1048041582107544,-1.6820770702757777,-2.5265234152423304,2.280416651363037,-1.0172413031207483,0.09363067150115967
1708438234.143767,-1.1048299074172974,-1.6820770702757777,-2.5265637079821985,2.2804781633564453,-1.0172532240497034,0.09358148276805878
1708438234.1457663,-1.104801058769226,-1.6820689640440882,-2.5265427271472376,2.280432863826416,-1.017184082661764,0.09360238164663315
1708438234.1477566,-1.1047700643539429,-1.682051797906393,-2.5265353361712855,2.280440493220947,-1.017184082661764,0.09357404708862305
1708438234.1497567,-1.1048284769058228,-1.6820928059019984,-2.52659780183901,2.2804695802875976,-1.0172455946551722,0.09362289309501648
1708438234.151769,-1.1048330068588257,-1.682047506371969,-2.5264859835254114,2.280444784755371,-1.0172045866595667,0.09359791874885559
1708438234.1537526,-1.1047834157943726,-1.6820603809752406,-2.5265188852893274,2.2803961473652343,-1.0172651449786585,0.09361838549375534
1708438234.1557853,-1.1048210859298706,-1.6820770702757777,-2.5264933745013636,2.2804242807575683,-1.0172250906573694,0.09357404708862305
1708438234.1577547,-1.10477876663208,-1.682023664514059,-2.5265846888171595,2.280444784755371,-1.0172012487994593,0.09358595311641693
1708438234.1597514,-1.1047863960266113,-1.6820279560484828,-2.5265591780291956,2.2804857927509765,-1.017249886189596,0.09354832768440247
1708438234.1617827,-1.1047507524490356,-1.6820570431151332,-2.5265608469592493,2.280432863826416,-1.0171721617328089,0.09363192319869995
1708438234.1637633,-1.1048085689544678,-1.6820484600462855,-2.5265427271472376,2.2804695802875976,-1.0172293821917933,0.09356072545051575
1708438234.1657493,-1.1047950983047485,-1.682094236413473,-2.5265935103045862,2.280420942897461,-1.0172174612628382,0.09359043836593628
1708438234.1677434,-1.1048041582107544,-1.6820279560484828,-2.5265353361712855,2.2804977136799316,-1.0171764532672327,0.09358597546815872
1708438234.1697412,-1.1047996282577515,-1.6820527515807093,-2.5265563170062464,2.2804414468952636,-1.017205540333883,0.09361842274665833
1708438234.1717384,-1.1048129796981812,-1.6820570431151332,-2.5265398661242884,2.2803799349018554,-1.0171640555011194,0.09357860684394836
1708438234.1737566,-1.104799747467041,-1.6820322475829066,-2.5265682379352015,2.280416651363037,-1.0172293821917933,0.09360682964324951
1708438234.1757805,-1.1047966480255127,-1.682016511956686,-2.52656060854067,2.28043715536084,-1.0171521345721644,0.09357404708862305
1708438234.1777408,-1.1047714948654175,-1.6819998226561488,-2.5265472571002405,2.280449076289795,-1.017249886189596,0.0935978889465332
1708438234.179752,-1.1048212051391602,-1.6819879017271937,-2.5265262762652796,2.2804080682941894,-1.017233673726217,0.09357404708862305
1708438234.181751,-1.1047581434249878,-1.6820293865599574,-2.5265308062182825,2.2804900842854003,-1.0171807448016565,0.09357404708862305
1708438234.1837745,-1.1047507524490356,-1.6820084057249964,-2.5265472571002405,2.280444784755371,-1.017221752797262,0.09353947639465332
1708438234.1857483,-1.104799747467041,-1.6820322475829066,-2.5265262762652796,2.2804242807575683,-1.0171435515033167,0.09358149766921997
1708438234.1877637,-1.1048210859298706,-1.6820322475829066,-2.5265846888171595,2.2804576593586425,-1.0172131697284144,0.09354400634765625
1708438234.1898632,-1.1047788858413696,-1.6819993458189906,-2.5265021959887903,2.280456705684326,-1.0171764532672327,0.09357860684394836
1708438234.1917863,-1.1048210859298706,-1.6820527515807093,-2.5264933745013636,2.280420942897461,-1.0172012487994593,0.09362289309501648
1708438234.1938171,-1.1047788858413696,-1.6820408306517542,-2.5265308062182825,2.280400438899658,-1.0171683470355433,0.09356957674026489
1708438234.1957822,-1.1048210859298706,-1.6820365391173304,-2.5265234152423304,2.2804123598286132,-1.017209831868307,0.0935528576374054
1708438234.197769,-1.104799747467041,-1.6820408306517542,-2.5265679995166224,2.2803961473652343,-1.0171478430377405,0.09356188774108887
1708438234.1997705,-1.1048212051391602,-1.6820560894408167,-2.5265398661242884,2.2805020052143554,-1.0172141234027308,0.09351122379302979
1708438234.2017732,-1.1047625541687012,-1.6820079288878382,-2.5265517870532435,2.2804252344318847,-1.0171683470355433,0.09359043836593628
1708438234.2038,-1.104807734489441,-1.6820770702757777,-2.5265384356128138,2.2805020052143554,-1.0171893278705042,0.09354400634765625
1708438234.2057664,-1.1048166751861572,-1.6820365391173304,-2.5265353361712855,2.280404730434082,-1.0171597639666956,0.09356510639190674
1708438234.2077491,-1.1048537492752075,-1.681995531121725,-2.5265265146838587,2.280465288753174,-1.0171564261065882,0.0935949981212616
1708438234.209755,-1.104799747467041,-1.682012220422262,-2.5265234152423304,2.280432863826416,-1.0171893278705042,0.09360235929489136
1708438234.2117739,-1.1047862768173218,-1.6820770702757777,-2.5265710989581507,2.2804457384296875,-1.017172638569967,0.0935978889465332
1708438234.213762,-1.1047908067703247,-1.6820813618102015,-2.5265353361712855,2.280440493220947,-1.017144505177633,0.09353199601173401
1708438234.2157812,-1.1048330068588257,-1.6820527515807093,-2.5265143553363245,2.2804533678242187,-1.0171650091754358,0.09356957674026489
1708438234.217799,-1.1047862768173218,-1.681969781915182,-2.5265143553363245,2.280444784755371,-1.0171650091754358,0.09353199601173401
1708438234.2197895,-1.1047863960266113,-1.6820560894408167,-2.5265067259417933,2.280400438899658,-1.0171359221087855,0.09357860684394836
1708438234.221781,-1.1048033237457275,-1.6820398769774378,-2.5264843145953577,2.2804533678242187,-1.0171650091754358,0.09357404708862305
1708438234.2237632,-1.1048403978347778,-1.6819912395873011,-2.5265188852893274,2.2804900842854003,-1.017176930104391,0.09351560473442078
1708438234.2257538,-1.1048403978347778,-1.6820689640440882,-2.5265682379352015,2.28043715536084,-1.0171812216388147,0.09356957674026489
1708438234.2277536,-1.1048403978347778,-1.6820980511107386,-2.5265560785876673,2.280477209682129,-1.0172231833087366,0.0935528576374054
1708438234.2297776,-1.104831576347351,-1.6820441685118617,-2.5265844503985804,2.280456705684326,-1.0171812216388147,0.09358596801757812
1708438234.2317522,-1.104807734489441,-1.682016511956686,-2.5265801588641565,2.2805020052143554,-1.017144505177633,0.09353199601173401
1708438234.2337818,-1.1047908067703247,-1.682016511956686,-2.5265143553363245,2.280432863826416,-1.0171650091754358,0.0935695618391037
1708438234.2357662,-1.1048479080200195,-1.682073255578512,-2.5265725294696253,2.2804857927509765,-1.0171564261065882,0.09356510639190674
1708438234.2377489,-1.1048479080200195,-1.6820527515807093,-2.5265637079821985,2.2804738718220214,-1.017148796712057,0.09353199601173401
1708438234.2398088,-1.1048359870910645,-1.6820322475829066,-2.5265770594226282,2.280440493220947,-1.017144505177633,0.09356635808944702
1708438234.241788,-1.1048359870910645,-1.682049413720602,-2.5265234152423304,2.280472918147705,-1.017160717641012,0.09359043836593628
1708438234.2437787,-1.104831576347351,-1.6820527515807093,-2.52656060854067,2.280444784755371,-1.017160717641012,0.09361844509840012
1708438234.2457557,-1.1048405170440674,-1.682023664514059,-2.5265560785876673,2.280472918147705,-1.017172638569967,0.0935949981212616
1708438234.2477953,-1.1048240661621094,-1.6820365391173304,-2.5265234152423304,2.280477209682129,-1.0171564261065882,0.09355731308460236
1708438234.2497427,-1.1048611402511597,-1.6820084057249964,-2.5265188852893274,2.280432863826416,-1.017120663319723,0.09362290799617767
1708438234.2517467,-1.1048479080200195,-1.682016511956686,-2.5265353361712855,2.2804478841968994,-1.0171411673175257,0.09354832768440247
1708438234.2537775,-1.104852318763733,-1.682045122186178,-2.526548687611715,2.2803992468067626,-1.0171368757831019,0.09361148625612259
1708438234.2557702,-1.104864239692688,-1.6820041141905726,-2.5265546480761927,2.2804900842854003,-1.0171249548541468,0.0935889482498169
1708438234.2577863,-1.104876160621643,-1.682016511956686,-2.5265353361712855,2.2804316717335205,-1.0171855131732386,0.0936068519949913
1708438234.2597356,-1.1048924922943115,-1.6819426021971644,-2.5265308062182825,2.2804857927509765,-1.017148796712057,0.0935695618391037
1708438234.261778,-1.1048345565795898,-1.682073255578512,-2.5265427271472376,2.2804362016865234,-1.0171693007098597,0.09359045326709747
1708438234.2637525,-1.104896903038025,-1.6820126972594203,-2.5265844503985804,2.2804524141499023,-1.017132584248678,0.09359045326709747
1708438234.2657695,-1.1048598289489746,-1.6820365391173304,-2.5265591780291956,2.280489130611084,-1.017132584248678,0.09360682964324951
1708438234.2677796,-1.1048598289489746,-1.6820484600462855,-2.5265100638019007,2.2804934221455078,-1.0171411673175257,0.09355734288692474
1708438234.2697763,-1.1048463582992554,-1.6819998226561488,-2.5265188852893274,2.2804815012165527,-1.0171650091754358,0.09364412724971771
1708438234.2717574,-1.1049214601516724,-1.6819592914977015,-2.5265517870532435,2.280472918147705,-1.0171735922442835,0.09359045326709747
1708438234.273748,-1.104905128479004,-1.6819640598692835,-2.5265308062182825,2.2804435926624755,-1.0171693007098597,0.09355732798576355
1708438234.275736,-1.1049199104309082,-1.6820603809752406,-2.5265398661242884,2.280534191722534,-1.0171855131732386,0.09355279803276062
1708438234.277759,-1.104900598526001,-1.6820041141905726,-2.5265234152423304,2.280480309123657,-1.0171335379229944,0.09354838728904724
1708438234.2797747,-1.104933261871338,-1.68204989055776,-2.5265308062182825,2.2804524141499023,-1.0171368757831019,0.09364420920610428
1708438234.2817519,-1.104870319366455,-1.6819802723326625,-2.5265517870532435,2.2805179792591552,-1.0171411673175257,0.09358596801757812
1708438234.2837772,-1.1049199104309082,-1.6820250950255335,-2.5265021959887903,2.280472918147705,-1.0171411673175257,0.09358146041631699
1708438234.2857509,-1.1048872470855713,-1.6820255718626917,-2.5265279451953333,2.280526562328003,-1.0171411673175257,0.09359501302242279
1708438234.2878137,-1.1048991680145264,-1.6820527515807093,-2.5264979044543665,2.280522270793579,-1.0171540419207972,0.09356957674026489
1708438234.2897656,-1.1049199104309082,-1.6820527515807093,-2.5265262762652796,2.2804393011280517,-1.0171249548541468,0.09357404708862305
1708438234.2918267,-1.1049481630325317,-1.6819802723326625,-2.5265308062182825,2.2805415826984863,-1.0171292463885706,0.09360957145690918
1708438234.293806,-1.1049333810806274,-1.6820041141905726,-2.5265234152423304,2.2805179792591552,-1.0171411673175257,0.09354844689369202
1708438234.2957895,-1.1049481630325317,-1.6820208034911097,-2.5265679995166224,2.2804111677357177,-1.017104450856344,0.09362293034791946
1708438234.297766,-1.1049362421035767,-1.681995531121725,-2.5265279451953333,2.2805091577717285,-1.0171616713153284,0.0936068519949913
1708438234.2997625,-1.1049362421035767,-1.6819836101927699,-2.5266101996051233,2.2805091577717285,-1.0171249548541468,0.0935528576374054
1708438234.3017764,-1.104965090751648,-1.682049413720602,-2.5265517870532435,2.280562086696289,-1.017142120991842,0.09356078505516052
1708438234.30385,-1.1049392223358154,-1.6820298633971156,-2.5265055338488978,2.2805134493061523,-1.0171659628497522,0.09356957674026489
1708438234.3057637,-1.1049607992172241,-1.6820365391173304,-2.5265143553363245,2.280512495631836,-1.0171130339251917,0.09357711672782898
1708438234.3077807,-1.104977011680603,-1.6820870838561,-2.526499334965841,2.2804435926624755,-1.0171216169940394,0.0935978889465332
1708438234.3097665,-1.1049888134002686,-1.6820217571654261,-2.5265381971942347,2.2804886537739257,-1.0171216169940394,0.09360239654779434
1708438234.3118386,-1.1049724817276,-1.6820408306517542,-2.5264933745013636,2.2805492120930175,-1.0171087423907679,0.0936274453997612
1708438234.3138037,-1.1049391031265259,-1.6819998226561488,-2.5265353361712855,2.2804674345203857,-1.0170887152301233,0.09361395984888077
1708438234.3157678,-1.1049888134002686,-1.6819998226561488,-2.5265021959887903,2.2805134493061523,-1.0170844236956995,0.0935978889465332
1708438234.317805,-1.1049799919128418,-1.6820126972594203,-2.5265398661242884,2.2805253702351074,-1.0170815626727503,0.09358595311641693
1708438234.3197775,-1.1050057411193848,-1.6819712124266566,-2.5265021959887903,2.280520125026367,-1.0170772711383265,0.09360957145690918
1708438234.3217747,-1.104996919631958,-1.682016511956686,-2.5265756289111536,2.28054062902417,-1.017097298298971,0.09357709437608719
1708438234.3237867,-1.1049517393112183,-1.6820646725096644,-2.526511255894796,2.28054062902417,-1.0170930067645472,0.0935770720243454
1708438234.3257697,-1.1049591302871704,-1.6819831333556117,-2.526565138493673,2.280512495631836,-1.017146412526266,0.0935889258980751
1708438234.3277657,-1.1049591302871704,-1.6820298633971156,-2.5265143553363245,2.2805329996296386,-1.017097298298971,0.09359350800514221
1708438234.3297632,-1.1050087213516235,-1.6819964847960414,-2.5265801588641565,2.28054062902417,-1.0170858542071741,0.09360504150390625
1708438234.3317997,-1.104996919631958,-1.6819921932616175,-2.5265324751483362,2.280568762416504,-1.0170443693744105,0.09361138939857483
1708438234.3337693,-1.1050087213516235,-1.6820041141905726,-2.5264859835254114,2.2805985647388916,-1.0171015898333948,0.09360235929489136
1708438234.3357472,-1.104992389678955,-1.6819759807982386,-2.526548687611715,2.280601902598999,-1.0171096960650843,0.09355616569519043
1708438234.3377676,-1.104996919631958,-1.6820298633971156,-2.5265234152423304,2.2805535036274414,-1.0170562903033655,0.09362293034791946
1708438234.3397527,-1.1049998998641968,-1.6819621525206507,-2.5264814535724085,2.280552549953125,-1.017069164906637,0.09358891099691391
1708438234.3417475,-1.1050325632095337,-1.6820041141905726,-2.5265472571002405,2.280601902598999,-1.0170648733722132,0.09362629055976868
1708438234.3437996,-1.104992389678955,-1.6819716892638148,-2.5265021959887903,2.280618115062378,-1.017090145741598,0.09363072365522385
1708438234.3457475,-1.1049665212631226,-1.6819716892638148,-2.5265067259417933,2.280597372645996,-1.0170453230487269,0.0936426892876625
1708438234.3477514,-1.1049835681915283,-1.6820484600462855,-2.5265398661242884,2.280543728465698,-1.0171058813678187,0.09359348565340042
1708438234.3497465,-1.1049879789352417,-1.6820250950255335,-2.5265472571002405,2.2806548315235595,-1.0170858542071741,0.09359349310398102
1708438234.351744,-1.1049954891204834,-1.682016511956686,-2.5265021959887903,2.280552549953125,-1.017057243977682,0.09362176060676575
1708438234.3537655,-1.1049710512161255,-1.6819755039610804,-2.5264902750598353,2.2806224065968017,-1.0170944372760218,0.09358447790145874
1708438234.3557527,-1.1049879789352417,-1.6819993458189906,-2.5265234152423304,2.280552549953125,-1.0170367399798792,0.09362288564443588
1708438234.3578196,-1.1050429344177246,-1.6820174656310023,-2.5265234152423304,2.28058569013562,-1.017041031514303,0.0936005637049675
1708438234.3597615,-1.1050087213516235,-1.6819802723326625,-2.5265324751483362,2.280606194133423,-1.017090145741598,0.09360823035240173
1708438234.3617713,-1.105029582977295,-1.6819592914977015,-2.5265608469592493,2.280597372645996,-1.0170367399798792,0.09361395239830017
1708438234.3637795,-1.1049710512161255,-1.6819549999632777,-2.5265308062182825,2.2805725771137695,-1.0170367399798792,0.09357711672782898
1708438234.3657699,-1.105025053024292,-1.6820126972594203,-2.5265398661242884,2.280548020000122,-1.0170658270465296,0.09361394494771957
1708438234.3677688,-1.1049879789352417,-1.6820341549315394,-2.526544157658712,2.280543728465698,-1.0170162359820765,0.09361395239830017
1708438234.3698022,-1.1049754619598389,-1.6819874248900355,-2.5265279451953333,2.280556841487549,-1.0170615355121058,0.0935889482498169
1708438234.3717487,-1.104996919631958,-1.6819755039610804,-2.526544157658712,2.280543728465698,-1.017069164906637,0.0936470478773117
1708438234.3738184,-1.1050013303756714,-1.6820293865599574,-2.5265234152423304,2.280564232463501,-1.017057243977682,0.09367574006319046
1708438234.3757424,-1.1049998998641968,-1.6819998226561488,-2.5265353361712855,2.280606194133423,-1.017057243977682,0.09366676211357117
1708438234.377733,-1.104954719543457,-1.6819831333556117,-2.5265188852893274,2.280536337489746,-1.0170987288104456,0.09361724555492401
1708438234.3797653,-1.1049754619598389,-1.6820126972594203,-2.526511255894796,2.280609293574951,-1.0170777479754847,0.09359151124954224
1708438234.3817375,-1.105029582977295,-1.6820126972594203,-2.526499334965841,2.2805887895771484,-1.0170658270465296,0.09359607845544815
1708438234.3837717,-1.1049710512161255,-1.6820217571654261,-2.5265279451953333,2.280601902598999,-1.017041031514303,0.09365907311439514
1708438234.3857472,-1.1050206422805786,-1.6820908985533656,-2.5265563170062464,2.2805070120045166,-1.0170367399798792,0.09366676211357117
1708438234.3877711,-1.105025053024292,-1.6820007763304652,-2.5265067259417933,2.280568762416504,-1.0170987288104456,0.09360957145690918
1708438234.3898125,-1.1049665212631226,-1.6820036373534144,-2.526511255894796,2.28058569013562,-1.0170701185809534,0.09369507431983948
1708438234.3917534,-1.104992389678955,-1.6819921932616175,-2.5265324751483362,2.2805275160023193,-1.0170615355121058,0.09360957145690918
1708438234.393793,-1.1049754619598389,-1.6819921932616175,-2.526503864918844,2.280629797572754,-1.0170324484454554,0.0936172604560852
1708438234.39576,-1.1050162315368652,-1.6820742092528285,-2.5264905134784144,2.2805394369312744,-1.0170453230487269,0.09363812208175659
1708438234.397809,-1.1050087213516235,-1.6819993458189906,-2.5265563170062464,2.280589981670044,-1.017041031514303,0.09364557266235352
1708438234.3997767,-1.1049844026565552,-1.6820036373534144,-2.5265279451953333,2.280543728465698,-1.017069164906637,0.09361724555492401
1708438234.4017699,-1.105025053024292,-1.6820365391173304,-2.526544157658712,2.280597372645996,-1.0171073118792933,0.09360051900148392
1708438234.403755,-1.1049879789352417,-1.6820126972594203,-2.5265234152423304,2.280515595073364,-1.0170944372760218,0.09364557266235352
1708438234.405772,-1.104996919631958,-1.6819874248900355,-2.5265188852893274,2.2805773454853515,-1.0170658270465296,0.0936623066663742
1708438234.407773,-1.1049879789352417,-1.6819964847960414,-2.5265279451953333,2.2805611330219726,-1.0170334021197718,0.09362459927797318
1708438234.4097908,-1.1050087213516235,-1.6819964847960414,-2.526499334965841,2.2806386190601806,-1.0170777479754847,0.09365326166152954
1708438234.4117904,-1.1050087213516235,-1.6820322475829066,-2.5265324751483362,2.280548020000122,-1.017029110585348,0.09366965293884277
1708438234.4137487,-1.105013370513916,-1.6820036373534144,-2.526511255894796,2.2805556493946533,-1.0170820395099085,0.09370407462120056
1708438234.4157565,-1.1049473285675049,-1.6820126972594203,-2.5265024344073694,2.2806104856678466,-1.0170777479754847,0.09368603676557541
1708438234.417781,-1.1049754619598389,-1.6820341549315394,-2.5265188852893274,2.280618115062378,-1.017057243977682,0.0936577320098877
1708438234.4197528,-1.1050176620483398,-1.6820298633971156,-2.526511255894796,2.2806472021290283,-1.0170615355121058,0.09370243549346924
1708438234.4217463,-1.1049753427505493,-1.6820084057249964,-2.526548687611715,2.2805556493946533,-1.0170858542071741,0.09370245784521103
1708438234.4238386,-1.104992389678955,-1.682016511956686,-2.5264979044543665,2.2805773454853515,-1.0170367399798792,0.09371757507324219
1708438234.4257524,-1.1049880981445312,-1.682012220422262,-2.5264976660357874,2.28058569013562,-1.017057243977682,0.09368008375167847
1708438234.427764,-1.1049724817276,-1.6820818386473597,-2.5264692942248743,2.2805773454853515,-1.0170615355121058,0.09373660385608673
1708438234.4297493,-1.1049561500549316,-1.6820322475829066,-2.5264902750598353,2.2805697160908203,-1.0170453230487269,0.09374885261058807
1708438234.43177,-1.1049338579177856,-1.6820336780943812,-2.5265234152423304,2.280593081111572,-1.0170615355121058,0.0937456488609314
1708438234.4337447,-1.1050267219543457,-1.6820208034911097,-2.5264859835254114,2.280536337489746,-1.017041031514303,0.09380251169204712
1708438234.435761,-1.1049888134002686,-1.6820689640440882,-2.526548687611715,2.280524416560791,-1.0170486609088343,0.09370416402816772
1708438234.4377484,-1.1049318313598633,-1.6820208034911097,-2.526511255894796,2.280568762416504,-1.0170734564410608,0.09380708634853363
1708438234.4397683,-1.1049318313598633,-1.6820322475829066,-2.526511255894796,2.280512495631836,-1.0170496145831507,0.0937906801700592
1708438234.4417632,-1.1049392223358154,-1.681967397729391,-2.5265021959887903,2.280556841487549,-1.0170944372760218,0.09379804134368896
1708438234.4437559,-1.104906439781189,-1.6819921932616175,-2.526515785847799,2.28058569013562,-1.017069164906637,0.09379509091377258
1708438234.4457655,-1.1049227714538574,-1.6819879017271937,-2.5265067259417933,2.280524416560791,-1.017069164906637,0.09376078844070435
1708438234.4477525,-1.1049888134002686,-1.6819845638670863,-2.5265021959887903,2.280601902598999,-1.0170648733722132,0.09376972913742065
1708438234.4497812,-1.1049199104309082,-1.6820928059019984,-2.526532236729757,2.280562325114868,-1.017052952443258,0.09378165006637573
1708438234.4517543,-1.1049525737762451,-1.6819921932616175,-2.526515785847799,2.280508204097412,-1.017052952443258,0.0937444418668747
1708438234.45376,-1.1049199104309082,-1.6820279560484828,-2.526511255894796,2.2805611330219726,-1.0170615355121058,0.09382379055023193
1708438234.4557796,-1.1049525737762451,-1.6820570431151332,-2.5265067259417933,2.2805654245563964,-1.017069164906637,0.09376674890518188
1708438234.4577508,-1.1049154996871948,-1.6820279560484828,-2.5265234152423304,2.280528708095215,-1.0170248190509241,0.09379806369543076
1708438234.459791,-1.1049154996871948,-1.6820413074889125,-2.526494805012838,2.280528708095215,-1.0170367399798792,0.09378908574581146
1708438234.4617963,-1.1048916578292847,-1.6820084057249964,-2.5265637079821985,2.2805535036274414,-1.0170562903033655,0.09376077353954315
1708438234.46376,-1.104928731918335,-1.6820084057249964,-2.5265234152423304,2.28054062902417,-1.0170858542071741,0.0937681794166565
1708438234.465756,-1.1049333810806274,-1.6820394001402796,-2.5265021959887903,2.280512495631836,-1.0170930067645472,0.0937277302145958
1708438234.467743,-1.1048791408538818,-1.6820279560484828,-2.5265234152423304,2.280528708095215,-1.0170605818377894,0.093793585896492
1708438234.469767,-1.1048880815505981,-1.6820484600462855,-2.5265234152423304,2.280480070705078,-1.017113987599508,0.0937652736902237
1708438234.4717445,-1.1048872470855713,-1.6820208034911097,-2.5264814535724085,2.2804929453083496,-1.0170815626727503,0.09376972913742065
1708438234.4737928,-1.1049094200134277,-1.6819993458189906,-2.5264647642718714,2.2805167871662597,-1.017113987599508,0.09378910064697266
1708438234.4757628,-1.1048626899719238,-1.6820298633971156,-2.5265353361712855,2.280500574702881,-1.0170930067645472,0.09377557039260864
1708438234.4778113,-1.1049007177352905,-1.6820694408812464,-2.5265234152423304,2.280463142985962,-1.0170815626727503,0.09381479769945145
1708438234.4797432,-1.104852318763733,-1.6819993458189906,-2.5265234152423304,2.280534191722534,-1.0171096960650843,0.09374439716339111
1708438234.4817464,-1.1048390865325928,-1.6820036373534144,-2.5265398661242884,2.2804972368427734,-1.017090145741598,0.09379354864358902
1708438234.4837668,-1.1048686504364014,-1.6820036373534144,-2.5265067259417933,2.2805017667957763,-1.0170858542071741,0.09379807114601135
1708438234.485735,-1.1048434972763062,-1.6819993458189906,-2.5265279451953333,2.2804524141499023,-1.0170777479754847,0.09376814216375351
1708438234.4877586,-1.1048240661621094,-1.6820174656310023,-2.5264814535724085,2.2804640966602783,-1.017113987599508,0.09379357099533081
1708438234.4898205,-1.1048359870910645,-1.6820413074889125,-2.5265021959887903,2.280394955272339,-1.0170429388629358,0.09375175833702087
1708438234.4917462,-1.1048121452331543,-1.68204989055776,-2.5265443960772913,2.2804242807575683,-1.0171096960650843,0.09378909319639206
1708438234.4937875,-1.1048121452331543,-1.6819831333556117,-2.5265067259417933,2.2804123598286132,-1.0171216169940394,0.09376373887062073
1708438234.4957433,-1.1047416925430298,-1.6820413074889125,-2.526557747517721,2.2804576593586425,-1.017158333455221,0.09383856505155563
1708438234.497748,-1.1048210859298706,-1.6820322475829066,-2.526581589375631,2.280409021968506,-1.0171130339251917,0.09378454089164734
1708438234.4997623,-1.1048210859298706,-1.6820575199522914,-2.5265067259417933,2.280371590251587,-1.0170844236956995,0.0937652587890625
1708438234.5017855,-1.1048121452331543,-1.6820651493468226,-2.526478115712301,2.2804252344318847,-1.0171216169940394,0.09379678219556808
1708438234.5037842,-1.1047595739364624,-1.6819993458189906,-2.5265067259417933,2.280470772380493,-1.0170968214618128,0.09381317347288132
1708438234.5057611,-1.104787826538086,-1.682110448876852,-2.5265443960772913,2.2804338175007324,-1.0170968214618128,0.09379234164953232
1708438234.5077457,-1.104787826538086,-1.6819950542845667,-2.5265279451953333,2.2804059225269775,-1.0171335379229944,0.09378006309270859
1708438234.5098155,-1.1047625541687012,-1.6819950542845667,-2.5265100638019007,2.2803844648548584,-1.0171011129962366,0.09381316602230072
1708438234.5118146,-1.1047182083129883,-1.6819993458189906,-2.5265324751483362,2.2804264265247802,-1.017071549092428,0.09382220357656479
1708438234.5137794,-1.1047149896621704,-1.6820117435851039,-2.5265489260302942,2.2803446489521484,-1.0171216169940394,0.09382668882608414
1708438234.5157852,-1.1047847270965576,-1.6820279560484828,-2.5265353361712855,2.2803682523914794,-1.0171292463885706,0.09380125999450684
1708438234.5177615,-1.1047728061676025,-1.6820365391173304,-2.5265067259417933,2.2804018694111328,-1.0171368757831019,0.09381763637065887
1708438234.5197651,-1.1047683954238892,-1.6820231876769007,-2.5265353361712855,2.2804018694111328,-1.0171530882464808,0.09385821223258972
1708438234.521801,-1.1047313213348389,-1.682051797906393,-2.5265398661242884,2.280414505595825,-1.0171693007098597,0.09380126744508743
1708438234.5237932,-1.1047520637512207,-1.6820394001402796,-2.5264902750598353,2.2803899484821777,-1.017148796712057,0.09379231929779053
1708438234.5257661,-1.1047595739364624,-1.6820818386473597,-2.526515785847799,2.28035752355542,-1.0171821753131312,0.09378910064697266
1708438234.5277755,-1.1047074794769287,-1.6820608578123988,-2.5265563170062464,2.280329390163086,-1.017148796712057,0.09379804134368896
1708438234.5297632,-1.1047520637512207,-1.6820651493468226,-2.5265398661242884,2.2803122240253906,-1.0171898047076624,0.09379234164953232
1708438234.531785,-1.1047282218933105,-1.6820980511107386,-2.5265308062182825,2.2803618150898437,-1.0171693007098597,0.09379680454730988
1708438234.533761,-1.1047074794769287,-1.6820694408812464,-2.5265443960772913,2.280329390163086,-1.0171821753131312,0.09384302794933319
1708438234.5357456,-1.104711890220642,-1.6819993458189906,-2.5265398661242884,2.2803618150898437,-1.0171402136432093,0.09379680454730988
1708438234.5377638,-1.1046992540359497,-1.6820322475829066,-2.5265021959887903,2.2803327280231933,-1.0171693007098597,0.0937877967953682
1708438234.5398169,-1.104711890220642,-1.6820394001402796,-2.5265563170062464,2.2803336816975097,-1.017176930104391,0.0938340574502945
1708438234.541757,-1.104720950126648,-1.6820608578123988,-2.5265188852893274,2.280308886165283,-1.0171530882464808,0.09379968792200089
1708438234.5437968,-1.1046785116195679,-1.6820651493468226,-2.5265021959887903,2.28038136541333,-1.0171650091754358,0.09381763637065887
1708438234.545816,-1.1047536134719849,-1.682016511956686,-2.5265324751483362,2.280341311092041,-1.0171650091754358,0.09373386949300766
1708438234.5477946,-1.1047385931015015,-1.6820279560484828,-2.5265725294696253,2.2803050714680175,-1.0172465483294886,0.09381318092346191
1708438234.549772,-1.1046473979949951,-1.682018896142477,-2.526515785847799,2.280317469234131,-1.0171650091754358,0.0938418060541153
1708438234.5517511,-1.1047052145004272,-1.6820484600462855,-2.526515785847799,2.28030173360791,-1.0171564261065882,0.09380125999450684
1708438234.553775,-1.1046385765075684,-1.6820255718626917,-2.5265279451953333,2.2803544241138916,-1.0171650091754358,0.0937877967953682
1708438234.555759,-1.104712724685669,-1.6820651493468226,-2.5265398661242884,2.2803544241138916,-1.017209831868307,0.09378781914710999
1708438234.5578067,-1.1046518087387085,-1.6820365391173304,-2.5265324751483362,2.280313177699707,-1.017160717641012,0.0938742384314537
1708438234.5597556,-1.1046310663223267,-1.6820322475829066,-2.5265188852893274,2.280308886165283,-1.017160717641012,0.09385818988084793
1708438234.561813,-1.1046844720840454,-1.68200745205068,-2.5265055338488978,2.280313654536865,-1.0171564261065882,0.09382510185241699
1708438234.5637681,-1.1046518087387085,-1.6820084057249964,-2.5265725294696253,2.2802843290516357,-1.017209831868307,0.09383726119995117
1708438234.5657377,-1.1047258377075195,-1.6820117435851039,-2.5265262762652796,2.280313654536865,-1.017193619404928,0.09380872547626495
1708438234.5678053,-1.1046637296676636,-1.6819993458189906,-2.5265234152423304,2.280317469234131,-1.0172012487994593,0.09380872547626495
1708438234.569758,-1.104668140411377,-1.6819993458189906,-2.52656060854067,2.2802962499805908,-1.0172131697284144,0.09384626895189285
1708438234.5717347,-1.1046518087387085,-1.6820141277708949,-2.5265353361712855,2.2803093630024414,-1.0172012487994593,0.09379234164953232
1708438234.573763,-1.1046442985534668,-1.6819902859129847,-2.5264933745013636,2.2802931505390625,-1.0171969572650355,0.09379534423351288
1708438234.5757449,-1.104681372642517,-1.68200745205068,-2.5265546480761927,2.28021947919812,-1.0172250906573694,0.09385818988084793
1708438234.5777926,-1.1046725511550903,-1.6820532284178675,-2.5265234152423304,2.280317469234131,-1.017233673726217,0.09380417317152023
1708438234.5797396,-1.1046310663223267,-1.6820117435851039,-2.526581589375631,2.2802769380756835,-1.017233673726217,0.09385640919208527
1708438234.5817575,-1.104668140411377,-1.6820818386473597,-2.5265067259417933,2.2802931505390625,-1.0172293821917933,0.09379233419895172
1708438234.583772,-1.1046487092971802,-1.6820560894408167,-2.5265279451953333,2.2803305822559814,-1.0172541777240198,0.09382955729961395
1708438234.5857794,-1.1046398878097534,-1.6820532284178675,-2.5264979044543665,2.2803587156483154,-1.0172455946551722,0.09385814517736435
1708438234.587772,-1.1046932935714722,-1.6820651493468226,-2.5264979044543665,2.2803348737904052,-1.017249886189596,0.09382843226194382
1708438234.5897753,-1.104668140411377,-1.6820608578123988,-2.5265188852893274,2.2803219991871337,-1.0171721617328089,0.09379971772432327
1708438234.5917616,-1.1046888828277588,-1.6820117435851039,-2.5265637079821985,2.280256434077881,-1.017249886189596,0.09382055699825287
1708438234.5937905,-1.1046844720840454,-1.6820365391173304,-2.5265472571002405,2.2802888590046386,-1.0171683470355433,0.09384918212890625
1708438234.595798,-1.1046442985534668,-1.6820441685118617,-2.5265591780291956,2.280257387752197,-1.0172413031207483,0.09379534423351288
1708438234.5978248,-1.1046888828277588,-1.6820208034911097,-2.5265682379352015,2.2802931505390625,-1.0171926657306116,0.09383726119995117
1708438234.5997474,-1.1047052145004272,-1.682101388970846,-2.5265427271472376,2.2802325922199707,-1.0172541777240198,0.09382055699825287
1708438234.6017506,-1.1047008037567139,-1.6820441685118617,-2.5265279451953333,2.2802607256123046,-1.0172131697284144,0.0938536524772644
1708438234.603793,-1.104718565940857,-1.6820694408812464,-2.5265770594226282,2.2802931505390625,-1.0172293821917933,0.09381763637065887
1708438234.6057518,-1.1046518087387085,-1.6820413074889125,-2.5265279451953333,2.2803050714680175,-1.0172088781939905,0.09384918212890625
1708438234.6077378,-1.1046769618988037,-1.6820818386473597,-2.5265427271472376,2.2802445131489257,-1.0172250906573694,0.09380872547626495
1708438234.6097565,-1.10463547706604,-1.6820322475829066,-2.5265188852893274,2.2803050714680175,-1.0172370115863245,0.09386264532804489
1708438234.6117795,-1.1047428846359253,-1.6820394001402796,-2.5265517870532435,2.280313654536865,-1.0172174612628382,0.09377896785736084
1708438234.6137483,-1.10463547706604,-1.6820651493468226,-2.5265427271472376,2.2803093630024414,-1.0172045866595667,0.09380417317152023
1708438234.6157758,-1.1046650409698486,-1.6820394001402796,-2.5265143553363245,2.2803265291401367,-1.0172207991229456,0.0938418060541153
1708438234.6177683,-1.1046606302261353,-1.682016511956686,-2.5265591780291956,2.2803093630024414,-1.017184082661764,0.09385072439908981
1708438234.6197746,-1.1046398878097534,-1.682047029534811,-2.5265021959887903,2.280355377788208,-1.0172045866595667,0.09380412846803665
1708438234.6217535,-1.1046769618988037,-1.6819740734496058,-2.5265188852893274,2.280268116588257,-1.0172370115863245,0.09383726119995117
1708438234.6237595,-1.1046932935714722,-1.682018896142477,-2.5265472571002405,2.2803348737904052,-1.0172002951251429,0.09384628385305405
1708438234.6257334,-1.1046637296676636,-1.682030817071432,-2.5265262762652796,2.280268116588257,-1.0172174612628382,0.09383285045623779
1708438234.627804,-1.1046562194824219,-1.6819950542845667,-2.5265353361712855,2.2803336816975097,-1.0172455946551722,0.09384177625179291
1708438234.6297317,-1.1046518087387085,-1.6820231876769007,-2.5265188852893274,2.280256434077881,-1.0172532240497034,0.09379971772432327
1708438234.631736,-1.1046844720840454,-1.6820231876769007,-2.5265472571002405,2.2802769380756835,-1.0172045866595667,0.09378333389759064
1708438234.6337607,-1.1046637296676636,-1.6820231876769007,-2.5265756289111536,2.280306025142334,-1.0172088781939905,0.09384177625179291
1708438234.6357338,-1.1046549081802368,-1.6820484600462855,-2.5265353361712855,2.2803093630024414,-1.0172045866595667,0.0938250869512558
1708438234.6377716,-1.1046875715255737,-1.6820560894408167,-2.5265637079821985,2.280367298717163,-1.0172207991229456,0.09386266767978668
1708438234.6398263,-1.1046593189239502,-1.6820560894408167,-2.5265398661242884,2.2802607256123046,-1.0172455946551722,0.09382955729961395
1708438234.6417875,-1.1046637296676636,-1.6820641956725062,-2.5265563170062464,2.2803262907215576,-1.0172131697284144,0.09385813772678375
1708438234.643777,-1.1047296524047852,-1.6820394001402796,-2.5265770594226282,2.2803093630024414,-1.0172413031207483,0.09384183585643768
1708438234.6458347,-1.1046756505966187,-1.6820279560484828,-2.5265188852893274,2.2803262907215576,-1.0172045866595667,0.09378015249967575
1708438234.6478095,-1.1047172546386719,-1.6820560894408167,-2.5265682379352015,2.280317469234131,-1.0172088781939905,0.09379232674837112
1708438234.6497757,-1.1046593189239502,-1.6819993458189906,-2.5265517870532435,2.280273600215576,-1.0172455946551722,0.09380127489566803
1708438234.6517682,-1.1046844720840454,-1.6820322475829066,-2.5265021959887903,2.2802888590046386,-1.0172045866595667,0.09380874037742615
1708438234.6538064,-1.1046963930130005,-1.682051797906393,-2.5265472571002405,2.2802607256123046,-1.0172737280475062,0.09380873292684555
1708438234.655822,-1.1046875715255737,-1.6820608578123988,-2.526565138493673,2.2803382116505126,-1.0172293821917933,0.09386707842350006
1708438234.6577752,-1.1047340631484985,-1.6820484600462855,-2.5265563170062464,2.2802769380756835,-1.0172045866595667,0.09380581974983215
1708438234.6597583,-1.1046593189239502,-1.6820322475829066,-2.5265188852893274,2.280308886165283,-1.017233673726217,0.09386256337165833
1708438234.661796,-1.1047039031982422,-1.6820441685118617,-2.52656060854067,2.280339165324829,-1.0172446409808558,0.09383723139762878
1708438234.6637442,-1.1047083139419556,-1.6819921932616175,-2.526515785847799,2.2803587156483154,-1.0172293821917933,0.09379680454730988
1708438234.66577,-1.1047052145004272,-1.6820532284178675,-2.5265801588641565,2.2803005415150146,-1.0172250906573694,0.09381472319364548
1708438234.6677487,-1.1047296524047852,-1.6819993458189906,-2.52656060854067,2.2803219991871337,-1.0172293821917933,0.09384175390005112
1708438234.6697385,-1.104674220085144,-1.682016511956686,-2.526548687611715,2.2803336816975097,-1.0172293821917933,0.09379680454730988
1708438234.6717813,-1.104762315750122,-1.6820608578123988,-2.5265308062182825,2.2802962499805908,-1.017237965260641,0.0938473716378212
1708438234.6737432,-1.1046667098999023,-1.6820322475829066,-2.5265308062182825,2.2803050714680175,-1.0172293821917933,0.09385068714618683
1708438234.675734,-1.1047415733337402,-1.6820413074889125,-2.5265262762652796,2.280345602626465,-1.0172250906573694,0.09377719461917877
1708438234.6777768,-1.1046949625015259,-1.6820742092528285,-2.5265021959887903,2.2803305822559814,-1.0172088781939905,0.09380581974983215
1708438234.6797354,-1.1047208309173584,-1.6820231876769007,-2.5265067259417933,2.280345602626465,-1.0172088781939905,0.0937756821513176
1708438234.6817589,-1.1047786474227905,-1.6820279560484828,-2.5265262762652796,2.2803093630024414,-1.017233673726217,0.09380876272916794
1708438234.6837387,-1.104711890220642,-1.6820484600462855,-2.5265427271472376,2.280345602626465,-1.0172165075885218,0.09381316602230072
1708438234.6857371,-1.1047415733337402,-1.681981702844137,-2.52656060854067,2.280313177699707,-1.0172250906573694,0.09385068714618683
1708438234.687783,-1.104756474494934,-1.6820351086058558,-2.52656060854067,2.280308886165283,-1.0172174612628382,0.09378910064697266
1708438234.6898315,-1.1047489643096924,-1.6820084057249964,-2.5265353361712855,2.280280037517212,-1.017261807118551,0.09383859485387802
1708438234.6917589,-1.1046949625015259,-1.6820441685118617,-2.5265398661242884,2.280325098628662,-1.0172165075885218,0.09376819431781769
1708438234.6937993,-1.1047074794769287,-1.6820455990233363,-2.5265608469592493,2.2802671629139404,-1.0172446409808558,0.09378781914710999
1708438234.6957998,-1.1047683954238892,-1.6820279560484828,-2.5265398661242884,2.2803780275532226,-1.017233673726217,0.09376375377178192
1708438234.6977692,-1.104756474494934,-1.6820608578123988,-2.5265427271472376,2.28035752355542,-1.0172455946551722,0.09379681199789047
1708438234.6997845,-1.1047401428222656,-1.6820365391173304,-2.526548687611715,2.2803208070942382,-1.0171883741961878,0.09380125999450684
1708438234.7017689,-1.1047182083129883,-1.6820861301817835,-2.5265143553363245,2.2803165155598144,-1.017151180897848,0.09381913393735886
1708438234.7037992,-1.104777216911316,-1.6820231876769007,-2.5265517870532435,2.2803446489521484,-1.0171597639666956,0.09381024539470673
1708438234.70583,-1.1047683954238892,-1.6819831333556117,-2.5265756289111536,2.2803608614155273,-1.0171640555011194,0.09380580484867096
1708438234.7077527,-1.1047520637512207,-1.6820117435851039,-2.5265637079821985,2.2804018694111328,-1.0172293821917933,0.09379681199789047
1708438234.7097557,-1.1047966480255127,-1.6820694408812464,-2.5265935103045862,2.280325098628662,-1.017233673726217,0.09383861720561981
1708438234.7117705,-1.1047847270965576,-1.6820608578123988,-2.5265517870532435,2.2803446489521484,-1.017221752797262,0.09375930577516556
1708438234.7137487,-1.1048085689544678,-1.6820560894408167,-2.5265188852893274,2.2803608614155273,-1.017209831868307,0.09376371651887894
1708438234.7157497,-1.1047595739364624,-1.6820641956725062,-2.5264859835254114,2.2803727823444824,-1.0171883741961878,0.09376819431781769
1708438234.7177656,-1.1047834157943726,-1.6820484600462855,-2.5265637079821985,2.2803565698811035,-1.0172293821917933,0.0937979593873024
1708438234.7197974,-1.1047714948654175,-1.6820651493468226,-2.5264888445483606,2.2804059225269775,-1.0172422567950647,0.09383399784564972
1708438234.7217948,-1.104787826538086,-1.6820608578123988,-2.5265889803515833,2.2803639608570556,-1.0172250906573694,0.09380125999450684
1708438234.723836,-1.1048085689544678,-1.6820651493468226,-2.5264979044543665,2.280393286342285,-1.0172131697284144,0.09380125999450684
1708438234.7258155,-1.1048041582107544,-1.6820441685118617,-2.5265443960772913,2.2804059225269775,-1.0172131697284144,0.09375640004873276
1708438234.7278042,-1.1047507524490356,-1.6820651493468226,-2.5265770594226282,2.2804383474537353,-1.0172455946551722,0.09379354864358902
1708438234.729783,-1.1047462224960327,-1.6820727787413539,-2.5265725294696253,2.2803801733204345,-1.0172174612628382,0.0938221663236618
1708438234.7317905,-1.1048446893692017,-1.6820532284178675,-2.5265143553363245,2.2804176050373535,-1.0171893278705042,0.09378910064697266
1708438234.733835,-1.1048173904418945,-1.6820322475829066,-2.5265279451953333,2.280371590251587,-1.017209831868307,0.09378910064697266
1708438234.7357607,-1.1048330068588257,-1.6820413074889125,-2.5265398661242884,2.280400438899658,-1.017233673726217,0.09379799664020538
1708438234.7377763,-1.1048041582107544,-1.6820351086058558,-2.5265234152423304,2.280409021968506,-1.0171812216388147,0.09380125999450684
1708438234.7398107,-1.1047625541687012,-1.6820651493468226,-2.5265517870532435,2.2804252344318847,-1.017237965260641,0.09379681199789047
1708438234.7417722,-1.1047624349594116,-1.6820560894408167,-2.5265067259417933,2.2804252344318847,-1.0171850363360804,0.09386856108903885
1708438234.7438097,-1.1048166751861572,-1.6820279560484828,-2.5265443960772913,2.2804414468952636,-1.017176930104391,0.09381024539470673
1708438234.7457795,-1.1047863960266113,-1.682016511956686,-2.5265563170062464,2.280465288753174,-1.017205540333883,0.09379799664020538
1708438234.74779,-1.1048625707626343,-1.6820560894408167,-2.5265443960772913,2.2804457384296875,-1.0172174612628382,0.09377273172140121
1708438234.7498035,-1.1048121452331543,-1.6819740734496058,-2.5264979044543665,2.280420942897461,-1.0171812216388147,0.09376819431781769
1708438234.751774,-1.1048166751861572,-1.6820351086058558,-2.5265234152423304,2.2804500299641113,-1.017193619404928,0.09380125999450684
1708438234.7537591,-1.1048041582107544,-1.6820208034911097,-2.5265055338488978,2.280359669322632,-1.0171979109393519,0.09373101592063904
1708438234.7558074,-1.104819655418396,-1.6820117435851039,-2.5265427271472376,2.280428572291992,-1.0171693007098597,0.0938626080751419
1708438234.757824,-1.1048448085784912,-1.6820560894408167,-2.5265021959887903,2.2804242807575683,-1.0171368757831019,0.09381762892007828
1708438234.7597528,-1.1048330068588257,-1.6820441685118617,-2.5265188852893274,2.28046624242749,-1.017176930104391,0.09380125999450684
1708438234.761768,-1.1047329902648926,-1.6820484600462855,-2.5265262762652796,2.280416651363037,-1.0171368757831019,0.0938221663236618
1708438234.7637577,-1.1048493385314941,-1.6820603809752406,-2.5265188852893274,2.280416651363037,-1.017148796712057,0.09381913393735886
1708438234.7657661,-1.104807734489441,-1.6820279560484828,-2.5265308062182825,2.2804059225269775,-1.0171163717852991,0.09379681199789047
1708438234.7677557,-1.104799747467041,-1.6820441685118617,-2.5265353361712855,2.2804576593586425,-1.0171650091754358,0.09382506459951401
1708438234.7697453,-1.1047989130020142,-1.6820231876769007,-2.52656060854067,2.2804252344318847,-1.0171292463885706,0.0938221663236618
1708438234.7717562,-1.1048403978347778,-1.68206848720693,-2.5265021959887903,2.2804295259663085,-1.0171411673175257,0.09381468594074249
1708438234.7737741,-1.104799747467041,-1.6820279560484828,-2.5265188852893274,2.280428572291992,-1.0171650091754358,0.09376668930053711
1708438234.7757413,-1.1048033237457275,-1.682012220422262,-2.52656060854067,2.2804252344318847,-1.0171368757831019,0.09380125999450684
1708438234.7777429,-1.1047788858413696,-1.6820279560484828,-2.5265563170062464,2.280404730434082,-1.0171216169940394,0.09377273172140121
1708438234.7797356,-1.1047950983047485,-1.6820351086058558,-2.5265725294696253,2.280416651363037,-1.0171292463885706,0.09381762892007828
1708438234.7817504,-1.1048240661621094,-1.682016511956686,-2.526565138493673,2.2804857927509765,-1.0171454588519495,0.09382660686969757
1708438234.7837408,-1.1048284769058228,-1.6820651493468226,-2.5265188852893274,2.280404730434082,-1.0171821753131312,0.09381319582462311
1708438234.7857347,-1.1048331260681152,-1.6820117435851039,-2.5265021959887903,2.2804457384296875,-1.0171249548541468,0.09383399784564972
1708438234.7877383,-1.104767084121704,-1.6820394001402796,-2.5265234152423304,2.280420942897461,-1.0171011129962366,0.09378011524677277
1708438234.7898662,-1.1048537492752075,-1.6820413074889125,-2.5265324751483362,2.280465288753174,-1.0170844236956995,0.09377113729715347
1708438234.7917893,-1.1048166751861572,-1.6820117435851039,-2.5265560785876673,2.280420942897461,-1.0171259085284632,0.09379234164953232
1708438234.7937927,-1.1048166751861572,-1.6820208034911097,-2.526511255894796,2.2803961473652343,-1.0171173254596155,0.09383281320333481
1708438234.7958114,-1.1048537492752075,-1.6820322475829066,-2.5265021959887903,2.2804857927509765,-1.0171054045306605,0.09386709332466125
1708438234.797767,-1.1048330068588257,-1.6820365391173304,-2.526499334965841,2.2804576593586425,-1.0170930067645472,0.09378333389759064
1708438234.7997587,-1.1047863960266113,-1.6820651493468226,-2.526565138493673,2.280432863826416,-1.0170443693744105,0.09380421042442322
1708438234.801792,-1.104799747467041,-1.6820441685118617,-2.526511255894796,2.2804695802875976,-1.0170734564410608,0.09383395314216614
1708438234.8037853,-1.104799747467041,-1.6820279560484828,-2.5265188852893274,2.2804414468952636,-1.0170648733722132,0.09389052540063858
1708438234.8058264,-1.1048730611801147,-1.6820560894408167,-2.526494805012838,2.2804414468952636,-1.017090145741598,0.09379234910011292
1708438234.8077862,-1.1047863960266113,-1.6820365391173304,-2.5265021959887903,2.2804900842854003,-1.017057243977682,0.09386259317398071
1708438234.8097432,-1.104864239692688,-1.6819902859129847,-2.526473585759298,2.2804576593586425,-1.0170734564410608,0.09384176880121231
1708438234.8117745,-1.104799747467041,-1.6820532284178675,-2.526494805012838,2.2804900842854003,-1.0170496145831507,0.09378333389759064
1708438234.8137815,-1.1048493385314941,-1.6820608578123988,-2.5265443960772913,2.2804252344318847,-1.0170171896563929,0.09385363012552261
1708438234.815746,-1.1047908067703247,-1.682051797906393,-2.5264528433429163,2.280363007182739,-1.0170257727252405,0.09387870132923126
1708438234.8177605,-1.104787826538086,-1.6820484600462855,-2.526511255894796,2.2804295259663085,-1.0170539061175745,0.09384919703006744
1708438234.819796,-1.1048166751861572,-1.6820365391173304,-2.5264692942248743,2.2804252344318847,-1.017012898121969,0.0938682034611702
1708438234.821779,-1.1047863960266113,-1.6820351086058558,-2.5265279451953333,2.2804414468952636,-1.0170376936541956,0.09383726119995117
1708438234.8237646,-1.1048448085784912,-1.6820560894408167,-2.5265021959887903,2.2804123598286132,-1.0170701185809534,0.09385363757610321
1708438234.8257415,-1.1048493385314941,-1.6820441685118617,-2.5265279451953333,2.2804900842854003,-1.0170376936541956,0.09385187923908234
1708438234.8277726,-1.104807734489441,-1.6820560894408167,-2.5265563170062464,2.2804414468952636,-1.0170453230487269,0.09391772001981735
1708438234.8297615,-1.1048448085784912,-1.6820727787413539,-2.526499334965841,2.280416651363037,-1.0170171896563929,0.09388796985149384
1708438234.8317502,-1.104837417602539,-1.6820608578123988,-2.5265067259417933,2.280432863826416,-1.017012898121969,0.09390434622764587
1708438234.8337789,-1.1048284769058228,-1.6820231876769007,-2.526503864918844,2.28043715536084,-1.0170052687274378,0.09385491162538528
1708438234.8357553,-1.1048033237457275,-1.6820231876769007,-2.5265443960772913,2.28043715536084,-1.0169809500323694,0.09393743425607681
1708438234.837777,-1.1048121452331543,-1.6820532284178675,-2.5265067259417933,2.2803758817860107,-1.0170214811908167,0.09390433132648468
1708438234.8398309,-1.104781985282898,-1.6820441685118617,-2.526494805012838,2.280400438899658,-1.0169737974749964,0.09392392635345459
1708438234.8417776,-1.104831576347351,-1.6820608578123988,-2.526515785847799,2.2804080682941894,-1.0170095602618616,0.09395825862884521
1708438234.8437748,-1.1047945022583008,-1.6820484600462855,-2.5264902750598353,2.2804533678242187,-1.0169852415667933,0.09395381063222885
1708438234.8457766,-1.1048418283462524,-1.6820727787413539,-2.526482645665304,2.280420942897461,-1.0170095602618616,0.0939328670501709
1708438234.8477845,-1.1047908067703247,-1.6820441685118617,-2.526508394871847,2.2804695802875976,-1.0169766584979456,0.09389980882406235
1708438234.8497531,-1.104807734489441,-1.6820575199522914,-2.526598040257589,2.2804414468952636,-1.0169852415667933,0.09394478797912598
1708438234.8517807,-1.1047834157943726,-1.6820126972594203,-2.5265021959887903,2.2804533678242187,-1.0169981161700647,0.09399683773517609
1708438234.853804,-1.104799747467041,-1.682047029534811,-2.526503864918844,2.280416651363037,-1.0170019308673304,0.09399682283401489
1708438234.8557901,-1.104807734489441,-1.6820231876769007,-2.526499334965841,2.2804738718220214,-1.0169332663165491,0.09397454559803009
1708438234.8577685,-1.1048686504364014,-1.6820532284178675,-2.526548687611715,2.280404730434082,-1.016949478779928,0.09402992576360703
1708438234.8597472,-1.1048359870910645,-1.6820231876769007,-2.5264902750598353,2.280416651363037,-1.0169528166400355,0.09399985522031784
1708438234.8617427,-1.104807734489441,-1.6820322475829066,-2.526499334965841,2.28043715536084,-1.016961399708883,0.09403741359710693
1708438234.8637886,-1.1048240661621094,-1.6820908985533656,-2.5264859835254114,2.280428572291992,-1.0169699827777308,0.09403292834758759
1708438234.86581,-1.1048210859298706,-1.68200745205068,-2.526541296635763,2.2804252344318847,-1.0169623533831995,0.09402847290039062
1708438234.8677719,-1.1048493385314941,-1.6820413074889125,-2.526478115712301,2.280420942897461,-1.0169537703143519,0.09403140842914581
1708438234.8697708,-1.1048240661621094,-1.6819788418211878,-2.526515785847799,2.280420942897461,-1.0169408957110804,0.09405229985713959
1708438234.8717582,-1.1048271656036377,-1.6820441685118617,-2.52653676668276,2.280449076289795,-1.0169866720782679,0.09404481202363968
1708438234.873775,-1.1048359870910645,-1.6820413074889125,-2.526482645665304,2.280371590251587,-1.0169451872455042,0.09402844309806824
1708438234.8757613,-1.1048448085784912,-1.6820651493468226,-2.52653676668276,2.280449076289795,-1.016965691243307,0.09401506930589676
1708438234.8777788,-1.1048611402511597,-1.6820365391173304,-2.5265324751483362,2.28043715536084,-1.0169418493853968,0.0940643846988678
1708438234.8797574,-1.1048555374145508,-1.6820560894408167,-2.5265188852893274,2.280392809505127,-1.016961399708883,0.09408082067966461
1708438234.8817418,-1.1048479080200195,-1.6819993458189906,-2.526445452366964,2.2804815012165527,-1.0169332663165491,0.09404778480529785
1708438234.8838146,-1.1048849821090698,-1.6820117435851039,-2.526515785847799,2.2804738718220214,-1.0169332663165491,0.09406004101037979
1708438234.8857646,-1.104831576347351,-1.6820908985533656,-2.526496235524313,2.2803961473652343,-1.0169909636126917,0.09407785534858704
1708438234.8877885,-1.1048686504364014,-1.68200745205068,-2.5264902750598353,2.280432863826416,-1.0169418493853968,0.09406901895999908
1708438234.8898351,-1.1048479080200195,-1.6820279560484828,-2.526508394871847,2.2804815012165527,-1.0169451872455042,0.09406447410583496
1708438234.8918023,-1.1048479080200195,-1.6820365391173304,-2.526503864918844,2.2804857927509765,-1.0169332663165491,0.09406004101037979
1708438234.8938289,-1.1048598289489746,-1.6820651493468226,-2.526466194783346,2.280472918147705,-1.0169289747821253,0.09409718215465546
1708438234.8958116,-1.1048463582992554,-1.682016511956686,-2.52649170557131,2.2804815012165527,-1.016937557850973,0.0940600112080574
1708438234.8977683,-1.1049138307571411,-1.6820484600462855,-2.526515785847799,2.2804154592701416,-1.016961399708883,0.09403448551893234
1708438234.899806,-1.1048872470855713,-1.6820651493468226,-2.526515785847799,2.280468626613281,-1.0169981161700647,0.0941552072763443
1708438234.9018471,-1.1049124002456665,-1.6820742092528285,-2.526503864918844,2.280468626613281,-1.0169451872455042,0.0941002294421196
1708438234.9038217,-1.1048479080200195,-1.6820322475829066,-2.526520315800802,2.28048483907666,-1.0169451872455042,0.09409569948911667
1708438234.9057727,-1.1048880815505981,-1.6820208034911097,-2.5265324751483362,2.2804393011280517,-1.016982380543844,0.09414186328649521
1708438234.907771,-1.1048717498779297,-1.6820322475829066,-2.526487175618307,2.280468626613281,-1.0169451872455042,0.0940600261092186
1708438234.9097497,-1.104876160621643,-1.6820932827391566,-2.5265324751483362,2.2804972368427734,-1.016961399708883,0.09411239624023438
1708438234.9117634,-1.1049199104309082,-1.681990762750143,-2.526508394871847,2.2805179792591552,-1.0169780890094202,0.09416118264198303
1708438234.9137614,-1.1049525737762451,-1.6820455990233363,-2.526515785847799,2.2804929453083496,-1.0169571081744593,0.09418240189552307
1708438234.9157617,-1.1048539876937866,-1.6820322475829066,-2.5265067259417933,2.2805372911640625,-1.0169780890094202,0.09419281780719757
1708438234.9177845,-1.104928731918335,-1.6820413074889125,-2.526511255894796,2.2805167871662597,-1.0169408957110804,0.09414665400981903
1708438234.919846,-1.1049035787582397,-1.6819983921446742,-2.526478115712301,2.2805210787006835,-1.0169809500323694,0.09418098628520966
1708438234.9217784,-1.104965090751648,-1.6820575199522914,-2.526461903248922,2.2805816370197753,-1.0169442335711878,0.0941883847117424
1708438234.9238017,-1.1049199104309082,-1.6820413074889125,-2.526478115712301,2.2805654245563964,-1.016982380543844,0.09419163316488266
1708438234.9258242,-1.1049481630325317,-1.68200745205068,-2.526499334965841,2.280556841487549,-1.016982380543844,0.0942080020904541
1708438234.9278252,-1.1048991680145264,-1.6821066341795863,-2.526499334965841,2.280593081111572,-1.016961399708883,0.09420356899499893
1708438234.9297898,-1.1049561500549316,-1.6819950542845667,-2.526482645665304,2.280593081111572,-1.017022434865133,0.09421101957559586
1708438234.9317718,-1.1049304008483887,-1.6819788418211878,-2.526499334965841,2.2805964189716796,-1.0169976393329065,0.0941738486289978
1708438234.9337935,-1.1049636602401733,-1.6819788418211878,-2.526494805012838,2.280581160182617,-1.0169809500323694,0.09423931688070297
1708438234.935756,-1.1049473285675049,-1.6820575199522914,-2.526494805012838,2.280563994044922,-1.0170019308673304,0.09427951276302338
1708438234.9379177,-1.1049933433532715,-1.6820322475829066,-2.526503864918844,2.280621214503906,-1.0170095602618616,0.0942884236574173
1708438234.9398618,-1.1049606800079346,-1.6820279560484828,-2.5264528433429163,2.280621214503906,-1.0170095602618616,0.09430360794067383
1708438234.9417932,-1.1049844026565552,-1.6820322475829066,-2.526503864918844,2.280657930965088,-1.0170181433307093,0.09433635324239731
1708438234.9437928,-1.1049835681915283,-1.6820084057249964,-2.526487175618307,2.280637426967285,-1.0169890562640589,0.09431108087301254
1708438234.945788,-1.104970932006836,-1.6820413074889125,-2.526511255894796,2.2806612688251953,-1.017000977193014,0.09431110322475433
1708438234.9477603,-1.1050206422805786,-1.6820532284178675,-2.526503864918844,2.2806169229694824,-1.0170214811908167,0.09439284354448318
1708438234.9497755,-1.1050013303756714,-1.682016511956686,-2.526496235524313,2.280632181758545,-1.0170496145831507,0.0943751335144043
1708438234.9517775,-1.1050043106079102,-1.6820255718626917,-2.526499334965841,2.280627651805542,-1.017029110585348,0.0943828672170639
1708438234.9538164,-1.1050118207931519,-1.682016511956686,-2.526557747517721,2.280672712916992,-1.0170944372760218,0.0943828746676445
1708438234.9557843,-1.1049822568893433,-1.6820055447020472,-2.526548687611715,2.2806526857563476,-1.0170944372760218,0.09441114217042923
1708438234.957759,-1.105089783668518,-1.6820365391173304,-2.526494805012838,2.2806803423115234,-1.017057243977682,0.09441113471984863
1708438234.9597514,-1.1050608158111572,-1.6820255718626917,-2.526494805012838,2.2807203966328125,-1.0170987288104456,0.09449944645166397
1708438234.9617507,-1.1050564050674438,-1.6819669208922328,-2.526529137288229,2.2807161050983886,-1.0170648733722132,0.09444127231836319
1708438234.9637485,-1.105068325996399,-1.6819921932616175,-2.5264902750598353,2.2807397085377197,-1.0171015898333948,0.094535231590271
1708438234.965752,-1.1050926446914673,-1.6819592914977015,-2.526553217564718,2.280796690578125,-1.0170772711383265,0.09457874298095703
1708438234.9677458,-1.1050548553466797,-1.6819874248900355,-2.5265279451953333,2.280764265651367,-1.0170887152301233,0.09462372958660126
1708438234.969759,-1.1050763130187988,-1.6819964847960414,-2.5265324751483362,2.2808052736469726,-1.0170815626727503,0.0946682021021843
1708438234.9717443,-1.1051089763641357,-1.6819802723326625,-2.5264859835254114,2.280804319972656,-1.0171173254596155,0.09463834762573242
1708438234.9737587,-1.1050926446914673,-1.6819473705687464,-2.526508394871847,2.2807890611835937,-1.0171173254596155,0.09465797245502472
1708438234.9757776,-1.105088233947754,-1.68198885540151,-2.5265234152423304,2.2808376985737304,-1.0171216169940394,0.09474305808544159
1708438234.9777467,-1.105100154876709,-1.6820126972594203,-2.5265145937549036,2.280878468150757,-1.0171573797809046,0.09473863989114761
1708438234.9797442,-1.105132818222046,-1.6820007763304652,-2.526478115712301,2.2808729845234375,-1.017132584248678,0.0947999432682991
1708438234.9817388,-1.1051195859909058,-1.6820265255370082,-2.5264902750598353,2.28083245336499,-1.0171693007098597,0.0948074460029602
1708438234.9837503,-1.1050869226455688,-1.6819683514037074,-2.526499334965841,2.2808312612720947,-1.017176930104391,0.09490470588207245
1708438234.98576,-1.1051403284072876,-1.6820217571654261,-2.5265517870532435,2.280876322383545,-1.0171573797809046,0.0948791354894638
1708438234.9877405,-1.1051225662231445,-1.6819845638670863,-2.5265398661242884,2.2808396059223632,-1.0172141234027308,0.09488963335752487
1708438234.989853,-1.1051315069198608,-1.6819683514037074,-2.5264979044543665,2.280892534846924,-1.0172141234027308,0.09497464448213577
1708438234.9917686,-1.1051478385925293,-1.681906362573141,-2.5265067259417933,2.280925675029419,-1.0172088781939905,0.0949825718998909
1708438234.9938238,-1.1051931381225586,-1.6818810902037562,-2.5265188852893274,2.280891104335449,-1.0172532240497034,0.095039002597332
1708438234.995774,-1.1051931381225586,-1.6818930111327113,-2.5265398661242884,2.2809457021900634,-1.0172165075885218,0.0950528159737587
1708438234.9977677,-1.1052138805389404,-1.6819325886168421,-2.5265563170062464,2.2809368807026367,-1.0172370115863245,0.09510190784931183
1708438234.9997678,-1.105197548866272,-1.6819077930846156,-2.5266147295581263,2.2809693056293945,-1.0173018614398401,0.09514950215816498
1708438235.0017793,-1.1052614450454712,-1.6818796596922816,-2.5265143553363245,2.2809812265583496,-1.0172598997699183,0.09517669677734375
1708438235.0038934,-1.1052361726760864,-1.6818915806212367,-2.5265262762652796,2.280989809627197,-1.017297093068258,0.0952037125825882
1708438235.005765,-1.1052539348602295,-1.6818796596922816,-2.5264902750598353,2.280952139491699,-1.0173619429217737,0.09526507556438446
1708438235.0077577,-1.105231761932373,-1.681857248345846,-2.5265472571002405,2.2809273439594726,-1.0173166433917444,0.09539508074522018
1708438235.0097444,-1.1052480936050415,-1.6818810902037562,-2.5265517870532435,2.280972643489502,-1.0173652807818812,0.09542158991098404
1708438235.011752,-1.1052302122116089,-1.681831499139303,-2.5265472571002405,2.2810212808796386,-1.0173686186419886,0.09546505659818649
1708438235.0137591,-1.1052650213241577,-1.6819068394102992,-2.5265637079821985,2.2810332018085937,-1.0174134413348597,0.0955398753285408
1708438235.0157676,-1.1052064895629883,-1.6818448505797328,-2.526583258305685,2.281101866359375,-1.0174005667315882,0.09564022719860077
1708438235.0177622,-1.1052347421646118,-1.681833883325094,-2.526587788258688,2.2810770708271484,-1.0174005667315882,0.09570899605751038
1708438235.0197625,-1.1052391529083252,-1.6817957363524378,-2.526637379323141,2.2811388212391357,-1.0174372831927698,0.09573470056056976
1708438235.0217948,-1.1052391529083252,-1.6818586788573207,-2.526607338582174,2.2810565668293457,-1.0174363295184534,0.09583624452352524
1708438235.0237625,-1.1052591800689697,-1.6818210087218226,-2.5265982786761683,2.2811459737965087,-1.0174363295184534,0.09592435508966446
1708438235.0257294,-1.1052799224853516,-1.6817671261229457,-2.5265982786761683,2.281080408687256,-1.017517391835348,0.09598417580127716
1708438235.0277395,-1.1052786111831665,-1.6818047962584437,-2.5266762415515345,2.28113762914624,-1.0174930731402796,0.09604664146900177
1708438235.029735,-1.1053496599197388,-1.6817690334715785,-2.5266507307635706,2.2811247545429687,-1.0175169149981897,0.09617556631565094
1708438235.031728,-1.105308175086975,-1.6817690334715785,-2.5266385714160364,2.281099720592163,-1.017484490071432,0.09629197418689728
1708438235.0337415,-1.1052711009979248,-1.6818019352354945,-2.5267046133624476,2.2810630041309814,-1.0175331274615687,0.09632621705532074
1708438235.0357304,-1.1053245067596436,-1.6817432842650355,-2.5266884008990687,2.2811009126850585,-1.0175688902484339,0.09642691910266876
1708438235.037754,-1.105334997177124,-1.6817690334715785,-2.5267542044269007,2.281157894725464,-1.0175984541522425,0.09646426141262054
1708438235.039807,-1.1053169965744019,-1.6818138561644496,-2.526719633732931,2.2811030584522705,-1.01756459871401,0.09660472720861435
1708438235.0418026,-1.1053439378738403,-1.6817780933775843,-2.526679340993063,2.2811242777058105,-1.0176299254046839,0.09671363979578018
1708438235.0437813,-1.1053186655044556,-1.6817237339415492,-2.526706043873922,2.281186028117798,-1.0176084677325647,0.09680061042308807
1708438235.0457869,-1.1053200960159302,-1.6817523441710414,-2.526752535496847,2.2812184530445556,-1.0176733175860804,0.09693673253059387
1708438235.0477927,-1.1053231954574585,-1.6817237339415492,-2.526710573826925,2.2811567026325683,-1.0176356474505823,0.09708166867494583
1708438235.0497708,-1.1053698062896729,-1.681741853753561,-2.5266569296466272,2.2811643320270996,-1.0176399389850062,0.09718026220798492
1708438235.0517669,-1.105302333831787,-1.681760927239889,-2.526731793080465,2.281172915095947,-1.0177133719073694,0.09725060313940048
1708438235.053771,-1.1052905321121216,-1.6817285023131312,-2.5267391840564173,2.2811319071003417,-1.0177128950702112,0.09742065519094467
1708438235.0557811,-1.1053305864334106,-1.6817409000792445,-2.5267632643329065,2.28119341909375,-1.01772386232485,0.09751966595649719
1708438235.0578115,-1.1053564548492432,-1.681758543054098,-2.5267723242389124,2.281143828029297,-1.0177562872516077,0.09766325354576111
1708438235.059784,-1.10530686378479,-1.6817451916136683,-2.5267513434039515,2.281171961421631,-1.017775837575094,0.09779180586338043
1708438235.0617428,-1.10530686378479,-1.6817780933775843,-2.5267301241504114,2.281172915095947,-1.0177801291095179,0.09791020303964615
1708438235.0637407,-1.1053156852722168,-1.681732793847555,-2.5267751852618616,2.2811924654194335,-1.0178282896624964,0.09803395718336105
1708438235.0657423,-1.1053431034088135,-1.6817194424071253,-2.5267797152148646,2.2811967569538574,-1.0178163687335413,0.09811315685510635
1708438235.0677369,-1.1053608655929565,-1.6817699871458949,-2.526825014744894,2.2811881738850097,-1.0177348295794886,0.09828528761863708
1708438235.06977,-1.1053305864334106,-1.6816941700377406,-2.52675706544985,2.2812129694172363,-1.0178163687335413,0.09842132776975632
1708438235.0717447,-1.1052978038787842,-1.681802888909811,-2.52682334581484,2.281189127559326,-1.0178325811969202,0.09852427244186401
1708438235.0737405,-1.1053156852722168,-1.6816865406432093,-2.526844326649801,2.281216784114502,-1.0178197065936487,0.09874574840068817
1708438235.0757415,-1.105357050895691,-1.681760927239889,-2.526839796696798,2.281201048488281,-1.0177786985980433,0.09887751936912537
1708438235.0777333,-1.105339527130127,-1.6817733250060023,-2.5268471876727503,2.2811600404926757,-1.0178282896624964,0.09894193708896637
1708438235.0797505,-1.1053320169448853,-1.6817451916136683,-2.526835266743795,2.281143828029297,-1.0178034941302698,0.0991106927394867
1708438235.0817633,-1.1053528785705566,-1.6817523441710414,-2.526872698460714,2.2811848360249023,-1.0178478399859827,0.09927090257406235
1708438235.0837567,-1.105308175086975,-1.6818348369994105,-2.5268922487842005,2.2812086778828125,-1.0178640524493616,0.09948281943798065
1708438235.0857563,-1.1052215099334717,-1.681732793847555,-2.5268545786487024,2.2811319071003417,-1.0178435484515589,0.09960547834634781
1708438235.0877564,-1.1053171157836914,-1.681798597375387,-2.5268877188311976,2.2811686235615234,-1.0178878943072718,0.09973574429750443
1708438235.0898614,-1.1052184104919434,-1.6817976437010707,-2.526886049901144,2.281177206630371,-1.0179045836078089,0.09997034072875977
1708438235.0918286,-1.1052228212356567,-1.6818586788573207,-2.5268951098071497,2.281137390727661,-1.0179241339312952,0.10007181018590927
1708438235.0937784,-1.1052405834197998,-1.681862016717428,-2.526923720036642,2.2811741071888427,-1.0179031530963343,0.10021425038576126
1708438235.0957963,-1.1052286624908447,-1.681833883325094,-2.526907269154684,2.2811128336140136,-1.0179403463946741,0.10045183449983597
1708438235.0978243,-1.1051722764968872,-1.681871076623434,-2.526952091847555,2.2810684877583007,-1.0179436842547815,0.10059524327516556
1708438235.0997813,-1.1051478385925293,-1.6818777523436488,-2.526910130177633,2.2810684877583007,-1.0179885069476526,0.10076159238815308
1708438235.1017585,-1.1050825119018555,-1.6818677387633265,-2.526926581059591,2.2810932832905273,-1.0180042425738733,0.10095400363206863
1708438235.10381,-1.1050808429718018,-1.6818963489928187,-2.5269702116595667,2.2809552389332275,-1.0179999510394495,0.10109609365463257
1708438235.1058118,-1.1050149202346802,-1.6819483242430628,-2.5269911924945276,2.280924006099365,-1.0180686155902308,0.10128464549779892
1708438235.1078124,-1.1050206422805786,-1.6820055447020472,-2.5270360151873987,2.280928297633789,-1.0180276075946253,0.10145681351423264
1708438235.1097388,-1.1049561500549316,-1.6819774113097132,-2.5271156469928187,2.2809125620075683,-1.018088165913717,0.10161961615085602
1708438235.111721,-1.1049035787582397,-1.682016511956686,-2.527072254811422,2.2808806139179687,-1.0181005636798304,0.10180670768022537
1708438235.113759,-1.1048107147216797,-1.6820398769774378,-2.5270677248584192,2.280826969737671,-1.0181120077716272,0.10202755779027939
1708438235.1157444,-1.1048166751861572,-1.682117601434225,-2.5271080175982874,2.2808000284382324,-1.0180991331683558,0.10218183696269989
1708438235.1177423,-1.1047149896621704,-1.682141443292135,-2.5271111170398157,2.280772848720215,-1.0181158224688929,0.10232093185186386
1708438235.1197522,-1.1046518087387085,-1.682230135003561,-2.527135197316305,2.2807041841694335,-1.0181267897235315,0.10257021337747574
1708438235.1217844,-1.1045382022857666,-1.682230135003561,-2.527154509221212,2.280655785197876,-1.0182002226458948,0.10272016376256943
1708438235.1238031,-1.104439377784729,-1.6822782955565394,-2.5272653738604944,2.2805768686481933,-1.0182321707354944,0.10290376842021942
1708438235.1257699,-1.1043801307678223,-1.682279726068014,-2.5272534529315394,2.2804598051258544,-1.0182517210589808,0.10305479168891907
1708438235.127856,-1.104243516921997,-1.6823274097838343,-2.5272682348834437,2.2804242807575683,-1.0182879606830042,0.10325387120246887
1708438235.1298258,-1.1041061878204346,-1.6824051342406214,-2.5273001829730433,2.28038136541333,-1.0183032194720667,0.10349015146493912
1708438235.1318042,-1.1039533615112305,-1.682472368279928,-2.5273030439959925,2.280291958446167,-1.0183551947223108,0.10364528745412827
1708438235.1338017,-1.1038583517074585,-1.6825696430602015,-2.5273268858539026,2.2801593977161865,-1.0183914343463343,0.10380392521619797
1708438235.1357853,-1.10365629196167,-1.682572980920309,-2.527372185383932,2.2800347047993164,-1.0183785597430628,0.10402550548315048
1708438235.137801,-1.103492021560669,-1.68259920696401,-2.5274081865893763,2.2799834448048095,-1.0183857123004358,0.10416731238365173
1708438235.1398075,-1.10333251953125,-1.682648321191305,-2.5274232069598597,2.2799081045338134,-1.0184348265277308,0.10437531024217606
1708438235.1417902,-1.1031737327575684,-1.6827641926207484,-2.5274768511401575,2.2797929483601074,-1.0184467474566858,0.10457102954387665
1708438235.143811,-1.102953314781189,-1.682836195031637,-2.527487341557638,2.2795869547077636,-1.0184696356402796,0.10472535341978073
1708438235.1457953,-1.1027655601501465,-1.6829248867430628,-2.5275161902057093,2.2794548708149414,-1.0185673872577112,0.1049225926399231
1708438235.147814,-1.1025010347366333,-1.6830340824522914,-2.5275190512286585,2.2793194490620117,-1.0185468832599085,0.10510044544935226
1708438235.1497946,-1.1022799015045166,-1.683108469048971,-2.527583662663595,2.279172344798706,-1.0186031500445765,0.10527121275663376
1708438235.1517956,-1.102043867111206,-1.6831265888609828,-2.527607504521505,2.278999014491699,-1.0186155478106897,0.10545924305915833
1708438235.1538038,-1.1018656492233276,-1.6832839451231898,-2.5276361147509974,2.2788924413868408,-1.0186556021319788,0.10560145229101181
1708438235.1558526,-1.1015349626541138,-1.6833559475340785,-2.527684036885397,2.2787696558186035,-1.0186827818499964,0.10576903820037842
1708438235.1578107,-1.1012991666793823,-1.6834637127318324,-2.527689758931295,2.2784899908253173,-1.018726650868551,0.10595710575580597
1708438235.1597478,-1.1010280847549438,-1.6835953197874964,-2.5277679602252405,2.2783636289783935,-1.0187786261187952,0.10611701011657715
1708438235.161765,-1.1006838083267212,-1.6837479076781214,-2.52779204050173,2.278127594585083,-1.0188549200641077,0.10630103200674057
1708438235.163789,-1.1003799438476562,-1.6838718853392542,-2.5278850237475794,2.2779039579578857,-1.0189679304706019,0.10643154382705688
1708438235.1657588,-1.0999788045883179,-1.6839992008604945,-2.5278714338885706,2.2777084547230224,-1.0189574400531214,0.10665670037269592
1708438235.1677887,-1.0996752977371216,-1.684188028375143,-2.527923885975973,2.2774275976368408,-1.0190542379962366,0.1067705973982811
1708438235.169771,-1.0992813110351562,-1.6842285595335902,-2.5279794375049036,2.277216358775757,-1.0190771261798304,0.1069009006023407
1708438235.171784,-1.098951816558838,-1.6844469509520472,-2.528015438710348,2.2769555288502197,-1.0191825071917933,0.1070413887500763
1708438235.1737978,-1.0986322164535522,-1.6846562824644984,-2.5280919710742396,2.276761456126831,-1.0192468802081507,0.10722972452640533
1708438235.175759,-1.0981776714324951,-1.684798379937643,-2.528123442326681,2.2765139776417236,-1.0192816893206995,0.10736405849456787
1708438235.1777866,-1.0977623462677002,-1.685042520562643,-2.5281880537616175,2.2761682707020263,-1.0193732420550745,0.10754367709159851
1708438235.1797733,-1.09734308719635,-1.6852132282652796,-2.5282629171954554,2.2758731085010986,-1.0194862524615687,0.10767536610364914
1708438235.181744,-1.0968868732452393,-1.6854659519591273,-2.5283783117877405,2.275475426311157,-1.0195897261248987,0.10779938101768494
1708438235.183797,-1.0964105129241943,-1.6856571636595667,-2.528395954762594,2.2752126890369873,-1.0196412245379847,0.10789668560028076
1708438235.185762,-1.096001148223877,-1.685876031915182,-2.528508726750509,2.2748278814503173,-1.0197542349444788,0.10808953642845154
1708438235.187764,-1.0954999923706055,-1.6860748730101527,-2.5285356680499476,2.274544878596924,-1.0198167006122034,0.10827013850212097
1708438235.189815,-1.094966173171997,-1.6863891086974085,-2.5286572615252894,2.274120016688965,-1.0199492613421839,0.10830816626548767
1708438235.1917765,-1.0944057703018188,-1.686643739739889,-2.528682533894674,2.273787661189697,-1.0200884977923792,0.10845611989498138
1708438235.193795,-1.093910574913025,-1.686895032922262,-2.528813187276022,2.2734505373188476,-1.0202091375934046,0.10855171084403992
1708438235.1957753,-1.0932841300964355,-1.6872064075865687,-2.528904740010397,2.2729853826710205,-1.0202844778644007,0.10868772864341736
1708438235.1977565,-1.0927144289016724,-1.6875478229918421,-2.5289767424212855,2.2725979524799804,-1.0204451719867151,0.10878320038318634
1708438235.1997833,-1.0920984745025635,-1.6877604923644007,-2.5291267077075403,2.272122545833252,-1.0205329100238245,0.10887473076581955
1708438235.2017426,-1.0914487838745117,-1.688075681725973,-2.529194180165426,2.2716943460651855,-1.0206320921527308,0.10901519656181335
1708438235.2038274,-1.0908222198486328,-1.6884271107115687,-2.529285494481222,2.271214409465454,-1.020747486745016,0.1091063916683197
1708438235.2057946,-1.0901585817337036,-1.6887437305846156,-2.529376808797018,2.270839138621948,-1.0208748022662562,0.10922166705131531
1708438235.2077458,-1.0895154476165771,-1.6890374622740687,-2.5295119921313685,2.2704121309467773,-1.0210273901568812,0.10937100648880005
1708438235.2097445,-1.088687777519226,-1.6894475422301234,-2.5295749346362513,2.269833965892456,-1.0212119261371058,0.10943222045898438
1708438235.2117436,-1.0880287885665894,-1.6897937260069789,-2.5296905676471155,2.2693771558948974,-1.0213153998004358,0.10950121283531189
1708438235.2137606,-1.087227463722229,-1.6902018986144007,-2.5298612753497522,2.268864555949829,-1.0214789549456995,0.10953998565673828
1708438235.2157805,-1.0864392518997192,-1.6905251942076625,-2.5299349466906946,2.2683779436298828,-1.0216229597674769,0.10965192317962646
1708438235.217736,-1.085680603981018,-1.6909486256041468,-2.5300801436053675,2.267833872432373,-1.0218108336078089,0.10972842574119568
1708438235.2198102,-1.0848898887634277,-1.6912819347777308,-2.5302165190326136,2.2672642904468994,-1.0220111052142542,0.1098446473479271
1708438235.2217758,-1.0840036869049072,-1.6916777096190394,-2.5303202311145228,2.2667340475269775,-1.0221574942218226,0.10987500846385956
1708438235.2238052,-1.0831934213638306,-1.6920935116209925,-2.530473295842306,2.2661523061939697,-1.0223749319659632,0.10990195721387863
1708438235.2257385,-1.0822800397872925,-1.6924721203246058,-2.530605141316549,2.2655274110981445,-1.0224970022784632,0.11006013303995132
1708438235.2277539,-1.0813970565795898,-1.6929227314391078,-2.5307536760913294,2.264918490047119,-1.0226767698871058,0.11005427688360214
1708438235.229748,-1.0804604291915894,-1.6933266125121058,-2.5308764616595667,2.264265223140381,-1.022848908101217,0.11018713563680649
1708438235.2317302,-1.0795818567276,-1.6937409840025843,-2.531079117451803,2.2636584478565673,-1.0229838530169886,0.11018146574497223
1708438235.2337446,-1.078583836555481,-1.6942006550230921,-2.5311883131610315,2.2630182939716796,-1.023167912160055,0.11027133464813232
1708438235.2357297,-1.077643871307373,-1.694695611993307,-2.531369988118307,2.2623745638081054,-1.0233553091632288,0.11024462431669235
1708438235.2377844,-1.0766817331314087,-1.6950937710204066,-2.5315290133105677,2.261683149928711,-1.0235798994647425,0.11032190918922424
1708438235.2397869,-1.0755549669265747,-1.6955653629698695,-2.531656328831808,2.2609914976307373,-1.0237959066974085,0.11034907400608063
1708438235.241762,-1.0745595693588257,-1.6960693798460902,-2.5318737665759485,2.2602621751972656,-1.0239298979388636,0.1103609949350357
1708438235.2437642,-1.0735633373260498,-1.696611066857809,-2.532041613255636,2.2595841127583007,-1.0241230169879358,0.11038818955421448
1708438235.2458107,-1.0724221467971802,-1.6970559559264125,-2.5321977774249476,2.258889599437378,-1.0243428389178675,0.11044160276651382
1708438235.2477822,-1.0713915824890137,-1.697583337823385,-2.5323777834521692,2.2581097322651367,-1.024538818989889,0.11045221239328384
1708438235.2497585,-1.0702896118164062,-1.698080678979391,-2.532581631337301,2.257316752071045,-1.0248115698443812,0.11044324189424515
1708438235.2517867,-1.0691642761230469,-1.6986366711058558,-2.5327377955066126,2.2565201955982666,-1.0249932448016565,0.1104806661605835
1708438235.2537687,-1.0680137872695923,-1.6991597614684046,-2.5329070726977747,2.255786104793213,-1.025311295186178,0.11044026911258698
1708438235.2558029,-1.0667850971221924,-1.6997553310790003,-2.5331290403949183,2.2549912172504882,-1.0255091826068323,0.11046429723501205
1708438235.257838,-1.0656720399856567,-1.7003146610655726,-2.533320967351095,2.2540809351154785,-1.0257323423968714,0.11044766753911972
1708438235.2597528,-1.0644428730010986,-1.7008339367308558,-2.5335174242602747,2.2532874780842285,-1.0259435812579554,0.11045217514038086
1708438235.26175,-1.0632175207138062,-1.7014428577818812,-2.5336974302874964,2.2524544435688476,-1.0261877218829554,0.11044468730688095
1708438235.26377,-1.061981201171875,-1.7020594082274378,-2.5338922182666224,2.2515734869190673,-1.0263903776751917,0.11042389273643494
1708438235.2657568,-1.06070077419281,-1.702677389184469,-2.5341263453113,2.2506701189228515,-1.0266502539264124,0.11040890216827393
1708438235.2677634,-1.0594409704208374,-1.703259607354635,-2.5343332926379603,2.2497781950184326,-1.0269110838519495,0.11033128947019577
1708438235.269766,-1.0581364631652832,-1.7038656673827113,-2.534541670476095,2.2489043909260253,-1.0271628538714808,0.11031950265169144
1708438235.2717643,-1.056801438331604,-1.704536577264303,-2.5347772280322474,2.2479798036762695,-1.0274017492877405,0.11026699841022491
1708438235.273764,-1.0554530620574951,-1.7051989040770472,-2.5349584261523646,2.247048540706299,-1.027682129536764,0.11027726531028748
1708438235.2757785,-1.0541507005691528,-1.705796857873434,-2.535173002873556,2.2460848528095703,-1.027973477040426,0.11023269593715668
1708438235.2777474,-1.0528162717819214,-1.7064515552916468,-2.535396401082174,2.2452141481586914,-1.0282490889178675,0.11013542115688324
1708438235.279772,-1.051427960395813,-1.7071267567076625,-2.535658661519186,2.2442702490040283,-1.0285723845111292,0.11009982973337173
1708438235.2817688,-1.0500067472457886,-1.7077709637083949,-2.53585392633547,2.243295117015503,-1.0288313070880335,0.11008886992931366
1708438235.2837646,-1.0486335754394531,-1.7084576092162074,-2.53606087366213,2.2422701555439453,-1.0291474501239222,0.11003986746072769
1708438235.2857618,-1.0471290349960327,-1.7091638050475062,-2.536334816609518,2.241246386165283,-1.0294511953936976,0.11000820994377136
1708438235.2877672,-1.045723557472229,-1.7097932300963343,-2.536525551472799,2.2402772146412353,-1.0297430197345179,0.10995281487703323
1708438235.2898366,-1.0441609621047974,-1.7105614147581996,-2.536687437688009,2.239109917277954,-1.0300458113299769,0.10993051528930664
1708438235.2917893,-1.042651891708374,-1.7112614117064417,-2.5370100180255335,2.238112135524414,-1.0303242842303675,0.10981231182813644
1708438235.2938104,-1.0411450862884521,-1.71203674892568,-2.5372260252581995,2.2370490270802,-1.0306933561908167,0.10977771878242493
1708438235.2957633,-1.0395773649215698,-1.712771554986471,-2.537447754536764,2.2360057073780517,-1.0309918562518519,0.10969298332929611
1708438235.297784,-1.038039207458496,-1.71350159267568,-2.53770882288088,2.234900637263916,-1.0312631765948694,0.10964203625917435
1708438235.2997694,-1.0364936590194702,-1.7142464123167933,-2.5379911104785364,2.2338289457508544,-1.0316007773028772,0.10954172164201736
1708438235.301792,-1.0348597764968872,-1.7150341473021449,-2.5382004419909876,2.2327231603809814,-1.0318988005267542,0.10945390909910202
1708438235.3038414,-1.0332008600234985,-1.715816160241598,-2.538477961217062,2.2316598135181884,-1.0321891943561,0.10933294147253036
1708438235.305774,-1.0315301418304443,-1.716607233087057,-2.5387166182147425,2.2305213648029785,-1.0325301329242151,0.10928323119878769
1708438235.3077548,-1.029845118522644,-1.7173601589598597,-2.5389607588397425,2.229348583812378,-1.0327351729022425,0.1091427430510521
1708438235.309751,-1.0281716585159302,-1.7181717358031214,-2.539254967366354,2.2282492357441406,-1.0331204573260706,0.10909175872802734
1708438235.3117478,-1.0264283418655396,-1.718961854974264,-2.539497677479879,2.2270302015491943,-1.0334394613849085,0.10892610996961594
1708438235.3137524,-1.0246646404266357,-1.7198206386961878,-2.539776627217428,2.225827141399048,-1.0337546507464808,0.10874661803245544
