Eg3-git/Classifiers/Data Collection/u3/u3abc5_ur3e_joint_states.csv
time,elbow_joint,shoulder_lift_joint,shoulder_pan_joint,wrist_1_joint,wrist_2_joint,wrist_3_joint
1708435676.7415447,-2.1561334133148193,-1.3352324676564713,-2.5170558134662073,6.137235748558798,0.9998390078544617,-4.748774234448568
1708435676.7435226,-2.1561334133148193,-1.3352693033269425,-2.5170186201678675,6.137222754746237,0.9998390078544617,-4.74880558649172
1708435676.7455382,-2.1561245918273926,-1.3352735054543992,-2.517080608998434,6.137247550278463,0.9998226761817932,-4.748781387005941
1708435676.7475593,-2.156156063079834,-1.3352854263833542,-2.5170469919787806,6.137271749764242,0.9998300075531006,-4.748740617428915
1708435676.7495117,-2.1561379432678223,-1.3352086556008835,-2.517088238392965,6.137234556465902,0.9998390078544617,-4.7487327496158045
1708435676.7515259,-2.1561875343322754,-1.3352812093547364,-2.5171013514148157,6.137267339020529,0.9998226761817932,-4.7488067785846155
1708435676.7535486,-2.1561219692230225,-1.3352366846850892,-2.517080608998434,6.1372389672096155,0.9998180866241455,-4.748818580304281
1708435676.7555437,-2.1561989784240723,-1.3352489334395905,-2.5170677343951624,6.137289154320516,0.9998103976249695,-4.748785797749655
1708435676.7575538,-2.1561086177825928,-1.3353100431016465,-2.51710015932192,6.137206542282858,0.9998226165771484,-4.7487579027759
1708435676.7595217,-2.15610408782959,-1.3352523309043427,-2.5170393625842493,6.137231337815084,0.9998390674591064,-4.748797957097189
1708435676.7615082,-2.1561787128448486,-1.335245208149292,-2.51707631746401,6.1372389672096155,0.9998390674591064,-4.748785797749655
1708435676.7635424,-2.156170606613159,-1.3352692884257813,-2.5170839468585413,6.137247550278463,0.9998103976249695,-4.748797957097189
1708435676.7655263,-2.1561875343322754,-1.3352650713971634,-2.517064634953634,6.137246835022726,0.999862790107727,-4.748785082493917
1708435676.7675245,-2.156149387359619,-1.3352658611587067,-2.5170720259295862,6.137267339020529,0.9998136758804321,-4.748772803937094
1708435676.7695093,-2.1561696529388428,-1.3352531504682084,-2.517060105000631,6.137267339020529,0.9998508095741272,-4.748777214680807
1708435676.7715073,-2.1561787128448486,-1.335289628510811,-2.517113272343771,6.137246835022726,0.9997760653495789,-4.74876851240267
1708435676.7735295,-2.1561696529388428,-1.335245208149292,-2.5170958677874964,6.137279259949484,0.9998226165771484,-4.748764220868246
1708435676.7755096,-2.1562328338623047,-1.335273490553238,-2.5170720259295862,6.137307750969686,0.9998434782028198,-4.748777214680807
1708435676.7775455,-2.1562070846557617,-1.3352531504682084,-2.51707631746401,6.137266266136923,0.9998434782028198,-4.748761240636007
1708435676.779511,-2.1561405658721924,-1.3352896136096497,-2.5170305410968226,6.13731204250411,0.9998180866241455,-4.748801294957296
1708435676.7815194,-2.1561901569366455,-1.335301087503769,-2.5170677343951624,6.137314188271322,0.9998300075531006,-4.748809997235433
1708435676.7835178,-2.1561830043792725,-1.3352812093547364,-2.5170274416552942,6.137367236405172,0.9997924566268921,-4.74877638021578
1708435676.7855196,-2.1561529636383057,-1.3352531653693696,-2.5170720259295862,6.137318599015035,0.9998013973236084,-4.748785082493917
1708435676.7875948,-2.1561856269836426,-1.3352324676564713,-2.5170839468585413,6.137383568077841,0.9998255372047424,-4.748797003422872
1708435676.789517,-2.156144857406616,-1.335245208149292,-2.517010752354757,6.137354361801901,0.9998226165771484,-4.748792592679159
1708435676.7915423,-2.15616512298584,-1.3353101027062912,-2.51703912416567,6.137391078263082,0.9997804760932922,-4.748785082493917
1708435676.7935102,-2.156202554702759,-1.3352447015098114,-2.517116371785299,6.137406575470724,0.9998344779014587,-4.748810354863302
1708435676.795506,-2.1561245918273926,-1.3352409166148682,-2.517116371785299,6.137390363007345,0.9998091459274292,-4.748761240636007
1708435676.7975414,-2.1561856269836426,-1.335245208149292,-2.517043654118673,6.137326109200277,0.9998598098754883,-4.748797003422872
1708435676.7995057,-2.156219482421875,-1.3352777820876618,-2.517092529927389,6.137374865799703,0.9997940063476562,-4.7487598101245325
1708435676.801538,-2.1561572551727295,-1.335200236444809,-2.517108980809347,6.137345659523763,0.999862790107727,-4.748792592679159
1708435676.8035183,-2.1561944484710693,-1.3352531653693696,-2.517080608998434,6.137367236405172,0.9998226165771484,-4.748841706906454
1708435676.8055177,-2.156139373779297,-1.3352973324111481,-2.517031733189718,6.137410867005148,0.9998180866241455,-4.748801294957296
1708435676.8075414,-2.1561989784240723,-1.3352324974587937,-2.5170720259295862,6.13734124878005,0.9998373985290527,-4.748788181935446
1708435676.8095138,-2.156160593032837,-1.3352489483407517,-2.517104450856344,6.137321817665853,0.9997895359992981,-4.748816434537069
1708435676.8115172,-2.1561856269836426,-1.335240901713707,-2.51707631746401,6.137366282730856,0.9998180866241455,-4.748804513608114
1708435676.8135116,-2.1562116146087646,-1.33535851657901,-2.517080608998434,6.137334096222677,0.9998344779014587,-4.748797003422872
1708435676.8155224,-2.1561741828918457,-1.3352616739324112,-2.517097059880392,6.137391197472372,0.9998136162757874,-4.748804513608114
1708435676.8175323,-2.1561529636383057,-1.335289643411972,-2.5170720259295862,6.137374865799703,0.9998344779014587,-4.748820726071493
1708435676.8195548,-2.156202554702759,-1.335302398805954,-2.517031733189718,6.137379157334127,0.9998013973236084,-4.748808685933248
1708435676.8215458,-2.156202554702759,-1.335285411482193,-2.517108980809347,6.137367236405172,0.9998672604560852,-4.748790804539816
1708435676.8235228,-2.1561810970306396,-1.3352531504682084,-2.5170348326312464,6.137362944870748,0.9998180866241455,-4.74880022207369
1708435676.82558,-2.156202554702759,-1.3352735054543992,-2.517088238392965,6.137342798500814,0.9998913407325745,-4.748820606862203
1708435676.8275392,-2.156219482421875,-1.3352409166148682,-2.51707631746401,6.137374865799703,0.9998373985290527,-4.7488418261157435
1708435676.829524,-2.156226396560669,-1.3352726858905335,-2.51701528230776,6.137411939888754,0.999809205532074,-4.748857680951254
1708435676.8315382,-2.1561856269836426,-1.3352650862983246,-2.5170677343951624,6.1373575804527185,0.9998136162757874,-4.748832885419027
1708435676.8335133,-2.156202554702759,-1.335285411482193,-2.51707631746401,6.137420642166891,0.9998463988304138,-4.74880022207369
1708435676.8355124,-2.1561696529388428,-1.3353427064469834,-2.517068688069479,6.137342798500814,0.9998463988304138,-4.748873893414633
1708435676.8375401,-2.156219482421875,-1.3352812093547364,-2.517064396535055,6.137379157334127,0.9998344779014587,-4.748825136815206
1708435676.8395185,-2.156172037124634,-1.335314304833748,-2.517060105000631,6.137382495194235,0.9998255372047424,-4.7488781849490564
1708435676.8415198,-2.1561765670776367,-1.335314319734909,-2.517108980809347,6.137361871987142,0.9998226165771484,-4.748833123837606
1708435676.843523,-2.1561439037323,-1.3352531504682084,-2.5170589129077356,6.1373867867286584,0.9998344779014587,-4.748845998440878
1708435676.845514,-2.1562116146087646,-1.3353142452291031,-2.5170720259295862,6.137404072075643,0.9997968673706055,-4.748845998440878
1708435676.8475363,-2.1561696529388428,-1.3352650713971634,-2.5170393625842493,6.1373867867286584,0.999850869178772,-4.7487797180758875
1708435676.849516,-2.156210422515869,-1.3352778118899842,-2.5170393625842493,6.137334811478414,0.9998180866241455,-4.748865191136495
1708435676.8515203,-2.156198024749756,-1.3352812093547364,-2.51707631746401,6.137345659523763,0.9998136162757874,-4.748828474675314
1708435676.8535264,-2.156219482421875,-1.3352282506278534,-2.517108980809347,6.137411820679464,0.9998013377189636,-4.748873893414633
1708435676.855522,-2.1561989784240723,-1.3352494102767487,-2.517104450856344,6.137382495194235,0.9998704791069031,-4.748812143002645
1708435676.8575199,-2.1562557220458984,-1.3352577102235337,-2.5170558134662073,6.137403356819906,0.9998300075531006,-4.748866264020101
1708435676.85952,-2.1561696529388428,-1.3352489334395905,-2.517097059880392,6.137354361801901,0.9998103976249695,-4.748788181935446
1708435676.8615406,-2.1562421321868896,-1.3352573674968262,-2.5170186201678675,6.137382495194235,0.9997923970222473,-4.748841706906454
1708435676.863512,-2.156202554702759,-1.3352735054543992,-2.517104450856344,6.137378084450521,0.9997805953025818,-4.748840395604269
1708435676.865514,-2.1561901569366455,-1.3353015643409272,-2.5170720259295862,6.13734136798934,0.999846339225769,-4.748844687138693
1708435676.8675363,-2.1562116146087646,-1.335265890961029,-2.517047945653097,6.137394654541769,0.9998136162757874,-4.7488771120654505
1708435676.8695426,-2.1561741828918457,-1.3352812093547364,-2.517043654118673,6.137382495194235,0.9998255968093872,-4.748869482670919
1708435676.8715153,-2.156202554702759,-1.3352692884257813,-2.5170720259295862,6.1373997805412195,0.9998136162757874,-4.748796049748556
1708435676.8735085,-2.1561696529388428,-1.3352531653693696,-2.517080608998434,6.137374865799703,0.9998300075531006,-4.748881522809164
1708435676.8755114,-2.15616512298584,-1.3352565479329606,-2.517088238392965,6.137391078263082,0.9998419284820557,-4.748873774205343
1708435676.8775144,-2.1562442779541016,-1.335245208149292,-2.5170393625842493,6.137391197472372,0.9998717904090881,-4.748898092900411
1708435676.8795097,-2.156172037124634,-1.335257352595665,-2.5170720259295862,6.137329685478964,0.9998344779014587,-4.748860899602072
1708435676.881514,-2.156202554702759,-1.3352451783469697,-2.5170393625842493,6.137362825661459,0.9998300075531006,-4.748865191136495
1708435676.883508,-2.156219482421875,-1.3352531504682084,-2.5170469919787806,6.137354361801901,0.9998390078544617,-4.748845998440878
1708435676.8855755,-2.156235456466675,-1.335265890961029,-2.517085138951437,6.137423860817709,0.9998344779014587,-4.748872820531027
1708435676.8875225,-2.156184673309326,-1.3352281910232087,-2.51710015932192,6.137374865799703,0.9998627305030823,-4.748893682156698
1708435676.889514,-2.1561696529388428,-1.3352939498475571,-2.517080608998434,6.137374865799703,0.9998000860214233,-4.748885695134298
1708435676.891515,-2.156214952468872,-1.3352778118899842,-2.5170958677874964,6.1373705742652795,0.999849259853363,-4.748865191136495
1708435676.8935359,-2.156219482421875,-1.335229070191719,-2.517047945653097,6.137379157334127,0.9998210668563843,-4.7488078514682215
1708435676.895535,-2.156139373779297,-1.3352616739324112,-2.517060105000631,6.1373575804527185,0.9998300075531006,-4.748840395604269
1708435676.8975666,-2.1562306880950928,-1.3352854263833542,-2.51701528230776,6.137379157334127,0.9998210668563843,-4.748844687138693
1708435676.8995452,-2.156198024749756,-1.3352324676564713,-2.51707631746401,6.1373586533363245,0.999821126461029,-4.748844687138693
1708435676.9015315,-2.156219482421875,-1.335270107989647,-2.5170677343951624,6.137350070267477,0.9998164772987366,-4.748880688344137
1708435676.9035473,-2.156160593032837,-1.3352939498475571,-2.51707631746401,6.137350070267477,0.9998627305030823,-4.748856608067648
1708435676.905517,-2.156205892562866,-1.335245208149292,-2.5170348326312464,6.137403356819906,0.999850869178772,-4.748880688344137
1708435676.907517,-2.1562070846557617,-1.3352616739324112,-2.5170796553241175,6.1372883198554895,0.9998300075531006,-4.748865191136495
1708435676.9095156,-2.15616512298584,-1.33526165903125,-2.51707631746401,6.137374865799703,0.9998210668563843,-4.748860899602072
1708435676.9115329,-2.1561765670776367,-1.3352896136096497,-2.5170348326312464,6.137374865799703,0.9998390078544617,-4.7488489786731165
1708435676.9135606,-2.15616512298584,-1.335245208149292,-2.5170393625842493,6.137382495194235,0.999875009059906,-4.7488359848605555
1708435676.915566,-2.1561944484710693,-1.3352290850928803,-2.5171013514148157,6.137428033142843,0.9998583197593689,-4.748889390622274
1708435676.9175675,-2.156219482421875,-1.3352854263833542,-2.517080608998434,6.137428033142843,0.999862790107727,-4.748865191136495
1708435676.9195123,-2.1561856269836426,-1.335245208149292,-2.517043654118673,6.1373867867286584,0.999850869178772,-4.7488489786731165
1708435676.9215136,-2.1562488079071045,-1.3352973324111481,-2.517052237187521,6.1373586533363245,0.9998627305030823,-4.748865191136495
1708435676.9235733,-2.1561856269836426,-1.335265890961029,-2.517060105000631,6.137374865799703,0.9997969269752502,-4.748812262211935
1708435676.9255872,-2.1561765670776367,-1.3352658611587067,-2.517060105000631,6.137423980026998,0.9998374581336975,-4.748918358479635
1708435676.9276464,-2.1561810970306396,-1.3352777820876618,-2.5170515219317835,6.137419569283285,0.9998136162757874,-4.748856608067648
1708435676.9295785,-2.1561481952667236,-1.3352536124042054,-2.5170720259295862,6.1373867867286584,0.9998255372047424,-4.748873893414633
1708435676.9315174,-2.1561741828918457,-1.3352777820876618,-2.51707631746401,6.137415277748861,0.9998047351837158,-4.748918358479635
1708435676.93358,-2.1561810970306396,-1.3352939498475571,-2.5170720259295862,6.137330400734701,0.999862790107727,-4.748889986668722
1708435676.935532,-2.1561765670776367,-1.335273490553238,-2.5170558134662073,6.137374865799703,0.9998210668563843,-4.7488771120654505
1708435676.9375684,-2.156193494796753,-1.335244746213295,-2.5170515219317835,6.13727759101943,0.9998255372047424,-4.748852197323934
1708435676.9395065,-2.1561765670776367,-1.3352565479329606,-2.517047945653097,6.137350070267477,0.9997969269752502,-4.74886936346163
1708435676.9415412,-2.1561901569366455,-1.3352658611587067,-2.517088238392965,6.137313115387716,0.9998136162757874,-4.748868409787313
1708435676.9435246,-2.1561944484710693,-1.3352494102767487,-2.517064396535055,6.137339103012838,0.9998180866241455,-4.7488771120654505
1708435676.9455173,-2.1561810970306396,-1.3352282506278534,-2.5170677343951624,6.137404072075643,0.9998300075531006,-4.748909894620077
1708435676.947536,-2.156202554702759,-1.335216374402382,-2.51707631746401,6.137350070267477,0.999853789806366,-4.748865191136495
1708435676.949557,-2.156202554702759,-1.3352409166148682,-2.517108742390768,6.137326228409567,0.9998046159744263,-4.748918358479635
1708435676.9515116,-2.1561856269836426,-1.335200236444809,-2.517064396535055,6.137355673104086,0.9998419284820557,-4.7488771120654505
1708435676.9535987,-2.156202554702759,-1.3352684688619156,-2.517052237187521,6.1373586533363245,0.9998255372047424,-4.7488372961627405
1708435676.955534,-2.156214952468872,-1.335289643411972,-2.517047945653097,6.1373013136680505,0.9998463988304138,-4.748856608067648
1708435676.9575768,-2.156219482421875,-1.335285411482193,-2.5170558134662073,6.137321817665853,0.9998344779014587,-4.748893682156698
1708435676.9595315,-2.1562306880950928,-1.3352735054543992,-2.5170274416552942,6.1373586533363245,0.9998255372047424,-4.748893682156698
1708435676.9615166,-2.156214952468872,-1.335285411482193,-2.517088238392965,6.137342679291525,0.9998136162757874,-4.748812262211935
1708435676.9635706,-2.156214952468872,-1.335245208149292,-2.517047945653097,6.137309896736898,0.9998300671577454,-4.7488489786731165
1708435676.9655252,-2.1562466621398926,-1.3352727156928559,-2.517060105000631,6.137314188271322,0.9998373985290527,-4.7488489786731165
1708435676.967579,-2.1561810970306396,-1.3352001768401642,-2.517043654118673,6.137310015946188,0.9998583197593689,-4.748906675969259
1708435676.9695508,-2.156198024749756,-1.3352735054543992,-2.517052237187521,6.137314188271322,0.9998300075531006,-4.7488489786731165
1708435676.971541,-2.156228542327881,-1.3352812093547364,-2.5170677343951624,6.137362825661459,0.9998300075531006,-4.748860899602072
1708435676.9735723,-2.156202554702759,-1.3352973473123093,-2.5170512835132044,6.137354361801901,0.9998180866241455,-4.748840395604269
1708435676.9755125,-2.1561696529388428,-1.335289628510811,-2.51707631746401,6.137351381569662,0.9998553991317749,-4.748812143002645
1708435676.9775412,-2.156235456466675,-1.3352777820876618,-2.517043654118673,6.13733850696639,0.9998181462287903,-4.7488489786731165
1708435676.9795156,-2.156214952468872,-1.3352247935584565,-2.517088238392965,6.1373469708259485,0.9998058676719666,-4.7488479057895105
1708435676.981522,-2.156224012374878,-1.3352692884257813,-2.517085138951437,6.137362825661459,0.9997924566268921,-4.748857561741964
1708435676.983579,-2.156219482421875,-1.3352770072272797,-2.5170558134662073,6.137383568077841,0.9998254776000977,-4.748860899602072
1708435676.985527,-2.1562070846557617,-1.3352981221726914,-2.517088238392965,6.137281644135275,0.9998104572296143,-4.748855654393331
1708435676.9875677,-2.156219482421875,-1.3352367144874115,-2.517060105000631,6.137338387757101,0.9998013973236084,-4.7488359848605555
1708435676.9895148,-2.156235456466675,-1.3352939200452347,-2.5171175638781946,6.137314188271322,0.9998180866241455,-4.7488078514682215
1708435676.9915135,-2.156226396560669,-1.3352324676564713,-2.517088238392965,6.137367236405172,0.9998136162757874,-4.7488372961627405
1708435676.9935682,-2.156219482421875,-1.3352573674968262,-2.5170720259295862,6.137285101204672,0.9997924566268921,-4.748860899602072
1708435676.9955137,-2.1561856269836426,-1.3352001768401642,-2.5170558134662073,6.137318599015035,0.9998390078544617,-4.748860899602072
1708435676.9975626,-2.156189203262329,-1.3352447015098114,-2.517043654118673,6.137326228409567,0.9998374581336975,-4.748828832303182
1708435676.9995434,-2.15616512298584,-1.3352692884257813,-2.517097059880392,6.137343394547262,0.9998210668563843,-4.748844687138693
1708435677.0015404,-2.156214952468872,-1.3352409166148682,-2.5170229117022913,6.1373175261314294,0.9998553991317749,-4.748840395604269
1708435677.0035672,-2.1561856269836426,-1.335240901713707,-2.517097059880392,6.137326109200277,0.9997789263725281,-4.748853150998251
1708435677.005532,-2.156235456466675,-1.335256577735283,-2.517015043889181,6.137322890549459,0.9998180866241455,-4.748844687138693
1708435677.0076017,-2.156214952468872,-1.3352973324111481,-2.517052237187521,6.137342679291525,0.9998300075531006,-4.748820010815756
1708435677.0095515,-2.156198024749756,-1.3352531504682084,-2.5170229117022913,6.137364375382223,0.9998300671577454,-4.7488479057895105
1708435677.0116408,-2.156193494796753,-1.3352769923261185,-2.5170894304858606,6.1373469708259485,0.9998013973236084,-4.748807970677511
1708435677.0137973,-2.1561810970306396,-1.3352650862983246,-2.517085138951437,6.137314188271322,0.9998464584350586,-4.748860899602072
1708435677.0158472,-2.156156301498413,-1.3352769923261185,-2.5170274416552942,6.137387859612264,0.9998180866241455,-4.748914901410238
1708435677.0176816,-2.1561810970306396,-1.3352692884257813,-2.517092529927389,6.137355673104086,0.9998344779014587,-4.7488359848605555
1708435677.0200887,-2.156226396560669,-1.3352692884257813,-2.517047945653097,6.137321936875143,0.9998136162757874,-4.748820726071493
1708435677.0215373,-2.1561901569366455,-1.3352324676564713,-2.5170348326312464,6.137362825661459,0.9997716546058655,-4.748865191136495
1708435677.0235348,-2.1561856269836426,-1.3352290850928803,-2.517113272343771,6.1373469708259485,0.9998180866241455,-4.748856608067648
1708435677.0256097,-2.1562306880950928,-1.3353023392013093,-2.517068926488058,6.1373023865516565,0.9998059868812561,-4.748889390622274
1708435677.0275862,-2.156224012374878,-1.335245208149292,-2.5170849005328577,6.137331473618307,0.9998270869255066,-4.748885695134298
1708435677.0295572,-2.156193494796753,-1.3352324676564713,-2.517010752354757,6.137294757157125,0.9998135566711426,-4.748828832303182
1708435677.0315459,-2.1561810970306396,-1.3352939498475571,-2.51707631746401,6.1373586533363245,0.9997685551643372,-4.748872820531027
1708435677.0335395,-2.156189203262329,-1.33526165903125,-2.5170393625842493,6.137375938683309,0.999834418296814,-4.748881403599874
1708435677.0355198,-2.156193494796753,-1.3352573674968262,-2.5170732180224817,6.137310969620504,0.9998013973236084,-4.748860899602072
1708435677.0375443,-2.1561810970306396,-1.335244746213295,-2.5170720259295862,6.137347805290975,0.9998136162757874,-4.748820130025045
1708435677.0395324,-2.1561810970306396,-1.3352367144874115,-2.5171175638781946,6.137395369797506,0.9998013973236084,-4.7488489786731165
1708435677.041524,-2.1561481952667236,-1.3352939200452347,-2.517047945653097,6.137339103012838,0.9998360872268677,-4.748840395604269
1708435677.0435414,-2.1561810970306396,-1.3352777820876618,-2.5170720259295862,6.137339103012838,0.9998103976249695,-4.748889390622274
1708435677.045517,-2.156235456466675,-1.33526165903125,-2.5170894304858606,6.137330400734701,0.9997686147689819,-4.7488641182528895
1708435677.0475678,-2.1561439037323,-1.3352489334395905,-2.517052237187521,6.137297975807943,0.9998316168785095,-4.748803559933798
1708435677.0495176,-2.1561856269836426,-1.3352489334395905,-2.5170403162585657,6.137339103012838,0.9998361468315125,-4.748852197323934
1708435677.0515347,-2.156210422515869,-1.3352692884257813,-2.517047945653097,6.137293803482809,0.9998029470443726,-4.748853150998251
1708435677.0535254,-2.156198024749756,-1.3352735054543992,-2.5170558134662073,6.137321936875143,0.9997612237930298,-4.748857561741964
1708435677.0555432,-2.1561856269836426,-1.3352692884257813,-2.5170849005328577,6.137343394547262,0.9997731447219849,-4.748844687138693
1708435677.057515,-2.156156301498413,-1.3352531504682084,-2.5170229117022913,6.1373599646385095,0.9997865557670593,-4.748865191136495
1708435677.0595586,-2.156210422515869,-1.3352616739324112,-2.517052237187521,6.137318599015035,0.9997444748878479,-4.748803559933798
1708435677.061506,-2.156193494796753,-1.335233287220337,-2.51701528230776,6.137392151146688,0.9997865557670593,-4.748860899602072
1708435677.063528,-2.1561856269836426,-1.3352692884257813,-2.517010752354757,6.137334811478414,0.999777615070343,-4.748844687138693
1708435677.0655138,-2.156214952468872,-1.3352854263833542,-2.517043654118673,6.137265193253317,0.9997566938400269,-4.748881403599874
1708435677.067515,-2.156226396560669,-1.3352650862983246,-2.5170677343951624,6.13724564292983,0.9997940063476562,-4.748860899602072
1708435677.0695364,-2.1561765670776367,-1.3351679903319855,-2.517092529927389,6.137322890549459,0.9998029470443726,-4.748844687138693
1708435677.0715253,-2.156198024749756,-1.3352939200452347,-2.517064396535055,6.137310969620504,0.9998059272766113,-4.748865191136495
1708435677.0735054,-2.156226396560669,-1.33531008780513,-2.517060105000631,6.137314188271322,0.9997568130493164,-4.748828832303182
1708435677.0755315,-2.156198024749756,-1.3352777820876618,-2.517031733189718,6.137334811478414,0.999777615070343,-4.748815838490621
1708435677.0775185,-2.156198024749756,-1.3352324974587937,-2.517015043889181,6.137314188271322,0.9998058080673218,-4.748803559933798
1708435677.0795157,-2.1561765670776367,-1.3352573674968262,-2.517047945653097,6.137355673104086,0.9997656941413879,-4.7488489786731165
1708435677.0815163,-2.1562070846557617,-1.3353142601302643,-2.517007652913229,6.1373586533363245,0.9997731447219849,-4.748853150998251
1708435677.083526,-2.1561810970306396,-1.3352692884257813,-2.5170567671405237,6.137266266136923,0.9997820854187012,-4.748816553746359
1708435677.0855114,-2.1562070846557617,-1.33531008780513,-2.5170403162585657,6.137279259949484,0.9998239278793335,-4.748844687138693
1708435677.087523,-2.156226396560669,-1.335289628510811,-2.5170281569110315,6.137307750969686,0.9997567534446716,-4.748828832303182
1708435677.0895114,-2.15616512298584,-1.3353015643409272,-2.5170732180224817,6.137343394547262,0.999794065952301,-4.748860899602072
1708435677.0915418,-2.156202554702759,-1.3352489334395905,-2.517003122960226,6.137318599015035,0.9997864961624146,-4.748828832303182
1708435677.0935156,-2.1561810970306396,-1.335289643411972,-2.5170565287219446,6.1373599646385095,0.9997702240943909,-4.748804513608114
1708435677.0955086,-2.1561810970306396,-1.3353138130954285,-2.517052237187521,6.137314188271322,0.9997656941413879,-4.748833123837606
1708435677.0975404,-2.1561856269836426,-1.3352404099753876,-2.5170393625842493,6.137343394547262,0.9997625946998596,-4.748914186154501
1708435677.0995264,-2.15616512298584,-1.3352939498475571,-2.5170403162585657,6.137331592827596,0.9997367262840271,-4.748885695134298
1708435677.1015239,-2.156134843826294,-1.3353138130954285,-2.5170238653766077,6.137332546501913,0.9997701644897461,-4.74877649942507
1708435677.1035402,-2.1561901569366455,-1.3352778118899842,-2.5170119444476526,6.137330400734701,0.9997865557670593,-4.748816553746359
1708435677.1055384,-2.1562466621398926,-1.3352778118899842,-2.5169957319842737,6.137331473618307,0.9997367858886719,-4.7488619724856775
1708435677.1075299,-2.1561741828918457,-1.3352735054543992,-2.516982618962423,6.13730667808608,0.9997701644897461,-4.748828832303182
1708435677.1095126,-2.1562399864196777,-1.335249440079071,-2.516998831425802,6.137343394547262,0.9997580051422119,-4.748873774205343
1708435677.111533,-2.1561810970306396,-1.3352778118899842,-2.517007652913229,6.137315261154928,0.9997248649597168,-4.748816553746359
1708435677.1135118,-2.156189203262329,-1.3352366846850892,-2.5170043150531214,6.137339103012838,0.9997413158416748,-4.748845998440878
1708435677.115529,-2.156160593032837,-1.3352489185384293,-2.516986910496847,6.1372824786003015,0.9997203946113586,-4.748865191136495
1708435677.1175156,-2.1561810970306396,-1.335273490553238,-2.5170000235186976,6.13730667808608,0.9997836947441101,-4.748889986668722
1708435677.119519,-2.1561810970306396,-1.3352324676564713,-2.5169838110553187,6.137327182083883,0.9997367858886719,-4.748865191136495
1708435677.1215289,-2.1561765670776367,-1.3352658611587067,-2.517007652913229,6.137261974602499,0.999745786190033,-4.748873774205343
1708435677.123541,-2.156205892562866,-1.3352367144874115,-2.5169881025897425,6.1372824786003015,0.9997367262840271,-4.748804513608114
1708435677.1255488,-2.156226396560669,-1.335273490553238,-2.5169597307788294,6.13727496841506,0.9997503161430359,-4.74880034128298
1708435677.127596,-2.156198024749756,-1.335265890961029,-2.5169957319842737,6.1372954724128626,0.999774694442749,-4.7488489786731165
1708435677.129521,-2.156189203262329,-1.3353138130954285,-2.5169509092914026,6.137271749764242,0.9997203350067139,-4.748808924351827
1708435677.1315258,-2.1562397480010986,-1.3352205467275162,-2.517013136540548,6.137263047486105,0.9997294545173645,-4.748820726071493
1708435677.1335506,-2.156214952468872,-1.3352939200452347,-2.5169759432422083,6.137215125351705,0.9997294545173645,-4.748873774205343
1708435677.135586,-2.156224012374878,-1.3352658462575455,-2.517033640538351,6.137158620148458,0.9997458457946777,-4.748797003422872
1708435677.137534,-2.1561810970306396,-1.3352608543685456,-2.5169759432422083,6.137180197029867,0.9997701048851013,-4.748825136815206
1708435677.1395078,-2.15616512298584,-1.3352409166148682,-2.516980234776632,6.137122618943014,0.999767005443573,-4.74882942834963
1708435677.1415174,-2.1562070846557617,-1.3352536273053666,-2.51693565050234,6.137125718384542,0.9997367262840271,-4.748783413563864
1708435677.1435432,-2.1562306880950928,-1.3352163296988984,-2.516947571431295,6.13718460777358,0.9997413158416748,-4.74880034128298
1708435677.1455019,-2.156226396560669,-1.3352367144874115,-2.516947571431295,6.137070286064901,0.9997747540473938,-4.748808924351827
1708435677.1475244,-2.1562070846557617,-1.3353222024491807,-2.516939942036764,6.1371192810829065,0.9997625946998596,-4.748845998440878
1708435677.1495442,-2.156214952468872,-1.3353057962707062,-2.516899887715475,6.137163626938619,0.9997534155845642,-4.7487927118884485
1708435677.1515465,-2.1561901569366455,-1.3352205616286774,-2.51693565050234,6.137180197029867,0.9997294545173645,-4.748845998440878
1708435677.1535406,-2.156226396560669,-1.335200236444809,-2.5169933477984827,6.1371803162391565,0.9997458457946777,-4.748834077511923
1708435677.1555238,-2.156214952468872,-1.3352489483407517,-2.516984526311056,6.137094127922811,0.9997249245643616,-4.748875800763265
1708435677.157527,-2.15615177154541,-1.3352608543685456,-2.516939942036764,6.137151706009664,0.9997413158416748,-4.748768154774801
1708435677.1595175,-2.1561765670776367,-1.3353427064469834,-2.5169149080859583,6.1371474144752405,0.9997503161430359,-4.74880558649172
1708435677.1615295,-2.156214952468872,-1.3352616739324112,-2.5169432798968714,6.137110698014059,0.9997580051422119,-4.7487807909594935
1708435677.1635554,-2.156189203262329,-1.3352367144874115,-2.517001215611593,6.137122618943014,0.9997172355651855,-4.74882954755892
1708435677.1655188,-2.1561856269836426,-1.335229070191719,-2.516939942036764,6.137094127922811,0.9997037053108215,-4.748822156582968
1708435677.167526,-2.156198024749756,-1.335244746213295,-2.517001215611593,6.137138831406393,0.9997384548187256,-4.748838488255636
1708435677.16953,-2.15616512298584,-1.3353057515672226,-2.5169552008258265,6.137138831406393,0.9997715353965759,-4.74880570570101
1708435677.1715033,-2.1561856269836426,-1.3352939498475571,-2.516972605382101,6.137151706009664,0.9997413158416748,-4.74880570570101
1708435677.1735528,-2.156210422515869,-1.3352973324111481,-2.516956154500143,6.1371192810829065,0.999780535697937,-4.748761121426718
1708435677.1755474,-2.1561856269836426,-1.335248963241913,-2.516951862965719,6.137090909271993,0.9997548460960388,-4.748786036168234
1708435677.1775532,-2.156156301498413,-1.3352735054543992,-2.516923491154806,6.137085425644674,0.9997548460960388,-4.748802725468771
1708435677.1795206,-2.1561810970306396,-1.335265890961029,-2.5169313589679163,6.137135493546285,0.9996963739395142,-4.748741451893942
1708435677.1815207,-2.15616512298584,-1.3352854263833542,-2.5169313589679163,6.137172448426046,0.9997217655181885,-4.748765532170431
1708435677.1835506,-2.1562306880950928,-1.3353268814137955,-2.5169597307788294,6.137107121735372,0.9997548460960388,-4.748736921940939
1708435677.1855185,-2.156202554702759,-1.3352854263833542,-2.5169923941241663,6.137144195824423,0.9997792840003967,-4.74877900282015
1708435677.1875508,-2.1561856269836426,-1.335245208149292,-2.5169149080859583,6.137126910477438,0.9997549057006836,-4.748728100453512
1708435677.1895127,-2.1561810970306396,-1.3352489483407517,-2.5169432798968714,6.137144315033712,0.9997036457061768,-4.7487176100360315
1708435677.1915343,-2.156202554702759,-1.335240901713707,-2.5169182459460657,6.137114989548483,0.9997503161430359,-4.748753611241476
1708435677.1935349,-2.156224012374878,-1.3352282506278534,-2.516968313847677,6.137099492340841,0.9997339248657227,-4.748680416737692
1708435677.1955078,-2.1561696529388428,-1.3352854263833542,-2.516947571431295,6.13712369182662,0.9997548460960388,-4.748767081891195
1708435677.1975632,-2.156202554702759,-1.3352239441922684,-2.51699668565859,6.137127983361044,0.9997217655181885,-4.748692337666647
1708435677.1995308,-2.156219482421875,-1.3352616739324112,-2.5169759432422083,6.137078988343038,0.9997882843017578,-4.7487176100360315
1708435677.2015238,-2.1562116146087646,-1.3352777820876618,-2.516980234776632,6.137127983361044,0.9997384548187256,-4.748713199292318
1708435677.203576,-2.1561901569366455,-1.3352650862983246,-2.5169554392444056,6.137099492340841,0.9997503161430359,-4.748655025159017
1708435677.205532,-2.156202554702759,-1.335289628510811,-2.5169387499438685,6.137111413269796,0.9997217655181885,-4.7487176100360315
1708435677.2075717,-2.156224012374878,-1.3353100431016465,-2.5169268290149134,6.13706265667037,0.9997580051422119,-4.7487176100360315
1708435677.2095199,-2.1561741828918457,-1.3352573674968262,-2.516980234776632,6.137058484345236,0.9997172355651855,-4.748745862637655
1708435677.2115076,-2.15616512298584,-1.3352854263833542,-2.517008606587545,6.137090790062704,0.9997339248657227,-4.748759214078085
1708435677.2135346,-2.1561810970306396,-1.3353100431016465,-2.51699668565859,6.137090909271993,0.9997548460960388,-4.7487339417087
1708435677.2155108,-2.156219482421875,-1.3352494102767487,-2.516956154500143,6.13702558258132,0.9997053742408752,-4.748680416737692
1708435677.2175713,-2.1561944484710693,-1.335285411482193,-2.516968313847677,6.137054073601522,0.9997413158416748,-4.7486565748797815
1708435677.2195232,-2.1561696529388428,-1.335216374402382,-2.5169716517077845,6.137047278672018,0.9997429251670837,-4.748708669339315
1708435677.2215157,-2.1561810970306396,-1.335245208149292,-2.51698881784548,6.137108194618978,0.9997580051422119,-4.7487176100360315
1708435677.223547,-2.156202554702759,-1.3352777671865006,-2.5169759432422083,6.136997091561117,0.999767005443573,-4.748701278363363
1708435677.2255383,-2.1561696529388428,-1.3352531653693696,-2.5169597307788294,6.1370757696922205,0.9997294545173645,-4.748680416737692
1708435677.2275538,-2.1561741828918457,-1.335282028918602,-2.5169387499438685,6.137022363930502,0.999767005443573,-4.748750392590658
1708435677.229534,-2.156189203262329,-1.3352044087699433,-2.516980234776632,6.137067067414083,0.9997384548187256,-4.748693768178121
1708435677.2315495,-2.1561944484710693,-1.3352650862983246,-2.516930166875021,6.1370547888572595,0.9997127652168274,-4.748767081891195
1708435677.2335587,-2.1561617851257324,-1.33524942517791,-2.517017428074972,6.1370547888572595,0.9997458457946777,-4.748738471661703
1708435677.235515,-2.1561572551727295,-1.335200236444809,-2.516956154500143,6.137071358948507,0.9997580051422119,-4.748722020779745
1708435677.2375786,-2.1561360359191895,-1.3352366846850892,-2.5169716517077845,6.1370102045829675,0.9997625350952148,-4.748701278363363
1708435677.2395198,-2.1562116146087646,-1.3352001768401642,-2.516984526311056,6.136953580170431,0.9997413158416748,-4.748783294354574
1708435677.2415462,-2.1561810970306396,-1.3352324974587937,-2.5169554392444056,6.137023198395529,0.9997580051422119,-4.748714629803793
1708435677.243546,-2.15616512298584,-1.3352494102767487,-2.5169640223132532,6.13700698593215,0.9997053742408752,-4.7486730257617396
1708435677.24552,-2.1561901569366455,-1.3352531504682084,-2.5169640223132532,6.13700698593215,0.9997172355651855,-4.748714510594503
1708435677.2475488,-2.1561901569366455,-1.3352742505124588,-2.5170043150531214,6.137015569000997,0.9997203946113586,-4.7487340609179896
1708435677.2495482,-2.1561944484710693,-1.3352247935584565,-2.51699668565859,6.1369831440742395,0.9997294545173645,-4.7487056891070765
1708435677.2515109,-2.156207799911499,-1.335273490553238,-2.517013136540548,6.136975276261129,0.9997503161430359,-4.748701278363363
1708435677.2535622,-2.1561830043792725,-1.335293934946396,-2.5169759432422083,6.1370112774665735,0.9997534155845642,-4.748684827481405
1708435677.2555134,-2.1561291217803955,-1.3353023392013093,-2.5170000235186976,6.136987435608663,0.9997385144233704,-4.748684827481405
1708435677.2575614,-2.1561572551727295,-1.3352573674968262,-2.5170250574695032,6.13693522193984,0.9997458457946777,-4.748689357434408
1708435677.2595308,-2.1561529636383057,-1.3352735054543992,-2.5170162359820765,6.136967646866598,0.9997490048408508,-4.7487056891070765
1708435677.261527,-2.156170606613159,-1.3352409166148682,-2.5170238653766077,6.136902439385214,0.9997249245643616,-4.74867290655245
1708435677.2635407,-2.1561291217803955,-1.3352205020240326,-2.5169881025897425,6.136980640679159,0.9997367262840271,-4.748690787945883
1708435677.2655246,-2.1562116146087646,-1.3352811944535752,-2.5170000235186976,6.136926519661703,0.9997294545173645,-4.748702708874838
1708435677.267569,-2.1561405658721924,-1.335240901713707,-2.517068926488058,6.136968838959493,0.9997580051422119,-4.74871009985079
1708435677.2695372,-2.1561245918273926,-1.335282028918602,-2.517047945653097,6.136951434403219,0.9997580051422119,-4.748693768178121
1708435677.271508,-2.1561131477355957,-1.335285411482193,-2.5170403162585657,6.136930930405416,0.9997701644897461,-4.748681847249166
1708435677.2735777,-2.156149387359619,-1.3352366846850892,-2.517043654118673,6.13693522193984,0.9997413158416748,-4.748714629803793
1708435677.2755556,-2.1561663150787354,-1.335245208149292,-2.517064396535055,6.136878716736593,0.9997747540473938,-4.748680416737692
1708435677.2775319,-2.1561572551727295,-1.335289643411972,-2.51707631746401,6.1368915913398645,0.9997580051422119,-4.748677436505453
1708435677.2795136,-2.156170606613159,-1.3352573674968262,-2.517064396535055,6.136940347939291,0.9997865557670593,-4.748693768178121
1708435677.2815034,-2.1561291217803955,-1.3352692884257813,-2.5170677343951624,6.136924016266622,0.9997625946998596,-4.748693768178121
1708435677.2835956,-2.1561617851257324,-1.3352778118899842,-2.51707631746401,6.136915433197775,0.99974125623703,-4.7487176100360315
1708435677.285509,-2.1561875343322754,-1.3352693182281037,-2.517047945653097,6.1368915913398645,0.9997458457946777,-4.74867290655245
1708435677.2875571,-2.1561405658721924,-1.335240901713707,-2.517088238392965,6.136899220734396,0.9997294545173645,-4.748714629803793
1708435677.289521,-2.1561334133148193,-1.335245208149292,-2.5170393625842493,6.1368915913398645,0.9997367262840271,-4.74867290655245
1708435677.291545,-2.156175136566162,-1.3352366846850892,-2.517043654118673,6.1368785975273035,0.999753475189209,-4.748726550732748
1708435677.2935586,-2.1560962200164795,-1.3353108328631897,-2.5170515219317835,6.13692735412673,0.9997458457946777,-4.74868625799288
1708435677.2955194,-2.1561334133148193,-1.3352451932481308,-2.5171330610858362,6.136928546219625,0.9997580051422119,-4.748693768178121
1708435677.297518,-2.156153917312622,-1.3353226643851777,-2.517104689274923,6.136940228730001,0.999753475189209,-4.74871009985079
1708435677.2995114,-2.156109571456909,-1.3352777671865006,-2.5170634428607386,6.136887299805441,0.999791145324707,-4.748689357434408
1708435677.3015263,-2.156158208847046,-1.3352531504682084,-2.517092529927389,6.136915433197775,0.999791145324707,-4.74871009985079
1708435677.303529,-2.156109571456909,-1.335240901713707,-2.517088238392965,6.136911022454061,0.999791145324707,-4.74871009985079
1708435677.305526,-2.1561052799224854,-1.3352616739324112,-2.517060105000631,6.136943924217977,0.9997701644897461,-4.7487056891070765
1708435677.307514,-2.156170606613159,-1.335245208149292,-2.5170274416552942,6.136911141663351,0.999732255935669,-4.74867290655245
1708435677.3095074,-2.1561264991760254,-1.3352205467275162,-2.517043654118673,6.136948215752401,0.9997895359992981,-4.748668495808737
1708435677.311522,-2.156114101409912,-1.3352001768401642,-2.517088238392965,6.136924016266622,0.9997820854187012,-4.748714629803793
1708435677.3135164,-2.156101703643799,-1.3352247488549729,-2.5170677343951624,6.136940228730001,0.9998103976249695,-4.7486446539508265
1708435677.315547,-2.156114101409912,-1.3352778118899842,-2.5170348326312464,6.136863219528951,0.9998059272766113,-4.748689357434408
1708435677.317513,-2.1561379432678223,-1.335245208149292,-2.5170515219317835,6.136883008271017,0.9998103976249695,-4.74868625799288
1708435677.319527,-2.1561310291290283,-1.3352375042489548,-2.517092529927389,6.136838185578146,0.9998148679733276,-4.748698178921835
1708435677.3215222,-2.1561062335968018,-1.3352536422065278,-2.517120901738302,6.136924016266622,0.9998553991317749,-4.74864906469454
1708435677.3235345,-2.156151294708252,-1.3352536422065278,-2.5170589129077356,6.136875021248617,0.9998480081558228,-4.74868625799288
1708435677.32552,-2.156068801879883,-1.3352451783469697,-2.5170796553241175,6.136900293618002,0.9997940063476562,-4.748693768178121
1708435677.3275902,-2.156146764755249,-1.3352573674968262,-2.5170427004443567,6.136870729714193,0.9998059272766113,-4.7486446539508265
1708435677.3295588,-2.1561219692230225,-1.3352129322341462,-2.517088238392965,6.136892425804891,0.9998180866241455,-4.748660985623495
1708435677.331531,-2.156146764755249,-1.3352573674968262,-2.5170753637896937,6.136883008271017,0.9998598098754883,-4.748701278363363
1708435677.333518,-2.156135320663452,-1.3352778118899842,-2.51710015932192,6.136912214546957,0.9998463988304138,-4.748684827481405
1708435677.3355346,-2.156118631362915,-1.335229070191719,-2.517113272343771,6.1369197247321985,0.9998226165771484,-4.748677436505453
1708435677.3375795,-2.1561219692230225,-1.3352734756520768,-2.5170472303973597,6.136870729714193,0.9998464584350586,-4.748665515576498
1708435677.3395216,-2.156135320663452,-1.335270107989647,-2.5170472303973597,6.136907803803243,0.9998047351837158,-4.748698178921835
1708435677.341513,-2.1561062335968018,-1.335217149262764,-2.5170796553241175,6.136888015061178,0.9998419284820557,-4.748702708874838
1708435677.3435154,-2.156092882156372,-1.3351959151080628,-2.517097059880392,6.1368470070655725,0.999850869178772,-4.748669926320211
1708435677.3455203,-2.1561310291290283,-1.3352086257985611,-2.5170720259295862,6.13685559013442,0.999862790107727,-4.748714629803793
1708435677.347509,-2.1560733318328857,-1.335270107989647,-2.517088238392965,6.136896002083578,0.9998300075531006,-4.748677436505453
1708435677.3495193,-2.156085729598999,-1.335240901713707,-2.5170677343951624,6.136851298599996,0.999862790107727,-4.748663965855734
1708435677.3515248,-2.156085729598999,-1.335282028918602,-2.5170427004443567,6.1368915913398645,0.9998284578323364,-4.748681728039877
1708435677.3535454,-2.1561062335968018,-1.3352939498475571,-2.5170393625842493,6.136854517250814,0.9998538494110107,-4.748681847249166
1708435677.355544,-2.1561050415039062,-1.3352616739324112,-2.517021958027975,6.136956918030538,0.9998255372047424,-4.74867290655245
1708435677.3575106,-2.156085729598999,-1.3352416467717667,-2.517080608998434,6.136858808785238,0.9998165965080261,-4.748698178921835
1708435677.359536,-2.156068801879883,-1.3352616739324112,-2.517088238392965,6.136851298599996,0.9998779296875,-4.748689357434408
1708435677.3615108,-2.156076669692993,-1.3352366846850892,-2.5170796553241175,6.1369045851524255,0.9998463988304138,-4.748636786137716
1708435677.3635228,-2.156094789505005,-1.3352903884700318,-2.5170915762530726,6.1368915913398645,0.9998091459274292,-4.7487056891070765
1708435677.3655484,-2.156106472015381,-1.3351720881513138,-2.5170677343951624,6.1368915913398645,0.9998329281806946,-4.748698178921835
1708435677.3675044,-2.156081199645996,-1.335224763756134,-2.5170634428607386,6.136896002083578,0.9998493194580078,-4.74867290655245
1708435677.3695235,-2.1560566425323486,-1.3352375042489548,-2.5170753637896937,6.136937129288473,0.9998165369033813,-4.748714629803793
1708435677.3715417,-2.1560518741607666,-1.335224763756134,-2.51710015932192,6.136920916825094,0.9998419284820557,-4.7487056891070765
1708435677.3735313,-2.156127691268921,-1.3352573674968262,-2.517104450856344,6.136843430786886,0.9998794794082642,-4.74871009985079
1708435677.375526,-2.156068801879883,-1.335282028918602,-2.5171287695514124,6.136875021248617,0.9998374581336975,-4.74871009985079
1708435677.3775392,-2.1561107635498047,-1.3352324676564713,-2.517104450856344,6.136809813767233,0.9998900890350342,-4.74867290655245
1708435677.3795404,-2.156123161315918,-1.33526165903125,-2.5170634428607386,6.136883723526754,0.999840259552002,-4.748677436505453
1708435677.3815403,-2.156068801879883,-1.335245208149292,-2.5170958677874964,6.136913406639852,0.9998733997344971,-4.748714629803793
1708435677.3835588,-2.156031608581543,-1.335217149262764,-2.5171287695514124,6.136842596321859,0.9998538494110107,-4.7487234512912195
1708435677.3855643,-2.156068801879883,-1.3352778118899842,-2.5170677343951624,6.136839020043173,0.9998779296875,-4.748698178921835
1708435677.3875499,-2.156135320663452,-1.3352692884257813,-2.5170472303973597,6.136875021248617,0.9999036192893982,-4.748677436505453
1708435677.3895297,-2.156160354614258,-1.3352742505124588,-2.5171287695514124,6.136875021248617,0.9998660087585449,-4.74871009985079
1708435677.3915658,-2.15606427192688,-1.3353024137071152,-2.5171120802508753,6.136867511063375,0.9998733997344971,-4.748689357434408
1708435677.39352,-2.156081199645996,-1.335265890961029,-2.5170839468585413,6.136845814972677,0.9998946189880371,-4.748677436505453
1708435677.3955617,-2.1560518741607666,-1.3352616739324112,-2.517104450856344,6.136900293618002,0.999885618686676,-4.748693768178121
1708435677.3975127,-2.1560990810394287,-1.3353024286082764,-2.5171120802508753,6.1368915913398645,0.999885618686676,-4.748714629803793
1708435677.3995318,-2.1561081409454346,-1.33524942517791,-2.5170958677874964,6.136858808785238,0.9998900890350342,-4.748653475438253
1708435677.401527,-2.1560778617858887,-1.3351679009250184,-2.51713735262026,6.1368470070655725,0.999939501285553,-4.74865967432131
1708435677.4035313,-2.156132221221924,-1.3352577847293396,-2.5170870463000696,6.136851298599996,0.9999064803123474,-4.748735372220175
1708435677.4055183,-2.15600323677063,-1.335224763756134,-2.5170915762530726,6.13681851604537,0.9998974800109863,-4.748684827481405
1708435677.407543,-2.1560451984405518,-1.3352536422065278,-2.5170915762530726,6.136907803803243,0.9999231696128845,-4.7487056891070765
1708435677.4095323,-2.156059741973877,-1.335245208149292,-2.5170796553241175,6.136866438179769,0.9999231696128845,-4.748698178921835
1708435677.4115212,-2.1560866832733154,-1.3352616739324112,-2.5170958677874964,6.1368915913398645,0.9998570084571838,-4.7487176100360315
1708435677.4135535,-2.156068801879883,-1.33524942517791,-2.5171034971820276,6.136842596321859,0.9999110698699951,-4.748686377202169
1708435677.4155576,-2.1560518741607666,-1.335233287220337,-2.517054621373312,6.136870729714193,0.9999350905418396,-4.748677436505453
1708435677.417514,-2.1560866832733154,-1.3352778267911454,-2.5171120802508753,6.136875021248617,0.9998974800109863,-4.748689357434408
1708435677.4195108,-2.1560823917388916,-1.3352129322341462,-2.5171287695514124,6.13687418678359,0.9998810887336731,-4.748693768178121
1708435677.4215126,-2.1561107635498047,-1.3352375042489548,-2.5171034971820276,6.136875021248617,0.9999020099639893,-4.748742882405416
1708435677.4235246,-2.1561036109924316,-1.3352001768401642,-2.5170958677874964,6.1368915913398645,0.9999350905418396,-4.74871009985079
1708435677.4255211,-2.156085729598999,-1.3352086257985611,-2.5170870463000696,6.136896002083578,0.9999064803123474,-4.74871009985079
1708435677.4275715,-2.156101703643799,-1.335265890961029,-2.5171034971820276,6.136875021248617,0.9999395608901978,-4.7486446539508265
1708435677.4295652,-2.156085729598999,-1.3352129322341462,-2.517120901738302,6.1368915913398645,0.9998929500579834,-4.748689357434408
1708435677.431586,-2.156094789505005,-1.3352129322341462,-2.5170958677874964,6.136875021248617,0.9999305605888367,-4.748698178921835
1708435677.4335985,-2.1560778617858887,-1.3352247488549729,-2.5170634428607386,6.1368915913398645,0.9999334216117859,-4.748714629803793
1708435677.4355288,-2.1561198234558105,-1.335180641417839,-2.5170677343951624,6.13687943199233,0.999939501285553,-4.748681847249166
1708435677.437542,-2.156094789505005,-1.335217149262764,-2.5170674959765833,6.136941540032186,0.9998810887336731,-4.7487056891070765
1708435677.439522,-2.1560494899749756,-1.3352573674968262,-2.5171120802508753,6.136907803803243,0.9999216198921204,-4.748663965855734
1708435677.4415247,-2.156097173690796,-1.335217149262764,-2.517082754765646,6.136928427010336,0.9998929500579834,-4.748677436505453
1708435677.443548,-2.156035900115967,-1.3352324676564713,-2.5171733538257044,6.1369045851524255,0.9999216198921204,-4.7487056891070765
1708435677.4455247,-2.156081199645996,-1.3352043640664597,-2.5171242395984095,6.136883723526754,0.9998766183853149,-4.748677436505453
1708435677.4475577,-2.1560733318328857,-1.3352375042489548,-2.5171733538257044,6.1369045851524255,0.9999052286148071,-4.748684827481405
1708435677.4495277,-2.15606427192688,-1.3352409166148682,-2.517115656529562,6.1369045851524255,0.9999350905418396,-4.7487056891070765
1708435677.4515288,-2.1560609340667725,-1.3352254790118714,-2.5170796553241175,6.136907803803243,0.9999591708183289,-4.748684827481405
1708435677.4535334,-2.156068801879883,-1.335265890961029,-2.5171242395984095,6.136870729714193,0.9999380111694336,-4.748660985623495
1708435677.455515,-2.1560654640197754,-1.335180641417839,-2.5170796553241175,6.13687943199233,0.9998929500579834,-4.748722020779745
1708435677.4575324,-2.1560733318328857,-1.3352451783469697,-2.5170634428607386,6.136883723526754,0.9999380111694336,-4.748713199292318
1708435677.4595237,-2.156101703643799,-1.335298166876175,-2.5170915762530726,6.136858808785238,0.9999380111694336,-4.748726550732748
1708435677.4615355,-2.156090259552002,-1.3352254939130326,-2.5171120802508753,6.13687943199233,0.9999412298202515,-4.748730961476461
1708435677.463531,-2.156035900115967,-1.335240901713707,-2.517066542302267,6.1368141053016565,0.9999379515647888,-4.748707119618551
1708435677.465517,-2.1561241149902344,-1.3352290850928803,-2.5171199480639856,6.1368915913398645,0.9999216198921204,-4.748707119618551
1708435677.467544,-2.1560566425323486,-1.33528624594722,-2.5170796553241175,6.136833894043722,0.9999591708183289,-4.7486565748797815
1708435677.4695265,-2.1560451984405518,-1.3352658611587067,-2.517054621373312,6.1368470070655725,0.9999334812164307,-4.748689357434408
1708435677.4715376,-2.1560451984405518,-1.3352692884257813,-2.5171034971820276,6.136937129288473,0.9999380111694336,-4.748677436505453
1708435677.4735584,-2.1560990810394287,-1.33524942517791,-2.517115656529562,6.136883723526754,0.9999380111694336,-4.748701278363363
1708435677.4755275,-2.1560778617858887,-1.3352086556008835,-2.5170958677874964,6.136940347939291,0.9999710917472839,-4.748689357434408
1708435677.4775517,-2.156101703643799,-1.3352139753154297,-2.5170870463000696,6.136887299805441,0.9999547004699707,-4.748730961476461
1708435677.4795434,-2.1560609340667725,-1.3352617037347336,-2.5171449820147913,6.1368915913398645,0.9999216198921204,-4.748726550732748
1708435677.4815218,-2.1561152935028076,-1.3352700781873246,-2.5170958677874964,6.136887299805441,0.9999591708183289,-4.748735372220175
1708435677.483607,-2.156101703643799,-1.3352001321366807,-2.5171034971820276,6.136935937195577,0.9999591708183289,-4.748738471661703
1708435677.4855318,-2.1560778617858887,-1.3352494102767487,-2.5171120802508753,6.136839020043173,0.9999424815177917,-4.748693768178121
1708435677.4875994,-2.1560518741607666,-1.3352044236711045,-2.517050329838888,6.1369045851524255,0.9999469518661499,-4.748722020779745
1708435677.4895227,-2.1560609340667725,-1.335224763756134,-2.517082754765646,6.13687943199233,0.9999379515647888,-4.748677436505453
1708435677.4915392,-2.156094789505005,-1.3352658462575455,-2.517104689274923,6.136900293618002,0.9999260902404785,-4.74871009985079
1708435677.4935803,-2.1560494899749756,-1.335289643411972,-2.5171120802508753,6.136858808785238,0.9999334812164307,-4.7486565748797815
1708435677.4955428,-2.1560778617858887,-1.335233287220337,-2.517104450856344,6.136915433197775,0.9999170899391174,-4.748693768178121
1708435677.4975498,-2.156101703643799,-1.3352494847825547,-2.5171120802508753,6.136912214546957,0.9999290108680725,-4.748698178921835
1708435677.4995313,-2.1560778617858887,-1.3352290850928803,-2.5170915762530726,6.136870729714193,0.9999380111694336,-4.748677436505453
1708435677.5015345,-2.1560609340667725,-1.3352489483407517,-2.5171120802508753,6.136899220734396,0.99988853931427,-4.748665515576498
1708435677.50359,-2.1560778617858887,-1.3352451783469697,-2.51713735262026,6.136850106507101,0.9999216794967651,-4.74867290655245
1708435677.5055268,-2.1560778617858887,-1.3352531802705307,-2.5170915762530726,6.136915433197775,0.9999305605888367,-4.7487339417087
1708435677.507535,-2.156068801879883,-1.3352086705020447,-2.5171287695514124,6.136887299805441,0.9999635815620422,-4.74868625799288
1708435677.5095327,-2.1560990810394287,-1.335204468374588,-2.5171120802508753,6.136907803803243,0.9999334216117859,-4.748698178921835
1708435677.5115209,-2.1560990810394287,-1.3352493953755875,-2.5170634428607386,6.1368621466453455,0.9999334812164307,-4.74868625799288
1708435677.5135489,-2.1560654640197754,-1.3352290403893967,-2.5170958677874964,6.136912214546957,0.9999424815177917,-4.748730961476461
1708435677.5155146,-2.1560733318328857,-1.335269258623459,-2.5171120802508753,6.1368915913398645,0.9999216198921204,-4.748689357434408
1708435677.5175395,-2.1561107635498047,-1.335229055290558,-2.5170634428607386,6.136850106507101,0.9999380111694336,-4.74871009985079
1708435677.5195467,-2.1560823917388916,-1.3352778118899842,-2.5170915762530726,6.136928427010336,0.9999424815177917,-4.748693768178121
1708435677.5215151,-2.1560778617858887,-1.335201383834221,-2.5170958677874964,6.1368785975273035,0.9999170899391174,-4.748726550732748
1708435677.5235536,-2.15606427192688,-1.3352784675410767,-2.517116371785299,6.136928546219625,0.9999351501464844,-4.748640243207113
1708435677.5255296,-2.1561062335968018,-1.3351971072009583,-2.5171330610858362,6.136944758683004,0.9998840093612671,-4.748684827481405
1708435677.5276053,-2.156040668487549,-1.3352617037347336,-2.5171733538257044,6.136833894043722,0.9999424815177917,-4.7487399021731775
1708435677.529579,-2.156040668487549,-1.335253582601883,-2.5170870463000696,6.136857735901632,0.9999547004699707,-4.74871009985079
1708435677.5315228,-2.1561241149902344,-1.335236669783928,-2.5170753637896937,6.136858808785238,0.9999591112136841,-4.7487221399890345
1708435677.533577,-2.1560566425323486,-1.335273490553238,-2.5171287695514124,6.136887299805441,0.9999380111694336,-4.748677436505453
1708435677.5355291,-2.1560566425323486,-1.3352700781873246,-2.5170915762530726,6.13687943199233,0.9999469518661499,-4.7487056891070765
1708435677.537543,-2.1560778617858887,-1.3352333021214982,-2.517054621373312,6.136887299805441,0.9999334216117859,-4.74868625799288
1708435677.539536,-2.1560566425323486,-1.3352206212333222,-2.5171287695514124,6.136907803803243,0.9999501705169678,-4.74864906469454
1708435677.5415103,-2.1560778617858887,-1.3352616441300889,-2.51710015932192,6.136943924217977,0.9999334812164307,-4.74867290655245
1708435677.543558,-2.1560654640197754,-1.335262120967247,-2.51713735262026,6.136875021248617,0.9999501705169678,-4.74864906469454
1708435677.545524,-2.1560733318328857,-1.3352573823979874,-2.517115656529562,6.136931645661154,0.9999290108680725,-4.748677436505453
1708435677.5475514,-2.1560585498809814,-1.3352452528527756,-2.5170708338366907,6.136911141663351,0.9999665021896362,-4.7486565748797815
1708435677.5495412,-2.156090259552002,-1.3352494102767487,-2.517054621373312,6.136887299805441,0.9999216198921204,-4.748702708874838
1708435677.551527,-2.1560494899749756,-1.3352044981769104,-2.5170958677874964,6.136912214546957,0.9999710321426392,-4.748677436505453
1708435677.5535417,-2.1560494899749756,-1.3351932179978867,-2.5171733538257044,6.136883008271017,0.999896228313446,-4.748677436505453
1708435677.5555115,-2.1561152935028076,-1.3352291148952027,-2.5171242395984095,6.1368915913398645,0.9999514818191528,-4.748707119618551
1708435677.5575457,-2.156074285507202,-1.3353024137071152,-2.517116371785299,6.136863219528951,0.9999216794967651,-4.748681847249166
1708435677.559572,-2.1560540199279785,-1.3352573972991486,-2.5170708338366907,6.136961209564962,0.9999547004699707,-4.748658005391256
1708435677.5615168,-2.1560912132263184,-1.3351971370032807,-2.51710015932192,6.136842596321859,0.9999457001686096,-4.748653475438253
1708435677.5635552,-2.1560494899749756,-1.3351971966079255,-2.51710015932192,6.1369067309196375,0.9999424815177917,-4.74862522283663
1708435677.5655122,-2.156029224395752,-1.335205541258194,-2.5171330610858362,6.136899220734396,0.9999260902404785,-4.748653594647543
1708435677.5675464,-2.156033754348755,-1.3352700930884858,-2.5170958677874964,6.136850106507101,0.9999260902404785,-4.748662535344259
1708435677.5695553,-2.1560957431793213,-1.3352536422065278,-2.5170796553241175,6.1368915913398645,0.9999334812164307,-4.748629752789633
1708435677.5715475,-2.1560494899749756,-1.3352536422065278,-2.5170958677874964,6.136924135475912,0.9999126195907593,-4.7486178318606775
1708435677.5735776,-2.156029224395752,-1.3352577847293396,-2.517074171696798,6.136944758683004,0.99988853931427,-4.7486178318606775
1708435677.5755417,-2.1560044288635254,-1.335245208149292,-2.517054621373312,6.136850106507101,0.999896228313446,-4.7486178318606775
1708435677.577583,-2.1560609340667725,-1.3352324229529877,-2.5171077887164515,6.136915433197775,0.9999380111694336,-4.748584691678182
1708435677.5795624,-2.1560168266296387,-1.335217149262764,-2.5171120802508753,6.136920916825094,0.999966561794281,-4.748584691678182
1708435677.5815237,-2.156033754348755,-1.3352366995862504,-2.517099205647604,6.136899220734396,0.9999006986618042,-4.748568240796224
1708435677.5835721,-2.156074285507202,-1.335249440079071,-2.5170417467700403,6.136875021248617,0.9999424815177917,-4.748631183301107
1708435677.585531,-2.1560540199279785,-1.335184858446457,-2.5170796553241175,6.136858808785238,0.9999245405197144,-4.748598162327902
1708435677.5875309,-2.1560957431793213,-1.3352340322783967,-2.5171242395984095,6.136896002083578,0.9999501705169678,-4.748619381581442
1708435677.5895286,-2.156033754348755,-1.33522983015094,-2.5170870463000696,6.136875021248617,0.9999245405197144,-4.748598162327902
1708435677.5915594,-2.1559882164001465,-1.33524942517791,-2.5171242395984095,6.136899220734396,0.9999591708183289,-4.748565379773275
1708435677.5935488,-2.1560585498809814,-1.335233287220337,-2.517074171696798,6.136854517250814,0.9999457001686096,-4.748568240796224
1708435677.595601,-2.155975818634033,-1.3352055561593552,-2.5170796553241175,6.1369197247321985,0.9999334812164307,-4.748619262372152
1708435677.59758,-2.1560425758361816,-1.3352459830096741,-2.5171077887164515,6.136875021248617,1.0000038146972656,-4.74859065214266
1708435677.5995286,-2.1560471057891846,-1.3352459383061905,-2.5170427004443567,6.136866438179769,0.9999380111694336,-4.748643104230062
1708435677.601537,-2.1560168266296387,-1.335209683781006,-2.5170579592334192,6.136911141663351,0.9999170899391174,-4.748614851628439
1708435677.6035707,-2.1560471057891846,-1.335257740025856,-2.5171199480639856,6.136912214546957,0.9999379515647888,-4.748622242604391
1708435677.6055317,-2.1560168266296387,-1.3352577549270173,-2.5171287695514124,6.1368915913398645,0.9998795390129089,-4.74859065214266
1708435677.6075807,-2.155989408493042,-1.3352171194604416,-2.5170839468585413,6.136870729714193,0.9999469518661499,-4.748569909726278
1708435677.6095266,-2.1559927463531494,-1.33522983015094,-2.517082754765646,6.1368470070655725,0.9999380111694336,-4.748610321675436
1708435677.611559,-2.1559972763061523,-1.3351932179978867,-2.5171120802508753,6.136920916825094,0.9999681711196899,-4.7485626379596155
1708435677.6135182,-2.1560606956481934,-1.3351568442634125,-2.517082754765646,6.136841404228964,0.9999380111694336,-4.748586241398947
1708435677.6155066,-2.1559927463531494,-1.3352255088141938,-2.5171077887164515,6.136912214546957,0.999950110912323,-4.748560849820272
1708435677.6175485,-2.1560347080230713,-1.3351729375175019,-2.517116371785299,6.1368785975273035,0.9999875426292419,-4.748586241398947
1708435677.619528,-2.1560089588165283,-1.3352947396091004,-2.5171199480639856,6.136912214546957,0.9999501705169678,-4.748565379773275
1708435677.6215189,-2.15596342086792,-1.3352055859616776,-2.5171199480639856,6.1368915913398645,0.9999216198921204,-4.748544756566183
1708435677.623567,-2.155975818634033,-1.3352013689330597,-2.5171199480639856,6.136858808785238,0.9999469518661499,-4.748549405728475
1708435677.6255157,-2.1560256481170654,-1.33521822214637,-2.5170753637896937,6.136940228730001,0.9999305605888367,-4.748619381581442
1708435677.6276011,-2.1560089588165283,-1.3351975095323105,-2.5171449820147913,6.136928427010336,0.9999591708183289,-4.748623792325155
1708435677.629662,-2.156039237976074,-1.3352297854474564,-2.5170958677874964,6.136887299805441,0.9999547004699707,-4.74859065214266
1708435677.6315453,-2.156031370162964,-1.3351975244334717,-2.5171034971820276,6.136952507286825,0.9999260902404785,-4.74859065214266
1708435677.6335423,-2.156010866165161,-1.3352139753154297,-2.5171318689929407,6.13687943199233,0.9999547004699707,-4.748602573071615
1708435677.635572,-2.155972719192505,-1.3351526421359559,-2.517082754765646,6.136875021248617,0.9999501705169678,-4.748586241398947
1708435677.6375306,-2.1559927463531494,-1.3352213662913819,-2.5171077887164515,6.13686631897048,0.9999591708183289,-4.748586241398947
1708435677.639535,-2.156010866165161,-1.3352172088674088,-2.51713735262026,6.136896002083578,0.9999711513519287,-4.74859065214266
1708435677.6415288,-2.155967950820923,-1.3351975095323105,-2.51710015932192,6.136892425804891,0.9999290108680725,-4.748565379773275
1708435677.6435347,-2.156006336212158,-1.3352375042489548,-2.5171077887164515,6.13685022571639,0.9999755620956421,-4.748607103024618
1708435677.645546,-2.1560018062591553,-1.3351813417724152,-2.5171199480639856,6.13685559013442,0.9999290108680725,-4.748549405728475
1708435677.6475372,-2.156039237976074,-1.3351898205331345,-2.517186228428976,6.1368915913398645,0.9999334812164307,-4.748607103024618
1708435677.6495697,-2.155993938446045,-1.3351975095323105,-2.517123285924093,6.136887299805441,0.9999380111694336,-4.748586241398947
1708435677.6515305,-2.1559770107269287,-1.335165188913681,-2.5171077887164515,6.136858808785238,0.9999591708183289,-4.748619381581442
1708435677.6535323,-2.1559972763061523,-1.3351813715747376,-2.5170915762530726,6.136929499893942,0.9999591708183289,-4.748607103024618
1708435677.6555438,-2.1559815406799316,-1.3351694506457825,-2.5170589129077356,6.136900293618002,0.9999216198921204,-4.748578731213705
1708435677.6575263,-2.156017780303955,-1.3352059882930298,-2.5171242395984095,6.136932837754049,0.9999560117721558,-4.748532716427938
1708435677.659538,-2.1560301780700684,-1.335166023378708,-2.5171690622912806,6.136896002083578,0.9999096989631653,-4.748610321675436
1708435677.6615376,-2.1560027599334717,-1.33521822214637,-2.5171242395984095,6.136854517250814,0.9999547004699707,-4.7485671679126185
1708435677.663524,-2.156031370162964,-1.335214064722397,-2.5171120802508753,6.136854517250814,0.9999334216117859,-4.748610321675436
1708435677.665514,-2.155972719192505,-1.3352017116597672,-2.5171287695514124,6.136928427010336,0.9999469518661499,-4.748565379773275
1708435677.667539,-2.155993938446045,-1.335182176237442,-2.5171034971820276,6.136883723526754,0.9999334812164307,-4.748660866414205
1708435677.66954,-2.1559972763061523,-1.3351822060397645,-2.5171287695514124,6.136888015061178,0.9998930096626282,-4.748549405728475
1708435677.6715283,-2.155993938446045,-1.3352017265609284,-2.5170870463000696,6.13690351226882,0.9999245405197144,-4.748549286519186
1708435677.6735184,-2.1559407711029053,-1.3351334196380158,-2.5171242395984095,6.136907803803243,0.9999424815177917,-4.74859065214266
1708435677.6755316,-2.155961275100708,-1.3351609867862244,-2.5171318689929407,6.136882889061727,0.9998974800109863,-4.748569909726278
1708435677.6775124,-2.155949831008911,-1.3351369363120575,-2.5170708338366907,6.136912214546957,0.9999380111694336,-4.748553816472189
1708435677.6795127,-2.155967950820923,-1.3351695102504273,-2.5171199480639856,6.136870729714193,0.9999591708183289,-4.748528067265646
1708435677.6815076,-2.156017780303955,-1.3352109801820298,-2.5171199480639856,6.136863219528951,0.9999637007713318,-4.7485743204699915
1708435677.6835148,-2.155993938446045,-1.335153342490532,-2.5171199480639856,6.13687943199233,0.9999216198921204,-4.748586241398947
1708435677.685514,-2.155993938446045,-1.3352144372514267,-2.5171361605273646,6.136838185578146,0.9999170899391174,-4.748569909726278
1708435677.6875267,-2.155998468399048,-1.3351410639337082,-2.5170915762530726,6.136907803803243,0.9999711513519287,-4.748586241398947
1708435677.6895273,-2.156031370162964,-1.3351575595191498,-2.5171034971820276,6.136850106507101,0.9999334812164307,-4.748586241398947
1708435677.6915286,-2.1559815406799316,-1.335169480448105,-2.5171199480639856,6.136851298599996,0.9999380111694336,-4.748578731213705
1708435677.6935215,-2.155998468399048,-1.3351617467454453,-2.5171361605273646,6.136883723526754,0.9999334812164307,-4.748606983815328
1708435677.6955073,-2.156006336212158,-1.3351778847030182,-2.5171120802508753,6.136875021248617,0.9999710917472839,-4.748595062886373
1708435677.697553,-2.155972719192505,-1.3351660531810303,-2.517107073460714,6.136888015061178,0.9999260902404785,-4.748558227215902
1708435677.6995146,-2.1559972763061523,-1.3351982992938538,-2.51715594926943,6.1368915913398645,0.9999052286148071,-4.748581830655233
1708435677.7015176,-2.156015157699585,-1.3352102053216477,-2.5170870463000696,6.13684247711257,0.9999547004699707,-4.748611394559042
1708435677.7035286,-2.155967950820923,-1.3351533275893708,-2.5170708338366907,6.136892425804891,0.9999380111694336,-4.748549286519186
1708435677.7055314,-2.156015157699585,-1.3351898056319733,-2.517123285924093,6.1368785975273035,0.9999186992645264,-4.748619262372152
1708435677.7075129,-2.156026840209961,-1.3352059435895463,-2.5171287695514124,6.136928427010336,0.9999547600746155,-4.748581830655233
1708435677.709519,-2.1560018062591553,-1.3351779145053406,-2.5171688238727015,6.136871802597799,0.99988853931427,-4.748619262372152
1708435677.7115571,-2.155956745147705,-1.33519400775943,-2.5171199480639856,6.136900293618002,0.9999334812164307,-4.748581830655233
1708435677.7135577,-2.155972719192505,-1.3351778847030182,-2.5171034971820276,6.136883723526754,0.9999380111694336,-4.748545948659078
1708435677.7155282,-2.155998468399048,-1.3351617616466065,-2.5171034971820276,6.136896002083578,0.9998840093612671,-4.7485448757754725
1708435677.7175364,-2.155947685241699,-1.335169480448105,-2.5171034971820276,6.136875021248617,0.9999334812164307,-4.748558227215902
1708435677.7195294,-2.155963659286499,-1.3352266115001221,-2.517115656529562,6.136830436974325,0.9999457001686096,-4.748586241398947
1708435677.7215183,-2.155972719192505,-1.3352059584907074,-2.517123285924093,6.136883723526754,0.9999216794967651,-4.748558227215902
1708435677.7235632,-2.156035900115967,-1.33519400775943,-2.5171120802508753,6.136925208359518,0.9999710917472839,-4.748558227215902
1708435677.7255306,-2.156006336212158,-1.3352059882930298,-2.5171449820147913,6.136839020043173,0.9999591708183289,-4.748599592839376
1708435677.727534,-2.155967950820923,-1.3352139753154297,-2.5171287695514124,6.136888015061178,0.9999637007713318,-4.748611394559042
1708435677.7295964,-2.156043767929077,-1.3351939928582688,-2.51715594926943,6.136875021248617,0.9999126195907593,-4.748644415532247
1708435677.7316647,-2.1559770107269287,-1.3351495873979111,-2.5171120802508753,6.136908876686849,0.9999334812164307,-4.748558227215902
1708435677.7335691,-2.155972719192505,-1.3352265518954773,-2.5171034971820276,6.136875021248617,0.9999142289161682,-4.7485743204699915
1708435677.7355351,-2.156006336212158,-1.3351898354342957,-2.5171688238727015,6.13690351226882,0.9999260902404785,-4.748577181492941
1708435677.7375436,-2.156026840209961,-1.3351575446179886,-2.5171404520617884,6.136839020043173,0.9999424815177917,-4.74859065214266
1708435677.7395315,-2.155967950820923,-1.335233987574913,-2.517107073460714,6.136838185578146,0.9999469518661499,-4.748619262372152
1708435677.7415297,-2.156043767929077,-1.3351897460273285,-2.517099205647604,6.136928427010336,0.9999261498451233,-4.748549405728475
1708435677.7435565,-2.156015157699585,-1.335238204603531,-2.5171318689929407,6.136842596321859,0.9999890923500061,-4.748619262372152
1708435677.745522,-2.156015157699585,-1.3352059435895463,-2.517116371785299,6.136920916825094,0.9999592304229736,-4.748577181492941
1708435677.747548,-2.156031370162964,-1.3351407212070008,-2.5171361605273646,6.136896002083578,0.9999396204948425,-4.748558227215902
1708435677.7495313,-2.155972719192505,-1.3352223944715043,-2.5171199480639856,6.13687943199233,0.9999305605888367,-4.748569909726278
1708435677.7515306,-2.1560018062591553,-1.3351609718850632,-2.5170579592334192,6.136900293618002,0.9999469518661499,-4.748586241398947
1708435677.753546,-2.155949831008911,-1.3352308732322236,-2.5170655886279505,6.136830436974325,0.9999216198921204,-4.748551909123556
1708435677.7555172,-2.155984878540039,-1.3352139753154297,-2.5171404520617884,6.136913287430563,0.9999216198921204,-4.7485671679126185
1708435677.7575364,-2.156035900115967,-1.3352017265609284,-2.5171077887164515,6.136875021248617,0.9999052286148071,-4.748572770749227
1708435677.759525,-2.156010866165161,-1.3351898056319733,-2.5171287695514124,6.13687943199233,0.9999591708183289,-4.748586241398947
1708435677.761511,-2.155998468399048,-1.3351856184056778,-2.517090384160177,6.1369045851524255,0.9999682307243347,-4.74863571325411
1708435677.7635376,-2.156010866165161,-1.3351410639337082,-2.5171242395984095,6.136933910637655,0.9999350905418396,-4.748607103024618
1708435677.7655275,-2.1560018062591553,-1.335205928688385,-2.5170634428607386,6.136858808785238,0.9999096989631653,-4.74859065214266
1708435677.7675388,-2.156017780303955,-1.3351771098426362,-2.5171776453601282,6.136904704361715,0.9999469518661499,-4.748569909726278
1708435677.7695453,-2.156006336212158,-1.3351771098426362,-2.5171034971820276,6.136842596321859,0.9999216198921204,-4.748586241398947
1708435677.7715368,-2.155984878540039,-1.335165263419487,-2.5170870463000696,6.136896002083578,0.9999424815177917,-4.7485403458224695
1708435677.7735534,-2.155956745147705,-1.335238204603531,-2.517141644154684,6.13687943199233,0.9999351501464844,-4.748607103024618
1708435677.775538,-2.1559972763061523,-1.3351891052773972,-2.5171120802508753,6.136900293618002,0.9999379515647888,-4.748611394559042
1708435677.7775762,-2.155963659286499,-1.335156874065735,-2.51710015932192,6.136900293618002,0.9999141693115234,-4.748583261166708
1708435677.7795336,-2.156031370162964,-1.3352017265609284,-2.5171034971820276,6.1368470070655725,0.9999604821205139,-4.748595062886373
1708435677.7815416,-2.155972719192505,-1.3351407212070008,-2.5171242395984095,6.136863219528951,0.9999305605888367,-4.748569909726278
1708435677.7835603,-2.155989408493042,-1.3351448488286515,-2.5171034971820276,6.136883723526754,0.9999469518661499,-4.748586241398947
1708435677.7855265,-2.156013250350952,-1.3352181774428864,-2.5171120802508753,6.13687943199233,0.9999350905418396,-4.748583261166708
1708435677.7875621,-2.1559972763061523,-1.3351975244334717,-2.5170915762530726,6.1368762133415125,0.9999052286148071,-4.748586241398947
1708435677.7895322,-2.155967950820923,-1.3351729822209855,-2.5171120802508753,6.136864292412557,0.9998974800109863,-4.748586241398947
1708435677.791556,-2.155989408493042,-1.3351575297168274,-2.5170870463000696,6.136888015061178,0.9998929500579834,-4.748619381581442
1708435677.7935598,-2.1560018062591553,-1.3351652485183259,-2.517082754765646,6.136850106507101,0.9999216198921204,-4.748602573071615
1708435677.795533,-2.156010866165161,-1.335262046461441,-2.5171120802508753,6.13687943199233,0.9999591708183289,-4.7486282030688685
1708435677.7975657,-2.156015157699585,-1.3352101308158417,-2.517074171696798,6.136916506081381,0.9999334812164307,-4.748599592839376
1708435677.799544,-2.156022310256958,-1.3352297854474564,-2.517146174107687,6.136858808785238,0.9999305605888367,-4.748565379773275
1708435677.8015528,-2.1559815406799316,-1.335221381192543,-2.5171120802508753,6.136867511063375,0.9998974800109863,-4.748569909726278
1708435677.8035543,-2.1559972763061523,-1.3352013391307374,-2.5170870463000696,6.1368470070655725,0.9999020099639893,-4.748598162327902
1708435677.8055396,-2.155989408493042,-1.335233987574913,-2.5170753637896937,6.136904465943136,0.9999547004699707,-4.748619381581442
1708435677.8075497,-2.15604829788208,-1.3351771396449585,-2.5171242395984095,6.136843430786886,0.9999350905418396,-4.748586241398947
1708435677.8095229,-2.1559770107269287,-1.335209683781006,-2.5171287695514124,6.136822807579794,0.9999305605888367,-4.748619381581442
1708435677.811537,-2.1559770107269287,-1.3351813715747376,-2.5170915762530726,6.136863219528951,0.9999514818191528,-4.748544756566183
1708435677.813555,-2.155998468399048,-1.33522983015094,-2.5171120802508753,6.136811005860128,0.9999260902404785,-4.748537127171652
1708435677.815546,-2.1559815406799316,-1.3351609271815796,-2.5171242395984095,6.136826026230612,0.9999560117721558,-4.748553816472189
1708435677.8175642,-2.155972719192505,-1.3352059882930298,-2.5171199480639856,6.136835801392355,0.9999216198921204,-4.7485743204699915
1708435677.819544,-2.1559815406799316,-1.3351526421359559,-2.5170870463000696,6.136877286225118,0.9999682307243347,-4.748598162327902
1708435677.8215337,-2.1559700965881348,-1.335193247800209,-2.5171120802508753,6.136799084931173,0.9999170899391174,-4.748556439076559
1708435677.8235712,-2.155984878540039,-1.3351568442634125,-2.5171242395984095,6.1367825148399255,0.9999350905418396,-4.748565379773275
1708435677.8255227,-2.155984878540039,-1.3351975095323105,-2.5171690622912806,6.13679980018691,0.9999006986618042,-4.748586241398947
1708435677.8275864,-2.155972719192505,-1.3351242703250428,-2.5171318689929407,6.1367554543311975,0.9999260902404785,-4.748560849820272
1708435677.8296318,-2.1559770107269287,-1.3351975244334717,-2.5171199480639856,6.136731374054708,0.99988853931427,-4.748556439076559
1708435677.8315809,-2.155958652496338,-1.3351806861213227,-2.5171199480639856,6.136707532196798,0.9999305605888367,-4.748553816472189
1708435677.833578,-2.1559629440307617,-1.335266337995865,-2.5171199480639856,6.1366790411765955,0.9999380111694336,-4.748541537915365
1708435677.8355513,-2.1559383869171143,-1.3352139753154297,-2.517106835042135,6.136729109078207,0.9999334812164307,-4.748607103024618
1708435677.8375537,-2.1559126377105713,-1.335165263419487,-2.51715594926943,6.136577832489767,0.9998974800109863,-4.748611394559042
1708435677.8395278,-2.155947208404541,-1.3351813715747376,-2.517172161732809,6.136570322304525,0.9999260902404785,-4.748569909726278
1708435677.8415115,-2.1559629440307617,-1.3352298003486176,-2.517184082661764,6.136571395188131,0.9999710917472839,-4.74859065214266
1708435677.8435745,-2.15596079826355,-1.3351975095323105,-2.517188374196188,6.136510479241171,1.0000039339065552,-4.748623792325155
1708435677.8455205,-2.1559109687805176,-1.335164563064911,-2.517200295125143,6.136532056122579,0.9999874830245972,-4.748586241398947
1708435677.847565,-2.1559019088745117,-1.3352086556008835,-2.517233196889059,6.136438476830282,0.9999620914459229,-4.748610321675436
1708435677.849537,-2.1559314727783203,-1.3351729971221467,-2.517236296330587,6.136440264969625,0.9999784827232361,-4.748586241398947
1708435677.8515363,-2.1559109687805176,-1.33518140137706,-2.517224375401632,6.1364197609718225,0.9999531507492065,-4.748586241398947
1708435677.8535614,-2.1558773517608643,-1.3351849031499405,-2.5172157923327845,6.136351215630331,0.9999980926513672,-4.748631183301107
1708435677.8555484,-2.155890703201294,-1.335193232899048,-2.5172115007983606,6.136352288513937,1.000038504600525,-4.748631302510397
1708435677.8575585,-2.155829668045044,-1.3352290999940415,-2.5172484556781214,6.1363152144248865,1.0000340938568115,-4.748659078274862
1708435677.8595226,-2.1557886600494385,-1.3352059435895463,-2.5172398726092737,6.136340129166403,1.0000492334365845,-4.7486059109317225
1708435677.861517,-2.1558022499084473,-1.33518140137706,-2.517231289540426,6.136182296067037,1.0000897645950317,-4.748659197484152
1708435677.8635492,-2.1557748317718506,-1.335197539334633,-2.5172961393939417,6.13623999336318,1.0001180171966553,-4.748638574277059
1708435677.865533,-2.1557297706604004,-1.335169480448105,-2.5172506014453333,6.136155235558309,1.0001795291900635,-4.748680416737692
1708435677.867555,-2.15574312210083,-1.3352140051177521,-2.517304007207052,6.136143076210775,1.0002156496047974,-4.748636786137716
1708435677.8695352,-2.1557092666625977,-1.3351771098426362,-2.5173116366015833,6.136185514717855,1.0002561807632446,-4.748716060315267
1708435677.8715374,-2.1557068824768066,-1.3351778847030182,-2.517353121434347,6.1360355494316,1.0002381801605225,-4.74868625799288
1708435677.8735683,-2.155629873275757,-1.3352059137872239,-2.517355267201559,6.136076676636495,1.0002789497375488,-4.748730961476461
1708435677.8755355,-2.1556546688079834,-1.3351617765477677,-2.5173586050616663,6.136037337570944,1.0003117322921753,-4.748692218457357
1708435677.8775144,-2.155564308166504,-1.335169480448105,-2.517416302357809,6.136021125107565,1.0003596544265747,-4.748814646397726
1708435677.8795333,-2.1555168628692627,-1.33518140137706,-2.5173912684070032,6.135902631073751,1.0004123449325562,-4.748786036168234
1708435677.8815353,-2.1555256843566895,-1.335198314195015,-2.5174229780780237,6.135896074562826,1.000382423400879,-4.748810354863302
1708435677.8835592,-2.1554815769195557,-1.3351856184056778,-2.5174759070025843,6.135835993080892,1.0004228353500366,-4.748789374028341
1708435677.885588,-2.155471086502075,-1.3351940226605912,-2.5174554030047815,6.135789143830099,1.0004754066467285,-4.748857919369833
1708435677.8875587,-2.155472993850708,-1.3352067333510895,-2.5174923578845423,6.135707723885336,1.0004945993423462,-4.74885338941683
1708435677.8895326,-2.1553914546966553,-1.335153342490532,-2.51750356355776,6.135676014214315,1.0005145072937012,-4.748917762433187
1708435677.8915627,-2.155400514602661,-1.3351173412850876,-2.5175111929522913,6.135595190316,1.0005923509597778,-4.748908821736471
1708435677.893521,-2.155355215072632,-1.3350892972997208,-2.5175512472735804,6.1355769512946985,1.0005940198898315,-4.748944584523336
1708435677.895559,-2.1552419662475586,-1.3350969117930909,-2.517587486897604,6.1354514239128015,1.0006556510925293,-4.748989288006918
1708435677.8975573,-2.155247449874878,-1.3351130497506638,-2.5176036993609827,6.135445105820455,1.0006704330444336,-4.749001089726583
1708435677.8995366,-2.155186414718628,-1.335129202609398,-2.517623249684469,6.13531647899703,1.0006781816482544,-4.749056283627645
1708435677.9015412,-2.1551387310028076,-1.3351334792426606,-2.5176387468921106,6.1352728483970544,1.0007424354553223,-4.749064032231466
1708435677.9035306,-2.155130386352539,-1.3350892823985596,-2.5177159945117396,6.135237920075216,1.0008158683776855,-4.749108735715048
1708435677.9055307,-2.1549856662750244,-1.3351258349469681,-2.5177443663226526,6.13510428646163,1.0008102655410767,-4.749132577572958
1708435677.9075677,-2.154979944229126,-1.3351622235826035,-2.517792288457052,6.135003793030538,1.0008866786956787,-4.749175969754354
1708435677.909547,-2.154956102371216,-1.3351215583137055,-2.5177629629718226,6.134953725128927,1.0009721517562866,-4.7492281834231775
1708435677.9115248,-2.154895782470703,-1.3351215583137055,-2.5177953878985804,6.134817826538839,1.0010608434677124,-4.749313418065206
1708435677.9135356,-2.154799699783325,-1.3351376813701172,-2.51785117784609,6.134668457299032,1.0010966062545776,-4.7493444124804896
1708435677.9155426,-2.154724359512329,-1.3350934994271775,-2.517916266118185,6.134594428330221,1.0011717081069946,-4.749317590390341
1708435677.9175334,-2.154676914215088,-1.3351257604411622,-2.517924133931295,6.134445178299703,1.0012736320495605,-4.749393884335653
1708435677.9195347,-2.154554843902588,-1.335153804426529,-2.517951313649313,6.134317743569174,1.001303791999817,-4.7495073715793055
1708435677.9215245,-2.154553174972534,-1.3351054203561326,-2.518003527318136,6.13420997837142,1.0013803243637085,-4.749543015156881
1708435677.923567,-2.1544907093048096,-1.3350934994271775,-2.5179742018329065,6.134070265084066,1.001482605934143,-4.749561254178182
1708435677.9255576,-2.1543819904327393,-1.3351257604411622,-2.518026653920309,6.133913504868307,1.0015290975570679,-4.749693814908163
1708435677.9275742,-2.154264211654663,-1.3351257604411622,-2.518062416707174,6.133754598885336,1.0016040802001953,-4.749786440526144
1708435677.9295645,-2.1542344093322754,-1.3351173412850876,-2.5180864969836634,6.133622872620382,1.0017210245132446,-4.749817673360006
1708435677.9316704,-2.154075860977173,-1.3351130497506638,-2.5181430021869105,6.133437859802999,1.001805305480957,-4.749901358281271
1708435677.9335363,-2.154062032699585,-1.335153804426529,-2.518219296132223,6.133351433068075,1.0018893480300903,-4.750013534222738
1708435677.9355364,-2.153913736343384,-1.335141883497574,-2.5182464758502405,6.1331753609474084,1.0019851922988892,-4.750122014676229
1708435677.937522,-2.153799295425415,-1.3351291877082367,-2.51827842393984,6.133001911431112,1.002052903175354,-4.750152532254354
1708435677.9395332,-2.153717279434204,-1.3351580214551468,-2.518371884022848,6.132813441544332,1.0021111965179443,-4.750305954610006
1708435677.9415517,-2.153620958328247,-1.3351622235826035,-2.518378559743063,6.1326554892356775,1.0022869110107422,-4.750404540692465
1708435677.9435458,-2.153517723083496,-1.3351496022990723,-2.518418614064352,6.132495391159811,1.0023081302642822,-4.75050920644869
1708435677.945541,-2.1533613204956055,-1.3351257604411622,-2.5184994379626673,6.132271277695455,1.0024250745773315,-4.750599924718038
1708435677.9475353,-2.1532998085021973,-1.3351334494403382,-2.518554989491598,6.132149088173666,1.002537727355957,-4.75072676340212
1708435677.9495225,-2.1531708240509033,-1.3351334792426606,-2.5186312834369105,6.131953227310934,1.002650499343872,-4.750776235257284
1708435677.951528,-2.1530559062957764,-1.3351660531810303,-2.518667284642355,6.1316884634788416,1.0027703046798706,-4.75090474287142
1708435677.9535215,-2.1529412269592285,-1.3350773763707657,-2.518759791051046,6.1315979836280725,1.002870798110962,-4.75104791322817
1708435677.955547,-2.1527512073516846,-1.3351411086371918,-2.518798891698019,6.131340014725485,1.0029411315917969,-4.751176301633016
1708435677.9575207,-2.152585744857788,-1.3351376813701172,-2.5188589731799524,6.1312012551124475,1.0030450820922852,-4.751333061848776
1708435677.9595237,-2.1525189876556396,-1.3351291877082367,-2.518902603779928,6.130933630257406,1.0031980276107788,-4.751450959836141
1708435677.9615402,-2.1523218154907227,-1.3351575446179886,-2.518998448048727,6.130700814514913,1.0033363103866577,-4.751627031956808
1708435677.9635785,-2.1521856784820557,-1.3351898056319733,-2.5190749804126185,6.130425441056051,1.0034548044204712,-4.7517587582217615
1708435677.9655254,-2.1519930362701416,-1.33518140137706,-2.519162956868307,6.130222546845236,1.0035464763641357,-4.751954023038046
1708435677.9675126,-2.1518137454986572,-1.3351617616466065,-2.519181553517477,6.129940616875448,1.003678560256958,-4.752072040234701
1708435677.9695528,-2.1516504287719727,-1.3351975244334717,-2.519278589879171,6.129730927735128,1.003831386566162,-4.752210919057028
1708435677.971522,-2.1514835357666016,-1.335226596598961,-2.519357983266012,6.129418122559347,1.0039349794387817,-4.752401892338888
1708435677.9735558,-2.1513068675994873,-1.3352139753154297,-2.519433323537008,6.129271971970358,1.0040552616119385,-4.752594176922933
1708435677.97555,-2.151148796081543,-1.3351729822209855,-2.519567076359884,6.1290169833000085,1.0041946172714233,-4.752761785184042
1708435677.9775395,-2.150949239730835,-1.335193232899048,-2.519646708165304,6.1287362454231165,1.004372000694275,-4.75296920934786
1708435677.9795427,-2.150686502456665,-1.33526165903125,-2.5197013060199183,6.128493654518881,1.0045043230056763,-4.753143850957052
1708435677.981545,-2.15053653717041,-1.335289628510811,-2.519818131123678,6.1281646368797205,1.0046411752700806,-4.753317181264059
1708435677.9835343,-2.150329828262329,-1.3352409166148682,-2.5199227968799036,6.127934205323019,1.0047551393508911,-4.753596250210897
1708435677.9855366,-2.150069236755371,-1.3353095662644883,-2.5200350920306605,6.127642619400778,1.0049415826797485,-4.753773633633749
1708435677.9875476,-2.149869441986084,-1.3353052896312256,-2.5200894514666956,6.127294409066,1.0050603151321411,-4.7540170590030115
1708435677.9895637,-2.1496405601501465,-1.3352969300797959,-2.520198647175924,6.127006757050314,1.0052332878112793,-4.754178349171774
1708435677.9915295,-2.1495087146759033,-1.3353214126876374,-2.5202742258654993,6.126687514572897,1.0054194927215576,-4.754451576863424
1708435677.9935582,-2.1492300033569336,-1.335316152577736,-2.520418945943014,6.126383530884542,1.0055378675460815,-4.75461715856661
1708435677.995541,-2.1490323543548584,-1.3353410822204133,-2.5204857031451624,6.126051533013143,1.0056853294372559,-4.754857603703634
1708435677.9975622,-2.148730754852295,-1.3354127419045945,-2.520634714757101,6.125739800720968,1.0058794021606445,-4.75509494939913
1708435677.999561,-2.1485252380371094,-1.3354289394668122,-2.52070123354067,6.125314938813009,1.0060596466064453,-4.755379978810446
1708435678.001534,-2.1482608318328857,-1.33543315649543,-2.520862881337301,6.124918329506674,1.0062189102172852,-4.755638305340902
1708435678.003574,-2.1480069160461426,-1.3355092120221634,-2.5209339300738733,6.124571907311239,1.0064129829406738,-4.755915824566976
1708435678.0055401,-2.1476736068725586,-1.3354477894357224,-2.5210700670825403,6.124221193581381,1.0065960884094238,-4.756208602582113
1708435678.00757,-2.147404670715332,-1.335536704664566,-2.5212302843676966,6.123829114228048,1.0067691802978516,-4.756441656743185
1708435678.0095403,-2.1472294330596924,-1.335548312669136,-2.5213428179370325,6.123426425247946,1.006935954093933,-4.756720964108602
1708435678.0115435,-2.1468727588653564,-1.3355725568583985,-2.5214420000659388,6.123071062355795,1.007138729095459,-4.7570324579821985
1708435678.0135524,-2.146580219268799,-1.335672752266266,-2.521647040043966,6.12262641170577,1.0073339939117432,-4.757319037114279
1708435678.0155282,-2.1462361812591553,-1.3356484484723588,-2.521771017705099,6.122198807984152,1.0075324773788452,-4.757583562527792
1708435678.0175476,-2.145942449569702,-1.335672290330269,-2.521858517323629,6.121816861420431,1.007727861404419,-4.75792378584017
1708435678.0195513,-2.1456315517425537,-1.3357321333936234,-2.52200156847109,6.121395337372579,1.0079443454742432,-4.758299771939413
1708435678.02153,-2.1453118324279785,-1.3357636791518708,-2.5221617857562464,6.120875227242269,1.0081486701965332,-4.7586416641818445
1708435678.0235398,-2.1449105739593506,-1.3357917380383988,-2.5223353544818323,6.120433079987325,1.0083786249160767,-4.759003225957052
1708435678.0255196,-2.1446454524993896,-1.3358438623002549,-2.522454325352804,6.120072114258566,1.0085457563400269,-4.759349648152487
1708435678.0275333,-2.1442677974700928,-1.3358592104962845,-2.522545878087179,6.119543778687277,1.008707880973816,-4.759829942380087
1708435678.029573,-2.143873453140259,-1.3358550828746338,-2.5227063337909144,6.118992554932394,1.00896155834198,-4.760198895131246
1708435678.0315952,-2.1434578895568848,-1.3359270852855225,-2.5228825251208704,6.118506419449606,1.00916588306427,-4.760637823735372
1708435678.0335872,-2.1430511474609375,-1.3360315424254914,-2.5230255762683313,6.1180165884788416,1.0094513893127441,-4.761091534291403
1708435678.035548,-2.1426594257354736,-1.3360522252372284,-2.5232020060168665,6.117477404862203,1.009701132774353,-4.761524621640341
1708435678.037565,-2.1422207355499268,-1.3360592436841507,-2.5233801046954554,6.116924273758688,1.0099446773529053,-4.762006465588705
1708435678.0395405,-2.1417927742004395,-1.3361680221608658,-2.523506466542379,6.116323339730062,1.0102136135101318,-4.762436334286825
1708435678.0415366,-2.1413779258728027,-1.3361148548177262,-2.52364164987673,6.115847217827596,1.0104420185089111,-4.762866441403524
1708435678.0435722,-2.140995740890503,-1.3362105053714295,-2.523867432271139,6.115220892220297,1.0106494426727295,-4.763304893170492
1708435678.045534,-2.140561103820801,-1.3362342429212113,-2.523982111607687,6.114736187248983,1.0109437704086304,-4.763762180005209
1708435678.0476336,-2.14009428024292,-1.3362982881120224,-2.5241740385638636,6.1141371605689905,1.0111544132232666,-4.76424473920931
1708435678.0495412,-2.1396894454956055,-1.3363666397384186,-2.524329964314596,6.113494860916891,1.0114669799804688,-4.764794890080587
1708435678.051547,-2.1391355991363525,-1.3363820028356095,-2.5245710054980677,6.112868654518881,1.0117855072021484,-4.765312973652975
1708435678.053529,-2.138601541519165,-1.336461455827095,-2.5247839132892054,6.1121497032936,1.0120413303375244,-4.765796963368551
1708435678.0555353,-2.1381092071533203,-1.3365374219468613,-2.5249338785754603,6.1115174172218225,1.0122876167297363,-4.766343657170431
1708435678.0575538,-2.1376395225524902,-1.3366015565446396,-2.525097910557882,6.110871660500326,1.0126080513000488,-4.766886536275045
1708435678.0595412,-2.137145519256592,-1.336616874938347,-2.5253518263446253,6.110204922943868,1.012819766998291,-4.7674105803119105
1708435678.0615354,-2.1366145610809326,-1.3366641265204926,-2.5254908243762415,6.109596478730001,1.01307213306427,-4.767928544675009
1708435678.06357,-2.136099100112915,-1.3367723536542435,-2.5256529490100306,6.108921277313986,1.0133247375488281,-4.768431727086202
1708435678.0655394,-2.135589838027954,-1.3368041676333924,-2.525886360798971,6.108223306923666,1.013575792312622,-4.7690680662738245
1708435678.06757,-2.134962797164917,-1.3369362366250535,-2.5261154810534876,6.107449400215902,1.0139228105545044,-4.769678060208456
1708435678.0695343,-2.134366750717163,-1.3370072704604645,-2.526285473500387,6.1066064713294885,1.0141977071762085,-4.770236674939291
1708435678.0715446,-2.133812427520752,-1.3370594543269654,-2.526489559804098,6.1058020470436,1.014514684677124,-4.77088708082308
1708435678.0735343,-2.1331980228424072,-1.33721977592025,-2.526773993168966,6.105110156327047,1.0148515701293945,-4.771525088940756
1708435678.0755339,-2.132617712020874,-1.3372348111918946,-2.526953999196188,6.1043773768241785,1.0151357650756836,-4.772101108227865
1708435678.0775337,-2.132035255432129,-1.3373308789781113,-2.527214590703146,6.103603589325704,1.0153989791870117,-4.7727713028537195
1708435678.0795312,-2.1314399242401123,-1.3374060702374955,-2.527397696171896,6.10283778884963,1.0157485008239746,-4.7734448353396814
1708435678.0815282,-2.1307923793792725,-1.337489740257599,-2.5276883284198206,6.102055537491598,1.0160491466522217,-4.774082485829489
1708435678.083559,-2.1302108764648438,-1.3375895631364365,-2.52785832086672,6.101281749993124,1.0163365602493286,-4.7747430245028895
1708435678.0855217,-2.1295526027679443,-1.3377218407443543,-2.528057877217428,6.100402104645529,1.0167152881622314,-4.775388423596517
1708435678.0875835,-2.1289055347442627,-1.3377937537482758,-2.5283260981189173,6.099651205330648,1.0169873237609863,-4.77615207830538
1708435678.089539,-2.128284454345703,-1.3379006844810029,-2.5285452047931116,6.098786103516378,1.0173399448394775,-4.776774589215414
1708435678.0915258,-2.127610445022583,-1.3380005967668076,-2.528806988392965,6.097932445793905,1.017691969871521,-4.777474705372946
1708435678.093581,-2.126857042312622,-1.3381693375161667,-2.5290754477130335,6.097087728768148,1.0180718898773193,-4.778263990079061
1708435678.0955262,-2.1261789798736572,-1.3382321757129212,-2.529306475316183,6.096198427468099,1.0183578729629517,-4.778908673916952
1708435678.09757,-2.125507354736328,-1.338340775375702,-2.52950627008547,6.095342623978414,1.0187863111495972,-4.779700700436727
1708435678.0995407,-2.12477970123291,-1.3383869391730805,-2.5297701994525355,6.094513642578878,1.019038438796997,-4.780416313801901
1708435678.1015224,-2.124138832092285,-1.3385271740010758,-2.5300009886371058,6.093619572907247,1.0193705558776855,-4.781207863484518
1708435678.1035862,-2.1233904361724854,-1.3386303049376984,-2.530285898839132,6.092697727471151,1.019782543182373,-4.781956497822897
1708435678.1055694,-2.122587203979492,-1.3387540590814133,-2.530530039464132,6.091774213105001,1.0200934410095215,-4.782749716435568
1708435678.1075711,-2.121818780899048,-1.338930369620659,-2.5307701269732874,6.090789067536154,1.020463466644287,-4.783598605786459
1708435678.1095333,-2.1210126876831055,-1.339074970488884,-2.5310745874988,6.08973907211379,1.0208146572113037,-4.784419838582174
1708435678.1115427,-2.120227098464966,-1.3391576570323487,-2.5313501993762415,6.088808285980978,1.0212180614471436,-4.785207335148947
1708435678.113569,-2.1194653511047363,-1.3392964762500306,-2.5315890947925013,6.087790477066793,1.0215619802474976,-4.785988632832662
1708435678.1155505,-2.1186962127685547,-1.3394119453481217,-2.5319183508502405,6.086770522385397,1.021963119506836,-4.786814753209249
1708435678.1175725,-2.117870330810547,-1.339576081638672,-2.5321858564959925,6.08576928356246,1.0223664045333862,-4.7875792423831385
1708435678.1195579,-2.1169357299804688,-1.339703233247139,-2.5324376265155237,6.084731328278341,1.022683024406433,-4.788444463406698
1708435678.1215467,-2.1161041259765625,-1.339858428840973,-2.5327091852771204,6.083657014160909,1.0231175422668457,-4.789342466984884
1708435678.123577,-2.1151976585388184,-1.3400023144534607,-2.5330103079425257,6.082535135536947,1.023560643196106,-4.790255371724264
1708435678.1255338,-2.114304542541504,-1.340218187575676,-2.5332775751696985,6.081378924637594,1.0239111185073853,-4.791124884282247
1708435678.1275427,-2.113344430923462,-1.3403443110040207,-2.533586327229635,6.08027075508193,1.0243440866470337,-4.792119805012838
1708435678.1295576,-2.1124608516693115,-1.34053689361129,-2.533865515385763,6.0790737746055505,1.0247528553009033,-4.793120447789327
1708435678.1315463,-2.111509323120117,-1.3407073628953476,-2.534144465123312,6.077998864441671,1.0251495838165283,-4.794084612523214
1708435678.1335373,-2.1106128692626953,-1.3409243834069748,-2.5344730059253138,6.076853382378378,1.0255488157272339,-4.794974867497579
1708435678.1355617,-2.1096293926239014,-1.3410673302463074,-2.534814182912008,6.075721013336935,1.0259590148925781,-4.79593259492983
1708435678.1375349,-2.1086583137512207,-1.3413075816682358,-2.5351436773883265,6.07457314708785,1.026375651359558,-4.796900812779562
1708435678.139583,-2.107722282409668,-1.3414812696031113,-2.5354142824756067,6.073276150017538,1.02674400806427,-4.797906581555502
1708435678.1415505,-2.1066386699676514,-1.3417702478221436,-2.535761896763937,6.072074520378866,1.027140736579895,-4.79887837568392
1708435678.1435418,-2.1056416034698486,-1.3419369620135804,-2.5360375086413782,6.070819246559896,1.0276185274124146,-4.799854103718893
1708435678.1455522,-2.1045799255371094,-1.3420954954675217,-2.5363691488849085,6.069567191391744,1.0280154943466187,-4.800768796597616
1708435678.147544,-2.103545665740967,-1.3423108768514176,-2.5366650263415735,6.068233358650961,1.0284156799316406,-4.801761571560995
1708435678.1495757,-2.1025538444519043,-1.3425301325372239,-2.5370543638812464,6.067034351616659,1.0288853645324707,-4.802764956151144
1708435678.1515648,-2.10146164894104,-1.3428228062442322,-2.5373247305499476,6.065787064820089,1.0293253660202026,-4.803759757672445
1708435678.153598,-2.1003856658935547,-1.3429403615048905,-2.5376368204699915,6.064539301186361,1.0297497510910034,-4.804693404828207
1708435678.1555367,-2.099273681640625,-1.3432249885848542,-2.538023058568136,6.0632632849510095,1.0302228927612305,-4.805814091359274
1708435678.1575809,-2.098181962966919,-1.343456433420517,-2.5383039156543177,6.061897861748495,1.0307526588439941,-4.806814376507894
1708435678.159555,-2.0970258712768555,-1.3436867010644455,-2.538645331059591,6.060525882035055,1.031139850616455,-4.807854715977804
1708435678.1615536,-2.095874547958374,-1.3439099055579682,-2.5389891306506556,6.059125888138571,1.0316041707992554,-4.8089532295810145
1708435678.1635387,-2.094756841659546,-1.344168783431389,-2.5393648783313196,6.057734000473776,1.0321403741836548,-4.810014788304464
1708435678.1655414,-2.0936081409454346,-1.3444564950517197,-2.539741341267721,6.056375133782186,1.0325556993484497,-4.811086479817526
1708435678.1675713,-2.0924313068389893,-1.3446709376624604,-2.5401065985309046,6.054917800217428,1.0330052375793457,-4.812231008206503
1708435678.1695387,-2.0912880897521973,-1.3449065548232575,-2.5404043833362024,6.053542840271749,1.0334209203720093,-4.813300911580221
1708435678.171575,-2.090067148208618,-1.3452061277678986,-2.5406914393054407,6.052134740143575,1.0338865518569946,-4.814387146626608
1708435678.1735365,-2.088836908340454,-1.3454738122275849,-2.5410853067981165,6.050638067513265,1.0343505144119263,-4.815525237713949
1708435678.1755476,-2.0876410007476807,-1.3456389915994187,-2.5414002577411097,6.049122202187338,1.0347956418991089,-4.816566769276754
1708435678.1775753,-2.0864477157592773,-1.3459576231292267,-2.5418058077441614,6.047725188523092,1.0352840423583984,-4.817705217991964
1708435678.1795342,-2.085157871246338,-1.3462100189975281,-2.5420919100390833,6.046182858734884,1.0358638763427734,-4.818737332020895
1708435678.181553,-2.0838980674743652,-1.3465295743993302,-2.5424309412585657,6.044675457268514,1.0363317728042603,-4.819761578236715
1708435678.1835303,-2.082566261291504,-1.3467672628215333,-2.54282790819277,6.043148267060079,1.0368623733520508,-4.820915643368856
1708435678.1855285,-2.081278085708618,-1.3470590275577088,-2.543196503316061,6.041558253556051,1.0373139381408691,-4.822111789380209
1708435678.1875777,-2.0799853801727295,-1.347435550098755,-2.5435240904437464,6.039994346886434,1.0377777814865112,-4.8232285420047205
1708435678.1895323,-2.0787265300750732,-1.347639487390854,-2.5438836256610315,6.038488733559408,1.0382977724075317,-4.824408237134115
1708435678.1915402,-2.077364921569824,-1.3479880553535004,-2.544227186833517,6.037001836090841,1.0387202501296997,-4.8256569544421595
1708435678.1935427,-2.076050043106079,-1.3482543689063569,-2.544640843068258,6.035498845368185,1.0392009019851685,-4.826837007199423
1708435678.1955485,-2.0746963024139404,-1.3485935491374512,-2.5450244585620325,6.034004914551534,1.0397028923034668,-4.827995483075277
1708435678.1975694,-2.0733084678649902,-1.348928378229477,-2.5453882853137415,6.03248559215621,1.0401629209518433,-4.829173747693197
1708435678.1996367,-2.071838140487671,-1.349341483121254,-2.545764748250143,6.030743348389425,1.0407133102416992,-4.830443088208334
1708435678.2015438,-2.0704832077026367,-1.3496917647174378,-2.5461438337909144,6.029138076096334,1.041230320930481,-4.831559602414266
1708435678.2035728,-2.06905198097229,-1.3499871653369446,-2.5465031305896204,6.0274730799491785,1.0417641401290894,-4.832796518002645
1708435678.2055366,-2.067612409591675,-1.3503362995437165,-2.546943966542379,6.025891291886129,1.0422307252883911,-4.833955232297079
1708435678.2075584,-2.0663158893585205,-1.3506504607251664,-2.547290865574972,6.024260866432943,1.042732834815979,-4.835130874310629
1708435678.2095544,-2.0647988319396973,-1.3510827881148835,-2.547744337712423,6.022571551590719,1.0432668924331665,-4.83634323278536
1708435678.2115445,-2.0632729530334473,-1.3514211487821122,-2.5481205622302454,6.020860063820638,1.0437142848968506,-4.837521020566122
1708435678.2135468,-2.0617575645446777,-1.351782889371254,-2.5484958330737513,6.019160973816671,1.0442029237747192,-4.838736001645223
1708435678.21553,-2.060265064239502,-1.3521659684232255,-2.5488958994494837,6.017389285355367,1.0447698831558228,-4.839952651654379
1708435678.2175548,-2.0587308406829834,-1.3526091289571305,-2.549290959035055,6.01569555976943,1.0453076362609863,-4.841159049664633
1708435678.219521,-2.0572006702423096,-1.3529874843410035,-2.5497315565692347,6.0139291165168665,1.0457698106765747,-4.842443172131674
1708435678.2215347,-2.055694341659546,-1.3534351301244278,-2.550065819417135,6.012101995735922,1.0462709665298462,-4.843726460133688
1708435678.2235222,-2.054084300994873,-1.353809432392456,-2.5504992643939417,6.010311710625448,1.0467427968978882,-4.845004622136251
1708435678.2255478,-2.0525665283203125,-1.3541900229505082,-2.5508740584002894,6.008533823281088,1.0472086668014526,-4.846302811299459
1708435678.227533,-2.0509796142578125,-1.3546548795751114,-2.5512831846820276,6.0066659329231165,1.0476988554000854,-4.847526494656698
1708435678.22955,-2.0493998527526855,-1.3550920945457001,-2.5516746679889124,6.004897463112631,1.0482722520828247,-4.84874922433962
1708435678.2315698,-2.047745704650879,-1.3556004923633118,-2.5521064440356653,6.003008830338278,1.0488132238388062,-4.850039664899008
1708435678.2336657,-2.0460727214813232,-1.3559810829213639,-2.5525265375720423,6.00109754779891,1.0494112968444824,-4.8513492981540125
1708435678.2355509,-2.0443999767303467,-1.3565278959325333,-2.552906338368551,5.999244916230001,1.049996018409729,-4.85269540945162
1708435678.2375307,-2.0426907539367676,-1.357017995124199,-2.553345505391256,5.997372853546896,1.0505372285842896,-4.854015533124105
