Eg3-git/Classifiers/Data Collection/u3/u3abc2_ur3e_joint_states.csv
time,elbow_joint,shoulder_lift_joint,shoulder_pan_joint,wrist_1_joint,wrist_2_joint,wrist_3_joint
1708435634.7833362,-2.1416900157928467,-1.333028794532158,-2.5255711714373987,6.109179842263021,1.0156235694885254,-4.330376331006185
1708435634.7852952,-2.1417171955108643,-1.3330659133246918,-2.5255516211139124,6.109130847245016,1.0155999660491943,-4.330408994351522
1708435634.7873323,-2.141742706298828,-1.33301696301017,-2.525550190602438,6.109126555710592,1.015602946281433,-4.330397073422567
1708435634.789312,-2.141723394393921,-1.3331187677434464,-2.5255516211139124,6.109139549523153,1.0155659914016724,-4.330376331006185
1708435634.7912924,-2.1416900157928467,-1.3330331605723877,-2.525545899068014,6.109143841057577,1.015607237815857,-4.330432836209432
1708435634.7933013,-2.141747236251831,-1.3330648851445694,-2.5255842844592493,6.109095084458151,1.0155746936798096,-4.330437246953146
1708435634.795312,-2.1416900157928467,-1.3330486875823517,-2.5255516211139124,6.109085070877828,1.0155792236328125,-4.330380741749899
1708435634.7973201,-2.1417102813720703,-1.3330821108869095,-2.5255754629718226,6.109151470452108,1.015591025352478,-4.3303837219821375
1708435634.7993026,-2.1417174339294434,-1.333057240848877,-2.5255680719958704,6.10913513877944,1.0155985355377197,-4.330437246953146
1708435634.8012993,-2.141718864440918,-1.3330202412656327,-2.5255516211139124,6.1091275093849084,1.0155941247940063,-4.330413524304525
1708435634.803335,-2.141721725463867,-1.33301696301017,-2.5255842844592493,6.10913513877944,1.0155985355377197,-4.330392662678854
1708435634.8053207,-2.1417348384857178,-1.3330245178988953,-2.5255709330188196,6.109095084458151,1.015589714050293,-4.330416504536764
1708435634.8073075,-2.1417348384857178,-1.3330083203366776,-2.5255215803729456,6.109118926316061,1.0155779123306274,-4.330416504536764
1708435634.809326,-2.1416943073272705,-1.3330410432866593,-2.5255516211139124,6.109103786736288,1.0155985355377197,-4.33042544523348
1708435634.8113062,-2.141730308532715,-1.3330658835223694,-2.5255306402789515,6.109087455063619,1.0156314373016357,-4.330392662678854
1708435634.8133018,-2.1417057514190674,-1.333028794532158,-2.5255842844592493,6.109106766968527,1.015602946281433,-4.330397073422567
1708435634.815278,-2.141751527786255,-1.333057240848877,-2.5256083647357386,6.109108078270712,1.0156358480453491,-4.3304001728640955
1708435634.817292,-2.141718864440918,-1.3330496859601517,-2.5255635420428675,6.10911105850295,1.0156104564666748,-4.330397073422567
1708435634.8193357,-2.1416969299316406,-1.3330648851445694,-2.5255873839007776,6.109062540322103,1.0155941247940063,-4.330397073422567
1708435634.821326,-2.1417171955108643,-1.3330202412656327,-2.5255799929248255,6.109110939293661,1.0155822038650513,-4.33042544523348
1708435634.823312,-2.1416563987731934,-1.3329954755357285,-2.525550190602438,6.109102356224813,1.0155985355377197,-4.330395642911093
1708435634.8253453,-2.1416943073272705,-1.3330658835223694,-2.5255799929248255,6.109108197480001,1.015561580657959,-4.3304001728640955
1708435634.8273716,-2.1416900157928467,-1.3330374670079728,-2.5256503264056605,6.109115350037374,1.0155822038650513,-4.33038825193514
1708435634.8293207,-2.141723394393921,-1.3330159497312088,-2.525517288838522,6.109058367996969,1.0156433582305908,-4.3303837219821375
1708435634.8313212,-2.1416900157928467,-1.3330331605723877,-2.5255711714373987,6.109083163529196,1.0155527591705322,-4.330395642911093
1708435634.833307,-2.141685724258423,-1.3330367666533967,-2.5255382696734827,6.1091240523155115,1.0155779123306274,-4.3304505983935755
1708435634.8352883,-2.1417391300201416,-1.333069161777832,-2.5255635420428675,6.1090993759925745,1.0155985355377197,-4.330420915280477
1708435634.8373215,-2.141742706298828,-1.3330040288022538,-2.5256007353412073,6.109087455063619,1.015655517578125,-4.330376331006185
1708435634.8393064,-2.141742706298828,-1.3330410432866593,-2.525529448186056,6.109090792923727,1.0156433582305908,-4.330420915280477
1708435634.8412995,-2.141726016998291,-1.3330853593400498,-2.5255919138537806,6.109103786736288,1.0155853033065796,-4.330408994351522
1708435634.8433225,-2.1416733264923096,-1.3330615174821396,-2.525611464177267,6.109042870789327,1.0156182050704956,-4.330420915280477
1708435634.8452847,-2.141747236251831,-1.3330116730979462,-2.525566641484396,6.109054672508993,1.0156643390655518,-4.330432836209432
1708435634.8473086,-2.1417391300201416,-1.333045319919922,-2.525545899068014,6.109066951065817,1.015622615814209,-4.330368820820944
1708435634.8493233,-2.1417391300201416,-1.3329997521689911,-2.5256202856646937,6.109091865807333,1.015589714050293,-4.330425326024191
1708435634.851296,-2.1416988372802734,-1.333069161777832,-2.5255711714373987,6.109067666321554,1.015589714050293,-4.330416504536764
1708435634.8533163,-2.141714572906494,-1.3330324602178116,-2.5255680719958704,6.10897313335494,1.0156301259994507,-4.330395762120382
1708435634.8552966,-2.1416900157928467,-1.3330615174821396,-2.5255547205554407,6.1090677855308435,1.0155985355377197,-4.3304001728640955
1708435634.8573372,-2.141751527786255,-1.333049715762474,-2.5255544821368616,6.109059083252706,1.0156060457229614,-4.330434266720907
1708435634.859284,-2.141690731048584,-1.333070160155632,-2.5256202856646937,6.109079944878378,1.0156270265579224,-4.33045739332308
1708435634.8613045,-2.141695022583008,-1.333098293547966,-2.5255711714373987,6.109013545304098,1.015634536743164,-4.330416504536764
1708435634.863304,-2.1416819095611572,-1.333049700861313,-2.5256291071521204,6.108981954842367,1.0156104564666748,-4.33042544523348
1708435634.8653212,-2.1417014598846436,-1.333057240848877,-2.5255709330188196,6.1090266583259485,1.0156104564666748,-4.330420915280477
1708435634.8673477,-2.1417603492736816,-1.333028794532158,-2.5256651083575647,6.109030949860372,1.0156466960906982,-4.330432836209432
1708435634.8692963,-2.14168643951416,-1.3330410432866593,-2.5256202856646937,6.10903953292922,1.0156511068344116,-4.330411974583761
1708435634.8713257,-2.1417102813720703,-1.3330116730979462,-2.5255711714373987,6.109001624375143,1.0156137943267822,-4.330388132725851
1708435634.8733058,-2.1417031288146973,-1.3330658835223694,-2.525566641484396,6.10900245884017,1.0156301259994507,-4.330425326024191
1708435634.8753352,-2.1417057514190674,-1.3330159497312088,-2.5256412664996546,6.109051453858175,1.015622615814209,-4.330432836209432
1708435634.8773007,-2.1417348384857178,-1.333028794532158,-2.5255919138537806,6.109030949860372,1.0156511068344116,-4.330412093793051
1708435634.8792896,-2.141660690307617,-1.3330496859601517,-2.5255711714373987,6.109048235207357,1.0156422853469849,-4.330425326024191
1708435634.8812945,-2.1416988372802734,-1.3330863875201722,-2.525611464177267,6.109052645951071,1.0156795978546143,-4.330457512532369
1708435634.8833413,-2.141730308532715,-1.3330777150443573,-2.5256040732013147,6.109079944878378,1.0156751871109009,-4.330391470585958
1708435634.885303,-2.1417031288146973,-1.3330820810845871,-2.5255261103259485,6.109035241394796,1.0156959295272827,-4.330453101788656
1708435634.8873112,-2.141707420349121,-1.3330083203366776,-2.5255828539477747,6.109023320465841,1.0156826972961426,-4.330413524304525
1708435634.8892899,-2.1416988372802734,-1.3330658835223694,-2.5255754629718226,6.109019028931417,1.0156826972961426,-4.330432836209432
1708435634.8913052,-2.141669511795044,-1.3330331605723877,-2.5256248156176966,6.10901032665328,1.0156946182250977,-4.330370489750997
1708435634.8933263,-2.1416819095611572,-1.3330938977054139,-2.5256577173816126,6.109019028931417,1.0157155990600586,-4.33043080965151
1708435634.8952942,-2.1416943073272705,-1.3330906492522736,-2.525578562413351,6.109038460045614,1.015699028968811,-4.330425326024191
1708435634.8973043,-2.1416988372802734,-1.3330331605723877,-2.5256202856646937,6.108998167305746,1.0156946182250977,-4.330470029507772
1708435634.899281,-2.1417031288146973,-1.3330496859601517,-2.5256248156176966,6.109030949860372,1.0157023668289185,-4.3304612080203455
1708435634.9012916,-2.141653537750244,-1.3330529642156144,-2.525578562413351,6.1090277312095544,1.015730857849121,-4.330416504536764
1708435634.9033105,-2.1416988372802734,-1.3330331605723877,-2.525550190602438,6.10901032665328,1.015730857849121,-4.330370489750997
1708435634.905313,-2.1416289806365967,-1.3330202412656327,-2.525611464177267,6.109059083252706,1.015681266784668,-4.330386821423666
1708435634.9073634,-2.1417322158813477,-1.333098293547966,-2.525595251713888,6.109023320465841,1.0157352685928345,-4.330448571835653
1708435634.9093058,-2.1416995525360107,-1.3330125969699402,-2.5255828539477747,6.1090407250221155,1.015763759613037,-4.330416504536764
1708435634.9113154,-2.1416711807250977,-1.3330409985831757,-2.525628153477804,6.109023320465841,1.0156935453414917,-4.330432836209432
1708435634.9133422,-2.141674041748047,-1.3330496859601517,-2.525590721760885,6.109035241394796,1.015718936920166,-4.330412093793051
1708435634.9153073,-2.141674041748047,-1.333098293547966,-2.525578562413351,6.109075653343954,1.015730857849121,-4.3304612080203455
1708435634.9173074,-2.141690731048584,-1.3330539625934144,-2.5256040732013147,6.108998048096456,1.0157264471054077,-4.330452267323629
1708435634.9192843,-2.141690731048584,-1.3330615174821396,-2.5256202856646937,6.109055745392599,1.0157681703567505,-4.330432836209432
1708435634.9213016,-2.141662359237671,-1.333045319919922,-2.5256202856646937,6.10901032665328,1.0157593488693237,-4.330416504536764
1708435634.92331,-2.1416492462158203,-1.3330615323833008,-2.525578562413351,6.1090067503745935,1.0157339572906494,-4.330439869557516
1708435634.9253082,-2.141662359237671,-1.3330658835223694,-2.525628153477804,6.109051453858175,1.0157339572906494,-4.330407683049337
1708435634.9273353,-2.14168643951416,-1.333086372619011,-2.525590721760885,6.109051453858175,1.0157756805419922,-4.330465618764059
1708435634.9293523,-2.141674041748047,-1.3330658835223694,-2.525574032460348,6.109011161118307,1.0157920122146606,-4.330435220395223
1708435634.9312937,-2.141711950302124,-1.3330658835223694,-2.5255919138537806,6.109030949860372,1.0157668590545654,-4.330452267323629
1708435634.933328,-2.1416783332824707,-1.3330615174821396,-2.5256202856646937,6.1090266583259485,1.0157831907272339,-4.330424133931295
1708435634.9352887,-2.141690731048584,-1.3330615323833008,-2.5256083647357386,6.109072077065267,1.015729546546936,-4.330386821423666
1708435634.9373264,-2.1416995525360107,-1.3331058484366913,-2.5255828539477747,6.10894941070632,1.0157712697982788,-4.330502692853109
1708435634.939297,-2.1416335105895996,-1.3330615174821396,-2.5256369749652308,6.109060156136312,1.0157876014709473,-4.330456916485922
1708435634.941318,-2.1417367458343506,-1.3330734384110947,-2.525611464177267,6.10900245884017,1.0158120393753052,-4.330456916485922
1708435634.94331,-2.141641139984131,-1.333058239226677,-2.525545660649435,6.109051453858175,1.015816330909729,-4.330452267323629
1708435634.945315,-2.1416871547698975,-1.3330496859601517,-2.525574032460348,6.109019028931417,1.0157668590545654,-4.330461088811056
1708435634.9473116,-2.1416711807250977,-1.3330582690289994,-2.5256248156176966,6.109030949860372,1.0157787799835205,-4.330456916485922
1708435634.9493163,-2.1416711807250977,-1.3330245178988953,-2.525545899068014,6.1090266583259485,1.0158030986785889,-4.330403153096334
1708435634.9513247,-2.141653537750244,-1.3331025701812287,-2.5256157557116907,6.109030949860372,1.0157787799835205,-4.330424133931295
1708435634.9533043,-2.141653537750244,-1.333098293547966,-2.5256202856646937,6.108998167305746,1.0158075094223022,-4.330464188252584
1708435634.9552941,-2.141658067703247,-1.3330821108869095,-2.525619093571798,6.10903953292922,1.0157743692398071,-4.330428425465719
1708435634.9573145,-2.1416332721710205,-1.333045319919922,-2.525586191807882,6.1090277312095544,1.0157698392868042,-4.330443326626913
1708435634.9593108,-2.141666889190674,-1.3330159497312088,-2.525623623524801,6.1090067503745935,1.0158194303512573,-4.330443326626913
1708435634.96131,-2.1416828632354736,-1.3330820810845871,-2.525619093571798,6.1089937565620325,1.0157743692398071,-4.330501381550924
1708435634.9633193,-2.1416544914245605,-1.333045319919922,-2.525651995335714,6.109060156136312,1.0158238410949707,-4.330468598996298
1708435634.965292,-2.1416587829589844,-1.3330496710589905,-2.525611464177267,6.109047162323751,1.0157654285430908,-4.330443326626913
1708435634.9672902,-2.141690731048584,-1.333102599983551,-2.525606934224264,6.109052645951071,1.015826940536499,-4.330485049878256
1708435634.9692872,-2.1416501998901367,-1.333028794532158,-2.525598112736837,6.109014737396993,1.0158476829528809,-4.330426398907797
1708435634.9712937,-2.141636848449707,-1.3330159497312088,-2.525581661854879,6.1090807793434045,1.0158106088638306,-4.330517713223593
1708435634.973303,-2.1416492462158203,-1.3330126118711014,-2.525623623524801,6.109055745392599,1.0158432722091675,-4.330459777508871
1708435634.9752975,-2.1416175365448,-1.3330572706511994,-2.52560264268984,6.109067666321554,1.0158225297927856,-4.330459777508871
1708435634.9773011,-2.1416501998901367,-1.3330126118711014,-2.525595013295309,6.109014737396993,1.0158432722091675,-4.330443326626913
1708435634.97929,-2.1416378021240234,-1.3330169481090088,-2.525606934224264,6.109030949860372,1.015880823135376,-4.330485049878256
1708435634.981297,-2.141606092453003,-1.333049700861313,-2.52560264268984,6.109051453858175,1.0158721208572388,-4.33047324815859
1708435634.983297,-2.141597032546997,-1.3330939275077363,-2.525660816823141,6.1090266583259485,1.0158675909042358,-4.330443326626913
1708435634.985326,-2.141666889190674,-1.3330496561578293,-2.5256474653827112,6.109059083252706,1.0158299207687378,-4.330495540295736
1708435634.987333,-2.1416757106781006,-1.3330331605723877,-2.525668207799093,6.109055745392599,1.0158631801605225,-4.330434505139486
1708435634.9892962,-2.1416828632354736,-1.3330453348210831,-2.5256267229663294,6.109030949860372,1.0159050226211548,-4.330520812665121
1708435634.99129,-2.1416757106781006,-1.3330539625934144,-2.5256221930133265,6.109051453858175,1.0158872604370117,-4.330504361783163
1708435634.9933133,-2.1417083740234375,-1.333045319919922,-2.5257135073291224,6.109055745392599,1.015846610069275,-4.330467168484823
1708435634.995325,-2.141634941101074,-1.3331144911101838,-2.5256667772876185,6.1090277312095544,1.0159050226211548,-4.330511871968405
1708435634.9973571,-2.1416287422180176,-1.3330615174821396,-2.525691095982687,6.109067666321554,1.015919804573059,-4.330549780522482
1708435634.9992867,-2.1416711807250977,-1.3330539625934144,-2.5257328192340296,6.108981835633077,1.015919804573059,-4.330519143735067
1708435635.0012896,-2.1416800022125244,-1.3331015569022675,-2.5256956259356897,6.109032022743978,1.015919804573059,-4.330552522336141
1708435635.003337,-2.1416378021240234,-1.3331187677434464,-2.525747839604513,6.10897313335494,1.0158904790878296,-4.33051842847933
1708435635.0053172,-2.1416587829589844,-1.333045319919922,-2.52574330965151,6.109043943672933,1.0158947706222534,-4.330552522336141
1708435635.0073395,-2.1416544914245605,-1.3330820214799424,-2.525731388722555,6.109042870789327,1.0159035921096802,-4.330522839223043
1708435635.009313,-2.141671895980835,-1.3330734384110947,-2.525768820439474,6.109122144966879,1.0159035921096802,-4.330597106610433
1708435635.011374,-2.1416103839874268,-1.3330939275077363,-2.5257194677936,6.109055745392599,1.0159274339675903,-4.330548111592428
1708435635.0133133,-2.1416501998901367,-1.3330615174821396,-2.525752131138937,6.109055745392599,1.0159021615982056,-4.330539170895712
1708435635.0152912,-2.1416544914245605,-1.3330539625934144,-2.5257719198810022,6.109051453858175,1.0159066915512085,-4.330548111592428
1708435635.0173807,-2.1416800022125244,-1.3330331605723877,-2.525792900715963,6.10900245884017,1.0159066915512085,-4.330534760151998
1708435635.0193017,-2.1416015625,-1.3330331605723877,-2.5258002916919153,6.108986246376791,1.015918493270874,-4.3305644432650965
1708435635.0212975,-2.1416378021240234,-1.3329963994077225,-2.5257466475116175,6.109030949860372,1.015918493270874,-4.33055550256838
1708435635.0232997,-2.1416103839874268,-1.333005042081215,-2.5257344881640833,6.109096276551046,1.0159354209899902,-4.330571953450338
1708435635.0253208,-2.1416587829589844,-1.333118663435318,-2.5257299582110804,6.109072077065267,1.015918493270874,-4.330543700848715
1708435635.0273616,-2.141666889190674,-1.3330159497312088,-2.5257840792285364,6.109055745392599,1.0159798860549927,-4.33059281507601
1708435635.029332,-2.1416501998901367,-1.3330159944346924,-2.5257840792285364,6.10903953292922,1.0159755945205688,-4.330600206051962
1708435635.0313568,-2.141646385192871,-1.3330863577178498,-2.5257180372821253,6.109019028931417,1.0159504413604736,-4.330623451863424
1708435635.0333316,-2.1416544914245605,-1.3329913181117554,-2.5257585684405726,6.109060275345602,1.0159921646118164,-4.330583874379293
1708435635.0353012,-2.1416149139404297,-1.3330982786468049,-2.5257299582110804,6.109023320465841,1.0159833431243896,-4.330595795308248
1708435635.037326,-2.1416332721710205,-1.3329920929721375,-2.525809351597921,6.109014737396993,1.0159833431243896,-4.330604736004965
1708435635.0393083,-2.1416306495666504,-1.3330496710589905,-2.5257344881640833,6.10897313335494,1.0159789323806763,-4.3305586020099085
1708435635.0412967,-2.1416420936584473,-1.3331025850823899,-2.5257225672351282,6.109085070877828,1.0160325765609741,-4.330612126980917
1708435635.0433025,-2.141667604446411,-1.333028794532158,-2.52574330965151,6.109048235207357,1.016040325164795,-4.330612126980917
1708435635.0452967,-2.141688823699951,-1.333045319919922,-2.5257673899279993,6.109060156136312,1.016019344329834,-4.33057946363558
1708435635.0473075,-2.1416633129119873,-1.3330582541278382,-2.5257509390460413,6.109017836838522,1.0160478353500366,-4.330582324658529
1708435635.0493073,-2.1416587829589844,-1.333020271067955,-2.5257509390460413,6.109014737396993,1.01605224609375,-4.330612246190206
1708435635.0512745,-2.1416175365448,-1.333105818634369,-2.5257883707629603,6.109059083252706,1.0160105228424072,-4.330656830464498
1708435635.0533028,-2.141606092453003,-1.333082066183426,-2.5257256666766565,6.109055745392599,1.0160315036773682,-4.3306525389300745
1708435635.05529,-2.1416218280792236,-1.3330691915801545,-2.5257795492755335,6.109043943672933,1.016022801399231,-4.330649439488546
1708435635.0573313,-2.1416218280792236,-1.3330325496247788,-2.5257509390460413,6.109023320465841,1.016022801399231,-4.330618206654684
1708435635.059293,-2.1416800022125244,-1.3330777150443573,-2.5257585684405726,6.109059083252706,1.0160807371139526,-4.33066434064974
1708435635.0612936,-2.1416633129119873,-1.333073468213417,-2.5257511774646204,6.10910056808547,1.0160930156707764,-4.330622617398397
1708435635.0633242,-2.1416378021240234,-1.3330983084491272,-2.5257750193225306,6.109014737396993,1.0160752534866333,-4.330671850834982
1708435635.0652812,-2.1416332721710205,-1.3330777448466797,-2.5257673899279993,6.10903953292922,1.0160796642303467,-4.330618206654684
1708435635.0673387,-2.141646385192871,-1.333012582068779,-2.525771681462423,6.109075653343954,1.0161288976669312,-4.33068818250765
1708435635.0692868,-2.141606092453003,-1.3330452901175995,-2.5257795492755335,6.1090677855308435,1.0161288976669312,-4.330695692692892
1708435635.071291,-2.1416263580322266,-1.3330854040435334,-2.5257840792285364,6.109023320465841,1.0161319971084595,-4.3306583801852625
1708435635.073311,-2.141646385192871,-1.3330529642156144,-2.5258079210864466,6.109035241394796,1.0161319971084595,-4.3306583801852625
1708435635.0752914,-2.1416306495666504,-1.3330487173846741,-2.5257914702044886,6.109030949860372,1.016177773475647,-4.330716435109274
1708435635.077309,-2.1415979862213135,-1.3330811274102707,-2.5257869402514856,6.109051453858175,1.016181468963623,-4.330667320881979
1708435635.079286,-2.1416103839874268,-1.3330245178988953,-2.5258453528033655,6.10906337478713,1.0161638259887695,-4.330686751996176
1708435635.0813174,-2.141634941101074,-1.3330572557500382,-2.525827471409933,6.109119641571798,1.0161514282226562,-4.330731932316915
1708435635.0833287,-2.1416378021240234,-1.333073453312256,-2.5258575121508997,6.109058367996969,1.0161558389663696,-4.330743734036581
1708435635.0852933,-2.141646385192871,-1.3330658984235306,-2.525851551686422,6.109038460045614,1.0161142349243164,-4.330740992222921
1708435635.0873282,-2.141585111618042,-1.3330734235099335,-2.525856081639425,6.109091865807333,1.0161468982696533,-4.330797497426168
1708435635.0892959,-2.1416420936584473,-1.3330324602178116,-2.525860373173849,6.10903416851119,1.01614248752594,-4.3307393232928675
1708435635.0912914,-2.141639471054077,-1.3330486428788682,-2.5258753935443323,6.109091865807333,1.016184687614441,-4.330730263386862
1708435635.093339,-2.141606092453003,-1.3330777150443573,-2.5259161631213587,6.109103786736288,1.0161832571029663,-4.330788437520162
1708435635.095319,-2.1416587829589844,-1.3330896359733124,-2.5258753935443323,6.109106766968527,1.0160936117172241,-4.330791536961691
1708435635.0973406,-2.141606092453003,-1.3330734831145783,-2.5259204546557825,6.1090712426002405,1.0161832571029663,-4.330791417752401
1708435635.0993078,-2.1416175365448,-1.3330539625934144,-2.5258708635913294,6.109083163529196,1.0161551237106323,-4.330831710492269
1708435635.1013033,-2.1416633129119873,-1.3330159497312088,-2.525885883961813,6.109037387162008,1.016196370124817,-4.330787007008688
1708435635.1033401,-2.1416420936584473,-1.3331220310977479,-2.5258992354022425,6.109090792923727,1.0161951780319214,-4.330789987240927
1708435635.105335,-2.1416175365448,-1.333061547284462,-2.525902811680929,6.109106766968527,1.0162161588668823,-4.330789987240927
1708435635.1073282,-2.1415936946868896,-1.33303256452594,-2.5259533564196985,6.109110224037924,1.0162162780761719,-4.330848042164938
1708435635.109315,-2.1416420936584473,-1.3331101548722764,-2.525935475026266,6.109118926316061,1.016224980354309,-4.330834690724508
1708435635.1113138,-2.14158034324646,-1.3330615174821396,-2.5259652773486536,6.109142768173971,1.0162657499313354,-4.330830160771505
1708435635.1133077,-2.1416218280792236,-1.333069161777832,-2.5259562174426478,6.10913513877944,1.0162192583084106,-4.330837670956747
1708435635.1153185,-2.1416332721710205,-1.3330658835223694,-2.5258904139148157,6.10912965515212,1.0162523984909058,-4.330861512814657
1708435635.117294,-2.1416633129119873,-1.3330159497312088,-2.5258904139148157,6.109199392586508,1.0162479877471924,-4.330849591885702
1708435635.119288,-2.1416587829589844,-1.3330368411592026,-2.5259442965136927,6.10919069030837,1.0162718296051025,-4.330891315137045
1708435635.1213164,-2.1416420936584473,-1.3330245178988953,-2.5259442965136927,6.109194028168478,1.0162599086761475,-4.330870453511373
1708435635.123302,-2.141589403152466,-1.3330487173846741,-2.525869433079855,6.109178769379415,1.0162718296051025,-4.330902282391683
1708435635.1252906,-2.141650915145874,-1.3330606085113068,-2.5258947054492396,6.109183060913839,1.016288161277771,-4.330861512814657
1708435635.127367,-2.1416263580322266,-1.3330853593400498,-2.525923554097311,6.109193908959188,1.0162837505340576,-4.330944124852316
1708435635.1293583,-2.141606092453003,-1.333057240848877,-2.525907103215353,6.1092275259788416,1.016353964805603,-4.330902282391683
1708435635.1313283,-2.141650915145874,-1.3330496710589905,-2.5259223620044153,6.109153854637899,1.0163036584854126,-4.330981318150656
1708435635.1333356,-2.1416633129119873,-1.3330324751189728,-2.525940004979269,6.1091863987739465,1.0163363218307495,-4.3309142033206385
1708435635.1353033,-2.1416587829589844,-1.333060623412468,-2.5259769598590296,6.1091863987739465,1.0163319110870361,-4.330942455922262
1708435635.1373336,-2.141667604446411,-1.3330529940179368,-2.525935475026266,6.109239446907797,1.0163111686706543,-4.331005040799276
1708435635.1393158,-2.141639471054077,-1.3330486577800293,-2.525947395955221,6.109231817513265,1.016318678855896,-4.3309707085238855
1708435635.1413062,-2.1415927410125732,-1.3331263226321717,-2.525959316884176,6.1092426655586145,1.0163722038269043,-4.331008617077963
1708435635.1433287,-2.1416587829589844,-1.3330486726811905,-2.5259221235858362,6.109223115235128,1.016339659690857,-4.330933515225546
1708435635.1453066,-2.1416149139404297,-1.3330605638078232,-2.525975767766134,6.109194028168478,1.016351580619812,-4.331002060567037
1708435635.1473157,-2.1416103839874268,-1.333076850777008,-2.5259888807879847,6.109239446907797,1.0163397789001465,-4.330986324940817
1708435635.1493115,-2.1416175365448,-1.3331101399711152,-2.525963846837179,6.109230744629659,1.0163723230361938,-4.331002060567037
1708435635.1512916,-2.141634941101074,-1.333044396047928,-2.525959316884176,6.109189617424764,1.0163800716400146,-4.331039134656088
1708435635.1533184,-2.1416633129119873,-1.333069161777832,-2.525975767766134,6.109226453095236,1.0163756608963013,-4.331049744282858
1708435635.155291,-2.1416306495666504,-1.3330605787089844,-2.525996748601095,6.109238374024191,1.016384482383728,-4.331039134656088
1708435635.1576598,-2.141671895980835,-1.3331058782390137,-2.525975529347555,6.109233963280477,1.0163997411727905,-4.331009570752279
1708435635.1593099,-2.1416633129119873,-1.333110125069954,-2.525971237813131,6.109164583473959,1.016404151916504,-4.331054155026571
1708435635.1613052,-2.141646385192871,-1.3330358427814026,-2.5259550253497522,6.109251367836752,1.016404151916504,-4.331082526837484
1708435635.1633108,-2.1416501998901367,-1.3331015420011063,-2.526004139577047,6.10921465137557,1.0163953304290771,-4.331077996884481
1708435635.165309,-2.141639471054077,-1.3330887270024796,-2.525992218648092,6.109266745835104,1.016411542892456,-4.331106964741842
1708435635.1673274,-2.1416332721710205,-1.33310158670459,-2.52600866953005,6.109274375229635,1.0164401531219482,-4.331102434788839
1708435635.1692982,-2.141601800918579,-1.3330658835223694,-2.525992218648092,6.109254944115438,1.0164611339569092,-4.331154529248373
1708435635.1713169,-2.141650915145874,-1.3331177693656464,-2.5260162989245813,6.109250533371725,1.0164523124694824,-4.331175390874044
1708435635.1733227,-2.141606092453003,-1.3331006628325959,-2.525994125996725,6.109311568527975,1.0164686441421509,-4.331186238919393
1708435635.1752927,-2.1416501998901367,-1.3330324602178116,-2.5260074774371546,6.109278666764059,1.0164523124694824,-4.331139628087179
1708435635.177318,-2.1416263580322266,-1.3330614876798172,-2.5260446707354944,6.109359133034506,1.0164642333984375,-4.331193272267477
1708435635.1792889,-2.1416149139404297,-1.333069161777832,-2.5260356108294886,6.10933934429244,1.016501545906067,-4.331217114125387
1708435635.1812801,-2.1416757106781006,-1.33308960617099,-2.5259862581836146,6.109346139221945,1.0164434909820557,-4.331209723149435
1708435635.183311,-2.1416263580322266,-1.3331177991679688,-2.5259833971606653,6.109337436943807,1.0164883136749268,-4.331240955983297
1708435635.1852856,-2.141606092453003,-1.3331177693656464,-2.5260148684131067,6.109369981079855,1.0164763927459717,-4.331269923840658
1708435635.187316,-2.141646385192871,-1.3330896359733124,-2.525977436696188,6.109386193543234,1.0164971351623535,-4.331286374722616
1708435635.189301,-2.1416306495666504,-1.3330563616803666,-2.5259953180896204,6.109405982285299,1.0164676904678345,-4.331268254910604
1708435635.191301,-2.141634941101074,-1.3331253987601777,-2.5260401407824915,6.10938190200881,1.0164958238601685,-4.331296507512228
1708435635.1933215,-2.1416544914245605,-1.3330896508744736,-2.5260568300830286,6.1093612788017175,1.0165165662765503,-4.331341330205099
1708435635.1953242,-2.141667604446411,-1.3330972802690049,-2.5260313192950647,6.109394061356344,1.0165541172027588,-4.331353847180502
1708435635.1973233,-2.1416544914245605,-1.3330615174821396,-2.5260136763202112,6.109373199730673,1.0165290832519531,-4.331377569829122
1708435635.19933,-2.1416332721710205,-1.3330810976079484,-2.526043478642599,6.109386193543234,1.016515851020813,-4.331445638333456
1708435635.201341,-2.1416234970092773,-1.333077685242035,-2.5260523001300257,6.109398472100057,1.0165528059005737,-4.331445638333456
1708435635.2033257,-2.141634941101074,-1.3330939275077363,-2.526076380406515,6.109368908196249,1.0165528059005737,-4.331522051488058
1708435635.2053077,-2.1416192054748535,-1.3330359172872086,-2.526050869618551,6.109373199730673,1.0165528059005737,-4.331472937260763
1708435635.207334,-2.1415979862213135,-1.3331425201943894,-2.5260465780841272,6.109394061356344,1.0165976285934448,-4.331496779118673
1708435635.209317,-2.1415979862213135,-1.3330929589322587,-2.526043478642599,6.109410273819723,1.0165770053863525,-4.331544820462362
1708435635.2113163,-2.141634941101074,-1.3331100803664704,-2.526034657155172,6.10935257652358,1.016588807106018,-4.331556860600607
1708435635.2133539,-2.1415979862213135,-1.333113507633545,-2.526026789342062,6.109405982285299,1.016588807106018,-4.331604067479269
1708435635.2153256,-2.1415741443634033,-1.333092988734581,-2.526043478642599,6.109341847687521,1.016575574874878,-4.331637446080343
1708435635.2173426,-2.1415529251098633,-1.3330682677081604,-2.526038948689596,6.10938976982192,1.0165843963623047,-4.331656638775961
1708435635.2193093,-2.1416025161743164,-1.333166704779007,-2.526072088872091,6.109377491265096,1.0166338682174683,-4.331746760998861
1708435635.2213218,-2.1416234970092773,-1.333092988734581,-2.526076380406515,6.109394895821371,1.0166128873825073,-4.3317288796054285
1708435635.2233322,-2.1415979862213135,-1.3331211072257538,-2.526043478642599,6.1093904850776575,1.0166250467300415,-4.331784669552938
1708435635.225306,-2.14158296585083,-1.3330564063838501,-2.526076380406515,6.1093493578727625,1.0166654586791992,-4.331813041363851
1708435635.2273242,-2.141611099243164,-1.3331015718034287,-2.526104752217428,6.109411465912618,1.0166488885879517,-4.331777159367697
1708435635.229385,-2.1415176391601562,-1.333092988734581,-2.5261078516589563,6.109407174378195,1.0166162252426147,-4.331822458897726
1708435635.2314196,-2.141587495803833,-1.3330930036357422,-2.5261078516589563,6.109346139221945,1.0166325569152832,-4.331870023404257
1708435635.2333474,-2.1415624618530273,-1.3331210923245926,-2.5261197725879114,6.109346139221945,1.0166311264038086,-4.331930462514059
1708435635.2353542,-2.141514778137207,-1.3330844056657334,-2.5260794798480433,6.1093177674110315,1.0166311264038086,-4.3320035378085535
1708435635.237344,-2.1415185928344727,-1.3330887717059632,-2.5261152426349085,6.109350549965658,1.0166075229644775,-4.331997338925497
1708435635.2393098,-2.1415271759033203,-1.3331339371255417,-2.5260987917529505,6.1093060849006555,1.0166685581207275,-4.3320375124560755
1708435635.2412965,-2.1414787769317627,-1.3331049096635361,-2.5261064211474817,6.1093580601509,1.0166685581207275,-4.332139436398641
1708435635.2433076,-2.141453981399536,-1.333101601605751,-2.5261226336108606,6.109297382622518,1.016685128211975,-4.332170907651083
1708435635.245291,-2.1413819789886475,-1.3330358129790802,-2.5261483828174036,6.109359133034506,1.0166763067245483,-4.332281176243917
1708435635.2473521,-2.141373634338379,-1.3331296902946015,-2.526179615651266,6.109277474671163,1.0167014598846436,-4.33228308359255
1708435635.2493408,-2.1413540840148926,-1.333138258462288,-2.526139561329977,6.109246241837301,1.0167418718338013,-4.332354489956991
1708435635.2512999,-2.1413559913635254,-1.333092988734581,-2.526139561329977,6.109180915146627,1.0167123079299927,-4.3324424664126795
1708435635.2533355,-2.1413393020629883,-1.3330887121013184,-2.526170794163839,6.1091863987739465,1.0166795253753662,-4.3324742952929896
1708435635.2553139,-2.1413400173187256,-1.3331006628325959,-2.5261827150927942,6.10912965515212,1.016704797744751,-4.332587424908773
1708435635.257324,-2.141263246536255,-1.333141566520073,-2.526175324116842,6.109147059708395,1.0167330503463745,-4.3326008955584925
1708435635.259316,-2.1412298679351807,-1.3331538450768967,-2.526170794163839,6.109118926316061,1.0167781114578247,-4.3327264229403895
1708435635.2612956,-2.1412155628204346,-1.333068312411644,-2.5261827150927942,6.109074580460348,1.0167574882507324,-4.332789007817404
1708435635.2633123,-2.141188144683838,-1.333097295170166,-2.5261829535113733,6.109009253769674,1.0167855024337769,-4.332868520413534
1708435635.2653193,-2.1411800384521484,-1.3331049543670197,-2.5262413660632532,6.109019028931417,1.0167723894119263,-4.332947436963217
1708435635.267308,-2.141079902648926,-1.333121122126915,-2.5261903444873255,6.108974206238546,1.0167930126190186,-4.333072249089376
1708435635.2693057,-2.141097068786621,-1.3330877733281632,-2.5262442270862024,6.108910071640768,1.0168172121047974,-4.333113376294271
1708435635.2713208,-2.141040802001953,-1.333112583761551,-2.526214663182394,6.108899342804708,1.0168460607528687,-4.333281342183248
1708435635.273318,-2.1410000324249268,-1.3330920052579422,-2.526259247456686,6.108741509705343,1.0168460607528687,-4.333363358174459
1708435635.2753134,-2.1409523487091064,-1.3331373196891327,-2.5262518564807337,6.108772027283468,1.0168653726577759,-4.333438340817587
1708435635.2773068,-2.1408870220184326,-1.3331039261868973,-2.526308838521139,6.108666646271505,1.0168609619140625,-4.333550039921896
1708435635.279316,-2.140864133834839,-1.3331812781146546,-2.5262625853167933,6.108562218933859,1.0168696641921997,-4.333678070698873
1708435635.281302,-2.14084529876709,-1.3331409257701416,-2.526328150426046,6.1084948656852625,1.016898274421692,-4.333814803753988
1708435635.283313,-2.1407933235168457,-1.3331974905780335,-2.5263074080096644,6.108456837921896,1.0168639421463013,-4.333921972905294
1708435635.2853062,-2.140720844268799,-1.3332133752158661,-2.5263028780566614,6.108355748444357,1.0169016122817993,-4.334020916615621
1708435635.28732,-2.1406359672546387,-1.333228976731636,-2.5263641516314905,6.108273136406698,1.0169376134872437,-4.334127966557638
1708435635.289338,-2.1405885219573975,-1.333239809875824,-2.526367489491598,6.108136045723715,1.0168884992599487,-4.334308687840597
1708435635.291328,-2.1405487060546875,-1.333281160598137,-2.526341978703634,6.10802851894454,1.0169376134872437,-4.334423963223593
1708435635.2933116,-2.1404647827148438,-1.3332193207791825,-2.526428524647848,6.107907998352804,1.0169614553451538,-4.334548298512594
1708435635.2953558,-2.140446186065674,-1.3332559776357193,-2.5264647642718714,6.107801306038656,1.0170021057128906,-4.334741179143087
1708435635.2973282,-2.1403579711914062,-1.3332887154868622,-2.5264063517199915,6.107779490738668,1.017005205154419,-4.334854189549581
1708435635.2993014,-2.140253782272339,-1.3333208423903962,-2.5264151732074183,6.10761450508193,1.017021894454956,-4.334973756467001
1708435635.3012908,-2.140127420425415,-1.3332639795592804,-2.5264559427844446,6.107453691750326,1.017037034034729,-4.3351293245898646
1708435635.303341,-2.1400604248046875,-1.3333407801440735,-2.5264974276172083,6.107366430550375,1.0170862674713135,-4.335289303456442
1708435635.305319,-2.1400177478790283,-1.3333330613425751,-2.526532236729757,6.1072600958640955,1.0170849561691284,-4.335505668316976
1708435635.3073199,-2.1398937702178955,-1.3333245825818558,-2.526548687611715,6.107067334442892,1.017118215560913,-4.335668508206503
1708435635.3092964,-2.139827013015747,-1.333360255961754,-2.5265188852893274,6.106928694039144,1.017145037651062,-4.335835878049032
1708435635.3112986,-2.1396851539611816,-1.3333483350327988,-2.5265560785876673,6.10673605182723,1.0171571969985962,-4.335977975522177
1708435635.3133059,-2.1395773887634277,-1.333335430627205,-2.5265427271472376,6.106636750489034,1.0171527862548828,-4.336182538663046
1708435635.3153496,-2.1395363807678223,-1.3333440583995362,-2.526632610951559,6.10645757892684,1.0172349214553833,-4.3363723198520105
1708435635.3173053,-2.1393916606903076,-1.3333725196174164,-2.5266059080706995,6.106399881630697,1.0172141790390015,-4.336614195500509
1708435635.3193016,-2.1392600536346436,-1.3333516281894227,-2.5266881624804896,6.106194484024801,1.0172457695007324,-4.3367889563189905
1708435635.321367,-2.1391117572784424,-1.3333516132882615,-2.5267165342914026,6.105994570046224,1.0172202587127686,-4.336983863507406
1708435635.3233106,-2.138935089111328,-1.3333725047162552,-2.5267494360553187,6.10579143741683,1.0172861814498901,-4.337207619343893
1708435635.3253427,-2.1387953758239746,-1.3333638620427628,-2.526743475590841,6.105641114502706,1.0173264741897583,-4.337339226399557
1708435635.3273377,-2.1386029720306396,-1.3333516132882615,-2.5267558733569544,6.105355489044943,1.0173641443252563,-4.337613050137655
1708435635.329371,-2.1384150981903076,-1.333371416931488,-2.526815954838888,6.105193245201864,1.017316460609436,-4.3378207127200525
1708435635.3313763,-2.1382246017456055,-1.333375797872879,-2.5268145243274134,6.104987013130941,1.0173659324645996,-4.338051382695333
1708435635.3333077,-2.138096809387207,-1.3334361922791977,-2.5268877188311976,6.104746687203207,1.0173975229263306,-4.338302675877706
1708435635.3353293,-2.137908935546875,-1.3334373098662873,-2.5268877188311976,6.104531395226278,1.0173900127410889,-4.33851391473879
1708435635.3373334,-2.1377058029174805,-1.3334448647550126,-2.5269444624530237,6.1042789099510095,1.0174874067306519,-4.338814083729879
1708435635.3393033,-2.1375441551208496,-1.3334567856839676,-2.5269880930529993,6.104008424073019,1.0174951553344727,-4.339036170636312
1708435635.3413227,-2.137270212173462,-1.3334362369826813,-2.5270119349109095,6.103728878289022,1.0175145864486694,-4.339335862790243
1708435635.3433185,-2.137022018432617,-1.3334482175162812,-2.5270512739764612,6.103490936547079,1.0175057649612427,-4.339610997830526
1708435635.3452895,-2.1367619037628174,-1.3333986115506669,-2.5271244684802454,6.103118049889364,1.017607569694519,-4.339944187794821
1708435635.347333,-2.136550188064575,-1.333489568238594,-2.5271530787097376,6.1028723595436,1.0175986289978027,-4.340159598981039
1708435635.3493052,-2.136373281478882,-1.3334561896375199,-2.527135197316305,6.102577316551962,1.0176634788513184,-4.340497318898336
1708435635.3513296,-2.1360971927642822,-1.333435298209526,-2.5271382967578333,6.102315413742819,1.0177034139633179,-4.340783659611837
1708435635.353362,-2.135883331298828,-1.3335126650384446,-2.5271664301501673,6.101972090988912,1.0176984071731567,-4.341108028088705
1708435635.3554273,-2.1356184482574463,-1.3335328263095398,-2.527226511632101,6.101506697922506,1.0177924633026123,-4.3414194027530115
1708435635.3573186,-2.135359287261963,-1.3334713888219376,-2.527329746876852,6.101189362793722,1.0178349018096924,-4.341769758855001
1708435635.3593004,-2.1350884437561035,-1.333544747238495,-2.5273268858539026,6.100763189583578,1.01787531375885,-4.34206742445101
1708435635.3613021,-2.1347689628601074,-1.3335884821465989,-2.5273597876178187,6.1003432152564905,1.017906904220581,-4.342436377202169
1708435635.3633542,-2.134493112564087,-1.3335560721210022,-2.5274110476123255,6.099993216782369,1.0179387331008911,-4.342750732098715
1708435635.3652904,-2.1342051029205322,-1.3336082708886643,-2.5274797121631067,6.099485981255331,1.0180273056030273,-4.343076531087057
1708435635.3673248,-2.133955478668213,-1.3336201918176194,-2.527536932622091,6.099143373757162,1.018067717552185,-4.3434441725360315
1708435635.3693001,-2.133587598800659,-1.3336072725108643,-2.5275757948504847,6.0987082598503015,1.0181080102920532,-4.34386116663088
1708435635.3713045,-2.1332666873931885,-1.333598719244339,-2.527644936238424,6.09826277473525,1.0181430578231812,-4.344211045895712
1708435635.3733745,-2.132939577102661,-1.3336072725108643,-2.5276435057269495,6.097722637444296,1.0182119607925415,-4.344547692929403
1708435635.3753245,-2.132563829421997,-1.33366251111541,-2.52771503130068,6.097224700241842,1.0183378458023071,-4.34495181242098
1708435635.3773494,-2.132216691970825,-1.333633468752243,-2.5277543703662317,6.096757995873251,1.0183736085891724,-4.345387641583578
1708435635.3793004,-2.1318740844726562,-1.3337233525565644,-2.5278740564929407,6.096234190254965,1.0184459686279297,-4.345773760472433
1708435635.3812885,-2.131481647491455,-1.3337019246867676,-2.5278714338885706,6.095716345101156,1.018513560295105,-4.346160594617025
1708435635.3833296,-2.1311073303222656,-1.3337633919766922,-2.527926746998922,6.095247137337484,1.0185977220535278,-4.346572581921713
1708435635.3852944,-2.130687952041626,-1.3337746572545548,-2.5280659834491175,6.094639408379354,1.018678903579712,-4.347002212201254
1708435635.3873456,-2.1302764415740967,-1.333733321433403,-2.5280795733081263,6.094098078995504,1.018689751625061,-4.347380701695577
1708435635.3893235,-2.129870653152466,-1.333839775328972,-2.528106991444723,6.093503343849935,1.0187662839889526,-4.347837034855978
1708435635.3913224,-2.1293857097625732,-1.3338063669255753,-2.5281789938556116,6.092954146652975,1.0188132524490356,-4.348237220441
1708435635.3933346,-2.128939628601074,-1.3338461530259629,-2.528308931981222,6.09223889091567,1.0189344882965088,-4.348701063786642
1708435635.3953063,-2.1283912658691406,-1.3339234602502366,-2.528360191975729,6.09161006191329,1.0189741849899292,-4.349134627972738
1708435635.3973734,-2.1279828548431396,-1.3338702482036133,-2.5284648577319544,6.090923297196188,1.0191071033477783,-4.3495861927615564
1708435635.399341,-2.1274988651275635,-1.3338983666947861,-2.528548781071798,6.090270149498739,1.0191420316696167,-4.350077692662374
1708435635.4012976,-2.126978635787964,-1.333861694937088,-2.528600041066305,6.089633214264669,1.019202470779419,-4.3505112568484705
1708435635.4033225,-2.1264681816101074,-1.3339096915772934,-2.5286734739886683,6.088941681175985,1.0192862749099731,-4.350923363362448
1708435635.4053364,-2.1259615421295166,-1.3339786988547822,-2.5287681261645716,6.088296878128805,1.019391417503357,-4.351447288190023
1708435635.4073644,-2.125469923019409,-1.333970085983612,-2.528853241597311,6.087615358620443,1.0194264650344849,-4.35196298757662
1708435635.409305,-2.1249477863311768,-1.3339820069125672,-2.5289207140551966,6.086853968888082,1.0195595026016235,-4.352494184170858
1708435635.4113212,-2.1243889331817627,-1.3340256971171875,-2.5290048758136194,6.086075293808737,1.0195988416671753,-4.353037182484762
1708435635.4133396,-2.1238300800323486,-1.3340378564647217,-2.5290797392474573,6.0852688429649255,1.019691824913025,-4.353566114102499
1708435635.4152973,-2.1232872009277344,-1.3340580028346558,-2.529180351887838,6.084476578026571,1.019783854484558,-4.354096118603842
1708435635.4173324,-2.1227002143859863,-1.3340495389750977,-2.52930456796755,6.08361707904891,1.0198768377304077,-4.35466176668276
1708435635.4193184,-2.122117519378662,-1.3341102463058014,-2.52936035791506,6.08289002159194,1.0199477672576904,-4.355152074490682
1708435635.4212995,-2.121514081954956,-1.3341339987567444,-2.529489342366354,6.082048284798422,1.0200613737106323,-4.355750624333517
1708435635.4233508,-2.1209325790405273,-1.3341377836516877,-2.529571835194723,6.0812439797218225,1.0201126337051392,-4.356327239667074
1708435635.4253252,-2.120344877243042,-1.334105209713318,-2.5296645800219935,6.080430733948507,1.0201879739761353,-4.356872860585348
1708435635.427324,-2.1197102069854736,-1.3341612082770844,-2.5297606627093714,6.079500186234274,1.020326018333435,-4.357432071362631
1708435635.429371,-2.119072437286377,-1.3342299324325104,-2.5299223105060022,6.078602182656088,1.0203763246536255,-4.3580045143710535
1708435635.4313884,-2.1184778213500977,-1.3342783910087128,-2.5299602190600794,6.077747571259298,1.020583987236023,-4.358574215565817
1708435635.4333324,-2.1177873611450195,-1.3342894476703187,-2.530055824910299,6.076816904335775,1.0206667184829712,-4.359162155781881
1708435635.4353528,-2.1171035766601562,-1.3342767518809815,-2.530173126851217,6.075774657517233,1.0207502841949463,-4.359748188649313
1708435635.4373183,-2.1164510250091553,-1.3343127530864258,-2.5302229563342493,6.074797856598654,1.0208625793457031,-4.360345665608541
1708435635.4393156,-2.1157264709472656,-1.3343807321837922,-2.5303857962237757,6.073899376183309,1.0209752321243286,-4.360866610203878
1708435635.4413056,-2.115020751953125,-1.3343885105899354,-2.530452315007345,6.072926628380575,1.0210669040679932,-4.361462060605184
1708435635.4433408,-2.1142611503601074,-1.3344245117953797,-2.5305524508105677,6.071961271553793,1.021139144897461,-4.3620856443988245
1708435635.4452896,-2.1135804653167725,-1.3344074946692963,-2.5306647459613245,6.0709372637565515,1.0213162899017334,-4.36269992986788
1708435635.447342,-2.1128089427948,-1.3344713312438508,-2.5307684580432337,6.06985222080306,1.0213872194290161,-4.363281194363729
1708435635.4493065,-2.1120352745056152,-1.3345243495753785,-2.5308554808246058,6.06881211975173,1.0215448141098022,-4.363882605229513
1708435635.4513347,-2.1111795902252197,-1.3345357340625306,-2.5310142675982874,6.067679393082418,1.0216648578643799,-4.364539448414938
1708435635.4533277,-2.110405206680298,-1.3346045774272461,-2.5311294237719935,6.06665467002944,1.0217599868774414,-4.365182344113485
1708435635.455296,-2.1096689701080322,-1.334599570637085,-2.5312047640429896,6.065594661026754,1.021929383277893,-4.365806166325704
1708435635.457321,-2.108812093734741,-1.3346594137004395,-2.5313695112811487,6.064473020821371,1.0219917297363281,-4.366511289273397
1708435635.4593337,-2.1080305576324463,-1.3347001832774659,-2.531435791646139,6.063347804337301,1.0221457481384277,-4.3671338001834314
1708435635.4612846,-2.107180595397949,-1.3347235781005402,-2.531531635914938,6.06227587440566,1.0223071575164795,-4.367788139973776
1708435635.4632986,-2.1063101291656494,-1.3346909445575257,-2.531721893941061,6.061017024308004,1.0223864316940308,-4.368528191243307
1708435635.465315,-2.1054394245147705,-1.334824190740921,-2.5318332354175013,6.0598440048988245,1.0225353240966797,-4.369232956563131
1708435635.4673274,-2.104539155960083,-1.3348557215980072,-2.531996552144186,6.058561312943258,1.02260160446167,-4.369840447102682
1708435635.4693065,-2.1036694049835205,-1.3348840338042756,-2.532137457524435,6.057373988419332,1.0227504968643188,-4.370601359997885
1708435635.4712944,-2.1027309894561768,-1.3349240285209198,-2.532236401234762,6.056166517525472,1.0228703022003174,-4.371322456990377
1708435635.473319,-2.1018166542053223,-1.3348823946765442,-2.5323520342456263,6.054873692780294,1.0229504108428955,-4.372052017842428
1708435635.475325,-2.1008665561676025,-1.3349266213229676,-2.5324884096728724,6.053596961289205,1.0230551958084106,-4.372778360043661
1708435635.4773622,-2.099891424179077,-1.3350071770003815,-2.532633368168966,6.052305805474081,1.0232442617416382,-4.373493019734518
1708435635.4793317,-2.0989580154418945,-1.3350391548923035,-2.5327330271350306,6.0509610054786584,1.0233352184295654,-4.374218050633566
1708435635.4813097,-2.0979607105255127,-1.3351316463998337,-2.532888952885763,6.04951428154067,1.023498773574829,-4.3750038782702845
1708435635.4833326,-2.09696626663208,-1.3351223033717652,-2.533004109059469,6.048118817597189,1.023664116859436,-4.37575084367861
1708435635.4853072,-2.0959856510162354,-1.3351745468429108,-2.5331361929522913,6.046726691513815,1.023776650428772,-4.376490418110983
1708435635.4873185,-2.094921112060547,-1.335255355840065,-2.5332353750811976,6.045408355980673,1.0239287614822388,-4.377328936253683
1708435635.4893005,-2.0939691066741943,-1.3353024584105988,-2.533403460179464,6.04394422748641,1.0240398645401,-4.378067676221029
1708435635.491353,-2.0929527282714844,-1.335313842897751,-2.5335682074176233,6.042640793114462,1.0241972208023071,-4.3787564674960535
1708435635.4933035,-2.091881513595581,-1.335376815204956,-2.5336881319629114,6.041248905449667,1.0243295431137085,-4.379522148762838
1708435635.4953258,-2.0908491611480713,-1.3354008954814454,-2.533827606831686,6.0397575972373865,1.0244574546813965,-4.380266014729635
1708435635.497351,-2.089738368988037,-1.3354845953038712,-2.5340164343463343,6.038229691773214,1.0246213674545288,-4.3810017744647425
1708435635.4993148,-2.0886337757110596,-1.3355517846396943,-2.5341933409320276,6.0367843983467,1.024778962135315,-4.381691519414083
1708435635.5013387,-2.0875144004821777,-1.335701273088791,-2.5342910925494593,6.035232412606039,1.024914264678955,-4.382502023373739
1708435635.5033665,-2.0864062309265137,-1.3357407313636322,-2.5344319979297083,6.033695328026571,1.0250825881958008,-4.383352820073263
1708435635.5053086,-2.0853421688079834,-1.335836337213852,-2.534591023121969,6.032196628838339,1.0252149105072021,-4.384111944829122
1708435635.507338,-2.08418869972229,-1.3358422976783295,-2.5347557703601282,6.030754315644064,1.0253878831863403,-4.384922448788778
1708435635.5092974,-2.0830676555633545,-1.3359960180572052,-2.534907404576437,6.029209244042196,1.0255199670791626,-4.385784093533651
1708435635.5113232,-2.081881046295166,-1.3360431653312226,-2.535067860280172,6.027629482537069,1.0256150960922241,-4.386618916188375
1708435635.513323,-2.0807342529296875,-1.336110697393753,-2.5352402369128626,6.026073324471273,1.0258334875106812,-4.3874515930758875
1708435635.5153031,-2.079509973526001,-1.3362063032439728,-2.535363260899679,6.024433362274923,1.025985598564148,-4.388317410145895
1708435635.5173464,-2.07830548286438,-1.3363111478141327,-2.5355895201312464,6.022763955384054,1.0261048078536987,-4.389182154332296
1708435635.5193264,-2.0770528316497803,-1.33635829508815,-2.535736385975973,6.021084654122152,1.0262819528579712,-4.390048090611593
1708435635.521326,-2.0758395195007324,-1.3364784282496949,-2.5358968416797083,6.019440996437826,1.0264006853103638,-4.390909735356466
1708435635.523308,-2.074579954147339,-1.336586282854416,-2.536044184361593,6.017729151039877,1.0265048742294312,-4.391721908246176
1708435635.5253022,-2.0733299255371094,-1.336637334232666,-2.536159340535299,6.016058671265402,1.0267070531845093,-4.392531339322225
1708435635.5273466,-2.0721473693847656,-1.336741493349411,-2.536318604146139,6.014428245812216,1.0268588066101074,-4.393380467091696
1708435635.529312,-2.0708494186401367,-1.3367885065129776,-2.5365119616137903,6.0128657696540735,1.027040719985962,-4.394161049519674
1708435635.531381,-2.0696606636047363,-1.3368483942798157,-2.5366316477404993,6.011207449227133,1.0271704196929932,-4.394986454640524
1708435635.533368,-2.068403482437134,-1.3369636100581666,-2.5368040243731897,6.009559619217672,1.0273971557617188,-4.395804468785421
1708435635.535387,-2.067133903503418,-1.3370430630496521,-2.5369425455676478,6.007845032006063,1.027506947517395,-4.396671597157614
1708435635.5373244,-2.065828323364258,-1.3371882301620026,-2.537152353917257,6.0061213848884485,1.0276556015014648,-4.397440377865927
1708435635.5393155,-2.0645315647125244,-1.3372634512237092,-2.5373199621783655,6.004423486977377,1.027807354927063,-4.3982970158206385
1708435635.5413175,-2.063174247741699,-1.3373062771609803,-2.537492577229635,6.0026765940483,1.0280580520629883,-4.399174396191732
1708435635.5433254,-2.0618796348571777,-1.3374668222716828,-2.5376721064196985,6.0009511587913416,1.0281680822372437,-4.400085632001058
1708435635.5453238,-2.060560941696167,-1.3375258904746552,-2.5377865473376673,5.999265181809225,1.0284066200256348,-4.400885526333944
1708435635.547369,-2.059209108352661,-1.3376540702632447,-2.5380054155932825,5.997476446419515,1.0285170078277588,-4.401772801076071
1708435635.549305,-2.0578627586364746,-1.3377939325622101,-2.538147751485006,5.995665180474081,1.0287270545959473,-4.4026647249804896
1708435635.5512996,-2.056401014328003,-1.337893233900406,-2.538323227559225,5.993764745980062,1.0288801193237305,-4.4035988489734095
1708435635.5533507,-2.055001974105835,-1.3380007606795807,-2.5384865442859095,5.9918672917182825,1.02904212474823,-4.404478971158163
1708435635.5552998,-2.0536224842071533,-1.3380587112954636,-2.53870398203005,5.990133392601766,1.0292434692382812,-4.405422512684957
1708435635.5572984,-2.052236318588257,-1.3382488650134583,-2.538863007222311,5.988277184754171,1.029407024383545,-4.406318966542379
1708435635.559295,-2.0508055686950684,-1.338331402545311,-2.5390759150134485,5.986361729889669,1.0295754671096802,-4.4072434345828455
1708435635.5613286,-2.049424886703491,-1.3384389293244858,-2.539264742528097,5.984570729523458,1.0297483205795288,-4.408110562955038
1708435635.5633185,-2.048004627227783,-1.3386239421418686,-2.539349381123678,5.982732641487875,1.0299285650253296,-4.409048859273092
1708435635.5652874,-2.046616315841675,-1.3387065541795273,-2.539635245000021,5.980966794281759,1.030064344406128,-4.409908239041464
1708435635.5673356,-2.0452089309692383,-1.3388660115054627,-2.539849344884054,5.9792024967964075,1.030248761177063,-4.410782043133871
1708435635.5693061,-2.043813943862915,-1.3390063655427475,-2.539957825337545,5.977278458863058,1.0304051637649536,-4.411601726208822
1708435635.571315,-2.042384624481201,-1.3391054731658478,-2.5402124563800257,5.975424873619833,1.0304994583129883,-4.412444655095236
1708435635.5733173,-2.040865898132324,-1.3392205846360703,-2.540352169667379,5.973489272385397,1.0307823419570923,-4.413296047841207
1708435635.575316,-2.0394182205200195,-1.3393850189498444,-2.540534798298971,5.971643316536703,1.03093421459198,-4.414177004490988
1708435635.5773344,-2.037945508956909,-1.3394469779780884,-2.540759865437643,5.969790088921346,1.031105875968933,-4.415108505879537
1708435635.5793135,-2.036468505859375,-1.3395901036313553,-2.540942970906393,5.9679709551628015,1.0313233137130737,-4.416026536618368
1708435635.581287,-2.0349981784820557,-1.3397838485291977,-2.5410779158221644,5.966179597168722,1.0314784049987793,-4.416966621075765
1708435635.5833004,-2.033557653427124,-1.3398903024247666,-2.541352097188131,5.964324462204733,1.0316554307937622,-4.417949144040243
1708435635.5852957,-2.0320825576782227,-1.3400955659202118,-2.541482988988058,5.962467419892111,1.0318490266799927,-4.418814126645223
1708435635.587335,-2.0305442810058594,-1.340132625108101,-2.5416868368731897,5.9605891583259485,1.0320327281951904,-4.419764343892233
1708435635.5893025,-2.029045343399048,-1.3403415542891999,-2.5418787638293665,5.958632457047262,1.0322611331939697,-4.420684281979696
1708435635.5913024,-2.027517080307007,-1.3404565912536164,-2.5421114603625696,5.956710445671835,1.0324697494506836,-4.421572748814718
1708435635.5933003,-2.0259604454040527,-1.3406077039292832,-2.5422986189471644,5.9547393200691126,1.0325965881347656,-4.422491375599996
1708435635.5953043,-2.0244956016540527,-1.3407685470632096,-2.542495075856344,5.952757942467489,1.032837986946106,-4.4233697096454065
1708435635.5972884,-2.022927761077881,-1.340947837834694,-2.542715374623434,5.950969326287069,1.0329738855361938,-4.424252096806661
1708435635.599286,-2.0213968753814697,-1.341135786180832,-2.542914930974142,5.949049699097433,1.0332279205322266,-4.425134364758627
1708435635.6013093,-2.019871234893799,-1.3412784946015854,-2.5431516806231897,5.947171199112692,1.0333871841430664,-4.425959293042318
1708435635.6032934,-2.0183260440826416,-1.3414577853730698,-2.5432825724231165,5.945265400200643,1.0335917472839355,-4.42683977285494
1708435635.6053007,-2.01669979095459,-1.3416240078261872,-2.5435522238360804,5.943342554360189,1.033774971961975,-4.427753392850057
1708435635.6073198,-2.015082836151123,-1.3418286007693787,-2.543678347264425,5.94133876541213,1.0339961051940918,-4.42861777940859
1708435635.6093295,-2.013427734375,-1.3420164597085495,-2.543906275426046,5.939456808357992,1.0342134237289429,-4.429533902798788
1708435635.6112978,-2.011773109436035,-1.342182771568634,-2.5441015402423304,5.937554466515341,1.0344212055206299,-4.430449430142538
1708435635.613324,-2.0102038383483887,-1.3424031299403687,-2.544358793889181,5.935660946160116,1.0346583127975464,-4.431346003209249
1708435635.615298,-2.008561134338379,-1.342565433388092,-2.5445542971240442,5.9338053343589685,1.0348420143127441,-4.432269994412557
1708435635.6173332,-2.0069808959960938,-1.3427655410817643,-2.544737164174215,5.931828367501058,1.0350388288497925,-4.433150593434469
1708435635.6193078,-2.005293607711792,-1.34298491597686,-2.5450320879565638,5.929926621704855,1.0352636575698853,-4.434115592633383
1708435635.6212893,-2.0036628246307373,-1.3431927126697083,-2.545156780873434,5.927941071778097,1.0354639291763306,-4.435061637555258
1708435635.6233106,-2.002016067504883,-1.3433708560517807,-2.545443121586935,5.925871956139364,1.0356999635696411,-4.435983959828512
1708435635.6252995,-2.0003857612609863,-1.3436110478690644,-2.5456653277026575,5.923872458725729,1.0358928442001343,-4.436945621167318
1708435635.6273365,-1.9987380504608154,-1.343777359729149,-2.54590088525881,5.921823966294088,1.036165714263916,-4.437915507947103
1708435635.6293128,-1.9971038103103638,-1.3440579634955903,-2.546173397694723,5.919905888825216,1.0363569259643555,-4.438891474400656
1708435635.6313484,-1.9954373836517334,-1.344273255472519,-2.546438519154684,5.917995321541586,1.0365984439849854,-4.439800326024191
1708435635.633324,-1.993828535079956,-1.3444513988545914,-2.5466533342944544,5.916112172394552,1.036818265914917,-4.440759126340048
1708435635.6353135,-1.992163062095642,-1.3446818751147767,-2.5469513575183313,5.914167034416952,1.037022590637207,-4.441653911267416
1708435635.6373334,-1.9905054569244385,-1.344905824666359,-2.547128979359762,5.912203299790182,1.0372315645217896,-4.442567173634664
1708435635.6393008,-1.988798975944519,-1.3451536160758515,-2.5473972002612513,5.910287368088522,1.0375256538391113,-4.443326536809103
1708435635.641293,-1.9871464967727661,-1.3453526508859177,-2.5476372877704065,5.908402550011434,1.0377365350723267,-4.444175068532125
1708435635.6433415,-1.9854910373687744,-1.3456045401147385,-2.5478859583484095,5.90668665149764,1.0379934310913086,-4.445054117833273
1708435635.645318,-1.9838366508483887,-1.3457418394139786,-2.548154417668478,5.904779779701986,1.0382503271102905,-4.445943061505453
1708435635.6473393,-1.9821429252624512,-1.3460350793651124,-2.548422876988546,5.9028310654456995,1.038487434387207,-4.446981732045309
1708435635.6492937,-1.9804619550704956,-1.3462772232345124,-2.5486865679370325,5.900866615563192,1.0386863946914673,-4.447943393384115
1708435635.6513147,-1.978685975074768,-1.3465001744082947,-2.548946205769674,5.898973214417257,1.038952112197876,-4.448908631001608
1708435635.6533158,-1.9769701957702637,-1.3467440766147156,-2.5491936842547815,5.897075998574056,1.0392286777496338,-4.449883047734396
1708435635.6553307,-1.9752776622772217,-1.3469883066466828,-2.5495100657092493,5.895224559098043,1.039394736289978,-4.450860444699423
1708435635.6573248,-1.973631739616394,-1.347214550977089,-2.5497167746173304,5.893306481629171,1.0396525859832764,-4.451688234006063
1708435635.659317,-1.9718681573867798,-1.3474415701678772,-2.5499776045428675,5.891390430718221,1.0398492813110352,-4.452667419110433
1708435635.6612995,-1.9701412916183472,-1.3476557296565552,-2.5502494017230433,5.88952265956954,1.0400824546813965,-4.453611199055807
1708435635.6633174,-1.9684537649154663,-1.3479243379882355,-2.5505176226245325,5.8876685974891565,1.0403467416763306,-4.4545363823520105
1708435635.665308,-1.966707706451416,-1.3482328814319153,-2.5507682005511683,5.885739910393514,1.0406266450881958,-4.455456082020895
1708435635.6673055,-1.964949607849121,-1.3484375041774292,-2.551134173070089,5.88384376743392,1.0409151315689087,-4.456323806439535
1708435635.6692872,-1.9632261991500854,-1.3487375688603898,-2.5513933340655726,5.881953823357382,1.0411874055862427,-4.457268897687094
1708435635.6713166,-1.9614275693893433,-1.3490242672017594,-2.5517259279834192,5.880142676621237,1.041460394859314,-4.458151761685507
1708435635.6733284,-1.959676742553711,-1.349247084265091,-2.55200964609255,5.878234731941976,1.0417402982711792,-4.459081236516134
1708435635.675296,-1.9579224586486816,-1.3495095831206818,-2.5523093382464808,5.876398551255026,1.0420421361923218,-4.45999521413912
1708435635.6773252,-1.9561645984649658,-1.3498743933490296,-2.5526421705829065,5.874569880753317,1.0422979593276978,-4.460858408604757
1708435635.6793056,-1.9543936252593994,-1.3501376074603577,-2.5529914538012903,5.872715222626486,1.0425546169281006,-4.461817328129904
1708435635.6812882,-1.9525867700576782,-1.350395144229271,-2.553274933491842,5.8708908436592,1.0429034233093262,-4.462721649800436
1708435635.683332,-1.9507861137390137,-1.3507429224303742,-2.5536020437823694,5.8689472554023645,1.043176531791687,-4.463663880025045
1708435635.6853025,-1.948988676071167,-1.3510375779918213,-2.5538938681231897,5.867077100067892,1.0435220003128052,-4.464615885411398
1708435635.6873293,-1.94717276096344,-1.3513084065965195,-2.554180685673849,5.865232813149252,1.0437612533569336,-4.465589467679159
1708435635.6892989,-1.9453561305999756,-1.3515946430018921,-2.5546026865588587,5.863359439163961,1.0440902709960938,-4.466588918362753
1708435635.6913006,-1.9435654878616333,-1.3519878697446366,-2.554882351552145,5.861437666207113,1.0443252325057983,-4.467522207890646
1708435635.6933405,-1.9417243003845215,-1.3522083920291443,-2.555253807698385,5.859629380493917,1.044683814048767,-4.468519632016317
1708435635.6953104,-1.939887523651123,-1.3525639188340683,-2.5555244127856653,5.857860910683431,1.0449515581130981,-4.46947688261141
1708435635.6973393,-1.9380661249160767,-1.3529607069543381,-2.5559333006488245,5.856044876366415,1.0453505516052246,-4.470386091862814
1708435635.699315,-1.9361770153045654,-1.353242353802063,-2.556293551121847,5.8541918871696375,1.0456457138061523,-4.47139805952181
1708435635.701349,-1.9343390464782715,-1.3536574852517624,-2.5566533247577112,5.852394330292501,1.0460314750671387,-4.472387735043661
1708435635.7033558,-1.9324735403060913,-1.3539673548987885,-2.5570088068591517,5.850589024811544,1.046289324760437,-4.473385278378622
1708435635.7052884,-1.9306012392044067,-1.3543835145286103,-2.557424847279684,5.848718631058492,1.0465902090072632,-4.4743022362338465
1708435635.7073615,-1.9287738800048828,-1.354722575550415,-2.557756010686056,5.846971380501547,1.0469321012496948,-4.47516101995577
1708435635.7092855,-1.9268908500671387,-1.3551095438054581,-2.5581772963153284,5.845213997154989,1.0472732782363892,-4.4761040846454065
1708435635.7113214,-1.9249966144561768,-1.3553933513215561,-2.558556620274679,5.843476044922628,1.0476263761520386,-4.4770663420306605
1708435635.7133281,-1.9231451749801636,-1.3557771307281037,-2.5589447657214563,5.841767418175497,1.0480560064315796,-4.478067700062887
1708435635.715314,-1.9212324619293213,-1.3562129002860566,-2.5593321959124964,5.839928734093466,1.0484689474105835,-4.479118768368856
1708435635.7173436,-1.919313907623291,-1.3565944594195862,-2.5597758928882044,5.8381409523780725,1.0488524436950684,-4.480236117039816
1708435635.719312,-1.9174280166625977,-1.3569936764291306,-2.560225311909811,5.836331236153402,1.049233078956604,-4.481245462094442
1708435635.7213285,-1.9155293703079224,-1.3574042928269883,-2.560640875493185,5.834555256157675,1.0496059656143188,-4.482245508824484
1708435635.72333,-1.9135807752609253,-1.35777039945636,-2.5610573927508753,5.832742917328634,1.0500036478042603,-4.483291808758871
1708435635.7253065,-1.9116953611373901,-1.358120710854866,-2.5614612738238733,5.831008899002828,1.0503555536270142,-4.4843056837665
1708435635.7273622,-1.9097630977630615,-1.358531342153885,-2.5619311968432825,5.829177844315328,1.050659418106079,-4.485307518635885
1708435635.729319,-1.907848596572876,-1.358930305843689,-2.5623460451709192,5.8274738667304895,1.0510526895523071,-4.486320678387777
1708435635.7313468,-1.905881404876709,-1.3593687576106568,-2.5628348032580774,5.825714576035299,1.0514309406280518,-4.487306658421652
1708435635.7334313,-1.9039106369018555,-1.3598031562617798,-2.563298765813009,5.824012267380514,1.0518110990524292,-4.488263670598165
1708435635.7353399,-1.901935338973999,-1.3601894688657303,-2.563798729573385,5.822348940163412,1.0521875619888306,-4.489271704350607
1708435635.737357,-1.9000451564788818,-1.3606640857509156,-2.5643284956561487,5.8205416081245325,1.0526772737503052,-4.490296188985006
1708435635.7393153,-1.8980400562286377,-1.3611480605653306,-2.5647457281695765,5.818929779320516,1.0530730485916138,-4.491291467343466
1708435635.7413387,-1.8960343599319458,-1.36149616659198,-2.565176073704855,5.817130315094747,1.0535141229629517,-4.492248479519979
1708435635.7433476,-1.8940372467041016,-1.361972228889801,-2.5657740275012415,5.815450060158529,1.0539354085922241,-4.493274990712301
1708435635.74533,-1.892040491104126,-1.3623539966395875,-2.5662499109851282,5.81376479843215,1.0544623136520386,-4.4943406025515955
1708435635.7473533,-1.8900049924850464,-1.3628454071334382,-2.566791359578268,5.812207686692037,1.0548652410507202,-4.495372597371237
1708435635.749295,-1.8880928754806519,-1.3633241814425965,-2.5672767798053187,5.810536968498983,1.0554122924804688,-4.496411267911093
1708435635.7512927,-1.886010766029358,-1.3637670886567612,-2.567879025136129,5.8088042614753626,1.0559083223342896,-4.497529927884237
1708435635.7533538,-1.8839524984359741,-1.3642333459905167,-2.5684147516833704,5.807105171471395,1.0564208030700684,-4.498636309300558
1708435635.7553651,-1.8819330930709839,-1.3647116136601944,-2.5689695517169397,5.805457460671224,1.0568286180496216,-4.499698940907614
1708435635.7573416,-1.8799269199371338,-1.365246133213379,-2.569498125706808,5.803813922196188,1.0573225021362305,-4.500797692929403
1708435635.759324,-1.8779598474502563,-1.3656724852374573,-2.570073668156759,5.802251326828756,1.0577837228775024,-4.501775924359457
1708435635.7613018,-1.8759781122207642,-1.36606918395076,-2.570629660283224,5.800601827889242,1.058142066001892,-4.502976838742391
1708435635.7632937,-1.8740274906158447,-1.3665566456368943,-2.5712016264544886,5.7989245531852625,1.0586687326431274,-4.503939692174093
1708435635.7653458,-1.8720070123672485,-1.3669946056655427,-2.5717619101153772,5.797296273499288,1.0591256618499756,-4.504936758671896
1708435635.767331,-1.8699935674667358,-1.3675216150334855,-2.5723381678210657,5.795847880631246,1.0595697164535522,-4.505988303815023
1708435635.769305,-1.8680651187896729,-1.368032382135727,-2.5728941599475306,5.794374334603109,1.0601450204849243,-4.506966416035787
1708435635.7713463,-1.8660799264907837,-1.3685199183276673,-2.573503080998556,5.79283486583785,1.0606377124786377,-4.507945720349447
1708435635.773317,-1.864073395729065,-1.368960754280426,-2.5740938822375696,5.791210162430563,1.0611549615859985,-4.509006683026449
1708435635.7753243,-1.8619976043701172,-1.369531364446022,-2.574639622365133,5.7895943997199915,1.061691403388977,-4.510123197232382
1708435635.7773387,-1.8600027561187744,-1.3700013023665925,-2.5752580801593226,5.788144457131185,1.0622371435165405,-4.511271897946493
1708435635.779309,-1.8579936027526855,-1.3704795700362702,-2.575848166142599,5.786660063057699,1.0627254247665405,-4.512344423924581
1708435635.7813091,-1.8560847043991089,-1.370983065371849,-2.5764032045947474,5.785134660988607,1.0632418394088745,-4.513442699109213
1708435635.7833414,-1.8541381359100342,-1.3714807492545624,-2.5771313349353235,5.783783781319418,1.0637682676315308,-4.514501873646871
1708435635.7853258,-1.852173089981079,-1.3720020365766068,-2.577705208455221,5.7823232291038416,1.0642610788345337,-4.515563193951742
1708435635.787345,-1.850177526473999,-1.3725455713323136,-2.578346554433004,5.780877935677328,1.0648560523986816,-4.516655508671896
1708435635.7893085,-1.8482210636138916,-1.3730749648860474,-2.5790134111987513,5.779493558197775,1.06537926197052,-4.517739001904623
1708435635.7913153,-1.8462696075439453,-1.3735630077174683,-2.5797224680529993,5.778000581055441,1.0659157037734985,-4.518806759511129
1708435635.7933269,-1.8443000316619873,-1.374122978453972,-2.580398146306173,5.776555287628927,1.0664567947387695,-4.5198931137668055
1708435635.795308,-1.8423398733139038,-1.3746620428613205,-2.581045452748434,5.775218951493063,1.0670740604400635,-4.520906273518698
1708435635.7973332,-1.8403911590576172,-1.3751638692668458,-2.581684176121847,5.77384232261733,1.067569375038147,-4.521981541310446
1708435635.7993054,-1.8384292125701904,-1.3757607501796265,-2.582348410283224,5.772473323136129,1.068163514137268,-4.522958342229025
1708435635.8013048,-1.8364968299865723,-1.376280055647232,-2.583064142857687,5.771078693657675,1.0686023235321045,-4.524080340062277
1708435635.803357,-1.8345179557800293,-1.3768347960761567,-2.583754603062765,5.769775616913595,1.0692129135131836,-4.52513569990267
1708435635.805302,-1.8325453996658325,-1.3773774069598694,-2.584437672291891,5.768479454308309,1.0697593688964844,-4.526168290768759
1708435635.807355,-1.8305639028549194,-1.3779802930406113,-2.5851734320269983,5.767086374550619,1.0704498291015625,-4.527285401021139
1708435635.8093195,-1.8285868167877197,-1.378546656375267,-2.585888210927145,5.765720474510946,1.071128249168396,-4.528391424809591
1708435635.8113146,-1.8266539573669434,-1.3791362208179017,-2.5865984598742884,5.764460313111105,1.071760654449463,-4.529474798833029
1708435635.8133454,-1.8247966766357422,-1.3796577018550416,-2.587329689656393,5.7632802603538416,1.072286605834961,-4.530596439038412
1708435635.8152912,-1.822832703590393,-1.3802336019328614,-2.5880699793445032,5.762075292855062,1.072843313217163,-4.531669561062948
1708435635.8173218,-1.820994257926941,-1.3807843041471024,-2.588785235081808,5.760806429177084,1.0733842849731445,-4.532780353222982
1708435635.8193483,-1.8190782070159912,-1.3813292247108002,-2.589487139378683,5.759573209076681,1.0739094018936157,-4.533917371426718
1708435635.8213124,-1.8171943426132202,-1.3819422733834763,-2.590288225804464,5.758394706040182,1.0744855403900146,-4.534864966069357
1708435635.8233466,-1.8152263164520264,-1.3825338047793885,-2.591038767491476,5.7571765063102625,1.075107216835022,-4.535879198704855
1708435635.8253117,-1.8133937120437622,-1.3831125360778351,-2.5918307940112513,5.755942094116964,1.0757402181625366,-4.536991421376364
1708435635.8273153,-1.8114995956420898,-1.3837437343648453,-2.592604700719015,5.754733669548788,1.076343059539795,-4.5380246082889
1708435635.8293047,-1.8095747232437134,-1.3843009930900116,-2.5933547655688685,5.75359212139205,1.0769585371017456,-4.539090696965353
1708435635.8313522,-1.8076928853988647,-1.3848726016334076,-2.5941417852984827,5.752485739975729,1.0776057243347168,-4.54019004503359
1708435635.8333926,-1.8058574199676514,-1.385471911435463,-2.594895664845602,5.751454341202535,1.0781444311141968,-4.541332546864645
1708435635.835304,-1.804024577140808,-1.3860532653382798,-2.5956464449511927,5.7504461882408044,1.0787121057510376,-4.54239005247225
1708435635.8372917,-1.8021131753921509,-1.3866370481303711,-2.5964587370501917,5.749371993332662,1.079350471496582,-4.543564502392904
1708435635.839295,-1.8002254962921143,-1.3873416644385834,-2.5972889105426233,5.748280155449667,1.0799826383590698,-4.544600311909811
1708435635.8413203,-1.7983554601669312,-1.3879404228976746,-2.5981746355639856,5.74722837188796,1.0806728601455688,-4.545729939137594
1708435635.8433216,-1.796439528465271,-1.3885343682817002,-2.5989721457110804,5.746235239296713,1.0813161134719849,-4.546856824551718
1708435635.8453083,-1.7945518493652344,-1.3891526621631165,-2.599769655858175,5.745240080147543,1.0819371938705444,-4.547942582760946
1708435635.8472984,-1.7927613258361816,-1.3898330193809052,-2.600668970738546,5.744236814766683,1.0824803113937378,-4.548962775860922
1708435635.8493028,-1.7908973693847656,-1.3904686731151124,-2.6014795939074915,5.743289816170492,1.0830878019332886,-4.550016585980551
1708435635.851338,-1.7891433238983154,-1.3910916608623047,-2.6023204962359827,5.742343652039327,1.0836966037750244,-4.551042858754293
1708435635.8533156,-1.7873353958129883,-1.391668976550438,-2.603125874196188,5.741379844933309,1.0843554735183716,-4.552048508320944
1708435635.8553145,-1.7855201959609985,-1.3923241657069703,-2.6040170828448694,5.740502106934347,1.0850162506103516,-4.553091351185934
1708435635.8573089,-1.7837365865707397,-1.3929705929807206,-2.60482627550234,5.739545213967123,1.0856316089630127,-4.554169241582052
1708435635.859318,-1.7819575071334839,-1.3935853701880951,-2.6057472864734095,5.738655793457784,1.0863776206970215,-4.555148784314291
1708435635.8613183,-1.7801318168640137,-1.3942281317761918,-2.6066461245166224,5.737780558853903,1.0870299339294434,-4.556190077458517
1708435635.8633122,-1.7784152030944824,-1.3948792678168793,-2.6074522177325647,5.736957537918844,1.087730050086975,-4.557267610226766
1708435635.8653116,-1.776658535003662,-1.3955227148583909,-2.608392063771383,5.736159312516012,1.088350772857666,-4.558290306721823
1708435635.86733,-1.7749050855636597,-1.3962146502784272,-2.6093042532550257,5.735315072327413,1.0890151262283325,-4.559371773396627
1708435635.8692987,-1.7731355428695679,-1.3967738610557099,-2.6101370493518274,5.734568583756246,1.0896191596984863,-4.5604931751834314
1708435635.8713102,-1.7713754177093506,-1.3974133890918274,-2.611044947301046,5.733834969788351,1.0903123617172241,-4.561504427586691
1708435635.8733206,-1.7696192264556885,-1.3981332343867798,-2.6119824091540735,5.733135568886556,1.0909453630447388,-4.562598530446188
1708435635.8753195,-1.767877459526062,-1.398819775586464,-2.6129260698901575,5.732391345291891,1.0916345119476318,-4.563705507908956
1708435635.8773596,-1.7661981582641602,-1.3995312017253418,-2.61381179491152,5.731784927635946,1.0922670364379883,-4.564717117940084
1708435635.8793197,-1.7644635438919067,-1.4001838874867936,-2.6147339979754847,5.731193887978353,1.0929073095321655,-4.565738979970114
1708435635.8812943,-1.762803077697754,-1.4008667928031464,-2.615716520939962,5.730493175774374,1.0936132669448853,-4.566721622143881
1708435635.8833067,-1.7610535621643066,-1.4015192550471802,-2.616697136555807,5.729882705002584,1.094245195388794,-4.567757312451498
1708435635.8853018,-1.7593741416931152,-1.402209149008133,-2.617556635533468,5.72926806190566,1.094901204109192,-4.568804089223043
1708435635.8873339,-1.757707953453064,-1.4028182488730927,-2.618556801472799,5.728721010475912,1.09561288356781,-4.569703761731283
1708435635.8893049,-1.7560771703720093,-1.40347774446521,-2.6194751898394983,5.728157150536337,1.096240520477295,-4.570607010518209
1708435635.8913028,-1.7544560432434082,-1.4041407269290467,-2.620415751134054,5.7276015160377405,1.0968564748764038,-4.571585480366842
1708435635.8933058,-1.7528033256530762,-1.4048600059798737,-2.6213131586657923,5.7271402952964685,1.0975544452667236,-4.572611157094137
1708435635.8953166,-1.7512686252593994,-1.4055229139379044,-2.6223090330706995,5.726558434754171,1.098214864730835,-4.57371169725527
1708435635.8973005,-1.749572992324829,-1.4062098276666184,-2.62331992784609,5.726104008942404,1.0988589525222778,-4.574790302907125
1708435635.899307,-1.747948169708252,-1.4068966817906876,-2.6243189016925257,5.72567759731368,1.0995514392852783,-4.575683895741598
1708435635.901308,-1.7463626861572266,-1.407615603213646,-2.6252718607531946,5.72523711898879,1.1002252101898193,-4.576763693486349
1708435635.903324,-1.744814157485962,-1.4082291436246415,-2.6263487974749964,5.724830853730001,1.1008617877960205,-4.577735368405477
1708435635.905304,-1.7432161569595337,-1.4089362037232895,-2.627293888722555,5.724426376610555,1.1014492511749268,-4.578686539326803
1708435635.9073074,-1.7416101694107056,-1.4096139681390305,-2.6282885710345667,5.724128591805258,1.1020407676696777,-4.579668466244833
1708435635.9093325,-1.7400652170181274,-1.4103423070958634,-2.6293092409717005,5.723720061569967,1.1026495695114136,-4.580607597027914
1708435635.9112916,-1.7384699583053589,-1.410988227730133,-2.630334440861837,5.723409640579977,1.1033395528793335,-4.581543509160177
1708435635.913313,-1.7369568347930908,-1.4116947662881394,-2.6312828699695032,5.723104941635885,1.1039968729019165,-4.582395736371176
1708435635.9153728,-1.735424280166626,-1.4125209015658875,-2.632352892552511,5.722830641060629,1.1046768426895142,-4.583330575619833
1708435635.9173028,-1.7339178323745728,-1.4131543648293992,-2.633388344441549,5.722632157593527,1.105329155921936,-4.584203783665792
1708435635.9193125,-1.7324329614639282,-1.4138887536576767,-2.634399954472677,5.722352015763082,1.1060179471969604,-4.585192028676168
1708435635.921307,-1.7309435606002808,-1.4145872753909607,-2.635427776967184,5.722091424256124,1.1065919399261475,-4.58612567583193
1708435635.9233289,-1.7294708490371704,-1.4153662335923691,-2.636453453694479,5.72192810752944,1.107253909111023,-4.586992327366964
1708435635.925298,-1.7279338836669922,-1.4160474997809906,-2.6374333540545862,5.721748339920797,1.107845425605774,-4.58787185350527
1708435635.9273143,-1.7264814376831055,-1.4167587471059342,-2.638435665761129,5.7215847847755334,1.1084473133087158,-4.588822189961569
1708435635.9293182,-1.7250185012817383,-1.4175747346929093,-2.6394534746753138,5.721498596459188,1.108986496925354,-4.589646283780233
1708435635.9313476,-1.7235549688339233,-1.41835309684787,-2.640463415776388,5.721381890564718,1.109571933746338,-4.590561334286825
1708435635.9333446,-1.7220710515975952,-1.4191075724414368,-2.6415064970599573,5.721294629364767,1.1102126836776733,-4.591499153767721
1708435635.9353387,-1.720615029335022,-1.4198854279569169,-2.6426590124713343,5.721276032715597,1.1109107732772827,-4.592414442692892
1708435635.937356,-1.7191461324691772,-1.4206641775420685,-2.6436954180346888,5.721121656685629,1.1116694211959839,-4.593316499386923
1708435635.9393299,-1.71768319606781,-1.4214638334563752,-2.64478570619692,5.721204387932577,1.1123111248016357,-4.594223205243246
1708435635.9413078,-1.716246247291565,-1.4222780031016846,-2.645867172871725,5.721192109375753,1.1129018068313599,-4.5951003471957605
1708435635.9433222,-1.7148903608322144,-1.4230408680490036,-2.6468470732318323,5.721155273705282,1.1134676933288574,-4.595939580594198
1708435635.9453259,-1.713435173034668,-1.4238727551749726,-2.6479135195361536,5.721269714623251,1.1140682697296143,-4.596904460583822
1708435635.9473243,-1.7120763063430786,-1.4245954018882294,-2.648989502583639,5.72136555889205,1.1147332191467285,-4.597768608723776
1708435635.9493058,-1.7106833457946777,-1.42548160374675,-2.650142017995016,5.721428501396932,1.1154505014419556,-4.598563377057211
1708435635.9513917,-1.7092570066452026,-1.426283912067749,-2.6512842814074915,5.721536624222555,1.1162495613098145,-4.599350158368246
1708435635.9533176,-1.7078697681427002,-1.4271543484977265,-2.6523874441729944,5.721617328911581,1.1169770956039429,-4.600100223218099
1708435635.9553185,-1.706437587738037,-1.4280299705317994,-2.6534720102893274,5.721683728485861,1.117599368095398,-4.600934569035665
1708435635.957326,-1.7050940990447998,-1.4287920904210587,-2.6545544306384485,5.721815573960104,1.118125557899475,-4.601727430020468
1708435635.9593058,-1.7037009000778198,-1.429678351884224,-2.655619208012716,5.722005235939779,1.118712067604065,-4.60257333913912
1708435635.9613156,-1.7023391723632812,-1.4305086892894288,-2.656724516545431,5.722189652710714,1.1192318201065063,-4.6034351030932825
1708435635.9633443,-1.7009737491607666,-1.43133036911998,-2.657862726842062,5.722394335060873,1.119816780090332,-4.604242149983541
1708435635.9653106,-1.6995725631713867,-1.4322843712619324,-2.6589883009540003,5.722585189133444,1.1204910278320312,-4.605127159749166
1708435635.9673529,-1.698133945465088,-1.433238149886467,-2.660152022038595,5.722887146263876,1.1210824251174927,-4.606013480816976
1708435635.9693112,-1.6968152523040771,-1.4340550762465973,-2.6613176504718226,5.723049509316244,1.1217143535614014,-4.606739107762472
1708435635.9713054,-1.695449709892273,-1.4349550914815445,-2.662480179463522,5.723407017975607,1.1223490238189697,-4.607617203389303
1708435635.9733422,-1.6940597295761108,-1.4358849984458466,-2.6635802427874964,5.7237141011054895,1.1229124069213867,-4.608347360287802
1708435635.975312,-1.6927335262298584,-1.436766193514206,-2.664774719868795,5.724091398506918,1.1235054731369019,-4.609154764805929
1708435635.9773302,-1.6914169788360596,-1.437702016239502,-2.6659238974200647,5.724417555123129,1.1240570545196533,-4.609890643750326
1708435635.979313,-1.69004225730896,-1.4386613380960007,-2.667030159627096,5.724777805596151,1.1246124505996704,-4.610666100178854
1708435635.981307,-1.6886869668960571,-1.439550907616951,-2.668196980153219,5.725189912110128,1.1251758337020874,-4.611353460942404
1708435635.9833438,-1.6872756481170654,-1.4405259949019928,-2.669347349797384,5.725605356484213,1.1258057355880737,-4.6121254603015345
1708435635.9853227,-1.6859650611877441,-1.4414291840842743,-2.670478169118063,5.726053583412924,1.1264152526855469,-4.612830583249227
1708435635.9873536,-1.6845790147781372,-1.4424238961986084,-2.6716721693622034,5.726509678154745,1.126975417137146,-4.6135152021991175
1708435635.989311,-1.6831914186477661,-1.4433917266181489,-2.6728578249560755,5.726973998337545,1.1275804042816162,-4.614152375851766
1708435635.991336,-1.6818947792053223,-1.4443669629148026,-2.674077097569601,5.7274407027061365,1.1281111240386963,-4.614903990422384
1708435635.9933293,-1.680565595626831,-1.4452965569547196,-2.675272051488058,5.727985727577963,1.1287482976913452,-4.615585748349325
1708435635.9952922,-1.679215908050537,-1.446300597195961,-2.676424805318014,5.728441464691915,1.1292725801467896,-4.616356078778402
1708435635.99733,-1.6778981685638428,-1.4472587418607255,-2.677591387425558,5.728895890503683,1.1298176050186157,-4.616975967084066
1708435635.9993057,-1.6765742301940918,-1.4482509207776566,-2.6787849108325403,5.729390489846029,1.1303577423095703,-4.617685858403341
1708435636.0012932,-1.6752821207046509,-1.4492324602654953,-2.6799383799182337,5.729924785881796,1.130919337272644,-4.618345801030294
1708435636.0033336,-1.673973798751831,-1.4501947623542328,-2.681148354207174,5.730391013413229,1.1314467191696167,-4.619038287793295
1708435636.005319,-1.6726847887039185,-1.4512094047716637,-2.6823695341693323,5.730930673867025,1.1320078372955322,-4.619712297116415
1708435636.0073445,-1.6713365316390991,-1.4522928980043908,-2.6834831873523157,5.731538760453024,1.1325312852859497,-4.620350186024801
1708435636.0093071,-1.6700645685195923,-1.4532792058638115,-2.684756104146139,5.73213158824996,1.1330970525741577,-4.620967213307516
1708435636.0113034,-1.6687812805175781,-1.4543088164976616,-2.6859784762011927,5.732601511269369,1.133629560470581,-4.621687356625692
1708435636.0133207,-1.6674302816390991,-1.4553680133870621,-2.6871159712420862,5.733213889389791,1.1341705322265625,-4.62234336534609
1708435636.0152895,-1.6661299467086792,-1.4564307493022461,-2.688260618840353,5.733797299652853,1.1346378326416016,-4.622968498860494
1708435636.0173452,-1.6648083925247192,-1.457411677842476,-2.6894798914538782,5.734397041588583,1.1351300477981567,-4.623569194470541
1708435636.019317,-1.6635046005249023,-1.4585312393358727,-2.6906548182116907,5.73496030548171,1.1356065273284912,-4.624167863522665
1708435636.021305,-1.6621875762939453,-1.4595899817398568,-2.6917954126941126,5.735649215966024,1.1360749006271362,-4.62480611005892
1708435636.0233274,-1.6608872413635254,-1.4607038658908387,-2.6930058638202112,5.736272918968954,1.136572241783142,-4.6253878513919275
1708435636.0253024,-1.6595776081085205,-1.4617496740869065,-2.6942020098315638,5.7369645712669275,1.1370877027511597,-4.625948611889974
1708435636.027336,-1.658300518989563,-1.4628721338561554,-2.6953921953784388,5.737502085953512,1.137665033340454,-4.626600567494528
1708435636.0292983,-1.6570173501968384,-1.464032070045807,-2.696517292653219,5.738190877228536,1.1382384300231934,-4.627132956181661
1708435636.031322,-1.6557602882385254,-1.465086118584015,-2.6976469198810022,5.738850462227621,1.1387344598770142,-4.627707306538717
1708435636.0333614,-1.6544932126998901,-1.4661959049156685,-2.6987603346454065,5.739506470948019,1.1391819715499878,-4.62821609178652
1708435636.035423,-1.6531416177749634,-1.4673714202693482,-2.699948851262228,5.740172970085897,1.1395981311798096,-4.628813449536459
1708435636.0373552,-1.6518821716308594,-1.4684660670212288,-2.7010532061206263,5.740787255554952,1.1399329900741577,-4.629301611577169
1708435636.0393162,-1.650585651397705,-1.4696242448738595,-2.7021494547473353,5.741577136307516,1.140426516532898,-4.629829827939169
1708435636.0413067,-1.64930260181427,-1.4707944852164765,-2.703315321599142,5.742183196335592,1.1409043073654175,-4.630291883145468
1708435636.0433207,-1.647944688796997,-1.47200711936269,-2.7045608202563685,5.742873894959249,1.141413927078247,-4.630740229283468
1708435636.0452971,-1.646607518196106,-1.47319249928508,-2.7056356112109583,5.743525135308065,1.141839861869812,-4.631290380154745
1708435636.047338,-1.6452997922897339,-1.47437588245187,-2.706876579915182,5.744217026024618,1.1423202753067017,-4.63174289861788
1708435636.0493348,-1.643929362297058,-1.475528360610344,-2.707947079335348,5.744880544930258,1.1426873207092285,-4.632152978573934
1708435636.0513206,-1.6426504850387573,-1.476712056701519,-2.7090213934527796,5.745568501740255,1.1430877447128296,-4.632607285176412
1708435636.0533302,-1.6413384675979614,-1.477869638507702,-2.710181776677267,5.746199953347006,1.1433992385864258,-4.633108560238973
1708435636.0553071,-1.6400130987167358,-1.4790648010424157,-2.711289707814352,5.746920335083761,1.1439028978347778,-4.633552376423971
1708435636.0573318,-1.6386417150497437,-1.4803651583245774,-2.7124369780169886,5.747642862587728,1.1443384885787964,-4.6340243260013025
1708435636.05933,-1.6373181343078613,-1.4816231963089486,-2.7135401407824915,5.748334753304281,1.1447633504867554,-4.634374443684713
1708435636.0612988,-1.6359895467758179,-1.482883946304657,-2.714752499257223,5.748964893608846,1.1451714038848877,-4.63484508195986
1708435636.0633414,-1.6346476078033447,-1.4840884518674393,-2.7158170382129114,5.749721157341757,1.145506739616394,-4.635283891354696
1708435636.0653389,-1.633288860321045,-1.4853959691575547,-2.7169020811664026,5.7503710863883875,1.145786166191101,-4.635652605687277
1708435636.0673447,-1.631966233253479,-1.486677349810936,-2.7180443445788782,5.75108157375411,1.146078109741211,-4.63613731065859
1708435636.0693154,-1.6306449174880981,-1.4878705155900498,-2.7191436926471155,5.751738655358114,1.1464649438858032,-4.636535946522848
1708435636.0713427,-1.629295825958252,-1.48914089918647,-2.7202442328082483,5.75245081165389,1.1467968225479126,-4.63684326807131
1708435636.073331,-1.6278904676437378,-1.4903753337315102,-2.7213822046863,5.753089892655172,1.1471409797668457,-4.637263600026266
1708435636.07531,-1.626541018486023,-1.4916587334922333,-2.722513739262716,5.753751861840048,1.147438645362854,-4.63760751882662
1708435636.0773418,-1.6252210140228271,-1.492994376724102,-2.7236276308642786,5.754425632744589,1.1478251218795776,-4.637921277676718
1708435636.0793328,-1.6238237619400024,-1.494320423608162,-2.724668327962057,5.755129325180807,1.148148775100708,-4.638297025357382
1708435636.0813065,-1.6224939823150635,-1.4956234332970162,-2.7257822195636194,5.755808102875509,1.1484936475753784,-4.638587419186727
1708435636.0833354,-1.6211302280426025,-1.4968774405172844,-2.726802412663595,5.756457435875692,1.1487972736358643,-4.638889495526449
1708435636.0853114,-1.6197279691696167,-1.4981340628913422,-2.727847401295797,5.757165896683492,1.1490811109542847,-4.639175001774923
1708435636.0873418,-1.618383526802063,-1.4994675678065796,-2.7289329210864466,5.757783162384786,1.1493827104568481,-4.639495317135946
1708435636.0893207,-1.6170107126235962,-1.5008165773800393,-2.729929033909933,5.758404958039083,1.1496214866638184,-4.639767352734701
1708435636.0913236,-1.6155765056610107,-1.5021106091192742,-2.730990235005514,5.759031283646383,1.1498533487319946,-4.640046898518698
1708435636.0933435,-1.6141431331634521,-1.5035083678415795,-2.7319520155536097,5.7596425888831995,1.1501808166503906,-4.640272323285238
1708435636.0953112,-1.6127440929412842,-1.5048428934863587,-2.7330051104175013,5.760253655701437,1.150374174118042,-4.640556875859396
1708435636.0973434,-1.6113379001617432,-1.5062401604703446,-2.7339490095721644,5.760868179589071,1.1506589651107788,-4.64073092142214
1708435636.0993128,-1.6099295616149902,-1.5075339388898392,-2.7348817030536097,5.761497723847189,1.1508917808532715,-4.640944306050436
1708435636.1013062,-1.6085240840911865,-1.5089100313237687,-2.735851828251974,5.762117731362142,1.1510379314422607,-4.641168061886923
1708435636.10333,-1.607108235359192,-1.510282513951399,-2.7368252913104456,5.762691366463461,1.151297926902771,-4.641384307538168
1708435636.1053388,-1.6056705713272095,-1.5116581444493313,-2.737854305897848,5.763282167702474,1.15160071849823,-4.641601149235861
1708435636.107365,-1.604215145111084,-1.5130468358150502,-2.7387619654284876,5.763840424805441,1.1518113613128662,-4.6417240540133875
1708435636.1093245,-1.6028133630752563,-1.514416453694441,-2.7396658102618616,5.7643788931663416,1.1520274877548218,-4.641869966183798
1708435636.1113107,-1.6013069152832031,-1.5158397120288392,-2.740560833607809,5.7648810026939294,1.1522108316421509,-4.642042462025778
1708435636.1133337,-1.5998337268829346,-1.5172166538289567,-2.741466824208395,5.765401589661398,1.1523759365081787,-4.64216131368746
1708435636.115322,-1.598373293876648,-1.518603642737009,-2.7423763910876673,5.765904295235433,1.1525365114212036,-4.642305795346395
1708435636.1173317,-1.5969011783599854,-1.5200402189842244,-2.743263308201925,5.766417610436239,1.1526587009429932,-4.642437044774191
1708435636.119321,-1.5954644680023193,-1.521429543649294,-2.7441564241992396,5.766891228943624,1.1528398990631104,-4.64249819913973
1708435636.1213408,-1.5940253734588623,-1.5227081526866932,-2.745025936757223,5.767447340279379,1.1529755592346191,-4.642603580151693
1708435636.1233425,-1.592612624168396,-1.5240877096406003,-2.7458561102496546,5.767861115723409,1.15308678150177,-4.642748181019918
1708435636.1253188,-1.591137409210205,-1.5255026903799553,-2.7467311064349573,5.768303143769064,1.1532036066055298,-4.642827693616049
1708435636.1273615,-1.5897538661956787,-1.5268090826324006,-2.74748403230776,5.768795835762777,1.1533350944519043,-4.642824474965231
1708435636.129351,-1.588252305984497,-1.5281773519567032,-2.748317543660299,5.769262659340658,1.153499960899353,-4.642938200627462
1708435636.1313267,-1.5868444442749023,-1.529577226643898,-2.749096218739645,5.769615518837728,1.1535427570343018,-4.642977420483724
1708435636.1333694,-1.5853588581085205,-1.5310747374645253,-2.7498789469348353,5.770031082421102,1.1535781621932983,-4.642984215413229
1708435636.135324,-1.5839123725891113,-1.5323236522129555,-2.7505982557879847,5.770397650986471,1.1537230014801025,-4.643033448849813
1708435636.1373549,-1.5824253559112549,-1.5337887157550831,-2.7513814608203333,5.7707570669944666,1.1538071632385254,-4.643036548291342
1708435636.1393213,-1.5809590816497803,-1.5350627948394795,-2.7521331946002405,5.771095502167501,1.153883457183838,-4.6430246273623865
1708435636.1413314,-1.5795496702194214,-1.5363937814584752,-2.7529004255877894,5.771483766823568,1.1539390087127686,-4.643020097409384
1708435636.143353,-1.5780526399612427,-1.5377171982875844,-2.753598992024557,5.771761643677511,1.1539218425750732,-4.64299184480776
1708435636.145318,-1.576613426208496,-1.5391093094697972,-2.7543183008777063,5.772113430290975,1.1539537906646729,-4.642909828816549
1708435636.1473107,-1.5750819444656372,-1.5404579930803557,-2.7549622694598597,5.772425162583151,1.15401029586792,-4.642842713986532
1708435636.1493013,-1.5735944509506226,-1.5419061512551089,-2.7556079069720667,5.77270387390212,1.1540793180465698,-4.6427781025515955
1708435636.1513007,-1.5720679759979248,-1.5432895135930558,-2.7562549749957483,5.772934663086691,1.154091238975525,-4.642724219952719
1708435636.1533067,-1.570525884628296,-1.5446115911803027,-2.756906811391012,5.773153531342306,1.1540535688400269,-4.642646614705221
1708435636.1553156,-1.5690311193466187,-1.5459192537567397,-2.7574954668628138,5.773360478668966,1.1541030406951904,-4.6425796190844935
1708435636.1573472,-1.5675221681594849,-1.5472627834281703,-2.758090082799093,5.773682343750753,1.1539801359176636,-4.642507616673605
1708435636.1593008,-1.56596839427948,-1.5486308441362162,-2.758730713521139,5.773803460388937,1.1539204120635986,-4.642395321522848
1708435636.161331,-1.5644704103469849,-1.5499988992563267,-2.7592769304858606,5.773994791298666,1.1539461612701416,-4.642373863850729
1708435636.1633399,-1.5628941059112549,-1.5513056826642533,-2.759806219731466,5.7741103051002405,1.1538416147232056,-4.642236892377035
1708435636.1653283,-1.5613436698913574,-1.552667212938406,-2.760361973439352,5.774302708893575,1.1537282466888428,-4.642127577458517
1708435636.1673324,-1.559767484664917,-1.5540106755546113,-2.760860268269674,5.774396526604452,1.1536645889282227,-4.641972247754232
1708435636.1693168,-1.5582290887832642,-1.5553415094367047,-2.761373821889059,5.774448740273275,1.1535685062408447,-4.641828123723165
1708435636.1713052,-1.556654453277588,-1.556718549957015,-2.761911932622091,5.774515378266134,1.1535289287567139,-4.6416524092303675
1708435636.1733277,-1.555139422416687,-1.557952676234283,-2.762369219456808,5.774629342346945,1.1534929275512695,-4.641450945531027
1708435636.1753442,-1.5535550117492676,-1.559314177637436,-2.7627859751330774,5.774639475136556,1.153433084487915,-4.641247932110922
1708435636.1773589,-1.5519505739212036,-1.5605811488679429,-2.763261858616964,5.7746022818382166,1.1533241271972656,-4.641021315251486
1708435636.1793513,-1.5504202842712402,-1.5619028073600312,-2.763688627873556,5.774590480118551,1.1532645225524902,-4.640845839177267
1708435636.1813262,-1.5488139390945435,-1.563244996858277,-2.764104668294088,5.774541485100546,1.1532000303268433,-4.640597526227133
1708435636.1833565,-1.5472642183303833,-1.5645513430102547,-2.76450759569277,5.774441587715902,1.1530961990356445,-4.640317980443136
1708435636.185324,-1.5455801486968994,-1.5658956806040187,-2.764829699193136,5.7743064043815515,1.1530197858810425,-4.640117351208822
1708435636.1873457,-1.5439265966415405,-1.5671856417651107,-2.765250269566671,5.7741370079811,1.1528385877609253,-4.639779631291525
1708435636.1893182,-1.5423225164413452,-1.5684530546753486,-2.76556903520693,5.774108159333029,1.1527352333068848,-4.63952082792391
1708435636.1913078,-1.5407681465148926,-1.5697610171376546,-2.765890900288717,5.773971187859335,1.1525771617889404,-4.639261666928427
1708435636.1933255,-1.5390799045562744,-1.5709191761412562,-2.7661948839770716,5.7738839266593835,1.152482509613037,-4.63893706003298
1708435636.1953006,-1.5374853610992432,-1.5722385845580042,-2.7664364019977015,5.773691403656759,1.1523503065109253,-4.638654534016744
1708435636.1973333,-1.535837173461914,-1.5734254322447718,-2.766761128102438,5.773564088135519,1.1521644592285156,-4.6383342186557215
1708435636.1993363,-1.5341280698776245,-1.5747324428954066,-2.7669501940356653,5.773311960488119,1.1520458459854126,-4.637982670460836
1708435636.2013502,-1.5324602127075195,-1.575998445550436,-2.7672179380999964,5.773050772934713,1.1517958641052246,-4.637648288403646
1708435636.203338,-1.5307894945144653,-1.5772744617857875,-2.767454449330465,5.77283655384139,1.15166437625885,-4.63731033006777
1708435636.205332,-1.5290483236312866,-1.5785500011839808,-2.76768929163088,5.772596704750814,1.1514604091644287,-4.636949721966879
1708435636.2073677,-1.5273752212524414,-1.5797997913756312,-2.7678898016559046,5.772280084877767,1.1512101888656616,-4.636578742657797
1708435636.2093472,-1.5256597995758057,-1.5809651813902796,-2.7680683771716517,5.771969067841329,1.151027798652649,-4.636216704045431
1708435636.2113314,-1.5239750146865845,-1.5821410618224085,-2.7682328859912317,5.771666157036581,1.1507866382598877,-4.635835711156027
1708435636.2133403,-1.5222527980804443,-1.5833341083922328,-2.7683633009540003,5.771298515587606,1.1506150960922241,-4.635385338460104
1708435636.215362,-1.5205744504928589,-1.5845548115172328,-2.7685027758227747,5.770882713585653,1.1503626108169556,-4.635047141705648
1708435636.2173352,-1.5188136100769043,-1.585867544213766,-2.768667284642355,5.770470249443807,1.1501420736312866,-4.634618941937582
1708435636.2193215,-1.517012357711792,-1.586954256097311,-2.768724505101339,5.769998895912924,1.1498723030090332,-4.634188238774435
1708435636.2213027,-1.5152217149734497,-1.5882021389403285,-2.768890444432394,5.769549000054159,1.1496165990829468,-4.633712474499838
1708435636.2233436,-1.5134896039962769,-1.5893446407713832,-2.7689576784717005,5.769059049874105,1.1494464874267578,-4.633286301289694
1708435636.2253473,-1.5117690563201904,-1.5905043087401332,-2.768989388142721,5.768583285599508,1.1492139101028442,-4.632888738309042
1708435636.2273278,-1.509883165359497,-1.5916038952269496,-2.7691057364093226,5.768068420677938,1.14895761013031,-4.632412854825155
1708435636.2293005,-1.5081919431686401,-1.5927673778929652,-2.7691238562213343,5.767524230271139,1.1487095355987549,-4.631998483334677
1708435636.2313097,-1.5063875913619995,-1.5938345394530238,-2.7691522280322474,5.767014133721151,1.1484571695327759,-4.6315229574786585
1708435636.2333734,-1.504601001739502,-1.5949441395201625,-2.769155565892355,5.766414391785421,1.1481633186340332,-4.6310277620898646
1708435636.2354114,-1.5027421712875366,-1.5961138210692347,-2.76917535463442,5.765791880875387,1.147857666015625,-4.63054603735079
1708435636.237339,-1.500887393951416,-1.59722962001943,-2.769146744404928,5.765209662705221,1.1476269960403442,-4.630072418843405
1708435636.239336,-1.4990497827529907,-1.598356386224264,-2.7690661589251917,5.764598834305563,1.1473422050476074,-4.629608337079183
1708435636.2413056,-1.4971716403961182,-1.599374910394186,-2.769038979207174,5.764052378922262,1.1470820903778076,-4.629082028065817
1708435636.243305,-1.4953726530075073,-1.6004601917662562,-2.7689297834979456,5.763430344849386,1.1468271017074585,-4.628595773373739
1708435636.2453153,-1.4935650825500488,-1.6014868221678675,-2.7689150015460413,5.762779819756307,1.1465744972229004,-4.62804609933962
1708435636.2473013,-1.4916893243789673,-1.6025568447508753,-2.768805805836813,5.762060391693868,1.1462652683258057,-4.627597991620199
1708435636.2493093,-1.489866018295288,-1.6035715542235316,-2.768698040639059,5.7612801668937585,1.1460713148117065,-4.627070490513937
1708435636.2513337,-1.4880502223968506,-1.6046325169005335,-2.768630568181173,5.760627138405599,1.1458343267440796,-4.62649387518038
1708435636.2533405,-1.4861946105957031,-1.605645319024557,-2.7685797850238245,5.759916531830587,1.1455775499343872,-4.62599760690798
1708435636.25533,-1.4843652248382568,-1.6065994701781214,-2.7684226671801966,5.759210216789999,1.145337462425232,-4.625532333050863
1708435636.2573533,-1.4825598001480103,-1.607718130151266,-2.768261257802145,5.758473026543417,1.145064115524292,-4.6249545256244105
1708435636.2593298,-1.4806536436080933,-1.608687540093893,-2.7681787649737757,5.757662045746603,1.1447595357894897,-4.624453369771139
1708435636.2613094,-1.478818416595459,-1.6096993885436,-2.768104855214254,5.756839501648702,1.1445281505584717,-4.623920385037557
1708435636.2633383,-1.476947546005249,-1.6107059917845667,-2.7678781191455286,5.756023394852438,1.1442430019378662,-4.62341028848757
1708435636.265315,-1.4750902652740479,-1.6116720638670863,-2.767735544835226,5.755188572197714,1.1439787149429321,-4.622853461896078
1708435636.267342,-1.4732755422592163,-1.6125694713988246,-2.767550293599264,5.75439082363204,1.1437710523605347,-4.6223031918155115
1708435636.269322,-1.4714726209640503,-1.6134487591185511,-2.767449442540304,5.753596174507894,1.143494963645935,-4.621757570897238
1708435636.2713137,-1.469564437866211,-1.6144186458983363,-2.7672563234912317,5.752870905190267,1.1432827711105347,-4.621240202580587
1708435636.273314,-1.467724084854126,-1.6153089008727015,-2.767031971608297,5.752017366677084,1.143009901046753,-4.620720688496725
1708435636.2753227,-1.4658194780349731,-1.6162544689574183,-2.7668479124652308,5.751227366715231,1.1428073644638062,-4.620163027440206
1708435636.277348,-1.4639804363250732,-1.6171099148192347,-2.766693417225973,5.750353324204244,1.142604112625122,-4.619651381169454
1708435636.2793193,-1.4621472358703613,-1.6180483303465785,-2.766477886830465,5.749445903092184,1.1423028707504272,-4.619013730679647
