Eg3-git/Classifiers/Data Collection/u3/u3abc1_ur3e_joint_states.csv
time,elbow_joint,shoulder_lift_joint,shoulder_pan_joint,wrist_1_joint,wrist_2_joint,wrist_3_joint
1708435585.839055,-2.1415467262268066,-1.3332167875817795,-2.5263598600970667,6.109490978508749,1.017086386680603,-3.7469683329211634
1708435585.841074,-2.1415421962738037,-1.3332376343062897,-2.5263553301440638,6.109421360283651,1.0170774459838867,-3.7469316164599817
1708435585.8430438,-2.1415882110595703,-1.3332290065339585,-2.5263176600085657,6.109441745072164,1.0171027183532715,-3.7469809691058558
1708435585.8450484,-2.141530752182007,-1.3332701486400147,-2.5263477007495325,6.109469997673788,1.0170655250549316,-3.7469196955310267
1708435585.8470392,-2.141533136367798,-1.3331961941770096,-2.526400391255514,6.109458076744833,1.0170818567276,-3.7470014731036585
1708435585.8490615,-2.1415421962738037,-1.3332538914731522,-2.526383940373556,6.109433042794027,1.0170818567276,-3.7469852606402796
1708435585.851057,-2.1415555477142334,-1.3332124513438721,-2.526367489491598,6.109469997673788,1.0170400142669678,-3.7469683329211634
1708435585.8530567,-2.1415421962738037,-1.3332036894610901,-2.526325050984518,6.109437334328451,1.0170937776565552,-3.7469609419452112
1708435585.855053,-2.1415669918060303,-1.3332408678582688,-2.526391331349508,6.109458076744833,1.0170611143112183,-3.7469359079944056
1708435585.8570464,-2.1415646076202393,-1.3331888330033799,-2.526346270238058,6.1094655869300745,1.0170937776565552,-3.7470014731036585
1708435585.8590384,-2.1415140628814697,-1.3332135540298005,-2.526346270238058,6.109462249069967,1.0171345472335815,-3.7469728628741663
1708435585.861051,-2.1415555477142334,-1.333200530414917,-2.526404921208517,6.109433042794027,1.0171101093292236,-3.7469566504107874
1708435585.8630474,-2.1415352821350098,-1.3332036447576066,-2.526391331349508,6.109417068749227,1.0170893669128418,-3.746981445943014
1708435585.8650298,-2.1414971351623535,-1.3331961941770096,-2.526383940373556,6.109433042794027,1.0170477628707886,-3.7469285170184534
1708435585.8670425,-2.1415398120880127,-1.3331846010736008,-2.526388470326559,6.109421360283651,1.0170893669128418,-3.74699837366213
1708435585.869042,-2.1415441036224365,-1.3332538914731522,-2.52637488046755,6.109438884049215,1.0171101093292236,-3.746965233479635
1708435585.8710303,-2.1415183544158936,-1.3331874322942276,-2.526358429585592,6.109385239868917,1.017096757888794,-3.7469328085528772
1708435585.8730364,-2.1415016651153564,-1.3332333725741883,-2.526379410420553,6.109438884049215,1.0170923471450806,-3.746981445943014
1708435585.8750436,-2.1415016651153564,-1.3331961941770096,-2.526404921208517,6.1094432947929285,1.017118215560913,-3.746981445943014
1708435585.8770316,-2.141530752182007,-1.3331961941770096,-2.526370350514547,6.10940300205306,1.0171226263046265,-3.746937100087301
1708435585.879029,-2.1414902210235596,-1.3332167875817795,-2.526412312184469,6.109475600510397,1.0170522928237915,-3.7469447294818323
1708435585.8810432,-2.1415016651153564,-1.3332047772458573,-2.526445452366964,6.109405982285299,1.017146348953247,-3.7469566504107874
1708435585.883051,-2.1415228843688965,-1.333221049313881,-2.526341740285055,6.109475600510397,1.0170923471450806,-3.7469566504107874
1708435585.885058,-2.1415398120880127,-1.3331683290055771,-2.526395861302511,6.109417903214254,1.0171136856079102,-3.7469328085528772
1708435585.8870454,-2.1415352821350098,-1.333209128384926,-2.526388470326559,6.109434592514791,1.0171838998794556,-3.7469447294818323
1708435585.889034,-2.1415274143218994,-1.333200530414917,-2.526367489491598,6.1093729613120935,1.0171582698822021,-3.7469447294818323
1708435585.8910487,-2.141510486602783,-1.3332080256989975,-2.52640945116152,6.109394061356344,1.0171092748641968,-3.746985737477438
1708435585.893062,-2.1415228843688965,-1.3331961941770096,-2.526395861302511,6.1094223139579675,1.0171256065368652,-3.7469120661364954
1708435585.8950605,-2.1415441036224365,-1.3332124513438721,-2.52643329301943,6.1093729613120935,1.0171092748641968,-3.7469447294818323
1708435585.897044,-2.14151930809021,-1.3331874322942276,-2.5263553301440638,6.109389650612631,1.0171136856079102,-3.746981445943014
1708435585.8990347,-2.1415016651153564,-1.3331846010736008,-2.526395861302511,6.1093493578727625,1.0171012878417969,-3.74697715440859
1708435585.9010859,-2.141512393951416,-1.3331560057452698,-2.526367489491598,6.109394061356344,1.0171494483947754,-3.7469728628741663
1708435585.9030604,-2.1415035724639893,-1.3331846010736008,-2.526400391255514,6.109431016236105,1.0171419382095337,-3.7469609419452112
1708435585.9050627,-2.1414921283721924,-1.3332419705441971,-2.52637488046755,6.109389650612631,1.017146348953247,-3.746981445943014
1708435585.9070585,-2.1414990425109863,-1.3331683290055771,-2.526388470326559,6.109365570336141,1.017118215560913,-3.7469609419452112
1708435585.909045,-2.1415317058563232,-1.3332408678582688,-2.526358429585592,6.109407293587484,1.0171048641204834,-3.7469165960894983
1708435585.9110277,-2.1414830684661865,-1.3331961941770096,-2.52645451227297,6.1093788025672815,1.0171616077423096,-3.7469404379474085
1708435585.913051,-2.1414787769317627,-1.3331714880517502,-2.526370350514547,6.109362470894613,1.0171449184417725,-3.7469242254840296
1708435585.9150977,-2.1415317058563232,-1.3331639927676697,-2.526337210332052,6.1093506691749475,1.0171793699264526,-3.7469404379474085
1708435585.9170978,-2.1415398120880127,-1.333221049313881,-2.526386801396505,6.109325039177694,1.0171449184417725,-3.7469728628741663
1708435585.9190495,-2.1414830684661865,-1.3332322251847764,-2.526370350514547,6.109386312752523,1.017128586769104,-3.74695331255068
1708435585.9210303,-2.1414947509765625,-1.3332005453160782,-2.526346270238058,6.109374391823568,1.0171419382095337,-3.746969525014059
1708435585.9230556,-2.1415317058563232,-1.3331639927676697,-2.526403252278463,6.10933397987441,1.0171449184417725,-3.746981445943014
1708435585.9250307,-2.1414945125579834,-1.3332615506700058,-2.526362959538595,6.109366881638326,1.0171626806259155,-3.746920887623922
1708435585.9270694,-2.141515016555786,-1.3331596416286011,-2.526419703160421,6.109353768616476,1.0171375274658203,-3.746920887623922
1708435585.929064,-2.1414990425109863,-1.3332659018090744,-2.526386801396505,6.109354960709371,1.0171704292297363,-3.746913258229391
1708435585.9310305,-2.1414618492126465,-1.333188847904541,-2.5264409224139612,6.109310376435079,1.0171704292297363,-3.7469328085528772
1708435585.933031,-2.1414830684661865,-1.3331639927676697,-2.526483122502462,6.109313237458029,1.0171661376953125,-3.7469447294818323
1708435585.9350345,-2.1414706707000732,-1.3331846010736008,-2.526379410420553,6.109314787178793,1.0171494483947754,-3.7469359079944056
1708435585.9370375,-2.1414875984191895,-1.3331517440131684,-2.526379410420553,6.109310376435079,1.0171705484390259,-3.746965233479635
1708435585.9390285,-2.1414830684661865,-1.3332047772458573,-2.526370350514547,6.109362470894613,1.0171538591384888,-3.7469285170184534
1708435585.9410348,-2.141510486602783,-1.3331595671227952,-2.5263987223254603,6.109322058945455,1.0171078443527222,-3.7469609419452112
1708435585.943028,-2.1414451599121094,-1.3332253259471436,-2.5264151732074183,6.109298455506124,1.0171167850494385,-3.7469447294818323
1708435585.9450269,-2.1414990425109863,-1.3332246106914063,-2.5264363924609583,6.10933397987441,1.0171494483947754,-3.7469242254840296
1708435585.9470394,-2.1414787769317627,-1.3331874173930665,-2.526407782231466,6.1093307612235925,1.0171705484390259,-3.746920887623922
1708435585.949033,-2.1415212154388428,-1.3332408678582688,-2.526404921208517,6.1092907069023035,1.0171582698822021,-3.7469447294818323
1708435585.9510365,-2.14151930809021,-1.3332253855517884,-2.5263941923724573,6.109298455506124,1.0171661376953125,-3.7469196955310267
1708435585.9530518,-2.141462802886963,-1.3332463961890717,-2.5263987223254603,6.109256851464071,1.0171078443527222,-3.7469728628741663
1708435585.9550653,-2.14145827293396,-1.3331758242896576,-2.526353899632589,6.109248029976644,1.017133116722107,-3.746965233479635
1708435585.9570305,-2.141484022140503,-1.3331758242896576,-2.5264151732074183,6.109339582711019,1.0171704292297363,-3.74695331255068
1708435585.9590554,-2.141453981399536,-1.333184615974762,-2.5263987223254603,6.1092907069023035,1.0171092748641968,-3.7469404379474085
1708435585.9610465,-2.1414265632629395,-1.3332167875817795,-2.526403252278463,6.109277474671163,1.0171449184417725,-3.746969525014059
1708435585.9630294,-2.141453981399536,-1.3331683290055771,-2.526407782231466,6.109298455506124,1.0171449184417725,-3.7469242254840296
1708435585.9650245,-2.141446828842163,-1.3332496148398896,-2.526400391255514,6.109302866249838,1.0171241760253906,-3.746949021016256
1708435585.967038,-2.1414716243743896,-1.3332333725741883,-2.526412312184469,6.10928629615859,1.0171360969543457,-3.7469404379474085
1708435585.9690344,-2.141446828842163,-1.3331846010736008,-2.526395861302511,6.109265553742208,1.0171538591384888,-3.746937100087301
1708435585.9711547,-2.141475200653076,-1.3331802499345322,-2.526412312184469,6.109307276993551,1.017128586769104,-3.746920887623922
1708435585.9730427,-2.14145827293396,-1.3332506132176896,-2.526428763066427,6.1092907069023035,1.017128586769104,-3.746965233479635
1708435585.9750788,-2.141484022140503,-1.3332036894610901,-2.5264409224139612,6.109278666764059,1.0171122550964355,-3.746965233479635
1708435585.9770439,-2.1414716243743896,-1.333191768532135,-2.52637488046755,6.109283196717062,1.0171704292297363,-3.7469826380359095
1708435585.9790585,-2.141435384750366,-1.3331683737090607,-2.5263987223254603,6.109253632813253,1.0171582698822021,-3.7469328085528772
1708435585.9810271,-2.1414716243743896,-1.3331714880517502,-2.526395861302511,6.1092580435569666,1.017095923423767,-3.7469404379474085
1708435585.9830937,-2.141435384750366,-1.3331440848163147,-2.526424233113424,6.109247195511617,1.0171256065368652,-3.746913258229391
1708435585.9850461,-2.141467332839966,-1.333200530414917,-2.526403252278463,6.10920129993514,1.017182469367981,-3.746920887623922
1708435585.9870675,-2.141447067260742,-1.3331802648356934,-2.526428763066427,6.109232890396871,1.017166018486023,-3.7470114866839808
1708435585.9890325,-2.141516923904419,-1.3332701486400147,-2.526370350514547,6.109226453095236,1.017133116722107,-3.7469165960894983
1708435585.9910338,-2.1414425373077393,-1.333191768532135,-2.5263658205615442,6.1092638848121545,1.0171538591384888,-3.7469123045550745
1708435585.9931068,-2.141467332839966,-1.333209128384926,-2.526386801396505,6.109210121422567,1.017112374305725,-3.7468839327441614
1708435585.9950294,-2.1414601802825928,-1.3331813526204606,-2.526379410420553,6.109198200493612,1.017166018486023,-3.7469738165484827
1708435585.997107,-2.141439914703369,-1.3331440848163147,-2.5264318625079554,6.109226453095236,1.017112374305725,-3.7469328085528772
1708435585.9990602,-2.1414806842803955,-1.3332135540298005,-2.5264106432544153,6.109222042351522,1.0171705484390259,-3.7469447294818323
1708435586.001074,-2.141455888748169,-1.3332496297410508,-2.5264151732074183,6.109189379006185,1.0171735286712646,-3.7469783465014856
1708435586.003044,-2.14139723777771,-1.3331429821303864,-2.526386801396505,6.1092145321662805,1.0171616077423096,-3.74692947069277
1708435586.0050473,-2.141439914703369,-1.3332333725741883,-2.526391331349508,6.109193789749899,1.017095923423767,-3.7468958536731165
1708435586.007078,-2.141455888748169,-1.3331846010736008,-2.5264409224139612,6.109181988030233,1.0171616077423096,-3.7469003836261194
1708435586.009035,-2.1414761543273926,-1.333176926975586,-2.5263987223254603,6.109150159149923,1.0171749591827393,-3.7469165960894983
1708435586.0110743,-2.141444444656372,-1.3332570654204865,-2.526370350514547,6.109149324684896,1.0171582698822021,-3.746871534978048
1708435586.0130925,-2.141439914703369,-1.3331931841424485,-2.5264437834369105,6.109195101052084,1.0171793699264526,-3.7469165960894983
1708435586.0150583,-2.141435384750366,-1.3331683290055771,-2.526391331349508,6.1091580269630334,1.0171538591384888,-3.746937100087301
1708435586.0171335,-2.1414363384246826,-1.3332167875817795,-2.5264409224139612,6.109186279564657,1.017133116722107,-3.746875826512472
1708435586.019068,-2.141444444656372,-1.333191768532135,-2.526391331349508,6.10916684845046,1.0171661376953125,-3.7469337622271937
1708435586.0210636,-2.141390323638916,-1.3331441444209595,-2.52637488046755,6.109163510590353,1.0171749591827393,-3.746897045766012
1708435586.0230408,-2.141439914703369,-1.3331552308848877,-2.526419703160421,6.109174358635702,1.0171823501586914,-3.7469707171069544
1708435586.0250661,-2.1414761543273926,-1.3331311506083985,-2.5263987223254603,6.1091264365013025,1.0171945095062256,-3.7469499746905726
1708435586.0270576,-2.141439914703369,-1.3331595671227952,-2.5264151732074183,6.109133827477255,1.0171616077423096,-3.746863905583517
1708435586.0290716,-2.1413991451263428,-1.3332496297410508,-2.526395861302511,6.109162437706747,1.0171167850494385,-3.7468889395343226
1708435586.0310504,-2.141385793685913,-1.3332135540298005,-2.526419703160421,6.109126555710592,1.017182469367981,-3.7469425837146204
1708435586.033097,-2.1413991451263428,-1.3331683290055771,-2.5263987223254603,6.109175669937887,1.0171048641204834,-3.746901337300436
1708435586.035042,-2.141390323638916,-1.3332167875817795,-2.526416603718893,6.109142768173971,1.0171494483947754,-3.746880118046896
1708435586.0370955,-2.1414151191711426,-1.3331683290055771,-2.526424233113424,6.109110104828634,1.017128586769104,-3.746851984654562
1708435586.0391083,-2.1414151191711426,-1.3332178902677079,-2.526424233113424,6.109156000405111,1.0171211957931519,-3.7468681971179407
1708435586.0410526,-2.1414241790771484,-1.3332005155137558,-2.526412312184469,6.109102237015524,1.0171419382095337,-3.7469263712512415
1708435586.0431032,-2.141444444656372,-1.3331485104611893,-2.5263567606555384,6.109135257988729,1.0171778202056885,-3.7468207518206995
1708435586.045042,-2.141422986984253,-1.333156020646431,-2.526424233113424,6.109115469246664,1.017133116722107,-3.7468445936786097
1708435586.0470984,-2.141432046890259,-1.3331683290055771,-2.526428763066427,6.109096276551046,1.0171626806259155,-3.746885601674215
1708435586.0491176,-2.1413991451263428,-1.333176926975586,-2.526403252278463,6.109140980034628,1.0171867609024048,-3.7468531767474573
1708435586.0510564,-2.1414196491241455,-1.3332047772458573,-2.52637488046755,6.1090979454811,1.0170960426330566,-3.7468531767474573
1708435586.053049,-2.141432046890259,-1.333200530414917,-2.5263493696795862,6.109090792923727,1.017133116722107,-3.746894423161642
1708435586.0550337,-2.141406297683716,-1.3331485104611893,-2.526395861302511,6.109103905945577,1.0171571969985962,-3.74689752260317
1708435586.0570617,-2.1413958072662354,-1.333168314104416,-2.526386801396505,6.109078752785482,1.0171375274658203,-3.7468369642840784
1708435586.0590444,-2.141378879547119,-1.3331441295197983,-2.526386801396505,6.109066951065817,1.017112374305725,-3.7468693892108362
1708435586.061038,-2.1414127349853516,-1.3331322532943268,-2.526419703160421,6.1090383408363245,1.0171167850494385,-3.7468131224261683
1708435586.0630605,-2.1413867473602295,-1.3331931692412873,-2.5263822714435022,6.109059083252706,1.017128586769104,-3.746829334889547
1708435586.065042,-2.1413540840148926,-1.3332134795239945,-2.526428763066427,6.109047162323751,1.017112374305725,-3.7468250433551233
1708435586.067064,-2.141378879547119,-1.3331931841424485,-2.5263658205615442,6.109047162323751,1.0171661376953125,-3.746805493031637
1708435586.069037,-2.1414036750793457,-1.3331725907376786,-2.5263496080981653,6.109048473625936,1.0171823501586914,-3.746829334889547
1708435586.0710382,-2.1414215564727783,-1.3331813526204606,-2.526379410420553,6.109064805298605,1.0171167850494385,-3.746805493031637
1708435586.0730474,-2.141378879547119,-1.3331813228181382,-2.526395861302511,6.109006631165304,1.0171749591827393,-3.746817413960592
1708435586.0750341,-2.1414215564727783,-1.3331312400153656,-2.526407782231466,6.108970987587728,1.017146348953247,-3.746777359639303
1708435586.0770779,-2.1413958072662354,-1.333206222658493,-2.526424233113424,6.108987319260397,1.0171704292297363,-3.746821705495016
1708435586.0790763,-2.141378879547119,-1.3332019460252305,-2.526416842137472,6.108994829445638,1.0171571969985962,-3.7468302885638636
1708435586.0810459,-2.1413586139678955,-1.333160327082016,-2.526407782231466,6.109012353211202,1.0171705484390259,-3.7468143145190638
1708435586.0830834,-2.1414082050323486,-1.3331397485784073,-2.526395861302511,6.108955967217245,1.0171494483947754,-3.746761147175924
1708435586.08508,-2.1414003372192383,-1.3331647676280518,-2.526341740285055,6.108976709633627,1.0171582698822021,-3.746809784566061
1708435586.08708,-2.1413514614105225,-1.3331441295197983,-2.5263493696795862,6.10893081405715,1.017128586769104,-3.746777359639303
1708435586.0890825,-2.141409158706665,-1.3332019460252305,-2.52637488046755,6.108944165497579,1.017203450202942,-3.746753517781393
1708435586.0910654,-2.141383409500122,-1.3331616085818787,-2.526358429585592,6.108944165497579,1.0171616077423096,-3.746737305318014
1708435586.0930755,-2.141322374343872,-1.3331440848163147,-2.526400391255514,6.108931886940756,1.017112374305725,-3.7467828432666224
1708435586.0950577,-2.1413674354553223,-1.333182157283165,-2.526358429585592,6.108915555268087,1.0171167850494385,-3.7467740217791956
1708435586.0970721,-2.141317844390869,-1.3331976246884842,-2.526386801396505,6.108878481179037,1.0171211957931519,-3.7467621008502405
1708435586.0990608,-2.1413347721099854,-1.3331038069776078,-2.5263496080981653,6.108878600388326,1.0171705484390259,-3.7467296759234827
1708435586.1010408,-2.141371965408325,-1.333197609787323,-2.5263822714435022,6.1089080450828455,1.0171793699264526,-3.7466920057879847
1708435586.1030602,-2.1413559913635254,-1.3331691038659592,-2.526350800191061,6.108866321831503,1.0171582698822021,-3.7467339674579065
1708435586.1050363,-2.141339063644409,-1.3331409257701416,-2.526362959538595,6.108899223595419,1.017095923423767,-3.7467296759234827
1708435586.1070528,-2.141310930252075,-1.3331603419831772,-2.526412312184469,6.108915555268087,1.0171419382095337,-3.7467051188098353
1708435586.1090326,-2.141322374343872,-1.333176926975586,-2.526386801396505,6.10888825634078,1.0171449184417725,-3.7466934362994593
1708435586.1110296,-2.1413018703460693,-1.3331080836108704,-2.5263822714435022,6.108850347786703,1.0171616077423096,-3.746735159550802
1708435586.1130302,-2.141364812850952,-1.333124340777733,-2.526412312184469,6.108883845597067,1.0170960426330566,-3.746713940297262
1708435586.115042,-2.1413357257843018,-1.3330993962338944,-2.526407782231466,6.108839618950643,1.0171494483947754,-3.746685806904928
1708435586.1171017,-2.141328811645508,-1.3331725907376786,-2.526391331349508,6.10887228229598,1.0171705484390259,-3.7467308680163782
1708435586.1192007,-2.1413118839263916,-1.33311119795356,-2.526379410420553,6.108794796257772,1.0171300172805786,-3.7467225233661097
1708435586.1211033,-2.141348123550415,-1.3331944209388276,-2.526379410420553,6.108852970391073,1.0171449184417725,-3.7466934362994593
1708435586.1230738,-2.141310930252075,-1.3331647527268906,-2.526353899632589,6.1087649939353845,1.0171626806259155,-3.746657673512594
1708435586.1250558,-2.1413028240203857,-1.333137423997261,-2.526407782231466,6.108840691834249,1.0171211957931519,-3.746657673512594
1708435586.1270642,-2.1412789821624756,-1.3331278276494523,-2.526372019444601,6.108775007515707,1.0171538591384888,-3.7466662565814417
1708435586.1290545,-2.141324281692505,-1.3331691038659592,-2.526400391255514,6.1088212607200525,1.017145037651062,-3.7466653029071253
1708435586.1310472,-2.1413614749908447,-1.333106891517975,-2.526383940373556,6.108844029694357,1.017146348953247,-3.74665338197817
1708435586.1330729,-2.1412904262542725,-1.3331287664226075,-2.526367489491598,6.108799207001486,1.017128586769104,-3.74662954012026
1708435586.1350687,-2.141324281692505,-1.333124340777733,-2.52637488046755,6.108812439232626,1.0170835256576538,-3.7466087977038782
1708435586.1370993,-2.1413490772247314,-1.3331080836108704,-2.526400391255514,6.108758795052328,1.0171419382095337,-3.746645752583639
1708435586.139043,-2.141258716583252,-1.333152861600258,-2.52637488046755,6.108808028488912,1.0171122550964355,-3.7466002146350306
1708435586.1410651,-2.1413161754608154,-1.3331616085818787,-2.526370350514547,6.108767735749044,1.0171538591384888,-3.7466307322131556
1708435586.1430626,-2.1413207054138184,-1.3330993962338944,-2.52637488046755,6.108758795052328,1.017133116722107,-3.7466986815081995
1708435586.1450503,-2.1412835121154785,-1.3330962520888825,-2.526358429585592,6.10870240905837,1.0171419382095337,-3.7466631571399134
1708435586.1470602,-2.1412949562072754,-1.3331659448197861,-2.526428763066427,6.108731853752889,1.0170923471450806,-3.746621910725729
1708435586.149029,-2.1413073539733887,-1.3331037920764466,-2.526400391255514,6.108767616539755,1.0171136856079102,-3.7466092745410364
1708435586.1510198,-2.1412596702575684,-1.3331287664226075,-2.526350800191061,6.10870240905837,1.0171582698822021,-3.746633831654684
1708435586.1530378,-2.1412551403045654,-1.3331865829280396,-2.526362959538595,6.108756887703695,1.0171167850494385,-3.7466307322131556
1708435586.1550665,-2.1412179470062256,-1.3331778210452576,-2.526346270238058,6.108735072403707,1.0171092748641968,-3.7466262022601526
1708435586.1570396,-2.141263246536255,-1.3330930036357422,-2.526346270238058,6.108727443009176,1.0171419382095337,-3.746633831654684
1708435586.15904,-2.1412675380706787,-1.3330930185369034,-2.526353899632589,6.1087790606315515,1.017133116722107,-3.7466750780688685
1708435586.1610525,-2.1412765979766846,-1.333124340777733,-2.526412312184469,6.108682620316305,1.017128586769104,-3.746618096028463
1708435586.1630352,-2.1412384510040283,-1.3331243109754105,-2.526370350514547,6.108687031060018,1.0171256065368652,-3.7465856711017054
1708435586.1650708,-2.141301155090332,-1.3331168454936524,-2.52643329301943,6.10874496677474,1.0171538591384888,-3.7466018835650843
1708435586.1670573,-2.1412198543548584,-1.3330474656871338,-2.526404921208517,6.1087450859840295,1.0171048641204834,-3.746655527745382
1708435586.1690357,-2.1412110328674316,-1.3331287664226075,-2.526350800191061,6.108752596169271,1.0171419382095337,-3.7465887705432337
1708435586.1710386,-2.1412642002105713,-1.333112509255745,-2.52637488046755,6.10868393161849,1.0171092748641968,-3.746618096028463
1708435586.1730428,-2.1412312984466553,-1.33310058832679,-2.526395861302511,6.108688342362203,1.0171048641204834,-3.746589962636129
1708435586.175022,-2.1412642002105713,-1.3331168454936524,-2.526362959538595,6.108724343567648,1.0171136856079102,-3.746606175099508
1708435586.1770642,-2.1412198543548584,-1.3331092608026047,-2.5263341108905237,6.10868393161849,1.0170923471450806,-3.7466350237475794
1708435586.1790428,-2.1412270069122314,-1.3331374388984223,-2.526404921208517,6.1087002632911584,1.0171300172805786,-3.7465694586383265
1708435586.1810467,-2.1411657333374023,-1.3331539940885087,-2.5263987223254603,6.108767258911886,1.0171509981155396,-3.7465413252459925
1708435586.1830451,-2.141277551651001,-1.3330843311599274,-2.5263493696795862,6.108651387482443,1.0171211957931519,-3.7465930620776575
1708435586.1850388,-2.1412312984466553,-1.3331255179694672,-2.526379410420553,6.108721244126119,1.0171048641204834,-3.746647898350851
1708435586.1870503,-2.1412065029144287,-1.33310058832679,-2.5263553301440638,6.1086275456245325,1.0171300172805786,-3.74654990831484
1708435586.189036,-2.141247272491455,-1.3330962520888825,-2.52637488046755,6.108660208969869,1.017096757888794,-3.7465651671039026
1708435586.1910448,-2.141190528869629,-1.3331168454936524,-2.526367489491598,6.108643519669332,1.0171048641204834,-3.7465575377093714
1708435586.1930597,-2.1412110328674316,-1.3331255477717896,-2.526372019444601,6.10866008976058,1.0171226263046265,-3.7465856711017054
1708435586.1950657,-2.1412243843078613,-1.3331374388984223,-2.526388470326559,6.108688342362203,1.0170923471450806,-3.7465456167804163
1708435586.197081,-2.141251802444458,-1.3331124794534226,-2.526383940373556,6.108647811203756,1.0170804262161255,-3.746594254170553
1708435586.199045,-2.1412065029144287,-1.3331496876529236,-2.5263598600970667,6.108677613526144,1.0171012878417969,-3.746618096028463
1708435586.2010372,-2.141235828399658,-1.3330843311599274,-2.52637488046755,6.108647930413046,1.0170923471450806,-3.746589962636129
1708435586.2030625,-2.1412065029144287,-1.3331417602351685,-2.526379410420553,6.108647811203756,1.0171136856079102,-3.7465975920306605
1708435586.2050424,-2.1412243843078613,-1.3331461262753983,-2.526379410420553,6.108656632691183,1.0171300172805786,-3.746578041707174
1708435586.2070596,-2.14123797416687,-1.3331049245646973,-2.526367489491598,6.108636367111959,1.017092227935791,-3.746544424687521
1708435586.2090845,-2.1412291526794434,-1.3330874306014557,-2.526367489491598,6.108591306000509,1.0171136856079102,-3.746589962636129
1708435586.211043,-2.1412312984466553,-1.3331374388984223,-2.526437584553854,6.108620989113607,1.0171226263046265,-3.746606175099508
1708435586.2130907,-2.141244888305664,-1.3331287664226075,-2.526362959538595,6.108616578369894,1.0171136856079102,-3.746586624776022
1708435586.2150586,-2.141162395477295,-1.3331409257701416,-2.526400391255514,6.108629691391744,1.0171300172805786,-3.7465909163104456
1708435586.2170832,-2.141181707382202,-1.3330767464688797,-2.526400391255514,6.108645069390096,1.01715087890625,-3.746582333241598
1708435586.2191446,-2.1412155628204346,-1.3331059974483033,-2.5263553301440638,6.108604657440939,1.017118215560913,-3.746589962636129
1708435586.2210467,-2.1411802768707275,-1.3331778657487412,-2.526400391255514,6.108669864922323,1.0171226263046265,-3.7466028372394007
1708435586.2230585,-2.1412110328674316,-1.3331037771752854,-2.526362959538595,6.108641969948568,1.0171256065368652,-3.7465856711017054
1708435586.2250392,-2.141244888305664,-1.3330799800208588,-2.526376549397604,6.108628737717428,1.017096757888794,-3.746589962636129
1708435586.2270908,-2.141179323196411,-1.3330723953298111,-2.52640945116152,6.108620035439291,1.0171136856079102,-3.746589962636129
1708435586.2290442,-2.141240358352661,-1.3330755543759842,-2.526362959538595,6.108583915024557,1.01715087890625,-3.7465413252459925
1708435586.2310443,-2.141166925430298,-1.3331331026605149,-2.526362959538595,6.108641969948568,1.017118215560913,-3.746589962636129
1708435586.2330925,-2.1412110328674316,-1.3330799800208588,-2.526388470326559,6.108563172608175,1.0171136856079102,-3.7465456167804163
1708435586.2350638,-2.1412065029144287,-1.3331222844174881,-2.526372019444601,6.108592736511984,1.017112374305725,-3.7465413252459925
1708435586.237078,-2.1412155628204346,-1.3331049245646973,-2.526367489491598,6.108654010086813,1.017118215560913,-3.7465792338000696
1708435586.2390707,-2.1411712169647217,-1.3330755543759842,-2.526372019444601,6.108600246697225,1.0171419382095337,-3.746556345616476
1708435586.2410538,-2.141166925430298,-1.3331417006305237,-2.526379410420553,6.108597147255697,1.017096757888794,-3.7465737501727503
1708435586.2430608,-2.141157865524292,-1.3330474656871338,-2.526404921208517,6.108551013260641,1.01715087890625,-3.7464993635760706
1708435586.2450356,-2.1412110328674316,-1.3330886673978348,-2.526395861302511,6.108543503075399,1.0171300172805786,-3.7465856711017054
1708435586.2470646,-2.1411499977111816,-1.3331461262753983,-2.526370350514547,6.108629691391744,1.017118215560913,-3.746598545704977
1708435586.2490697,-2.141153335571289,-1.333113582139351,-2.526370350514547,6.108572113304891,1.0171211957931519,-3.7465651671039026
1708435586.2510629,-2.141124963760376,-1.33309622228656,-2.52637488046755,6.108583915024557,1.017076015472412,-3.746561829243795
1708435586.2530556,-2.1411757469177246,-1.3331255179694672,-2.526358429585592,6.108568656235494,1.0171048641204834,-3.746582333241598
1708435586.2550454,-2.1412129402160645,-1.333129809503891,-2.526346270238058,6.108597147255697,1.0171136856079102,-3.746578041707174
1708435586.2570443,-2.1411499977111816,-1.3330799800208588,-2.526395861302511,6.108613359719076,1.01715087890625,-3.7465575377093714
1708435586.2590673,-2.141192674636841,-1.3331049245646973,-2.526388470326559,6.108559834748068,1.0170966386795044,-3.746570412312643
1708435586.2610312,-2.1411712169647217,-1.333072454934456,-2.526367489491598,6.108629691391744,1.017118215560913,-3.7465575377093714
1708435586.263053,-2.141183614730835,-1.3331168454936524,-2.526379410420553,6.108597147255697,1.0170849561691284,-3.746647898350851
1708435586.2650673,-2.141192674636841,-1.333113582139351,-2.526379410420553,6.108604657440939,1.0171270370483398,-3.7466028372394007
1708435586.267063,-2.1412041187286377,-1.3331080836108704,-2.526325050984518,6.1085630533988855,1.0170804262161255,-3.746561829243795
1708435586.2690914,-2.1412041187286377,-1.3330680441907425,-2.526383940373556,6.108571994095602,1.0170477628707886,-3.746554199849264
1708435586.2710533,-2.1412243843078613,-1.333141790037491,-2.526362959538595,6.108531582146444,1.0171012878417969,-3.746589962636129
1708435586.2730598,-2.1412289142608643,-1.333109275703766,-2.526346270238058,6.108539092331686,1.0171136856079102,-3.7466028372394007
1708435586.2750614,-2.141166925430298,-1.3331135970405121,-2.526391331349508,6.108634221344747,1.0171012878417969,-3.746610466633932
1708435586.2770312,-2.141162395477295,-1.33310058832679,-2.526391331349508,6.108604657440939,1.0171183347702026,-3.7465248743640345
1708435586.2790365,-2.1411545276641846,-1.333154023890831,-2.526358429585592,6.108527171402731,1.0170849561691284,-3.7465856711017054
1708435586.2810438,-2.141188144683838,-1.333121122126915,-2.526320759450094,6.108609068184652,1.017118215560913,-3.74654990831484
1708435586.2830467,-2.1412155628204346,-1.3330604893020173,-2.526416842137472,6.108572113304891,1.017118215560913,-3.746598545704977
1708435586.2850497,-2.1411757469177246,-1.333109290604927,-2.526388470326559,6.108604657440939,1.0171012878417969,-3.746582333241598
1708435586.2871177,-2.1411924362182617,-1.3330636781505127,-2.526412312184469,6.10854338386611,1.017096757888794,-3.7466018835650843
1708435586.289056,-2.1411499977111816,-1.3330973398736496,-2.526407782231466,6.108597147255697,1.0171136856079102,-3.7465737501727503
1708435586.2910323,-2.141195058822632,-1.3330930036357422,-2.526367489491598,6.108571994095602,1.0170804262161255,-3.746578041707174
1708435586.2930353,-2.1411545276641846,-1.3331168603948136,-2.526416842137472,6.108683216362753,1.0171056985855103,-3.7466352621661585
1708435586.2950397,-2.141188144683838,-1.3330930036357422,-2.526353899632589,6.108580815583029,1.017118215560913,-3.746566120778219
1708435586.2970324,-2.1411430835723877,-1.3331409257701416,-2.526383940373556,6.108527171402731,1.0171270370483398,-3.746598545704977
1708435586.2990446,-2.1412041187286377,-1.3331092608026047,-2.5263386408435267,6.108617889672079,1.017138957977295,-3.746589962636129
1708435586.3010347,-2.1411757469177246,-1.3330549609712143,-2.526388470326559,6.108527171402731,1.0171136856079102,-3.746610466633932
1708435586.3030448,-2.141166925430298,-1.3330562126687546,-2.526388470326559,6.108564245491781,1.017096757888794,-3.746566120778219
1708435586.3050559,-2.1411802768707275,-1.333141804938652,-2.526341740285055,6.1085853455360315,1.0170716047286987,-3.746622387562887
1708435586.307063,-2.1411995887756348,-1.3331330877593537,-2.526395861302511,6.108597147255697,1.0171048641204834,-3.746582333241598
1708435586.309038,-2.141134262084961,-1.3331864488175889,-2.526329580937521,6.108549105912008,1.0170849561691284,-3.7466192881213587
1708435586.3110862,-2.1411454677581787,-1.3331017208150406,-2.526346270238058,6.108605968743124,1.0171012878417969,-3.7466309706317347
1708435586.3130481,-2.141162395477295,-1.3330886524966736,-2.526386801396505,6.108571994095602,1.0171390771865845,-3.746589962636129
1708435586.3150327,-2.141188144683838,-1.3331049245646973,-2.5264256636248987,6.108597147255697,1.0171345472335815,-3.7465856711017054
1708435586.3171191,-2.1411757469177246,-1.3331211817315598,-2.526350800191061,6.108573066979208,1.0171056985855103,-3.74654990831484
1708435586.3190956,-2.1412198543548584,-1.33310920119796,-2.526346270238058,6.1085479138191126,1.0170477628707886,-3.7465737501727503
1708435586.3210635,-2.141171455383301,-1.3330962669900437,-2.526379410420553,6.108592736511984,1.0170923471450806,-3.7465694586383265
1708435586.3230543,-2.1411430835723877,-1.3330918413451691,-2.526367489491598,6.108616578369894,1.01706862449646,-3.746610466633932
1708435586.325051,-2.1411969661712646,-1.3331168007901688,-2.526341740285055,6.1085641262824915,1.0170849561691284,-3.7465575377093714
1708435586.3270304,-2.1411802768707275,-1.3330561381629487,-2.526412312184469,6.108576404839315,1.017118215560913,-3.746589962636129
1708435586.3290524,-2.1411545276641846,-1.3330518019250412,-2.526379410420553,6.108585226326742,1.017064094543457,-3.746622387562887
1708435586.3310335,-2.1411848068237305,-1.3331005734256287,-2.526362959538595,6.108568656235494,1.017134666442871,-3.746618096028463
1708435586.3330564,-2.1411995887756348,-1.3330027025989075,-2.526358429585592,6.108563172608175,1.0170849561691284,-3.7465813795672815
1708435586.3350375,-2.1412155628204346,-1.3331168454936524,-2.526329580937521,6.1086463806922815,1.0170849561691284,-3.7466138044940394
1708435586.337077,-2.141166925430298,-1.3331374388984223,-2.526362959538595,6.108571994095602,1.0170893669128418,-3.7465975920306605
1708435586.3390508,-2.1411473751068115,-1.33310058832679,-2.526325050984518,6.108539092331686,1.0171056985855103,-3.7466018835650843
1708435586.3410602,-2.141192674636841,-1.3331211668303986,-2.526362959538595,6.108576404839315,1.0171056985855103,-3.7466393152820032
1708435586.3430767,-2.1412041187286377,-1.3330962669900437,-2.526383940373556,6.108592736511984,1.0170923471450806,-3.7465975920306605
1708435586.3450577,-2.1411633491516113,-1.333141790037491,-2.526353899632589,6.1085641262824915,1.0170937776565552,-3.746626679097311
1708435586.347032,-2.1412129402160645,-1.3330843311599274,-2.526379410420553,6.108597147255697,1.0171136856079102,-3.74666411081423
1708435586.3490565,-2.141183614730835,-1.3331211817315598,-2.52637488046755,6.108583915024557,1.0171136856079102,-3.746626679097311
1708435586.351068,-2.1411545276641846,-1.3330680590919037,-2.526372019444601,6.108589637070455,1.017096757888794,-3.746606175099508
1708435586.3530626,-2.141188144683838,-1.3331049394658585,-2.526383940373556,6.108542191773214,1.017118215560913,-3.7466092745410364
1708435586.3550649,-2.1412243843078613,-1.3330724102309723,-2.526407782231466,6.108613359719076,1.0170596837997437,-3.7466138044940394
1708435586.3570673,-2.141179323196411,-1.3331049394658585,-2.5263386408435267,6.108576404839315,1.017096757888794,-3.7466049830066126
1708435586.3592622,-2.1412041187286377,-1.3331124943545838,-2.526346270238058,6.108518349915304,1.0171056985855103,-3.7466018835650843
1708435586.361094,-2.1412198543548584,-1.333091826444008,-2.526350800191061,6.1086134789283655,1.017118215560913,-3.7466469446765345
1708435586.3630724,-2.1412084102630615,-1.3331330877593537,-2.526370350514547,6.108604657440939,1.0171226263046265,-3.7466469446765345
1708435586.365041,-2.1411588191986084,-1.3330962818912049,-2.52637488046755,6.1086134789283655,1.017138957977295,-3.7466512362109583
1708435586.367072,-2.1411588191986084,-1.3330930036357422,-2.526362959538595,6.108555304795065,1.0171270370483398,-3.746633831654684
1708435586.3691068,-2.141188144683838,-1.3331017059138794,-2.526393000279562,6.108609068184652,1.0171226263046265,-3.746641461049215
1708435586.3710449,-2.1412243843078613,-1.3330843162587662,-2.5264301935779017,6.10864948013381,1.0170804262161255,-3.7466262022601526
1708435586.3731036,-2.1412084102630615,-1.3330561530641098,-2.52637488046755,6.108604657440939,1.0171136856079102,-3.746645752583639
1708435586.3750591,-2.1411712169647217,-1.3330843460610886,-2.526395861302511,6.108612048416891,1.0170804262161255,-3.746702019368307
1708435586.377092,-2.1411995887756348,-1.333121122126915,-2.526400391255514,6.108580815583029,1.017118215560913,-3.746685806904928
1708435586.3790598,-2.141183614730835,-1.3331168454936524,-2.526383940373556,6.108592736511984,1.0171136856079102,-3.746739451085226
1708435586.3810394,-2.1411757469177246,-1.3331168007901688,-2.526383940373556,6.108595835953512,1.0170730352401733,-3.7467308680163782
1708435586.3830702,-2.141183614730835,-1.333075613980629,-2.526353899632589,6.108583915024557,1.0171345472335815,-3.7467063109027308
1708435586.3850431,-2.1412129402160645,-1.3331540387919922,-2.526400391255514,6.108612048416891,1.0171270370483398,-3.746735159550802
1708435586.3870788,-2.141166925430298,-1.3331092608026047,-2.526370350514547,6.108558761864462,1.0171056985855103,-3.7466726938830774
1708435586.3890421,-2.141183614730835,-1.3331136268428345,-2.526412312184469,6.108669864922323,1.0171716213226318,-3.746685806904928
1708435586.391054,-2.1411969661712646,-1.3331092608026047,-2.526329580937521,6.108636367111959,1.0171136856079102,-3.7466922442065638
1708435586.3930852,-2.1411385536193848,-1.3331168305924912,-2.526346270238058,6.108636367111959,1.0171226263046265,-3.7467051188098353
1708435586.3950732,-2.1412041187286377,-1.333129884009697,-2.526407782231466,6.108603465348043,1.017138957977295,-3.7467382589923304
1708435586.397075,-2.1411454677581787,-1.333137423997261,-2.526400391255514,6.108637559204855,1.0170804262161255,-3.7467296759234827
1708435586.3990831,-2.1412041187286377,-1.3330843907645722,-2.526388470326559,6.108652341156759,1.0171300172805786,-3.7467663923846644
1708435586.4010391,-2.1411995887756348,-1.3331417751363297,-2.526379410420553,6.108645069390096,1.017118215560913,-3.7467578093158167
1708435586.4031363,-2.1412041187286377,-1.3331297946027298,-2.526367489491598,6.108685242920675,1.0170804262161255,-3.746749226246969
1708435586.4050763,-2.141188144683838,-1.3330843162587662,-2.526379410420553,6.108669030457296,1.017118215560913,-3.746770683919088
1708435586.4070802,-2.1411545276641846,-1.33314964294944,-2.526391331349508,6.108717906266012,1.0171012878417969,-3.7467783133136194
1708435586.4090633,-2.1412084102630615,-1.3331453216126938,-2.526362959538595,6.108704674034872,1.0170923471450806,-3.7468109766589563
1708435586.4110508,-2.141233444213867,-1.3331125241569062,-2.52637488046755,6.108651387482443,1.017138957977295,-3.7467826048480433
1708435586.4130723,-2.1411712169647217,-1.3331006181291123,-2.526379410420553,6.108680832176962,1.0171270370483398,-3.746781651173727
1708435586.415044,-2.141174554824829,-1.3331049394658585,-2.5263658205615442,6.1087002632911584,1.0170804262161255,-3.7467902342425745
1708435586.417101,-2.1412198543548584,-1.3331092459014435,-2.526362959538595,6.108725654869833,1.0171048641204834,-3.746753517781393
1708435586.4191523,-2.1412129402160645,-1.333125503068306,-2.526391331349508,6.108703601151266,1.0171092748641968,-3.746773068104879
1708435586.4210997,-2.1412084102630615,-1.3330930185369034,-2.526419703160421,6.1086782095725916,1.0170849561691284,-3.7467859427081507
1708435586.4230838,-2.1411995887756348,-1.3331049096635361,-2.526370350514547,6.108739483147421,1.0171226263046265,-3.7468021551715296
1708435586.4250507,-2.1411995887756348,-1.3331211817315598,-2.526346270238058,6.108748185425558,1.0170937776565552,-3.7468088308917444
1708435586.4270554,-2.1412041187286377,-1.3331330877593537,-2.526362959538595,6.108764874726095,1.0170923471450806,-3.746817413960592
1708435586.429061,-2.1412198543548584,-1.33314964294944,-2.526391331349508,6.108801471977987,1.0171012878417969,-3.7467849890338343
1708435586.431048,-2.1412198543548584,-1.3330886524966736,-2.526358429585592,6.108756053238668,1.0171226263046265,-3.746833626423971
1708435586.4330413,-2.1412155628204346,-1.3330681335977097,-2.5263329187976282,6.108731853752889,1.0170567035675049,-3.7468412558185022
1708435586.4350522,-2.141190528869629,-1.3331287217191239,-2.526386801396505,6.108763205796041,1.0171226263046265,-3.746829334889547
1708435586.4370477,-2.1412065029144287,-1.3331211817315598,-2.526386801396505,6.108756053238668,1.0171136856079102,-3.746845547352926
1708435586.4390414,-2.1412243843078613,-1.3331287664226075,-2.526424233113424,6.1088002798850916,1.017118215560913,-3.74687368074526
1708435586.4410434,-2.141242265701294,-1.3331049245646973,-2.526428763066427,6.108749973564901,1.0171136856079102,-3.7468531767474573
1708435586.4430697,-2.141233444213867,-1.3331255477717896,-2.526367489491598,6.108745562821188,1.017096757888794,-3.7468531767474573
1708435586.4450915,-2.141195058822632,-1.3331571531346817,-2.5263987223254603,6.108815538674154,1.0171012878417969,-3.7468326727496546
1708435586.447113,-2.1412289142608643,-1.3331211817315598,-2.526388470326559,6.108827459603109,1.0171715021133423,-3.7468565146075647
1708435586.449063,-2.1412289142608643,-1.3330887717059632,-2.526346270238058,6.108881103783407,1.0170716047286987,-3.746823851262228
1708435586.4510636,-2.1412065029144287,-1.3331539642861863,-2.526350800191061,6.108799207001486,1.0171345472335815,-3.7468608061419886
1708435586.4530575,-2.141185998916626,-1.3331659597209473,-2.526358429585592,6.1088647721107385,1.0171226263046265,-3.7469101587878626
1708435586.4550393,-2.141190528869629,-1.3331156981042405,-2.526388470326559,6.108912455826559,1.017096757888794,-3.746847693120138
1708435586.4570687,-2.141233444213867,-1.3331287515214463,-2.526346270238058,6.108916747360983,1.017076015472412,-3.7468889395343226
1708435586.459062,-2.141201972961426,-1.3331211817315598,-2.526421372090475,6.10887502410964,1.0170849561691284,-3.7469144503222864
1708435586.461051,-2.141201972961426,-1.3330800247243424,-2.5264256636248987,6.108911144524374,1.017096757888794,-3.7469263712512415
1708435586.4630504,-2.141256093978882,-1.3331125241569062,-2.526395861302511,6.108906614571371,1.0171136856079102,-3.7469468752490442
1708435586.4650397,-2.141233444213867,-1.3331049245646973,-2.526391331349508,6.10894404628829,1.0171012878417969,-3.746913258229391
1708435586.4670444,-2.1412198543548584,-1.3330930185369034,-2.5264363924609583,6.108952986985006,1.0171136856079102,-3.7469046751605433
1708435586.4690762,-2.141185998916626,-1.3331496727517624,-2.526386801396505,6.109000551491537,1.0171136856079102,-3.746908966694967
1708435586.4710488,-2.141247272491455,-1.3331496876529236,-2.5263822714435022,6.108939635544576,1.017076015472412,-3.7469547430621546
1708435586.4731176,-2.141268491744995,-1.3331690740636368,-2.526407782231466,6.108993041306295,1.017096757888794,-3.7469285170184534
1708435586.4750712,-2.1412596702575684,-1.3331200194409867,-2.5263329187976282,6.108942734986105,1.0171136856079102,-3.7469940821277063
1708435586.477109,-2.141242742538452,-1.3331211668303986,-2.526358429585592,6.108979809075155,1.0171136856079102,-3.7469165960894983
1708435586.479061,-2.1412596702575684,-1.333145336513855,-2.526388470326559,6.108974087029257,1.017096757888794,-3.746920887623922
1708435586.4810553,-2.1412312984466553,-1.3331168454936524,-2.526403252278463,6.109057295113363,1.0171012878417969,-3.74697715440859
1708435586.4830678,-2.1412642002105713,-1.3330843162587662,-2.526370350514547,6.109057295113363,1.017118215560913,-3.7469940821277063
1708435586.485037,-2.1412596702575684,-1.333100603227951,-2.526341740285055,6.10897849777297,1.0171092748641968,-3.7470014731036585
1708435586.4870656,-2.1412551403045654,-1.3331821274808426,-2.526421372090475,6.109042751580038,1.0171136856079102,-3.746976677571432
1708435586.4890602,-2.1412551403045654,-1.3331496727517624,-2.526395861302511,6.109072196274557,1.0171136856079102,-3.746943537388937
1708435586.4910567,-2.1412596702575684,-1.3331168454936524,-2.526433054600851,6.109026419907369,1.0171345472335815,-3.7469940821277063
1708435586.493061,-2.141308307647705,-1.33316025257621,-2.526362959538595,6.109035241394796,1.0171375274658203,-3.7469196955310267
1708435586.4950547,-2.1412746906280518,-1.3331615936807175,-2.526403252278463,6.109054672508993,1.0171136856079102,-3.7470222155200403
1708435586.497055,-2.141263246536255,-1.3331734252027054,-2.526386801396505,6.109115469246664,1.0171226263046265,-3.7470014731036585
1708435586.4990456,-2.1413376331329346,-1.333100603227951,-2.526362959538595,6.109096514969625,1.0170893669128418,-3.746972386037008
1708435586.5010614,-2.141328811645508,-1.3331409257701416,-2.526358429585592,6.109083163529196,1.017146348953247,-3.747021023427145
1708435586.5030844,-2.1412858963012695,-1.3331659150174637,-2.526379410420553,6.109062540322103,1.0171375274658203,-3.746976677571432
1708435586.5050673,-2.1412835121154785,-1.3331330877593537,-2.526386801396505,6.109090792923727,1.0171183347702026,-3.7470534483539026
1708435586.5070822,-2.1412746906280518,-1.3331112426570435,-2.526407782231466,6.109099495201864,1.0171300172805786,-3.747004810963766
1708435586.5090604,-2.1413357257843018,-1.3331038516810914,-2.5263341108905237,6.109090912133016,1.0171419382095337,-3.747016731892721
1708435586.5110583,-2.141328811645508,-1.3331855994514008,-2.526407782231466,6.109110224037924,1.017096757888794,-3.7470253149615687
1708435586.5130632,-2.1413073539733887,-1.333124355678894,-2.526358429585592,6.109184491425314,1.017104983329773,-3.7469971815692347
1708435586.5150616,-2.1413025856018066,-1.333145336513855,-2.526362959538595,6.109159099846639,1.017096757888794,-3.747049156819479
1708435586.5170658,-2.1412699222564697,-1.3331496727517624,-2.526395861302511,6.109171378403463,1.0171012878417969,-3.747072998677389
1708435586.5190995,-2.141315221786499,-1.3331037622741242,-2.526416842137472,6.109199511795797,1.0171092748641968,-3.7470200697528284
1708435586.5210953,-2.141331195831299,-1.333124355678894,-2.526346270238058,6.109158146172323,1.0170804262161255,-3.7470696608172815
1708435586.523054,-2.141319751739502,-1.3331615638783951,-2.5263176600085657,6.109230863838949,1.0171256065368652,-3.747061077748434
1708435586.5250537,-2.1413559913635254,-1.333172620540001,-2.526350800191061,6.109199511795797,1.0171092748641968,-3.747028652821676
1708435586.527062,-2.141324281692505,-1.3331125241569062,-2.526404921208517,6.109181868820944,1.017096757888794,-3.747072998677389
1708435586.5290492,-2.1413614749908447,-1.3331453514150162,-2.526386801396505,6.109198200493612,1.01715087890625,-3.7469993273364466
1708435586.531046,-2.141319751739502,-1.3330950301936646,-2.526341740285055,6.1092145321662805,1.0171136856079102,-3.7470362822162073
1708435586.5330703,-2.141339063644409,-1.3331485253623505,-2.526400391255514,6.109250533371725,1.0170923471450806,-3.747028652821676
1708435586.5350692,-2.1413347721099854,-1.333157168035843,-2.526400391255514,6.109233844071188,1.0171300172805786,-3.747040573750631
1708435586.5370557,-2.141348123550415,-1.333157168035843,-2.526400391255514,6.109205710678854,1.0171300172805786,-3.7471030394183558
1708435586.5390902,-2.141371965408325,-1.3331603568843384,-2.526428763066427,6.109180438309469,1.0171256065368652,-3.7470598856555384
1708435586.5410528,-2.1413559913635254,-1.3331691038659592,-2.526421372090475,6.109295117646017,1.0171256065368652,-3.7470362822162073
1708435586.5430346,-2.1413347721099854,-1.3331733655980607,-2.5263598600970667,6.10928629615859,1.0171256065368652,-3.747061077748434
1708435586.5450892,-2.141380786895752,-1.3331647676280518,-2.526362959538595,6.109283196717062,1.017096757888794,-3.7471028009997767
1708435586.5470352,-2.1413559913635254,-1.3331157279065629,-2.526395861302511,6.109258162766256,1.017118215560913,-3.7470598856555384
1708435586.5490386,-2.1413302421569824,-1.3332063120654603,-2.5264409224139612,6.109274375229635,1.01715087890625,-3.747064177189962
1708435586.5510402,-2.141400098800659,-1.333145336513855,-2.526383940373556,6.1093236086662195,1.0171048641204834,-3.7470653692828577
1708435586.5530407,-2.141383409500122,-1.3331528168967743,-2.526428763066427,6.10924922206954,1.0171136856079102,-3.7470811049090784
1708435586.5550592,-2.141387701034546,-1.333169088964798,-2.526358429585592,6.10927306392745,1.017096757888794,-3.74705678621401
1708435586.557071,-2.1413471698760986,-1.3332107824138184,-2.526416842137472,6.109375583916464,1.0171048641204834,-3.7470524946795862
1708435586.5590796,-2.1413629055023193,-1.333169088964798,-2.5263822714435022,6.1092907069023035,1.0171012878417969,-3.747110430394308
1708435586.5610428,-2.1413514614105225,-1.3331615936807175,-2.526391331349508,6.1093307612235925,1.0171136856079102,-3.747068707142965
1708435586.5630593,-2.1413745880126953,-1.3331528466990967,-2.5263658205615442,6.109326350479879,1.017104983329773,-3.747064177189962
1708435586.5650527,-2.1413586139678955,-1.3331243109754105,-2.526353899632589,6.109342682152548,1.0171048641204834,-3.747089926396505
1708435586.5670552,-2.1413629055023193,-1.333156020646431,-2.526391331349508,6.109294044762411,1.0171056985855103,-3.747049156819479
1708435586.5690532,-2.1413912773132324,-1.3331813526204606,-2.526346270238058,6.109297144203939,1.0171136856079102,-3.747089926396505
1708435586.571065,-2.141400098800659,-1.3332062375596543,-2.526421372090475,6.109354960709371,1.0171256065368652,-3.7470811049090784
1708435586.5730777,-2.1414127349853516,-1.3331366044333954,-2.526362959538595,6.109354960709371,1.017096757888794,-3.747089926396505
1708435586.5750568,-2.1413867473602295,-1.3331199896386643,-2.526386801396505,6.109292852669515,1.017076015472412,-3.7471018473254603
1708435586.5770679,-2.1413912773132324,-1.333144099717476,-2.526383940373556,6.1093506691749475,1.0171345472335815,-3.7470811049090784
1708435586.579039,-2.1414151191711426,-1.3331366193345566,-2.526416842137472,6.1093788025672815,1.017118215560913,-3.747064177189962
1708435586.5810773,-2.1413991451263428,-1.3331235510161896,-2.52645451227297,6.109313237458029,1.017064094543457,-3.7470479647265833
1708435586.583049,-2.1414127349853516,-1.3331944060376664,-2.526424233113424,6.109297263413229,1.0171300172805786,-3.747089926396505
1708435586.5850728,-2.1414692401885986,-1.3332253408483048,-2.526400391255514,6.109346139221945,1.017096757888794,-3.74705678621401
1708435586.5870569,-2.1414196491241455,-1.333144099717476,-2.5263822714435022,6.109383213310995,1.0171012878417969,-3.7470768133746546
1708435586.5890443,-2.1413655281066895,-1.3331441444209595,-2.526353899632589,6.109333026200094,1.017096757888794,-3.7470930258380335
1708435586.5910656,-2.141455888748169,-1.333197609787323,-2.526407782231466,6.10938178279952,1.0171012878417969,-3.7470930258380335
1708435586.5930388,-2.1414411067962646,-1.333188847904541,-2.526388470326559,6.10933397987441,1.017076015472412,-3.747064177189962
1708435586.595066,-2.141386032104492,-1.333151788716652,-2.526412312184469,6.109356748848715,1.017076015472412,-3.747072998677389
1708435586.5970626,-2.141386032104492,-1.3331856739572068,-2.5264363924609583,6.109427916794576,1.0171136856079102,-3.747145477925436
1708435586.5990803,-2.141439914703369,-1.3331726056388398,-2.526358429585592,6.1093580601509,1.0171226263046265,-3.7471092383014124
1708435586.6010437,-2.1414692401885986,-1.3332210195115586,-2.526391331349508,6.109367000847616,1.017096757888794,-3.7471092383014124
1708435586.6030622,-2.141455888748169,-1.3331397783807297,-2.526428763066427,6.109394061356344,1.017138957977295,-3.7470887343036097
1708435586.6050713,-2.1414647102355957,-1.333201916222908,-2.526428763066427,6.1094103930290125,1.0171136856079102,-3.7470887343036097
1708435586.607059,-2.1414761543273926,-1.3331485253623505,-2.526358429585592,6.1093493578727625,1.0171226263046265,-3.7471135298358362
1708435586.6090884,-2.141444444656372,-1.3331975948861619,-2.526404921208517,6.109369981079855,1.0171300172805786,-3.7470930258380335
1708435586.6110837,-2.141414165496826,-1.3331962090781708,-2.526428763066427,6.109333026200094,1.0171136856079102,-3.7471135298358362
1708435586.6130571,-2.141392946243286,-1.3331831407598038,-2.526424233113424,6.109333026200094,1.0171270370483398,-3.7471254507647913
1708435586.6150484,-2.141455888748169,-1.3331888628057023,-2.526391331349508,6.1094103930290125,1.0171211957931519,-3.747129742299215
1708435586.6170745,-2.1414716243743896,-1.3332090985826035,-2.526391331349508,6.109394061356344,1.0171345472335815,-3.7470973173724573
1708435586.619095,-2.141451358795166,-1.333188847904541,-2.526393000279562,6.109414803772726,1.0171432495117188,-3.747064177189962
1708435586.6210632,-2.141479730606079,-1.3332375896028061,-2.5263658205615442,6.109361040383138,1.017096757888794,-3.747129742299215
1708435586.6230636,-2.141451358795166,-1.3331726056388398,-2.526437584553854,6.109373080521383,1.0171345472335815,-3.7471497694598597
1708435586.625039,-2.141488552093506,-1.3331726354411622,-2.526395861302511,6.109380829125204,1.0171300172805786,-3.7470393816577356
1708435586.6270719,-2.141488552093506,-1.3332124513438721,-2.526362959538595,6.109427916794576,1.0171012878417969,-3.747068707142965
1708435586.6290917,-2.1414096355438232,-1.3331647676280518,-2.526367489491598,6.109401571541586,1.0171056985855103,-3.7470811049090784
1708435586.6310465,-2.1414334774017334,-1.3331235361150284,-2.526358429585592,6.109447705536642,1.0171056985855103,-3.7471018473254603
1708435586.633049,-2.1414918899536133,-1.3332178455642243,-2.526379410420553,6.109402882843771,1.017076015472412,-3.7470811049090784
1708435586.6350672,-2.1414716243743896,-1.3331683588078995,-2.526391331349508,6.109426605492391,1.017118215560913,-3.7470811049090784
1708435586.637032,-2.141479730606079,-1.333176926975586,-2.526395861302511,6.109404790192404,1.017096757888794,-3.747134272252218
1708435586.6390514,-2.141458511352539,-1.333176926975586,-2.526353899632589,6.109471189766683,1.017096757888794,-3.747084442769186
1708435586.6410627,-2.141475200653076,-1.3331528466990967,-2.526407782231466,6.109430062561788,1.0171092748641968,-3.747129742299215
1708435586.6430583,-2.141462802886963,-1.333193154340126,-2.526407782231466,6.109430062561788,1.0171136856079102,-3.7471135298358362
1708435586.6450377,-2.1414875984191895,-1.333176926975586,-2.52637488046755,6.109417903214254,1.0171419382095337,-3.7470973173724573
1708435586.6470602,-2.1414706707000732,-1.33322028935466,-2.526395861302511,6.109397160797872,1.017118215560913,-3.747084442769186
1708435586.649063,-2.1414265632629395,-1.333200530414917,-2.526386801396505,6.109401571541586,1.017118215560913,-3.7471006552325647
1708435586.6510618,-2.141453981399536,-1.3331683588078995,-2.526403252278463,6.109364259033956,1.0171300172805786,-3.7471135298358362
1708435586.6530445,-2.141512393951416,-1.3332135093263169,-2.526337210332052,6.109388458519735,1.0170923471450806,-3.7470887343036097
1708435586.6550612,-2.1415035724639893,-1.3331647676280518,-2.526395861302511,6.10937653759078,1.0171048641204834,-3.7471049467669886
1708435586.657051,-2.141496419906616,-1.3332297664931794,-2.526367489491598,6.109483110695638,1.0170716047286987,-3.7470725218402308
1708435586.6590579,-2.1414380073547363,-1.333188847904541,-2.526391331349508,6.109438884049215,1.0171300172805786,-3.7470768133746546
1708435586.6610367,-2.1414310932159424,-1.333151788716652,-2.526391331349508,6.109430062561788,1.0171256065368652,-3.7470811049090784
1708435586.6630447,-2.1414663791656494,-1.3331931692412873,-2.526341740285055,6.109401571541586,1.0171345472335815,-3.7470856348620813
1708435586.6650426,-2.1414787769317627,-1.3332090985826035,-2.526421372090475,6.109405982285299,1.017096757888794,-3.7470930258380335
1708435586.6670735,-2.14145827293396,-1.3332297664931794,-2.526370350514547,6.109385359078207,1.017096757888794,-3.7470725218402308
1708435586.6690338,-2.1414451599121094,-1.333157168035843,-2.526395861302511,6.109413492470541,1.017096757888794,-3.747084442769186
1708435586.6710317,-2.141536235809326,-1.3331647676280518,-2.526367489491598,6.109405982285299,1.0170849561691284,-3.7470973173724573
1708435586.6730435,-2.1414449214935303,-1.3332178455642243,-2.526379410420553,6.109434592514791,1.017076015472412,-3.7470930258380335
1708435586.675052,-2.141510486602783,-1.3332047772458573,-2.526341740285055,6.109388458519735,1.0171136856079102,-3.7471092383014124
1708435586.677039,-2.1414875984191895,-1.3331552904895325,-2.526346270238058,6.109413373261251,1.0171092748641968,-3.7471006552325647
1708435586.6790514,-2.1414709091186523,-1.3331856739572068,-2.5263386408435267,6.109367835312643,1.017076015472412,-3.7470768133746546
1708435586.6810427,-2.141536235809326,-1.3331683588078995,-2.526395861302511,6.109462368279257,1.0170804262161255,-3.7471092383014124
1708435586.6830666,-2.141453742980957,-1.333188847904541,-2.5263658205615442,6.109426605492391,1.0171345472335815,-3.7471049467669886
1708435586.6850448,-2.1414990425109863,-1.333176926975586,-2.526404921208517,6.109426605492391,1.0171300172805786,-3.7471135298358362
1708435586.6870651,-2.1414787769317627,-1.3332210195115586,-2.526372019444601,6.1093928692634485,1.017076015472412,-3.7471135298358362
1708435586.6890523,-2.1414990425109863,-1.3331931692412873,-2.526370350514547,6.109454858094015,1.0171300172805786,-3.7471283117877405
1708435586.6910694,-2.1415035724639893,-1.3332375896028061,-2.526367489491598,6.109417903214254,1.0171256065368652,-3.7470930258380335
1708435586.693075,-2.141510486602783,-1.3331931692412873,-2.52637488046755,6.109385359078207,1.0171136856079102,-3.7471006552325647
1708435586.695051,-2.14151930809021,-1.3332384091666718,-2.526400391255514,6.109413492470541,1.017118215560913,-3.7471092383014124
1708435586.6970654,-2.141515016555786,-1.3332080406001587,-2.52637488046755,6.109397160797872,1.0170730352401733,-3.7470768133746546
1708435586.699113,-2.1414921283721924,-1.3332124513438721,-2.526388470326559,6.109377491265096,1.017146348953247,-3.747063938771383
1708435586.7010443,-2.1414945125579834,-1.333200530414917,-2.526391331349508,6.109409081726827,1.0171092748641968,-3.7470811049090784
1708435586.7030776,-2.1414787769317627,-1.3331831407598038,-2.52637488046755,6.109405982285299,1.0171092748641968,-3.7471211592303675
1708435586.7050583,-2.1414787769317627,-1.3331846010736008,-2.526400391255514,6.109426605492391,1.0171270370483398,-3.747096363698141
1708435586.7070718,-2.141528367996216,-1.333200530414917,-2.526395861302511,6.109446036606588,1.017080307006836,-3.747072998677389
1708435586.7090912,-2.1414833068847656,-1.3331683588078995,-2.52637488046755,6.109438884049215,1.0170804262161255,-3.747084442769186
1708435586.7110817,-2.1414742469787598,-1.3331917834332963,-2.526400391255514,6.109398591309347,1.0170966386795044,-3.747112814580099
1708435586.7130687,-2.141580581665039,-1.3331603568843384,-2.526395861302511,6.109430062561788,1.0171056985855103,-3.7470973173724573
1708435586.7150743,-2.1414830684661865,-1.333188847904541,-2.526400391255514,6.109409081726827,1.017096757888794,-3.7470555941211146
1708435586.717085,-2.141515016555786,-1.333200530414917,-2.5263598600970667,6.1094504473503015,1.0171256065368652,-3.747141186391012
1708435586.7191017,-2.14151930809021,-1.3331640374711533,-2.5263643900500696,6.109413492470541,1.0171538591384888,-3.7471006552325647
1708435586.7210584,-2.141510486602783,-1.3332124513438721,-2.526383940373556,6.109434473305502,1.0171136856079102,-3.7470811049090784
1708435586.7230704,-2.1414787769317627,-1.3332080406001587,-2.526383940373556,6.1094223139579675,1.0171092748641968,-3.7471168676959437
1708435586.725071,-2.1414945125579834,-1.3332178455642243,-2.526358429585592,6.109430062561788,1.017162561416626,-3.7471018473254603
1708435586.727127,-2.1414833068847656,-1.3332428348115464,-2.526383940373556,6.1094257710273645,1.0171056985855103,-3.7470930258380335
1708435586.7290668,-2.141540765762329,-1.3331603568843384,-2.526358429585592,6.109413373261251,1.017096757888794,-3.747084442769186
1708435586.73104,-2.1415326595306396,-1.3332090985826035,-2.52637488046755,6.109454858094015,1.017096757888794,-3.7470725218402308
1708435586.7330966,-2.1414902210235596,-1.333200530414917,-2.526407782231466,6.1094223139579675,1.0171300172805786,-3.7471135298358362
1708435586.7350402,-2.1414902210235596,-1.3331846010736008,-2.526391331349508,6.109405982285299,1.0171552896499634,-3.747136656438009
1708435586.7371044,-2.1414990425109863,-1.3331846010736008,-2.526424233113424,6.1094257710273645,1.0170596837997437,-3.747064177189962
1708435586.7390568,-2.1415228843688965,-1.333200530414917,-2.526386801396505,6.109438884049215,1.0170804262161255,-3.7471049467669886
1708435586.7410736,-2.1414945125579834,-1.333200530414917,-2.526320521031515,6.109380829125204,1.0171012878417969,-3.7471211592303675
1708435586.7431102,-2.1414742469787598,-1.333151788716652,-2.526362959538595,6.109356748848715,1.0171056985855103,-3.7470768133746546
1708435586.7450807,-2.1415016651153564,-1.333188847904541,-2.5263386408435267,6.1094432947929285,1.0171136856079102,-3.7471135298358362
1708435586.7470827,-2.1415281295776367,-1.3331726056388398,-2.5263341108905237,6.109452116280355,1.0171136856079102,-3.7471092383014124
1708435586.7490976,-2.141515016555786,-1.3332210195115586,-2.526379410420553,6.109401571541586,1.0171226263046265,-3.7471135298358362
1708435586.751041,-2.1415274143218994,-1.333176926975586,-2.526395861302511,6.109373080521383,1.0171226263046265,-3.7471092383014124
1708435586.7530894,-2.141510486602783,-1.333151788716652,-2.526372019444601,6.109373080521383,1.0170804262161255,-3.7471211592303675
1708435586.7550561,-2.141557455062866,-1.3331474524787446,-2.526383940373556,6.109459268837728,1.0171971321105957,-3.7470725218402308
1708435586.7570732,-2.141523838043213,-1.3332365316203614,-2.526379410420553,6.109401571541586,1.017096757888794,-3.7471168676959437
1708435586.7590752,-2.1415441036224365,-1.3331596118262787,-2.526372019444601,6.109347927361288,1.0170477628707886,-3.7471049467669886
1708435586.7610514,-2.1414530277252197,-1.3331726056388398,-2.52640945116152,6.109425651818075,1.0170923471450806,-3.7471211592303675
1708435586.7630785,-2.1415228843688965,-1.3332297664931794,-2.526362959538595,6.109394061356344,1.0170804262161255,-3.7470436731921595
1708435586.7650754,-2.1414787769317627,-1.3332090985826035,-2.526383940373556,6.1094504473503015,1.01706862449646,-3.7470887343036097
1708435586.7670798,-2.1414742469787598,-1.333200530414917,-2.526346270238058,6.109401571541586,1.0171056985855103,-3.7471211592303675
1708435586.7690578,-2.1415035724639893,-1.3331846010736008,-2.526358429585592,6.109401571541586,1.0171136856079102,-3.747084442769186
1708435586.7710655,-2.141469955444336,-1.3332135093263169,-2.526391331349508,6.1094103930290125,1.0171012878417969,-3.7470725218402308
1708435586.7730665,-2.1414945125579834,-1.3332090687802811,-2.52637488046755,6.109389650612631,1.0171136856079102,-3.7470973173724573
1708435586.775065,-2.141496419906616,-1.3331726056388398,-2.526383940373556,6.109394061356344,1.017096757888794,-3.7470555941211146
1708435586.777074,-2.141536235809326,-1.3331596714309235,-2.52637488046755,6.109397160797872,1.0171345472335815,-3.7471092383014124
1708435586.7790527,-2.141523838043213,-1.333200530414917,-2.526341740285055,6.109419214516439,1.0170937776565552,-3.7471092383014124
1708435586.7810528,-2.1414787769317627,-1.333200530414917,-2.5263822714435022,6.109401571541586,1.0171300172805786,-3.7471135298358362
1708435586.7830725,-2.141510486602783,-1.333180309539177,-2.526337210332052,6.109398591309347,1.0171136856079102,-3.7471049467669886
1708435586.7850626,-2.141523838043213,-1.3332333278707047,-2.526412312184469,6.109361159592428,1.0171300172805786,-3.7471211592303675
1708435586.787095,-2.1415016651153564,-1.3331888628057023,-2.526400391255514,6.109328496247091,1.0171012878417969,-3.747153107319967
1708435586.789079,-2.1414945125579834,-1.3332090687802811,-2.526353899632589,6.1094117043311975,1.017118215560913,-3.7470930258380335
1708435586.791057,-2.1415035724639893,-1.3331603568843384,-2.526358429585592,6.109394061356344,1.017118215560913,-3.7471240202533167
1708435586.7931025,-2.1414875984191895,-1.33317585409198,-2.526388470326559,6.109369981079855,1.017118215560913,-3.747064177189962
1708435586.7950764,-2.1414575576782227,-1.3332047772458573,-2.526391331349508,6.109394061356344,1.017118215560913,-3.747084442769186
1708435586.7970843,-2.14151930809021,-1.3331975948861619,-2.526358429585592,6.109303104668417,1.0171300172805786,-3.7471092383014124
1708435586.7990596,-2.141510486602783,-1.333204762344696,-2.5263493696795862,6.109324204712667,1.0171256065368652,-3.74709660211672
1708435586.8010552,-2.1415016651153564,-1.3332090687802811,-2.526379410420553,6.109394061356344,1.017096757888794,-3.7470930258380335
1708435586.8030345,-2.1414875984191895,-1.333233357673027,-2.526337210332052,6.1093493578727625,1.0171136856079102,-3.7470768133746546
1708435586.8050556,-2.1414990425109863,-1.3331726056388398,-2.526370350514547,6.109398472100057,1.0170804262161255,-3.7471779028521937
1708435586.8070664,-2.1414945125579834,-1.3332167726806183,-2.526404921208517,6.109435546189108,1.0170849561691284,-3.74709660211672
1708435586.8090472,-2.1414742469787598,-1.3332210195115586,-2.526383940373556,6.1093493578727625,1.017104983329773,-3.7471323649035853
1708435586.811036,-2.141475200653076,-1.333184615974762,-2.526404921208517,6.109361159592428,1.0170717239379883,-3.7471006552325647
1708435586.8130498,-2.1414787769317627,-1.3332297068885346,-2.52643329301943,6.109414803772726,1.0171300172805786,-3.7471049467669886
1708435586.8150756,-2.141510486602783,-1.3332090985826035,-2.526320521031515,6.109380829125204,1.0171136856079102,-3.747064177189962
1708435586.817054,-2.1414618492126465,-1.333176926975586,-2.526379410420553,6.109423625260153,1.017096757888794,-3.7470930258380335
1708435586.8190856,-2.1414406299591064,-1.333233357673027,-2.52637488046755,6.109353649407186,1.0171136856079102,-3.7470973173724573
1708435586.8210754,-2.1414945125579834,-1.3331846010736008,-2.526383940373556,6.109366881638326,1.0171101093292236,-3.7471092383014124
1708435586.8230715,-2.1414787769317627,-1.3332505834153672,-2.52640945116152,6.109377372055807,1.017118215560913,-3.747118059788839
1708435586.825094,-2.141510486602783,-1.333151788716652,-2.526346270238058,6.109361159592428,1.0171012878417969,-3.747134272252218
1708435586.8270917,-2.1414830684661865,-1.3332124513438721,-2.5263553301440638,6.109341728478231,1.0170730352401733,-3.7470555941211146
1708435586.8290608,-2.1414575576782227,-1.3332047772458573,-2.526372019444601,6.109365570336141,1.0170804262161255,-3.7470393816577356
1708435586.8310654,-2.1415016651153564,-1.3331726056388398,-2.526367489491598,6.109333026200094,1.017096757888794,-3.7470725218402308
1708435586.833067,-2.141523838043213,-1.3331560504487534,-2.526350800191061,6.1093788025672815,1.017096757888794,-3.7471006552325647
1708435586.8350635,-2.1414990425109863,-1.3332209897092362,-2.526388470326559,6.109435546189108,1.0171056985855103,-3.747118059788839
1708435586.8370693,-2.1415183544158936,-1.333200530414917,-2.5263341108905237,6.109362470894613,1.0171270370483398,-3.7470973173724573
1708435586.8391051,-2.1414875984191895,-1.333156020646431,-2.526362959538595,6.109423625260153,1.0171012878417969,-3.747084442769186
1708435586.8410528,-2.1414945125579834,-1.3331975650838395,-2.526362959538595,6.10938190200881,1.0170849561691284,-3.7470930258380335
1708435586.843071,-2.1414787769317627,-1.333204762344696,-2.526383940373556,6.109399544983663,1.017064094543457,-3.7471092383014124
1708435586.845046,-2.141453981399536,-1.333185688858368,-2.526362959538595,6.1093580601509,1.0171136856079102,-3.7470887343036097
1708435586.8470833,-2.141515016555786,-1.333139808183052,-2.526388470326559,6.109308826714315,1.0171345472335815,-3.7470887343036097
1708435586.849074,-2.14151930809021,-1.3331640374711533,-2.526350800191061,6.109349238663473,1.0171012878417969,-3.7471049467669886
1708435586.851033,-2.1415529251098633,-1.3332253110459824,-2.5263822714435022,6.109341728478231,1.017118215560913,-3.7470930258380335
1708435586.8530593,-2.1414945125579834,-1.3331441295197983,-2.526386801396505,6.1093788025672815,1.0171211957931519,-3.7471135298358362
1708435586.855043,-2.1414875984191895,-1.333188847904541,-2.526341740285055,6.1093294499214075,1.0171270370483398,-3.7471168676959437
1708435586.8570647,-2.1414875984191895,-1.3332124513438721,-2.526395861302511,6.109326350479879,1.0171136856079102,-3.7471018473254603
1708435586.8590765,-2.1414875984191895,-1.333188847904541,-2.5263658205615442,6.109346139221945,1.0171300172805786,-3.747129742299215
1708435586.8610628,-2.1414945125579834,-1.333188847904541,-2.52643329301943,6.1093681929405115,1.0170716047286987,-3.7471254507647913
1708435586.8630772,-2.1415061950683594,-1.333184615974762,-2.526370350514547,6.109317648201742,1.0171136856079102,-3.747064177189962
1708435586.865106,-2.1415061950683594,-1.333204762344696,-2.526370350514547,6.109301674156942,1.017064094543457,-3.7471092383014124
1708435586.8671074,-2.141515016555786,-1.3332462769797822,-2.526346270238058,6.109326350479879,1.017096757888794,-3.7470973173724573
1708435586.8690627,-2.1415274143218994,-1.333168388610222,-2.526341740285055,6.109277474671163,1.0171056985855103,-3.7470973173724573
1708435586.8710625,-2.141523838043213,-1.3331813228181382,-2.526383940373556,6.109277355461874,1.017076015472412,-3.747138563786642
1708435586.8730757,-2.1414990425109863,-1.3331918132356186,-2.5263176600085657,6.10924922206954,1.0171476602554321,-3.747118059788839
1708435586.8750625,-2.1414787769317627,-1.3331802797368546,-2.526350800191061,6.109188067704,1.0171226263046265,-3.747035090123312
1708435586.8770423,-2.1414947509765625,-1.3331802797368546,-2.526353899632589,6.109233963280477,1.0171092748641968,-3.7471135298358362
1708435586.8790421,-2.1414902210235596,-1.333168388610222,-2.526358429585592,6.1092461226280115,1.017138957977295,-3.7471135298358362
1708435586.881047,-2.14151930809021,-1.3332505834153672,-2.526383940373556,6.109283077507772,1.0171136856079102,-3.7471049467669886
1708435586.8830373,-2.141510486602783,-1.3332135093263169,-2.526393000279562,6.1092132208640955,1.0171226263046265,-3.7471211592303675
1708435586.885042,-2.1415228843688965,-1.333143101339676,-2.526391331349508,6.10920129993514,1.017096757888794,-3.747129742299215
1708435586.8870473,-2.1415059566497803,-1.3332253408483048,-2.526376549397604,6.109188067704,1.0171345472335815,-3.7470725218402308
1708435586.889066,-2.1414945125579834,-1.333184615974762,-2.526372019444601,6.109205829888143,1.0171136856079102,-3.7470725218402308
1708435586.8910427,-2.141540765762329,-1.333204762344696,-2.5263553301440638,6.1092800972755334,1.017118215560913,-3.7471049467669886
1708435586.8930576,-2.1414990425109863,-1.333204762344696,-2.526388470326559,6.109208810120382,1.017118215560913,-3.7470930258380335
1708435586.8951044,-2.141449451446533,-1.3332452487996598,-2.52637488046755,6.109226453095236,1.0171270370483398,-3.747047011052267
1708435586.8970592,-2.1414573192596436,-1.333200530414917,-2.526353899632589,6.109303939133444,1.0171092748641968,-3.7470930258380335
1708435586.8990545,-2.1414787769317627,-1.3332090985826035,-2.526395861302511,6.109226453095236,1.0170879364013672,-3.7470811049090784
1708435586.9010532,-2.141515016555786,-1.3332375598004838,-2.526353899632589,6.109205829888143,1.017096757888794,-3.7470725218402308
1708435586.9030557,-2.141515016555786,-1.3331640672734757,-2.526358429585592,6.109247195511617,1.0171092748641968,-3.74709660211672
1708435586.9050858,-2.1414787769317627,-1.3331603717854996,-2.526362959538595,6.109263765602865,1.0170804262161255,-3.7471049467669886
1708435586.9070542,-2.14151930809021,-1.333204762344696,-2.526370350514547,6.109218942909994,1.0170879364013672,-3.7471211592303675
1708435586.9090488,-2.141510486602783,-1.3331475120833893,-2.526325289403097,6.109202611237325,1.0171226263046265,-3.7471323649035853
1708435586.9110794,-2.1415035724639893,-1.3331518036178132,-2.526391331349508,6.109226453095236,1.0171092748641968,-3.747064177189962
1708435586.9130647,-2.14154052734375,-1.333168388610222,-2.526341740285055,6.109223353653707,1.017064094543457,-3.747129742299215
1708435586.9150932,-2.141475200653076,-1.3331888777068635,-2.526383940373556,6.109208810120382,1.017096757888794,-3.7471323649035853
1708435586.9170403,-2.1415529251098633,-1.333168388610222,-2.526383940373556,6.109170067101278,1.017118215560913,-3.7470760981189173
1708435586.9190547,-2.141507863998413,-1.333188847904541,-2.526386801396505,6.109250533371725,1.0170596837997437,-3.747129742299215
1708435586.92109,-2.1414706707000732,-1.333200530414917,-2.5263221899615687,6.10926245430068,1.017118215560913,-3.7471452395068567
1708435586.9230647,-2.141510486602783,-1.3331961792758484,-2.526395861302511,6.109173166542806,1.0170923471450806,-3.747129742299215
1708435586.9250784,-2.1415326595306396,-1.3332090687802811,-2.52637488046755,6.109235274582662,1.0171300172805786,-3.7470555941211146
1708435586.9270318,-2.1415035724639893,-1.3331603717854996,-2.526383940373556,6.10920129993514,1.0171012878417969,-3.747080389653341
1708435586.9290438,-2.1414990425109863,-1.3331888330033799,-2.526383940373556,6.109233963280477,1.0170923471450806,-3.7470887343036097
1708435586.931044,-2.141568899154663,-1.3332209897092362,-2.526388470326559,6.109173166542806,1.0170730352401733,-3.747140947972433
1708435586.9330375,-2.1415317058563232,-1.3331640672734757,-2.526421133671896,6.1092145321662805,1.017096757888794,-3.7471006552325647
1708435586.935081,-2.1415035724639893,-1.3331931990436097,-2.5263341108905237,6.109222042351522,1.01706862449646,-3.7470930258380335
1708435586.9370432,-2.1415035724639893,-1.3331931692412873,-2.526383940373556,6.1091699478919885,1.0171092748641968,-3.7471018473254603
1708435586.9390476,-2.14151930809021,-1.333184615974762,-2.5263341108905237,6.109202611237325,1.0170966386795044,-3.7470513025866907
1708435586.9410605,-2.14151930809021,-1.333233357673027,-2.526383940373556,6.1091686365898035,1.0171092748641968,-3.7471092383014124
1708435586.9430373,-2.1414663791656494,-1.3331430417350312,-2.526395861302511,6.109230863838949,1.0170893669128418,-3.7471006552325647
1708435586.9450693,-2.141449451446533,-1.3332090985826035,-2.526412312184469,6.109210240631857,1.0171012878417969,-3.7471135298358362
1708435586.947049,-2.14151930809021,-1.3332135093263169,-2.526421372090475,6.1092145321662805,1.017138957977295,-3.7470930258380335
1708435586.949064,-2.1414830684661865,-1.3332124513438721,-2.526367489491598,6.109230863838949,1.0170552730560303,-3.747157160435812
1708435586.951053,-2.141453981399536,-1.333233357673027,-2.526400391255514,6.1091863987739465,1.0170849561691284,-3.747072998677389
1708435586.953046,-2.1414618492126465,-1.3331640821746369,-2.526393000279562,6.109161245613851,1.0171136856079102,-3.7471254507647913
1708435586.9550436,-2.1414990425109863,-1.3331647676280518,-2.526379410420553,6.109239566117086,1.017096757888794,-3.7470768133746546
1708435586.9570525,-2.14151930809021,-1.3332167726806183,-2.5263598600970667,6.109186279564657,1.0171226263046265,-3.747080389653341
1708435586.9590402,-2.141510486602783,-1.3332167875817795,-2.526346270238058,6.1092320559318445,1.0171226263046265,-3.7470811049090784
1708435586.9610937,-2.14151930809021,-1.333180309539177,-2.526362959538595,6.109186279564657,1.0171056985855103,-3.7470768133746546
1708435586.9630718,-2.1415317058563232,-1.3331683588078995,-2.526379410420553,6.109210121422567,1.0170893669128418,-3.7471049467669886
1708435586.965095,-2.1414334774017334,-1.3331845861724396,-2.526391331349508,6.109198200493612,1.0171056985855103,-3.7470887343036097
1708435586.9671009,-2.141479730606079,-1.3331758987954636,-2.526400391255514,6.109226453095236,1.0170804262161255,-3.7471168676959437
1708435586.9690542,-2.1414618492126465,-1.333176926975586,-2.5263643900500696,6.10917757728652,1.0171092748641968,-3.7470930258380335
1708435586.9710636,-2.1415281295776367,-1.3331931841424485,-2.526388470326559,6.10919080951766,1.0170923471450806,-3.747134272252218
1708435586.9730928,-2.141462802886963,-1.3331975948861619,-2.526372019444601,6.109202611237325,1.017118215560913,-3.7470811049090784
1708435586.975063,-2.1414990425109863,-1.333188847904541,-2.526353899632589,6.109199511795797,1.0170893669128418,-3.7470811049090784
1708435586.9770532,-2.141479730606079,-1.3332090985826035,-2.526383940373556,6.109178769379415,1.0170893669128418,-3.747084442769186
1708435586.9790552,-2.141479730606079,-1.3331846010736008,-2.5263553301440638,6.109181868820944,1.0170804262161255,-3.7470856348620813
1708435586.9810503,-2.1414830684661865,-1.3332297664931794,-2.526350800191061,6.109170067101278,1.0170804262161255,-3.7471049467669886
1708435586.9830718,-2.141475200653076,-1.3331344288638611,-2.526400391255514,6.109174358635702,1.017096757888794,-3.7471049467669886
1708435586.985035,-2.141484022140503,-1.3332090687802811,-2.52640945116152,6.109162437706747,1.0171300172805786,-3.7471049467669886
1708435586.9870787,-2.141496419906616,-1.333188847904541,-2.526329580937521,6.109165656357565,1.0170730352401733,-3.7471135298358362
1708435586.9891467,-2.1414425373077393,-1.3331725758365174,-2.5263386408435267,6.109141456871786,1.01706862449646,-3.7470973173724573
1708435586.9910533,-2.1414875984191895,-1.3331962090781708,-2.526437822972433,6.109211313515463,1.017118215560913,-3.7470811049090784
1708435586.9930885,-2.141496419906616,-1.3331962090781708,-2.526379410420553,6.109208333283224,1.0171226263046265,-3.7470768133746546
1708435586.9950423,-2.1414380073547363,-1.3332047325423737,-2.526403252278463,6.10916684845046,1.0171136856079102,-3.7470856348620813
1708435586.9970682,-2.1414830684661865,-1.3331813377192994,-2.526362959538595,6.109187710076132,1.0171345472335815,-3.7471018473254603
1708435586.9991064,-2.14145827293396,-1.3331596714309235,-2.526412312184469,6.109150159149923,1.017118215560913,-3.7471006552325647
1708435587.0010452,-2.141475200653076,-1.3331683588078995,-2.526388470326559,6.109208214073934,1.017064094543457,-3.7471135298358362
1708435587.0030754,-2.141462802886963,-1.3331931692412873,-2.526379410420553,6.109129535942831,1.017096757888794,-3.747140947972433
1708435587.00507,-2.1414830684661865,-1.3332333278707047,-2.5263431707965296,6.109133946686544,1.0171092748641968,-3.7471168676959437
1708435587.0070937,-2.141484022140503,-1.3332047921470185,-2.526379410420553,6.109162437706747,1.0171056985855103,-3.7471006552325647
1708435587.0090525,-2.141446828842163,-1.333184615974762,-2.5263329187976282,6.109138357430258,1.0171144008636475,-3.7471168676959437
1708435587.011054,-2.14145827293396,-1.3331931692412873,-2.526353899632589,6.109142768173971,1.017064094543457,-3.7470811049090784
1708435587.0130851,-2.141446828842163,-1.3332047176412125,-2.526362959538595,6.109151589661398,1.017096757888794,-3.7471049467669886
1708435587.0150542,-2.141496419906616,-1.333213449721672,-2.526400391255514,6.109142768173971,1.01715087890625,-3.7471006552325647
1708435587.0170758,-2.141475200653076,-1.3332209897092362,-2.526346270238058,6.109156000405111,1.0170716047286987,-3.747136656438009
1708435587.0190787,-2.141500949859619,-1.3332297664931794,-2.526350800191061,6.109164702683248,1.0171056985855103,-3.747064177189962
1708435587.021077,-2.1414265632629395,-1.3331355315497895,-2.526376549397604,6.109176623612203,1.0171101093292236,-3.747068230305807
1708435587.0230908,-2.141435384750366,-1.333204762344696,-2.526388470326559,6.1091264365013025,1.0171092748641968,-3.7470555941211146
1708435587.0250778,-2.141475200653076,-1.3332047772458573,-2.5263431707965296,6.10911105850295,1.017096757888794,-3.7471049467669886
1708435587.0270727,-2.141446828842163,-1.333201916222908,-2.526416842137472,6.10911105850295,1.017118215560913,-3.7470973173724573
1708435587.0290523,-2.141484022140503,-1.3331485998681565,-2.526315991078512,6.109078752785482,1.017096757888794,-3.7470555941211146
1708435587.0310922,-2.141467332839966,-1.3331758689931412,-2.526404921208517,6.109045851021566,1.017076015472412,-3.7470479647265833
1708435587.0330772,-2.141435384750366,-1.3332252514413376,-2.526350800191061,6.109066831856527,1.0170893669128418,-3.7470811049090784
1708435587.0350945,-2.1414761543273926,-1.3331397783807297,-2.526358429585592,6.109033930092611,1.0171012878417969,-3.7470973173724573
1708435587.0370893,-2.1414806842803955,-1.333200530414917,-2.526395861302511,6.109051573067465,1.0171136856079102,-3.7470768133746546
1708435587.0390813,-2.1414601802825928,-1.3332090985826035,-2.526341740285055,6.109060513764181,1.0171136856079102,-3.7470973173724573
1708435587.0410762,-2.141439914703369,-1.3331725758365174,-2.526404921208517,6.108980285912313,1.017118215560913,-3.747152868901388
1708435587.0430768,-2.1414690017700195,-1.3332090985826035,-2.526376549397604,6.109072196274557,1.0171092748641968,-3.7471137682544153
1708435587.0450506,-2.141422986984253,-1.3331802797368546,-2.526421372090475,6.109030830651083,1.0170849561691284,-3.747139279042379
1708435587.0470712,-2.1414105892181396,-1.3331596118262787,-2.526325050984518,6.10900233963088,1.017076015472412,-3.7470596472369593
1708435587.0490694,-2.141444444656372,-1.3331813675216218,-2.52637488046755,6.108997928887167,1.0171388387680054,-3.747052256261007
1708435587.051072,-2.1414647102355957,-1.3332253408483048,-2.52640945116152,6.109023320465841,1.0171056985855103,-3.7471094767199915
1708435587.0530825,-2.141427516937256,-1.3331931692412873,-2.52637488046755,6.109047162323751,1.017076015472412,-3.7470596472369593
1708435587.0550585,-2.1414849758148193,-1.3331769567779084,-2.526383940373556,6.108994829445638,1.0171056985855103,-3.7471256891833704
1708435587.0570602,-2.1414897441864014,-1.3332047772458573,-2.526376549397604,6.109014498978414,1.0171136856079102,-3.7470431963550013
1708435587.0590546,-2.141448736190796,-1.333172620540001,-2.5263822714435022,6.109072196274557,1.017096757888794,-3.7471185366259974
1708435587.0610712,-2.1414151191711426,-1.3331200194409867,-2.526346270238058,6.109032141953268,1.0171101093292236,-3.747047726308004
1708435587.0630586,-2.141444444656372,-1.3331647676280518,-2.526372019444601,6.1090242741401575,1.0170761346817017,-3.747064177189962
1708435587.0650947,-2.141448736190796,-1.333201916222908,-2.526379410420553,6.108962285309591,1.0170893669128418,-3.7471137682544153
1708435587.067096,-2.1414105892181396,-1.3331846010736008,-2.526391331349508,6.109061705857076,1.0170923471450806,-3.7471049467669886
1708435587.0690553,-2.141427516937256,-1.333176926975586,-2.526358429585592,6.108996021538534,1.017096757888794,-3.7470105330096644
1708435587.0710933,-2.141432046890259,-1.3331279170564194,-2.526383940373556,6.108975398331442,1.0170879364013672,-3.7470901648150843
1708435587.0730815,-2.1413991451263428,-1.3332297664931794,-2.526362959538595,6.108975398331442,1.017118215560913,-3.7470596472369593
1708435587.0750802,-2.1413912773132324,-1.333197609787323,-2.5263822714435022,6.108938443451681,1.0171300172805786,-3.7470765749560755
1708435587.0770924,-2.1413652896881104,-1.3332090985826035,-2.5264151732074183,6.108947264939108,1.017096757888794,-3.74705678621401
1708435587.0790648,-2.1413450241088867,-1.3331726056388398,-2.526358429585592,6.108939635544576,1.0171300172805786,-3.747073237095968
1708435587.0810468,-2.1414127349853516,-1.3332090836814423,-2.526395861302511,6.1089678881462,1.017096757888794,-3.7470431963550013
1708435587.0830562,-2.1414082050323486,-1.3331603419831772,-2.526346270238058,6.108902323036947,1.0170642137527466,-3.747040335332052
1708435587.085046,-2.1413958072662354,-1.3331603568843384,-2.526372019444601,6.108909833222189,1.0171012878417969,-3.7470765749560755
1708435587.0870912,-2.1413822174072266,-1.3331917834332963,-2.5264363924609583,6.108948457032003,1.0170923471450806,-3.747068707142965
1708435587.0890515,-2.1414082050323486,-1.3331758689931412,-2.526404921208517,6.108927476197042,1.0171136856079102,-3.7470811049090784
1708435587.0911133,-2.1413586139678955,-1.3331726056388398,-2.52637488046755,6.108890402107992,1.017064094543457,-3.7470722834216517
1708435587.0930731,-2.1413378715515137,-1.333197609787323,-2.526412312184469,6.108927476197042,1.0171092748641968,-3.747073237095968
1708435587.0950491,-2.1413426399230957,-1.3331397783807297,-2.526370350514547,6.108865368157186,1.0171345472335815,-3.7470858732806605
1708435587.0970917,-2.141371965408325,-1.3331845861724396,-2.52637488046755,6.108948457032003,1.0171300172805786,-3.747068707142965
1708435587.0990589,-2.141378879547119,-1.3331931692412873,-2.526421372090475,6.108887302666464,1.0170879364013672,-3.747094694768087
1708435587.1010642,-2.1413471698760986,-1.3331975948861619,-2.526412312184469,6.108928787499227,1.0171211957931519,-3.747065607701437
1708435587.103074,-2.141380786895752,-1.3331734252027054,-2.526400391255514,6.108870732575216,1.0171136856079102,-3.747052256261007
1708435587.1050663,-2.1413586139678955,-1.333156020646431,-2.526328150426046,6.10894941070632,1.0170893669128418,-3.7470901648150843
1708435587.1070635,-2.141404628753662,-1.3331845861724396,-2.526400391255514,6.108900534897604,1.0170804262161255,-3.7470269838916224
1708435587.1090434,-2.141380786895752,-1.333144099717476,-2.526403252278463,6.108887302666464,1.0170730352401733,-3.747028414403097
1708435587.1110764,-2.1413471698760986,-1.3331975948861619,-2.526367489491598,6.1089528677757166,1.017118215560913,-3.7470360437976282
1708435587.1130784,-2.141317844390869,-1.333139808183052,-2.526383940373556,6.10887502410964,1.0170596837997437,-3.747024122868673
1708435587.1150658,-2.1413514614105225,-1.3331888330033799,-2.5263493696795862,6.108866321831503,1.0170553922653198,-3.747021023427145
1708435587.1171222,-2.141371965408325,-1.3331603419831772,-2.526383940373556,6.108899223595419,1.0171300172805786,-3.7469940821277063
1708435587.119078,-2.141380786895752,-1.3332090985826035,-2.5263341108905237,6.108867871552267,1.0171226263046265,-3.747028414403097
1708435587.1211157,-2.141326665878296,-1.3331813377192994,-2.526367489491598,6.10888825634078,1.0171012878417969,-3.747040335332052
1708435587.123106,-2.141328811645508,-1.3332106632045289,-2.526407782231466,6.108925568848409,1.017118215560913,-3.747016493474142
1708435587.1250877,-2.1412813663482666,-1.3331846010736008,-2.526391331349508,6.108802306443014,1.0171300172805786,-3.747012201939718
1708435587.1271222,-2.1413357257843018,-1.3331647676280518,-2.526424233113424,6.108851539879598,1.017073154449463,-3.7470360437976282
1708435587.1290872,-2.141326665878296,-1.3331813377192994,-2.526428763066427,6.10882734039382,1.0171226263046265,-3.747065607701437
1708435587.131085,-2.1413402557373047,-1.3332178455642243,-2.526379410420553,6.108823048859396,1.0171092748641968,-3.747044865285055
1708435587.1330788,-2.141376256942749,-1.3331726056388398,-2.526404921208517,6.108855950623312,1.0171056985855103,-3.7470329443561
1708435587.1350613,-2.1413064002990723,-1.333151788716652,-2.526383940373556,6.108819949417867,1.0171136856079102,-3.747012201939718
1708435587.137073,-2.141352415084839,-1.333148570065834,-2.526358429585592,6.108808028488912,1.017104983329773,-3.747021023427145
1708435587.1390676,-2.141322374343872,-1.3332005006125947,-2.5263496080981653,6.108840691834249,1.0171462297439575,-3.74697190919985
1708435587.1410651,-2.141319751739502,-1.333169088964798,-2.526395861302511,6.108745562821188,1.0171136856079102,-3.7470091024981897
1708435587.14306,-2.1413357257843018,-1.333157168035843,-2.5263612906085413,6.108799207001486,1.0171136856079102,-3.7470136324511927
1708435587.145055,-2.1413028240203857,-1.3331683290055771,-2.526407782231466,6.108811127930441,1.017118215560913,-3.7470582167254847
1708435587.1470644,-2.141331195831299,-1.3331366044333954,-2.526395861302511,6.108782636910238,1.0171092748641968,-3.7470553557025355
1708435587.1490626,-2.1413161754608154,-1.333201916222908,-2.526407782231466,6.108803617745199,1.0171093940734863,-3.746976439152853
1708435587.1510594,-2.1412699222564697,-1.3331528317979355,-2.526407782231466,6.108749973564901,1.0171136856079102,-3.7469592730151575
1708435587.1530685,-2.1412858963012695,-1.3332090985826035,-2.526407782231466,6.108767616539755,1.017118215560913,-3.7469926516162317
1708435587.1551116,-2.1412904262542725,-1.3331647676280518,-2.526419703160421,6.108787047653951,1.0171300172805786,-3.7469773928271692
1708435587.1570733,-2.1413073539733887,-1.3331856739572068,-2.526412312184469,6.108751642494955,1.0171715021133423,-3.7469773928271692
1708435587.159058,-2.141237258911133,-1.3331726056388398,-2.526379410420553,6.108764755516805,1.0170804262161255,-3.7469428221331995
1708435587.161046,-2.1412551403045654,-1.3331647676280518,-2.526445452366964,6.108767616539755,1.0171211957931519,-3.7469444910632532
1708435587.1630762,-2.141263246536255,-1.3331900101951142,-2.5263987223254603,6.108776318817892,1.0171256065368652,-3.7470153013812464
1708435587.1651042,-2.141308307647705,-1.3331726056388398,-2.5263496080981653,6.108764874726095,1.017146348953247,-3.746949021016256
1708435587.1670558,-2.1412675380706787,-1.3331397783807297,-2.5264151732074183,6.108756053238668,1.0171300172805786,-3.7469564119922083
1708435587.169057,-2.1412789821624756,-1.3331888330033799,-2.5264106432544153,6.108724343567648,1.0171419382095337,-3.7469852606402796
1708435587.1710737,-2.1412835121154785,-1.3331397783807297,-2.526386801396505,6.108736264496603,1.0171167850494385,-3.746932570134298
1708435587.173072,-2.1412720680236816,-1.3331647676280518,-2.5263822714435022,6.1087437746818445,1.017133116722107,-3.7469773928271692
1708435587.175065,-2.1412675380706787,-1.333111272459366,-2.5264151732074183,6.108690488129415,1.0171092748641968,-3.7469444910632532
1708435587.1770582,-2.141251802444458,-1.3331683588078995,-2.5263329187976282,6.108711111336508,1.0171538591384888,-3.7469401995288294
1708435587.179073,-2.1412720680236816,-1.3332090985826035,-2.5263987223254603,6.108743655472555,1.017104983329773,-3.7468908468829554
1708435587.1810493,-2.1412720680236816,-1.333111287360527,-2.5264483133899134,6.108703720360555,1.0171494483947754,-3.746937100087301
1708435587.1830654,-2.1412854194641113,-1.3331559908441086,-2.5263732115374964,6.108708011894979,1.0171092748641968,-3.7469444910632532
1708435587.1850717,-2.141296863555908,-1.3331846010736008,-2.526407782231466,6.108716833382406,1.0171375274658203,-3.7469728628741663
1708435587.187093,-2.1412312984466553,-1.333222211604454,-2.526386801396505,6.108703601151266,1.0171211957931519,-3.746965471898214
1708435587.1890824,-2.1412642002105713,-1.3331856292537232,-2.526403252278463,6.108748185425558,1.0171300172805786,-3.746974293385641
1708435587.1910758,-2.1412198543548584,-1.3331528466990967,-2.526424233113424,6.108687031060018,1.0171360969543457,-3.746953550969259
1708435587.1930704,-2.1412198543548584,-1.3331355315497895,-2.5264061133014124,6.1086782095725916,1.0171449184417725,-3.746937100087301
1708435587.1950784,-2.1412596702575684,-1.3331647676280518,-2.526395861302511,6.108731853752889,1.017112374305725,-3.7469609419452112
1708435587.1971118,-2.1412312984466553,-1.3331355315497895,-2.5263941923724573,6.108687031060018,1.017177939414978,-3.746949021016256
1708435587.1990962,-2.1412312984466553,-1.3331683588078995,-2.5264106432544153,6.108749496727743,1.0171287059783936,-3.7469518820392054
1708435587.2010458,-2.1412198543548584,-1.3331366044333954,-2.5264151732074183,6.108719932823934,1.0171735286712646,-3.7469852606402796
1708435587.203082,-2.1412651538848877,-1.3331485253623505,-2.5264902750598353,6.10874496677474,1.0171616077423096,-3.7469237486468714
1708435587.2050774,-2.141235828399658,-1.3331778806499024,-2.5264151732074183,6.108716833382406,1.0171483755111694,-3.7469728628741663
1708435587.207069,-2.141181468963623,-1.3331080985120316,-2.526445452366964,6.10874496677474,1.0172064304351807,-3.746969763432638
1708435587.2090502,-2.1412384510040283,-1.3332178455642243,-2.5264061133014124,6.108724343567648,1.0171856880187988,-3.7468999067889612
1708435587.2110481,-2.1412289142608643,-1.3331528317979355,-2.526419703160421,6.1087331650550745,1.0172274112701416,-3.7469282785998743
1708435587.2130735,-2.1412110328674316,-1.3331235361150284,-2.5264392534839075,6.108679520874777,1.0172020196914673,-3.7468999067889612
1708435587.2150586,-2.141195058822632,-1.3331778359464188,-2.5264392534839075,6.108699309616842,1.0171438455581665,-3.746953550969259
1708435587.2170722,-2.141195058822632,-1.3331366044333954,-2.5264392534839075,6.10864685752944,1.017214298248291,-3.746969763432638
1708435587.219058,-2.1412243843078613,-1.3331647676280518,-2.5264182726489466,6.108736264496603,1.0171724557876587,-3.746957842503683
1708435587.2210677,-2.141244888305664,-1.3331366044333954,-2.5264604727374476,6.108721244126119,1.0172009468078613,-3.746949021016256
1708435587.2230992,-2.1412065029144287,-1.3331441146186371,-2.5264769236194056,6.10868393161849,1.0172260999679565,-3.746969763432638
1708435587.225133,-2.141195058822632,-1.333169088964798,-2.5264228026019495,6.108713376313009,1.0172468423843384,-3.746937100087301
1708435587.2271192,-2.1412155628204346,-1.3331323128989716,-2.5264678637133997,6.108708965569296,1.0172576904296875,-3.746932570134298
1708435587.2290754,-2.1412289142608643,-1.333157168035843,-2.5264468828784388,6.108709084778585,1.017241358757019,-3.7469072977649134
1708435587.2310686,-2.1412198543548584,-1.3331366342357178,-2.5264392534839075,6.108737575798788,1.0172202587127686,-3.7469163576709192
1708435587.2330623,-2.1412289142608643,-1.3331398379853745,-2.5264061133014124,6.108695852547445,1.017241358757019,-3.746941630040304
1708435587.2350638,-2.141195058822632,-1.3331931692412873,-2.5264468828784388,6.108639108925619,1.0172531604766846,-3.746920649205343
1708435587.237062,-2.1412084102630615,-1.3331603568843384,-2.5264559427844446,6.1086840508277795,1.0173027515411377,-3.746953550969259
1708435587.2390826,-2.1412198543548584,-1.3331603568843384,-2.5263715426074427,6.108692753105917,1.0172772407531738,-3.746941630040304
1708435587.24108,-2.1412155628204346,-1.3331156832030793,-2.5264604727374476,6.108672010689535,1.017317771911621,-3.746957842503683
1708435587.2430625,-2.1412289142608643,-1.333144099717476,-2.5264843145953577,6.108688342362203,1.0173310041427612,-3.7468953768359583
1708435587.2450647,-2.1412110328674316,-1.3331485253623505,-2.526496235524313,6.108688342362203,1.0172983407974243,-3.7469444910632532
1708435587.2470465,-2.1412065029144287,-1.3331366044333954,-2.5264559427844446,6.108713376313009,1.0172641277313232,-3.746904436741964
1708435587.2490852,-2.141179323196411,-1.333169088964798,-2.526475254689352,6.108651387482443,1.0173133611679077,-3.746949021016256
1708435587.2510674,-2.141242265701294,-1.3331683588078995,-2.526458803807394,6.108688342362203,1.0172685384750366,-3.746904436741964
1708435587.2530582,-2.141166925430298,-1.3331323128989716,-2.526463333760397,6.108695852547445,1.0172852277755737,-3.746925179158346
1708435587.2550812,-2.141145706176758,-1.3331856292537232,-2.526454273854391,6.1086556790168665,1.017293930053711,-3.746892515813009
1708435587.2570481,-2.1412041187286377,-1.3332019311240693,-2.526454273854391,6.108721244126119,1.017317771911621,-3.746896807347433
1708435587.2590601,-2.1412243843078613,-1.3330950301936646,-2.52651292482485,6.108750808029928,1.017359733581543,-3.7468798796283167
1708435587.2610402,-2.141166925430298,-1.333164782529213,-2.52649170557131,6.108667719155111,1.0173296928405762,-3.746978823338644
1708435587.2630484,-2.141188144683838,-1.3330993962338944,-2.526475254689352,6.10868393161849,1.017317771911621,-3.746866528187887
1708435587.2650983,-2.141179323196411,-1.3331856739572068,-2.5265098253833216,6.108688342362203,1.017317771911621,-3.7469504515277308
1708435587.2670484,-2.1412110328674316,-1.3331778359464188,-2.526470724736349,6.108734595566549,1.017317771911621,-3.7468753496753138
1708435587.2690475,-2.141195058822632,-1.333176926975586,-2.526470724736349,6.10868393161849,1.0172479152679443,-3.746925179158346
1708435587.2710423,-2.141244888305664,-1.3331975799850007,-2.526496235524313,6.108721244126119,1.0173429250717163,-3.746917788182394
1708435587.2730548,-2.1411499977111816,-1.3331156981042405,-2.526479784642355,6.108642446785726,1.0172808170318604,-3.7469163576709192
1708435587.2750547,-2.141188144683838,-1.3331603419831772,-2.526503864918844,6.108663189202108,1.0173264741897583,-3.746908728276388
1708435587.277068,-2.141192674636841,-1.333132268195488,-2.526503864918844,6.108672010689535,1.0173420906066895,-3.746908728276388
1708435587.2790358,-2.141190528869629,-1.3331200641444703,-2.526482645665304,6.108721244126119,1.0173341035842896,-3.746934239064352
1708435587.2810426,-2.141166925430298,-1.3331603419831772,-2.526466194783346,6.108676421433248,1.0172852277755737,-3.7468753496753138
1708435587.2830534,-2.1411969661712646,-1.3331603419831772,-2.526449743901388,6.1087002632911584,1.0173133611679077,-3.746920649205343
1708435587.2850442,-2.141190528869629,-1.333176926975586,-2.526494805012838,6.108716952591696,1.0173341035842896,-3.746917788182394
1708435587.2870717,-2.141233444213867,-1.3331691038659592,-2.526496235524313,6.108716952591696,1.0172808170318604,-3.746901337300436
1708435587.2890863,-2.1412198543548584,-1.3331734252027054,-2.526475254689352,6.10868393161849,1.0173341035842896,-3.746913258229391
1708435587.2910495,-2.1411712169647217,-1.333176926975586,-2.526487175618307,6.108667719155111,1.0172761678695679,-3.7468634287463587
1708435587.2930593,-2.141233444213867,-1.3331734103015442,-2.526537005101339,6.108712422638693,1.0172773599624634,-3.746938769017355
1708435587.2950764,-2.141183614730835,-1.3332340878299256,-2.526503864918844,6.10866008976058,1.0173341035842896,-3.746913258229391
1708435587.2970421,-2.1411476135253906,-1.3331900101951142,-2.5265324751483362,6.108741986542501,1.0173629522323608,-3.7468753496753138
1708435587.2990775,-2.141195058822632,-1.333157168035843,-2.526503864918844,6.108672010689535,1.017317771911621,-3.7469103972064417
1708435587.3010397,-2.141233444213867,-1.333148480658867,-2.526461903248922,6.108688342362203,1.017317771911621,-3.7468679586993616
1708435587.3030505,-2.141190528869629,-1.3331647676280518,-2.5264902750598353,6.108712422638693,1.0173296928405762,-3.7468798796283167
1708435587.3050437,-2.1411430835723877,-1.3331485253623505,-2.526508394871847,6.108716952591696,1.0173510313034058,-3.746917788182394
1708435587.3070645,-2.1412198543548584,-1.333213524227478,-2.526473585759298,6.108725654869833,1.0173264741897583,-3.746892515813009
1708435587.3090687,-2.141195058822632,-1.3331125241569062,-2.526449743901388,6.108704674034872,1.0173133611679077,-3.7468999067889612
1708435587.3110607,-2.141188144683838,-1.3331647676280518,-2.526449743901388,6.108704674034872,1.0173341035842896,-3.746917788182394
1708435587.313078,-2.141166925430298,-1.333210603599884,-2.526487175618307,6.10866008976058,1.0173133611679077,-3.746908728276388
1708435587.3150504,-2.141188144683838,-1.3331768971732636,-2.526508394871847,6.108708965569296,1.0173264741897583,-3.746901337300436
1708435587.3170567,-2.1411845684051514,-1.3332106632045289,-2.526482645665304,6.108675110131063,1.0173207521438599,-3.7468770186053675
1708435587.3190494,-2.141183614730835,-1.3331366193345566,-2.526520315800802,6.108708011894979,1.0172773599624634,-3.746887985860006
1708435587.321064,-2.141162395477295,-1.333172546034195,-2.52651292482485,6.108663189202108,1.0173264741897583,-3.746913258229391
1708435587.3230963,-2.141157865524292,-1.333151788716652,-2.526466194783346,6.1087002632911584,1.0173264741897583,-3.746901337300436
1708435587.3251202,-2.141192674636841,-1.333136649136879,-2.526470724736349,6.108741986542501,1.017293930053711,-3.746892515813009
1708435587.3270645,-2.1412041187286377,-1.3331734252027054,-2.526515785847799,6.1087002632911584,1.0172851085662842,-3.747012201939718
1708435587.329066,-2.1412198543548584,-1.333157168035843,-2.526482645665304,6.108725654869833,1.0173088312149048,-3.746870819722311
1708435587.3310485,-2.141242265701294,-1.3331813377192994,-2.526524607335226,6.108717906266012,1.0173341035842896,-3.746908966694967
1708435587.3330562,-2.141190528869629,-1.3331485253623505,-2.526499334965841,6.108737575798788,1.0173163414001465,-3.746896807347433
