Eg3-git/Classifiers/Data Collection/u3/u3abc4_ur3e_joint_states.csv
time,elbow_joint,shoulder_lift_joint,shoulder_pan_joint,wrist_1_joint,wrist_2_joint,wrist_3_joint
1708435664.8594766,-2.1637156009674072,-1.339802311067917,-2.523672644292013,6.163109051972189,1.012224555015564,-4.406240884457723
1708435664.8614714,-2.1636953353881836,-1.3397948902896424,-2.523696486149923,6.163063394814291,1.0121873617172241,-4.406191651021139
1708435664.8634663,-2.163675308227539,-1.3397949051908036,-2.5236545244800013,6.163059103279867,1.012224555015564,-4.406195942555563
1708435664.8654807,-2.1636505126953125,-1.3397324693254014,-2.523701016102926,6.163112270623007,1.0121917724609375,-4.406207744275228
1708435664.8675299,-2.163648843765259,-1.3397566390088578,-2.52369195619692,6.163067805558004,1.0121960639953613,-4.406220380459921
1708435664.8694866,-2.1637067794799805,-1.3397786182216187,-2.523675505314962,6.163112151413717,1.0121960639953613,-4.406199161206381
1708435664.8714902,-2.1637110710144043,-1.339704306130745,-2.5236993471728724,6.16314064243392,1.0121917724609375,-4.406191651021139
1708435664.873473,-2.163686752319336,-1.3397161674550553,-2.523675505314962,6.163046824723043,1.0121501684188843,-4.406187359486715
1708435664.8754952,-2.1637063026428223,-1.3397785884192963,-2.5237038771258753,6.163095938950338,1.012237548828125,-4.40617543855776
1708435664.877491,-2.163679599761963,-1.3397544783404847,-2.5236874262439173,6.163034903794088,1.0121917724609375,-4.406272474919454
1708435664.8794632,-2.1636953353881836,-1.3397697371295472,-2.5237038771258753,6.163120853691854,1.0122166872024536,-4.4062116781817835
1708435664.881472,-2.163648843765259,-1.3397250336459656,-2.523684565220968,6.16311656215743,1.0122376680374146,-4.406187359486715
1708435664.8835044,-2.163648843765259,-1.3397829693606873,-2.5236664454089563,6.163095938950338,1.0122331380844116,-4.406212035809652
1708435664.8855,-2.1637156009674072,-1.3396998655847092,-2.523647133504049,6.163091647415914,1.0122003555297852,-4.406195823346273
1708435664.8874831,-2.1636581420898438,-1.3397118163159867,-2.5237084070788782,6.163100230484762,1.012203574180603,-4.406220380459921
1708435664.889486,-2.1636710166931152,-1.3397293996861954,-2.5236499945269983,6.16306351402358,1.0122079849243164,-4.406159345303671
1708435664.8914824,-2.1637024879455566,-1.3397579354098816,-2.523733917866842,6.163100230484762,1.012178659439087,-4.406212035809652
1708435664.8934875,-2.1637067794799805,-1.3397534501603623,-2.5237084070788782,6.163063394814291,1.0122201442718506,-4.4062365929233
1708435664.895474,-2.1636710166931152,-1.3397500079921265,-2.523672644292013,6.16311656215743,1.012203574180603,-4.406179730092184
1708435664.8974662,-2.163682460784912,-1.3397205781987687,-2.523701016102926,6.163100230484762,1.012203574180603,-4.406228963528768
1708435664.8994803,-2.1637110710144043,-1.3397979599288483,-2.523677174245016,6.16309272029952,1.012224555015564,-4.406194869671957
1708435664.9014606,-2.1637067794799805,-1.3397697371295472,-2.5237324873553675,6.163064229279318,1.0122201442718506,-4.406207863484518
1708435664.9034774,-2.1636953353881836,-1.3397534501603623,-2.52366811433901,6.163043725281515,1.0122122764587402,-4.406136099492208
1708435664.9054737,-2.1637234687805176,-1.3397829842618485,-2.523680035267965,6.163067805558004,1.0121917724609375,-4.40617543855776
1708435664.9074938,-2.1637024879455566,-1.3397161674550553,-2.523659054433004,6.1630393145378015,1.0122201442718506,-4.406155888234274
1708435664.909496,-2.1637234687805176,-1.3397534501603623,-2.5237038771258753,6.163064348488607,1.0121711492538452,-4.4062034527408045
1708435664.9114733,-2.1636710166931152,-1.3397457164577027,-2.523684565220968,6.1630393145378015,1.0121755599975586,-4.4062374273883265
1708435664.913484,-2.1637156009674072,-1.3397368502667923,-2.523663584386007,6.163063394814291,1.0121798515319824,-4.406184021626608
1708435664.915479,-2.1637024879455566,-1.3396758747151871,-2.523696486149923,6.1631133435066126,1.0121755599975586,-4.406195942555563
1708435664.917504,-2.163710594177246,-1.3397457164577027,-2.523705546055929,6.1631003496940515,1.0121917724609375,-4.406167809163229
1708435664.9194825,-2.16371488571167,-1.3397816729596634,-2.523738686238424,6.163051235466757,1.012203574180603,-4.406119887028829
1708435664.9214945,-2.1636667251586914,-1.339750037794449,-2.523712937031881,6.163084018021383,1.0121873617172241,-4.406136099492208
1708435664.9235013,-2.1636459827423096,-1.3397368800691147,-2.5236664454089563,6.163076507836141,1.0121960639953613,-4.406144444142477
1708435664.9254687,-2.1637110710144043,-1.3397294741920014,-2.523705546055929,6.163048016815939,1.0121917724609375,-4.406176153813497
1708435664.9274929,-2.1636738777160645,-1.3397741925767441,-2.523663584386007,6.163125145226278,1.012203574180603,-4.406188193951742
1708435664.9294758,-2.163675308227539,-1.3397773218205948,-2.523680035267965,6.163022982865133,1.0121873617172241,-4.406204406415121
1708435664.9314716,-2.1637401580810547,-1.339778558616974,-2.523642603551046,6.16305552700118,1.0122047662734985,-4.406167809163229
1708435664.9335227,-2.1636910438537598,-1.3397623163512726,-2.5237038771258753,6.163084018021383,1.0122079849243164,-4.406143132840292
1708435664.9354634,-2.1637277603149414,-1.339758889084198,-2.523721996937887,6.163088309555807,1.0122332572937012,-4.406192366276876
1708435664.9375067,-2.1636624336242676,-1.3397534650615235,-2.5236874262439173,6.163054692536154,1.0122288465499878,-4.406163517628805
1708435664.9395018,-2.163675308227539,-1.3397622865489502,-2.523659054433004,6.163095938950338,1.0121798515319824,-4.406176153813497
1708435664.941468,-2.1636910438537598,-1.3397368502667923,-2.5236874262439173,6.163097131043234,1.012237548828125,-4.406172100697653
1708435664.9435184,-2.163679599761963,-1.339757890706398,-2.523680035267965,6.163034903794088,1.0121711492538452,-4.406148735676901
1708435664.9454696,-2.163698196411133,-1.3397412908128281,-2.523663584386007,6.163027393608846,1.0121917724609375,-4.406179730092184
1708435664.9474936,-2.1637234687805176,-1.339754508142807,-2.523684565220968,6.163110124855795,1.012203574180603,-4.406179730092184
1708435664.949481,-2.1636953353881836,-1.339738206272461,-2.523701016102926,6.163067805558004,1.0122288465499878,-4.406147424374716
1708435664.9514732,-2.1637067794799805,-1.3397118610194703,-2.5236383120166224,6.163043725281515,1.012203574180603,-4.406124178563253
1708435664.9535234,-2.1636910438537598,-1.3397368502667923,-2.523680035267965,6.163076507836141,1.0122166872024536,-4.406148735676901
1708435664.9554825,-2.163675308227539,-1.3397949051908036,-2.523659054433004,6.163006770401754,1.0121675729751587,-4.406179730092184
1708435664.9575074,-2.16371488571167,-1.339778558616974,-2.523680035267965,6.163072097092428,1.0121588706970215,-4.406124178563253
1708435664.95948,-2.163675308227539,-1.3397490692189713,-2.523680035267965,6.163027512818136,1.0121632814407349,-4.406168643628256
1708435664.961467,-2.1637024879455566,-1.3398231130889435,-2.523656193410055,6.16306351402358,1.0121632814407349,-4.406132523213522
1708435664.9634864,-2.16371488571167,-1.3396964979222794,-2.5236383120166224,6.163059937744894,1.0121632814407349,-4.4061599413501185
1708435664.965456,-2.1637277603149414,-1.33979486048732,-2.523621384297506,6.163034903794088,1.0121588706970215,-4.4060989061938685
1708435664.9675376,-2.1637024879455566,-1.3397324544242402,-2.523717466984884,6.163068640023031,1.0121675729751587,-4.406172100697653
1708435664.969498,-2.1637234687805176,-1.3397741925767441,-2.523717466984884,6.163085210114279,1.0121710300445557,-4.406124297772543
1708435664.9715226,-2.1637067794799805,-1.3397250336459656,-2.523684565220968,6.163076507836141,1.0121632814407349,-4.406148735676901
1708435664.9735284,-2.1637156009674072,-1.3397697371295472,-2.523717466984884,6.163072097092428,1.0121798515319824,-4.406168643628256
1708435664.9754896,-2.1636910438537598,-1.3397490990212937,-2.52369195619692,6.1631295559699915,1.012159824371338,-4.4061599413501185
1708435664.9775085,-2.163679599761963,-1.3397579205087204,-2.523625914250509,6.163034903794088,1.0121841430664062,-4.406164232884542
1708435664.9794884,-2.1636390686035156,-1.3397948455861588,-2.523680035267965,6.1630263207252405,1.0121960639953613,-4.406155888234274
1708435664.981467,-2.1637277603149414,-1.339733750825264,-2.52366811433901,6.163067805558004,1.012139081954956,-4.406164232884542
1708435664.9834948,-2.1637277603149414,-1.3397579205087204,-2.52366811433901,6.16309272029952,1.0121797323226929,-4.406192366276876
1708435664.9854712,-2.1637277603149414,-1.339774177675583,-2.5237296263324183,6.163085210114279,1.0121554136276245,-4.406132523213522
1708435664.987525,-2.1637234687805176,-1.3397666674903412,-2.523634974156515,6.163076507836141,1.0121554136276245,-4.406140391026632
1708435664.989478,-2.1636953353881836,-1.3397368502667923,-2.523634974156515,6.163067805558004,1.0121262073516846,-4.406155888234274
1708435664.9914834,-2.1637234687805176,-1.339745656853058,-2.523651663457052,6.163051235466757,1.0121272802352905,-4.406184021626608
1708435664.9935193,-2.1637067794799805,-1.3397653263858338,-2.523613754902975,6.163117635041036,1.0122135877609253,-4.406148735676901
1708435664.9954774,-2.1636910438537598,-1.339745671754219,-2.523639504109518,6.163067805558004,1.0121554136276245,-4.406172100697653
1708435664.9974847,-2.163698196411133,-1.339778558616974,-2.523684565220968,6.1630393145378015,1.0121763944625854,-4.406172100697653
1708435664.9994752,-2.163731575012207,-1.3397118312171479,-2.523639504109518,6.16303180435256,1.012131690979004,-4.406119887028829
1708435665.0014825,-2.1636998653411865,-1.3397324991277237,-2.523660723363058,6.1630393145378015,1.0121272802352905,-4.406128231679098
1708435665.0034776,-2.1636953353881836,-1.3397697520307084,-2.523634974156515,6.1630393145378015,1.0121479034423828,-4.406115714703695
1708435665.0054815,-2.1637234687805176,-1.3397741925767441,-2.5235944429980677,6.163043725281515,1.0121641159057617,-4.406107370053427
1708435665.007519,-2.1636710166931152,-1.3397162121585389,-2.5235825220691126,6.163104522019186,1.0121479034423828,-4.406180445347921
1708435665.0094666,-2.1637024879455566,-1.3396999102881928,-2.5236125628100794,6.16305552700118,1.0121521949768066,-4.4061965386020105
1708435665.0114605,-2.1637191772460938,-1.3397087317756196,-2.523572031651632,6.163104641228475,1.0121238231658936,-4.406192366276876
1708435665.0134778,-2.1637191772460938,-1.3397162121585389,-2.523555580769674,6.16309272029952,1.0120866298675537,-4.406148735676901
1708435665.015491,-2.1637444496154785,-1.3397293847850342,-2.523536030446188,6.16305552700118,1.0121194124221802,-4.406204406415121
1708435665.017481,-2.1637277603149414,-1.3397741925767441,-2.5234909693347376,6.163030612259664,1.0121281147003174,-4.406172100697653
1708435665.0194721,-2.1637110710144043,-1.3397205781987687,-2.523531500493185,6.163051235466757,1.0121729373931885,-4.406155888234274
1708435665.0214627,-2.1636953353881836,-1.3397979599288483,-2.523552481328146,6.16306351402358,1.0121763944625854,-4.406147305165426
1708435665.0234733,-2.1636574268341064,-1.3397250187448044,-2.5235450903521937,6.163063394814291,1.0121521949768066,-4.4061965386020105
1708435665.0254679,-2.1637067794799805,-1.3397579205087204,-2.5235376993762415,6.163059937744894,1.01215660572052,-4.406167809163229
1708435665.02751,-2.163686752319336,-1.3397162121585389,-2.5234864393817347,6.163076507836141,1.012159824371338,-4.406204406415121
1708435665.0294795,-2.1637561321258545,-1.3398037266782303,-2.5235496203051966,6.163080799370565,1.0121041536331177,-4.406119887028829
1708435665.0314996,-2.1637110710144043,-1.3397237670472641,-2.5235570112811487,6.163109051972189,1.0121238231658936,-4.40615159669985
1708435665.033508,-2.163735866546631,-1.3397534650615235,-2.5235405603991907,6.163059937744894,1.0121359825134277,-4.406167809163229
1708435665.0354712,-2.1637191772460938,-1.3397816729596634,-2.5235241095172327,6.163100230484762,1.012091040611267,-4.406140391026632
1708435665.0374842,-2.163693904876709,-1.3397162121585389,-2.5235241095172327,6.16306351402358,1.012091040611267,-4.406172100697653
1708435665.0394862,-2.1636781692504883,-1.3397413206151505,-2.5235286394702356,6.163046943932333,1.0120997428894043,-4.4061318079577845
1708435665.0414574,-2.16371488571167,-1.3397162121585389,-2.523515049611227,6.163095938950338,1.0120878219604492,-4.406184021626608
1708435665.0434859,-2.163686752319336,-1.3397162419608613,-2.5235167185412806,6.163136231690206,1.0121163129806519,-4.406192366276876
1708435665.0454583,-2.163682460784912,-1.3397534501603623,-2.5235944429980677,6.163107859879293,1.0121076107025146,-4.406212870274679
1708435665.0475082,-2.163693904876709,-1.3397697520307084,-2.5235076586352747,6.163095938950338,1.012095332145691,-4.406172100697653
1708435665.0495543,-2.163698196411133,-1.3397205781987687,-2.5235241095172327,6.163090574532308,1.0120878219604492,-4.40617543855776
1708435665.0514598,-2.1637024879455566,-1.339744732981064,-2.5235703627215784,6.163079726486959,1.0120799541473389,-4.406147424374716
1708435665.0534966,-2.1637110710144043,-1.3397579205087204,-2.52351957956423,6.16309272029952,1.0120712518692017,-4.406167809163229
1708435665.055477,-2.1637187004089355,-1.339769722228386,-2.52351957956423,6.163100230484762,1.01206374168396,-4.406184021626608
1708435665.0575268,-2.16371488571167,-1.339778558616974,-2.523515049611227,6.163158046990194,1.012047529220581,-4.406212155018942
1708435665.0594647,-2.163689613342285,-1.3397413057139893,-2.523526970540182,6.163091647415914,1.0120388269424438,-4.406155888234274
1708435665.06147,-2.1637020111083984,-1.339762271647789,-2.5235076586352747,6.16310344913558,1.0121041536331177,-4.406192366276876
1708435665.0634897,-2.1637191772460938,-1.339744732981064,-2.5235241095172327,6.163124429970541,1.01206374168396,-4.406191651021139
1708435665.0654562,-2.163735866546631,-1.3397905093482514,-2.5235570112811487,6.163145053177633,1.0120965242385864,-4.406155053769247
1708435665.0675209,-2.163710594177246,-1.3397324991277237,-2.523503128682272,6.163107859879293,1.012047529220581,-4.406147424374716
1708435665.0694735,-2.163735866546631,-1.3398185980371018,-2.523503128682272,6.163118827133932,1.0120594501495361,-4.406191651021139
1708435665.0714583,-2.163743019104004,-1.3397250187448044,-2.5235212484942835,6.163091647415914,1.0120224952697754,-4.406199161206381
1708435665.073492,-2.16373872756958,-1.3397816729596634,-2.5235405603991907,6.163087236672201,1.0120680332183838,-4.4061787764178675
1708435665.0754647,-2.163698196411133,-1.3397741925767441,-2.5235257784472864,6.163136231690206,1.0120387077331543,-4.406182948743002
1708435665.0774736,-2.1637473106384277,-1.3397293847850342,-2.5234909693347376,6.16314064243392,1.0120313167572021,-4.406212155018942
1708435665.0794928,-2.163731575012207,-1.339744732981064,-2.523498598729269,6.163156854897299,1.012047529220581,-4.406203571950094
1708435665.0815003,-2.1637630462646484,-1.3397579354098816,-2.5235405603991907,6.163115727692404,1.0119949579238892,-4.406215969716207
1708435665.083484,-2.163696765899658,-1.3397579205087204,-2.5234864393817347,6.1631319401557825,1.0120277404785156,-4.406220380459921
1708435665.0854707,-2.163743019104004,-1.3397579205087204,-2.5235496203051966,6.1631600735481165,1.0120067596435547,-4.406232182179586
1708435665.087457,-2.163745641708374,-1.3397293847850342,-2.523547951375143,6.163188564568319,1.0120067596435547,-4.4062528053866785
1708435665.0894716,-2.1637299060821533,-1.339778558616974,-2.523503128682272,6.16317235210494,1.012024164199829,-4.406187359486715
1708435665.09147,-2.163759469985962,-1.3397368502667923,-2.523552481328146,6.163188564568319,1.0119993686676025,-4.4062116781817835
1708435665.0934706,-2.1637344360351562,-1.339744732981064,-2.523536030446188,6.163167941361227,1.0119949579238892,-4.406223599110739
1708435665.0954616,-2.1637749671936035,-1.3397293847850342,-2.5234954992877405,6.163166868477621,1.011967658996582,-4.406203333531515
1708435665.0975041,-2.1637749671936035,-1.3397042912295838,-2.523515049611227,6.163183080941,1.0119751691818237,-4.406263891850607
1708435665.0994914,-2.1637706756591797,-1.3397653859904786,-2.523538891469137,6.163251864701071,1.0119917392730713,-4.406215969716207
1708435665.1014628,-2.1637790203094482,-1.339802311067917,-2.5235827604876917,6.163284408837118,1.0120123624801636,-4.406207505856649
1708435665.1034682,-2.163745641708374,-1.3398067665151139,-2.5234954992877405,6.1632799980934045,1.011979579925537,-4.4062398115741175
1708435665.1055007,-2.1637864112854004,-1.339728133087494,-2.5235167185412806,6.163239705353536,1.011967658996582,-4.406215969716207
1708435665.1075082,-2.1637749671936035,-1.3397697520307084,-2.523536030446188,6.163317191391744,1.011967658996582,-4.406248275433676
1708435665.109478,-2.163759469985962,-1.3397666376880188,-2.523536030446188,6.163235294609823,1.011954665184021,-4.406227890645162
1708435665.1114888,-2.163710117340088,-1.3397610199502488,-2.5234788099872034,6.163243162422933,1.0119961500167847,-4.406248275433676
1708435665.1134982,-2.1637864112854004,-1.3397534650615235,-2.52351957956423,6.163247573166647,1.0119471549987793,-4.406219545994894
1708435665.115482,-2.1637284755706787,-1.339790479545929,-2.523510519658224,6.163235294609823,1.0120047330856323,-4.406287733708517
1708435665.1174679,-2.1637635231018066,-1.3397074800780793,-2.5235286394702356,6.163243162422933,1.0119514465332031,-4.406280104313986
1708435665.1194973,-2.1638150215148926,-1.3397653859904786,-2.523552481328146,6.1632799980934045,1.011979579925537,-4.406219545994894
1708435665.1214645,-2.1637749671936035,-1.3397042912295838,-2.5235405603991907,6.1632799980934045,1.0119589567184448,-4.406271521245138
1708435665.1234782,-2.163790702819824,-1.3397250187448044,-2.523498598729269,6.163358318596639,1.011955738067627,-4.406287733708517
1708435665.125454,-2.1637864112854004,-1.3397653859904786,-2.5235241095172327,6.163287627487936,1.0119632482528687,-4.4062469641314905
1708435665.127462,-2.163806438446045,-1.3397324991277237,-2.5234954992877405,6.163287627487936,1.0119388103485107,-4.406255308781759
1708435665.1294851,-2.163759469985962,-1.339728133087494,-2.5235782305346888,6.16332899311141,1.0119388103485107,-4.4062750975238245
1708435665.1314704,-2.163773536682129,-1.3397250187448044,-2.5235241095172327,6.163242208748617,1.0119808912277222,-4.406263891850607
1708435665.1334841,-2.163802146911621,-1.3397205781987687,-2.5235331694232386,6.163287627487936,1.0119602680206299,-4.4062469641314905
1708435665.1354706,-2.1638269424438477,-1.3397042912295838,-2.5235405603991907,6.163361537247457,1.0119602680206299,-4.406258885060446
1708435665.1374571,-2.1637420654296875,-1.3397666376880188,-2.5235496203051966,6.163275706558981,1.0119520425796509,-4.406242791806356
1708435665.1394768,-2.1637935638427734,-1.3397324991277237,-2.5235000292407435,6.163311707764425,1.011983871459961,-4.406267468129293
1708435665.1414657,-2.163757801055908,-1.3397490990212937,-2.5235376993762415,6.163327920227804,1.0119514465332031,-4.406328503285543
1708435665.1434832,-2.163762092590332,-1.339728133087494,-2.5235376993762415,6.163307416230001,1.0119764804840088,-4.406291309987203
1708435665.1454864,-2.163802146911621,-1.339745671754219,-2.5235121885882776,6.163278925209799,1.0119602680206299,-4.406291309987203
1708435665.1474638,-2.1637892723083496,-1.3397816729596634,-2.5235331694232386,6.163332330971517,1.0119433403015137,-4.406258885060446
1708435665.1494632,-2.163784980773926,-1.3397697520307084,-2.52351957956423,6.163339841156759,1.0119152069091797,-4.406242791806356
1708435665.1514766,-2.163780689239502,-1.33976103485141,-2.5235331694232386,6.16332362869338,1.0119075775146484,-4.406267468129293
1708435665.1535037,-2.1638383865356445,-1.3397979599288483,-2.5234954992877405,6.163315880089559,1.0119645595550537,-4.406263176594869
1708435665.1554718,-2.1638312339782715,-1.3397816729596634,-2.523536030446188,6.163348424225607,1.0119563341140747,-4.406295601521627
1708435665.1574817,-2.163818359375,-1.3397490990212937,-2.5234909693347376,6.163356411248007,1.0119107961654663,-4.406295482312338
1708435665.1594899,-2.163846969604492,-1.3397741925767441,-2.5235241095172327,6.163294303208151,1.0119357109069824,-4.406263176594869
1708435665.1614673,-2.1638383865356445,-1.3397948455861588,-2.523538891469137,6.163307416230001,1.0119357109069824,-4.406295482312338
1708435665.163478,-2.1638102531433105,-1.339744732981064,-2.5235000292407435,6.163327920227804,1.0119357109069824,-4.406291309987203
1708435665.1654696,-2.1638340950012207,-1.339744732981064,-2.5235405603991907,6.163335549622335,1.0119032859802246,-4.4062750975238245
1708435665.1674774,-2.1638145446777344,-1.339778558616974,-2.5234580675708216,6.163290011673727,1.0119563341140747,-4.406234208737509
1708435665.1695037,-2.163814067840576,-1.339711846118309,-2.5235615412341517,6.163343417435446,1.0118988752365112,-4.406255427991049
1708435665.1715474,-2.163784980773926,-1.3397729408792038,-2.523498598729269,6.1633596298988245,1.0118865966796875,-4.40631598631014
1708435665.173518,-2.1638059616088867,-1.339745671754219,-2.5235541502581995,6.163368332176962,1.0119314193725586,-4.406270805989401
1708435665.175479,-2.1638762950897217,-1.3397324991277237,-2.5235450903521937,6.163363921433248,1.0119444131851196,-4.4062621037112635
1708435665.1775005,-2.1638383865356445,-1.339778558616974,-2.5234788099872034,6.163352119713583,1.0119032859802246,-4.406246010457174
1708435665.1795244,-2.1638383865356445,-1.3397205781987687,-2.5235570112811487,6.163356411248007,1.0119520425796509,-4.4063032309161585
1708435665.1814702,-2.163801670074463,-1.3397534650615235,-2.5235076586352747,6.163326847344198,1.0119032859802246,-4.406270805989401
1708435665.1834707,-2.1638269424438477,-1.3397979599288483,-2.5234954992877405,6.16337941864089,1.0119389295578003,-4.406258885060446
1708435665.1854625,-2.163818359375,-1.3397579205087204,-2.5234788099872034,6.163355338364401,1.0118823051452637,-4.406238500271932
1708435665.1874819,-2.1638059616088867,-1.3396745932153244,-2.523477617894308,6.163355219155111,1.0119314193725586,-4.406278316174642
1708435665.1895115,-2.1638095378875732,-1.339756653910019,-2.5235405603991907,6.16338466384963,1.0119731426239014,-4.406307403241293
1708435665.191473,-2.1637892723083496,-1.3398036670735856,-2.523498598729269,6.163363921433248,1.0119433403015137,-4.406257931386129
1708435665.1934962,-2.163858413696289,-1.3397250187448044,-2.5234954992877405,6.1633596298988245,1.0119314193725586,-4.406253639851705
1708435665.1954787,-2.1638102531433105,-1.3397534650615235,-2.5235241095172327,6.163401233940878,1.0119109153747559,-4.406294528638021
1708435665.1974816,-2.163784980773926,-1.339778558616974,-2.5234819094287317,6.163350927620687,1.0119032859802246,-4.4062621037112635
1708435665.1994762,-2.1638834476470947,-1.3397368502667923,-2.5235000292407435,6.163367140084066,1.0118945837020874,-4.4062750975238245
1708435665.2014768,-2.163822650909424,-1.3397490990212937,-2.5234909693347376,6.163355338364401,1.0118989944458008,-4.4062997738467615
1708435665.2034914,-2.1638340950012207,-1.3397653859904786,-2.5235286394702356,6.1633715508277795,1.011890172958374,-4.406266633664266
1708435665.2054787,-2.1638426780700684,-1.339744732981064,-2.52351957956423,6.163330304413595,1.0119357109069824,-4.406340424214498
1708435665.2074904,-2.1638383865356445,-1.339778558616974,-2.5234878698932093,6.163362848549642,1.0119194984436035,-4.406238500271932
1708435665.209477,-2.163829803466797,-1.339762271647789,-2.5235121885882776,6.1633596298988245,1.0119109153747559,-4.406315747891561
1708435665.211491,-2.1638269424438477,-1.3397579205087204,-2.5235000292407435,6.163392412453451,1.0119388103485107,-4.406254712735311
1708435665.2134871,-2.1637778282165527,-1.3397205781987687,-2.5235241095172327,6.163362848549642,1.0119152069091797,-4.4062504212008875
1708435665.2154772,-2.163829803466797,-1.3397162121585389,-2.5235076586352747,6.163346516876974,1.0119075775146484,-4.406320039425985
1708435665.2174947,-2.1638340950012207,-1.339778558616974,-2.5235496203051966,6.163383710175314,1.0119357109069824,-4.406295482312338
1708435665.2194855,-2.163822650909424,-1.3397816729596634,-2.5234909693347376,6.163383710175314,1.0119400024414062,-4.406278316174642
1708435665.2214828,-2.163829803466797,-1.3397653859904786,-2.5235076586352747,6.163396823197164,1.0119444131851196,-4.406270805989401
1708435665.2235217,-2.163858413696289,-1.3396833103946229,-2.523505989705221,6.1634161351020715,1.0119075775146484,-4.406278316174642
1708435665.2254674,-2.163801670074463,-1.3397741925767441,-2.523503128682272,6.163398849755087,1.0119152069091797,-4.406258885060446
1708435665.227499,-2.1638805866241455,-1.3397741925767441,-2.523552481328146,6.163383710175314,1.0119119882583618,-4.406328503285543
1708435665.2295103,-2.163858413696289,-1.3397697520307084,-2.5234819094287317,6.163413035660543,1.0118824243545532,-4.406307403241293
1708435665.231514,-2.1638059616088867,-1.3397413057139893,-2.5235405603991907,6.163380253105917,1.011960744857788,-4.406294528638021
1708435665.2335062,-2.1638059616088867,-1.3397413057139893,-2.5235076586352747,6.163339006691732,1.0118945837020874,-4.406282726918356
1708435665.2354586,-2.1638269424438477,-1.3397534650615235,-2.5235450903521937,6.163408744126119,1.0119237899780273,-4.40631598631014
1708435665.237514,-2.16386342048645,-1.3397741925767441,-2.5234909693347376,6.163362848549642,1.0119194984436035,-4.40628701845278
1708435665.2394624,-2.1637892723083496,-1.3397413057139893,-2.523536030446188,6.163383710175314,1.0118705034255981,-4.406311694775717
1708435665.2414594,-2.163862705230713,-1.3397162121585389,-2.52351957956423,6.163408744126119,1.0119282007217407,-4.406270805989401
1708435665.2434769,-2.1637892723083496,-1.3397490990212937,-2.523515049611227,6.163399922638693,1.0119237899780273,-4.406270805989401
1708435665.2454767,-2.1637892723083496,-1.3397534650615235,-2.5234864393817347,6.163391339569845,1.0119271278381348,-4.4062750975238245
1708435665.2474964,-2.1638426780700684,-1.3397610199502488,-2.5235000292407435,6.163388120919027,1.0119075775146484,-4.406307045613424
1708435665.2494817,-2.163862705230713,-1.3397741925767441,-2.523515049611227,6.16337941864089,1.0119314193725586,-4.406307403241293
1708435665.251478,-2.163797378540039,-1.3397579205087204,-2.5234954992877405,6.163330304413595,1.0119271278381348,-4.406270805989401
1708435665.2539148,-2.163846969604492,-1.339744732981064,-2.5235241095172327,6.163347708969869,1.0119271278381348,-4.4063032309161585
1708435665.2554746,-2.1638383865356445,-1.3397293847850342,-2.5235286394702356,6.163343417435446,1.0119109153747559,-4.406291309987203
1708435665.257494,-2.163829803466797,-1.3397948455861588,-2.5235570112811487,6.163334715157308,1.0119563341140747,-4.406254712735311
1708435665.2594793,-2.1638059616088867,-1.3397860389998932,-2.523515049611227,6.163334595948019,1.0119476318359375,-4.406336251889364
1708435665.261484,-2.163776159286499,-1.3397860389998932,-2.523503128682272,6.16337941864089,1.0119807720184326,-4.406294528638021
1708435665.2635121,-2.1638383865356445,-1.3397697520307084,-2.5235615412341517,6.163343417435446,1.0119602680206299,-4.406307403241293
1708435665.2654812,-2.1638541221618652,-1.3397324991277237,-2.52351957956423,6.163362848549642,1.011906385421753,-4.406258885060446
1708435665.2675056,-2.163797378540039,-1.3397610199502488,-2.523531500493185,6.163408744126119,1.0119314193725586,-4.406258885060446
1708435665.2694945,-2.163769245147705,-1.3397653859904786,-2.523515049611227,6.163408744126119,1.0119731426239014,-4.406270805989401
1708435665.2714753,-2.163818359375,-1.339790479545929,-2.5235076586352747,6.163386928826132,1.011934518814087,-4.406298939381735
1708435665.2735186,-2.163801670074463,-1.3397324991277237,-2.5235331694232386,6.163395631104269,1.0119688510894775,-4.40628701845278
1708435665.2755182,-2.1637892723083496,-1.3397773069194336,-2.5235405603991907,6.16337941864089,1.0119152069091797,-4.406258885060446
1708435665.2774973,-2.1638059616088867,-1.3397816729596634,-2.523536030446188,6.163337933808126,1.0119645595550537,-4.406291309987203
1708435665.279473,-2.1638009548187256,-1.3397653859904786,-2.523552481328146,6.163417446404257,1.0119602680206299,-4.4062750975238245
1708435665.2814922,-2.1638102531433105,-1.3397413057139893,-2.5235076586352747,6.16337941864089,1.0119314193725586,-4.4062750975238245
1708435665.2835062,-2.1638102531433105,-1.3397293847850342,-2.5235241095172327,6.163362848549642,1.0119476318359375,-4.4062997738467615
1708435665.285481,-2.163801670074463,-1.3397162121585389,-2.523547951375143,6.16337941864089,1.011918306350708,-4.4062504212008875
1708435665.2875109,-2.163867712020874,-1.3397697520307084,-2.523572031651632,6.16334222534255,1.0119688510894775,-4.406270805989401
1708435665.289479,-2.1638498306274414,-1.3397413057139893,-2.523538891469137,6.163380253105917,1.0119194984436035,-4.4063032309161585
1708435665.2914643,-2.1638102531433105,-1.3397579205087204,-2.523531500493185,6.163392412453451,1.0119400024414062,-4.40628701845278
1708435665.2935119,-2.163872003555298,-1.3397162121585389,-2.5235241095172327,6.163411843567648,1.011955738067627,-4.406263176594869
1708435665.2954612,-2.163818359375,-1.3397250187448044,-2.523515049611227,6.163411843567648,1.0119514465332031,-4.406267468129293
1708435665.2975152,-2.1638269424438477,-1.339762271647789,-2.5234909693347376,6.1633715508277795,1.0119225978851318,-4.406291309987203
1708435665.2994702,-2.163802146911621,-1.3397534650615235,-2.523569170628683,6.16343246677474,1.0119225978851318,-4.4062398115741175
1708435665.3014755,-2.1638269424438477,-1.3397534650615235,-2.523555580769674,6.163330304413595,1.0119633674621582,-4.406235758458273
1708435665.3035145,-2.163846969604492,-1.3397579205087204,-2.523552481328146,6.163325893669882,1.0119314193725586,-4.406235758458273
1708435665.3054795,-2.163797378540039,-1.3398098808578034,-2.523536030446188,6.163355338364401,1.0119645595550537,-4.406267468129293
1708435665.3075097,-2.163784980773926,-1.3397697520307084,-2.523569170628683,6.163396823197164,1.0119225978851318,-4.406267468129293
1708435665.3094776,-2.1638059616088867,-1.3397490990212937,-2.52356464067568,6.163355338364401,1.011934518814087,-4.406263176594869
1708435665.3114743,-2.1637821197509766,-1.339745671754219,-2.523503128682272,6.163375842362203,1.0119271278381348,-4.406263176594869
1708435665.3134701,-2.163846969604492,-1.3397534650615235,-2.5235241095172327,6.163375842362203,1.0119719505310059,-4.406251255665914
1708435665.3154929,-2.1638426780700684,-1.3396868419698258,-2.523547951375143,6.163363921433248,1.0119476318359375,-4.4062469641314905
1708435665.3174806,-2.1637535095214844,-1.3397829246572037,-2.523573700581686,6.163363921433248,1.0119520425796509,-4.406251255665914
1708435665.3194826,-2.163822650909424,-1.3397534650615235,-2.5235286394702356,6.163301932602682,1.0118858814239502,-4.40621537366976
1708435665.3214557,-2.1638498306274414,-1.3397610199502488,-2.523515049611227,6.163392412453451,1.0119645595550537,-4.406248275433676
1708435665.3234942,-2.163806438446045,-1.3397250187448044,-2.523547951375143,6.163413035660543,1.0119645595550537,-4.406227890645162
1708435665.3254557,-2.1638059616088867,-1.3397697520307084,-2.523526970540182,6.163331138878622,1.0119225978851318,-4.406263176594869
1708435665.3274853,-2.1638355255126953,-1.339762271647789,-2.5235241095172327,6.163380133896627,1.0119645595550537,-4.40621525446047
1708435665.329465,-2.1637935638427734,-1.3397653859904786,-2.52354342142214,6.163375842362203,1.011934518814087,-4.406203333531515
1708435665.3314688,-2.163851261138916,-1.339745671754219,-2.5235405603991907,6.1633596298988245,1.0119225978851318,-4.406227890645162
1708435665.3334923,-2.1638102531433105,-1.3397074800780793,-2.5235570112811487,6.163319337158956,1.011955738067627,-4.406252686177389
1708435665.3354602,-2.1637892723083496,-1.3397368353656312,-2.523510519658224,6.163368451386251,1.0120012760162354,-4.406235758458273
1708435665.3374615,-2.163769245147705,-1.3397250038436432,-2.52351957956423,6.163352119713583,1.011983871459961,-4.4062116781817835
1708435665.3394778,-2.163801670074463,-1.3397447776845475,-2.5235405603991907,6.163339841156759,1.011967658996582,-4.406199161206381
1708435665.341467,-2.1638271808624268,-1.3398067665151139,-2.523536030446188,6.163356411248007,1.0119602680206299,-4.406256977711813
1708435665.343586,-2.1638269424438477,-1.3397324991277237,-2.523536030446188,6.1633105156715295,1.0120004415512085,-4.406187359486715
1708435665.3454847,-2.1637892723083496,-1.3397360158017655,-2.5235241095172327,6.163356411248007,1.0120047330856323,-4.406263891850607
1708435665.347506,-2.1638102531433105,-1.3397534650615235,-2.5235241095172327,6.163282382279196,1.0119926929473877,-4.406215969716207
1708435665.3494594,-2.1637935638427734,-1.3397237670472641,-2.52351957956423,6.163307416230001,1.0119589567184448,-4.406166736279623
1708435665.3515155,-2.163773536682129,-1.3397816729596634,-2.523515049611227,6.163352119713583,1.0119881629943848,-4.406207863484518
1708435665.3534708,-2.1637778282165527,-1.3397042912295838,-2.5236204306231897,6.16339002826766,1.0120004415512085,-4.406182948743002
1708435665.355469,-2.1637818813323975,-1.3397074800780793,-2.523590151463644,6.163332330971517,1.0119514465332031,-4.406155053769247
1708435665.3574903,-2.163818359375,-1.3397653859904786,-2.523531500493185,6.163327920227804,1.0119719505310059,-4.406167809163229
1708435665.3594801,-2.1637821197509766,-1.3398185980371018,-2.5235241095172327,6.163271415024557,1.0119961500167847,-4.406203571950094
1708435665.3614662,-2.1637978553771973,-1.3397490990212937,-2.523552481328146,6.163348543434896,1.0120004415512085,-4.406172100697653
1708435665.3634772,-2.163790702819824,-1.339744732981064,-2.5235570112811487,6.163311707764425,1.0119917392730713,-4.406136099492208
1708435665.3654852,-2.163766384124756,-1.339790479545929,-2.52348500887026,6.163251864701071,1.0119633674621582,-4.406160060559408
1708435665.3674734,-2.163755178451538,-1.3397324991277237,-2.523531500493185,6.163284408837118,1.0119633674621582,-4.406115595494406
1708435665.3695068,-2.163823127746582,-1.3397205781987687,-2.523522440587179,6.163231003075399,1.0119961500167847,-4.406164232884542
1708435665.3715022,-2.163762092590332,-1.339762271647789,-2.523531500493185,6.163301694184103,1.0119719505310059,-4.406148735676901
1708435665.3735192,-2.163757801055908,-1.3397162121585389,-2.523602310811178,6.163232075959005,1.0119917392730713,-4.406192366276876
1708435665.375506,-2.163801670074463,-1.3397697371295472,-2.523552481328146,6.163239705353536,1.0119588375091553,-4.406091157590048
1708435665.3774865,-2.1638104915618896,-1.3398098808578034,-2.523534361516134,6.163272487908163,1.0119470357894897,-4.406124178563253
1708435665.3794858,-2.1637821197509766,-1.3396955591491242,-2.523547951375143,6.163248288422384,1.0120080709457397,-4.406180445347921
1708435665.3814952,-2.1637892723083496,-1.3397729408792038,-2.523581091557638,6.163211571961202,1.0119961500167847,-4.406132523213522
1708435665.3834705,-2.1637463569641113,-1.3397829246572037,-2.523573700581686,6.163203942566671,1.0119545459747314,-4.406153146420614
1708435665.3855104,-2.163790702819824,-1.3397413057139893,-2.523606840764181,6.16322015503005,1.0119751691818237,-4.406136933957235
1708435665.3874826,-2.1637749671936035,-1.339745671754219,-2.52356464067568,6.163217055588522,1.011983871459961,-4.406115714703695
1708435665.3894875,-2.163766384124756,-1.3397579205087204,-2.523517910634176,6.16324399688796,1.012028694152832,-4.406164232884542
1708435665.3914976,-2.1637508869171143,-1.3397194010070343,-2.52351957956423,6.1632364867027185,1.0119993686676025,-4.406099502240316
1708435665.3934865,-2.163790702819824,-1.339711846118309,-2.523510519658224,6.163171160012045,1.0120155811309814,-4.406164232884542
1708435665.3954856,-2.1637978553771973,-1.3396921318820496,-2.523531500493185,6.163199651032247,1.0120079517364502,-4.406148735676901
1708435665.3974845,-2.1637790203094482,-1.3397579205087204,-2.52354342142214,6.163183080941,1.0120242834091187,-4.406161610280172
1708435665.3994873,-2.163750648498535,-1.3397579205087204,-2.523522440587179,6.16324399688796,1.0120285749435425,-4.406099502240316
1708435665.401466,-2.163759231567383,-1.3397653859904786,-2.523510519658224,6.163196074753561,1.0119949579238892,-4.4060919920550745
1708435665.4034817,-2.1637215614318848,-1.3396802109530945,-2.52356464067568,6.163158166199484,1.0120155811309814,-4.406099502240316
1708435665.4054656,-2.163745641708374,-1.3397773069194336,-2.523538891469137,6.163204777031698,1.0120079517364502,-4.4061201254474085
1708435665.4074898,-2.1637465953826904,-1.3397324991277237,-2.523560110722677,6.163269269257345,1.0120364427566528,-4.406157318745748
1708435665.409478,-2.163745641708374,-1.3397403818419953,-2.523573700581686,6.163150536804952,1.0119949579238892,-4.406181399022238
1708435665.4114623,-2.163755178451538,-1.3398305189660569,-2.523567501698629,6.163188564568319,1.0120487213134766,-4.406136933957235
1708435665.4135003,-2.1637330055236816,-1.3396876764348526,-2.523581091557638,6.163179862290182,1.0120277404785156,-4.406100575123922
1708435665.4154897,-2.1637372970581055,-1.339762271647789,-2.523538891469137,6.163188564568319,1.0120242834091187,-4.406083289776937
1708435665.4175086,-2.163759469985962,-1.3397324991277237,-2.523552481328146,6.163171160012045,1.0120277404785156,-4.406096283589498
1708435665.4194643,-2.1637790203094482,-1.3397250187448044,-2.523531500493185,6.1631600735481165,1.0120277404785156,-4.4060919920550745
1708435665.421449,-2.163759469985962,-1.3397162121585389,-2.523526970540182,6.1631351588066,1.0120233297348022,-4.406108204518453
1708435665.4234836,-2.163754463195801,-1.3397534650615235,-2.523560110722677,6.163115727692404,1.0120518207550049,-4.406067077313558
1708435665.425478,-2.163787841796875,-1.3397579205087204,-2.523585621510641,6.163079726486959,1.012060523033142,-4.406108204518453
1708435665.4275067,-2.1637749671936035,-1.3397162121585389,-2.523552481328146,6.1630709049995325,1.012035608291626,-4.406096283589498
1708435665.4294953,-2.1637415885925293,-1.339778558616974,-2.523593250905172,6.163100230484762,1.0120398998260498,-4.40608781972994
1708435665.431469,-2.163750171661377,-1.3397579205087204,-2.523547951375143,6.163091647415914,1.0120518207550049,-4.406128708516256
1708435665.4334707,-2.163754940032959,-1.3397194010070343,-2.523585621510641,6.163072097092428,1.0120518207550049,-4.406096283589498
1708435665.435469,-2.1637766361236572,-1.339745671754219,-2.523536030446188,6.163112151413717,1.0120550394058228,-4.406099502240316
1708435665.4375098,-2.163806438446045,-1.3397773069194336,-2.523569170628683,6.163059103279867,1.0120922327041626,-4.406092111264364
1708435665.4394813,-2.163759469985962,-1.3397413057139893,-2.523585621510641,6.163075434952535,1.0120930671691895,-4.406112496052877
1708435665.4414856,-2.1637723445892334,-1.339744732981064,-2.523552481328146,6.163043725281515,1.0121008157730103,-4.406068150197164
1708435665.4435062,-2.1637415885925293,-1.3398111325553437,-2.523590151463644,6.163023102074423,1.01206374168396,-4.406027857457296
1708435665.4454873,-2.163745641708374,-1.3397368502667923,-2.523531500493185,6.163080799370565,1.0120550394058228,-4.406096283589498
1708435665.4475038,-2.163783550262451,-1.3397534650615235,-2.523560110722677,6.163064229279318,1.0120269060134888,-4.4061201254474085
1708435665.4494805,-2.163754463195801,-1.339733750825264,-2.523534361516134,6.163022982865133,1.012047529220581,-4.4061047474490564
1708435665.4514732,-2.163794994354248,-1.3397579205087204,-2.52356464067568,6.163064229279318,1.0120313167572021,-4.406124416981832
1708435665.4534857,-2.163750171661377,-1.3397368502667923,-2.52354342142214,6.163059937744894,1.0120723247528076,-4.4060919920550745
1708435665.455497,-2.1637258529663086,-1.3398305189660569,-2.523531500493185,6.163051235466757,1.01206374168396,-4.4061201254474085
1708435665.4575033,-2.1637253761291504,-1.3397490990212937,-2.5235090891467493,6.163036095886984,1.012035608291626,-4.406062070523397
1708435665.4594767,-2.1637372970581055,-1.3397281181863328,-2.52360970178713,6.163064229279318,1.0119937658309937,-4.40613288084139
1708435665.4614685,-2.1637680530548096,-1.339778558616974,-2.523551050816671,6.1631014225776575,1.0120398998260498,-4.406068150197164
1708435665.4634924,-2.1638081073760986,-1.339728133087494,-2.523517910634176,6.163012015610494,1.0120398998260498,-4.406099502240316
1708435665.4654617,-2.1637299060821533,-1.3397741925767441,-2.523593250905172,6.163022982865133,1.0120518207550049,-4.406124416981832
1708435665.4674947,-2.1636974811553955,-1.3397710931352158,-2.523573700581686,6.163048016815939,1.0120561122894287,-4.406100575123922
1708435665.469503,-2.1637187004089355,-1.3397205781987687,-2.5235300699817103,6.16303168514327,1.012035608291626,-4.406039301549093
1708435665.4715064,-2.163780927658081,-1.3397816729596634,-2.523585621510641,6.163027393608846,1.0120922327041626,-4.406161610280172
1708435665.4736178,-2.163745641708374,-1.3397250187448044,-2.523572031651632,6.163085210114279,1.0120432376861572,-4.406080071126119
1708435665.4754949,-2.1637191772460938,-1.339699925189354,-2.523573700581686,6.163059937744894,1.012047529220581,-4.406047765408651
1708435665.4774768,-2.1637401580810547,-1.3397697520307084,-2.523567501698629,6.1630523083503626,1.01206374168396,-4.406137768422262
1708435665.4794807,-2.1637587547302246,-1.3397250187448044,-2.5235841909991663,6.1630523083503626,1.01206374168396,-4.40607995191683
1708435665.4814663,-2.163750171661377,-1.339745671754219,-2.52356464067568,6.163019883423605,1.0120506286621094,-4.406105105076925
1708435665.483493,-2.1637229919433594,-1.339750037794449,-2.523534361516134,6.163040506630697,1.0120669603347778,-4.406100694333212
1708435665.4855058,-2.16371488571167,-1.3397697520307084,-2.523538891469137,6.163081633835592,1.0120922327041626,-4.406105105076925
1708435665.487523,-2.1636974811553955,-1.3397368502667923,-2.523567501698629,6.163015591889181,1.0120843648910522,-4.406121436749594
1708435665.489475,-2.163731575012207,-1.3397534650615235,-2.523576561604635,6.163015472679891,1.0120965242385864,-4.406096283589498
1708435665.4914834,-2.163780927658081,-1.3397666376880188,-2.523593250905172,6.163019883423605,1.0121128559112549,-4.406047765408651
1708435665.493499,-2.16371488571167,-1.3397368502667923,-2.523526970540182,6.162991392403402,1.0120878219604492,-4.406124536191122
1708435665.4954891,-2.163727283477783,-1.3397534650615235,-2.5235887209521692,6.162966477661886,1.0120432376861572,-4.406112615262167
1708435665.4974864,-2.163727283477783,-1.339733750825264,-2.523567501698629,6.162992465287008,1.011998176574707,-4.406071130429403
1708435665.4995182,-2.163743019104004,-1.3397413057139893,-2.523534361516134,6.163004386215963,1.0120922327041626,-4.406124536191122
1708435665.5014749,-2.163731575012207,-1.3397579205087204,-2.5235522429095667,6.1629806635673425,1.0121008157730103,-4.4060755411731165
1708435665.5034866,-2.1637675762176514,-1.3397622418454667,-2.523572031651632,6.162906276970663,1.0120799541473389,-4.40610379377474
1708435665.5054996,-2.16371488571167,-1.339745656853058,-2.523572031651632,6.16291509845809,1.012075662612915,-4.406063620244161
1708435665.507506,-2.16371488571167,-1.3397293847850342,-2.5235465208636683,6.1629477618034265,1.012075662612915,-4.406141463910238
1708435665.509502,-2.1637020111083984,-1.3397324693254014,-2.52360970178713,6.162960874825277,1.0121084451675415,-4.406112615262167
1708435665.511476,-2.163698196411133,-1.339713068013527,-2.523538891469137,6.162903058319845,1.0120835304260254,-4.406124536191122
1708435665.5135047,-2.1637024879455566,-1.3397741925767441,-2.523581091557638,6.162996876030721,1.0120799541473389,-4.406087462102072
1708435665.5154893,-2.163689613342285,-1.3397161972573777,-2.523597780858175,6.16286181190566,1.0120799541473389,-4.406087462102072
1708435665.517518,-2.163698196411133,-1.3397579056075593,-2.5235584417926233,6.1628912566001794,1.0120843648910522,-4.406128946934835
1708435665.5194871,-2.1637070178985596,-1.3397816580585022,-2.52354342142214,6.162968504219808,1.0120922327041626,-4.4061095158206385
1708435665.5214825,-2.1636853218078613,-1.3397456419518967,-2.523580853139059,6.16298936584548,1.0120669603347778,-4.406087462102072
1708435665.5235286,-2.1637024879455566,-1.3397490841201325,-2.523538891469137,6.162935960083761,1.0120506286621094,-4.406096283589498
1708435665.5254643,-2.1636781692504883,-1.3396998953870316,-2.52356464067568,6.162923681526937,1.0120922327041626,-4.406133357678549
1708435665.5275018,-2.1637191772460938,-1.3398023557714005,-2.523551050816671,6.162928092270651,1.0120878219604492,-4.406100694333212
1708435665.529479,-2.1636667251586914,-1.3397412908128281,-2.5235796610461634,6.162879335671224,1.0120594501495361,-4.406063620244161
1708435665.5314715,-2.1637024879455566,-1.3397293996861954,-2.5235629717456263,6.16295753696517,1.012079119682312,-4.406142179165975
1708435665.533495,-2.1637041568756104,-1.3397131276181717,-2.5235629717456263,6.162862765579977,1.0121163129806519,-4.40607995191683
1708435665.5354986,-2.1636953353881836,-1.3398035776666184,-2.5235584417926233,6.162908541947164,1.0120922327041626,-4.406096283589498
1708435665.5374985,-2.163679599761963,-1.339729369883873,-2.523572031651632,6.162912952690878,1.0120878219604492,-4.406051699315206
1708435665.5394952,-2.1636416912078857,-1.3397579205087204,-2.5235961119281214,6.162892329483785,1.0121040344238281,-4.406084362660543
1708435665.5414698,-2.1636502742767334,-1.339729369883873,-2.5236006418811243,6.162823545723715,1.0120922327041626,-4.406087462102072
1708435665.543502,-2.1636459827423096,-1.3396964979222794,-2.5235629717456263,6.162799823075094,1.0121194124221802,-4.406063620244161
1708435665.5454762,-2.1636388301849365,-1.3397829246572037,-2.523614231740133,6.162796485214987,1.0121084451675415,-4.406105105076925
1708435665.5475,-2.163634777069092,-1.3397456866553803,-2.523567501698629,6.162739622383871,1.0121128559112549,-4.406105105076925
1708435665.5494802,-2.1636223793029785,-1.3397043210319062,-2.5236051718341272,6.162739622383871,1.0120669603347778,-4.406096283589498
1708435665.5514672,-2.163656234741211,-1.3397250038436432,-2.5235961119281214,6.162748324662008,1.0120747089385986,-4.406059209500448
1708435665.5535388,-2.1636266708374023,-1.339700849061348,-2.5236380735980433,6.162700402527609,1.0121369361877441,-4.406031552945272
1708435665.555504,-2.163651943206787,-1.339745671754219,-2.5236006418811243,6.162716972618856,1.0121119022369385,-4.40602416196932
1708435665.5574806,-2.1635942459106445,-1.3397293847850342,-2.5236125628100794,6.162656771927633,1.0121281147003174,-4.406060520802633
1708435665.5594752,-2.1636648178100586,-1.3397008639625092,-2.5235706011401575,6.16263626792983,1.0121238231658936,-4.406051699315206
1708435665.5614686,-2.163595676422119,-1.3397579205087204,-2.5236454645739954,6.162592637329855,1.0121119022369385,-4.406051699315206
1708435665.5634964,-2.163599967956543,-1.339745671754219,-2.5236409346209925,6.1625274298484705,1.01215660572052,-4.406041685734884
1708435665.5654864,-2.1635382175445557,-1.339687706237175,-2.523660723363058,6.162483799248495,1.0121806859970093,-4.406003777180807
1708435665.567664,-2.163533926010132,-1.3397042465261002,-2.523689095173971,6.1624029753501794,1.0121763944625854,-4.406003777180807
1708435665.569482,-2.1635594367980957,-1.3397337061217804,-2.523684565220968,6.162391054421224,1.0121510028839111,-4.405999366437094
1708435665.5715454,-2.16355562210083,-1.3397413355163117,-2.523712937031881,6.162400948792257,1.0121841430664062,-4.406033579503195
1708435665.5735135,-2.1635117530822754,-1.3397293847850342,-2.5236709753619593,6.162353026657858,1.012209177017212,-4.406003777180807
1708435665.575486,-2.1634864807128906,-1.3397425425103684,-2.5237775484668177,6.162287699967184,1.012143611907959,-4.405984584485189
1708435665.5774868,-2.1634581089019775,-1.3397130829146882,-2.5237401167498987,6.162267911225118,1.0121885538101196,-4.405988995228903
1708435665.5795193,-2.163486957550049,-1.3397250038436432,-2.5237775484668177,6.162240612297811,1.012126088142395,-4.405984584485189
1708435665.5814726,-2.1634631156921387,-1.339745656853058,-2.5237565676318567,6.162228810578146,1.012192964553833,-4.405981485043661
1708435665.583488,-2.16341495513916,-1.339730591779091,-2.523775879536764,6.1621320126350305,1.012237548828125,-4.405899826680319
1708435665.5854878,-2.163374185562134,-1.3397512596896668,-2.52380615869631,6.1620885012443445,1.0121830701828003,-4.405913058911459
1708435665.5874865,-2.1633381843566895,-1.3396566969207306,-2.52380615869631,6.162064659386434,1.0122201442718506,-4.405880395566122
1708435665.5894895,-2.1633152961730957,-1.3397008043578644,-2.523766819630758,6.16209493854598,1.0122648477554321,-4.405902449284689
1708435665.5915284,-2.163285970687866,-1.33966979504142,-2.523792568837301,6.161992537766256,1.0122482776641846,-4.405918780957357
1708435665.5934713,-2.16331148147583,-1.339611904030182,-2.523788038884298,6.161993729859152,1.0122648477554321,-4.405902449284689
1708435665.5955079,-2.1632580757141113,-1.3396368485740204,-2.523792568837301,6.161852109223165,1.0122517347335815,-4.405829612408773
1708435665.5974975,-2.163231372833252,-1.3395998936942597,-2.523813549672262,6.161841261177816,1.0122517347335815,-4.405805770550863
1708435665.599506,-2.1632275581359863,-1.3396426153234025,-2.5238075892077845,6.161732065468588,1.0123083591461182,-4.405823413525717
1708435665.6014931,-2.163170099258423,-1.339618445639946,-2.5238495508777063,6.161673414498129,1.0123414993286133,-4.405786339436666
1708435665.6035056,-2.163135051727295,-1.339593381886818,-2.5238450209247034,6.161584126740255,1.0123568773269653,-4.405741755162374
1708435665.6055243,-2.1631264686584473,-1.339605228309967,-2.5238285700427454,6.161534058838644,1.0123568773269653,-4.405717913304464
1708435665.6074839,-2.163097858428955,-1.339541257624962,-2.5237908999072474,6.161425101547994,1.012413740158081,-4.405735556279318
1708435665.6094713,-2.163038730621338,-1.3395989847234269,-2.5238240400897425,6.161336886673727,1.0123963356018066,-4.405656997357504
1708435665.61151,-2.1630401611328125,-1.339508370762207,-2.5238223711596888,6.161245333939352,1.0124406814575195,-4.405695382748739
1708435665.613527,-2.1629881858825684,-1.3395184886506577,-2.5238314310656946,6.161173331528463,1.0124770402908325,-4.405622665082113
1708435665.6154938,-2.162891149520874,-1.3395390969565888,-2.5238810221301478,6.161048996239462,1.012509822845459,-4.405622665082113
1708435665.6174755,-2.1628594398498535,-1.3394989979318161,-2.523850742970602,6.160888302117147,1.0125454664230347,-4.4056329170810145
1708435665.619486,-2.1628143787384033,-1.3394096505692978,-2.523884121571676,6.16080533245162,1.0125494003295898,-4.4055392185794275
1708435665.621495,-2.1627883911132812,-1.3394425374320527,-2.523879591618673,6.160694110184469,1.0125205516815186,-4.405554954205648
1708435665.6234863,-2.162740707397461,-1.3394141060164948,-2.5239198843585413,6.160577642708578,1.012573003768921,-4.405478302632467
1708435665.6254716,-2.1626858711242676,-1.3393369776061554,-2.5239408651935022,6.160425174027242,1.0125808715820312,-4.405487004910604
1708435665.6274889,-2.1626076698303223,-1.339354546075203,-2.5239439646350306,6.160334574967184,1.0125970840454102,-4.405500952397482
1708435665.6294851,-2.162580966949463,-1.3394034814885636,-2.5239649454699915,6.1601788876350305,1.0126090049743652,-4.405399266873495
1708435665.6315029,-2.1625208854675293,-1.3393173229745408,-2.5239935556994837,6.160039531975546,1.0126452445983887,-4.405416790639059
1708435665.6334908,-2.162445068359375,-1.3393065643361588,-2.52394682565798,6.159809458046713,1.0126856565475464,-4.405362788830892
1708435665.635536,-2.1623847484588623,-1.3392336529544373,-2.524045769368307,6.159723627358236,1.0127018690109253,-4.40532893339266
1708435665.637495,-2.162280797958374,-1.339242385034897,-2.5240159670459192,6.159560191422262,1.012733817100525,-4.405313436185018
1708435665.6394575,-2.1621968746185303,-1.3392674040845414,-2.5240233580218714,6.159367549210348,1.0127489566802979,-4.405255381261007
1708435665.6414735,-2.162116765975952,-1.339202271108963,-2.5240491072284144,6.159231292992391,1.012782096862793,-4.4052210489856165
1708435665.6434739,-2.1620328426361084,-1.339195654993393,-2.5240400473224085,6.158981787949362,1.0128254890441895,-4.405189816151754
1708435665.6454713,-2.161994457244873,-1.3391793233207245,-2.5241013208972376,6.158925044327535,1.0128211975097656,-4.4050753752337855
1708435665.6474931,-2.1618974208831787,-1.3391719621470948,-2.524071280156271,6.158687460213461,1.0128824710845947,-4.405085627232687
1708435665.6494782,-2.161817789077759,-1.3390781295350571,-2.524125639592306,6.158482777863302,1.012939214706421,-4.40500528017153
1708435665.6514692,-2.161738157272339,-1.3391448271325608,-2.524112049733297,6.158328401833334,1.0129175186157227,-4.4049827496158045
1708435665.6534636,-2.1616342067718506,-1.3390837621739884,-2.524112049733297,6.158115970879354,1.0129578113555908,-4.404955093060629
1708435665.6554935,-2.161513328552246,-1.3390596967986603,-2.5241642634021204,6.15792869308547,1.0129578113555908,-4.404874149953024
1708435665.6574583,-2.1614837646484375,-1.339003176694252,-2.524179283772604,6.157724964409628,1.0130221843719482,-4.404896203671591
1708435665.6594915,-2.161346673965454,-1.338950828914978,-2.524200503026144,6.1575612900550745,1.013046383857727,-4.404852930699484
1708435665.6614738,-2.1613292694091797,-1.3389881414226075,-2.524212423955099,6.157381641655721,1.0130583047866821,-4.404740039502279
1708435665.6634772,-2.1611835956573486,-1.3388826263001938,-2.5243189970599573,6.157133447914877,1.0130977630615234,-4.404724899922506
1708435665.665467,-2.161071538925171,-1.3388912987760087,-2.5242467562304896,6.156938540726461,1.0131301879882812,-4.4047173897372645
1708435665.6674793,-2.1610331535339355,-1.3388433766416092,-2.5243127981769007,6.156739103585043,1.0131340026855469,-4.404592458401815
1708435665.6694963,-2.1608922481536865,-1.3388684701970597,-2.5243399778949183,6.156502830773153,1.0131744146347046,-4.4045743385898035
1708435665.6715198,-2.1607766151428223,-1.3388076585582276,-2.524344507847921,6.156231391220846,1.013238787651062,-4.404442969952719
1708435665.6735368,-2.1607179641723633,-1.3388163906386872,-2.5243189970599573,6.156003701477804,1.0132747888565063,-4.404446307812826
1708435665.6755714,-2.160593032836914,-1.33879670620475,-2.5243638197528284,6.155751096993246,1.013319492340088,-4.404389087353842
1708435665.677497,-2.16046404838562,-1.338725135927536,-2.5244043509112757,6.155512559204855,1.013318657875061,-4.404215876256124
1708435665.6795218,-2.1603658199310303,-1.3386835616878052,-2.524437491093771,6.155248987465658,1.0133581161499023,-4.404234949742452
1708435665.6814868,-2.160273790359497,-1.3386640858701249,-2.5244267622577112,6.154996979027548,1.013439655303955,-4.40417462984194
1708435665.6835206,-2.160170555114746,-1.3387067031911393,-2.524456802998678,6.1547207711036584,1.0134265422821045,-4.404091183339254
1708435665.6854746,-2.1600594520568848,-1.3386980158141633,-2.5245350042926233,6.154445278435507,1.0135118961334229,-4.404056851063864
1708435665.687492,-2.1598784923553467,-1.338654325609543,-2.5244839827166956,6.154164898186483,1.013555645942688,-4.403979365025656
1708435665.6894705,-2.159823417663574,-1.338540033703186,-2.524540726338522,6.15394293048934,1.0135838985443115,-4.403874937688009
1708435665.6914892,-2.1597042083740234,-1.338553176527359,-2.524515215550558,6.1536093828971765,1.0136027336120605,-4.403824512158529
1708435665.693507,-2.159555673599243,-1.3385532063296814,-2.5245469252215784,6.153326618462362,1.0136836767196655,-4.403727833424703
1708435665.6954756,-2.1594560146331787,-1.3385127198747178,-2.5246053377734583,6.15306709983901,1.0137239694595337,-4.403673354779379
1708435665.697509,-2.159369468688965,-1.3384813529304047,-2.5245888868915003,6.152795898705282,1.0137635469436646,-4.403602425252096
1708435665.6994762,-2.15924072265625,-1.3384738725474854,-2.5246155897723597,6.152504074364462,1.0137991905212402,-4.4035308996783655
1708435665.7014534,-2.159079074859619,-1.338458926682808,-2.524665419255392,6.152236926346578,1.013855218887329,-4.403466884289877
1708435665.703477,-2.159005641937256,-1.3383475256017228,-2.524651829396383,6.151844012528219,1.0139446258544922,-4.40335983434786
1708435665.7054877,-2.1588685512542725,-1.338422716861107,-2.524668280278341,6.151544439583578,1.0139689445495605,-4.403239075337545
1708435665.7075267,-2.1587412357330322,-1.3383260083249588,-2.5246923605548304,6.151191460877218,1.0139962434768677,-4.403241101895468
1708435665.7094922,-2.1585938930511475,-1.338290275340416,-2.5247328917132776,6.150881397515096,1.0140235424041748,-4.403149668370382
1708435665.7114687,-2.1584465503692627,-1.3383272153190156,-2.5246906916247767,6.150512802391805,1.0140433311462402,-4.403093878422872
1708435665.7135036,-2.158350944519043,-1.3382303577712555,-2.5247448126422327,6.150242793350973,1.0141373872756958,-4.40296191373934
1708435665.7154834,-2.158198356628418,-1.3382106733373185,-2.524747673665182,6.149927007942953,1.014156699180603,-4.402901474629537
1708435665.7174911,-2.1580283641815186,-1.3381958615830918,-2.524776283894674,6.149624216347494,1.0141887664794922,-4.402843538914816
1708435665.7194667,-2.157879590988159,-1.3381018352559586,-2.5248213450061243,6.149267065316,1.0141713619232178,-4.402710858975546
1708435665.7214952,-2.157743453979492,-1.3381119233420868,-2.5248242060290735,6.148972022324362,1.014251947402954,-4.402672115956442
1708435665.723502,-2.157627820968628,-1.3380181205323716,-2.5248525778399866,6.148665773659506,1.0143210887908936,-4.402576748524801
1708435665.7255206,-2.1574792861938477,-1.3379821342280884,-2.524881426488058,6.148317444115438,1.0143851041793823,-4.40244430700411
1708435665.7274907,-2.1573407649993896,-1.3379262548736115,-2.524872366582052,6.147981631546774,1.0143883228302002,-4.4023534695254725
1708435665.729488,-2.1571764945983887,-1.3378904920867463,-2.5249035994159144,6.147634017258444,1.0144245624542236,-4.402283374463217
1708435665.7314856,-2.1570370197296143,-1.337908298974373,-2.5249035994159144,6.147241103440084,1.0144487619400024,-4.4021857420550745
1708435665.7334929,-2.156905174255371,-1.337787003522255,-2.524939839039938,6.146966564446249,1.014496922492981,-4.402115885411398
1708435665.7354877,-2.15679931640625,-1.3377760511687775,-2.524992052708761,6.146563160210409,1.014528512954712,-4.401995245610372
1708435665.7377307,-2.1566097736358643,-1.3376871210387726,-2.524987522755758,6.146235573082723,1.0145766735076904,-4.401941482220785
1708435665.7394986,-2.156522512435913,-1.3376956594041367,-2.5250237623797815,6.145827281266012,1.0145680904388428,-4.401853624974386
1708435665.7415068,-2.156355857849121,-1.3376767200282593,-2.5250476042376917,6.145571219712057,1.0146410465240479,-4.401721064244406
1708435665.7434912,-2.156203031539917,-1.3375802499106904,-2.525050465260641,6.1451666233833215,1.0147099494934082,-4.4016093651400965
1708435665.7454803,-2.1560676097869873,-1.3375853908113022,-2.525158468876974,6.14485393741683,1.0147621631622314,-4.401530329381124
1708435665.7475278,-2.155909299850464,-1.3374968779138108,-2.525100294743673,6.144507515221395,1.0147690773010254,-4.401476565991537
1708435665.749491,-2.1557929515838623,-1.337465153341629,-2.5251105467425745,6.144188272743978,1.0148212909698486,-4.401397530232565
1708435665.7514853,-2.1556403636932373,-1.3374174696258088,-2.5251691977130335,6.143754827767172,1.0148366689682007,-4.401227418576376
1708435665.7535114,-2.1554651260375977,-1.3373899918845673,-2.525184218083517,6.143396842270651,1.0149503946304321,-4.401166145001547
1708435665.7554924,-2.1553280353546143,-1.3373616349748154,-2.525205198918478,6.143067705422201,1.0149208307266235,-4.401078049336569
1708435665.7575166,-2.1552302837371826,-1.3373139661601563,-2.5252366701709192,6.142709362297811,1.0149569511413574,-4.400917236004965
1708435665.7595174,-2.1550748348236084,-1.3372660440257569,-2.5252562204944056,6.142358529358663,1.0150169134140015,-4.400814119969503
1708435665.7615242,-2.1548781394958496,-1.337222622042038,-2.5252397696124476,6.14199053028182,1.0150662660598755,-4.400779906903402
1708435665.7635026,-2.1547553539276123,-1.3371423345855256,-2.52527100244631,6.141622173577108,1.0151184797286987,-4.400643650685446
1708435665.7655132,-2.154578924179077,-1.3371108335307618,-2.525254551564352,6.141283380776205,1.0151666402816772,-4.400535289441244
1708435665.7675166,-2.154505729675293,-1.3370457005551835,-2.525299612675802,6.140952574997701,1.0151833295822144,-4.400464359913961
1708435665.7695582,-2.1543173789978027,-1.3370715391686936,-2.5253401438342493,6.140588629036703,1.015210509300232,-4.400339547787802
1708435665.7715015,-2.1541202068328857,-1.3369945299676438,-2.5253639856921595,6.140200602799215,1.0152345895767212,-4.400264565144674
1708435665.7735639,-2.1539318561553955,-1.3369379949620743,-2.5254092852221888,6.139869558602133,1.0152618885040283,-4.400160257016317
1708435665.7755036,-2.1538429260253906,-1.3369432252696534,-2.525369946156637,6.139486181526937,1.0153025388717651,-4.400060002003805
1708435665.7775009,-2.153686285018921,-1.3369117242148896,-2.525440518056051,6.139093982964315,1.0153717994689941,-4.399944011365072
1708435665.7795143,-2.1535143852233887,-1.3368020367673417,-2.5254388491259974,6.13879548290328,1.0153906345367432,-4.399849597607748
1708435665.781482,-2.1533782482147217,-1.3368200671723862,-2.5254855791675013,6.138399469643392,1.0153855085372925,-4.399753753338949
1708435665.7834938,-2.1532394886016846,-1.3367510449937363,-2.525475088750021,6.1380971548850916,1.0154836177825928,-4.399654094372885
1708435665.7854762,-2.1530516147613525,-1.3367315542748948,-2.5255335013019007,6.13774989822463,1.0154993534088135,-4.399558130894796
1708435665.7875292,-2.152916431427002,-1.336688147192337,-2.525541130696432,6.137304293900289,1.01554274559021,-4.399524633084432
1708435665.7894905,-2.1527323722839355,-1.3366313588670273,-2.5254855791675013,6.13694857338027,1.0155792236328125,-4.39939529100527
1708435665.7914834,-2.1525843143463135,-1.33664424837146,-2.5255606810199183,6.136626946717062,1.0156519412994385,-4.399296228085653
1708435665.7935078,-2.1523964405059814,-1.3365556460670014,-2.5256009737597864,6.1362271187599084,1.015634536743164,-4.399183456097738
1708435665.7955198,-2.152252197265625,-1.3365367215922852,-2.52555758157839,6.1358550665672205,1.0157076120376587,-4.399055306111471
1708435665.7974849,-2.152170419692993,-1.3365086180022736,-2.525640074406759,6.13549958446578,1.0157439708709717,-4.398959461842672
1708435665.799504,-2.1519713401794434,-1.336468667989113,-2.5257108847247522,6.135205375939169,1.0157470703125,-4.3988850752459925
1708435665.8014877,-2.151794672012329,-1.3364615750363846,-2.5256639162646692,6.134820925980367,1.0157787799835205,-4.39876372018923
1708435665.8035212,-2.1516380310058594,-1.336408407693245,-2.5256882349597376,6.134502160340109,1.015876293182373,-4.3986515442477625
1708435665.8054934,-2.151512622833252,-1.336393193607666,-2.5257166067706507,6.134171116143026,1.0158675909042358,-4.3986069599734705
1708435665.807488,-2.1513516902923584,-1.3363608133843918,-2.525735918675558,6.13381456115798,1.0159404277801514,-4.398438755665914
1708435665.8095078,-2.1511309146881104,-1.3363293272307892,-2.5257960001574915,6.1334807751472376,1.0159647464752197,-4.39843458334078
1708435665.8115158,-2.151012659072876,-1.3363180470517655,-2.5257960001574915,6.133116113930502,1.0159505605697632,-4.398343745862142
1708435665.8135302,-2.150829315185547,-1.3362737458995362,-2.525857750569479,6.132760631829061,1.0159952640533447,-4.398262564335958
1708435665.8155096,-2.1506710052490234,-1.3362908971360703,-2.52588135400881,6.1323739168937585,1.0160402059555054,-4.39818782011141
1708435665.8175058,-2.150404691696167,-1.3362420064261933,-2.5259128252612513,6.131977665215292,1.0160927772521973,-4.398050848637716
1708435665.819488,-2.1502225399017334,-1.3362258237651368,-2.5259037653552454,6.131659257202902,1.0160884857177734,-4.397966686879293
1708435665.8214657,-2.1500747203826904,-1.336222530608513,-2.525977436696188,6.131323444634237,1.016193151473999,-4.397870723401205
1708435665.8235052,-2.149902582168579,-1.3362147820046921,-2.525954786931173,6.131008136063375,1.0161919593811035,-4.397824827824728
1708435665.8254733,-2.14974045753479,-1.3361335706761857,-2.5260284582721155,6.13070164897994,1.016273021697998,-4.397703472767965
1708435665.8274803,-2.149559736251831,-1.3361259412816544,-2.526076618825094,6.130325662880697,1.0162148475646973,-4.397653881703512
1708435665.8295066,-2.149270534515381,-1.336117298608162,-2.526084009801046,6.129941570549764,1.0163124799728394,-4.3975563685046595
1708435665.831482,-2.1490883827209473,-1.3361791533282776,-2.5261407534228724,6.129627692490377,1.0163722038269043,-4.397485558186666
1708435665.8335285,-2.1489124298095703,-1.3360813421062012,-2.526163403187887,6.1292070029075525,1.0163800716400146,-4.397413555775778
1708435665.8354952,-2.1487338542938232,-1.3361500811627884,-2.526221815739767,6.128807174950399,1.016444444656372,-4.397299710904257
1708435665.8374603,-2.1484696865081787,-1.336146430378296,-2.5262895266162317,6.128500568657675,1.016497015953064,-4.397274676953451
1708435665.8394842,-2.1483118534088135,-1.336154268389084,-2.526292387639181,6.128169286042013,1.0165942907333374,-4.397197786961691
1708435665.841505,-2.14811635017395,-1.3361377877048035,-2.5263312498675745,6.127810227661886,1.0165973901748657,-4.397108499203817
1708435665.8435004,-2.1478641033172607,-1.3361458492330094,-2.5263856093036097,6.127462613373556,1.016653060913086,-4.397115532551901
1708435665.8454814,-2.1476047039031982,-1.3361377877048035,-2.5264409224139612,6.126977312355795,1.016729712486267,-4.3970797697650355
1708435665.8474908,-2.147331714630127,-1.3361863505891343,-2.5264392534839075,6.126601922302999,1.016794204711914,-4.396963659917013
1708435665.8494654,-2.147092342376709,-1.3361692738584061,-2.526515785847799,6.126227128296652,1.016862154006958,-4.396906320248739
1708435665.8514926,-2.146822214126587,-1.3362019521049042,-2.526541058217184,6.125815260201254,1.0169419050216675,-4.396884147320883
1708435665.8534954,-2.1465368270874023,-1.3362866354039689,-2.526644770299093,6.125367390900411,1.0169932842254639,-4.396806065236227
1708435665.8554952,-2.146327257156372,-1.3362779927304764,-2.5266884008990687,6.124914157181539,1.0170904397964478,-4.396783773099081
1708435665.857492,-2.1459991931915283,-1.3363464784673234,-2.5267391840564173,6.124560344010153,1.017190933227539,-4.3967406193362635
1708435665.8594885,-2.1457812786102295,-1.3363369864276429,-2.526841465626852,6.12414168098525,1.017210602760315,-4.396655027066366
1708435665.8614902,-2.1454362869262695,-1.3364059937051316,-2.5269058386432093,6.123688566475668,1.0172532796859741,-4.396644655858175
1708435665.8635004,-2.145155906677246,-1.3364378374866028,-2.5269654432879847,6.1232138750846765,1.017395257949829,-4.39663285413851
1708435665.8654826,-2.1448066234588623,-1.336436854009964,-2.527090374623434,6.122709381371298,1.0175037384033203,-4.3965681234942835
1708435665.8675177,-2.144507646560669,-1.3365623217872162,-2.5270989576922815,6.122315037041464,1.0176160335540771,-4.396577183400289
1708435665.8695138,-2.144127607345581,-1.3365367215922852,-2.527175490056173,6.12181709983901,1.0176795721054077,-4.396520558987753
1708435665.8714862,-2.143817186355591,-1.3365846288255234,-2.5272684733020228,6.121355163842001,1.017796516418457,-4.396538440381185
1708435665.873549,-2.1434571743011475,-1.336669848566391,-2.5273526350604456,6.120831477433004,1.017925500869751,-4.396477524434225
1708435665.875481,-2.1431186199188232,-1.3366564226201554,-2.5274367968188685,6.12034426906661,1.017956256866455,-4.396497551594869
1708435665.8774734,-2.142702341079712,-1.3367129576257248,-2.5275607744800013,6.119841921120443,1.0181059837341309,-4.39646548429598
1708435665.8794794,-2.1423680782318115,-1.3367562753013154,-2.527663294469015,6.119376647263326,1.0181604623794556,-4.396488610898153
1708435665.8815062,-2.1419363021850586,-1.3367880445769806,-2.527771059666769,6.1187453148658655,1.018337607383728,-4.396519009266989
1708435665.8834827,-2.141550302505493,-1.3368314367583771,-2.527832571660177,6.118182647019186,1.0184414386749268,-4.396521989499227
1708435665.8855097,-2.1411218643188477,-1.3369364601424714,-2.5279691855060022,6.117654311447897,1.0186270475387573,-4.396479670201437
1708435665.8875024,-2.1406750679016113,-1.3369844567826767,-2.528060261403219,6.1170880673225305,1.0187342166900635,-4.39652663866152
1708435665.8894992,-2.140247344970703,-1.3370238703540345,-2.52822715440859,6.116471993714132,1.0188504457473755,-4.396592203770773
1708435665.8914845,-2.139777898788452,-1.3370430928519745,-2.528297249470846,6.115915047913351,1.0189745426177979,-4.396607462559835
1708435665.893495,-2.139338731765747,-1.3370989126018067,-2.5284414927112024,6.115242826729574,1.0191231966018677,-4.396610562001364
1708435665.8954864,-2.1388797760009766,-1.3372202080539246,-2.5285118261920374,6.114647853165426,1.0192762613296509,-4.396658126507894
1708435665.8974843,-2.1383728981018066,-1.3372434091619034,-2.5287140051471155,6.11397265174941,1.0194000005722046,-4.396722737942831
1708435665.899484,-2.1378424167633057,-1.3373432767442246,-2.528869930897848,6.113372075348654,1.0196011066436768,-4.396700445805685
1708435665.901484,-2.137209177017212,-1.337426782851555,-2.5289886633502405,6.112677442818441,1.019724726676941,-4.396777812634603
1708435665.9034967,-2.1367194652557373,-1.3374779534390946,-2.529219929371969,6.111963021546163,1.0199168920516968,-4.39683431783785
1708435665.9055014,-2.1361467838287354,-1.3375335198691864,-2.5293427149402063,6.11123679855422,1.0200854539871216,-4.396865669881002
1708435665.9075158,-2.135564088821411,-1.337621570830681,-2.5294657389270228,6.1105185625846765,1.0202207565307617,-4.3969332615481775
1708435665.9094918,-2.135010004043579,-1.337680460219719,-2.5296500364886683,6.109890091210165,1.0204143524169922,-4.396957103406088
1708435665.9114845,-2.134406805038452,-1.337760717873909,-2.529850784932272,6.1091757891471765,1.020611047744751,-4.396984402333395
1708435665.9135122,-2.1337881088256836,-1.3378730875304718,-2.5300021807300013,6.108499157219686,1.0207544565200806,-4.397093121205465
1708435665.9154975,-2.1331493854522705,-1.3379773658565064,-2.5301252047168177,6.107753503113546,1.0209836959838867,-4.397148911152975
1708435665.9174829,-2.1325724124908447,-1.3381011945060273,-2.5303128401385706,6.10688208320693,1.0211762189865112,-4.397191945706503
1708435665.9194984,-2.1318860054016113,-1.3381717068007966,-2.530555788670675,6.106129753380575,1.0213642120361328,-4.397337738667623
1708435665.9214795,-2.131255626678467,-1.3383208525231858,-2.53070575395693,6.105304467469015,1.0216583013534546,-4.397408429776327
1708435665.9235115,-2.1305689811706543,-1.338424341087677,-2.5309234301196497,6.104450928955831,1.0218372344970703,-4.397504274045126
1708435665.9255056,-2.129856824874878,-1.3384870451739808,-2.5310776869403284,6.103577363282003,1.0220699310302734,-4.397640291844503
1708435665.9275112,-2.129159927368164,-1.338688151245453,-2.5313192049609583,6.1027129767234705,1.022327184677124,-4.397748295460836
1708435665.9294755,-2.1284449100494385,-1.3387991201928635,-2.53152305284609,6.101875054627218,1.0225718021392822,-4.397867147122518
1708435665.9315007,-2.1277477741241455,-1.3388902705958863,-2.531652037297384,6.100982534676351,1.0228121280670166,-4.397987906132833
1708435665.933499,-2.1270620822906494,-1.3390263330987473,-2.531877104436056,6.100149380951681,1.0230308771133423,-4.398154799138204
1708435665.9355016,-2.1262786388397217,-1.339185894732811,-2.532067362462179,6.099273073464193,1.0232889652252197,-4.398328248654501
1708435665.9375243,-2.125443935394287,-1.3393578690341492,-2.5323103109942835,6.098226535111227,1.0235698223114014,-4.398446385060446
1708435665.939495,-2.124800443649292,-1.3394645613482972,-2.5326042811023157,6.097345220833578,1.023833990097046,-4.398623291646139
1708435665.9415026,-2.1239163875579834,-1.3396446865848084,-2.5327962080584925,6.096336948662557,1.024106502532959,-4.398786250744955
1708435665.9435086,-2.1230831146240234,-1.3398036670735856,-2.533018175755636,6.095342266350546,1.024358868598938,-4.39895731607546
1708435665.9454722,-2.1223044395446777,-1.3399928522161026,-2.533250872288839,6.094410764961996,1.0247247219085693,-4.399088207875387
1708435665.947534,-2.1214137077331543,-1.340081663136818,-2.533478562031881,6.093321430474081,1.0249927043914795,-4.399288121853964
1708435665.949502,-2.1205737590789795,-1.3402818453362961,-2.5337305704699915,6.092338669091024,1.025269627571106,-4.399488274251119
1708435665.9514844,-2.119673013687134,-1.3404461306384583,-2.533970657979147,6.091301429062643,1.0255348682403564,-4.399699989949362
1708435665.9534998,-2.1187233924865723,-1.3405927431634446,-2.534252468739645,6.0901808617408655,1.0258148908615112,-4.399886790906088
1708435665.9555173,-2.1178228855133057,-1.3407795888236542,-2.5345073382007044,6.0891244290168665,1.0261067152023315,-4.400103036557333
1708435665.9575536,-2.1168246269226074,-1.3409884882024308,-2.534778658543722,6.0878978846366785,1.026460886001587,-4.400335137044088
1708435665.9594867,-2.1158320903778076,-1.341190756564476,-2.5350306669818323,6.086768615036764,1.0267438888549805,-4.400553766881124
1708435665.961487,-2.114746570587158,-1.3414114129594346,-2.535327736531393,6.085555064469137,1.0270366668701172,-4.400768701230184
1708435665.9634967,-2.1137146949768066,-1.34159408629451,-2.5355945269214075,6.084328043251791,1.027349591255188,-4.401057187710897
1708435665.9654818,-2.112664222717285,-1.3418506693891068,-2.5358601252185267,6.08304916599349,1.02761709690094,-4.401230279599325
1708435665.9674876,-2.1116256713867188,-1.3419513267329712,-2.5361464659320276,6.0818766234214685,1.0279418230056763,-4.40151817003359
1708435665.9694695,-2.1106059551239014,-1.3421547573855896,-2.536414686833517,6.080625879555502,1.0283043384552002,-4.401775781308309
1708435665.971496,-2.10945463180542,-1.342457340364792,-2.5367735067950647,6.0793553469474695,1.0286117792129517,-4.402029816304342
1708435665.9735348,-2.1083576679229736,-1.3425778609565278,-2.5370355288134974,6.078002798348226,1.0289844274520874,-4.402329270039694
1708435665.9755435,-2.107211112976074,-1.3428385269692917,-2.537328068410055,6.0766546604926965,1.029373288154602,-4.402666393910543
1708435665.9775393,-2.1060702800750732,-1.343040720825531,-2.537643019353048,6.075262892037191,1.029770016670227,-4.402962271367208
1708435665.979505,-2.1048638820648193,-1.343260572557785,-2.537942949925558,6.073872315674581,1.0301307439804077,-4.40330940881838
1708435665.9815106,-2.103686571121216,-1.3435202550939103,-2.5382500330554407,6.072456705361166,1.0305073261260986,-4.403603498135702
1708435665.9835093,-2.102506637573242,-1.3436851066401978,-2.5385966936694544,6.071051466255941,1.0308717489242554,-4.403855506573812
1708435665.9855044,-2.101358413696289,-1.3439376515201111,-2.538854424153463,6.06963204124526,1.0312168598175049,-4.404156271611349
1708435665.9875045,-2.10011625289917,-1.3441930723241349,-2.539206568394796,6.068269717484274,1.0315971374511719,-4.404572312031881
1708435665.9894915,-2.0988287925720215,-1.3444287788918992,-2.5395637194262903,6.066745507508077,1.0319743156433105,-4.404836122189657
1708435665.9914937,-2.0975356101989746,-1.3446832609227677,-2.5398457686053675,6.0653148768241785,1.0323909521102905,-4.405244175587789
1708435665.9934967,-2.096261978149414,-1.3449874830297013,-2.5402146021472376,6.063826429634847,1.0328000783920288,-4.405594889317648
1708435665.9954891,-2.095005989074707,-1.345238835816719,-2.540546242390768,6.06229983547286,1.0331735610961914,-4.4059452454196375
1708435665.9975078,-2.0936641693115234,-1.3454529804042359,-2.5408740679370325,6.060792076378622,1.0335612297058105,-4.406310621892111
1708435665.9994924,-2.0924172401428223,-1.345752702360489,-2.541189495717184,6.059270489006796,1.0339299440383911,-4.406671349202291
1708435666.0014791,-2.0910720825195312,-1.3459705126336594,-2.5415669123279017,6.057613241463461,1.0343561172485352,-4.407117787991659
1708435666.0035243,-2.089716911315918,-1.3462451857379456,-2.541910711918966,6.05606101730422,1.0347884893417358,-4.407474819813864
1708435666.0054994,-2.088378667831421,-1.346468062405922,-2.5422826449023646,6.0544543144996545,1.0352506637573242,-4.407860819493429
1708435666.00753,-2.086923837661743,-1.346781001692154,-2.542609755192892,6.052821147232809,1.0356063842773438,-4.408279363309042
1708435666.0094888,-2.085519552230835,-1.3470847469619294,-2.5429649988757532,6.051175224571981,1.0360347032546997,-4.4086565415011805
1708435666.011501,-2.084135055541992,-1.3473060590079804,-2.5433548132525843,6.049386369972982,1.0364031791687012,-4.409023229275839
1708435666.0135047,-2.0826892852783203,-1.3476140660098572,-2.5436819235431116,6.047631609230795,1.0368894338607788,-4.409396711980001
1708435666.0154786,-2.0811691284179688,-1.3479008835605164,-2.544036928807394,6.045951115875997,1.0373715162277222,-4.409920040761129
1708435666.017481,-2.0797293186187744,-1.3481551569751282,-2.5443761984454554,6.04413782337264,1.0378162860870361,-4.410360042248861
1708435666.0194817,-2.078310489654541,-1.3484302026084443,-2.5448020140277308,6.042488920479574,1.0382122993469238,-4.410721484814779
1708435666.0214884,-2.0767838954925537,-1.3487455409816285,-2.545161787663595,6.040688979416647,1.038693904876709,-4.411205832158224
1708435666.023506,-2.0752856731414795,-1.349106715326645,-2.5454514662372034,6.038934218674459,1.039048671722412,-4.411584917698995
1708435666.025488,-2.073751926422119,-1.349365012054779,-2.5459449926959437,6.037146317749777,1.0395184755325317,-4.411985818539755
1708435666.0274968,-2.0722107887268066,-1.3496482235244294,-2.5462010542498987,6.035420286446371,1.0399795770645142,-4.412401620541708
1708435666.0294862,-2.0706307888031006,-1.3499460977366944,-2.5466302076922815,6.033598768502035,1.0404161214828491,-4.4129220882998865
1708435666.0314987,-2.0690040588378906,-1.3502904635718842,-2.5470052401172083,6.031756865769186,1.04083251953125,-4.413385216389791
1708435666.0335252,-2.067488670349121,-1.3505466443351288,-2.5473554770099085,6.029963481217184,1.0412695407867432,-4.413907114659445
1708435666.0355055,-2.0658926963806152,-1.3508555603078385,-2.54783541360964,6.028101789742269,1.0417594909667969,-4.4144455830203455
1708435666.0374765,-2.0642552375793457,-1.3511740130237122,-2.548185173665182,6.026211011200704,1.0421547889709473,-4.4149777332889
1708435666.039485,-2.062631130218506,-1.351505534057953,-2.5486143271075647,6.024413215904989,1.0426323413848877,-4.4154866377459925
1708435666.0414906,-2.0609636306762695,-1.3518196505359192,-2.549023214970724,6.022556650429525,1.0431015491485596,-4.416001025830404
1708435666.0435119,-2.059305429458618,-1.3521011781743546,-2.549405638371603,6.020646798401632,1.043519139289856,-4.416564051304952
1708435666.0454845,-2.0576443672180176,-1.3524696242860337,-2.5497265497790735,6.018695223122396,1.0438984632492065,-4.417124096547262
1708435666.0475202,-2.0558993816375732,-1.3527971369079133,-2.550173823033468,6.016650664597311,1.044344425201416,-4.417631689702169
1708435666.0495224,-2.054196834564209,-1.3531033557704468,-2.5506354014026087,6.014683353691854,1.0447237491607666,-4.418254558240072
1708435666.0515187,-2.0524003505706787,-1.3534546059421082,-2.550990406666891,6.012677538185873,1.0452709197998047,-4.418790880833761
1708435666.0535126,-2.050706386566162,-1.3537897926620026,-2.5513773600207728,6.010692584305563,1.0456985235214233,-4.419346872960226
1708435666.0554938,-2.048980474472046,-1.3540997368148346,-2.5518019835101526,6.008610594063558,1.0461432933807373,-4.419931117688314
1708435666.0575137,-2.047231435775757,-1.3544534754804154,-2.5521586577044886,6.006610381394186,1.0466406345367432,-4.420445028935568
1708435666.0595121,-2.045487642288208,-1.3547970962575455,-2.552563730870382,6.004612791329183,1.0470205545425415,-4.420991603528158
1708435666.061479,-2.043680191040039,-1.3551558566144486,-2.55298096338381,6.00257824638442,1.0474865436553955,-4.4215856234179896
1708435666.0635207,-2.04190731048584,-1.3555385035327454,-2.5533810297595423,6.000472056656637,1.0479228496551514,-4.422128621731893
1708435666.0655222,-2.040055513381958,-1.3559327584556122,-2.55375844637026,5.9984450218971155,1.0484373569488525,-4.422694389020101
1708435666.0675113,-2.038270950317383,-1.3562960189631958,-2.5541964213000696,5.996274578362264,1.0488404035568237,-4.423336092625753
1708435666.0695097,-2.036456823348999,-1.3567068737796326,-2.5546162764178675,5.994211780815878,1.0492973327636719,-4.4239048401462
1708435666.0715332,-2.0346226692199707,-1.3571299475482483,-2.55497914949526,5.992094862252035,1.0496734380722046,-4.424529496823446
1708435666.073524,-2.032831907272339,-1.3575047713569184,-2.5554006735431116,5.989959347039022,1.0500869750976562,-4.425076667462484
1708435666.0755227,-2.03100848197937,-1.357826755647995,-2.555763546620504,5.987836229592123,1.0504988431930542,-4.425640527402059
1708435666.0774977,-2.029144763946533,-1.3582125467113038,-2.5561803022967737,5.985694634705343,1.050997018814087,-4.4262405077563685
1708435666.0794823,-2.0273146629333496,-1.3585833025029679,-2.5565510431872767,5.983576762467184,1.0514944791793823,-4.426894728337423
1708435666.0814826,-2.025404691696167,-1.3590994340232392,-2.55699593225588,5.981335866242208,1.0519382953643799,-4.427464310322897
1708435666.083511,-2.0234720706939697,-1.359449790125229,-2.557338062916891,5.979068982392111,1.0523998737335205,-4.4281103054629725
1708435666.085498,-2.021552801132202,-1.359925003056862,-2.557730261479513,5.9767281887824915,1.0528686046600342,-4.42873722711672
1708435666.087483,-2.0196731090545654,-1.3603564214757462,-2.5581544081317347,5.9746307013328455,1.0533418655395508,-4.429438296948568
1708435666.0894878,-2.0177314281463623,-1.3607541185668488,-2.558538262044088,5.972418653755941,1.0537604093551636,-4.430054370556967
1708435666.0915017,-2.015854835510254,-1.3611773264459153,-2.558892790471212,5.970298874169149,1.0542314052581787,-4.430698696766989
1708435666.0934892,-2.0138802528381348,-1.3615546834519883,-2.5592973867999476,5.968206274300375,1.0547081232070923,-4.431370441113607
1708435666.0954926,-2.0119540691375732,-1.361956463461258,-2.559669319783346,5.96603940704421,1.0550919771194458,-4.432042900715963
1708435666.0975058,-2.00997257232666,-1.3624437761357804,-2.560016934071676,5.963790166168966,1.0554972887039185,-4.4326751867877405
1708435666.0994842,-2.0079128742218018,-1.3629155170968552,-2.5603888670550745,5.96155737617568,1.0559463500976562,-4.433399144803182
1708435666.1014757,-2.0058634281158447,-1.3633327794126053,-2.560756508504049,5.959322082787313,1.0563632249832153,-4.434090558682577
1708435666.1034796,-2.003890037536621,-1.3637261104634781,-2.5611446539508265,5.9570432780082605,1.056766390800476,-4.4347079435931605
1708435666.1054864,-2.001842737197876,-1.3642383229783555,-2.5615060965167444,5.954809295922079,1.057268738746643,-4.435482088719503
1708435666.1075294,-1.9998984336853027,-1.3646525007537385,-2.561901871358053,5.952538597374716,1.0576527118682861,-4.436152521763937
1708435666.1094882,-1.9978665113449097,-1.3651155692389985,-2.5622544924365442,5.950255024224081,1.0579609870910645,-4.436812822018759
1708435666.1114793,-1.9958961009979248,-1.3655082297376175,-2.5626311937915247,5.948049056320944,1.0583577156066895,-4.437521521245138
1708435666.1134808,-1.9937995672225952,-1.36600016177211,-2.562986199055807,5.945822226792135,1.0587677955627441,-4.438215915356771
1708435666.1154957,-1.9917632341384888,-1.3664578062346955,-2.5633612314807337,5.94345902183608,1.0591554641723633,-4.438969437276022
1708435666.117496,-1.9895637035369873,-1.3669568610242386,-2.563745085393087,5.941091286927023,1.0595729351043701,-4.4396758715259
1708435666.1194885,-1.9874942302703857,-1.3673894715360184,-2.5641093889819544,5.9388478873069666,1.0599416494369507,-4.440393153821127
1708435666.1214797,-1.985439419746399,-1.367879943256714,-2.56445557275881,5.936590301781454,1.0603219270706177,-4.44108754793276
1708435666.123486,-1.9833701848983765,-1.3684027653983613,-2.564803663884298,5.9344262955482385,1.0606739521026611,-4.441758457814352
1708435666.1255338,-1.981300950050354,-1.3688605737737198,-2.5651937166797083,5.932161795883932,1.0610148906707764,-4.442438666020529
1708435666.1274848,-1.9791828393936157,-1.3693520438722153,-2.5655415693866175,5.9299073097999475,1.0613373517990112,-4.443174425755636
1708435666.1294904,-1.9771112203598022,-1.3698463451913376,-2.565885130559103,5.927607166558065,1.0616906881332397,-4.4439163843738
1708435666.1314902,-1.975051999092102,-1.3702101719430466,-2.566223923360006,5.92528663852767,1.0621626377105713,-4.444500390683309
1708435666.1334906,-1.9730744361877441,-1.3708002132228394,-2.566580835972921,5.923083531647482,1.0624656677246094,-4.445136372243063
1708435666.1355293,-1.9710460901260376,-1.3712125283530732,-2.5669105688678187,5.920930492668905,1.0627933740615845,-4.445903126393453
1708435666.137481,-1.9689617156982422,-1.371751920585968,-2.5672720114337366,5.918586122780599,1.0631630420684814,-4.44666570821871
1708435666.139491,-1.9669095277786255,-1.372245417242386,-2.5676289240466517,5.916245209961691,1.0634993314743042,-4.447434369717733
1708435666.1414661,-1.9648065567016602,-1.3727324616960068,-2.567972485219137,5.9139137146766565,1.063860297203064,-4.448261324559347
1708435666.143481,-1.962713360786438,-1.3732435715249558,-2.568279806767599,5.911606895714559,1.064208984375,-4.449011150990621
1708435666.1455004,-1.9606455564498901,-1.373756007557251,-2.568620268498556,5.909339177399435,1.064521312713623,-4.449757639561788
1708435666.1474779,-1.958501935005188,-1.3743278694203873,-2.568951670323507,5.907109010010519,1.0648010969161987,-4.45056134859194
1708435666.1494997,-1.9563642740249634,-1.3748342257789155,-2.5692876021014612,5.904881107598104,1.065138816833496,-4.45133358636965
1708435666.1514843,-1.9541773796081543,-1.375382201080658,-2.5696118513690394,5.902551162033834,1.0654916763305664,-4.4520888964282435
1708435666.1534998,-1.9519706964492798,-1.3759780091098328,-2.5699144045459192,5.9002689001853845,1.0657795667648315,-4.452842179928915
1708435666.155503,-1.9498883485794067,-1.3765038561872025,-2.570214335118429,5.898001420288839,1.0660834312438965,-4.453544203435079
1708435666.1574953,-1.9476344585418701,-1.3770707261613389,-2.570509735737936,5.895762550621786,1.0664016008377075,-4.454334680234091
1708435666.1595259,-1.9454987049102783,-1.377634124164917,-2.5707979838000696,5.89348732212142,1.0666569471359253,-4.455151979123251
1708435666.1614833,-1.9433159828186035,-1.3781522077373047,-2.5710905233966272,5.891115534096517,1.0669488906860352,-4.45582896867861
1708435666.1635215,-1.9411529302597046,-1.378719375734665,-2.571385447178976,5.8888611672218225,1.067204236984253,-4.456562582646505
1708435666.1654897,-1.9390164613723755,-1.37928260982547,-2.571709458027975,5.886612999230184,1.0675456523895264,-4.45735735097994
1708435666.1674793,-1.936930775642395,-1.3797979217818757,-2.5720182100879114,5.884370076447286,1.0677927732467651,-4.458079759274618
1708435666.1695037,-1.9347847700119019,-1.3803768914989014,-2.572289768849508,5.882040130883016,1.0681298971176147,-4.4588568846331995
1708435666.1714907,-1.9326579570770264,-1.380931482916214,-2.5725494066821497,5.8797902939613245,1.0683940649032593,-4.459672514592306
1708435666.1735265,-1.93044114112854,-1.3815196764520188,-2.572825018559591,5.877483474999227,1.0686333179473877,-4.4603814522372645
1708435666.1755025,-1.9282084703445435,-1.3821799767068406,-2.573129717503683,5.875257837563314,1.0689507722854614,-4.461182896290914
1708435666.1775122,-1.9260777235031128,-1.3826849472573777,-2.57341438928713,5.873014914780416,1.0692228078842163,-4.461915795003073
1708435666.1795077,-1.9238817691802979,-1.3833128374866028,-2.573627773915426,5.870766389160909,1.069482684135437,-4.462727610264913
1708435666.1814628,-1.9216976165771484,-1.3838783216527482,-2.5738869349109095,5.868510353356161,1.0696903467178345,-4.463488999997274
1708435666.1834981,-1.9194735288619995,-1.384494737987854,-2.574171845112936,5.866363036423483,1.0698977708816528,-4.464298669491903
1708435666.185474,-1.9172741174697876,-1.3851220619729538,-2.574440066014425,5.864144432335653,1.0701632499694824,-4.465036813412802
1708435666.1874769,-1.9150865077972412,-1.3856796336225052,-2.574684445058004,5.861936914711752,1.0703675746917725,-4.465938274060385
1708435666.1894891,-1.9128422737121582,-1.3863677990487595,-2.57495624223818,5.859566080361166,1.070628046989441,-4.466726843510763
1708435666.191479,-1.9106253385543823,-1.3869583320668717,-2.575217310582296,5.857332575112142,1.0708801746368408,-4.467594806347982
1708435666.193526,-1.9084614515304565,-1.3876025688699265,-2.575476948414938,5.855120289116659,1.0711084604263306,-4.468371574078695
1708435666.1954846,-1.9063040018081665,-1.3881754589131852,-2.575719420109884,5.85280595996932,1.0713268518447876,-4.46910804906954
1708435666.1975193,-1.904189944267273,-1.3888112765601655,-2.5760179201709192,5.8505873558814905,1.0715115070343018,-4.469936196004049
1708435666.199512,-1.9020562171936035,-1.3893927496722718,-2.5761945883380335,5.848358022957601,1.0717246532440186,-4.470870439206259
1708435666.2015004,-1.8998602628707886,-1.3900570136359711,-2.5764721075641077,5.846181857376852,1.0719048976898193,-4.471637312565939
1708435666.2034967,-1.8975671529769897,-1.3906626415303727,-2.5767436663257044,5.843975055008688,1.0720837116241455,-4.472467009221212
1708435666.2055326,-1.8953940868377686,-1.3913181585124512,-2.5769758860217493,5.841910469322958,1.0723131895065308,-4.473257605229513
1708435666.2078316,-1.8932081460952759,-1.3919812452844162,-2.577202622090475,5.839751589089193,1.0725535154342651,-4.474034372960226
1708435666.2094886,-1.8909854888916016,-1.3926970672658463,-2.577442471181051,5.83765064457015,1.0727289915084839,-4.474762145672933
1708435666.2114851,-1.8887240886688232,-1.3933275651982804,-2.5776522795306605,5.835489737778463,1.0729289054870605,-4.475609842930929
1708435666.2135046,-1.8864734172821045,-1.3939138513854523,-2.577961270009176,5.833340871125021,1.0730690956115723,-4.476440612469808
1708435666.2154827,-1.8842111825942993,-1.3945519638112565,-2.57809025446047,5.831111180573263,1.0731924772262573,-4.4772719780551355
1708435666.217527,-1.8820263147354126,-1.3952071827701111,-2.5783541838275355,5.828928339272299,1.0733331441879272,-4.478142205868856
1708435666.2194972,-1.8798404932022095,-1.3958020222238083,-2.5785942713366907,5.826801526337423,1.0735503435134888,-4.479045573865072
1708435666.2215164,-1.877665638923645,-1.3964836460402985,-2.578834120427267,5.824734914093771,1.0737379789352417,-4.479963127766744
1708435666.2235098,-1.875512719154358,-1.3971271824887772,-2.579123322163717,5.822540032654562,1.0739796161651611,-4.480805818234579
1708435666.2255092,-1.8733221292495728,-1.397745893602707,-2.5793665091144007,5.820397126465597,1.0740972757339478,-4.481620017682211
1708435666.2275245,-1.871180534362793,-1.3983882379582901,-2.579568688069479,5.818250882416525,1.0742698907852173,-4.482525412236349
1708435666.229497,-1.8689727783203125,-1.3990763139775773,-2.579838816319601,5.8162197945411584,1.0744184255599976,-4.483376685773031
1708435666.231481,-1.8668251037597656,-1.399730609064438,-2.58003813425173,5.814010965615072,1.074529767036438,-4.484191004429952
1708435666.2335198,-1.8645952939987183,-1.4003848892501374,-2.580266062413351,5.8120014546211145,1.074670433998108,-4.4850460926639
1708435666.2354867,-1.8624308109283447,-1.40103171885524,-2.580527130757467,5.8099578497703455,1.0747785568237305,-4.4858184496509
1708435666.2375054,-1.8601878881454468,-1.4016860139421006,-2.5807462374316614,5.807861435204305,1.0749144554138184,-4.486666742955343
1708435666.2394981,-1.8579506874084473,-1.402337209587433,-2.580912415181295,5.8058156845863245,1.0750298500061035,-4.487579886113302
1708435666.2415073,-1.855730414390564,-1.4029676777175446,-2.58114463487734,5.803735840111532,1.0752184391021729,-4.488393370305197
1708435666.2435048,-1.8535282611846924,-1.4035983097604294,-2.581308428441183,5.801702129631796,1.0753060579299927,-4.489208404217855
1708435666.2455187,-1.8513407707214355,-1.4042532306960602,-2.5815330187426966,5.799635278969564,1.0754348039627075,-4.490027610455648
1708435666.247532,-1.8490965366363525,-1.4049366873553772,-2.5817492643939417,5.797501790314474,1.0755746364593506,-4.490922991429464
1708435666.2494884,-1.8468282222747803,-1.4055797469666977,-2.581960741673605,5.795469510346212,1.0757590532302856,-4.491732780133383
1708435666.251514,-1.844712734222412,-1.406177134518959,-2.5822063128100794,5.7933645127113245,1.075995922088623,-4.492571536694662
1708435666.2535284,-1.8424822092056274,-1.4068555992892762,-2.5824011007892054,5.791298019676962,1.076170563697815,-4.493400518094198
1708435666.2555037,-1.8402596712112427,-1.4075512003949662,-2.582616631184713,5.7891918299491785,1.0763434171676636,-4.494297806416647
1708435666.2575307,-1.8380546569824219,-1.4081857812455674,-2.582799498234884,5.787122833519735,1.0764504671096802,-4.495141092930929
1708435666.2594886,-1.8358981609344482,-1.4088701915792008,-2.583006207142965,5.785007345467367,1.0766106843948364,-4.49598199525942
1708435666.2614882,-1.8337019681930542,-1.4094916892102738,-2.583242956792013,5.782980787545004,1.07677161693573,-4.496861044560568
1708435666.2635171,-1.831473469734192,-1.4102233362248917,-2.5835047403918665,5.780876385956564,1.0769315958023071,-4.497763578091757
1708435666.265469,-1.8293129205703735,-1.410889894967415,-2.5836620966540735,5.778887378960409,1.0770595073699951,-4.498596731816427
1708435666.2675083,-1.827086091041565,-1.4115163695863266,-2.5839181582080286,5.776865708618917,1.0772161483764648,-4.499456350003378
1708435666.269522,-1.824906826019287,-1.4122080665877839,-2.5841384569751185,5.774793016701498,1.0773022174835205,-4.500379864369528
1708435666.2715104,-1.8226799964904785,-1.412826807504036,-2.5843332449542444,5.772738683014669,1.0774396657943726,-4.501181785260336
1708435666.2735288,-1.8204209804534912,-1.413480208521225,-2.5845864454852503,5.770689356118002,1.0775880813598633,-4.502088491116659
1708435666.2755113,-1.8182690143585205,-1.4141189765981217,-2.584731642399923,5.768627035408773,1.0778095722198486,-4.502998773251669
1708435666.2775676,-1.8160088062286377,-1.4147984993508835,-2.584998671208517,5.766506182938375,1.0778968334197998,-4.5038369337665
1708435666.2795372,-1.8138220310211182,-1.4154618394425889,-2.585208241139547,5.76450132110671,1.0780324935913086,-4.504638258610861
1708435666.2815387,-1.811645269393921,-1.416145609026291,-2.5854464213000696,5.762401568680563,1.0781681537628174,-4.505452577267782
1708435666.2835357,-1.8094590902328491,-1.416795865898468,-2.5856810251819056,5.76029251792983,1.078361988067627,-4.506192270909445
1708435666.2855277,-1.8072813749313354,-1.417416439657547,-2.5858550707446497,5.758202183037557,1.0784733295440674,-4.507019583378927
1708435666.2875762,-1.8051068782806396,-1.4181124430945893,-2.586118761693136,5.7561519024665735,1.0785444974899292,-4.5078598896609705
1708435666.2895195,-1.8029115200042725,-1.4188168507865448,-2.586367670689718,5.754038679390707,1.0787454843521118,-4.508722011243002
1708435666.2915473,-1.8006969690322876,-1.4194135677865525,-2.586569611226217,5.751902925759115,1.078865647315979,-4.509621922169821
1708435666.2935357,-1.7985143661499023,-1.4201210749200364,-2.586815420781271,5.749842631607809,1.0790696144104004,-4.510483566914694
1708435666.295531,-1.7963327169418335,-1.4207803469947358,-2.587071243916647,5.74779092052535,1.0792016983032227,-4.511446420346395
1708435666.2975526,-1.794130563735962,-1.4214833688787003,-2.5872331301318567,5.745746600418844,1.0793336629867554,-4.512315336857931
1708435666.2995589,-1.7918822765350342,-1.422121287589409,-2.5874369780169886,5.74371765831069,1.079535722732544,-4.513218347226278
1708435666.301514,-1.789686918258667,-1.4227629911950608,-2.5876150766955774,5.74167941787795,1.0796387195587158,-4.514099065457479
1708435666.3035429,-1.7874317169189453,-1.4234351229718705,-2.5878563562976282,5.739619719773092,1.0797652006149292,-4.514947597180502
1708435666.305541,-1.7852299213409424,-1.424118698840477,-2.588072125111715,5.737466680794515,1.0799659490585327,-4.515867654477255
1708435666.3076205,-1.7830219268798828,-1.424769477253296,-2.588250462208883,5.735445129662313,1.0801759958267212,-4.516654078160421
1708435666.3095226,-1.780869960784912,-1.4253953260234375,-2.58844238916506,5.733310806542196,1.0802546739578247,-4.517432991658346
1708435666.3115454,-1.7786669731140137,-1.4260496360114594,-2.5887296835528772,5.731239545136251,1.0803985595703125,-4.5183263460742396
1708435666.3135397,-1.7765138149261475,-1.4267256271890183,-2.5888822714435022,5.72917793968276,1.0805714130401611,-4.519172255192892
1708435666.3155258,-1.774360179901123,-1.4273522806218644,-2.5891311804400843,5.727056133538046,1.0807512998580933,-4.519973818455831
1708435666.3175147,-1.7722126245498657,-1.428062916999199,-2.5894339720355433,5.7248490927513025,1.080880045890808,-4.520829264317648
1708435666.31952,-1.769935131072998,-1.428708941941597,-2.589632813130514,5.722811448365011,1.0809624195098877,-4.521680299435751
1708435666.321561,-1.7677960395812988,-1.429384635095932,-2.5897839705096644,5.720751869469442,1.081118106842041,-4.5225834290133875
1708435666.323526,-1.7656135559082031,-1.4300513577512284,-2.5900374094592493,5.718721258431234,1.0812633037567139,-4.523377720509664
1708435666.3255134,-1.7633745670318604,-1.4307020467570801,-2.590245548878805,5.716693031578817,1.0814151763916016,-4.524223868046896
1708435666.3275151,-1.7612301111221313,-1.4313606929830094,-2.590527359639303,5.71469138839797,1.081588625907898,-4.525134984646932
1708435666.3295135,-1.7590004205703735,-1.4320865881494065,-2.590635124837057,5.712617265969076,1.0816271305084229,-4.525956336651937
1708435666.3315003,-1.7567577362060547,-1.4327360403588791,-2.5909133593188685,5.710621046810903,1.0818125009536743,-4.526820007954733
1708435666.3335447,-1.754563331604004,-1.4333205086043854,-2.591105286275045,5.708559202938833,1.081964373588562,-4.527601067219869
1708435666.335519,-1.7523701190948486,-1.4339756232551117,-2.591299835835592,5.70651792266921,1.0821484327316284,-4.528551761304037
1708435666.337493,-1.7501009702682495,-1.4346343737891694,-2.591515843068258,5.704435038357534,1.082243800163269,-4.529415194188253
1708435666.3395395,-1.7479569911956787,-1.4353480500033875,-2.5917015711413782,5.702361809998312,1.0824577808380127,-4.530294601117269
1708435666.3415103,-1.7457118034362793,-1.4359737050584336,-2.5919352213488978,5.700260925083914,1.082584261894226,-4.5312339703189295
1708435666.3435392,-1.7435389757156372,-1.436672956948616,-2.5921223799334925,5.698264348297872,1.0827527046203613,-4.532040301953451
1708435666.3454986,-1.7413101196289062,-1.4372713726809998,-2.5924082438098353,5.696160006314077,1.0829336643218994,-4.532886449490682
1708435666.347537,-1.7391339540481567,-1.4379991602948685,-2.5925820509540003,5.694027769356527,1.0830575227737427,-4.533860747014181
1708435666.349502,-1.7369146347045898,-1.4386380773833771,-2.592811409627096,5.6919065592582605,1.083229660987854,-4.534696404133932
1708435666.351547,-1.734713077545166,-1.4392640900662919,-2.593009058629171,5.689789342671194,1.083377480506897,-4.535493318234579
1708435666.3535302,-1.7325412034988403,-1.4399761122516175,-2.593236748372213,5.687774824887075,1.0834964513778687,-4.536279503499166
1708435666.3555224,-1.730305790901184,-1.4405584049275895,-2.593461338673727,5.685719120293417,1.0836609601974487,-4.537074271832601
