Eg3-git/Classifiers/Data Collection/u3/u3abc3_ur3e_joint_states.csv
time,elbow_joint,shoulder_lift_joint,shoulder_pan_joint,wrist_1_joint,wrist_2_joint,wrist_3_joint
1708435647.3153794,-2.170896530151367,-1.3410164278796692,-2.518369976674215,6.176915395050802,1.002375602722168,-4.436886493359701
1708435647.3174236,-2.170905828475952,-1.3410492104342957,-2.518362347279684,6.176919686585226,1.0023711919784546,-4.436873261128561
1708435647.3193676,-2.1709301471710205,-1.3410507899573822,-2.518378559743063,6.176874267845907,1.0023634433746338,-4.436926190053121
1708435647.3213747,-2.170905828475952,-1.3410208982280274,-2.518418614064352,6.1769481776054285,1.0023348331451416,-4.436916176472799
1708435647.323374,-2.1708765029907227,-1.341011957531311,-2.5184229055987757,6.176940667420187,1.002396583557129,-4.436890904103414
1708435647.325377,-2.170905828475952,-1.34095053494487,-2.518398110066549,6.176928388863363,1.0024042129516602,-4.436882201825277
1708435647.327385,-2.1708879470825195,-1.3410283488086243,-2.518362347279684,6.176899182587423,1.0023784637451172,-4.436882201825277
1708435647.329356,-2.1708765029907227,-1.341058300142624,-2.518378559743063,6.176875102310934,1.002380132675171,-4.436895434056417
1708435647.3313534,-2.170905828475952,-1.341046319609024,-2.51835805574526,6.176891672402181,1.0023711919784546,-4.436870042477743
1708435647.3333745,-2.170856475830078,-1.341004179125168,-2.5184274355517786,6.17693196514205,1.0023634433746338,-4.436882201825277
1708435647.335369,-2.170856475830078,-1.3409968179515381,-2.5184109846698206,6.176886188774862,1.0023919343948364,-4.436890904103414
1708435647.3374152,-2.170896530151367,-1.3409997087768097,-2.518390480672018,6.176930892258444,1.0023545026779175,-4.436911765729086
1708435647.3393652,-2.1709144115448,-1.341004179125168,-2.518418614064352,6.176935183792867,1.0024086236953735,-4.43691856065859
1708435647.3413806,-2.170905828475952,-1.3409952384284516,-2.5184274355517786,6.17693196514205,1.0023589134216309,-4.43695575395693
1708435647.3433666,-2.170872211456299,-1.341046319609024,-2.518418614064352,6.176930892258444,1.002380132675171,-4.4369006792651575
1708435647.3453555,-2.1708850860595703,-1.3409877878478547,-2.5183492342578333,6.176906692772665,1.0023666620254517,-4.436907235776083
1708435647.3473685,-2.1709144115448,-1.3410087388804932,-2.518362347279684,6.176865684777059,1.0023996829986572,-4.436865750943319
1708435647.3493607,-2.170921564102173,-1.3410418790629883,-2.518390480672018,6.176886188774862,1.002375602722168,-4.436911765729086
1708435647.351343,-2.1708807945251465,-1.34099234760318,-2.518390480672018,6.176898109703817,1.0023499727249146,-4.436870042477743
1708435647.3533483,-2.170872211456299,-1.341004179125168,-2.5184109846698206,6.176869976311483,1.0023634433746338,-4.436865870152609
1708435647.3553536,-2.170905828475952,-1.341004179125168,-2.518365446721212,6.17693196514205,1.0023919343948364,-4.436877671872274
1708435647.3573682,-2.170856475830078,-1.3409968179515381,-2.518398110066549,6.176952469139852,1.002380132675171,-4.436886493359701
1708435647.3593574,-2.170905828475952,-1.3409595650485535,-2.5183666388141077,6.17690788486556,1.0024086236953735,-4.436865870152609
1708435647.3613803,-2.170905828475952,-1.3409595650485535,-2.518386189137594,6.176952469139852,1.002366542816162,-4.436873261128561
1708435647.3633623,-2.170884132385254,-1.3410176795772095,-2.5183990637408655,6.176874267845907,1.0023589134216309,-4.436886493359701
1708435647.3653584,-2.1708590984344482,-1.3409877878478547,-2.518398110066549,6.176857697754659,1.002375602722168,-4.436926190053121
1708435647.367366,-2.170870542526245,-1.341004179125168,-2.5184078852282923,6.176866400032797,1.0024042129516602,-4.436890904103414
1708435647.3693469,-2.170874834060669,-1.3409788471511384,-2.518374268208639,6.176899182587423,1.0024116039276123,-4.436886493359701
1708435647.3713443,-2.1708791255950928,-1.3410299283317109,-2.518374268208639,6.176936256676473,1.0023499727249146,-4.436886493359701
1708435647.3733692,-2.170863389968872,-1.341046319609024,-2.518362347279684,6.176911103516378,1.0023545026779175,-4.4369229714023035
1708435647.3753595,-2.170874834060669,-1.3409952384284516,-2.5183501879321497,6.1769189713294885,1.0023634433746338,-4.436856810246603
1708435647.3773687,-2.170874834060669,-1.3410536807826539,-2.518341366444723,6.176899182587423,1.0023919343948364,-4.43691856065859
1708435647.3794136,-2.1708590984344482,-1.3410254579833527,-2.518329683934347,6.176890480309286,1.0024042129516602,-4.436907235776083
1708435647.381372,-2.1708927154541016,-1.3409759563258667,-2.51835805574526,6.176887261658468,1.0023785829544067,-4.436882201825277
1708435647.3833978,-2.1708548069000244,-1.3410328191569825,-2.5183828512774866,6.176882970124044,1.0024206638336182,-4.436849419270651
1708435647.3854406,-2.170874834060669,-1.341111884718277,-2.518341366444723,6.176961290627279,1.0023455619812012,-4.436882201825277
1708435647.3873887,-2.170870542526245,-1.3410372895053406,-2.5184035936938685,6.1769481776054285,1.0023829936981201,-4.43691856065859
1708435647.3893592,-2.1708548069000244,-1.3410823208144684,-2.5184112230883997,6.17687867858962,1.0023711919784546,-4.436907235776083
1708435647.39139,-2.1708590984344482,-1.3410372895053406,-2.518362347279684,6.176899182587423,1.0023545026779175,-4.436911646519796
1708435647.393377,-2.1708884239196777,-1.3410254579833527,-2.5184198061572474,6.176899182587423,1.002380132675171,-4.436890904103414
1708435647.3953798,-2.1708590984344482,-1.3410087388804932,-2.518378559743063,6.176927673607626,1.0023380517959595,-4.436907235776083
1708435647.397378,-2.170884132385254,-1.3409624558738251,-2.5183501879321497,6.17690788486556,1.0023711919784546,-4.436943833027975
1708435647.39936,-2.170874834060669,-1.3409431737712403,-2.5183587710009974,6.176939475327291,1.0023589134216309,-4.436899844800131
1708435647.4013636,-2.1708590984344482,-1.3410266202739258,-2.518345896397726,6.176952588349142,1.0023380517959595,-4.436907235776083
1708435647.4033873,-2.1708927154541016,-1.341011957531311,-2.5183947722064417,6.176911103516378,1.002375602722168,-4.436907235776083
1708435647.4053698,-2.1709539890289307,-1.3409833174994965,-2.518341366444723,6.176919686585226,1.002371072769165,-4.436877791081564
1708435647.4073844,-2.1708836555480957,-1.3409968179515381,-2.5183947722064417,6.1769600985343835,1.0023678541183472,-4.4369229714023035
1708435647.409392,-2.1709015369415283,-1.3409877878478547,-2.5183537642108362,6.176894891052999,1.0024055242538452,-4.436914269124166
1708435647.4113944,-2.170917272567749,-1.3410299283317109,-2.518345896397726,6.176906692772665,1.002375602722168,-4.436873261128561
1708435647.4133956,-2.170874834060669,-1.3409997087768097,-2.518374268208639,6.176866400032797,1.00237238407135,-4.436927382146017
1708435647.4153752,-2.1708884239196777,-1.3410238784602662,-2.5183990637408655,6.176894891052999,1.0023589134216309,-4.436874572430746
1708435647.4174004,-2.170870542526245,-1.3410041642240067,-2.518345896397726,6.176923262863912,1.0023845434188843,-4.436909858380453
1708435647.419384,-2.1709084510803223,-1.34099234760318,-2.518369976674215,6.176935183792867,1.0024055242538452,-4.436909858380453
1708435647.4213822,-2.1708927154541016,-1.3409788471511384,-2.518390480672018,6.176874267845907,1.0023634433746338,-4.436877791081564
1708435647.4233844,-2.1708970069885254,-1.3409759563258667,-2.5183828512774866,6.176923262863912,1.0023634433746338,-4.436898533497946
1708435647.4253793,-2.1709015369415283,-1.3410087388804932,-2.5184274355517786,6.176915395050802,1.0023589134216309,-4.436886493359701
1708435647.4274063,-2.170910120010376,-1.3410582405379792,-2.518378559743063,6.176894891052999,1.0023919343948364,-4.436934892331259
1708435647.4293725,-2.1708927154541016,-1.3409997087768097,-2.5183544794665735,6.176923262863912,1.0023678541183472,-4.436939303074972
1708435647.4313757,-2.1709084510803223,-1.3409997087768097,-2.5183666388141077,6.176928388863363,1.0023304224014282,-4.436895314847128
1708435647.4333978,-2.170961856842041,-1.3410132092288514,-2.5183587710009974,6.176902401238241,1.00237238407135,-4.436907235776083
1708435647.4353876,-2.1708884239196777,-1.34099234760318,-2.5183752218829554,6.176939475327291,1.0023424625396729,-4.436939303074972
1708435647.4374037,-2.1708927154541016,-1.341004179125168,-2.5183501879321497,6.176923262863912,1.0023634433746338,-4.436951224003927
1708435647.4393728,-2.170912742614746,-1.341004179125168,-2.518333975468771,6.1769471047218225,1.002375602722168,-4.436909858380453
1708435647.4413538,-2.170957565307617,-1.3409877878478547,-2.5183871428119105,6.176939475327291,1.002338171005249,-4.436894122754232
1708435647.4433908,-2.1708836555480957,-1.340984897022583,-2.5183990637408655,6.176964390068807,1.0023471117019653,-4.436902825032369
1708435647.445359,-2.1708970069885254,-1.3409833174994965,-2.518333975468771,6.176923262863912,1.0023589134216309,-4.436898533497946
1708435647.4474108,-2.170912742614746,-1.3410372895053406,-2.518345896397726,6.176939475327291,1.002375602722168,-4.43691856065859
1708435647.449355,-2.1709156036376953,-1.34099234760318,-2.518333975468771,6.176927673607626,1.0023515224456787,-4.436890904103414
1708435647.451389,-2.170961856842041,-1.3410176795772095,-2.518390480672018,6.176914679795065,1.0023634433746338,-4.436947051678793
1708435647.453389,-2.1709041595458984,-1.3410164278796692,-2.5183587710009974,6.17695580699996,1.0023890733718872,-4.436886493359701
1708435647.455382,-2.170924186706543,-1.3410132092288514,-2.518362347279684,6.176886188774862,1.002392053604126,-4.436916176472799
1708435647.4573946,-2.1709864139556885,-1.3410208982280274,-2.5183709303485315,6.17695568779067,1.0023678541183472,-4.436861340199606
1708435647.4593818,-2.1709084510803223,-1.3409968179515381,-2.518378559743063,6.176951396256246,1.0023393630981445,-4.436909858380453
1708435647.4613514,-2.1709084510803223,-1.3409640801003953,-2.518369738255636,6.176914679795065,1.0024055242538452,-4.436934892331259
1708435647.4634,-2.170924186706543,-1.341041849260666,-2.5183797518359583,6.176939475327291,1.0023964643478394,-4.436908189450399
1708435647.4653885,-2.1709041595458984,-1.3410176795772095,-2.5183501879321497,6.176902401238241,1.0023425817489624,-4.436947051678793
1708435647.4673681,-2.1709365844726562,-1.3410087388804932,-2.5183666388141077,6.1769471047218225,1.0023471117019653,-4.43695575395693
1708435647.4693937,-2.170912742614746,-1.3410433393767853,-2.5183709303485315,6.17695568779067,1.0023471117019653,-4.436921779309408
1708435647.4713585,-2.1709084510803223,-1.3409968179515381,-2.5184035936938685,6.176959025650778,1.0023335218429565,-4.43694252172579
1708435647.473361,-2.1709156036376953,-1.3409833174994965,-2.5183666388141077,6.176935183792867,1.00237238407135,-4.436914269124166
1708435647.4753885,-2.170919895172119,-1.3409833174994965,-2.5183828512774866,6.177000510483541,1.0023348331451416,-4.436947051678793
1708435647.4773488,-2.1708884239196777,-1.341011957531311,-2.518362347279684,6.176954614907064,1.002380132675171,-4.436934892331259
1708435647.479371,-2.17087984085083,-1.3410131943276902,-2.5183828512774866,6.176905858307638,1.0023589134216309,-4.436902825032369
1708435647.4813597,-2.1708927154541016,-1.3410221499255677,-2.5183828512774866,6.176963317185201,1.0023425817489624,-4.43690532842745
1708435647.4833977,-2.1708662509918213,-1.341013179426529,-2.518345896397726,6.1769763109977625,1.002380132675171,-4.436909858380453
1708435647.485376,-2.17087984085083,-1.3410163831761857,-2.5183871428119105,6.176991808205404,1.0024250745773315,-4.436972800885336
1708435647.4874027,-2.170875310897827,-1.3410536807826539,-2.5183871428119105,6.176996218949117,1.0023589134216309,-4.43695050874819
1708435647.4894757,-2.170919895172119,-1.341004179125168,-2.5183501879321497,6.17695032337264,1.0023471117019653,-4.436926190053121
1708435647.4913983,-2.1709113121032715,-1.3410087388804932,-2.5183990637408655,6.176975595742025,1.0023348331451416,-4.436926190053121
1708435647.4933774,-2.1709070205688477,-1.3409878027490159,-2.518337074910299,6.176971184998312,1.0023678541183472,-4.4369640986071985
1708435647.4953942,-2.170891046524048,-1.3410388243249436,-2.5183501879321497,6.176987397461691,1.0023589134216309,-4.436934892331259
1708435647.4973564,-2.17087984085083,-1.3410132241300126,-2.5183172861682337,6.177015530854025,1.0023393630981445,-4.43695050874819
1708435647.4993742,-2.1709084510803223,-1.3410163980773468,-2.518362347279684,6.176963436394491,1.0023589134216309,-4.436894122754232
1708435647.5013602,-2.1709237098693848,-1.3409595352462311,-2.518386189137594,6.176995026856222,1.0023258924484253,-4.436933461819784
1708435647.5033581,-2.1709322929382324,-1.3410013032010575,-2.5183666388141077,6.176974522858419,1.0023964643478394,-4.4369381109820765
1708435647.5053916,-2.1709070205688477,-1.3410627108863373,-2.518345896397726,6.176990735321798,1.0024250745773315,-4.436921779309408
1708435647.5073612,-2.1709237098693848,-1.34099234760318,-2.5183914343463343,6.177034246712484,1.0023515224456787,-4.437015954648153
1708435647.5094323,-2.1709113121032715,-1.3409877580455323,-2.5183709303485315,6.176989543228903,1.0024055242538452,-4.436980311070577
1708435647.5113893,-2.170980453491211,-1.3410254579833527,-2.518386189137594,6.17705928066329,1.0024054050445557,-4.436947051678793
1708435647.5133624,-2.170940399169922,-1.34099234760318,-2.518362347279684,6.177041756897726,1.002300500869751,-4.436999622975485
1708435647.5153954,-2.1709489822387695,-1.3409760010293503,-2.518378559743063,6.177099573403158,1.0023258924484253,-4.436912600194113
1708435647.517364,-2.1709041595458984,-1.3410462749055405,-2.5183752218829554,6.177074658661642,1.0023666620254517,-4.436942640935079
1708435647.519396,-2.170940399169922,-1.3409996938756485,-2.5183327833758753,6.177099573403158,1.0023471117019653,-4.4369381109820765
1708435647.5213885,-2.170884132385254,-1.3410492104342957,-2.518329683934347,6.177095162659445,1.002387523651123,-4.4369580189334314
1708435647.5233862,-2.1709237098693848,-1.3410597306540986,-2.518395964299337,6.177108275681295,1.0023515224456787,-4.43693715730776
1708435647.5253792,-2.1709113121032715,-1.3410119128278275,-2.5183666388141077,6.1770832417304895,1.0023678541183472,-4.436962429677145
1708435647.5273867,-2.1709280014038086,-1.341008723979332,-2.518345896397726,6.177090871125021,1.002375602722168,-4.436955157910482
1708435647.5293646,-2.1709070205688477,-1.340980426674225,-2.5183871428119105,6.177065956383505,1.0024055242538452,-4.43695050874819
1708435647.5313847,-2.1709070205688477,-1.341022090320923,-2.5183587710009974,6.177080023079672,1.0023304224014282,-4.4369534889804285
1708435647.5333686,-2.1709156036376953,-1.340980441575386,-2.5183752218829554,6.177090871125021,1.0023348331451416,-4.43701154390444
1708435647.5353823,-2.170891046524048,-1.3410132092288514,-2.5184198061572474,6.177095162659445,1.002375602722168,-4.4369580189334314
1708435647.537366,-2.170936107635498,-1.3409968179515381,-2.518390480672018,6.177099454193868,1.0023678541183472,-4.436966959630148
1708435647.5393748,-2.1709518432617188,-1.3410221201232453,-2.518374268208639,6.17705391624526,1.0023634433746338,-4.4369580189334314
1708435647.5413902,-2.1709322929382324,-1.3410176497748871,-2.5183947722064417,6.177156197815695,1.0023380517959595,-4.436956707631246
1708435647.543365,-2.1709024906158447,-1.341011957531311,-2.518378559743063,6.177074658661642,1.0023919343948364,-4.437007133160726
1708435647.5453997,-2.1709518432617188,-1.3410087388804932,-2.5183666388141077,6.177086460381307,1.0023545026779175,-4.437030259762899
1708435647.5474029,-2.1709156036376953,-1.3409968179515381,-2.518362347279684,6.177147495537557,1.0023471117019653,-4.437025968228475
1708435647.549365,-2.1708824634552,-1.3410012882998963,-2.5184155146228235,6.177135574608602,1.0023471117019653,-4.437063757573263
1708435647.5513904,-2.1709647178649902,-1.340996803050377,-2.5183709303485315,6.177123653679647,1.0023304224014282,-4.437048856412069
1708435647.5533624,-2.170976161956787,-1.341004194026329,-2.518365446721212,6.177107441216268,1.0023634433746338,-4.436996046696798
1708435647.5553603,-2.1709604263305664,-1.341029943232872,-2.5183947722064417,6.177086460381307,1.0023634433746338,-4.437071386967794
1708435647.5573754,-2.170947313308716,-1.341029943232872,-2.518369976674215,6.177123653679647,1.0023678541183472,-4.437029544507162
1708435647.5593636,-2.1709604263305664,-1.3409997534802933,-2.5183990637408655,6.177131163864889,1.0023666620254517,-4.437090579663412
1708435647.5613544,-2.1709675788879395,-1.3409997087768097,-2.5184035936938685,6.177098738938131,1.002380132675171,-4.437086049710409
1708435647.563391,-2.170931577682495,-1.3410372895053406,-2.5183990637408655,6.17707787731246,1.002408742904663,-4.437090579663412
1708435647.5653698,-2.1710054874420166,-1.3410119724324723,-2.5183709303485315,6.177135455399313,1.0023425817489624,-4.437118236218588
1708435647.5674052,-2.170976161956787,-1.3410164427808304,-2.518400255833761,6.17711495140151,1.0024042129516602,-4.4370564858066
1708435647.569346,-2.170989751815796,-1.341034398680069,-2.518390480672018,6.17711495140151,1.0023711919784546,-4.437089268361227
1708435647.5713463,-2.1709446907043457,-1.3409833174994965,-2.518329683934347,6.177126872330465,1.002366542816162,-4.437081638966696
1708435647.5733693,-2.1709518432617188,-1.3410254430821915,-2.5184155146228235,6.177131163864889,1.0023829936981201,-4.437156144772665
1708435647.5753672,-2.170919418334961,-1.3410507154515763,-2.51835805574526,6.177172648697653,1.0023829936981201,-4.4371517340289515
1708435647.5773938,-2.170936107635498,-1.34099234760318,-2.51835805574526,6.177134382515707,1.0023545026779175,-4.437105003987448
1708435647.579398,-2.170980930328369,-1.3410418343595047,-2.5183828512774866,6.17711495140151,1.0023996829986572,-4.437097970639364
1708435647.5813754,-2.1709940433502197,-1.3410221648267289,-2.518369976674215,6.177179920464315,1.00244140625,-4.437105003987448
1708435647.5834377,-2.170976161956787,-1.341046319609024,-2.5183666388141077,6.17710958698348,1.002408742904663,-4.437071386967794
1708435647.5853999,-2.1709561347961426,-1.3410208833268662,-2.518378559743063,6.177178847580709,1.0024250745773315,-4.4370684067355555
1708435647.587376,-2.1709561347961426,-1.3409833174994965,-2.518378559743063,6.177142488747396,1.002387523651123,-4.43715483347048
1708435647.5893557,-2.170980453491211,-1.3410328489593049,-2.518362347279684,6.177142488747396,1.0024116039276123,-4.437091414128439
1708435647.5913491,-2.1709604263305664,-1.3409878325513382,-2.518378559743063,6.177166926651754,1.0023952722549438,-4.437133971844808
1708435647.5933595,-2.1709718704223633,-1.340980426674225,-2.518390480672018,6.17720793464736,1.0024369955062866,-4.437141243611471
1708435647.5953543,-2.1709940433502197,-1.3410418045571824,-2.5183938185321253,6.177133786469259,1.0023952722549438,-4.437109295521871
1708435647.5973766,-2.1709630489349365,-1.3410328191569825,-2.518390480672018,6.177125799446859,1.0024116039276123,-4.437145654355184
1708435647.5993567,-2.170989751815796,-1.340980441575386,-2.5183828512774866,6.177174556046285,1.0024116039276123,-4.43715483347048
1708435647.6013472,-2.170947313308716,-1.3409997087768097,-2.518362347279684,6.177219140320577,1.002407193183899,-4.4371740261660975
1708435647.6033597,-2.1709561347961426,-1.3410582405379792,-2.5183947722064417,6.177214848786154,1.0024487972259521,-4.4371575752841395
1708435647.6053913,-2.170943021774292,-1.3409730356982728,-2.5184109846698206,6.177203047066488,1.0024398565292358,-4.437153164540426
1708435647.6073928,-2.170947313308716,-1.3409997534802933,-2.5183947722064417,6.177203047066488,1.002472996711731,-4.437132302914755
1708435647.6093574,-2.170989751815796,-1.3409923625043412,-2.5184317270862024,6.177177774697103,1.0024443864822388,-4.437141243611471
1708435647.6113603,-2.171025514602661,-1.3409997087768097,-2.5183709303485315,6.177190053253927,1.002463936805725,-4.437103335057394
1708435647.61338,-2.1709561347961426,-1.3410254579833527,-2.5183947722064417,6.177190053253927,1.002484917640686,-4.437171165143148
1708435647.615363,-2.170989751815796,-1.3410446804812928,-2.518390480672018,6.177182066231527,1.0024802684783936,-4.437197868024008
1708435647.6173651,-2.170947313308716,-1.341041849260666,-2.518410030995504,6.177206265717306,1.0024431943893433,-4.437181536351339
1708435647.6193643,-2.170992374420166,-1.3410372895053406,-2.518390480672018,6.177185761719503,1.0024970769882202,-4.437153164540426
1708435647.6213892,-2.170992374420166,-1.3409923774055024,-2.5183773676501673,6.177203047066488,1.0024714469909668,-4.437238876019613
1708435647.6233718,-2.1710054874420166,-1.3410254579833527,-2.5184112230883997,6.177218186646261,1.002488136291504,-4.437197868024008
1708435647.6253622,-2.1709718704223633,-1.3410627108863373,-2.5183947722064417,6.177238690644064,1.0024926662445068,-4.437172595654623
1708435647.6273706,-2.170980930328369,-1.3410536807826539,-2.518406693135397,6.177203047066488,1.0024925470352173,-4.4371859470950525
1708435647.6293778,-2.1710054874420166,-1.34099234760318,-2.51835805574526,6.177226769715109,1.0024551153182983,-4.43718141714205
1708435647.631357,-2.1710054874420166,-1.3410299283317109,-2.518402401600973,6.177238690644064,1.0024669170379639,-4.43716806570162
1708435647.633355,-2.170992374420166,-1.341022105222084,-2.51843506494631,6.17723439910964,1.002479076385498,-4.43722111383547
1708435647.6353843,-2.1710169315338135,-1.341046319609024,-2.5183730761157435,6.177185761719503,1.0025076866149902,-4.437163774167196
1708435647.6373696,-2.170947313308716,-1.3410254430821915,-2.5184391180621546,6.1772509692008875,1.0025330781936646,-4.437184516583578
1708435647.6393552,-2.171003818511963,-1.341041849260666,-2.518386189137594,6.1772509692008875,1.002532958984375,-4.437180225049154
1708435647.6413534,-2.1710212230682373,-1.3410012882998963,-2.5184057394610804,6.177188980370321,1.0024957656860352,-4.437236611043112
1708435647.6433878,-2.170985460281372,-1.3409893673709412,-2.5183947722064417,6.177262770920553,1.0025196075439453,-4.43714422384371
1708435647.6453617,-2.1710011959075928,-1.3409788620522995,-2.518402401600973,6.17723439910964,1.0025211572647095,-4.437188927327291
1708435647.6473672,-2.1710011959075928,-1.3409997087768097,-2.518406693135397,6.1772498963172815,1.002504825592041,-4.437229339276449
1708435647.6493537,-2.1710336208343506,-1.3409997087768097,-2.5183938185321253,6.177308189659872,1.0025240182876587,-4.4372246901141565
1708435647.6513557,-2.1709630489349365,-1.3409669262221833,-2.518406693135397,6.17723439910964,1.0025076866149902,-4.4372738043414515
1708435647.6533566,-2.1709766387939453,-1.3410344284823914,-2.518402401600973,6.1772509692008875,1.0024733543395996,-4.437220279370443
1708435647.6553495,-2.1709766387939453,-1.3409997087768097,-2.518410030995504,6.177299606591024,1.0024868249893188,-4.437211338673727
1708435647.6573691,-2.1709587574005127,-1.3410283339074631,-2.51838189760317,6.177245485573568,1.0025166273117065,-4.43725294271578
1708435647.6593668,-2.170954465866089,-1.3410582405379792,-2.5184229055987757,6.177290904312887,1.0025362968444824,-4.4372857252704065
1708435647.6613717,-2.1709766387939453,-1.341041849260666,-2.5183947722064417,6.177278983383932,1.0025032758712769,-4.43727678457369
1708435647.6633782,-2.170938730239868,-1.3410328191569825,-2.518402401600973,6.177277910500326,1.0025556087493896,-4.43731409708132
1708435647.6653788,-2.170950174331665,-1.3409907680800934,-2.518418614064352,6.17726610878066,1.0025240182876587,-4.437293235455648
1708435647.6674206,-2.1710286140441895,-1.3410656315139313,-2.5184274355517786,6.177258479386129,1.0025317668914795,-4.437235180531637
1708435647.669384,-2.1709723472595215,-1.341041849260666,-2.518390480672018,6.177295195847311,1.002560019493103,-4.437230650578634
1708435647.6713834,-2.1709635257720947,-1.3410372895053406,-2.518402401600973,6.1772953150566,1.002494215965271,-4.437259022389547
1708435647.6734085,-2.17099666595459,-1.341070072059967,-2.518374268208639,6.177295195847311,1.0025228261947632,-4.43733793893923
1708435647.6753695,-2.171041488647461,-1.3410208982280274,-2.518430534993307,6.17729018905715,1.002548098564148,-4.4372634331332605
1708435647.6774504,-2.1710081100463867,-1.3409833174994965,-2.518398110066549,6.1772509692008875,1.002576470375061,-4.437259022389547
1708435647.6793797,-2.1709723472595215,-1.3409997087768097,-2.518406693135397,6.1773565886314294,1.0025273561477661,-4.437282864247457
1708435647.6813803,-2.1710081100463867,-1.3410328340581437,-2.5183938185321253,6.177295195847311,1.0025436878204346,-4.437284294758932
1708435647.6834004,-2.1710081100463867,-1.3410835725120087,-2.518406693135397,6.177277910500326,1.0025317668914795,-4.437296215687887
1708435647.6853924,-2.1710081100463867,-1.341016412978508,-2.518414322529928,6.177290904312887,1.0025511980056763,-4.437287274991171
1708435647.6874175,-2.171024799346924,-1.3410372895053406,-2.518451515828268,6.17726610878066,1.002571940422058,-4.437305037175314
1708435647.689365,-2.1710124015808105,-1.341016412978508,-2.518426243458883,6.177274691849508,1.002564549446106,-4.437296215687887
1708435647.6913662,-2.170999526977539,-1.3410537254861374,-2.5184274355517786,6.177270400315084,1.0025317668914795,-4.437366191540853
1708435647.6934133,-2.1709680557250977,-1.341041849260666,-2.518414322529928,6.177311765938558,1.0025347471237183,-4.437296215687887
1708435647.695401,-2.1710124015808105,-1.3410164278796692,-2.5184057394610804,6.177274691849508,1.0025302171707153,-4.437312666569845
1708435647.6974068,-2.171024799346924,-1.3410492998412629,-2.5184057394610804,6.177306401520529,1.0025675296783447,-4.4373289982425135
1708435647.6993775,-2.171016216278076,-1.3409997087768097,-2.5184229055987757,6.177270400315084,1.0025511980056763,-4.4373006264316
1708435647.7013829,-2.171037197113037,-1.3410536807826539,-2.518414322529928,6.177264916687765,1.0025436878204346,-4.437291804944174
1708435647.7033906,-2.1710379123687744,-1.3410611313632508,-2.5184393564807337,6.177241194039144,1.002506136894226,-4.437336389218466
1708435647.7053838,-2.1709837913513184,-1.3409996789744874,-2.518463436757223,6.17731391170577,1.002560019493103,-4.437354151402609
1708435647.7074444,-2.1709952354431152,-1.3410176795772095,-2.5184057394610804,6.1773074744041345,1.002548098564148,-4.4373006264316
1708435647.709377,-2.1710205078125,-1.3410328042558213,-2.5183807055102747,6.177306401520529,1.0025392770767212,-4.437287274991171
1708435647.711403,-2.171024799346924,-1.341016412978508,-2.518426243458883,6.177290904312887,1.0025466680526733,-4.437294785176412
1708435647.71339,-2.1709723472595215,-1.3410328191569825,-2.518463436757223,6.177298891335287,1.002576470375061,-4.437320057545797
1708435647.7153761,-2.170954465866089,-1.3410537403872986,-2.518410030995504,6.177334892540731,1.0025348663330078,-4.4373125473605555
1708435647.7173896,-2.170999526977539,-1.3409833920053025,-2.518410030995504,6.177302109986105,1.0025511980056763,-4.437317077313558
1708435647.7193549,-2.1709635257720947,-1.3410028380206604,-2.5184348265277308,6.177265989571371,1.0025511980056763,-4.437291685734884
1708435647.7213783,-2.171041488647461,-1.3410463494113465,-2.518451515828268,6.177273618965902,1.0025556087493896,-4.437336389218466
1708435647.7233894,-2.171003818511963,-1.3410328191569825,-2.518414322529928,6.1772206900413416,1.002576470375061,-4.437340919171469
1708435647.7253737,-2.170950174331665,-1.3410283488086243,-2.518410030995504,6.177302109986105,1.0025975704193115,-4.437336389218466
1708435647.7274008,-2.171016216278076,-1.3410328191569825,-2.5184348265277308,6.177334892540731,1.0025466680526733,-4.437327567731039
1708435647.729374,-2.1709752082824707,-1.3410163980773468,-2.5184176603900355,6.1772944805915735,1.0025392770767212,-4.437327567731039
1708435647.7314005,-2.170992374420166,-1.3409952384284516,-2.5184057394610804,6.177285897522726,1.0025644302368164,-4.437352840100424
1708435647.7333953,-2.1709794998168945,-1.3410193187049408,-2.518426243458883,6.177298891335287,1.0025886297225952,-4.437331978474752
1708435647.73536,-2.1710205078125,-1.3410823208144684,-2.5184219519244593,6.177264916687765,1.0025886297225952,-4.437315527592794
1708435647.7373917,-2.1710243225097656,-1.3410299581340333,-2.518426243458883,6.177343475609579,1.002576470375061,-4.437290374432699
1708435647.739373,-2.171048641204834,-1.3409996789744874,-2.5183849970446985,6.177302109986105,1.0025511980056763,-4.43728739420046
1708435647.7413824,-2.171003818511963,-1.3410283488086243,-2.5184384028064173,6.177303182869711,1.0025392770767212,-4.437290374432699
1708435647.743386,-2.1710119247436523,-1.3410463494113465,-2.5184219519244593,6.177261698036947,1.0025094747543335,-4.437336389218466
1708435647.7453833,-2.1710574626922607,-1.3410611313632508,-2.5183969179736536,6.17731939533309,1.0025842189788818,-4.437303725873129
1708435647.7473958,-2.1710081100463867,-1.3410328191569825,-2.5183969179736536,6.177248704224386,1.0025763511657715,-4.437320057545797
1708435647.7493665,-2.171037197113037,-1.3410656613162537,-2.518446985875265,6.177315103798666,1.002571940422058,-4.437315646802084
1708435647.7513876,-2.171048641204834,-1.3410372895053406,-2.518430534993307,6.177286612778463,1.0025752782821655,-4.437348310147421
1708435647.7533891,-2.1710076332092285,-1.3410164278796692,-2.518410030995504,6.177343475609579,1.0025629997253418,-4.437336389218466
1708435647.7553806,-2.1709952354431152,-1.3409997087768097,-2.518446985875265,6.177297699242391,1.0025184154510498,-4.437299195920126
1708435647.7574153,-2.1709907054901123,-1.3410208833268662,-2.518467728291647,6.177330481797018,1.002560019493103,-4.437348310147421
1708435647.7593849,-2.170999526977539,-1.3410163831761857,-2.5184057394610804,6.17726610878066,1.0025511980056763,-4.437320057545797
1708435647.7613957,-2.1709909439086914,-1.341004179125168,-2.518426243458883,6.1772498963172815,1.0025466680526733,-4.437364761029379
1708435647.7633939,-2.1709952354431152,-1.3409833174994965,-2.518410030995504,6.17729018905715,1.0025511980056763,-4.437315646802084
1708435647.765374,-2.171055793762207,-1.3410447102836152,-2.5184219519244593,6.177339184075155,1.002525806427002,-4.437336389218466
1708435647.7673965,-2.170999526977539,-1.3410372895053406,-2.5184219519244593,6.177302109986105,1.0025347471237183,-4.437352840100424
1708435647.7694037,-2.1710076332092285,-1.3410209131291886,-2.5184176603900355,6.177277910500326,1.0025629997253418,-4.437340919171469
1708435647.7713768,-2.1710286140441895,-1.3410536807826539,-2.5184057394610804,6.177302109986105,1.002579689025879,-4.437331978474752
1708435647.7733788,-2.171048641204834,-1.3410283339074631,-2.518426243458883,6.17731391170577,1.0025556087493896,-4.437327567731039
1708435647.7753768,-2.1710689067840576,-1.3410163980773468,-2.518410030995504,6.1773226139839075,1.0025392770767212,-4.437327567731039
1708435647.7773669,-2.1710329055786133,-1.3410700869611283,-2.518402401600973,6.17735646942214,1.0025629997253418,-4.437311116849081
1708435647.77937,-2.1709864139556885,-1.3410164427808304,-2.518430534993307,6.177302109986105,1.0025303363800049,-4.437294785176412
1708435647.7813592,-2.1709749698638916,-1.3410041642240067,-2.518398110066549,6.177352177887716,1.0025842189788818,-4.437327567731039
1708435647.7834167,-2.171020030975342,-1.3411075186780472,-2.518430534993307,6.1772206900413416,1.0025511980056763,-4.437327567731039
1708435647.7854133,-2.1710643768310547,-1.3410119277289887,-2.518454615269796,6.177297699242391,1.0025184154510498,-4.437315646802084
1708435647.7874372,-2.171037197113037,-1.3409997087768097,-2.5184219519244593,6.1773226139839075,1.0025808811187744,-4.437315646802084
1708435647.7894082,-2.171041488647461,-1.3410418343595047,-2.518430534993307,6.1772944805915735,1.0025556087493896,-4.437339488659994
1708435647.7914054,-2.1710574626922607,-1.341029943232872,-2.5184057394610804,6.177372681885519,1.0025348663330078,-4.4373244682895105
1708435647.793383,-2.1710400581359863,-1.3410028976253052,-2.518426243458883,6.177272784500875,1.002576470375061,-4.437348310147421
1708435647.7953596,-2.171016216278076,-1.3410119277289887,-2.5184012095080774,6.177330481797018,1.0025466680526733,-4.437340919171469
1708435647.7973924,-2.1709909439086914,-1.3410582703403016,-2.518410030995504,6.1772944805915735,1.0025556087493896,-4.437348310147421
1708435647.7993531,-2.1710572242736816,-1.3410254579833527,-2.518426243458883,6.177244412689962,1.0025184154510498,-4.437348310147421
1708435647.8013663,-2.1710119247436523,-1.3409997087768097,-2.518442694340841,6.177285897522726,1.0025436878204346,-4.437294785176412
1708435647.8033514,-2.170999526977539,-1.3410627406886597,-2.518446985875265,6.177273618965902,1.0025556087493896,-4.437299195920126
1708435647.8053486,-2.171048641204834,-1.3410373044065018,-2.518418614064352,6.177331316262045,1.0025886297225952,-4.437327567731039
1708435647.80735,-2.1710286140441895,-1.3409877878478547,-2.518414322529928,6.1772615788276575,1.0025675296783447,-4.437343899403707
1708435647.809374,-2.1710286140441895,-1.3410492104342957,-2.5184057394610804,6.177273618965902,1.0025317668914795,-4.437303725873129
1708435647.811369,-2.1710329055786133,-1.3410283786109467,-2.5184012095080774,6.177277910500326,1.002548098564148,-4.437311116849081
1708435647.8133965,-2.171052932739258,-1.3410372895053406,-2.51839787164797,6.1772934077079675,1.002510666847229,-4.437339488659994
1708435647.815384,-2.1710574626922607,-1.3410328042558213,-2.5184219519244593,6.177343475609579,1.0025556087493896,-4.437331978474752
1708435647.8173854,-2.1709952354431152,-1.341070146565773,-2.518410030995504,6.177241194039144,1.0025601387023926,-4.437345329915182
1708435647.8194067,-2.171052932739258,-1.3410041195205231,-2.518410030995504,6.1772944805915735,1.0025272369384766,-4.437340919171469
1708435647.8213723,-2.1710686683654785,-1.340954915886261,-2.5184348265277308,6.177352177887716,1.0025556087493896,-4.437340919171469
1708435647.823371,-2.1709752082824707,-1.341014878158905,-2.518446985875265,6.177355396538534,1.0025273561477661,-4.437343899403707
1708435647.8253891,-2.1710400581359863,-1.3410298985293885,-2.518414322529928,6.177310693054952,1.0025317668914795,-4.437320057545797
1708435647.8273807,-2.1710205078125,-1.3410328191569825,-2.5184503237353724,6.17729018905715,1.0025808811187744,-4.437352840100424
1708435647.8293927,-2.171003818511963,-1.3409952384284516,-2.518430534993307,6.177269208222189,1.0025347471237183,-4.437348310147421
1708435647.8313649,-2.1710119247436523,-1.3410208982280274,-2.518446985875265,6.17731391170577,1.0025105476379395,-4.437369171773092
1708435647.8334134,-2.1710243225097656,-1.3410132092288514,-2.518426243458883,6.177286612778463,1.0025273561477661,-4.4373125473605555
1708435647.8353655,-2.171015739440918,-1.340957985525467,-2.518414322529928,6.177298891335287,1.0024898052215576,-4.437352840100424
1708435647.8373923,-2.1710643768310547,-1.3410087388804932,-2.5184600988971155,6.177281367569723,1.0025615692138672,-4.4373289982425135
1708435647.839361,-2.1710076332092285,-1.3409833174994965,-2.518414322529928,6.177233683853903,1.0025317668914795,-4.437273923550741
1708435647.8413782,-2.1710643768310547,-1.3410328191569825,-2.5183938185321253,6.177315103798666,1.0024913549423218,-4.437340919171469
1708435647.843375,-2.1710286140441895,-1.3409833174994965,-2.518402401600973,6.1772944805915735,1.0025362968444824,-4.437331978474752
1708435647.8453689,-2.1710205078125,-1.3410283488086243,-2.51845890680422,6.177274691849508,1.002528429031372,-4.437315646802084
1708435647.8473616,-2.1710243225097656,-1.3409997087768097,-2.518414322529928,6.177303182869711,1.0025362968444824,-4.437320057545797
1708435647.8493571,-2.171060085296631,-1.3410208982280274,-2.518414322529928,6.177315103798666,1.002462387084961,-4.437340919171469
1708435647.8513827,-2.1710329055786133,-1.3410536807826539,-2.518414322529928,6.1772944805915735,1.002516746520996,-4.437320057545797
1708435647.8533719,-2.1709864139556885,-1.3409907680800934,-2.518398110066549,6.177286612778463,1.002482295036316,-4.437320057545797
1708435647.8553479,-2.1710076332092285,-1.3409788471511384,-2.518414322529928,6.177298891335287,1.0025285482406616,-4.437308136616842
1708435647.8573701,-2.1710076332092285,-1.3410536807826539,-2.518406693135397,6.177315103798666,1.0025076866149902,-4.437357250844137
1708435647.8593657,-2.1710243225097656,-1.340964065199234,-2.518451515828268,6.177282321244039,1.002500295639038,-4.437357250844137
1708435647.861375,-2.1710286140441895,-1.3410164278796692,-2.518393580113546,6.177310693054952,1.0024669170379639,-4.437340919171469
1708435647.8634064,-2.1710329055786133,-1.341028393512108,-2.518398110066549,6.177315103798666,1.002500295639038,-4.437294785176412
1708435647.8653724,-2.17104434967041,-1.3410208982280274,-2.518398110066549,6.177347886353292,1.002483606338501,-4.437294785176412
1708435647.867416,-2.1709952354431152,-1.341041849260666,-2.518414322529928,6.1772780297096155,1.002483606338501,-4.437308136616842
1708435647.8693776,-2.171072483062744,-1.3410029274276276,-2.518402401600973,6.177278983383932,1.002480387687683,-4.437303725873129
1708435647.8713923,-2.171048641204834,-1.3410372895053406,-2.51838189760317,6.177270400315084,1.0024669170379639,-4.4373289982425135
1708435647.873434,-2.1710357666015625,-1.3409743768027802,-2.518398110066549,6.17726610878066,1.002504825592041,-4.437315646802084
1708435647.8754032,-2.1710205078125,-1.3410537105849762,-2.518402401600973,6.177310693054952,1.0024969577789307,-4.43736166158785
1708435647.8773918,-2.1709952354431152,-1.3410491955331345,-2.518406693135397,6.177224981575765,1.0024971961975098,-4.4373244682895105
1708435647.8793638,-2.1710076332092285,-1.3410611313632508,-2.5184600988971155,6.177344190865316,1.0024926662445068,-4.4373289982425135
1708435647.8813748,-2.1709952354431152,-1.3410492104342957,-2.518365446721212,6.177217113762655,1.0024970769882202,-4.437282864247457
1708435647.883403,-2.171048641204834,-1.3409833174994965,-2.518398110066549,6.1772498963172815,1.0024970769882202,-4.437270943318502
1708435647.8853807,-2.1710119247436523,-1.3410328191569825,-2.5183730761157435,6.177248585015096,1.002463936805725,-4.437279884015219
1708435647.887381,-2.171037197113037,-1.3410582405379792,-2.518406693135397,6.1772944805915735,1.0024759769439697,-4.437321488057272
1708435647.8893645,-2.1710243225097656,-1.341049225335457,-2.518430534993307,6.177311765938558,1.002489447593689,-4.437333408986227
1708435647.8913696,-2.17104434967041,-1.3409907680800934,-2.518353525792257,6.177290904312887,1.0024476051330566,-4.4373244682895105
1708435647.8933988,-2.1710205078125,-1.341037244801857,-2.518430534993307,6.177278983383932,1.0024399757385254,-4.437320057545797
1708435647.895356,-2.171055793762207,-1.3410283637097855,-2.518451515828268,6.1773074744041345,1.0024431943893433,-4.437272373829977
1708435647.8973951,-2.171048641204834,-1.3410328191569825,-2.518402401600973,6.177282321244039,1.0023980140686035,-4.437326018010275
1708435647.8993795,-2.1709988117218018,-1.3410164278796692,-2.518386189137594,6.177224862366476,1.0023936033248901,-4.437303606663839
1708435647.901373,-2.171020030975342,-1.3410778802684327,-2.518402401600973,6.177261698036947,1.0024100542068481,-4.437254611645834
1708435647.9034204,-2.1710076332092285,-1.3410328340581437,-2.518426243458883,6.177246558457174,1.002414584159851,-4.4373244682895105
1708435647.9053917,-2.1710076332092285,-1.3410328191569825,-2.518398110066549,6.177237975388326,1.0024160146713257,-4.437293235455648
1708435647.9074304,-2.1710894107818604,-1.341041849260666,-2.518418614064352,6.177278983383932,1.0023951530456543,-4.437279884015219
1708435647.909412,-2.171052932739258,-1.3410164278796692,-2.51838189760317,6.177233683853903,1.002419114112854,-4.437305037175314
1708435647.9113953,-2.1710119247436523,-1.3410164278796692,-2.518418614064352,6.177316176682272,1.0023996829986572,-4.437267843876974
1708435647.913384,-2.17104434967041,-1.3409997385791321,-2.518446985875265,6.177286612778463,1.0024116039276123,-4.437267843876974
1708435647.9153934,-2.1709952354431152,-1.341046319609024,-2.518390480672018,6.177287804871359,1.0024324655532837,-4.437309686337606
1708435647.9173794,-2.1709988117218018,-1.3409788471511384,-2.518410030995504,6.177262770920553,1.0024116039276123,-4.43723959127535
1708435647.9193728,-2.1710243225097656,-1.3410208982280274,-2.5184229055987757,6.17726610878066,1.0023740530014038,-4.437305156384603
1708435647.921392,-2.1710400581359863,-1.341008723979332,-2.518430534993307,6.177245485573568,1.0024324655532837,-4.43727690378298
1708435647.9233935,-2.171060085296631,-1.3410208982280274,-2.518414322529928,6.177278983383932,1.0023952722549438,-4.437281314526693
1708435647.9253647,-2.1710119247436523,-1.3410074424794693,-2.518402401600973,6.1772299883659265,1.002390742301941,-4.437285844479696
1708435647.9274285,-2.1709909439086914,-1.3410835725120087,-2.518369738255636,6.177278983383932,1.0023952722549438,-4.437302295361654
1708435647.9293747,-2.170999526977539,-1.3410238486579438,-2.51838189760317,6.1773074744041345,1.0024206638336182,-4.437264863644735
1708435647.931355,-2.1709909439086914,-1.3410418790629883,-2.518414322529928,6.177286612778463,1.0023335218429565,-4.437220160161154
1708435647.9333851,-2.170999526977539,-1.3410119873336335,-2.518374268208639,6.17726610878066,1.0024160146713257,-4.437229339276449
1708435647.935392,-2.171020030975342,-1.341065601711609,-2.518414322529928,6.177268254547872,1.0023996829986572,-4.437248531972067
1708435647.9373794,-2.1710119247436523,-1.341046319609024,-2.5183947722064417,6.177217113762655,1.0023784637451172,-4.437198583279745
1708435647.9393659,-2.171020030975342,-1.3409580898335953,-2.518414322529928,6.177249777107992,1.0023996829986572,-4.4371636549579065
1708435647.941382,-2.171052932739258,-1.3410491657308121,-2.5184348265277308,6.177303182869711,1.0024280548095703,-4.437212292348043
1708435647.943416,-2.171003818511963,-1.3410372895053406,-2.5184219519244593,6.17724226692275,1.0024250745773315,-4.437197868024008
1708435647.9454045,-2.1710329055786133,-1.3410418790629883,-2.518418614064352,6.177267181664266,1.00244140625,-4.437147442494528
1708435647.9473982,-2.17104434967041,-1.341004179125168,-2.518418614064352,6.177259552269735,1.0023711919784546,-4.43722111383547
1708435647.9493785,-2.1710205078125,-1.3410582405379792,-2.518398110066549,6.177206265717306,1.002396583557129,-4.4371859470950525
1708435647.9513822,-2.171048641204834,-1.3410627108863373,-2.5183773676501673,6.177270400315084,1.002375602722168,-4.437156144772665
1708435647.9533727,-2.171055793762207,-1.340975971227028,-2.5184391180621546,6.1772429821784876,1.0023454427719116,-4.437160674725668
1708435647.9553943,-2.1709794998168945,-1.3410328191569825,-2.518402401600973,6.177209484368124,1.0023829936981201,-4.437193457280294
1708435647.9573832,-2.1709909439086914,-1.341007487182953,-2.5184391180621546,6.1772299883659265,1.0023785829544067,-4.437209788952963
1708435647.9594157,-2.1710243225097656,-1.3410328191569825,-2.518414322529928,6.177262770920553,1.002366542816162,-4.43718141714205
1708435647.9614205,-2.1709909439086914,-1.341011957531311,-2.518414322529928,6.177225696831503,1.002387523651123,-4.437148634587423
1708435647.963419,-2.171052932739258,-1.3410030019334336,-2.518386189137594,6.177218186646261,1.0023711919784546,-4.437181536351339
1708435647.9653776,-2.1710119247436523,-1.3409952384284516,-2.5184348265277308,6.1772509692008875,1.0024160146713257,-4.437153164540426
1708435647.967417,-2.1709723472595215,-1.3409997087768097,-2.518369499837057,6.177206265717306,1.0024160146713257,-4.4371694962130945
1708435647.9693754,-2.171037197113037,-1.3410087388804932,-2.518374268208639,6.177259552269735,1.002387523651123,-4.437177006398336
1708435647.971369,-2.171016216278076,-1.341023863559105,-2.518390480672018,6.177169191628256,1.0023621320724487,-4.437153164540426
1708435647.973394,-2.171016216278076,-1.3409996938756485,-2.518386189137594,6.177185642510214,1.0024176836013794,-4.437136713658468
1708435647.9754097,-2.1710329055786133,-1.3410611313632508,-2.518390480672018,6.177238690644064,1.0023545026779175,-4.437103335057394
1708435647.9773862,-2.1710119247436523,-1.3410086792758484,-2.518406693135397,6.1772299883659265,1.0023829936981201,-4.437148753796713
1708435647.979388,-2.1710400581359863,-1.3410208982280274,-2.518341366444723,6.177231180458822,1.0024070739746094,-4.437138382588522
1708435647.9813812,-2.1710400581359863,-1.3409877878478547,-2.518406693135397,6.177218186646261,1.0023621320724487,-4.437139813099996
1708435647.9833896,-2.1710286140441895,-1.341046319609024,-2.518406693135397,6.177218186646261,1.0023919343948364,-4.437115852032797
1708435647.9854052,-2.171003818511963,-1.3410626363805314,-2.5183327833758753,6.177182066231527,1.0023829936981201,-4.437141243611471
1708435647.9874418,-2.1710286140441895,-1.3410372895053406,-2.518390480672018,6.177182066231527,1.0023577213287354,-4.437162105237142
1708435647.9893973,-2.1710119247436523,-1.3409788024476548,-2.518402401600973,6.177170264511862,1.0024205446243286,-4.437124792729513
1708435647.9914014,-2.1710290908813477,-1.341016412978508,-2.5184393564807337,6.177161562233724,1.0023829936981201,-4.43715483347048
1708435647.9934096,-2.1709866523742676,-1.3410208982280274,-2.5183990637408655,6.177154052048483,1.002375602722168,-4.43715483347048
1708435647.9953988,-2.171041488647461,-1.3409788471511384,-2.5184360186206263,6.177170264511862,1.0023919343948364,-4.43711227575411
1708435647.997403,-2.1709794998168945,-1.3410328191569825,-2.518418614064352,6.177150952606954,1.0023964643478394,-4.437100593243734
1708435647.9994078,-2.171016216278076,-1.3410746318152924,-2.5183892885791224,6.1771596548850916,1.0023996829986572,-4.43711227575411
1708435648.0013764,-2.1710286140441895,-1.3409877878478547,-2.518418614064352,6.177110659867086,1.002387523651123,-4.437095824872152
1708435648.0034068,-2.1709837913513184,-1.34099234760318,-2.518418614064352,6.177131163864889,1.002375602722168,-4.437138382588522
1708435648.0053601,-2.171016216278076,-1.3410746318152924,-2.5183611551867884,6.17708574512557,1.002375602722168,-4.437129322682516
1708435648.0074253,-2.1710286140441895,-1.341002882724144,-2.518386189137594,6.177135455399313,1.0023499727249146,-4.43711227575411
1708435648.0094435,-2.1710286140441895,-1.3410734248212357,-2.5184274355517786,6.177103030472555,1.0023577213287354,-4.437159125004904
1708435648.0113792,-2.1709909439086914,-1.340975896721222,-2.51835805574526,6.177110659867086,1.0023621320724487,-4.437166754399435
1708435648.0134137,-2.1710076332092285,-1.3410119873336335,-2.518390480672018,6.177123653679647,1.0023785829544067,-4.4371472040759485
1708435648.0153775,-2.1710329055786133,-1.3410463494113465,-2.518374268208639,6.177065837174215,1.002375602722168,-4.437089268361227
1708435648.0173876,-2.1709952354431152,-1.3410283637097855,-2.518406693135397,6.177135455399313,1.0023829936981201,-4.437109295521871
1708435648.0193903,-2.1710243225097656,-1.3410372895053406,-2.5184274355517786,6.177103030472555,1.0023919343948364,-4.437109295521871
1708435648.021366,-2.1710572242736816,-1.3410283488086243,-2.518418614064352,6.177090871125021,1.0024042129516602,-4.437089268361227
1708435648.0233576,-2.1710076332092285,-1.3410119873336335,-2.5183828512774866,6.177143084793844,1.0024116039276123,-4.437109295521871
1708435648.0253553,-2.171003818511963,-1.3410867911628266,-2.5183776060687464,6.177095162659445,1.0023545026779175,-4.437109295521871
1708435648.0273752,-2.171024799346924,-1.3409907233766098,-2.518406693135397,6.177090036659994,1.0024131536483765,-4.437081638966696
1708435648.02936,-2.171037197113037,-1.3410582703403016,-2.51838189760317,6.177090871125021,1.002371072769165,-4.437089268361227
1708435648.0313597,-2.171037197113037,-1.3410283637097855,-2.518418614064352,6.1770832417304895,1.0023829936981201,-4.437060777341024
1708435648.033376,-2.1710329055786133,-1.3410087388804932,-2.5184109846698206,6.177090871125021,1.0023784637451172,-4.4370532671557825
1708435648.0353732,-2.17104434967041,-1.3410119873336335,-2.518390480672018,6.177074658661642,1.0023380517959595,-4.4370564858066
1708435648.037373,-2.1710290908813477,-1.341046319609024,-2.518390480672018,6.177103030472555,1.0023499727249146,-4.437122766171591
1708435648.039364,-2.171052932739258,-1.341004179125168,-2.518362347279684,6.177086460381307,1.0023996829986572,-4.437118236218588
1708435648.0413568,-2.1710329055786133,-1.3410087388804932,-2.518398110066549,6.177090871125021,1.0023919343948364,-4.43710691133608
1708435648.04342,-2.171048641204834,-1.3410582405379792,-2.518406693135397,6.177106368332662,1.0024206638336182,-4.437077228222982
1708435648.045401,-2.1709907054901123,-1.341016412978508,-2.518418614064352,6.177147376328268,1.0024160146713257,-4.437098089848654
1708435648.047402,-2.1709837913513184,-1.3409743171981354,-2.518386189137594,6.177090871125021,1.002380132675171,-4.437109295521871
1708435648.0493827,-2.1710076332092285,-1.3410791021636506,-2.5184109846698206,6.177123653679647,1.0023666620254517,-4.437139097844259
1708435648.0513673,-2.171003818511963,-1.3409996789744874,-2.518365446721212,6.177132236748495,1.0024131536483765,-4.437056366597311
1708435648.0533817,-2.1710243225097656,-1.341028393512108,-2.518418614064352,6.177119242935934,1.0023829936981201,-4.437086049710409
1708435648.055367,-2.1709864139556885,-1.341008723979332,-2.518418614064352,6.177090871125021,1.0023589134216309,-4.4370684067355555
1708435648.0573738,-2.171016216278076,-1.3410075169852753,-2.5183938185321253,6.177107441216268,1.002408742904663,-4.4370564858066
1708435648.0593646,-2.171052932739258,-1.3410463494113465,-2.518381659184591,6.177103030472555,1.0023621320724487,-4.437109295521871
1708435648.061368,-2.1710329055786133,-1.3409997534802933,-2.518402401600973,6.177098738938131,1.002387523651123,-4.43712562719454
1708435648.0634193,-2.1710076332092285,-1.3410447102836152,-2.518378559743063,6.177074658661642,1.0024086236953735,-4.437089268361227
1708435648.0653858,-2.1710329055786133,-1.3409743768027802,-2.518390480672018,6.177111732750692,1.0023964643478394,-4.437040034924642
1708435648.0673938,-2.170999526977539,-1.3410087686828156,-2.518418614064352,6.177057373314657,1.0024250745773315,-4.437089268361227
1708435648.0694096,-2.1710081100463867,-1.3410537105849762,-2.51835805574526,6.177103030472555,1.0023996829986572,-4.437040034924642
1708435648.071398,-2.17095947265625,-1.3410087686828156,-2.518398110066549,6.177103030472555,1.0023424625396729,-4.437130276356832
1708435648.0733747,-2.170999526977539,-1.3410537552884598,-2.518390480672018,6.1770702479179285,1.002387523651123,-4.437072817479269
1708435648.0753903,-2.1710329055786133,-1.3410418641618271,-2.5184109846698206,6.177090036659994,1.002380132675171,-4.437060777341024
1708435648.0773795,-2.170999526977539,-1.3410041642240067,-2.518390480672018,6.177037465363302,1.0023454427719116,-4.437032524739401
1708435648.0794137,-2.1709794998168945,-1.3410492104342957,-2.5184360186206263,6.177139985352316,1.0024086236953735,-4.437113706265585
1708435648.0813901,-2.1710574626922607,-1.3410087388804932,-2.5183828512774866,6.177160370140829,1.0023634433746338,-4.437125746403829
1708435648.083409,-2.17104434967041,-1.3410253834775467,-2.5183938185321253,6.177090871125021,1.0023589134216309,-4.43705934682955
1708435648.0853908,-2.1709909439086914,-1.3409832876971741,-2.518386189137594,6.177107441216268,1.0024369955062866,-4.437060777341024
1708435648.0873716,-2.171041488647461,-1.3410283488086243,-2.518365446721212,6.177073585778036,1.0023711919784546,-4.4370532671557825
1708435648.0893703,-2.1710243225097656,-1.3410254281810303,-2.518369976674215,6.1770702479179285,1.0023499727249146,-4.437074128781454
1708435648.0913796,-2.1710076332092285,-1.3410119724324723,-2.518414322529928,6.177110659867086,1.002366542816162,-4.437097970639364
1708435648.093399,-2.1710286140441895,-1.3410254579833527,-2.518390480672018,6.177107441216268,1.0024369955062866,-4.4370564858066
1708435648.0953743,-2.1710205078125,-1.340987743144371,-2.5184393564807337,6.177127945214071,1.0023711919784546,-4.437138501797811
1708435648.0973701,-2.171048641204834,-1.3410254281810303,-2.518406693135397,6.177065956383505,1.0023711919784546,-4.437122646962301
1708435648.0993795,-2.1709794998168945,-1.3410567355206986,-2.51838189760317,6.177151667862692,1.002392053604126,-4.437109295521871
1708435648.101372,-2.1710329055786133,-1.3410238933614274,-2.5184109846698206,6.177107441216268,1.002380132675171,-4.437093559895651
1708435648.103396,-2.171003818511963,-1.3410131943276902,-2.518398110066549,6.177073585778036,1.002366542816162,-4.437086049710409
1708435648.1054049,-2.1710572242736816,-1.3410087537816544,-2.518381659184591,6.177107441216268,1.0024250745773315,-4.4370564858066
1708435648.1073947,-2.1709909439086914,-1.3410119724324723,-2.5184109846698206,6.17707787731246,1.0023576021194458,-4.437109295521871
1708435648.1093733,-2.171003818511963,-1.3410791915706177,-2.518398110066549,6.177103030472555,1.0023784637451172,-4.437065307294027
1708435648.1113732,-2.1709794998168945,-1.3410462898067017,-2.518414322529928,6.177139866143026,1.002413272857666,-4.437102500592367
1708435648.1133742,-2.17104434967041,-1.3410537105849762,-2.51838189760317,6.17713879325942,1.0024160146713257,-4.437113706265585
1708435648.115389,-2.1709213256835938,-1.3410042387298127,-2.518398110066549,6.17714415767745,1.0024131536483765,-4.437097970639364
1708435648.1173804,-2.1710205078125,-1.3410164427808304,-2.518378559743063,6.177126872330465,1.0024176836013794,-4.437109295521871
1708435648.119373,-2.1710205078125,-1.3410418790629883,-2.518418614064352,6.177135455399313,1.0023829936981201,-4.437121454869406
1708435648.1213768,-2.171003818511963,-1.3410087388804932,-2.5183892885791224,6.177147376328268,1.0024042129516602,-4.437122646962301
1708435648.1233685,-2.1710329055786133,-1.3410537105849762,-2.518369976674215,6.177126872330465,1.0024296045303345,-4.4370697180377405
1708435648.125405,-2.1709909439086914,-1.3410087090781708,-2.518418852482931,6.177143084793844,1.002375602722168,-4.437109295521871
1708435648.1273746,-2.1710076332092285,-1.3410328042558213,-2.5183611551867884,6.177103030472555,1.002349853515625,-4.437089268361227
1708435648.1294115,-2.171037197113037,-1.3410671812346955,-2.518378559743063,6.177126872330465,1.0023829936981201,-4.437065188084738
1708435648.1313806,-2.1709952354431152,-1.3409952533296128,-2.518402401600973,6.177101957588949,1.002387523651123,-4.437093559895651
1708435648.1334045,-2.170988082885742,-1.3410283488086243,-2.518378559743063,6.177119242935934,1.0023996829986572,-4.437093559895651
1708435648.1353652,-2.1710076332092285,-1.3410283339074631,-2.518369976674215,6.177147376328268,1.0024369955062866,-4.437097970639364
1708435648.1373737,-2.171048641204834,-1.3410328489593049,-2.518406693135397,6.17711495140151,1.0023919343948364,-4.437121335660116
1708435648.1393623,-2.1710329055786133,-1.3409832429936905,-2.518353525792257,6.177175509720602,1.0024176836013794,-4.437116805707113
1708435648.1413739,-2.1710205078125,-1.3410373044065018,-2.518398110066549,6.177175628929891,1.002375602722168,-4.437072936688558
1708435648.1433926,-2.171037197113037,-1.341074676518776,-2.518402401600973,6.177106249123373,1.0024042129516602,-4.437121335660116
1708435648.1453686,-2.1710081100463867,-1.341004179125168,-2.518369976674215,6.177155363350668,1.002392053604126,-4.437091414128439
1708435648.1473596,-2.1709752082824707,-1.3410611909678956,-2.5184109846698206,6.177163946419515,1.002387523651123,-4.437089268361227
1708435648.1493855,-2.1710357666015625,-1.3410536807826539,-2.5183990637408655,6.17711495140151,1.0023919343948364,-4.4370564858066
1708435648.1513762,-2.1710329055786133,-1.3410418790629883,-2.518378559743063,6.177097666054525,1.0024042129516602,-4.437116924916403
1708435648.153387,-2.1709952354431152,-1.3410372746041794,-2.518365446721212,6.1770691750343225,1.002387523651123,-4.437105003987448
1708435648.15536,-2.1710119247436523,-1.3409923625043412,-2.5184479395495813,6.17710970619277,1.002375602722168,-4.437080208455221
1708435648.1573977,-2.171003818511963,-1.3410447996905823,-2.51835805574526,6.177134382515707,1.0024487972259521,-4.437107865010397
1708435648.1593719,-2.171048641204834,-1.3410041642240067,-2.5184360186206263,6.1771596548850916,1.0024250745773315,-4.437100593243734
1708435648.161383,-2.1710574626922607,-1.3410628002933045,-2.51838189760317,6.1771596548850916,1.002387523651123,-4.437084738408224
1708435648.1634018,-2.1709749698638916,-1.3410537105849762,-2.518386189137594,6.177171218186178,1.002387523651123,-4.437105003987448
1708435648.1653898,-2.1709752082824707,-1.3411003363183518,-2.51838189760317,6.17713879325942,1.0023996829986572,-4.437105003987448
1708435648.1674063,-2.1710572242736816,-1.3409713965705414,-2.518386189137594,6.177073466568746,1.0023919343948364,-4.437116924916403
1708435648.1694207,-2.1709909439086914,-1.3410463494113465,-2.5184152762042444,6.177168237953939,1.0024206638336182,-4.437145773564474
1708435648.1714358,-2.1709952354431152,-1.341065601711609,-2.5183947722064417,6.177081453591146,1.0024160146713257,-4.437121454869406
1708435648.1734102,-2.17104434967041,-1.3410656613162537,-2.518365446721212,6.177150952606954,1.002396583557129,-4.437166754399435
1708435648.1753995,-2.171041488647461,-1.341008723979332,-2.518369976674215,6.177192795067587,1.0023952722549438,-4.437086884175436
1708435648.1774185,-2.1710243225097656,-1.3410086941770096,-2.5184229055987757,6.177126872330465,1.0023996829986572,-4.437100474034445
1708435648.17938,-2.17104434967041,-1.3410131943276902,-2.5183611551867884,6.17711495140151,1.0023952722549438,-4.437129322682516
1708435648.1813736,-2.1709792613983154,-1.341028393512108,-2.518406693135397,6.177151787071981,1.0024160146713257,-4.437124792729513
1708435648.1833913,-2.171016216278076,-1.3409698170474549,-2.518369976674215,6.17714415767745,1.0023952722549438,-4.437086884175436
1708435648.1853864,-2.170988082885742,-1.341016412978508,-2.518410030995504,6.17707787731246,1.0023863315582275,-4.43711227575411
1708435648.1875064,-2.1710205078125,-1.3410536807826539,-2.518406693135397,6.177148568421163,1.0023740530014038,-4.437145773564474
1708435648.189363,-2.1710290908813477,-1.3410582554391404,-2.518418614064352,6.177127945214071,1.002402663230896,-4.437075678502218
1708435648.191402,-2.171024799346924,-1.3410075020841141,-2.5184274355517786,6.177078950196066,1.0024279356002808,-4.437138501797811
1708435648.1934025,-2.170985460281372,-1.3409968179515381,-2.5184229055987757,6.176993953972616,1.002407193183899,-4.437153164540426
1708435648.1953592,-2.1709766387939453,-1.3410418790629883,-2.518398110066549,6.177002537041464,1.0024354457855225,-4.437194887791769
1708435648.1973634,-2.1709630489349365,-1.3410492104342957,-2.518402401600973,6.177011239319601,1.0024610757827759,-4.437105003987448
1708435648.1993616,-2.170943021774292,-1.3410372895053406,-2.518410030995504,6.176913487702169,1.0024521350860596,-4.437125746403829
1708435648.2014177,-2.1709272861480713,-1.3410417896560212,-2.518430534993307,6.176983105927267,1.002488136291504,-4.437116924916403
1708435648.2033882,-2.1709446907043457,-1.3410299283317109,-2.518402401600973,6.176885115891256,1.0024669170379639,-4.437124792729513
1708435648.2053607,-2.170891284942627,-1.3410299879363556,-2.518409792576925,6.176919805794515,1.0024714469909668,-4.437125746403829
1708435648.2073846,-2.1709041595458984,-1.341029943232872,-2.518418852482931,6.1768544791038416,1.0025330781936646,-4.437157694493429
1708435648.2093651,-2.170917272567749,-1.3409640055945893,-2.518451515828268,6.17678593376235,1.002479076385498,-4.437133971844808
1708435648.2113748,-2.170872211456299,-1.340975971227028,-2.518430534993307,6.176758634835043,1.0025240182876587,-4.437116924916403
1708435648.2134333,-2.170867919921875,-1.340926782493927,-2.518463198338644,6.176726925164022,1.002482295036316,-4.437127772961752
1708435648.2153778,-2.170815944671631,-1.3409267526916047,-2.5184384028064173,6.17664526680068,1.002494215965271,-4.437133971844808
1708435648.2173777,-2.170815944671631,-1.3409238022616883,-2.5183938185321253,6.176668274193563,1.0025808811187744,-4.437121335660116
1708435648.2193618,-2.1708006858825684,-1.3409507733634491,-2.518402401600973,6.176535355835714,1.0025436878204346,-4.4371413628207605
1708435648.2213902,-2.1707401275634766,-1.340905712251999,-2.518426243458883,6.176502811699667,1.0025675296783447,-4.437121454869406
1708435648.2233803,-2.170753002166748,-1.3408681017211457,-2.518388811741964,6.176381695061483,1.0025752782821655,-4.437138501797811
1708435648.225377,-2.170736312866211,-1.3408725720695038,-2.5184503237353724,6.176323044091024,1.0025707483291626,-4.437150422726766
1708435648.2274034,-2.1707465648651123,-1.3408160370639344,-2.5184503237353724,6.176274764328756,1.0025944709777832,-4.437109295521871
1708435648.2293744,-2.1706690788269043,-1.3408904534629364,-2.51844293275942,6.176138865738668,1.002677321434021,-4.437147323285238
1708435648.2313654,-2.1706128120422363,-1.3408339333585282,-2.5184879938708704,6.1760549423988245,1.0026471614837646,-4.437060658131735
1708435648.2333925,-2.17061710357666,-1.340842844252922,-2.5184863249408167,6.175974118500509,1.0026757717132568,-4.43710703054537
1708435648.2353647,-2.1705641746520996,-1.340772570376732,-2.5185354391681116,6.175910818367758,1.002732753753662,-4.437060777341024
1708435648.2374144,-2.1705374717712402,-1.3407516044429322,-2.518522326146261,6.175770866661825,1.002732753753662,-4.437081638966696
1708435648.2393801,-2.170473098754883,-1.3408191216043015,-2.518571201954977,6.175716268807211,1.0027281045913696,-4.437090579663412
1708435648.241374,-2.170501708984375,-1.3407505762628098,-2.5185094515429896,6.175596225052633,1.002797245979309,-4.437078658734457
1708435648.2434013,-2.170417308807373,-1.3407829713872452,-2.518534247075216,6.175439584046163,1.0027881860733032,-4.436980191861288
1708435648.245367,-2.170393466949463,-1.340692089205124,-2.518562618886129,6.175352442055502,1.002816915512085,-4.436940137539999
1708435648.2474003,-2.1703457832336426,-1.3406768900207062,-2.518590752278463,6.175183641701498,1.0028438568115234,-4.436965409909384
1708435648.2494066,-2.1702699661254883,-1.3407190156034012,-2.5186267534839075,6.174998271256246,1.0029056072235107,-4.437004391347067
1708435648.2513704,-2.170208215713501,-1.3406363439610978,-2.518650833760397,6.174924242287435,1.0028876066207886,-4.436930720006124
1708435648.2533844,-2.1701607704162598,-1.3406292659095307,-2.5186224619494837,6.174743401795187,1.0029488801956177,-4.436890904103414
1708435648.2553673,-2.1701626777648926,-1.340609924202301,-2.518674675618307,6.174567091255941,1.002984642982483,-4.436902825032369
1708435648.2574031,-2.170102834701538,-1.340638206606247,-2.5186618010150355,6.174443948059835,1.0029836893081665,-4.436846200619833
1708435648.2593951,-2.170018196105957,-1.3405452829650422,-2.5186660925494593,6.174316513329305,1.0030945539474487,-4.436809960995809
1708435648.2613535,-2.1699378490448,-1.3405947995236893,-2.5186944643603724,6.174194443016805,1.0030810832977295,-4.436786715184347
1708435648.2634158,-2.169935703277588,-1.3405128431371232,-2.5187512079821985,6.173972356110372,1.0031383037567139,-4.43679124513735
1708435648.2653737,-2.169830799102783,-1.3405263137868424,-2.518766228352682,6.173801171570577,1.0031293630599976,-4.436771694813864
1708435648.2673845,-2.1696979999542236,-1.3405143034509202,-2.518798891698019,6.173678147583761,1.0031440258026123,-4.436719004307882
1708435648.269365,-2.1696536540985107,-1.3405110997012635,-2.518789593373434,6.1734646437461755,1.0032039880752563,-4.436686817799703
1708435648.2713623,-2.1696102619171143,-1.3404198002866288,-2.518845860158102,6.173335063248434,1.003253698348999,-4.436631027852194
1708435648.2734,-2.1695432662963867,-1.3404751133969803,-2.518841568623678,6.173097717552938,1.0032761096954346,-4.436591450368063
1708435648.2754002,-2.169447660446167,-1.340442256336548,-2.518935267125265,6.172950494080343,1.0033001899719238,-4.436550561581747
1708435648.2774029,-2.1693472862243652,-1.340402053003647,-2.5188940207110804,6.172722804337301,1.0033783912658691,-4.43658942381014
1708435648.279376,-2.169222354888916,-1.3403871667436142,-2.518916908894674,6.172519314080038,1.0033468008041382,-4.43648869196047
1708435648.281373,-2.1692121028900146,-1.3403794926455994,-2.5189242998706263,6.172250139504232,1.0033918619155884,-4.4363911787616175
1708435648.2834268,-2.169059991836548,-1.3403348338655015,-2.5189812819110315,6.172027098923483,1.0035148859024048,-4.436488215123312
1708435648.2853973,-2.168933868408203,-1.3403602105430146,-2.5190792719470423,6.171794998436727,1.003532886505127,-4.436422530804769
1708435648.2874055,-2.1688120365142822,-1.3402958077243348,-2.5190661589251917,6.171543228417196,1.0035808086395264,-4.43633753458132
1708435648.289389,-2.168682813644409,-1.3403002482703705,-2.5191226641284388,6.171279775887289,1.003661870956421,-4.436207834874288
1708435648.2914114,-2.1686089038848877,-1.3402674806169053,-2.519142214451925,6.171092021256246,1.0037142038345337,-4.4362019936191
1708435648.293437,-2.1685330867767334,-1.3401777756265183,-2.5191577116595667,6.170816886215963,1.0037819147109985,-4.436207954083578
1708435648.2954226,-2.168370008468628,-1.3402001720717927,-2.519177261983053,6.170551049500265,1.0038479566574097,-4.436085764561788
1708435648.2974126,-2.1682863235473633,-1.3401809197715302,-2.519209686909811,6.17028962352828,1.0038855075836182,-4.436033550892965
1708435648.299382,-2.168133497238159,-1.3400657934001465,-2.5192416349994105,6.17001353481368,1.00391685962677,-4.436027113591329
1708435648.3013685,-2.167982339859009,-1.3400926750949402,-2.5192697683917444,6.169697034149923,1.0040432214736938,-4.435967985783712
1708435648.3033812,-2.1678578853607178,-1.3399731677821656,-2.5192766825305384,6.16946159580306,1.004106044769287,-4.435890499745504
1708435648.3053908,-2.167710542678833,-1.3400205683759232,-2.5193613211261194,6.16915916183547,1.004170536994934,-4.4358771483050745
1708435648.3073785,-2.1675589084625244,-1.3399430823377152,-2.519413773213522,6.168963897019186,1.0042591094970703,-4.435804311429159
1708435648.3093789,-2.167440176010132,-1.3399475675872345,-2.51945406595339,6.168664204865255,1.0043359994888306,-4.435769383107321
1708435648.3113782,-2.1672592163085938,-1.3398622882417222,-2.5194779078113,6.168328034668722,1.0043748617172241,-4.43568188348879
1708435648.313407,-2.1671857833862305,-1.339889333849289,-2.5195139090167444,6.167988288193502,1.0044304132461548,-4.435592714940206
1708435648.31538,-2.1670093536376953,-1.3398565214923401,-2.5195661226855677,6.167583930283346,1.0044965744018555,-4.435499374066488
1708435648.317408,-2.1668241024017334,-1.3398085695556183,-2.519597832356588,6.1672648070152185,1.0045868158340454,-4.435526434575216
1708435648.3193815,-2.1666972637176514,-1.3397744309953232,-2.5197187105761927,6.166913020401754,1.0046995878219604,-4.435487810765402
1708435648.3214028,-2.1665117740631104,-1.339712993507721,-2.5197342077838343,6.166562187462606,1.0047718286514282,-4.435369912778036
1708435648.323384,-2.1663901805877686,-1.3397097748569031,-2.519728724156515,6.166169035225668,1.0048649311065674,-4.435298506413595
1708435648.32538,-2.1662139892578125,-1.3395871084979554,-2.519822422658102,6.1658434746559045,1.0049116611480713,-4.435205523167745
1708435648.3274238,-2.1660616397857666,-1.339593307381012,-2.5198214689837855,6.165482985764303,1.0049670934677124,-4.435185257588522
1708435648.3293939,-2.1659140586853027,-1.3395697933486481,-2.519897524510519,6.165143954544821,1.0050917863845825,-4.435107771550314
1708435648.3314078,-2.165750503540039,-1.339512513285019,-2.5199454466449183,6.164726602822103,1.005188226699829,-4.4349990526782435
1708435648.333428,-2.1656277179718018,-1.3394529980472107,-2.5200143496142786,6.164396631508627,1.0053142309188843,-4.434948269520895
1708435648.3353958,-2.1654272079467773,-1.339457468395569,-2.5199957529651087,6.164078581124105,1.005347490310669,-4.4348934332477015
1708435648.337445,-2.165276288986206,-1.339393065576889,-2.520118061696188,6.163539397507467,1.0055348873138428,-4.434844915066854
1708435648.3393953,-2.165117025375366,-1.339377911095955,-2.520182196293966,6.163172590523519,1.0055893659591675,-4.434774223958151
1708435648.3413992,-2.1649746894836426,-1.33933478713546,-2.5202346483813685,6.162850844651022,1.005692720413208,-4.434707109128134
1708435648.3433905,-2.16471266746521,-1.3392570179751893,-2.520262066517965,6.162463176041403,1.0057817697525024,-4.434634987507955
1708435648.3453887,-2.164586305618286,-1.3392018687776108,-2.520273033772604,6.162104832917013,1.0058687925338745,-4.434533659611837
1708435648.3473904,-2.164395332336426,-1.3391777735999604,-2.520325009022848,6.161627638130941,1.0060023069381714,-4.4345038572894495
1708435648.3493693,-2.164238929748535,-1.339153991346695,-2.5204549471484583,6.161240207939901,1.0060698986053467,-4.434427801762716
1708435648.3513882,-2.1640491485595703,-1.3391181987575074,-2.520470205937521,6.16082929351882,1.006206750869751,-4.434356276188986
1708435648.3533885,-2.163851261138916,-1.3390536171248932,-2.5205259958850306,6.160335886269369,1.0063434839248657,-4.434301201497213
1708435648.3553991,-2.163649082183838,-1.3390685480884095,-2.520585600529806,6.1599663374717615,1.0064562559127808,-4.4341893831836146
1708435648.3573868,-2.163477659225464,-1.3389792007258912,-2.5206130186664026,6.159575807839193,1.0065346956253052,-4.434179011975424
1708435648.3593822,-2.163294553756714,-1.3388940256885071,-2.520742956792013,6.159077989846029,1.0066760778427124,-4.434058252965109
1708435648.3613782,-2.163081169128418,-1.338878796701767,-2.5207939783679407,6.158680307656088,1.0068382024765015,-4.433974806462423
1708435648.3634322,-2.1628854274749756,-1.33886110902343,-2.5208421389209192,6.158298122673788,1.006929636001587,-4.433928672467367
1708435648.3653624,-2.162682056427002,-1.338750348692276,-2.520881477986471,6.157853472023763,1.0070244073867798,-4.433820072804586
1708435648.3673728,-2.1625282764434814,-1.3387442988208313,-2.5209534803973597,6.157398450165548,1.0071295499801636,-4.433780495320455
1708435648.3693728,-2.162304162979126,-1.3386441481164475,-2.5210426489459437,6.156961428910055,1.0071957111358643,-4.433749262486593
1708435648.3713853,-2.1621038913726807,-1.338632271890976,-2.5211015383349817,6.156531202584066,1.0073204040527344,-4.433683578168051
1708435648.373397,-2.1618757247924805,-1.3385726672462006,-2.5211530367480677,6.156014549523153,1.0074453353881836,-4.433549706135885
1708435648.375352,-2.161672830581665,-1.3385379624417801,-2.521237913762228,6.155608522682943,1.0075160264968872,-4.433518234883444
1708435648.3773792,-2.161435842514038,-1.338472382431366,-2.5212653318988245,6.155157673149862,1.0076615810394287,-4.433406654988424
1708435648.379364,-2.1613190174102783,-1.338375524883606,-2.5213897863971155,6.154722678452291,1.0078028440475464,-4.433347050343649
1708435648.381364,-2.1611061096191406,-1.3383873266032715,-2.52142578760256,6.15420542934493,1.0079154968261719,-4.433242623006002
1708435648.3834157,-2.1609394550323486,-1.3382972341826935,-2.5214725176440638,6.153729545861044,1.0079983472824097,-4.433171097432272
1708435648.385381,-2.160702705383301,-1.3382212084582825,-2.521578375493185,6.153332102089681,1.00814688205719,-4.433116022740499
1708435648.387395,-2.160532236099243,-1.3382015985301514,-2.5216010252581995,6.152979004174032,1.0082792043685913,-4.4330437819110315
1708435648.3893905,-2.1602964401245117,-1.338162974720337,-2.521681849156515,6.152466881066122,1.0083425045013428,-4.4329440037356775
1708435648.391387,-2.160125732421875,-1.3380748194507142,-2.52174956003298,6.151933538704672,1.008470058441162,-4.432847205792562
1708435648.3933806,-2.1598477363586426,-1.338031367664673,-2.521862808858053,6.151506173401632,1.008620262145996,-4.432768408452169
1708435648.3953514,-2.159661054611206,-1.337912605409958,-2.521881643925802,6.1510435221488855,1.0086866617202759,-4.432748023663656
1708435648.3973756,-2.1595189571380615,-1.3379194748452683,-2.5219622294055384,6.150583970337667,1.0088520050048828,-4.432650629674093
1708435648.3993874,-2.1592507362365723,-1.3378389936736603,-2.5219808260547083,6.150095808296957,1.0089765787124634,-4.432564202939169
1708435648.4013546,-2.1590917110443115,-1.3378075820258637,-2.522069279347555,6.1496373293693445,1.0091179609298706,-4.43254536787142
1708435648.4033778,-2.158916473388672,-1.3377727580121537,-2.5221288839923304,6.149157392769613,1.009224534034729,-4.432416502629415
1708435648.4053757,-2.1586673259735107,-1.3376550090364,-2.522196594868795,6.148731219559469,1.0093824863433838,-4.432403270398275
1708435648.4073713,-2.158496618270874,-1.3376248639873047,-2.5222447554217737,6.148255336075582,1.00950288772583,-4.43225592771639
1708435648.4093893,-2.158256769180298,-1.3375681352666398,-2.5223375002490442,6.147771703987875,1.0096138715744019,-4.432246748601095
1708435648.4113579,-2.158109188079834,-1.337529258137085,-2.522381369267599,6.147378074913778,1.0097461938858032,-4.432130757962362
1708435648.413385,-2.15789794921875,-1.3374193024686356,-2.5224488417254847,6.1468615410621545,1.0098739862442017,-4.432082835827963
1708435648.4154394,-2.1576621532440186,-1.337405116563179,-2.522522274647848,6.146381723671713,1.0099989175796509,-4.431986872349874
1708435648.4173632,-2.1575074195861816,-1.3372965169003983,-2.5226226488696497,6.145959126740255,1.0101191997528076,-4.431899611149923
1708435648.4193738,-2.1573007106781006,-1.3372976791909714,-2.5226169268237513,6.14552782753066,1.0102425813674927,-4.4319050947772425
1708435648.4213674,-2.157121419906616,-1.3372262430242081,-2.522726360951559,6.145076620369711,1.0103596448898315,-4.431740347539083
1708435648.4233837,-2.156892776489258,-1.3371945184520264,-2.5227728525744837,6.144661652832784,1.0105036497116089,-4.43173867860903
1708435648.4254112,-2.156644105911255,-1.3370814633420487,-2.522829834614889,6.144221532135763,1.0105578899383545,-4.431653920804159
1708435648.427371,-2.1564488410949707,-1.3370791983655472,-2.5229063669787806,6.143746483116903,1.0106796026229858,-4.43154496351351
1708435648.4293756,-2.15627121925354,-1.3369855296662827,-2.5229783693896692,6.143241512566366,1.0108165740966797,-4.431481901799337
1708435648.4313922,-2.1560540199279785,-1.336974860434868,-2.5230217615710657,6.142925250321188,1.0109487771987915,-4.431386534367697
1708435648.433403,-2.1558749675750732,-1.3368855577758332,-2.5231102148639124,6.142498004227438,1.011061429977417,-4.431352202092306
1708435648.4354002,-2.1557047367095947,-1.3369042736342927,-2.523146454487936,6.142115819245138,1.0111558437347412,-4.431243483220236
1708435648.4373717,-2.1555211544036865,-1.3368563962033768,-2.5232349077807825,6.141670453339376,1.011276125907898,-4.431188289319174
1708435648.439364,-2.155374526977539,-1.3367432814887543,-2.523261610661642,6.141287910729208,1.0113801956176758,-4.431121293698446
1708435648.4413733,-2.1551616191864014,-1.3366705936244507,-2.5233667532550257,6.140839564591207,1.011570692062378,-4.4310893456088465
1708435648.4433897,-2.154930353164673,-1.3366912466338654,-2.5234056154834192,6.14037977436141,1.0116323232650757,-4.4310259262668055
1708435648.4453712,-2.154803514480591,-1.336598501806595,-2.523449246083395,6.139920460968771,1.0117542743682861,-4.430926028882162
1708435648.4474025,-2.1545803546905518,-1.33658783257518,-2.523492399846212,6.139493095665731,1.0118340253829956,-4.4308547417270105
1708435648.44939,-2.154376268386841,-1.336507261996605,-2.52351957956423,6.139025795250692,1.0119874477386475,-4.430810634289877
1708435648.4513984,-2.1541476249694824,-1.3365007203868409,-2.5236666838275355,6.138549554138937,1.0120036602020264,-4.430689875279562
1708435648.4533978,-2.154022216796875,-1.3364398640445252,-2.523684565220968,6.138170707016744,1.0121254920959473,-4.430675808583395
1708435648.4553652,-2.1538259983062744,-1.3364082288793107,-2.5237701574908655,6.137747871666708,1.0122349262237549,-4.4305917660342615
1708435648.4574013,-2.153636932373047,-1.336385966544487,-2.523792568837301,6.137397277146139,1.0123555660247803,-4.430556718503134
1708435648.4593842,-2.1534955501556396,-1.3363205057433625,-2.5238614718066614,6.137055146485128,1.0124425888061523,-4.430505339299337
1708435648.461358,-2.1533234119415283,-1.3362518411925812,-2.523921553288595,6.1365816471870325,1.0125458240509033,-4.430389110242025
1708435648.4634125,-2.153144121170044,-1.3362126511386414,-2.5239771048175257,6.136206733971395,1.0126516819000244,-4.430314366017477
1708435648.465394,-2.1529312133789062,-1.3361963641694565,-2.5240655581103724,6.135779726296224,1.0127432346343994,-4.430293862019674
1708435648.4674084,-2.1528213024139404,-1.3361619424870987,-2.5240939299212855,6.135392057686605,1.0128196477890015,-4.430257980023519
1708435648.4693844,-2.1525685787200928,-1.3361718517592927,-2.524128500615255,6.135045516281881,1.0129356384277344,-4.430193964635031
1708435648.4713702,-2.1523900032043457,-1.3360779297402878,-2.5241718927966517,6.134622084885397,1.0130317211151123,-4.4301223198520105
1708435648.4734073,-2.1522457599639893,-1.336062805061676,-2.524228874837057,6.134229767113485,1.0131112337112427,-4.430079166089193
1708435648.4754496,-2.1520535945892334,-1.3360192638686677,-2.5242725054370325,6.133825528412618,1.0132073163986206,-4.430043403302328
1708435648.4773967,-2.1518852710723877,-1.335896523003914,-2.52431565919985,6.133410322457113,1.0133082866668701,-4.429946486149923
1708435648.4793882,-2.1517562866210938,-1.3359668862870713,-2.5243802706347864,6.133125412255087,1.0133880376815796,-4.429916087781088
1708435648.4813654,-2.151522636413574,-1.3358538311770936,-2.524499003087179,6.132741081505575,1.0135092735290527,-4.429908816014425
1708435648.4833894,-2.151400327682495,-1.3357812327197571,-2.5245512167560022,6.132353412895956,1.013522982597351,-4.429807249699728
1708435648.4853718,-2.1512579917907715,-1.3358062368682404,-2.524540726338522,6.132039415627279,1.0136404037475586,-4.4298298994647425
1708435648.4874282,-2.151048421859741,-1.3357833635858078,-2.5246008078204554,6.13164650180892,1.0137245655059814,-4.429778162633077
1708435648.4893897,-2.1509335041046143,-1.335763843064644,-2.5246532599078577,6.131307470589437,1.0137829780578613,-4.4297136704074305
1708435648.491373,-2.1507341861724854,-1.3357280802777787,-2.524668280278341,6.130992877274313,1.01387619972229,-4.429710690175192
1708435648.493446,-2.150573492050171,-1.335662619476654,-2.5247419516192835,6.130636322289266,1.013965129852295,-4.429613773022787
1708435648.4953783,-2.150369882583618,-1.3356603395989914,-2.524752203618185,6.130284893303671,1.0140085220336914,-4.429639045392172
1708435648.4974034,-2.1501975059509277,-1.3355952215245743,-2.5248048941241663,6.129953133850851,1.0141347646713257,-4.429551307355062
1708435648.4993806,-2.150038719177246,-1.3356249791434784,-2.5248406569110315,6.129623162537374,1.014190673828125,-4.429518405591146
1708435648.5013769,-2.149890899658203,-1.335523859863617,-2.524930779133932,6.12921820858077,1.0142744779586792,-4.429487768803732
1708435648.5034049,-2.149691104888916,-1.3355250221541901,-2.52491265932192,6.12889980056838,1.0143167972564697,-4.4294976631747645
1708435648.5053978,-2.149606227874756,-1.3354636293700715,-2.5249186197863978,6.128612863808431,1.0143765211105347,-4.429452959691183
1708435648.5073957,-2.149413824081421,-1.3354322922280808,-2.5250054041491907,6.128249394684591,1.0144774913787842,-4.429449741040365
1708435648.5093763,-2.149244546890259,-1.3354171526483078,-2.5250402132617396,6.1279334900672815,1.0145207643508911,-4.429359022771017
1708435648.511364,-2.149080991744995,-1.3353279691985627,-2.5251017252551478,6.12765787818984,1.0145857334136963,-4.429364983235494
1708435648.513403,-2.148926019668579,-1.3353279691985627,-2.525100294743673,6.12727831581191,1.0146293640136719,-4.429275576268331
1708435648.5153773,-2.14875864982605,-1.335283563738205,-2.5250986258136194,6.126970875054159,1.0147193670272827,-4.429256145154135
1708435648.5173955,-2.1485912799835205,-1.3352756363204499,-2.5252259413348597,6.126618730812826,1.014744758605957,-4.429311339055197
1708435648.5193837,-2.1484272480010986,-1.3352812093547364,-2.52521258989443,6.126311528473654,1.014835000038147,-4.429208461438314
1708435648.521404,-2.1482322216033936,-1.3352289211801072,-2.525219980870382,6.125945198326864,1.0148532390594482,-4.429224912320272
1708435648.5233972,-2.1480846405029297,-1.3352213662913819,-2.5252397696124476,6.125655877381124,1.0149701833724976,-4.4292383829699915
1708435648.5253716,-2.1478962898254395,-1.335193083887436,-2.525308672581808,6.1253323433692834,1.0149974822998047,-4.429241243992941
1708435648.527392,-2.1477372646331787,-1.3351780486157914,-2.5253282229052942,6.125016319542684,1.01507568359375,-4.429210011159078
1708435648.5293694,-2.1475419998168945,-1.3351245087436219,-2.5253639856921595,6.124676573067465,1.0151312351226807,-4.429214421902792
1708435648.531372,-2.1473488807678223,-1.335136429672577,-2.525400225316183,6.1242408631141565,1.0151748657226562,-4.4292054812060755
1708435648.5333967,-2.1471571922302246,-1.3351301115802308,-2.52541953722109,6.123945581703939,1.0152230262756348,-4.429210011159078
1708435648.5353744,-2.1469497680664062,-1.3350769144347687,-2.5254648367511194,6.123584973603048,1.0152349472045898,-4.4292383829699915
1708435648.5373793,-2.1468071937561035,-1.3350780767253418,-2.525519911442892,6.12333236911849,1.0152859687805176,-4.429217402135031
1708435648.5393775,-2.146615505218506,-1.3350780767253418,-2.525519911442892,6.122992503433981,1.0153355598449707,-4.429212991391317
1708435648.5413814,-2.1464169025421143,-1.3350527447513123,-2.5255394617663782,6.12258397319869,1.015424132347107,-4.429271165524618
1708435648.5433812,-2.146244525909424,-1.3350452047637482,-2.5256250540362757,6.1222771284873865,1.015451431274414,-4.429245773945944
1708435648.54541,-2.1460046768188477,-1.3350301545909424,-2.525606934224264,6.121999490052023,1.01544988155365,-4.429269615803854
1708435648.547399,-2.1458330154418945,-1.3350171160748978,-2.5256758371936243,6.1215929863746545,1.0155187845230103,-4.429330650960104
1708435648.5493882,-2.145662546157837,-1.3350170713714142,-2.5257182757007044,6.1212594387824915,1.015547513961792,-4.429277006779806
1708435648.5513961,-2.1454427242279053,-1.3350257885507126,-2.525703016911642,6.120892631798544,1.0156149864196777,-4.429350082074301
1708435648.553409,-2.1451916694641113,-1.3350715351155777,-2.525747839604513,6.120496260910787,1.015660285949707,-4.429397765790121
1708435648.5553842,-2.1449027061462402,-1.335022361283638,-2.5258005301104944,6.120175587921896,1.0156872272491455,-4.4294989744769495
1708435648.5573761,-2.1447360515594482,-1.3350638908198853,-2.5258079210864466,6.119751441269674,1.0157325267791748,-4.429457370434896
1708435648.5593815,-2.1445090770721436,-1.3350432378104706,-2.52586800256838,6.119429456978597,1.0157967805862427,-4.429501239453451
1708435648.5614073,-2.14420747756958,-1.3349615049413224,-2.5259416739093226,6.118978249817648,1.0158286094665527,-4.429492060338156
1708435648.5634031,-2.143989086151123,-1.335022361283638,-2.5259252230273646,6.118628370552816,1.0158600807189941,-4.429573480282919
1708435648.5653982,-2.1437511444091797,-1.3350103509477158,-2.5259771982776087,6.118205654412069,1.015879511833191,-4.429564658795492
1708435648.5674145,-2.143437147140503,-1.3350179952434083,-2.5260043779956263,6.117774235993185,1.015923023223877,-4.429624144230978
1708435648.5693765,-2.1432063579559326,-1.335038961177208,-2.5260239283191126,6.117379772454061,1.0159801244735718,-4.429627243672506
1708435648.5714326,-2.142965316772461,-1.3349857491305848,-2.526048008595602,6.1169789908225916,1.0160043239593506,-4.429691855107443
1708435648.5733943,-2.142639398574829,-1.3350234490684052,-2.526067558919088,6.116510855942526,1.0160597562789917,-4.429752175007955
1708435648.5754082,-2.142380475997925,-1.3350103062442322,-2.526137653981344,6.116068351059713,1.0160887241363525,-4.429784361516134
1708435648.5774133,-2.142089605331421,-1.3350346100381394,-2.52614409128298,6.115621554642477,1.0161291360855103,-4.429822270070211
1708435648.5793822,-2.141815185546875,-1.3350464266589661,-2.526200834904806,6.115277755051412,1.016189455986023,-4.429898921643392
1708435648.5814207,-2.1415183544158936,-1.3350091886571427,-2.5262416044818323,6.114704954415121,1.0162252187728882,-4.429951016102926
1708435648.5833783,-2.141186475753784,-1.3350790005973359,-2.526242796574728,6.114204990654745,1.016181468963623,-4.430049482976095
1708435648.5856643,-2.14087176322937,-1.3350257885507126,-2.52627140680422,6.1137393591697595,1.016276240348816,-4.43018359342684
1708435648.5874038,-2.1405622959136963,-1.3350213927081604,-2.5263028780566614,6.113213526993551,1.0163036584854126,-4.430199925099508
1708435648.5893924,-2.140202283859253,-1.3350614619306107,-2.5263267199145716,6.112666833191671,1.0163739919662476,-4.430360619221823
1708435648.5914006,-2.139842987060547,-1.3350377094796677,-2.526407782231466,6.1121370671089075,1.0163935422897339,-4.430420462285177
1708435648.5933867,-2.1395113468170166,-1.3350780767253418,-2.5264151732074183,6.111597883492269,1.016411542892456,-4.430466715489523
1708435648.59537,-2.1391966342926025,-1.3350943487933655,-2.5264604727374476,6.11108814457015,1.0164536237716675,-4.430623118077413
1708435648.5973945,-2.138829231262207,-1.335101918583252,-2.526520315800802,6.110611545830526,1.0165256261825562,-4.430739466344015
1708435648.5993664,-2.138497829437256,-1.3351344925216218,-2.526494805012838,6.1100594876106165,1.016512155532837,-4.430840794240133
1708435648.6013577,-2.138098955154419,-1.3350812655738373,-2.5265923182116907,6.109569179802694,1.0165648460388184,-4.430928413067953
1708435648.6033804,-2.1377155780792236,-1.3351388436606904,-2.526660982762472,6.108970272331991,1.0165302753448486,-4.4311339298831385
1708435648.605374,-2.137328863143921,-1.3351955872825165,-2.5266597906695765,6.108359324723043,1.016625165939331,-4.431193176900045
1708435648.6074083,-2.136852264404297,-1.3351749342731019,-2.526707712803976,6.107795107155599,1.0166746377944946,-4.431380573903219
1708435648.609371,-2.1364266872406006,-1.3351157915643235,-2.5267227331744593,6.107107984810629,1.016701579093933,-4.431437198315756
1708435648.6114032,-2.135910987854004,-1.3351125878146668,-2.5268080870257776,6.106442558556356,1.0167828798294067,-4.431594435368673
1708435648.6134007,-2.1355526447296143,-1.3351736825755616,-2.526832405720846,6.105858194618978,1.016818881034851,-4.4318392912494105
1708435648.615394,-2.1350953578948975,-1.335186855202057,-2.5268831888781946,6.1052764532859705,1.0168218612670898,-4.4318968693362635
1708435648.6174376,-2.1346428394317627,-1.3352757555297394,-2.526928249989645,6.104605662613668,1.0167872905731201,-4.432015244160787
1708435648.619388,-2.1342246532440186,-1.3352670830539246,-2.526980702077047,6.103995549469747,1.0168895721435547,-4.432203714047567
1708435648.6214304,-2.133737564086914,-1.335233287220337,-2.527052942906515,6.103280412941732,1.0169181823730469,-4.432386819516317
1708435648.6234107,-2.133234977722168,-1.3352376532605668,-2.5270677248584192,6.102607238083639,1.0169495344161987,-4.432558361683981
1708435648.625381,-2.132749080657959,-1.3352856051972886,-2.5271201769458216,6.101852404862203,1.0170308351516724,-4.43268853822817
1708435648.6273983,-2.132153034210205,-1.3352780950120469,-2.527184549962179,6.100988018303671,1.0170668363571167,-4.432892505322592
1708435648.629369,-2.1316678524017334,-1.3352855306914826,-2.5272281805621546,6.1003668186958215,1.0170818567276,-4.433083240185873
1708435648.631384,-2.1311371326446533,-1.3353331548026581,-2.527304712926046,6.099560010224142,1.0170893669128418,-4.433269445096151
1708435648.6334167,-2.130615234375,-1.3353331697038193,-2.5273481051074427,6.0988478539283655,1.0171780586242676,-4.433455888425009
1708435648.6353772,-2.1300878524780273,-1.3353486073068161,-2.527400557194845,6.098052966385641,1.017230749130249,-4.433688823376791
1708435648.637408,-2.129483461380005,-1.3353486073068161,-2.5274890104876917,6.097333419113912,1.0172290802001953,-4.433833424245016
1708435648.639377,-2.128946542739868,-1.3354008954814454,-2.5275161902057093,6.096494900971212,1.0172698497772217,-4.4341129700290125
1708435648.6413662,-2.1282613277435303,-1.3353715252927323,-2.5275850931750696,6.0956787941749475,1.0173540115356445,-4.43428618112673
1708435648.643368,-2.127732992172241,-1.3354585629752656,-2.5276451746570032,6.094748246460714,1.0174533128738403,-4.434533540402548
1708435648.6453795,-2.127073287963867,-1.335473583345749,-2.5276885668383997,6.09385775306777,1.017504334449768,-4.434728805218832
1708435648.6474473,-2.1264209747314453,-1.33548458040271,-2.5278025309192103,6.092978465348043,1.017486333847046,-4.434943977986471
1708435648.6493762,-2.1258046627044678,-1.3355325025371094,-2.527820650731222,6.09203993061141,1.0175596475601196,-4.435177270566122
1708435648.6513824,-2.1252026557922363,-1.3354964715293427,-2.5278926531421106,6.091119277268209,1.017588496208191,-4.435430113469259
1708435648.6534164,-2.124467134475708,-1.3355813932469864,-2.527932945881979,6.090206968575277,1.0176228284835815,-4.4356481472598475
1708435648.6553726,-2.1238627433776855,-1.3355801862529297,-2.5279675165759485,6.089222180634298,1.0177037715911865,-4.435943309460775
1708435648.6574104,-2.1230781078338623,-1.3355758351138611,-2.52804404893984,6.0882290480430505,1.017740249633789,-4.436148468648092
1708435648.6593845,-2.1224372386932373,-1.3356443357518692,-2.5281577746020716,6.087187039643087,1.0178050994873047,-4.436451021824972
1708435648.6614065,-2.1216704845428467,-1.3356357675841828,-2.5281670729266565,6.086146938591757,1.0178033113479614,-4.436734739934103
1708435648.6634042,-2.1208674907684326,-1.335658223634102,-2.528247896824972,6.085059511452474,1.0178468227386475,-4.436982933674948
1708435648.6654196,-2.1201658248901367,-1.3357193183949967,-2.528310839329855,6.0839669583137415,1.0179522037506104,-4.437212888394491
1708435648.6674018,-2.1193621158599854,-1.3358051788857956,-2.528395954762594,6.082873689919271,1.0179882049560547,-4.43752903143038
1708435648.6693964,-2.1186163425445557,-1.335816205745079,-2.5284770170794886,6.081787812500753,1.0180526971817017,-4.437795583401815
1708435648.6714053,-2.117826461791992,-1.3358030331185837,-2.5284999052630823,6.080734360008993,1.0180917978286743,-4.4380486647235315
1708435648.673356,-2.1169698238372803,-1.3358192902854462,-2.528621260319845,6.079491960793295,1.0181442499160767,-4.438348237668173
1708435648.6753702,-2.1161465644836426,-1.3358922463706513,-2.5286884943591517,6.078332769661703,1.0182137489318848,-4.438729230557577
1708435648.677373,-2.1152212619781494,-1.3359433573535462,-2.5287728945361536,6.077132451325216,1.018281102180481,-4.438971583043234
1708435648.6793694,-2.1143736839294434,-1.3360358637622376,-2.528832499180929,6.075900780945577,1.0183489322662354,-4.439303223286764
1708435648.681361,-2.113494873046875,-1.3360302162221451,-2.5289374033557337,6.074628340988912,1.0183684825897217,-4.439662162457601
1708435648.683359,-2.112548351287842,-1.336107299929001,-2.5289750734912317,6.073372590332784,1.0184330940246582,-4.439942065869467
1708435648.6853604,-2.111666440963745,-1.336106316452362,-2.5290845076190394,6.072085487633505,1.0184149742126465,-4.440231982861654
1708435648.687383,-2.1107006072998047,-1.3361793470433732,-2.529173199330465,6.07081030586318,1.0185049772262573,-4.440579001103536
1708435648.6893878,-2.109815835952759,-1.3362344962409516,-2.5292423407184046,6.069538700371542,1.018593668937683,-4.440892759953634
1708435648.691396,-2.1088128089904785,-1.3362454932979126,-2.5292959848987024,6.068177211075582,1.0186164379119873,-4.441266600285665
1708435648.6933804,-2.1078193187713623,-1.3363335740617295,-2.529400889073507,6.066858756333151,1.0187019109725952,-4.441604677830831
1708435648.6953678,-2.106837749481201,-1.3363800656846543,-2.529430929814474,6.065421330719747,1.0187170505523682,-4.441947523747579
1708435648.6973782,-2.1057913303375244,-1.3364902895740052,-2.5295899550067347,6.064048039704122,1.018822431564331,-4.4422563950168055
1708435648.6993687,-2.1048309803009033,-1.3364847165397187,-2.5296321550952356,6.062646853714742,1.018886685371399,-4.442614022885458
1708435648.7013855,-2.103787422180176,-1.3365441721728821,-2.5297251383410853,6.061293828278341,1.0189093351364136,-4.442976776753561
1708435648.7034,-2.102750301361084,-1.3366584938815613,-2.529767100011007,6.059815752297201,1.0189907550811768,-4.443279329930441
1708435648.70539,-2.10163950920105,-1.3366857928088685,-2.5299094359027308,6.05838309505538,1.0190385580062866,-4.443650190030233
1708435648.7073762,-2.1006107330322266,-1.336790145640709,-2.5299230257617396,6.056858885079183,1.01905357837677,-4.443957749997274
1708435648.7093716,-2.099456787109375,-1.336783693437912,-2.5300233999835413,6.055324661522665,1.0191681385040283,-4.444340531026022
1708435648.7113888,-2.098339319229126,-1.336929367189743,-2.5301194826709192,6.053704011231222,1.0192281007766724,-4.444702688847677
1708435648.7133956,-2.097266435623169,-1.3370012056878586,-2.5302165190326136,6.052136647492208,1.0192925930023193,-4.445146028195516
1708435648.7153833,-2.096116781234741,-1.3369748306325455,-2.5303009192096155,6.050507533341207,1.0192819833755493,-4.4455183188067835
1708435648.717436,-2.0949764251708984,-1.337083564405777,-2.5303519407855433,6.048865067749777,1.0193679332733154,-4.445880357419149
1708435648.7194202,-2.0938916206359863,-1.337159664635994,-2.530435625706808,6.047293650894918,1.019394874572754,-4.446205679570333
1708435648.7213726,-2.092717170715332,-1.3372568500093003,-2.5304821173297327,6.045715200691976,1.0194294452667236,-4.44665509859194
1708435648.7233763,-2.091600179672241,-1.3373358410647889,-2.5305917898761194,6.044151890068807,1.019568920135498,-4.446979586278097
1708435648.7254033,-2.090458631515503,-1.3373988580754776,-2.5307088533984583,6.042573678284445,1.0195798873901367,-4.447475735341207
1708435648.727381,-2.0892415046691895,-1.3374925565770646,-2.530759874974386,6.04083679893569,1.0196113586425781,-4.447940651570455
1708435648.729376,-2.088064193725586,-1.3375753325274964,-2.5307775179492396,6.039253461151876,1.019680380821228,-4.448367420827047
1708435648.7313724,-2.0868465900421143,-1.3377002489617844,-2.5308948198901575,6.0375414965446375,1.019686222076416,-4.448721830044882
1708435648.7333922,-2.0855636596679688,-1.3377664399198075,-2.530996624623434,6.035863148957052,1.019750952720642,-4.449160758649008
1708435648.7353911,-2.0843682289123535,-1.3378701967052002,-2.531055275593893,6.03413354137496,1.0198397636413574,-4.449598614369528
1708435648.7374082,-2.08305287361145,-1.337976188664772,-2.5311482588397425,6.032462227135458,1.019887924194336,-4.449933830891744
1708435648.739396,-2.081854820251465,-1.3380299520543595,-2.531248394642965,6.030691134720602,1.0199027061462402,-4.45038885274996
1708435648.741398,-2.0806100368499756,-1.3381403547576447,-2.531320397053854,6.0290154097373865,1.0199480056762695,-4.450773898755209
1708435648.7433832,-2.0793209075927734,-1.3382374209216614,-2.5313385168658655,6.027287947922506,1.0199720859527588,-4.4511383215533655
1708435648.7453861,-2.078023672103882,-1.3383781176856537,-2.5314765612231653,6.025541412621298,1.0200202465057373,-4.45155114332308
1708435648.747402,-2.076704978942871,-1.3384573322585602,-2.531487051640646,6.023766863137045,1.0200231075286865,-4.451949659978048
1708435648.749405,-2.0753862857818604,-1.3385890436223526,-2.5315921942340296,6.02196882942275,1.0200668573379517,-4.452322546635763
1708435648.751365,-2.0740392208099365,-1.3386665445617218,-2.531696859990255,6.020072448044576,1.0201400518417358,-4.452781263981954
1708435648.7534041,-2.072720527648926,-1.3387907308391114,-2.531722609196798,6.01820586898879,1.020155429840088,-4.453211371098654
1708435648.7553835,-2.071331024169922,-1.3388938766768952,-2.5318079630481165,6.016371953278341,1.0202124118804932,-4.453583304082052
1708435648.7574167,-2.0699548721313477,-1.3390314441970368,-2.531884495412008,6.014599072724142,1.0202605724334717,-4.454038325940267
1708435648.7593694,-2.0686304569244385,-1.3391046685031434,-2.531996790562765,6.012799370079794,1.0202229022979736,-4.454377953206198
1708435648.7613664,-2.0673203468322754,-1.3392301213792344,-2.5320056120501917,6.010942327767172,1.020263433456421,-4.454821530972616
1708435648.7634065,-2.0658979415893555,-1.3393993985703965,-2.5321407953845423,6.009048449784078,1.0203087329864502,-4.455272499714987
1708435648.76538,-2.0644288063049316,-1.3394888204387208,-2.532149855290548,6.007120001107015,1.0203328132629395,-4.455627504979269
1708435648.767403,-2.0630648136138916,-1.339657799606659,-2.5322068373309534,6.005118477135458,1.0203312635421753,-4.4560784737216395
1708435648.7693684,-2.0615932941436768,-1.339801238184311,-2.532316033040182,6.00322579124526,1.0203882455825806,-4.456443254147665
1708435648.7713933,-2.060119152069092,-1.3399285984090348,-2.532379213963644,6.001197087555685,1.0203882455825806,-4.456893746052877
1708435648.7734003,-2.058725595474243,-1.3400508624366303,-2.5324602762805384,5.999318706780233,1.0204198360443115,-4.457261625920431
1708435648.7753747,-2.0572943687438965,-1.340173454289772,-2.5324962774859827,5.99739824512557,1.0204198360443115,-4.457714621220724
1708435648.777388,-2.0558841228485107,-1.3403585714152833,-2.5325427691089075,5.995438444405355,1.0204319953918457,-4.458084170018331
1708435648.779383,-2.054380178451538,-1.3404691082290192,-2.532590691243307,5.993463146477499,1.0204558372497559,-4.4586032072650355
1708435648.7813878,-2.052866220474243,-1.3406741929105301,-2.5326882044421595,5.991457927017965,1.020472526550293,-4.459008518849508
1708435648.7833927,-2.051337718963623,-1.3408652705005188,-2.532724444066183,5.989417421608724,1.020488977432251,-4.459405604993002
1708435648.785397,-2.049791097640991,-1.3409998428872605,-2.5327752272235315,5.9872567532356165,1.0204799175262451,-4.459843460713522
1708435648.787426,-2.048274040222168,-1.3411958825639267,-2.532835308705465,5.985211837082662,1.0205007791519165,-4.46022874513735
1708435648.7894106,-2.0467004776000977,-1.341367707853653,-2.532898012791769,5.983176100045004,1.02046799659729,-4.460670653973715
1708435648.7914073,-2.0451607704162598,-1.3415904951146622,-2.53296405473818,5.981106149941244,1.020477056503296,-4.461026136075155
1708435648.7934093,-2.0436668395996094,-1.3417411309531708,-2.532994095479147,5.97910891750411,1.0204395055770874,-4.461471621190206
1708435648.795383,-2.04213809967041,-1.3419743043235322,-2.5330632368670862,5.97701250293807,1.0204590559005737,-4.4619097153293055
1708435648.797406,-2.040522336959839,-1.342156783943512,-2.5330827871905726,5.975007641106405,1.0204395055770874,-4.462379757558004
1708435648.7993839,-2.0389211177825928,-1.342352495794632,-2.533163372670309,5.972860324173727,1.020477056503296,-4.462759081517355
1708435648.8013911,-2.037302017211914,-1.3425559562495728,-2.5332146326648157,5.970683204918661,1.0204647779464722,-4.4631269613849085
1708435648.8034,-2.0356502532958984,-1.3428069216063996,-2.5332146326648157,5.968610632210531,1.0205053091049194,-4.4636446873294275
1708435648.8053901,-2.034065008163452,-1.3430222135833283,-2.533295456563131,5.966515648155966,1.02046799659729,-4.463967982922689
1708435648.8074143,-2.032447576522827,-1.343261481528618,-2.5333152453051966,5.964425790100851,1.020472526550293,-4.464416567479269
1708435648.809423,-2.030795097351074,-1.3434408021024247,-2.53336745897402,5.962317335396566,1.0204484462738037,-4.464814845715658
1708435648.8113692,-2.0291757583618164,-1.3436454397490998,-2.5334320704089563,5.960189091950216,1.0204484462738037,-4.465323034917013
1708435648.8134236,-2.0275492668151855,-1.3439430755427857,-2.5333974997149866,5.9580222246940515,1.0204153060913086,-4.465649429951803
