Eg3-git/Classifiers/Data Collection/u3/u3cir3_ur3e_joint_states.csv
time,elbow_joint,shoulder_lift_joint,shoulder_pan_joint,wrist_1_joint,wrist_2_joint,wrist_3_joint
1708435885.76874,-2.1498396396636963,-1.334547535782196,-2.521928373967306,6.125934350281515,1.0088460445404053,-5.46598852077593
1708435885.7707374,-2.1497726440429688,-1.3344639253667374,-2.521919552479879,6.125725137978353,1.0089226961135864,-5.465939704571859
1708435885.7727757,-2.149664878845215,-1.334475429063179,-2.5219722429858606,6.125534403115072,1.0090398788452148,-5.465923074875967
1708435885.774734,-2.1495933532714844,-1.33452461779628,-2.5220540205584925,6.125350224762716,1.0091241598129272,-5.465961698685781
1708435885.776757,-2.14951753616333,-1.3344885271838685,-2.5220781008349817,6.125154244690695,1.0091915130615234,-5.46595281759371
1708435885.7787838,-2.1494176387786865,-1.3344769340804596,-2.522116009389059,6.125002968102255,1.0092185735702515,-5.4659199754344385
1708435885.7808244,-2.149369955062866,-1.3344928932240983,-2.522148672734396,6.124815571099081,1.0093317031860352,-5.465940598641531
1708435885.782781,-2.1492700576782227,-1.3344114881804963,-2.522162739430563,6.1245988486106775,1.0094126462936401,-5.465892020856039
1708435885.784735,-2.14912486076355,-1.3344083589366456,-2.5222535769092005,6.12444423416213,1.0094515085220337,-5.465953711663381
1708435885.7867596,-2.1490366458892822,-1.3343591851047059,-2.522313896809713,6.1242107031639,1.0095568895339966,-5.465914014969961
1708435885.7887359,-2.1489648818969727,-1.3344083589366456,-2.5223286787616175,6.124107467919149,1.0096410512924194,-5.4659462610827845
1708435885.7907424,-2.1488866806030273,-1.3343754720738907,-2.5223692099200647,6.123997556954183,1.009704351425171,-5.465921465550558
1708435885.7927399,-2.1488094329833984,-1.3343606752208252,-2.5224290529834192,6.123800265579977,1.009764313697815,-5.465950612221853
1708435885.794739,-2.1487841606140137,-1.3343738478473206,-2.5224903265582483,6.123622047692098,1.009803295135498,-5.46586919227709
1708435885.7967575,-2.1486656665802,-1.3343810004046937,-2.522456471120016,6.123437869339742,1.0099117755889893,-5.465869132672445
1708435885.7987335,-2.148573637008667,-1.3343290400556107,-2.522512976323263,6.1232643006141565,1.0100017786026,-5.46586919227709
1708435885.8007238,-2.1485395431518555,-1.3343497675708313,-2.5225611368762415,6.1231024143989465,1.0100650787353516,-5.4658247272120875
1708435885.802738,-2.148432731628418,-1.3343334806016465,-2.5226343313800257,6.12290500381545,1.0101954936981201,-5.46584660211672
1708435885.8047187,-2.1483986377716064,-1.3343172085336228,-2.5226779619800013,6.122818934708395,1.0102347135543823,-5.465812746678488
1708435885.8067489,-2.148305654525757,-1.3342711341432114,-2.5226853529559534,6.122626054077902,1.0102815628051758,-5.465830330048696
1708435885.8087332,-2.1481881141662598,-1.3342767518809815,-2.5227037111865442,6.122425544052877,1.0103580951690674,-5.465788547192709
1708435885.8107347,-2.1480703353881836,-1.3342886728099366,-2.5227368513690394,6.122257816582479,1.010451078414917,-5.46579742828478
1708435885.8127537,-2.14802885055542,-1.3342604649117966,-2.5227890650378626,6.122111308365621,1.0104899406433105,-5.465818051491873
1708435885.8147285,-2.147953987121582,-1.3342247021249314,-2.522825066243307,6.121967899590292,1.0105382204055786,-5.465761307870046
1708435885.8167555,-2.147869825363159,-1.3341473203948517,-2.522869888936178,6.121877658158102,1.0106358528137207,-5.465798679982321
1708435885.8187559,-2.1477725505828857,-1.334221602683403,-2.5229299704181116,6.121661412506857,1.010649561882019,-5.465749506150381
1708435885.820725,-2.1477103233337402,-1.334230290060379,-2.52293306985964,6.121476161270895,1.0107262134552002,-5.465782407914297
1708435885.822752,-2.1476545333862305,-1.3341855120709916,-2.5229526201831263,6.12141119220809,1.0107829570770264,-5.465762499962942
1708435885.8247366,-2.1476080417633057,-1.3341323000243683,-2.5230303446399134,6.121226298599996,1.010843276977539,-5.465734724198477
1708435885.826725,-2.147524118423462,-1.3341526103070755,-2.522979799901144,6.121054279595175,1.0108540058135986,-5.465718154107229
1708435885.828734,-2.147423267364502,-1.3341453832438965,-2.5230441729175013,6.120943653374471,1.0109262466430664,-5.465701822434561
1708435885.8307152,-2.147357225418091,-1.3340724569610138,-2.523135010396139,6.120841610222616,1.0110117197036743,-5.465706173573629
1708435885.8327382,-2.147217035293579,-1.3340930801681061,-2.5231578985797327,6.120644676476278,1.011071801185608,-5.465673629437582
1708435885.8347144,-2.1471996307373047,-1.3340602082065125,-2.523169819508688,6.1204672930534265,1.0111243724822998,-5.465682331715719
1708435885.8367755,-2.1470534801483154,-1.3340724569610138,-2.523205820714132,6.120353209763326,1.0112251043319702,-5.46564227739443
1708435885.8387265,-2.1470184326171875,-1.3340733808330079,-2.5232091585742396,6.120196807175436,1.01125967502594,-5.465637926255361
1708435885.8407314,-2.147001028060913,-1.334057093863823,-2.523191515599386,6.1201034663017175,1.0113364458084106,-5.465585533772604
1708435885.842757,-2.1469128131866455,-1.334040806894638,-2.5232730547534388,6.11996744850234,1.0113757848739624,-5.465637926255361
1708435885.8447256,-2.1468358039855957,-1.3340495389750977,-2.5233007113086146,6.119823920517721,1.0114234685897827,-5.465613667164938
1708435885.846753,-2.14674711227417,-1.3340168756297608,-2.5233455340014856,6.119652139931478,1.0114880800247192,-5.4656224886523646
1708435885.84874,-2.146733283996582,-1.3340080988458176,-2.5233410040484827,6.119508731156149,1.0115857124328613,-5.465598646794454
1708435885.8507297,-2.1466472148895264,-1.3340256971171875,-2.523400847111837,6.11938892582015,1.0116040706634521,-5.46558648744692
1708435885.8527398,-2.146641492843628,-1.3339811128428956,-2.523454729710714,6.1192571995551965,1.0116310119628906,-5.465614918862478
1708435885.8547394,-2.1465814113616943,-1.3340345186046143,-2.5234161059008997,6.119174825936117,1.011688232421875,-5.465574566517965
1708435885.8567545,-2.146496295928955,-1.333985523586609,-2.523484770451681,6.118997800141134,1.011781096458435,-5.4655537644969385
1708435885.8587286,-2.146448850631714,-1.3339361411384125,-2.523480478917257,6.118870603829183,1.011775255203247,-5.465537730847494
1708435885.8607216,-2.146409034729004,-1.3339079481414338,-2.5235701243029993,6.118737804680624,1.0117871761322021,-5.465550963078634
1708435885.8627298,-2.1463828086853027,-1.333986596470215,-2.5235734621631067,6.118664133339681,1.0118683576583862,-5.46556264558901
1708435885.8647308,-2.1462900638580322,-1.3339702498963852,-2.523568932210104,6.118581402092733,1.011888027191162,-5.465501550828115
1708435885.866768,-2.1462490558624268,-1.3339328628829499,-2.5235841909991663,6.118436920433798,1.0119521617889404,-5.465543274079458
1708435885.8687248,-2.1462228298187256,-1.3339417737773438,-2.523594919835226,6.11833022811965,1.0120007991790771,-5.465469960366384
1708435885.870733,-2.1461105346679688,-1.333925799732544,-2.5236616770373743,6.118230330735006,1.0120245218276978,-5.465531353150503
1708435885.8727448,-2.1461284160614014,-1.3339137595942994,-2.5236528555499476,6.118114101677694,1.0120444297790527,-5.465503040944235
1708435885.874726,-2.146013021469116,-1.3339094084552308,-2.523676935826437,6.11796926239089,1.01206374168396,-5.465519432221548
1708435885.8767636,-2.145991325378418,-1.3339314621737977,-2.5236950556384485,6.1179072735603235,1.0121327638626099,-5.465453628693716
1708435885.8787577,-2.145947217941284,-1.3338481050780793,-2.5237205664264124,6.117823469429769,1.0121328830718994,-5.465474490319387
1708435885.8807716,-2.14591646194458,-1.333919571047165,-2.523759667073385,6.117691027909078,1.0122004747390747,-5.465409044419424
1708435885.8827357,-2.1458349227905273,-1.333877758388855,-2.523796860371725,6.117571341782369,1.012229084968567,-5.465434316788809
1708435885.8847146,-2.145721912384033,-1.3338328462890168,-2.523771349583761,6.117554294853964,1.0122606754302979,-5.465474490319387
1708435885.886729,-2.14572811126709,-1.3338416379741211,-2.5238078276263636,6.117319333344259,1.0123010873794556,-5.465426806603567
1708435885.8887208,-2.1456751823425293,-1.3338505786708375,-2.5238521734820765,6.1172231314475916,1.0123493671417236,-5.465381864701406
1708435885.8907294,-2.145653247833252,-1.333825336103775,-2.5238521734820765,6.117172348290243,1.0123599767684937,-5.46544319788088
1708435885.892778,-2.1456148624420166,-1.3337895584157486,-2.523892943059103,6.117137539177694,1.0124216079711914,-5.4653863350497645
1708435885.8947186,-2.145576238632202,-1.33382402480159,-2.523863140736715,6.117063867836752,1.0124530792236328,-5.46538627544512
1708435885.8967552,-2.1455118656158447,-1.3338028949550171,-2.523932997380392,6.116959440499105,1.0124967098236084,-5.465435747300283
1708435885.8987238,-2.145451545715332,-1.3337613207152863,-2.523928705845968,6.116797315865316,1.0125823020935059,-5.465383354817526
1708435885.900721,-2.145449161529541,-1.3337627214244385,-2.5239527861224573,6.116747247963705,1.012622594833374,-5.465399746094839
1708435885.9027462,-2.1453518867492676,-1.3337627363255997,-2.5239647070514124,6.116631138115682,1.0126618146896362,-5.465392176304952
1708435885.9047406,-2.145336866378784,-1.3336837154677887,-2.5239725748645228,6.116526710778036,1.0126888751983643,-5.465371433888571
1708435885.9067807,-2.145258903503418,-1.333767221575119,-2.523975435887472,6.1164588806922815,1.0127099752426147,-5.465411667023794
1708435885.9087265,-2.1452269554138184,-1.3337627214244385,-2.523971144353048,6.116403925209799,1.0127867460250854,-5.465375844632284
1708435885.9107263,-2.145231246948242,-1.3337133985808869,-2.523987595235006,6.116398441582479,1.0128060579299927,-5.465329829846517
1708435885.9127455,-2.1451475620269775,-1.3337179136327286,-2.524036709462301,6.116277801781454,1.0127521753311157,-5.465401117001669
1708435885.9147165,-2.145113468170166,-1.3337475073388596,-2.5240488688098353,6.116173493653097,1.0128138065338135,-5.465375904236929
1708435885.9167309,-2.14505672454834,-1.333714799290039,-2.5240116755114954,6.116122472077169,1.0128755569458008,-5.465331319962637
1708435885.9187405,-2.145054340362549,-1.3336984676173707,-2.5240488688098353,6.116058218270101,1.01287841796875,-5.465356473122732
1708435885.9207237,-2.1450114250183105,-1.3336835366538544,-2.5240312258349817,6.115966903954305,1.0128737688064575,-5.4653728047954
1708435885.9227238,-2.1449499130249023,-1.3337236207774659,-2.5240357557879847,6.115895259171285,1.0129144191741943,-5.465326790009634
1708435885.9247565,-2.144913673400879,-1.3336416345885773,-2.5240889231311243,6.11576138713912,1.0129249095916748,-5.46534908214678
1708435885.926722,-2.1449103355407715,-1.3336865466884156,-2.5240638891803187,6.115767943650045,1.0130043029785156,-5.465369824563162
1708435885.9287338,-2.1448750495910645,-1.3336668622544785,-2.5241296927081507,6.115687477379598,1.0129988193511963,-5.465299669896261
1708435885.9307137,-2.144834280014038,-1.3336430352977295,-2.524087731038229,6.1155457375343225,1.0129897594451904,-5.4653026501285
1708435885.932756,-2.1448276042938232,-1.3337130707553406,-2.5241523424731653,6.115520107537069,1.0130255222320557,-5.465307060872213
1708435885.9347117,-2.1447255611419678,-1.3335791540196915,-2.5241075197802942,6.115467655449667,1.0130826234817505,-5.4653026501285
1708435885.9367049,-2.144707441329956,-1.3336549562266846,-2.524189535771505,6.115346777230062,1.0130736827850342,-5.465271059666769
1708435885.9387312,-2.144702672958374,-1.3336549562266846,-2.5241478125201624,6.115266549378195,1.0131475925445557,-5.465311590825216
1708435885.9407225,-2.1446778774261475,-1.333626703625061,-2.5241807142840784,6.115191685944357,1.0131386518478394,-5.465308610592977
1708435885.9427328,-2.14465069770813,-1.333647446041443,-2.5242136160479944,6.115151273995199,1.013157844543457,-5.465304080639974
1708435885.944721,-2.144625663757324,-1.3335777682117005,-2.524163071309225,6.115120756417074,1.0131700038909912,-5.465217892323629
1708435885.946734,-2.14457368850708,-1.333582119350769,-2.524191443120138,6.115068900376119,1.0132272243499756,-5.465320471917288
1708435885.9487448,-2.144566535949707,-1.3336562675288697,-2.524212423955099,6.115025150566854,1.0132105350494385,-5.465255026017324
1708435885.9507143,-2.1445553302764893,-1.333660678272583,-2.524224344884054,6.115043866425314,1.0132375955581665,-5.4652966300593775
1708435885.9527106,-2.1445257663726807,-1.3336144548705597,-2.524257008229391,6.114962208061971,1.0132795572280884,-5.465240065251486
1708435885.9547234,-2.1445109844207764,-1.3335746091655274,-2.5242272059070032,6.114909875183859,1.0133037567138672,-5.465241674576895
1708435885.9567404,-2.144491672515869,-1.3336072725108643,-2.5242272059070032,6.114887583046713,1.0133233070373535,-5.465263907109396
1708435885.95874,-2.144443988800049,-1.3335756820491333,-2.5242558161364954,6.1147698042686365,1.0133470296859741,-5.465275589619772
1708435885.9607623,-2.1444687843322754,-1.3335953515819092,-2.5242634455310267,6.114734160691061,1.0133217573165894,-5.465235654507772
1708435885.9627244,-2.144357919692993,-1.333537296657898,-2.5242844263659876,6.114751565247335,1.013354778289795,-5.4652279059039515
1708435885.9647145,-2.144355535507202,-1.3335056018880387,-2.5243545214282435,6.114657985955038,1.0134118795394897,-5.465218965207235
1708435885.9667158,-2.1443886756896973,-1.3335100573352356,-2.5243168512927454,6.1146559593971155,1.0133984088897705,-5.465247575436727
1708435885.9687335,-2.144303321838379,-1.3334760677865525,-2.52431565919985,6.114603388100424,1.0134222507476807,-5.465268317853109
1708435885.9707193,-2.144286632537842,-1.3335430187037964,-2.524328056965963,6.114583956986227,1.0134193897247314,-5.465202573929922
1708435885.9727364,-2.1442742347717285,-1.3335430187037964,-2.524348799382345,6.1145537970359705,1.0134344100952148,-5.465214494858877
1708435885.9747353,-2.144254684448242,-1.3335519295981904,-2.524393383656637,6.1145057556922815,1.0134389400482178,-5.465240065251486
1708435885.976748,-2.1442513465881348,-1.3335519146970292,-2.524409596120016,6.1144165871436975,1.0135047435760498,-5.4652279059039515
1708435885.9788096,-2.144244432449341,-1.3334936809590836,-2.5243354479419153,6.114371764450826,1.013425350189209,-5.465268377457754
1708435885.980786,-2.144151449203491,-1.3335637611201783,-2.5243549982654017,6.114303457527914,1.0135035514831543,-5.465236786996023
1708435885.9827332,-2.144204616546631,-1.333486632709839,-2.5243802706347864,6.114322292595663,1.013527512550354,-5.46519518295397
1708435885.9847186,-2.1441595554351807,-1.3335144829801102,-2.524428431187765,6.114244806557455,1.0135276317596436,-5.465174321328298
1708435885.9867098,-2.144116163253784,-1.3335070323995133,-2.5244577566729944,6.11420904377059,1.013522982597351,-5.465211574231283
1708435885.9887202,-2.1441240310668945,-1.3334875863841553,-2.5244224707232874,6.1141313193138025,1.0135589838027954,-5.465240065251486
1708435885.990728,-2.144096851348877,-1.3334997308305283,-2.52444035211672,6.114157783776083,1.013559103012085,-5.465202573929922
1708435885.9927337,-2.144092321395874,-1.3335246604732056,-2.5244773069964808,6.1140774367149255,1.0136116743087769,-5.46518183151354
1708435885.9947274,-2.14410138130188,-1.3334712547114869,-2.524493996297018,6.114050256996908,1.0135655403137207,-5.465199653302328
1708435885.9967277,-2.1439948081970215,-1.3335130673697968,-2.5244270006762903,6.114002573281088,1.0136055946350098,-5.4652279059039515
1708435885.9987473,-2.1440110206604004,-1.3334756654552002,-2.524435822163717,6.113932716637411,1.0136387348175049,-5.46523237625231
1708435886.0007095,-2.144019842147827,-1.3335042160800477,-2.5244885126696985,6.113893496781149,1.0136555433273315,-5.465187672768728
1708435886.0027575,-2.1440083980560303,-1.333508626823761,-2.5244630018817347,6.113862144737997,1.0137076377868652,-5.465215984974996
1708435886.0047288,-2.144005060195923,-1.3334548783353348,-2.5244584719287317,6.113793599396505,1.0136749744415283,-5.465241197739736
1708435886.006768,-2.14393949508667,-1.3335130375674744,-2.524487082158224,6.1137945530708215,1.0137187242507935,-5.465245727692739
1708435886.0087402,-2.143965244293213,-1.3334756654552002,-2.524503533040182,6.113709795265951,1.0137109756469727,-5.465211574231283
1708435886.0107098,-2.1439743041992188,-1.3334351640990754,-2.524536196385519,6.113671052246847,1.013725996017456,-5.465204064046041
1708435886.012737,-2.143886089324951,-1.333459348683693,-2.524569336568014,6.113646852761068,1.0137754678726196,-5.465224806462423
1708435886.0147345,-2.143954038619995,-1.333496407871582,-2.524515215550558,6.113618719368734,1.0137964487075806,-5.4651833216296595
1708435886.0167072,-2.143925428390503,-1.333472655420639,-2.5246048609363,6.113545286446371,1.0137547254562378,-5.465154949818746
1708435886.0187364,-2.143881320953369,-1.333439664249756,-2.5245428721057337,6.113526332169332,1.0137964487075806,-5.465236786996023
1708435886.0207176,-2.143897294998169,-1.3334726256183167,-2.5245590845691126,6.113515245705404,1.0138163566589355,-5.465211574231283
1708435886.022757,-2.1438565254211426,-1.3333787483027955,-2.5246287027942103,6.113433348923483,1.0138282775878906,-5.465192143117086
1708435886.0247505,-2.143847703933716,-1.3334527772716065,-2.5246124903308313,6.113435017853536,1.0138686895370483,-5.465232316647665
1708435886.0267174,-2.1438496112823486,-1.333480106001236,-2.5245755354510706,6.11346863487319,1.0138192176818848,-5.465199653302328
1708435886.0287118,-2.1438450813293457,-1.3334527772716065,-2.5246155897723597,6.113362896233358,1.0139062404632568,-5.46520841518511
1708435886.0307243,-2.1438300609588623,-1.3334277433208008,-2.5246081987964075,6.113355505257406,1.0138131380081177,-5.465241197739736
1708435886.032748,-2.1438257694244385,-1.333387480383255,-2.524665180836813,6.113303410797872,1.0138176679611206,-5.465192143117086
1708435886.034732,-2.1437771320343018,-1.3333874952844162,-2.5246110598193567,6.113246667176046,1.0138792991638184,-5.465196673070089
1708435886.0367544,-2.143806219100952,-1.3333919805339356,-2.5246439615832728,6.113238799362936,1.0139033794403076,-5.465213004742758
1708435886.038733,-2.143740653991699,-1.3333998185447236,-2.524668280278341,6.113244521408834,1.0139033794403076,-5.465187732373373
1708435886.0407164,-2.1437363624572754,-1.3333756637624283,-2.52468449274172,6.113170492440023,1.0139272212982178,-5.465155009423391
1708435886.0427213,-2.1437113285064697,-1.3333668273738404,-2.524614397679464,6.113184916764059,1.013939380645752,-5.465208474789755
1708435886.044719,-2.1437418460845947,-1.3334008020213624,-2.5246384779559534,6.11316858509139,1.013938069343567,-5.465236727391378
1708435886.046719,-2.1437418460845947,-1.3333593171885987,-2.5246506373034876,6.1131043312843225,1.0139634609222412,-5.465217355881826
1708435886.0487401,-2.1437089443206787,-1.333372638826706,-2.5246952215777796,6.113080608635702,1.013983130455017,-5.465204064046041
1708435886.0507104,-2.1437065601348877,-1.3333874952844162,-2.5246625582324427,6.113052117615499,1.0139920711517334,-5.465187732373373
1708435886.0527246,-2.1436569690704346,-1.3333800596049805,-2.5247085730182093,6.113074052124777,1.014020323753357,-5.465159479771749
1708435886.0547261,-2.143631935119629,-1.333417461519577,-2.52470308939089,6.112943398743429,1.0140730142593384,-5.465150539075033
1708435886.0567498,-2.1436409950256348,-1.333405227666237,-2.5247164408313196,6.1129740355308435,1.014031171798706,-5.4651639501201075
1708435886.0587506,-2.1436543464660645,-1.3334201288274308,-2.5247119108783167,6.112962114601888,1.0140639543533325,-5.465205434952871
1708435886.0607255,-2.143634080886841,-1.3334219616702576,-2.5247729460345667,6.112875926285543,1.0140758752822876,-5.465192143117086
1708435886.0627635,-2.1436383724212646,-1.3333637428334733,-2.5247564951526087,6.112865316658773,1.0140504837036133,-5.465187732373373
1708435886.064756,-2.143561601638794,-1.3333800745061417,-2.524719301854269,6.112849938660421,1.0140790939331055,-5.465134267007009
1708435886.0667331,-2.1435320377349854,-1.3333681237748642,-2.524722401295797,6.112817394524374,1.0141735076904297,-5.465232316647665
1708435886.0687208,-2.1435036659240723,-1.3333844554475327,-2.524735752736227,6.112788784294882,1.0141031742095947,-5.465224806462423
1708435886.0707297,-2.1435205936431885,-1.3333233159831543,-2.5247181097613733,6.112797486573019,1.0141361951828003,-5.465177182351248
1708435886.072748,-2.143566131591797,-1.333339662556984,-2.5247300306903284,6.112762200623312,1.014155626296997,-5.465168301259176
1708435886.0747323,-2.143500566482544,-1.3333307367614289,-2.5247839132892054,6.1127511141593835,1.0142053365707397,-5.465192143117086
1708435886.0767581,-2.143554449081421,-1.3333647710135956,-2.5247586409198206,6.112676846771993,1.014163613319397,-5.465171043072836
1708435886.0787323,-2.143484592437744,-1.3333548468402405,-2.5247586409198206,6.1126500246818445,1.0141918659210205,-5.465179983769552
1708435886.0807514,-2.1435387134552,-1.3333770495704194,-2.5248077551471155,6.112676369934835,1.0142322778701782,-5.4651594201671045
1708435886.0827832,-2.1435182094573975,-1.3333233457854767,-2.5248361269580286,6.112605201988973,1.014244556427002,-5.465155009423391
1708435886.0848262,-2.1435115337371826,-1.333363727932312,-2.524865452443258,6.112561571388998,1.0141948461532593,-5.465175453816549
1708435886.0867355,-2.1434571743011475,-1.333314449792244,-2.5248077551471155,6.112569319992819,1.014244556427002,-5.465217355881826
1708435886.0887663,-2.143470525741577,-1.3333559942296525,-2.5248196760760706,6.112534987717428,1.0142894983291626,-5.465187732373373
1708435886.090731,-2.1434130668640137,-1.3333977472833176,-2.5248435179339808,6.112448441773214,1.0142309665679932,-5.465184334908621
1708435886.0927284,-2.1434309482574463,-1.3333616566709061,-2.524827305470602,6.112458574562826,1.014255166053772,-5.465175453816549
1708435886.0947144,-2.143439769744873,-1.3333814305118104,-2.5248854796039026,6.112458574562826,1.0142923593521118,-5.465171043072836
1708435886.0967522,-2.143418550491333,-1.333332137470581,-2.524876658116476,6.112402188568868,1.0143495798110962,-5.465188745652334
1708435886.0987287,-2.1433777809143066,-1.3333247166923066,-2.524851147328512,6.1123989699180505,1.0143405199050903,-5.465184334908621
1708435886.1007514,-2.1433911323547363,-1.3333158057979126,-2.5248635450946253,6.112346637039938,1.0143241882324219,-5.4652143756495875
1708435886.102725,-2.143303155899048,-1.3333113503507157,-2.524884049092428,6.112338769226827,1.0143450498580933,-5.465188745652334
1708435886.1047404,-2.1433777809143066,-1.3333080571940918,-2.524916950856344,6.112326848297872,1.014331579208374,-5.465232316647665
1708435886.1067305,-2.143359422683716,-1.3333233159831543,-2.524879757558004,6.112339961319723,1.0143465995788574,-5.465138618146078
1708435886.1087244,-2.143300771713257,-1.3333158057979126,-2.5249035994159144,6.112279164582052,1.0143884420394897,-5.465184334908621
1708435886.1107547,-2.1433026790618896,-1.333369181757309,-2.5249157587634485,6.112276065140524,1.0143793821334839,-5.465204064046041
1708435886.1127245,-2.143298387527466,-1.3332903248122712,-2.5249529520617884,6.112215029984274,1.0143920183181763,-5.465155009423391
1708435886.1152768,-2.1433072090148926,-1.333320216541626,-2.5249245802508753,6.112255084305563,1.0143793821334839,-5.465192143117086
1708435886.116726,-2.143298387527466,-1.3332712215236207,-2.5249486605273646,6.112219440727987,1.014412760734558,-5.465213004742758
1708435886.1187162,-2.1433207988739014,-1.333336503510811,-2.5248947779284876,6.112204301148214,1.0144158601760864,-5.465183262025015
1708435886.1207318,-2.1432912349700928,-1.333373711710312,-2.5249486605273646,6.112201201706686,1.0143994092941284,-5.465171043072836
1708435886.122729,-2.143254041671753,-1.3332757216743012,-2.524898115788595,6.112172710686483,1.0144729614257812,-5.4651222864734095
1708435886.1247256,-2.14322566986084,-1.3332757216743012,-2.524931017552511,6.112140047341146,1.0144399404525757,-5.465213004742758
1708435886.1267223,-2.143221378326416,-1.3332920533469697,-2.5249605814563196,6.112194406777181,1.0144517421722412,-5.465221826230184
1708435886.1287227,-2.143209934234619,-1.3333123636296769,-2.524959389363424,6.112099873810568,1.0144684314727783,-5.465208474789755
1708435886.1307144,-2.1432347297668457,-1.3332920533469697,-2.524979893361227,6.112117516785421,1.0144925117492676,-5.465229396020071
1708435886.1327324,-2.1432063579559326,-1.3332920533469697,-2.524979893361227,6.112105595856466,1.0145044326782227,-5.465217355881826
1708435886.1347303,-2.1431984901428223,-1.3333080571940918,-2.524975601826803,6.112114298134603,1.014508843421936,-5.4652337471591395
1708435886.1367357,-2.1431870460510254,-1.3332920533469697,-2.5249710718738,6.112027871399679,1.014525294303894,-5.465183262025015
1708435886.138732,-2.143153429031372,-1.3333497804454346,-2.524982992802755,6.112005340843954,1.01456618309021,-5.465157632027761
1708435886.140754,-2.143148899078369,-1.3332681220820923,-2.525008503590719,6.111999618798055,1.014523983001709,-5.465200964604513
1708435886.1427226,-2.143146276473999,-1.3332681369832535,-2.5249710718738,6.112037884980001,1.0145570039749146,-5.465187732373373
1708435886.1447682,-2.143113613128662,-1.3332920533469697,-2.5250402132617396,6.111935722618856,1.0145734548568726,-5.4651594201671045
1708435886.1467772,-2.143134832382202,-1.3333167892745514,-2.525008503590719,6.112017142563619,1.0145645141601562,-5.465187732373373
1708435886.1487324,-2.143143892288208,-1.3332603734782715,-2.5250075499164026,6.11197708824233,1.014572262763977,-5.465150539075033
1708435886.1507328,-2.1431145668029785,-1.3333167892745514,-2.5249996821032923,6.1119576571281335,1.0146005153656006,-5.4651594201671045
1708435886.1527479,-2.1430861949920654,-1.3332757514766236,-2.5250075499164026,6.111969578057089,1.014604926109314,-5.465201024209158
1708435886.1547444,-2.1431405544281006,-1.333277018075325,-2.5250192324267786,6.111924874573507,1.0146293640136719,-5.465175453816549
1708435886.1567583,-2.143073797225952,-1.333287553196289,-2.5249908606158655,6.1119247553642175,1.0146530866622925,-5.465179983769552
1708435886.1587243,-2.1430647373199463,-1.3333158057979126,-2.5250356833087366,6.1118918536003015,1.0146621465682983,-5.465229396020071
1708435886.1607537,-2.1430535316467285,-1.3332725328258057,-2.525010410939352,6.1118918536003015,1.014653205871582,-5.465224866067068
1708435886.1627429,-2.1430509090423584,-1.3332963746837159,-2.5250356833087366,6.111921655922689,1.014648675918579,-5.465250078831808
1708435886.1647365,-2.143082857131958,-1.3332800430110474,-2.52498966852297,6.111908542900839,1.0146605968475342,-5.4652337471591395
1708435886.1667533,-2.1430439949035645,-1.3332395416549225,-2.5250683466540735,6.111890303879537,1.014648675918579,-5.4652204553233545
1708435886.168745,-2.1430439949035645,-1.3332800430110474,-2.5250771681415003,6.111845481186666,1.0146605968475342,-5.465156320725576
1708435886.1707323,-2.1430575847625732,-1.3332593900016327,-2.525059525166647,6.111841070442953,1.0147796869277954,-5.465224866067068
1708435886.172723,-2.1429898738861084,-1.333239571457245,-2.5250967184649866,6.111848580628195,1.0147299766540527,-5.4651639501201075
1708435886.1747067,-2.1429941654205322,-1.3332681220820923,-2.525104586278097,6.111837971001425,1.0146833658218384,-5.465196673070089
1708435886.1767337,-2.143023729324341,-1.3332603734782715,-2.5250967184649866,6.111809479981222,1.0147372484207153,-5.465175453816549
1708435886.17873,-2.142986297607422,-1.3332681220820923,-2.525054995213644,6.111781227379598,1.0147796869277954,-5.465146068726675
1708435886.1807816,-2.1429738998413086,-1.3332514625838776,-2.5250967184649866,6.111757385521688,1.0147119760513306,-5.465208474789755
1708435886.182775,-2.1429829597473145,-1.3333378595164795,-2.52509576479067,6.111781227379598,1.0147571563720703,-5.465187732373373
1708435886.1847215,-2.1429760456085205,-1.3332770329764863,-2.525075976048605,6.111794340401449,1.014723777770996,-5.465175453816549
1708435886.1867237,-2.1429760456085205,-1.3332603734782715,-2.525128428136007,6.111724722176351,1.0147401094436646,-5.465179983769552
1708435886.1887326,-2.1429760456085205,-1.3332844537547608,-2.525128428136007,6.111709463387289,1.014748215675354,-5.465199653302328
1708435886.1907272,-2.1429669857025146,-1.3332691949656983,-2.5250914732562464,6.1117204306419275,1.014748215675354,-5.465183262025015
1708435886.1927395,-2.1429386138916016,-1.333223209982254,-2.52513295808901,6.1117379544074915,1.014760136604309,-5.465199653302328
1708435886.1947117,-2.1429476737976074,-1.3333007854274292,-2.5251031557666224,6.111697542458334,1.0147602558135986,-5.465174261723654
1708435886.1967554,-2.142911434173584,-1.3332681220820923,-2.5250914732562464,6.111685740738668,1.014830470085144,-5.465201024209158
1708435886.1987405,-2.1429147720336914,-1.3332888644984742,-2.5251153151141565,6.111742245941915,1.0147675275802612,-5.465204064046041
1708435886.2007327,-2.142902374267578,-1.3332514625838776,-2.5250914732562464,6.1117063639457605,1.0148260593414307,-5.465183262025015
1708435886.202735,-2.142885446548462,-1.333264784221985,-2.525111977254049,6.111686575203695,1.0148006677627563,-5.465196673070089
1708435886.2047114,-2.1429283618927,-1.3332770329764863,-2.525081221257345,6.111677872925558,1.014829158782959,-5.465137247239248
1708435886.2067454,-2.142911434173584,-1.3332558882287522,-2.5251269976245325,6.111646878510275,1.0148050785064697,-5.465241197739736
1708435886.208717,-2.1429035663604736,-1.3332770329764863,-2.5251107851611536,6.11164556720809,1.014829158782959,-5.465192143117086
1708435886.2107134,-2.1429035663604736,-1.3332514625838776,-2.5251482168780726,6.11160825470046,1.0148365497589111,-5.465171043072836
1708435886.2127466,-2.142850399017334,-1.3332395416549225,-2.5251644293414515,6.1116511700446985,1.0148454904556274,-5.465187672768728
1708435886.2147117,-2.1428990364074707,-1.3332603734782715,-2.5251269976245325,6.1116182682807825,1.014862298965454,-5.465211574231283
1708435886.216752,-2.1429009437561035,-1.3332307201674958,-2.5251556078540247,6.1116301892097376,1.0148695707321167,-5.4652456680880945
1708435886.2187228,-2.1428263187408447,-1.3332770329764863,-2.525167767201559,6.111640321999349,1.01486074924469,-5.465236727391378
1708435886.220718,-2.142850399017334,-1.333223209982254,-2.525163475667135,6.111601936608114,1.0148488283157349,-5.465179983769552
1708435886.2227108,-2.1428849697113037,-1.3332725328258057,-2.5251885096179407,6.111545312195577,1.014835238456726,-5.465236786996023
1708435886.2247403,-2.1428942680358887,-1.3332395416549225,-2.5252166430102747,6.111623990326681,1.0149013996124268,-5.46519518295397
1708435886.2267065,-2.1428353786468506,-1.3332528632930298,-2.5251272360431116,6.111561524658956,1.0148471593856812,-5.4651952425586146
1708435886.2287219,-2.1428604125976562,-1.3332725328258057,-2.525179688130514,6.111583459168234,1.014892578125,-5.465224866067068
1708435886.2307065,-2.1428184509277344,-1.3332603734782715,-2.525179688130514,6.111573564797201,1.014941930770874,-5.465232316647665
1708435886.2328258,-2.1428604125976562,-1.3332888644984742,-2.525158945714132,6.111521470337667,1.0149508714675903,-5.465245727692739
1708435886.2347112,-2.1427969932556152,-1.3332232397845765,-2.525142494832174,6.111518251686849,1.0149133205413818,-5.465192143117086
1708435886.2367263,-2.1428275108337402,-1.333255873327591,-2.525139395390646,6.111510741501608,1.0149296522140503,-5.4652279059039515
1708435886.2387066,-2.1428399085998535,-1.3332409423640748,-2.5251885096179407,6.111515271454611,1.014941930770874,-5.4652233759509485
1708435886.2407649,-2.142815113067627,-1.333264784221985,-2.525179688130514,6.111510741501608,1.0149537324905396,-5.46519518295397
1708435886.2427065,-2.1428604125976562,-1.3332736057094117,-2.525195900593893,6.1115074036415,1.0149341821670532,-5.465178851281301
1708435886.2447386,-2.1428353786468506,-1.333232120876648,-2.525170866643087,6.11147032955245,1.0149284601211548,-5.465208474789755
1708435886.2467182,-2.1428239345550537,-1.3332603734782715,-2.525158945714132,6.111507284432211,1.0149612426757812,-5.4652233759509485
1708435886.248716,-2.142796754837036,-1.3332647693208237,-2.525175158177511,6.111454117089071,1.014958381652832,-5.465236786996023
1708435886.2507422,-2.142815113067627,-1.3332024675658722,-2.525215450917379,6.1114715216453455,1.0149537324905396,-5.465208474789755
1708435886.2527301,-2.142799139022827,-1.333220199947693,-2.525207821522848,6.111418354302206,1.0149821043014526,-5.465204064046041
1708435886.2547112,-2.1427876949310303,-1.3332484525493165,-2.525179688130514,6.111431467324056,1.0149449110031128,-5.465218965207235
1708435886.2568092,-2.142733573913574,-1.3332024675658722,-2.5251501242267054,6.111467230110922,1.0149775743484497,-5.465224866067068
1708435886.2587276,-2.1427876949310303,-1.3332187992385407,-2.525219742451803,6.111430275231161,1.015027403831482,-5.465211574231283
1708435886.260713,-2.1427559852600098,-1.3332691949656983,-2.525240723286764,6.111397611885824,1.0149810314178467,-5.465297762547628
1708435886.26271,-2.142812490463257,-1.3332395416549225,-2.5252485910998743,6.11139856556014,1.0149946212768555,-5.465192143117086
1708435886.2647324,-2.14274263381958,-1.3332572740367432,-2.525215450917379,6.111394154816427,1.0149685144424438,-5.465232316647665
1708435886.2667131,-2.142747163772583,-1.3332572740367432,-2.525215450917379,6.111431467324056,1.015022873878479,-5.465236786996023
1708435886.2687545,-2.14275860786438,-1.333264784221985,-2.5252066294299524,6.111321198731222,1.0149811506271362,-5.4652233759509485
1708435886.270706,-2.14274263381958,-1.3332572740367432,-2.525214497243063,6.111452209740438,1.0150094032287598,-5.465190653000967
1708435886.272717,-2.1427345275878906,-1.3332246106914063,-2.52527362505068,6.11139856556014,1.0150213241577148,-5.4652279059039515
1708435886.2747884,-2.1427674293518066,-1.3332736057094117,-2.525181595479147,6.111346232682028,1.015018343925476,-5.465249005948202
1708435886.276714,-2.1427390575408936,-1.3332157892039795,-2.525203529988424,6.111383545189657,1.0150229930877686,-5.465235654507772
1708435886.2787318,-2.1427764892578125,-1.3332454425147553,-2.5252020994769495,6.111382233887472,1.0150302648544312,-5.465161089097158
1708435886.2807832,-2.1427559852600098,-1.3332068783095856,-2.5252023378955286,6.111317980080404,1.0150049924850464,-5.465256396924154
1708435886.2828412,-2.1427345275878906,-1.3332814437201996,-2.525215450917379,6.111341821938314,1.0150094032287598,-5.465236786996023
1708435886.284799,-2.1427435874938965,-1.3332365316203614,-2.525219980870382,6.11132692077712,1.0150302648544312,-5.465272788201467
1708435886.2867541,-2.1427559852600098,-1.333255873327591,-2.5252681414233606,6.111359464913168,1.0149840116500854,-5.4652233759509485
1708435886.2887397,-2.1427650451660156,-1.3332005602172394,-2.5252562204944056,6.111326801567831,1.015016794204712,-5.4652279059039515
1708435886.2907543,-2.1426994800567627,-1.3332124513438721,-2.5252977053271692,6.1112615940864465,1.015033483505249,-5.465247575436727
1708435886.292734,-2.1427152156829834,-1.333232120876648,-2.5252886454211634,6.111298548966207,1.0150213241577148,-5.4652204553233545
1708435886.2947273,-2.1427783966064453,-1.333294765358307,-2.5251978079425257,6.111331212311544,1.0150424242019653,-5.4652233759509485
1708435886.2967248,-2.1427266597747803,-1.33331851780925,-2.5252230803119105,6.111324894219198,1.015033483505249,-5.465244595204489
1708435886.2987359,-2.142731189727783,-1.3332035404494782,-2.5252109209643763,6.1112791178520105,1.0150408744812012,-5.465275589619772
1708435886.300746,-2.142735719680786,-1.3332395416549225,-2.5252886454211634,6.111251938133993,1.0150498151779175,-5.465251986180441
1708435886.3027234,-2.142765998840332,-1.3332365316203614,-2.5252636114703577,6.111255037575521,1.0150833129882812,-5.465256396924154
1708435886.3047233,-2.1426994800567627,-1.333232120876648,-2.5252962748156946,6.111296760826864,1.0150244235992432,-5.465211574231283
1708435886.3067663,-2.1427037715911865,-1.3333096963218232,-2.5252352396594446,6.111231195717611,1.0150742530822754,-5.465210143719808
1708435886.3087823,-2.142735719680786,-1.333178387289383,-2.525247399006979,6.1112756607826135,1.0150742530822754,-5.465256396924154
1708435886.3107445,-2.142695903778076,-1.3332113784602662,-2.525275532399313,6.111268150597372,1.0150530338287354,-5.465247575436727
1708435886.3127518,-2.1426913738250732,-1.3332814437201996,-2.5252636114703577,6.111198651581564,1.0150787830352783,-5.465260926877157
1708435886.3147967,-2.1427128314971924,-1.3332365167192002,-2.525247399006979,6.111211764603414,1.0150816440582275,-5.46527731815447
1708435886.3167188,-2.142717123031616,-1.3332395416549225,-2.525259319935934,6.111269342690267,1.0150442123413086,-5.465235714112417
1708435886.318727,-2.1427128314971924,-1.3331667941859742,-2.5252843538867396,6.111216175347128,1.0150935649871826,-5.465269748364584
1708435886.3207426,-2.142726182937622,-1.3332617741874238,-2.5252962748156946,6.111179220467367,1.0150907039642334,-5.465263966714041
1708435886.3227444,-2.142672061920166,-1.333220199947693,-2.5252679030047815,6.111236440926351,1.0151070356369019,-5.465243224297659
1708435886.3248065,-2.14266300201416,-1.333220199947693,-2.525266710911886,6.111191141396322,1.0150772333145142,-5.465205732976095
1708435886.326704,-2.142672061920166,-1.3332586002400895,-2.5252679030047815,6.111236440926351,1.0150980949401855,-5.465256456528799
1708435886.3287249,-2.142709255218506,-1.3332035404494782,-2.5252679030047815,6.111166941910543,1.0150935649871826,-5.465256337319509
1708435886.330719,-2.14263916015625,-1.3332079511931916,-2.5252886454211634,6.111168253212728,1.0151054859161377,-5.465218965207235
1708435886.3327794,-2.14263916015625,-1.3331916195205231,-2.525304142628805,6.111171352654257,1.015097975730896,-5.465240065251486
1708435886.3347447,-2.1426403522491455,-1.3331961196712037,-2.5252917448626917,6.111119019776144,1.015086054801941,-5.465218965207235
1708435886.3367805,-2.142639398574829,-1.3332113784602662,-2.5253127256976526,6.111180174141683,1.015109896659851,-5.465205732976095
1708435886.3387387,-2.1427013874053955,-1.333232120876648,-2.5253172556506556,6.111123430519857,1.015114426612854,-5.465186182652609
1708435886.3407376,-2.142656087875366,-1.3331916195205231,-2.525287453328268,6.11111460903243,1.0150681734085083,-5.46529329219927
1708435886.3427596,-2.142611026763916,-1.3332113784602662,-2.525283161793844,6.111148464470663,1.015138864517212,-5.465223316346304
1708435886.3447182,-2.1426312923431396,-1.3332035404494782,-2.525250498448507,6.111127841263571,1.015138864517212,-5.465214494858877
1708435886.3467407,-2.1426358222961426,-1.333188773398735,-2.525266710911886,6.1110867140586755,1.0151176452636719,-5.465244535599844
1708435886.348734,-2.1426446437835693,-1.3332035404494782,-2.5252962748156946,6.111107218056478,1.0151253938674927,-5.465202633534567
1708435886.3507714,-2.1426358222961426,-1.333220199947693,-2.5252962748156946,6.111119019776144,1.0151461362838745,-5.465288762246267
1708435886.3527377,-2.142648220062256,-1.3332168620875855,-2.525250260029928,6.111046421318807,1.015138864517212,-5.46522689262499
1708435886.3547337,-2.1426403522491455,-1.3332157892039795,-2.525238577519552,6.111092078476705,1.0151506662368774,-5.465244595204489
1708435886.3567643,-2.1426289081573486,-1.3332168620875855,-2.525299612675802,6.1111042378242395,1.0151580572128296,-5.46522689262499
1708435886.3587277,-2.1425747871398926,-1.3332124513438721,-2.525320355092184,6.111075746804037,1.0151883363723755,-5.465256396924154
1708435886.3607314,-2.1426174640655518,-1.3332335215858002,-2.525254789982931,6.1111007807548425,1.015129804611206,-5.46522689262499
1708435886.3627386,-2.1425960063934326,-1.333175615673401,-2.525262419377462,6.11108015754775,1.015113115310669,-5.465268317853109
1708435886.364726,-2.1425836086273193,-1.3332409423640748,-2.5252907911883753,6.111063825875082,1.0151373147964478,-5.465240065251486
1708435886.3667545,-2.1425960063934326,-1.3331681948951264,-2.5253194014178675,6.11105631568984,1.0151373147964478,-5.465244595204489
1708435886.368721,-2.1426422595977783,-1.3332035404494782,-2.525308434163229,6.1110116122062585,1.0151792764663696,-5.46522689262499
1708435886.3707476,-2.142612934112549,-1.3332365316203614,-2.525308434163229,6.111023413925924,1.0151625871658325,-5.465317432080404
1708435886.3727586,-2.1425857543945312,-1.3332291108420868,-2.525311533604757,6.1110278246696375,1.0151703357696533,-5.4652233759509485
1708435886.3747225,-2.1425294876098633,-1.3332124662450333,-2.5252743403064173,6.111036526947775,1.0151866674423218,-5.46527994075884
1708435886.3767505,-2.1425881385803223,-1.3332079511931916,-2.5252953211413782,6.111008393555441,1.0151447057724,-5.465210203324453
1708435886.378731,-2.142597198486328,-1.3332454425147553,-2.5252535978900355,6.110959517746725,1.0151687860488892,-5.465332035218374
1708435886.3807623,-2.142564296722412,-1.3332378429225464,-2.525344435368673,6.111025917321005,1.015173316001892,-5.46526533762087
1708435886.3827634,-2.1425507068634033,-1.3332079511931916,-2.525315825139181,6.110939729004659,1.0151523351669312,-5.465244595204489
1708435886.384735,-2.1425766944885254,-1.3331845563701172,-2.5252984205829065,6.110968220024862,1.0151686668395996,-5.465234223996298
1708435886.3867521,-2.142542839050293,-1.3332079511931916,-2.525327984486715,6.1109529612358,1.0151941776275635,-5.465243224297659
1708435886.388739,-2.1426141262054443,-1.3332661253264924,-2.525332514439718,6.110956299095907,1.0152108669281006,-5.465202573929922
1708435886.3907192,-2.1425564289093018,-1.3331801158240815,-2.5252864996539515,6.110994565277853,1.0151972770690918,-5.465263907109396
1708435886.392755,-2.142547369003296,-1.3332409870675583,-2.525299612675802,6.110924708634176,1.0151777267456055,-5.465235654507772
1708435886.3947692,-2.142531394958496,-1.3332048517516633,-2.5253563562976282,6.110903727799215,1.0152184963226318,-5.46520567337145
1708435886.3967817,-2.142542839050293,-1.3332079511931916,-2.525344435368673,6.110916840821066,1.0152558088302612,-5.465251986180441
1708435886.3987346,-2.142540454864502,-1.3332291108420868,-2.5253194014178675,6.1108800051505945,1.0152230262756348,-5.465260926877157
1708435886.4007401,-2.142503261566162,-1.3331961196712037,-2.5253637472735804,6.110868441849508,1.0152230262756348,-5.465214554463522
1708435886.4027507,-2.1425652503967285,-1.3332048517516633,-2.525327984486715,6.110913741379537,1.0152095556259155,-5.4652268330203455
1708435886.404734,-2.142535924911499,-1.3331845265677948,-2.5253236929522913,6.110835540085592,1.0152512788772583,-5.4652279059039515
1708435886.4067366,-2.142540454864502,-1.3332378429225464,-2.5253310839282435,6.110839831620016,1.015213966369629,-5.465202573929922
1708435886.4087317,-2.142524480819702,-1.333200530414917,-2.5252907911883753,6.110824692040243,1.015213966369629,-5.465240065251486
1708435886.4107563,-2.1425492763519287,-1.3332168620875855,-2.5253027121173304,6.11084412315444,1.0151928663253784,-5.465288821850912
1708435886.4127529,-2.1425087451934814,-1.3332005006125947,-2.5252864996539515,6.110812532692709,1.015213966369629,-5.465251986180441
1708435886.414715,-2.1424667835235596,-1.3332246106914063,-2.5253310839282435,6.110812413483419,1.0151883363723755,-5.465244595204489
1708435886.4167535,-2.142474889755249,-1.3331395250609894,-2.5253236929522913,6.110784399300375,1.015221357345581,-5.465251986180441
1708435886.4187305,-2.1424927711486816,-1.3332585853389283,-2.525344435368673,6.110816943436422,1.015225887298584,-5.46527994075884
1708435886.4207456,-2.1425042152404785,-1.333200530414917,-2.5253356138812464,6.1108213541801355,1.015213966369629,-5.465244595204489
1708435886.4227605,-2.1424803733825684,-1.3331712645343323,-2.525372568761007,6.11080943325118,1.0152422189712524,-5.465263907109396
1708435886.424722,-2.1424973011016846,-1.333176926975586,-2.5253563562976282,6.1107767699058435,1.0151793956756592,-5.465218965207235
1708435886.4267404,-2.1424849033355713,-1.3332211834243317,-2.5253236929522913,6.110764848976888,1.0152630805969238,-5.465231184159414
1708435886.4287338,-2.1425087451934814,-1.3332335364869614,-2.5253563562976282,6.110744225769796,1.0151972770690918,-5.46532637277712
1708435886.430723,-2.1425063610076904,-1.333200530414917,-2.5253563562976282,6.11079882362441,1.0152333974838257,-5.4652279059039515
1708435886.4327822,-2.1424756050109863,-1.333200530414917,-2.5253520647632044,6.110725629120626,1.0152708292007446,-5.465281728898184
1708435886.4347215,-2.1424317359924316,-1.3332005155137558,-2.52533990541567,6.110700595169821,1.0152422189712524,-5.465218965207235
1708435886.4367456,-2.1424362659454346,-1.3331558418324967,-2.5252981821643274,6.110712516098776,1.0152708292007446,-5.465288821850912
1708435886.4387324,-2.142467975616455,-1.3331602823785325,-2.5253520647632044,6.11076174953536,1.0152451992034912,-5.465235654507772
1708435886.4407258,-2.142456531524658,-1.3331845861724396,-2.525344435368673,6.110680925637045,1.0152422189712524,-5.465235654507772
1708435886.442738,-2.1424238681793213,-1.3331471246531983,-2.5253804365741175,6.110680806427755,1.0152586698532104,-5.4652268330203455
1708435886.4447184,-2.1424803733825684,-1.3331439358047028,-2.5253267923938196,6.110664593964376,1.0152497291564941,-5.4652279059039515
1708435886.4467406,-2.1424858570098877,-1.3331947487643738,-2.52535063425173,6.110620128899374,1.0152753591537476,-5.465231184159414
1708435886.4487321,-2.1423864364624023,-1.3331365299275895,-2.5253847281085413,6.110608327179708,1.0152451992034912,-5.465223435555593
1708435886.4507294,-2.1424202919006348,-1.3331484359553833,-2.5253759066211146,6.110637771874227,1.0152630805969238,-5.46527994075884
1708435886.4527438,-2.1423885822296143,-1.333176926975586,-2.5253387133227747,6.1106289503868005,1.0152920484542847,-5.465272788201467
1708435886.4547246,-2.142428159713745,-1.3331888628057023,-2.5253387133227747,6.110625731735983,1.0152497291564941,-5.4652520457850855
1708435886.4567537,-2.142402410507202,-1.3331558567336579,-2.5253759066211146,6.110634553223409,1.0152170658111572,-5.465211574231283
1708435886.4587138,-2.142408847808838,-1.3331769567779084,-2.5253637472735804,6.110618221550741,1.0152497291564941,-5.465235654507772
1708435886.460715,-2.142399787902832,-1.3332022440484543,-2.525379244481222,6.110585200577535,1.0152875185012817,-5.465256396924154
1708435886.462742,-2.1423704624176025,-1.333200530414917,-2.5253716150866907,6.110585319786825,1.0152497291564941,-5.465240065251486
1708435886.4647286,-2.1423792839050293,-1.3331932586482544,-2.5253432432757776,6.1105984328086755,1.0152333974838257,-5.4652233759509485
1708435886.466756,-2.1423704624176025,-1.3331602674773713,-2.5253594557391565,6.110562431603231,1.0152664184570312,-5.46518183151354
1708435886.4687383,-2.142402172088623,-1.3331691783717652,-2.525367323552267,6.110537755280294,1.0152541399002075,-5.465210143719808
1708435886.4707243,-2.1424553394317627,-1.333197758798935,-2.525405470524923,6.110501515656271,1.0152740478515625,-5.465218965207235
1708435886.4727647,-2.142392873764038,-1.3331515353969117,-2.5253549257861536,6.11048852184371,1.0152242183685303,-5.4652233759509485
1708435886.474718,-2.14241099357605,-1.333132104282715,-2.5253594557391565,6.110522615700521,1.0152950286865234,-5.465211574231283
1708435886.4767406,-2.1423771381378174,-1.3331735742143174,-2.525313679371969,6.110452639847555,1.0152451992034912,-5.4652233759509485
1708435886.4787304,-2.1423771381378174,-1.333127648835518,-2.5253682772265833,6.110518204956808,1.0152618885040283,-5.46520704427828
1708435886.4807615,-2.1423885822296143,-1.333132104282715,-2.525399986897604,6.110506045609274,1.0152451992034912,-5.46519518295397
1708435886.4827523,-2.1423771381378174,-1.3331188720515748,-2.5253432432757776,6.1104822037513635,1.015290379524231,-5.465206984673635
1708435886.4847324,-2.1423442363739014,-1.3331395250609894,-2.525362793599264,6.110494124680319,1.015290379524231,-5.465236727391378
1708435886.486775,-2.142331838607788,-1.33315725744281,-2.525407616292135,6.110494124680319,1.0152696371078491,-5.465215984974996
1708435886.488746,-2.142336368560791,-1.3331528466990967,-2.525362793599264,6.110416996269979,1.0152573585510254,-5.46520704427828
1708435886.4907436,-2.142320394515991,-1.3332021695426484,-2.525399986897604,6.110416996269979,1.0152981281280518,-5.465215984974996
1708435886.492744,-2.142336368560791,-1.3331454259208222,-2.5253716150866907,6.110431420594015,1.0152740478515625,-5.465178851281301
1708435886.4947639,-2.142329454421997,-1.333169163470604,-2.52539569536318,6.110373484879293,1.0152696371078491,-5.465196732674734
1708435886.496755,-2.1423745155334473,-1.3331484359553833,-2.525400225316183,6.110410439759054,1.0152695178985596,-5.465215984974996
1708435886.4987702,-2.1423451900482178,-1.3331602674773713,-2.5254326502429407,6.110386597901144,1.0152949094772339,-5.465208474789755
1708435886.5007298,-2.1423532962799072,-1.3331825000098725,-2.525399986897604,6.110419142037191,1.0152561664581299,-5.465236727391378
1708435886.5027468,-2.142357587814331,-1.3331409257701416,-2.5254414717303675,6.1104270098503015,1.0153144598007202,-5.465208474789755
1708435886.5047634,-2.1422877311706543,-1.3331287664226075,-2.525416437779562,6.110353696137228,1.0153144598007202,-5.4652279059039515
1708435886.5068111,-2.1422922611236572,-1.3331454259208222,-2.525383536015646,6.110405909806051,1.0153428316116333,-5.465229396020071
1708435886.508737,-2.142362117767334,-1.333107904796936,-2.5253759066211146,6.110402929573812,1.0153056383132935,-5.465217355881826
1708435886.5107455,-2.1422932147979736,-1.3331079345992585,-2.525407616292135,6.110411751061239,1.0153100490570068,-5.46518183151354
1708435886.5127444,-2.142324924468994,-1.333112434749939,-2.525379244481222,6.110370266228475,1.0153263807296753,-5.465196673070089
1708435886.5147314,-2.1423134803771973,-1.3331168454936524,-2.5254491011248987,6.1103625176246545,1.0153428316116333,-5.465241138135092
1708435886.516722,-2.142268180847168,-1.3331004542163392,-2.52535063425173,6.110337364464559,1.0153056383132935,-5.465199653302328
1708435886.5187309,-2.142235517501831,-1.3331902486136933,-2.525362793599264,6.11032651641921,1.0153383016586304,-5.465269748364584
1708435886.5207334,-2.142240285873413,-1.3331869107535859,-2.52541953722109,6.11031328418807,1.0153175592422485,-5.465187732373373
1708435886.5227256,-2.142277240753174,-1.3331079345992585,-2.5254252592669886,6.110366928368368,1.0153158903121948,-5.4651952425586146
1708435886.5247312,-2.142277240753174,-1.3331331771663208,-2.525411907826559,6.11036370971755,1.0153203010559082,-5.465232316647665
1708435886.5267253,-2.1422488689422607,-1.333124266271927,-2.525411907826559,6.11036370971755,1.015312910079956,-5.465236727391378
1708435886.5287352,-2.14225697517395,-1.333178089266159,-2.525423828755514,6.1102778790290735,1.0153745412826538,-5.465236727391378
1708435886.5307238,-2.142261505126953,-1.3331365299275895,-2.5253658930407923,6.110285389214315,1.0153909921646118,-5.4652233759509485
1708435886.532728,-2.142216205596924,-1.3331484359553833,-2.525424067174093,6.1102954027946375,1.0153447389602661,-5.465179983769552
1708435886.5347424,-2.1421959400177,-1.3331168454936524,-2.5253868738757532,6.110285508423605,1.0153820514678955,-5.465199653302328
1708435886.5367198,-2.1422207355499268,-1.3331825000098725,-2.5254152456866663,6.110282289772787,1.0154285430908203,-5.465178851281301
1708435886.5387323,-2.142265796661377,-1.3331079345992585,-2.525411907826559,6.110225546150961,1.0153701305389404,-5.465208474789755
1708435886.5407555,-2.142191171646118,-1.3331168454936524,-2.525440279637472,6.11021779754714,1.0153942108154297,-5.465138618146078
1708435886.5427196,-2.1422410011291504,-1.3331735891154786,-2.525403086339132,6.1102343676383875,1.0153611898422241,-5.465200964604513
1708435886.5447352,-2.1422579288482666,-1.3331168454936524,-2.525431458150045,6.110238659172811,1.0154228210449219,-5.465241197739736
1708435886.5467262,-2.1422622203826904,-1.333112434749939,-2.5254645983325403,6.110216128617086,1.0154228210449219,-5.46522039571871
1708435886.548733,-2.142254590988159,-1.333154247408249,-2.52541953722109,6.110239493637838,1.0154061317443848,-5.465183262025015
1708435886.5507147,-2.1422340869903564,-1.3331365150264283,-2.525447670613424,6.110211717873373,1.0153987407684326,-5.465196673070089
1708435886.5527282,-2.1422271728515625,-1.3331168454936524,-2.5254061857806605,6.110240804940023,1.0154105424880981,-5.465150539075033
1708435886.5547168,-2.142204761505127,-1.3331735891154786,-2.52541953722109,6.110184538155355,1.015415072441101,-5.465201024209158
1708435886.5567362,-2.1421525478363037,-1.3331454259208222,-2.5254107157336634,6.11015938499526,1.015418291091919,-5.465178851281301
1708435886.5587308,-2.142188787460327,-1.3331168454936524,-2.5254557768451136,6.110199796944418,1.0154346227645874,-5.465229396020071
1708435886.5607684,-2.142139196395874,-1.3331287664226075,-2.5254388491259974,6.110122072487631,1.015430212020874,-5.465217355881826
1708435886.5627236,-2.142164945602417,-1.3331375879100342,-2.5254796187030237,6.1102051613624475,1.0154513120651245,-5.4651222864734095
1708435886.5647273,-2.142123222351074,-1.3331287664226075,-2.5254960695849817,6.110139715462484,1.0154796838760376,-5.465201024209158
1708435886.5667531,-2.14219331741333,-1.333103523855545,-2.5255003611194056,6.110168325691976,1.0154587030410767,-5.465171043072836
1708435886.5687404,-2.142139196395874,-1.3330961030772706,-2.5254345575915735,6.110127794533529,1.0154542922973633,-5.465143088494436
1708435886.570737,-2.142186403274536,-1.3331691783717652,-2.5255211035357874,6.110066997795858,1.0154950618743896,-5.465175453816549
1708435886.5727224,-2.1421782970428467,-1.333178089266159,-2.525487009678976,6.110066997795858,1.0154905319213867,-5.465178851281301
1708435886.574735,-2.1421570777893066,-1.3331409257701416,-2.5255256334887903,6.110059368401327,1.0154662132263184,-5.465184334908621
1708435886.5767171,-2.142120838165283,-1.333132104282715,-2.5255077520953577,6.110071289330282,1.0155024528503418,-5.465175453816549
1708435886.5787156,-2.1421704292297363,-1.3330871921828766,-2.525454346333639,6.110030877381124,1.0155278444290161,-5.465168301259176
1708435886.580742,-2.142134189605713,-1.3331005287221451,-2.525519673024313,6.110048401146688,1.015493392944336,-5.465147618447439
1708435886.582744,-2.142118215560913,-1.333103523855545,-2.5255571047412317,6.109965312271871,1.015526533126831,-5.465242568646566
1708435886.5847704,-2.142144203186035,-1.33315725744281,-2.52553636232485,6.110004889756002,1.015505313873291,-5.465205434952871
1708435886.5867546,-2.1420979499816895,-1.3331124198487778,-2.525543753300802,6.109984504967489,1.0155220031738281,-5.465205434952871
1708435886.5887303,-2.14206862449646,-1.3331735891154786,-2.5254903475390833,6.109972345619955,1.0155712366104126,-5.465155009423391
1708435886.5907192,-2.14206862449646,-1.3331049245646973,-2.5255349318133753,6.109944093018331,1.0155503749847412,-5.465224866067068
1708435886.5927184,-2.142037868499756,-1.333103523855545,-2.525527540837423,6.109858023911276,1.015602946281433,-5.465208474789755
1708435886.594725,-2.1419880390167236,-1.3331409257701416,-2.525576655064718,6.109879839211263,1.0155985355377197,-5.465143088494436
1708435886.5967188,-2.1419599056243896,-1.333171935086586,-2.5255590120898646,6.109839784889974,1.015627145767212,-5.465188745652334
1708435886.5987253,-2.1419572830200195,-1.333112434749939,-2.5255516211139124,6.109823453217306,1.015634536743164,-5.465151969586508
1708435886.6007123,-2.141949415206909,-1.3331242811730881,-2.5255754629718226,6.109815585404196,1.0156556367874146,-5.465205434952871
1708435886.6027339,-2.141925573348999,-1.3331453812173386,-2.5255635420428675,6.109801399498739,1.0156798362731934,-5.465184334908621
1708435886.6047099,-2.1419177055358887,-1.333149866466858,-2.5255916754352015,6.109723317414083,1.0157124996185303,-5.465175453816549
1708435886.6067283,-2.141864538192749,-1.3331409257701416,-2.5256412664996546,6.109679686814108,1.0156753063201904,-5.465229396020071
1708435886.6087248,-2.1418755054473877,-1.3331409257701416,-2.5256038347827356,6.109664666443624,1.0156736373901367,-5.465238157902853
1708435886.610727,-2.1418585777282715,-1.3331735891154786,-2.5256202856646937,6.109616863518514,1.0156810283660889,-5.4651594201671045
1708435886.6127272,-2.141796588897705,-1.3331528466990967,-2.525611464177267,6.109621274262228,1.0157352685928345,-5.465175453816549
1708435886.614716,-2.141782522201538,-1.3331617575934906,-2.525628153477804,6.1094950316245935,1.0157427787780762,-5.465168301259176
1708435886.6167352,-2.1417462825775146,-1.3331365150264283,-2.525651756917135,6.1095852730567834,1.0157549381256104,-5.465201024209158
1708435886.618711,-2.1417338848114014,-1.3331276190331955,-2.5256593863116663,6.109557854920187,1.0158194303512573,-5.4651639501201075
1708435886.6207106,-2.141719102859497,-1.333132104282715,-2.525675598775045,6.109463560372152,1.0158194303512573,-5.4652337471591395
1708435886.6227584,-2.141666889190674,-1.3331602823785325,-2.5256925264941614,6.109469043999471,1.0158225297927856,-5.465151969586508
1708435886.6247134,-2.1416172981262207,-1.3331528466990967,-2.5257282892810267,6.109453666001119,1.0158432722091675,-5.465147618447439
1708435886.626738,-2.1415696144104004,-1.333197758798935,-2.5257118383990687,6.109319913178243,1.0158751010894775,-5.465201024209158
1708435886.6287372,-2.1415445804595947,-1.3331814271262665,-2.5257225672351282,6.109369981079855,1.0159035921096802,-5.465143088494436
1708435886.630722,-2.1415016651153564,-1.3331034493497391,-2.5258048216449183,6.109279739647665,1.0158872604370117,-5.465166632329122
1708435886.632749,-2.1414618492126465,-1.3331484508565445,-2.5257673899279993,6.109294044762411,1.0158947706222534,-5.465192143117086
1708435886.6347222,-2.141449451446533,-1.3331813973239441,-2.525804583226339,6.109298455506124,1.0159968137741089,-5.465175453816549
1708435886.6367302,-2.1414196491241455,-1.3331638288548966,-2.5258033911334437,6.109217631607809,1.015999674797058,-5.465224866067068
1708435886.6387377,-2.1413426399230957,-1.3331691336682816,-2.525832001362936,6.109186279564657,1.0160043239593506,-5.465196673070089
1708435886.640734,-2.1413073539733887,-1.3331932735494156,-2.525860373173849,6.109080421715536,1.0160119533538818,-5.465226236973898
1708435886.6427438,-2.141242742538452,-1.3331932437470932,-2.525896135960714,6.109062421112814,1.016014814376831,-5.465183262025015
1708435886.6447258,-2.141129493713379,-1.333204836850502,-2.5258918444262903,6.108990418701925,1.0160720348358154,-5.465205434952871
1708435886.6467497,-2.1411473751068115,-1.3332335513881226,-2.5259247461902063,6.108898031502523,1.0161247253417969,-5.465199593697683
1708435886.6487424,-2.141058921813965,-1.3332334917834778,-2.5259843508349817,6.108887302666464,1.0161573886871338,-5.465175453816549
1708435886.6507165,-2.1410157680511475,-1.333254174595215,-2.5259504953967493,6.108839618950643,1.0161350965499878,-5.465205494557516
1708435886.652731,-2.1409354209899902,-1.3332814437201996,-2.526020590459005,6.108710038452902,1.0161848068237305,-5.465233687554495
1708435886.6547306,-2.1408424377441406,-1.3332144630006333,-2.526059691105978,6.108708011894979,1.016180157661438,-5.465175453816549
1708435886.6567411,-2.140795946121216,-1.333297775392868,-2.5260749498950403,6.108563291817465,1.0162415504455566,-5.4651639501201075
1708435886.6587257,-2.1406803131103516,-1.3332681220820923,-2.5261076132403772,6.108476388245382,1.0162525177001953,-5.465179983769552
1708435886.660722,-2.1406166553497314,-1.3333080571940918,-2.5261226336108606,6.108392822533407,1.016243577003479,-5.465192143117086
1708435886.662725,-2.1405043601989746,-1.3333007854274292,-2.526179615651266,6.108248102455892,1.0163216590881348,-5.465201024209158
1708435886.6647222,-2.140378713607788,-1.3333453398993989,-2.5262332598315638,6.108144748001852,1.0163650512695312,-5.465178910885946
1708435886.6667423,-2.14031720161438,-1.3333692115596314,-2.526220146809713,6.108074295311727,1.0163723230361938,-5.465187732373373
1708435886.6687202,-2.1401541233062744,-1.333421916966774,-2.5262473265277308,6.107892262726583,1.0163967609405518,-5.465146187935964
1708435886.6707077,-2.1401660442352295,-1.333338202243187,-2.52623421350588,6.107768165856161,1.0164282321929932,-5.465208474789755
1708435886.6727412,-2.139963388442993,-1.333417387013771,-2.526353184376852,6.107626068383016,1.0164719820022583,-5.465199593697683
1708435886.6747127,-2.139836311340332,-1.3334770661643525,-2.5263641516314905,6.107424843102255,1.0165201425552368,-5.465232316647665
1708435886.676727,-2.1397337913513184,-1.3334814322045823,-2.526386801396505,6.107289898186483,1.0165798664093018,-5.465183262025015
1708435886.6787407,-2.139594554901123,-1.3335130226663132,-2.526452366505758,6.107204067498007,1.0166234970092773,-5.465224806462423
1708435886.6807709,-2.13938045501709,-1.333478794699051,-2.5265048185931605,6.106928455620565,1.0167256593704224,-5.46523237625231
1708435886.6827657,-2.1392037868499756,-1.3335056614926835,-2.52647835413088,6.106792318611898,1.0167948007583618,-5.465241138135092
1708435886.6847498,-2.139085531234741,-1.3335519295981904,-2.5265560785876673,6.106548416405477,1.0168249607086182,-5.46525347629656
1708435886.68674,-2.1389176845550537,-1.3335623306087037,-2.5266457239734095,6.106412637024679,1.0169181823730469,-5.465202573929922
1708435886.6887233,-2.1387269496917725,-1.333602951174118,-2.5266650358783167,6.106230246811666,1.0170276165008545,-5.465186182652609
1708435886.6907153,-2.1385679244995117,-1.333668277864792,-2.526680294667379,6.10606204250411,1.0171117782592773,-5.465214494858877
1708435886.6927457,-2.138350486755371,-1.3336790365031739,-2.526797358189718,6.105676758080282,1.0171583890914917,-5.465255026017324
1708435886.6947498,-2.1381075382232666,-1.333689646129944,-2.526750151311056,6.105463611870565,1.0172755718231201,-5.4652355949031275
1708435886.6967237,-2.137887954711914,-1.3337179285338898,-2.5268691221820276,6.105188476830282,1.0174002647399902,-5.465256396924154
1708435886.6987133,-2.1376562118530273,-1.3338087064078827,-2.5268877188311976,6.104904877930441,1.0174965858459473,-5.465268377457754
1708435886.7007165,-2.137437343597412,-1.333790974026062,-2.526947323475973,6.104601490288534,1.0176137685775757,-5.46535045305361
1708435886.702724,-2.137139081954956,-1.3337658208659668,-2.5270658175097864,6.104339468270101,1.0176273584365845,-5.465271059666769
1708435886.7047172,-2.1368556022644043,-1.3338672530702134,-2.527144972478048,6.104068863182821,1.0177074670791626,-5.4653160015689295
1708435886.7067492,-2.136608600616455,-1.3338821691325684,-2.5272050539599817,6.103756773262777,1.0178483724594116,-5.465337161217825
1708435886.7087655,-2.136413097381592,-1.333885208969452,-2.527242962514059,6.103380787163534,1.01796555519104,-5.465344611798422
1708435886.710711,-2.1360485553741455,-1.3339584481767197,-2.5273478666888636,6.103091585427084,1.0180902481079102,-5.465372864400045
1708435886.7127213,-2.135798454284668,-1.3340107661536713,-2.527424160634176,6.102723943978109,1.0181984901428223,-5.465307060872213
1708435886.7147248,-2.135420799255371,-1.334058256154396,-2.527520243321554,6.1023441431816,1.0183099508285522,-5.465353492890493
1708435886.7167196,-2.1351141929626465,-1.334074543123581,-2.5276086966144007,6.102017986565389,1.018446445465088,-5.465314869080679
1708435886.7187154,-2.134787082672119,-1.3340363961509247,-2.5277252832995813,6.101570117264547,1.0185785293579102,-5.465343121682302
1708435886.720711,-2.1343820095062256,-1.3341062527946015,-2.52782112756838,6.101179945259847,1.018694519996643,-5.465343181286947
1708435886.7227561,-2.134005546569824,-1.334170163874962,-2.5278967062579554,6.100678789406576,1.0188357830047607,-5.465338770543234
1708435886.7247276,-2.133681297302246,-1.3342422556928177,-2.528020683919088,6.10021327713088,1.018946886062622,-5.465392235909597
1708435886.726759,-2.133236885070801,-1.3343310964158555,-2.528137747441427,6.099755871086874,1.0191104412078857,-5.465399686490194
1708435886.7287195,-2.1328413486480713,-1.3342711341432114,-2.528253142033712,6.099223720818319,1.0193285942077637,-5.465399686490194
1708435886.730727,-2.13238525390625,-1.334336594944336,-2.528361145650045,6.0986859677131555,1.019460916519165,-5.465392235909597
1708435886.7327342,-2.131986379623413,-1.3344052594951172,-2.52846342722048,6.098228084831991,1.0196455717086792,-5.465378944073812
1708435886.7347345,-2.131523609161377,-1.3345051270774384,-2.5286250750171106,6.097733247071066,1.019826054573059,-5.465423885975973
1708435886.7367911,-2.1311182975769043,-1.3345127713731308,-2.528745237980978,6.097238766938009,1.0199776887893677,-5.465428296719686
1708435886.738723,-2.1306049823760986,-1.334617019896843,-2.528860394154684,6.096649038582601,1.0201748609542847,-5.465456608925955
1708435886.740722,-2.1301186084747314,-1.334644378428795,-2.5289598147021692,6.096135365753927,1.0203295946121216,-5.46541935602297
1708435886.742773,-2.1296310424804688,-1.3347169917872925,-2.5291855970965784,6.09558521488265,1.0205475091934204,-5.4654356876956385
1708435886.7447758,-2.1291005611419678,-1.3347518158010026,-2.529301468526022,6.095006930619039,1.0207561254501343,-5.465471450482504
1708435886.746743,-2.128596782684326,-1.3348160249045868,-2.529449526463644,6.094376075058737,1.0209770202636719,-5.465426866208212
1708435886.7487476,-2.128065824508667,-1.3349498224309464,-2.5296252409564417,6.093668448715963,1.0212148427963257,-5.465417925511495
1708435886.7507527,-2.1274614334106445,-1.3349148345044632,-2.5297978560077112,6.093027817993917,1.0213932991027832,-5.465413514767782
1708435886.7527516,-2.126965284347534,-1.3350563955358048,-2.5299251715289515,6.092277037888326,1.0216505527496338,-5.465462569390432
1708435886.7547312,-2.1263246536254883,-1.3350790005973359,-2.53007680574526,6.091591226845541,1.0218908786773682,-5.465483431016104
1708435886.7567837,-2.1257925033569336,-1.3351507645896454,-2.5302284399615687,6.090917813568868,1.0221599340438843,-5.465453628693716
1708435886.7587702,-2.1252126693725586,-1.3351780486157914,-2.530449692402975,6.090188252716818,1.0223629474639893,-5.465519372616903
1708435886.7607176,-2.124605655670166,-1.3353194010308762,-2.5306387583362024,6.089458930283346,1.0226080417633057,-5.465547684823171
1708435886.76275,-2.123929500579834,-1.3353673231652756,-2.5307815710650843,6.088700282364645,1.0228453874588013,-5.465535585080282
1708435886.7647264,-2.12325382232666,-1.3354822558215638,-2.5309775511371058,6.0878769038017175,1.0231596231460571,-5.465498630200521
1708435886.7667692,-2.122601270675659,-1.3355704557946702,-2.5311577955829065,6.087053048401632,1.0233954191207886,-5.4655965010272425
1708435886.7687712,-2.1218767166137695,-1.3356382709792634,-2.531419817601339,6.086122858315267,1.0236719846725464,-5.465538744126455
1708435886.7707345,-2.1211867332458496,-1.3357380640557786,-2.531549040471212,6.085295426636495,1.0239845514297485,-5.465575818215505
1708435886.7727566,-2.120481491088867,-1.3357833188823243,-2.531736675892965,6.084442603379049,1.024241328239441,-5.465571467076437
1708435886.774716,-2.119739294052124,-1.335901067858078,-2.5319705645190638,6.083577978401937,1.0244836807250977,-5.465555493031637
1708435886.7767556,-2.1189396381378174,-1.336008445625641,-2.5321818033801478,6.082644212036886,1.024788498878479,-5.465513769780294
1708435886.7787333,-2.118159770965576,-1.3360922795585175,-2.532339636479513,6.081717240601339,1.0250864028930664,-5.465530041848318
1708435886.7807243,-2.1173622608184814,-1.3362128895572205,-2.5325523058520716,6.0807591555412195,1.0253984928131104,-5.465542260800497
1708435886.782791,-2.1165263652801514,-1.3362869185260315,-2.5328546206103724,6.079724299698629,1.0257024765014648,-5.46558648744692
1708435886.7848387,-2.1156978607177734,-1.336426929836609,-2.5329962412463587,6.078729140549459,1.0261023044586182,-5.465545062218801
1708435886.7867665,-2.114762306213379,-1.3365093779614945,-2.533301893864767,6.077710616379537,1.0264086723327637,-5.465623859559194
1708435886.788769,-2.113919973373413,-1.3366421622088929,-2.53355056444277,6.076646673470297,1.026787519454956,-5.465577606354849
1708435886.7907257,-2.112994432449341,-1.3367738288692017,-2.533729616795675,6.075569855957784,1.0270600318908691,-5.465595249329702
1708435886.792759,-2.112092971801758,-1.3368409884027024,-2.533940855656759,6.0744902966316126,1.0274078845977783,-5.465590838585989
1708435886.7947369,-2.111097574234009,-1.336981327538826,-2.5342257658587855,6.073328006058492,1.0277525186538696,-5.465590898190634
1708435886.7967544,-2.1102051734924316,-1.3370848161033173,-2.534477774296896,6.072216975479879,1.0280985832214355,-5.465595249329702
1708435886.7987428,-2.1091835498809814,-1.337151051764824,-2.5347371737109583,6.071130740433492,1.0284620523452759,-5.465565685425894
1708435886.800717,-2.10821533203125,-1.3373481196216126,-2.5350220839129847,6.0698362467582605,1.028843879699707,-5.465565685425894
1708435886.8027241,-2.1072311401367188,-1.3374511909535904,-2.53526479402651,6.068611728935995,1.0292123556137085,-5.46558648744692
1708435886.8047173,-2.1061148643493652,-1.3376107525876542,-2.5355332533465784,6.0673179505165,1.0296375751495361,-5.46563566127886
1708435886.806793,-2.10510516166687,-1.3377303642085572,-2.535834614430563,6.0660825846488855,1.029982566833496,-5.4656357804881495
1708435886.8087292,-2.1040236949920654,-1.337887929087021,-2.5361340681659144,6.0648525831993005,1.0303542613983154,-5.465643171464102
1708435886.8107216,-2.102970600128174,-1.3380358529141922,-2.536365334187643,6.0636236546333215,1.030747890472412,-5.465595249329702
1708435886.8127193,-2.1018266677856445,-1.3381554794362565,-2.5366578737842005,6.062355744629659,1.0311403274536133,-5.4655582944499415
1708435886.8147159,-2.1007015705108643,-1.3382256639054795,-2.5368967692004603,6.060949432640829,1.031504511833191,-5.4655702153788965
1708435886.8167655,-2.0995419025421143,-1.3383855831674119,-2.537229124699728,6.0596355078514,1.0319502353668213,-5.465607468281881
1708435886.8187423,-2.098388433456421,-1.33849190295253,-2.5375455061541956,6.058161723404684,1.0323587656021118,-5.465586427842275
1708435886.8207195,-2.097198486328125,-1.3386472028544922,-2.537788693104879,6.056768524437704,1.0328242778778076,-5.465578917657034
1708435886.822728,-2.095993995666504,-1.3387830418399354,-2.538116757069723,6.0553550598915,1.0332533121109009,-5.465571407471792
1708435886.8247235,-2.0946812629699707,-1.3390000474504014,-2.538424317036764,6.053858625679769,1.0336472988128662,-5.465616170560018
1708435886.8267138,-2.0934300422668457,-1.3391061884215851,-2.53871995607485,6.052313554077902,1.034143090248108,-5.4655256311046045
1708435886.828715,-2.0921998023986816,-1.3392916035703202,-2.5390329996692103,6.050766336708822,1.0345665216445923,-5.465522531663076
1708435886.8307173,-2.0909063816070557,-1.3394092929414292,-2.5393360296832483,6.049160349159994,1.0350151062011719,-5.465501670037405
1708435886.8327153,-2.0895791053771973,-1.3395831745914002,-2.539668862019674,6.047594654351034,1.0355018377304077,-5.465526882802145
1708435886.83474,-2.0883219242095947,-1.3397411418012162,-2.539976183568136,6.046055781632223,1.0359456539154053,-5.465526882802145
1708435886.8367445,-2.0869414806365967,-1.339868189101555,-2.540292803441183,6.044436800270834,1.0364304780960083,-5.465483371411459
1708435886.8387394,-2.0855305194854736,-1.3400761199048539,-2.5406208674060267,6.042748558312216,1.0368744134902954,-5.465462569390432
1708435886.8407462,-2.08418607711792,-1.3402482730201264,-2.5409699122058313,6.041032302170553,1.0373984575271606,-5.465414885674612
1708435886.842741,-2.0828096866607666,-1.3403945726207276,-2.541269842778341,6.039360749512472,1.0378212928771973,-5.465402666722433
1708435886.8447325,-2.081399440765381,-1.3405201000026246,-2.5415642897235315,6.037720429688253,1.0382781028747559,-5.465395275746481
1708435886.8467565,-2.0799150466918945,-1.3407652390054245,-2.5419252554522913,6.035955178528585,1.0388044118881226,-5.465352062379019
1708435886.8487422,-2.0784573554992676,-1.3408876669457932,-2.542215410863058,6.034211265831747,1.0392788648605347,-5.465319279824392
1708435886.8507261,-2.0769591331481934,-1.341141716842987,-2.542544190083639,6.032481419831075,1.039754867553711,-5.465307060872213
1708435886.8527505,-2.075485944747925,-1.3413811188987275,-2.542912308369772,6.030692088394918,1.0402244329452515,-5.465344611798422
1708435886.8547368,-2.073991537094116,-1.3415740740350266,-2.543269220982687,6.028987514763632,1.040696144104004,-5.4652268330203455
1708435886.8567405,-2.0724244117736816,-1.3417354834130784,-2.543567721043722,6.027181136399069,1.0412088632583618,-5.465211574231283
1708435886.8587534,-2.070894479751587,-1.34190587819133,-2.543941084538595,6.025232660561361,1.0417481660842896,-5.465154949818746
1708435886.86073,-2.0692930221557617,-1.3420880299857636,-2.5442352930652063,6.02336739280776,1.042186975479126,-5.465192143117086
1708435886.8627172,-2.06765079498291,-1.3422765892795105,-2.5446088949786585,6.021489965706625,1.042691946029663,-5.465083245431082
1708435886.8647518,-2.0660853385925293,-1.342479721908905,-2.5449233690844935,6.019468652993002,1.0432257652282715,-5.465047482644216
1708435886.8667417,-2.064410448074341,-1.3426633936217804,-2.5452759901629847,6.0175280449684045,1.0437140464782715,-5.46498287120928
1708435886.8687937,-2.062774419784546,-1.3428455603173752,-2.545631233845846,6.015502917557516,1.0442309379577637,-5.464927677308218
1708435886.870746,-2.0610666275024414,-1.3430865567973633,-2.545995537434713,6.013526069908895,1.044854760169983,-5.464905087147848
1708435886.872741,-2.0593833923339844,-1.3433139485171814,-2.5462945143329065,6.011602031975546,1.0453338623046875,-5.464812461529867
1708435886.8747513,-2.057683229446411,-1.3434763711741944,-2.5467167536364954,6.009514796524801,1.045846700668335,-5.464736465607778
1708435886.8767192,-2.0558922290802,-1.3437322539142151,-2.5470426718341272,6.007435309677877,1.0463515520095825,-5.4647454659091395
1708435886.8787766,-2.0541977882385254,-1.3439594072154541,-2.547448460255758,6.005346524506368,1.0468778610229492,-5.464588526879446
1708435886.8807576,-2.052333354949951,-1.3441088658622284,-2.547795120869772,6.003214704781332,1.047444462776184,-5.4645825068103235
1708435886.882803,-2.0505645275115967,-1.344325454240181,-2.5481835047351282,6.001099693566122,1.0479596853256226,-5.464444939290182
1708435886.8847399,-2.0487918853759766,-1.3445645880750199,-2.548474375401632,5.998954880028524,1.0484973192214966,-5.46437651315798
1708435886.886755,-2.0469582080841064,-1.34479175627742,-2.548870627080099,5.9968052981193445,1.049013376235962,-5.464288417493002
1708435886.8887851,-2.0451345443725586,-1.3449817460826416,-2.5492423216449183,5.994659411698141,1.0495139360427856,-5.464204553757803
1708435886.890729,-2.0432255268096924,-1.3452539604953309,-2.5496438185321253,5.99238811710433,1.0499770641326904,-5.464150671158926
1708435886.892745,-2.041400909423828,-1.3454872232726593,-2.549961868916647,5.990131962090292,1.0505162477493286,-5.464086417351858
1708435886.8947277,-2.039433479309082,-1.3456351470998307,-2.5503395239459437,5.987796413689413,1.0509761571884155,-5.463990871106283
1708435886.8967338,-2.0375235080718994,-1.3459111613086243,-2.5506864229785364,5.985435592919149,1.0514403581619263,-5.46389222541918
1708435886.8987489,-2.0355465412139893,-1.3461879652789612,-2.5510833899127405,5.983143436699667,1.0520085096359253,-5.463801089917318
1708435886.900758,-2.033627510070801,-1.3464182776263733,-2.551417652760641,5.9808117029960535,1.0525376796722412,-5.463701073323385
1708435886.9027264,-2.031623601913452,-1.346642331486084,-2.5518227259265345,5.978486764221945,1.0531224012374878,-5.463501159344808
1708435886.9047225,-2.0296053886413574,-1.3469260793975373,-2.552246872578756,5.976125228195944,1.053717017173767,-5.463448230420248
1708435886.9067411,-2.0276126861572266,-1.3471355897239228,-2.552605692540304,5.973664152413168,1.0542643070220947,-5.463388804589407
1708435886.9088054,-2.0256316661834717,-1.3474402886680146,-2.553027931843893,5.971280681877889,1.0548232793807983,-5.463294510041372
1708435886.910758,-2.0235207080841064,-1.3476586800864716,-2.5533745924579065,5.968847620278158,1.0554099082946777,-5.463140908871786
1708435886.9127653,-2.0214366912841797,-1.3479146224311371,-2.553685013447897,5.96651970127181,1.0560003519058228,-5.4631240407573145
1708435886.914737,-2.019399642944336,-1.3482147765210648,-2.5540648142444056,5.963976967125692,1.0565733909606934,-5.4629345575915735
1708435886.9167829,-2.0172641277313232,-1.348414884214737,-2.554441038762228,5.961555349617758,1.0572246313095093,-5.462850872670309
1708435886.9187381,-2.0150530338287354,-1.3486826431802292,-2.5547974745379847,5.958986747055807,1.057734727859497,-5.462723616753713
1708435886.9207366,-2.0129029750823975,-1.348985881810524,-2.555124823247091,5.956460344582357,1.0582669973373413,-5.462608639393942
1708435886.922765,-2.010728597640991,-1.3492235404304047,-2.5555370489703577,5.95389877536849,1.0588090419769287,-5.462456289921896
1708435886.9247775,-2.0084991455078125,-1.3495552402785798,-2.555872980748312,5.951238620072164,1.0594028234481812,-5.462369445954458
1708435886.9267607,-2.0062739849090576,-1.3498769414475937,-2.556269947682516,5.948702204018392,1.0599632263183594,-5.462228898202078
1708435886.9287333,-2.0040276050567627,-1.3501517635634919,-2.556591574345724,5.946132647782125,1.0605546236038208,-5.46209025779833
1708435886.9307299,-2.001814126968384,-1.350393534903862,-2.556984249745504,5.943523275643148,1.0611201524734497,-5.461979333554403
1708435886.9327605,-1.9996967315673828,-1.3507287067225953,-2.557357374821798,5.940972792893209,1.0615686178207397,-5.461850945149557
1708435886.9347239,-1.9974569082260132,-1.3509799850038071,-2.557688061391012,5.938425767212667,1.0621364116668701,-5.4617061654673975
1708435886.93676,-1.995337724685669,-1.351242647772171,-2.5580521265613,5.935932385712423,1.062615990638733,-5.461543265973226
1708435886.9387584,-1.9931005239486694,-1.3515210908702393,-2.558375660573141,5.933406340866842,1.0631765127182007,-5.461395267640249
1708435886.9407296,-1.9908384084701538,-1.3518410188010712,-2.5587883631335657,5.930881130486288,1.0637341737747192,-5.461317483578817
1708435886.9427662,-1.9886467456817627,-1.3520831328681489,-2.5591111818896692,5.928217875748434,1.0643248558044434,-5.461176995431082
1708435886.9447565,-1.9864113330841064,-1.3523985159448166,-2.5594592730151575,5.925626981049337,1.0648119449615479,-5.460981313382284
1708435886.9467418,-1.984157919883728,-1.3527021569064637,-2.5598235766040247,5.923009383469381,1.065348505973816,-5.460878197346823
1708435886.9487646,-1.9819127321243286,-1.3529975575259705,-2.5601757208453577,5.920487153321066,1.0658504962921143,-5.4607752601252955
1708435886.9507296,-1.9797347784042358,-1.3532519054463883,-2.560535494481222,5.917977201729574,1.0663657188415527,-5.460622731839315
1708435886.952784,-1.9775421619415283,-1.3535448771766205,-2.5608423391925257,5.915420520096578,1.0669362545013428,-5.460531655942098
1708435886.954733,-1.975398063659668,-1.3539021772197266,-2.561246935521261,5.912809479027548,1.0674524307250977,-5.460335556660787
1708435886.956779,-1.9731696844100952,-1.35420115411792,-2.561535183583395,5.910287487297811,1.0680409669876099,-5.4602400104152125
1708435886.958739,-1.9709917306900024,-1.354478807454445,-2.561899010335104,5.907728659897604,1.0685365200042725,-5.460113231335775
1708435886.96077,-1.968870759010315,-1.3547359120896836,-2.562308375035421,5.905216920166769,1.0690815448760986,-5.459990445767538
1708435886.9627342,-1.9667590856552124,-1.3550679695657273,-2.562631909047262,5.902676689415731,1.069629430770874,-5.459810082112448
1708435886.964728,-1.9645570516586304,-1.3553548616221924,-2.56301719347109,5.900172936707296,1.0701160430908203,-5.45971125761141
1708435886.9667494,-1.9623545408248901,-1.3556462091258545,-2.563293759022848,5.897564279824056,1.0706589221954346,-5.459603611622946
1708435886.9687319,-1.9601095914840698,-1.3559825134328385,-2.563711945210592,5.894990551262655,1.0712435245513916,-5.459452692662374
1708435886.9707472,-1.9579437971115112,-1.3562533271363755,-2.5640061537372034,5.892373311310568,1.071751594543457,-5.459303561841146
1708435886.9727466,-1.9557559490203857,-1.3565404278090973,-2.564406458531515,5.889749514847555,1.0722925662994385,-5.4591925779925745
1708435886.9747179,-1.9535099267959595,-1.3568629187396546,-2.564754072819845,5.88720582702712,1.0728496313095093,-5.459061388169424
1708435886.9767513,-1.951321005821228,-1.3572320205024262,-2.5651524702655237,5.884694921761312,1.0733777284622192,-5.458913330231802
1708435886.978729,-1.9491702318191528,-1.357444019322731,-2.5654380957232874,5.882143723755636,1.0738850831985474,-5.458735529576437
1708435886.9807343,-1.9469860792160034,-1.3577758085778733,-2.5658355394946497,5.879644143372335,1.0744107961654663,-5.4586830774890345
1708435886.9827943,-1.9447228908538818,-1.3580421072295685,-2.566117588673727,5.877047168999471,1.0749469995498657,-5.458532039319174
1708435886.9847417,-1.9425665140151978,-1.3583711248687287,-2.566526714955465,5.874532925873556,1.0755034685134888,-5.45840830007662
1708435886.986764,-1.9403079748153687,-1.3586354714683075,-2.5668614546405237,5.871951687126913,1.0760513544082642,-5.458285454903738
1708435886.9887316,-1.9381396770477295,-1.3589223337224503,-2.5672629515277308,5.869478690415182,1.076584815979004,-5.458157126103536
1708435886.9907372,-1.9359017610549927,-1.3592049342444916,-2.5675485769854944,5.866888749390402,1.077117919921875,-5.457955602799551
1708435886.9927785,-1.933743953704834,-1.3594589990428467,-2.5678842703448694,5.864316093712606,1.0775965452194214,-5.457922462617056
1708435886.99472,-1.9315625429153442,-1.359731213455536,-2.5682855288134974,5.861746060639181,1.078113079071045,-5.457713369523184
1708435886.9967544,-1.9293532371520996,-1.3600436610034485,-2.56860858598818,5.859147059708395,1.0786221027374268,-5.45761484304537
1708435886.9987237,-1.9271633625030518,-1.3603393000415345,-2.5690384546863,5.85660873630599,1.0792016983032227,-5.4574995080577295
1708435887.0007503,-1.9249095916748047,-1.3605846774629136,-2.5694103876696985,5.854044782906332,1.079695224761963,-5.45734286705126
1708435887.002774,-1.9227561950683594,-1.3608595740846177,-2.5697792212115687,5.851485121041097,1.080223560333252,-5.4572652021991175
1708435887.004745,-1.9205524921417236,-1.3611507576755066,-2.570077721272604,5.84891043880538,1.080714225769043,-5.45709336200823
1708435887.0068204,-1.9183634519577026,-1.3614142102054139,-2.570409123097555,5.846369969635763,1.0812517404556274,-5.456952754651205
1708435887.008747,-1.9161450862884521,-1.3616889876178284,-2.5707572142230433,5.843904840737142,1.0817844867706299,-5.456825498734609
1708435887.0107398,-1.913974642753601,-1.3619464200786133,-2.5711539427386683,5.841348278313436,1.0823147296905518,-5.456652526055471
1708435887.0127873,-1.9117887020111084,-1.362230436210968,-2.5714646021472376,5.838909971504965,1.0828372240066528,-5.456534210835592
1708435887.0147204,-1.909545660018921,-1.362546981578209,-2.571841303502218,5.836388337403097,1.0833940505981445,-5.456427101288931
1708435887.016781,-1.9073400497436523,-1.3628697854331513,-2.57214862505068,5.833885299950399,1.083897590637207,-5.456290964280264
1708435887.0187333,-1.905074954032898,-1.3631151181510468,-2.5725207964526575,5.831240880280294,1.0844117403030396,-5.4561965505229395
1708435887.020739,-1.902893304824829,-1.3633709710887452,-2.5728772322284144,5.828730690270223,1.084956169128418,-5.45607710281481
1708435887.0227413,-1.900693416595459,-1.3636460614255448,-2.5731969515429896,5.82611762264327,1.0855222940444946,-5.455927912388937
1708435887.0247355,-1.8984737396240234,-1.3639132243445893,-2.573580805455343,5.823621260910787,1.0860793590545654,-5.455821696911947
1708435887.0267363,-1.8962799310684204,-1.3641914290240784,-2.5739005247699183,5.821042406349935,1.0865943431854248,-5.455657545720236
1708435887.0287526,-1.8940911293029785,-1.364527629022934,-2.5742319265948694,5.8184759495551965,1.0871933698654175,-5.455497268830435
1708435887.0307198,-1.8918523788452148,-1.3647936147502442,-2.574609104787008,5.815881240158834,1.087687373161316,-5.455391291772024
1708435887.0327551,-1.8895970582962036,-1.3651463997415085,-2.574927632008688,5.813361632614889,1.0882346630096436,-5.455285255108969
1708435887.0347378,-1.8873989582061768,-1.3653930586627503,-2.575279776250021,5.81084572055892,1.0887610912322998,-5.45517743030657
1708435887.0367427,-1.8852174282073975,-1.3656216722777863,-2.575615946446554,5.808273184090414,1.089308738708496,-5.454954926167623
1708435887.0387337,-1.8830502033233643,-1.3659594816020508,-2.5759595076190394,5.80573998668746,1.0897421836853027,-5.4548519293414515
1708435887.040732,-1.8808043003082275,-1.3662986916354676,-2.5763073603259485,5.8031829474265955,1.0903170108795166,-5.454672638569967
1708435887.042745,-1.8785991668701172,-1.3665352028659363,-2.576667133961813,5.800546037941732,1.0908411741256714,-5.454597894345419
1708435887.0447247,-1.8764104843139648,-1.366883785729744,-2.577073399220602,5.797949659615316,1.0913029909133911,-5.454514447842733
1708435887.0467343,-1.8741720914840698,-1.3670805555633088,-2.5773914496051233,5.7954455492790125,1.0919206142425537,-5.454420272503988
1708435887.0487394,-1.8720464706420898,-1.3674335044673462,-2.5777958075152796,5.792918789177694,1.0924370288848877,-5.454305295144216
1708435887.0507348,-1.8699121475219727,-1.3676920247128983,-2.578062121068136,5.790347087174215,1.0929166078567505,-5.454123322163717
1708435887.0527382,-1.867700457572937,-1.3680118483356019,-2.578447167073385,5.787745463639059,1.0934494733810425,-5.4540128151523035
1708435887.054741,-1.8654907941818237,-1.3682687741569062,-2.5788849035846155,5.785126912384786,1.0939984321594238,-5.453906838093893
1708435887.056774,-1.863303542137146,-1.3685485434583207,-2.5792389551745813,5.782576191216268,1.0945507287979126,-5.453761998807089
1708435887.0587757,-1.8610754013061523,-1.368854896431305,-2.5795910994159144,5.780029880791464,1.0951206684112549,-5.453654531632559
1708435887.0607448,-1.8589270114898682,-1.3691550356200715,-2.5799554030047815,5.777515637665548,1.0956815481185913,-5.453499559556143
1708435887.0627482,-1.8567248582839966,-1.3694794338992615,-2.580327574406759,5.7749976990516565,1.0961276292800903,-5.453360442315237
1708435887.0647273,-1.8545225858688354,-1.3697337967208405,-2.5806708971606653,5.772510754853048,1.096677541732788,-5.453205410634176
1708435887.0667422,-1.8523478507995605,-1.3700311940959473,-2.5810068289386194,5.7699530003364465,1.0971448421478271,-5.453081254159109
1708435887.0687435,-1.8501200675964355,-1.370265857582428,-2.581292215977804,5.767375099449911,1.0976977348327637,-5.453006509934561
1708435887.070735,-1.8478878736495972,-1.370561809544899,-2.5817440191852015,5.764846074372091,1.098215103149414,-5.452797714863912
1708435887.0727708,-1.8457348346710205,-1.3708623361638566,-2.582021776829855,5.762340771942892,1.0987111330032349,-5.452722970639364
1708435887.074729,-1.8435595035552979,-1.3710788649371644,-2.5824108759509485,5.759759413986959,1.0992673635482788,-5.45255166689028
1708435887.0767343,-1.841367483139038,-1.371394233112671,-2.582740847264425,5.757253873139181,1.099849820137024,-5.452420477067129
1708435887.0787344,-1.8391568660736084,-1.3716738385013123,-2.583113495503561,5.75469337680892,1.1004096269607544,-5.452309791241781
1708435887.0807319,-1.8369213342666626,-1.3719099026969452,-2.583449188862936,5.752095806389608,1.1009043455123901,-5.452211205159323
1708435887.0827587,-1.834703803062439,-1.372252182369568,-2.583787981663839,5.749551641732015,1.1014906167984009,-5.452071015034811
1708435887.0847588,-1.8325408697128296,-1.3724930447391053,-2.58413535753359,5.7470189211662195,1.1020311117172241,-5.451951567326681
1708435887.0867517,-1.8303329944610596,-1.3727961641601105,-2.5845068136798304,5.744461762696066,1.1025359630584717,-5.451828960572378
1708435887.0887578,-1.8280844688415527,-1.373190925722458,-2.5848575274096888,5.741961705475607,1.1030508279800415,-5.451639238988058
1708435887.0907273,-1.82593834400177,-1.373485342865326,-2.5852137247668665,5.739340770035543,1.1035314798355103,-5.4515618721591395
1708435887.0927372,-1.8236844539642334,-1.3737601798823853,-2.5855570475207728,5.736700880318441,1.1040434837341309,-5.45143044391741
1708435887.094727,-1.8214530944824219,-1.3739323180964966,-2.5858851114856165,5.734220969467916,1.1045687198638916,-5.45126319328417
1708435887.096748,-1.8192684650421143,-1.3742738229087372,-2.586247984563009,5.731571304589071,1.1050519943237305,-5.451103631650106
1708435887.098727,-1.8170921802520752,-1.3745568853667756,-2.5866366068469446,5.729110824852743,1.1056560277938843,-5.4509515205966395
1708435887.1007283,-1.8148634433746338,-1.3748473984054108,-2.586975638066427,5.7265615341956995,1.1061785221099854,-5.450848404561178
1708435887.1027625,-1.812687635421753,-1.3751725119403382,-2.5873144308673304,5.724003422051229,1.1067557334899902,-5.450754229222433
1708435887.1047273,-1.8104443550109863,-1.3754343849471589,-2.5876620451556605,5.721401083260336,1.1072828769683838,-5.45058119693865
1708435887.1067746,-1.8083008527755737,-1.375727967625,-2.5880094210254114,5.71884165981368,1.1078163385391235,-5.450440887604849
1708435887.1087298,-1.806130051612854,-1.3759612006000062,-2.58840257326235,5.716358649521627,1.1083070039749146,-5.450322870408193
1708435887.110727,-1.8039357662200928,-1.376326547270157,-2.588701311741964,5.713836300164022,1.1088697910308838,-5.4502034227000635
1708435887.1127691,-1.8017271757125854,-1.3765992683223267,-2.589081589375631,5.711309420853414,1.109330415725708,-5.450107816849844
1708435887.1147509,-1.7995163202285767,-1.3769133698991318,-2.5894530455218714,5.708726334362783,1.1098414659500122,-5.449998740349905
1708435887.1167617,-1.7972891330718994,-1.3771964472583313,-2.5897796789752405,5.7061025378997705,1.1103700399398804,-5.449808184300558
1708435887.118738,-1.7950953245162964,-1.3774794203094025,-2.5901346842395228,5.703584778099813,1.110782504081726,-5.449752632771627
1708435887.120735,-1.7929271459579468,-1.3778091383031388,-2.590494219456808,5.701010393887319,1.1113379001617432,-5.449579362069265
1708435887.122766,-1.7907425165176392,-1.3780378711274643,-2.5908263365374964,5.698530065804281,1.1118470430374146,-5.449443523083822
1708435887.1247268,-1.788537859916687,-1.3783584994128724,-2.5911453405963343,5.695956158428945,1.1123677492141724,-5.449312214051382
1708435887.1267598,-1.7863110303878784,-1.3786338728717347,-2.591491762791769,5.693418788700857,1.1129893064498901,-5.449176375065939
1708435887.1287398,-1.7840970754623413,-1.3788930934718628,-2.591896120701925,5.6908506629760645,1.1135282516479492,-5.449058596287863
1708435887.1307392,-1.781882882118225,-1.3791926962188263,-2.592269245778219,5.6882632849510095,1.1140928268432617,-5.448843959962026
1708435887.132731,-1.7797126770019531,-1.3794592481902619,-2.592583719884054,5.685770499497213,1.1146868467330933,-5.448787037526266
1708435887.1347306,-1.7775944471359253,-1.3797554534724732,-2.592910353337423,5.683169531613149,1.1152229309082031,-5.448634390030996
1708435887.136718,-1.7753863334655762,-1.3800612402013321,-2.593311373387472,5.680681752949514,1.115814208984375,-5.448552493249075
1708435887.1387365,-1.7732245922088623,-1.3803216081908722,-2.5936666170703333,5.6780836460884,1.11630380153656,-5.448413733636038
1708435887.1407332,-1.7709410190582275,-1.3806132686189194,-2.594018284474508,5.675496506481924,1.116841197013855,-5.448245231305258
1708435887.142804,-1.7687515020370483,-1.3808771532825013,-2.5943616072284144,5.672884213715353,1.1173350811004639,-5.448113743458883
1708435887.1447673,-1.7665388584136963,-1.3811451953700562,-2.5947657267199915,5.670319843083181,1.1178919076919556,-5.448019627724783
1708435887.1467612,-1.7643464803695679,-1.3814325642636796,-2.5951133410083216,5.667782950192251,1.118498682975769,-5.447821442280905
1708435887.148727,-1.7621642351150513,-1.381720246081688,-2.595382277165548,5.665352332382955,1.1189806461334229,-5.447707835827963
1708435887.150785,-1.760017991065979,-1.3820212048343201,-2.5958078543292444,5.662757801800527,1.119510531425476,-5.4475717584239405
1708435887.1527221,-1.7577171325683594,-1.3823132079890748,-2.596072498952047,5.660178172379293,1.1200600862503052,-5.447424058114187
1708435887.1547632,-1.7555315494537354,-1.382580043082573,-2.5964582602130335,5.6576764462287805,1.1205060482025146,-5.447309199963705
1708435887.156719,-1.7533479928970337,-1.382916585808136,-2.596837345753805,5.655161309033193,1.121079444885254,-5.447194162999288
1708435887.158757,-1.7511283159255981,-1.383083001976349,-2.597201172505514,5.652630078583517,1.1216275691986084,-5.447037581597463
1708435887.1607597,-1.7489207983016968,-1.3834543836167832,-2.5975032488452356,5.650181758194723,1.1222025156021118,-5.446931783352987
1708435887.1627197,-1.7467032670974731,-1.3837206822684784,-2.597890917454855,5.647582161217489,1.1226937770843506,-5.44678378502001
1708435887.1647403,-1.744511604309082,-1.3840395671180268,-2.5982638041125696,5.645122873574056,1.1232340335845947,-5.44667756954302
1708435887.1667242,-1.742281198501587,-1.384276197557785,-2.5985990206347864,5.642486142903127,1.1237218379974365,-5.446565632020132
1708435887.1687214,-1.7400429248809814,-1.3845965278199692,-2.5989628473864954,5.639921295433798,1.1242640018463135,-5.446446541939871
1708435887.1707535,-1.7378454208374023,-1.3848919880441208,-2.5993345419513147,5.63733737447814,1.1247458457946777,-5.4463359157191675
1708435887.1727288,-1.7356163263320923,-1.3851779860309144,-2.599624220524923,5.634735750942983,1.1253446340560913,-5.446143154297964
1708435887.1747484,-1.7334874868392944,-1.385449842815735,-2.600020710621969,5.632205712586202,1.1258314847946167,-5.446061197911398
1708435887.1767228,-1.7313169240951538,-1.385791764860489,-2.6004050413714808,5.62964295127944,1.1263972520828247,-5.445884946976797
1708435887.1787384,-1.7291407585144043,-1.3860683602145691,-2.6007023493396204,5.6270882962043665,1.126937747001648,-5.445765439664022
1708435887.1807146,-1.7269186973571777,-1.3863771718791504,-2.6010497252093714,5.624468493252554,1.127466082572937,-5.445638839398519
1708435887.1827295,-1.724691390991211,-1.3866437089494248,-2.601447645817892,5.621925341873922,1.1279689073562622,-5.445532683526174
1708435887.1847394,-1.7225185632705688,-1.3869237911752244,-2.6017654577838343,5.619420039444723,1.1285393238067627,-5.445358280335562
1708435887.1867185,-1.720362901687622,-1.3872051698020478,-2.602137867604391,5.616891014366903,1.1290680170059204,-5.445214931164877
1708435887.1887376,-1.718127727508545,-1.38755418479953,-2.6024606863604944,5.61431114652709,1.1295428276062012,-5.445120815430776
1708435887.1907213,-1.716009497642517,-1.3878534895232697,-2.602800432835714,5.611763107567587,1.1300870180130005,-5.444926683102743
1708435887.1927361,-1.7137829065322876,-1.3881198328784485,-2.6031761805163782,5.609134244709768,1.1306692361831665,-5.444858018551962
1708435887.1947255,-1.7116272449493408,-1.3884822887233277,-2.603516165410177,5.606596100121298,1.1312040090560913,-5.444705907498495
1708435887.1967173,-1.7094008922576904,-1.3886616987041016,-2.603851620350973,5.604115235596456,1.1317534446716309,-5.444558147584097
1708435887.1987329,-1.707234501838684,-1.3889989119819184,-2.604210440312521,5.601469027787008,1.1322611570358276,-5.444463972245352
1708435887.2007565,-1.7050693035125732,-1.3893432480147858,-2.6045292059527796,5.5989083526428125,1.132851004600525,-5.4442746082889
1708435887.2027133,-1.7028398513793945,-1.389605389242508,-2.604906145726339,5.596304106503286,1.1333929300308228,-5.444144550954
1708435887.2047236,-1.7006442546844482,-1.3899015945247193,-2.605257813130514,5.59378873088912,1.133941888809204,-5.44406229654421
1708435887.2067468,-1.698469877243042,-1.3901727509549637,-2.605572764073507,5.591301965504446,1.134412169456482,-5.443938497697012
1708435887.208736,-1.6962621212005615,-1.3904751253179093,-2.6059234778033655,5.588786291867056,1.1349825859069824,-5.4437788168536585
1708435887.2107215,-1.6940231323242188,-1.3908374172500153,-2.6062431971179407,5.586269724159994,1.1354652643203735,-5.443663839493887
1708435887.2127197,-1.6918479204177856,-1.3910621118596573,-2.6065989176379603,5.583725142269888,1.1359862089157104,-5.443450633679525
1708435887.214737,-1.6895718574523926,-1.391377941971161,-2.6069627443896692,5.581076907902517,1.1365070343017578,-5.443351987992422
1708435887.2167232,-1.6873927116394043,-1.3916220974973221,-2.60730749765505,5.578534710198202,1.1370339393615723,-5.443307224904196
1708435887.2187388,-1.6851704120635986,-1.391876460318901,-2.6076417605029505,5.5759968040283105,1.1375503540039062,-5.443121973668234
1708435887.220717,-1.6829333305358887,-1.3922257882407685,-2.6080711523639124,5.573521303921499,1.13811194896698,-5.443023387585775
1708435887.2227304,-1.6808072328567505,-1.392467425470688,-2.608377281819479,5.571034538536825,1.1386888027191162,-5.442883316670553
1708435887.2247522,-1.678652048110962,-1.392744557266571,-2.608781162892477,5.568441676884451,1.1392414569854736,-5.442707006131307
1708435887.2267535,-1.6764165163040161,-1.393009678726532,-2.6090708414660853,5.565820205002584,1.1397275924682617,-5.442634050046102
1708435887.228726,-1.6742058992385864,-1.393334613447525,-2.6094065348254603,5.563208150654592,1.1402819156646729,-5.442502562199728
1708435887.2307289,-1.672023892402649,-1.3936231297305604,-2.6097376982318323,5.56063477972106,1.140811800956726,-5.442378703747885
1708435887.2327366,-1.6698105335235596,-1.393812434082367,-2.6101790110217493,5.558150994568624,1.1413615942001343,-5.442246977482931
1708435887.2347455,-1.6676583290100098,-1.3941252094558259,-2.610514465962545,5.555637943535604,1.1418689489364624,-5.4420950452433985
1708435887.2367187,-1.6654515266418457,-1.39438749969516,-2.6108980814563196,5.553116369038381,1.1423972845077515,-5.4419875780688685
1708435887.2387516,-1.6632161140441895,-1.3946958643249054,-2.611220184956686,5.550537156849661,1.1429122686386108,-5.441877071057455
1708435887.2407463,-1.6609543561935425,-1.3949177426150818,-2.6116095224963587,5.5479652164276025,1.1434496641159058,-5.4416847864734095
1708435887.2427368,-1.6587281227111816,-1.395267592077591,-2.6119728724109095,5.545379030495443,1.1439260244369507,-5.441594902669088
1708435887.2447348,-1.656596302986145,-1.3954894703677674,-2.612274710332052,5.542839395790853,1.144456386566162,-5.4414829651462
1708435887.2467227,-1.6544064283370972,-1.3958263260177155,-2.6126135031329554,5.540387379914083,1.1449518203735352,-5.4413321057902735
1708435887.248752,-1.6522157192230225,-1.396091179256775,-2.612974230443136,5.5377999422843835,1.1454591751098633,-5.441163424645559
1708435887.2507195,-1.6500235795974731,-1.396381140952446,-2.613328997288839,5.535243677883901,1.1459968090057373,-5.4410486857043665
1708435887.252735,-1.6477748155593872,-1.3966567528298874,-2.6136766115771692,5.532710242062368,1.1465210914611816,-5.4409260789500635
1708435887.2547183,-1.6456018686294556,-1.3969036799720307,-2.6140359083758753,5.530151116638937,1.1470975875854492,-5.440772596989767
1708435887.2567875,-1.643357276916504,-1.3971466434052964,-2.614420715962545,5.527661311417379,1.1476421356201172,-5.440714005623953
1708435887.258739,-1.6412171125411987,-1.3974787455848237,-2.6148129145251673,5.525107669621267,1.148202657699585,-5.440546993409292
1708435887.2607367,-1.6389353275299072,-1.397794396882393,-2.615150753651754,5.522606122284689,1.1487492322921753,-5.440497700368063
1708435887.2627218,-1.6367353200912476,-1.3980362725308915,-2.615498129521505,5.519981610565939,1.1492688655853271,-5.4402756730662745
1708435887.264755,-1.6345089673995972,-1.3983770322850724,-2.615885321293966,5.517426538258352,1.1497761011123657,-5.440148774777548
