Eg3-git/Classifiers/Data Collection/u3/u3cir2_ur3e_joint_states.csv
time,elbow_joint,shoulder_lift_joint,shoulder_pan_joint,wrist_1_joint,wrist_2_joint,wrist_3_joint
1708435869.6406395,-2.141662359237671,-1.3332689267447968,-2.526449982319967,6.109906661301412,1.0171092748641968,-5.34471029440035
1708435869.6426423,-2.1417076587677,-1.3332570058158417,-2.526386801396505,6.109951603203573,1.0171183347702026,-5.344702903424398
1708435869.6446085,-2.1416738033294678,-1.3332725328258057,-2.526383940373556,6.109906780510702,1.0171012878417969,-5.344707135354177
1708435869.646608,-2.141710042953491,-1.3332236123136063,-2.5263987223254603,6.109948503762045,1.017080307006836,-5.3446871677981775
1708435869.6486113,-2.1417393684387207,-1.3332646501115342,-2.526419703160421,6.109939682274618,1.0170849561691284,-5.344678763543264
1708435869.6506195,-2.1416819095611572,-1.333240808253624,-2.526391331349508,6.109969365387716,1.0171183347702026,-5.344724182282583
1708435869.6526248,-2.141723394393921,-1.3332603734782715,-2.526346270238058,6.10997365692214,1.0170849561691284,-5.344663385544912
1708435869.6546195,-2.141719102859497,-1.3332656633904953,-2.52637488046755,6.109948503762045,1.017080307006836,-5.344679538403646
1708435869.6566193,-2.141714572906494,-1.333227978353836,-2.526370350514547,6.109936702042379,1.0171012878417969,-5.344647232686178
1708435869.6586516,-2.141666889190674,-1.3332365316203614,-2.526379410420553,6.109915482788839,1.0170730352401733,-5.344659153615133
1708435869.660607,-2.1417031288146973,-1.3332038086703797,-2.526346270238058,6.109928834229269,1.0170730352401733,-5.344635311757223
1708435869.6626062,-2.1417324542999268,-1.3332322549870987,-2.526299540196554,6.109956013947286,1.0170533657073975,-5.344647232686178
1708435869.6646428,-2.141714572906494,-1.3332193207791825,-2.526350800191061,6.109903681069174,1.0170611143112183,-5.344667617474691
1708435869.666612,-2.1417031288146973,-1.3332639795592804,-2.526341740285055,6.109936702042379,1.0170937776565552,-5.344675306473867
1708435869.668613,-2.1417031288146973,-1.333240808253624,-2.526329580937521,6.109916913300314,1.017111897468567,-5.344651464615957
1708435869.6706147,-2.141669511795044,-1.3332038086703797,-2.5263341108905237,6.109903681069174,1.0170323848724365,-5.344603006039755
1708435869.6726177,-2.141719102859497,-1.3332365316203614,-2.5263477007495325,6.109928834229269,1.0170083045959473,-5.344643000756399
1708435869.6746223,-2.1416738033294678,-1.3332646501115342,-2.5263267199145716,6.109940993576803,1.017037034034729,-5.344635311757223
1708435869.6766088,-2.141711950302124,-1.3332073998502274,-2.5263431707965296,6.109900581627645,1.016996145248413,-5.344636086617605
1708435869.6786158,-2.141714572906494,-1.3332854521325608,-2.5263221899615687,6.109893071442404,1.0170129537582397,-5.344558779393331
1708435869.680625,-2.141723394393921,-1.3332560074380417,-2.5263856093036097,6.1098917601402185,1.017038345336914,-5.344590787087576
1708435869.6826222,-2.141726016998291,-1.333227978353836,-2.5263431707965296,6.109866487770834,1.0170382261276245,-5.344615761433737
1708435869.6846483,-2.1417031288146973,-1.3332854223302384,-2.5263522307025355,6.109937536507406,1.0170550346374512,-5.344595019017355
1708435869.6866283,-2.141711950302124,-1.3332408231547852,-2.5263312498675745,6.109908091812887,1.0170173645019531,-5.344612006341116
1708435869.68863,-2.1417031288146973,-1.3332117658904572,-2.5263312498675745,6.1098917601402185,1.0170382261276245,-5.344567302857534
1708435869.6906254,-2.1417031288146973,-1.333260403280594,-2.5262983481036585,6.109928834229269,1.0170096158981323,-5.344587628041403
1708435869.6926277,-2.141711950302124,-1.3332080853036423,-2.5263193289386194,6.1099212048347376,1.017000675201416,-5.3445550243007105
1708435869.6946275,-2.141669511795044,-1.3332365316203614,-2.5263403097735804,6.10986207702712,1.0169916152954102,-5.344538871441976
1708435869.6966157,-2.141716718673706,-1.3331875813058396,-2.5263357798205774,6.109879839211263,1.0169557332992554,-5.344567779694692
1708435869.6986134,-2.141719102859497,-1.3332682114890595,-2.5263267199145716,6.109859096794882,1.0169724225997925,-5.344526950513021
1708435869.7006543,-2.1417438983917236,-1.3332560074380417,-2.5263147989856165,6.109942066460409,1.0169813632965088,-5.344563547764913
1708435869.7026145,-2.1416985988616943,-1.3332203340581437,-2.5263074080096644,6.109915601998129,1.016988754272461,-5.3445961515056055
1708435869.7046435,-2.1417076587677,-1.333195300107338,-2.526344601308004,6.1098917601402185,1.0169646739959717,-5.344555858765737
1708435869.7066417,-2.141686201095581,-1.3332246255925675,-2.5262742678271692,6.1098917601402185,1.0169557332992554,-5.344551626835958
1708435869.7087007,-2.141723394393921,-1.3332570058158417,-2.5262532869922083,6.109896170883932,1.0169858932495117,-5.344555858765737
1708435869.7106516,-2.1417043209075928,-1.333216057424881,-2.5262652079211634,6.109867918282308,1.0169525146484375,-5.344491247330801
1708435869.712666,-2.1416943073272705,-1.3332246106914063,-2.526344601308004,6.109867918282308,1.0169858932495117,-5.344519619141714
1708435869.7146583,-2.141719102859497,-1.3332441759160538,-2.5262909571277063,6.109884249954977,1.016924262046814,-5.3445438782321375
1708435869.7166262,-2.1417438983917236,-1.3332484525493165,-2.526320997868673,6.109897482186117,1.0169692039489746,-5.34451657930483
1708435869.7186232,-2.141664981842041,-1.333216057424881,-2.526278797780172,6.109897362976827,1.0169377326965332,-5.344524327908651
1708435869.7206225,-2.1417031288146973,-1.3332203340581437,-2.5262742678271692,6.109785902291097,1.0169451236724854,-5.344459716473715
1708435869.7226171,-2.141711950302124,-1.333228976731636,-2.5262909571277063,6.109873759537496,1.0168956518173218,-5.344496254120962
1708435869.724635,-2.141714572906494,-1.3332365316203614,-2.526275936757223,6.109876739769735,1.0169377326965332,-5.34448361793627
1708435869.726618,-2.141730546951294,-1.3332441759160538,-2.526278797780172,6.1098811505134485,1.0169631242752075,-5.3445327321635645
1708435869.7286406,-2.1416773796081543,-1.3332203340581437,-2.5262954870807093,6.109872329026022,1.0169286727905273,-5.344496254120962
1708435869.7306302,-2.141723394393921,-1.333240808253624,-2.526262346898214,6.109819996147909,1.016921043395996,-5.344491962586538
1708435869.7326534,-2.141686201095581,-1.3332365316203614,-2.526238266621725,6.109861719399252,1.016921043395996,-5.344468180333273
1708435869.7346394,-2.1417393684387207,-1.333195300107338,-2.526284996663229,6.109819876938619,1.0169047117233276,-5.344459716473715
1708435869.7366414,-2.141719102859497,-1.333252729182579,-2.5262518564807337,6.109857427864828,1.0169254541397095,-5.344504777585165
1708435869.738632,-2.141695261001587,-1.3332656633904953,-2.5262637774096888,6.109839665680685,1.016875982284546,-5.344476644192831
1708435869.7406392,-2.1417076587677,-1.333239809875824,-2.52625018755068,6.109857427864828,1.0168927907943726,-5.344476644192831
1708435869.7426112,-2.1417393684387207,-1.3332081002048035,-2.526301447545187,6.109894263535299,1.0169135332107544,-5.3444401065455835
1708435869.7446146,-2.1417076587677,-1.3332080853036423,-2.5262144247638147,6.109811174660482,1.0168895721435547,-5.344460491334097
1708435869.7466094,-2.141723394393921,-1.3332441759160538,-2.5262234846698206,6.109796273499288,1.0168638229370117,-5.3444324175464075
1708435869.748618,-2.141690731048584,-1.333216057424881,-2.526209894810812,6.109782802849569,1.0168818235397339,-5.3444324175464075
1708435869.7506163,-2.141716718673706,-1.333248422746994,-2.5262489954577845,6.109876739769735,1.016903042793274,-5.344452802334921
1708435869.7526464,-2.141690731048584,-1.3332441610148926,-2.5262234846698206,6.109848487168112,1.0168565511703491,-5.3444281856166285
1708435869.7546566,-2.1417031288146973,-1.3332811754992981,-2.5261901060687464,6.109811174660482,1.0168728828430176,-5.344388250504629
1708435869.7566814,-2.141714572906494,-1.3332940948060532,-2.5262234846698206,6.109809386521139,1.0168249607086182,-5.344408575688497
1708435869.758618,-2.1416985988616943,-1.3331919324449082,-2.5262563864337366,6.109787332802572,1.0168204307556152,-5.344456974660055
1708435869.7606285,-2.1416985988616943,-1.3332167279771348,-2.5262308756457728,6.109803545265951,1.0167828798294067,-5.344445113335745
1708435869.7626555,-2.1416985988616943,-1.3332494509271164,-2.5261977354632776,6.109858619957723,1.016811490058899,-5.34438401857485
1708435869.7646153,-2.1417076587677,-1.3332209301045914,-2.5262308756457728,6.1098214266593835,1.0168249607086182,-5.3444450537311
1708435869.7666488,-2.141727924346924,-1.333228976731636,-2.5262234846698206,6.109860408097067,1.016808271408081,-5.344404343758718
1708435869.7686028,-2.141723394393921,-1.3331876558116456,-2.5262444655047815,6.109796154289999,1.0167964696884155,-5.344388190899984
1708435869.7706666,-2.141690731048584,-1.3332656633904953,-2.5262113253222864,6.109783875733175,1.0167964696884155,-5.3444247285472315
1708435869.7726328,-2.141711950302124,-1.3332246255925675,-2.5262234846698206,6.1098095057304285,1.0168037414550781,-5.344412748013632
1708435869.7746203,-2.141718864440918,-1.3332209301045914,-2.5262022654162806,6.109791743546285,1.016775131225586,-5.344396654759542
1708435869.7766485,-2.141711950302124,-1.3332246106914063,-2.5262518564807337,6.10975872257308,1.0168262720108032,-5.344392422829763
1708435869.7786226,-2.1417031288146973,-1.3332494509271164,-2.5262399355517786,6.109833228379049,1.0168054103851318,-5.344428900872366
1708435869.7806318,-2.1416773796081543,-1.3332408529571076,-2.5262234846698206,6.109739768296041,1.016800880432129,-5.3444042841540735
1708435869.782623,-2.1417031288146973,-1.3332613718560715,-2.5262234846698206,6.109857308655538,1.0168218612670898,-5.344400946293966
1708435869.7846184,-2.1416738033294678,-1.3332005453160782,-2.5261736551867884,6.109797107964315,1.0168099403381348,-5.344421331082479
1708435869.786616,-2.141649007797241,-1.3331833195737381,-2.5262158552752894,6.109760510712423,1.0167768001556396,-5.3443759123431605
1708435869.788603,-2.1417393684387207,-1.3331962537816544,-2.5261917749988,6.109767544060507,1.016793131828308,-5.344428841267721
1708435869.7906177,-2.1417438983917236,-1.3331876707128067,-2.5261662642108362,6.109809386521139,1.0167841911315918,-5.344388727341787
1708435869.7926497,-2.141710042953491,-1.3331962537816544,-2.5261827150927942,6.109744179039755,1.0167722702026367,-5.344388727341787
1708435869.7946093,-2.141726016998291,-1.3331962537816544,-2.5262203852282923,6.109792816429891,1.0167224407196045,-5.344368342553274
1708435869.7966142,-2.1417031288146973,-1.3332451742938538,-2.5261827150927942,6.109776484757223,1.016797661781311,-5.344396654759542
1708435869.798603,-2.1417324542999268,-1.3332451444915314,-2.526137892399923,6.109818208008566,1.0167887210845947,-5.3443567792521876
1708435869.8006074,-2.1416985988616943,-1.3331962537816544,-2.5261946360217493,6.109834539681234,1.0167315006256104,-5.344397012387411
1708435869.8026447,-2.141719102859497,-1.3332365316203614,-2.526158873234884,6.109834420471945,1.0167484283447266,-5.344405178223745
1708435869.8046458,-2.141660451889038,-1.3332124513438721,-2.5261827150927942,6.10978518703536,1.0167405605316162,-5.344384495412008
1708435869.8066857,-2.1416773796081543,-1.3331803542426606,-2.5261736551867884,6.109764802246847,1.0167648792266846,-5.344392840062277
1708435869.808692,-2.141719102859497,-1.3332332533648987,-2.5261617342578333,6.109735238343038,1.0167648792266846,-5.344368342553274
1708435869.810682,-2.14176869392395,-1.333176003103592,-2.526187245045797,6.109739768296041,1.0167440176010132,-5.344397071992056
1708435869.8126707,-2.141711950302124,-1.333228961830475,-2.5261336008654993,6.109778153687277,1.0167648792266846,-5.344396654759542
1708435869.8146305,-2.1417076587677,-1.3332451742938538,-2.526188675557272,6.109813797264852,1.016757607460022,-5.344380919133322
1708435869.8166702,-2.141669511795044,-1.3331918877414246,-2.526187245045797,6.109813797264852,1.0167195796966553,-5.344365064297811
1708435869.8186355,-2.141686201095581,-1.3331962537816544,-2.526156012211935,6.109783875733175,1.0167529582977295,-5.344388727341787
1708435869.82062,-2.141730546951294,-1.3331674945405503,-2.526158873234884,6.10978518703536,1.0167529582977295,-5.344368342553274
1708435869.8226488,-2.141710042953491,-1.3331962537816544,-2.526170794163839,6.109783875733175,1.0167485475540161,-5.344319943581716
1708435869.8246384,-2.1416819095611572,-1.3331918728402634,-2.526137892399923,6.109744179039755,1.0167195796966553,-5.3443567792521876
1708435869.8266623,-2.1417384147644043,-1.33320805550132,-2.526137892399923,6.109763133316793,1.0167242288589478,-5.344396654759542
1708435869.828622,-2.141664981842041,-1.3332494509271164,-2.52616793314089,6.109792816429891,1.0167269706726074,-5.3443525473224085
1708435869.830631,-2.14172101020813,-1.3331717264703293,-2.526208225880758,6.109764802246847,1.0167405605316162,-5.344392899666921
1708435869.8326433,-2.1417348384857178,-1.333164171581604,-2.526200834904806,6.109779584198751,1.0167195796966553,-5.344388727341787
1708435869.8346043,-2.141710042953491,-1.3331832897714158,-2.526151482258932,6.109788405686178,1.0167375802993774,-5.344360891972677
1708435869.8366473,-2.141751766204834,-1.333228961830475,-2.526151482258932,6.109760510712423,1.0167405605316162,-5.344396654759542
1708435869.838621,-2.141751766204834,-1.3332124662450333,-2.5261917749988,6.1097484705741785,1.0167829990386963,-5.34436405101885
1708435869.8406436,-2.1417348384857178,-1.3332117658904572,-2.526158873234884,6.109818088799276,1.0167241096496582,-5.344336394463674
1708435869.8426049,-2.1417031288146973,-1.3332167279771348,-2.526203695927755,6.109764802246847,1.0167449712753296,-5.344380203877584
1708435869.8446503,-2.1417348384857178,-1.3332047176412125,-2.526130501423971,6.109788405686178,1.0167077779769897,-5.344392840062277
1708435869.8466287,-2.1417348384857178,-1.333212436442711,-2.526163403187887,6.109818208008566,1.0167405605316162,-5.344336394463674
1708435869.8486109,-2.1417438983917236,-1.3332417470267792,-2.526208225880758,6.1098095057304285,1.0167495012283325,-5.344328288231985
1708435869.8506315,-2.1416819095611572,-1.3332246255925675,-2.526135031376974,6.109739768296041,1.0166958570480347,-5.344336811696188
1708435869.8526232,-2.141730546951294,-1.3331962686828156,-2.526154343281881,6.10978518703536,1.0167123079299927,-5.344368342553274
1708435869.8546126,-2.141723394393921,-1.333155558710434,-2.526154343281881,6.109736192017355,1.0167031288146973,-5.344372574483053
1708435869.8566241,-2.1417031288146973,-1.3332208704999466,-2.526130501423971,6.109731900482931,1.0166958570480347,-5.344308022652761
1708435869.85861,-2.1417031288146973,-1.3332047176412125,-2.52616793314089,6.109731781273641,1.0167620182037354,-5.344372574483053
1708435869.860617,-2.1417076587677,-1.3331803691438218,-2.526130501423971,6.1097155688102625,1.016683578491211,-5.344332043324606
1708435869.8626256,-2.1416773796081543,-1.3331598204425354,-2.526170794163839,6.109735238343038,1.0167330503463745,-5.34438527027239
1708435869.8646228,-2.141727924346924,-1.3332251471332093,-2.526196304951803,6.109752881317892,1.0167754888534546,-5.34433633485903
1708435869.8666165,-2.141690731048584,-1.3332089942744751,-2.526154343281881,6.109731781273641,1.0166914463043213,-5.344360891972677
1708435869.8686316,-2.1416943073272705,-1.333180384044983,-2.526172463093893,6.109776484757223,1.0167286396026611,-5.344392899666921
1708435869.8706157,-2.141721487045288,-1.3331684482148667,-2.526130501423971,6.109758841782369,1.0167286396026611,-5.344405178223745
1708435869.8726122,-2.1417429447174072,-1.3332252365401764,-2.526184384022848,6.10976921299056,1.016716718673706,-5.344388727341787
1708435869.8746402,-2.1416773796081543,-1.3332124513438721,-2.526142422352926,6.1098214266593835,1.0167211294174194,-5.344368342553274
1708435869.8766422,-2.141726016998291,-1.3331804287484665,-2.526135031376974,6.10975609996871,1.0167375802993774,-5.3444093505488794
1708435869.8786242,-2.1416819095611572,-1.3332176518491288,-2.526163403187887,6.109760510712423,1.016716718673706,-5.344340566788809
1708435869.8806393,-2.1416819095611572,-1.3332209301045914,-2.526113573704855,6.109760510712423,1.0167121887207031,-5.344372574483053
1708435869.8826258,-2.141756296157837,-1.3332047176412125,-2.526146952305929,6.109739768296041,1.0167031288146973,-5.344332520161764
1708435869.8846343,-2.141714572906494,-1.3331641864827652,-2.52616793314089,6.109764802246847,1.016704797744751,-5.344384495412008
1708435869.8866127,-2.141714572906494,-1.3332124662450333,-2.526156012211935,6.109776484757223,1.0166914463043213,-5.344365123902456
1708435869.8886116,-2.1417031288146973,-1.3331962537816544,-2.526200834904806,6.109792816429891,1.0166747570037842,-5.344388727341787
1708435869.8906076,-2.141686201095581,-1.3331888628057023,-2.52616793314089,6.1097720740135095,1.0167330503463745,-5.344360891972677
1708435869.8926044,-2.141690731048584,-1.3332133752158661,-2.526151482258932,6.109760510712423,1.016716718673706,-5.344332043324606
1708435869.89466,-2.141726016998291,-1.3332005155137558,-2.526135031376974,6.109724390297689,1.0167121887207031,-5.34434819618334
1708435869.8966458,-2.1416985988616943,-1.3332203340581437,-2.5261991659747522,6.109773742943563,1.0167286396026611,-5.344405655060903
1708435869.898601,-2.1417348384857178,-1.333212436442711,-2.52620512643923,6.109825718193807,1.016725778579712,-5.34433633485903
1708435869.9006119,-2.1417031288146973,-1.333212436442711,-2.526154343281881,6.1097484705741785,1.016704797744751,-5.344356719647543
1708435869.9026165,-2.1416943073272705,-1.3332579594901581,-2.526175324116842,6.109699237137594,1.0166791677474976,-5.344348971043722
1708435869.9046214,-2.141730546951294,-1.3332290065339585,-2.5261662642108362,6.109764802246847,1.016683578491211,-5.34433633485903
1708435869.9066596,-2.1417384147644043,-1.333176003103592,-2.526187245045797,6.10975609996871,1.016683578491211,-5.344324115906851
1708435869.9086914,-2.14176869392395,-1.3331846010736008,-2.526175324116842,6.109752881317892,1.016683578491211,-5.344324115906851
1708435869.910687,-2.1416943073272705,-1.3332005751184006,-2.526154343281881,6.109719860344686,1.0167286396026611,-5.344400946293966
1708435869.9126394,-2.1417076587677,-1.3331561249545594,-2.526170794163839,6.1098060486610315,1.0167256593704224,-5.344368342553274
1708435869.9146187,-2.141730546951294,-1.333216742878296,-2.5261917749988,6.10978518703536,1.0167123079299927,-5.344363991414205
1708435869.9166152,-2.1416985988616943,-1.3331674349359055,-2.5261216799365442,6.1097274897392175,1.0167286396026611,-5.344384495412008
1708435869.9186416,-2.1417031288146973,-1.333228976731636,-2.526142422352926,6.109703647881307,1.0167495012283325,-5.344328288231985
1708435869.9206266,-2.1417348384857178,-1.3332081151059647,-2.526188675557272,6.109763252526083,1.0167211294174194,-5.344352487717764
1708435869.9226203,-2.1416897773742676,-1.3332208704999466,-2.526142422352926,6.109776484757223,1.0167211294174194,-5.3443525473224085
1708435869.9246304,-2.141664981842041,-1.333181233411171,-2.526154343281881,6.1097484705741785,1.0167754888534546,-5.344405178223745
1708435869.9266334,-2.141756296157837,-1.3331974905780335,-2.526200834904806,6.109744179039755,1.016725778579712,-5.344396714364187
1708435869.9286046,-2.141723394393921,-1.3331962686828156,-2.52616793314089,6.109718549042501,1.0167330503463745,-5.344396654759542
1708435869.930624,-2.1417031288146973,-1.3331684482148667,-2.526137892399923,6.10978518703536,1.0167077779769897,-5.3444289604770105
1708435869.9326131,-2.1416897773742676,-1.3332338643125077,-2.526170794163839,6.109678613930502,1.0167709589004517,-5.344375971947805
1708435869.934614,-2.1416943073272705,-1.333200530414917,-2.526175324116842,6.109752881317892,1.0167450904846191,-5.344392422829763
1708435869.9366472,-2.141686201095581,-1.3331962686828156,-2.526208225880758,6.109835850983419,1.0167211294174194,-5.344400946293966
1708435869.9386227,-2.141690731048584,-1.3332081002048035,-2.526175324116842,6.109764802246847,1.016716718673706,-5.344412807618276
1708435869.9406319,-2.1417057514190674,-1.3332246553948899,-2.5262203852282923,6.109797107964315,1.0167421102523804,-5.344396654759542
1708435869.9426205,-2.141751766204834,-1.3332090240767975,-2.5262158552752894,6.109740721970358,1.0167330503463745,-5.344489280377523
1708435869.944632,-2.141714572906494,-1.3331760478070755,-2.526203695927755,6.109773742943563,1.0166867971420288,-5.3444324175464075
1708435869.946624,-2.1416943073272705,-1.3332246106914063,-2.5262461344348353,6.109711158066549,1.0167375802993774,-5.3444247285472315
1708435869.9486403,-2.1416943073272705,-1.333200530414917,-2.5261827150927942,6.109740721970358,1.0166958570480347,-5.344464723263876
1708435869.9506335,-2.1417484283447266,-1.3332047176412125,-2.5261991659747522,6.109724390297689,1.0167330503463745,-5.34451669851412
1708435869.9526222,-2.1416819095611572,-1.3332047325423737,-2.5261662642108362,6.109818208008566,1.0166791677474976,-5.344508175049917
1708435869.9546342,-2.1417031288146973,-1.3331803691438218,-2.526200834904806,6.109757411270895,1.0167242288589478,-5.344484333192007
1708435869.9566338,-2.141714572906494,-1.333216742878296,-2.526179854069845,6.109797107964315,1.0167195796966553,-5.344483558331625
1708435869.9586296,-2.141714572906494,-1.3332124662450333,-2.526154343281881,6.1097274897392175,1.0167077779769897,-5.344499711190359
1708435869.960638,-2.141714572906494,-1.3331962537816544,-2.526187245045797,6.109764802246847,1.0167495012283325,-5.344495419655935
1708435869.9626212,-2.1416985988616943,-1.3331684184125443,-2.526196304951803,6.109776484757223,1.0167902708053589,-5.344539705907003
1708435869.9646366,-2.141742706298828,-1.3332494807294388,-2.526203695927755,6.109724390297689,1.0167828798294067,-5.344535473977224
1708435869.966627,-2.141719102859497,-1.3331555438092728,-2.526187245045797,6.109740721970358,1.0167665481567383,-5.344550911580221
1708435869.9686155,-2.1416807174682617,-1.3332090091756363,-2.526170794163839,6.109745132714071,1.0167405605316162,-5.344538871441976
1708435869.9706156,-2.1416943073272705,-1.3332569909146805,-2.526170794163839,6.109776484757223,1.0167620182037354,-5.344615761433737
1708435869.972623,-2.141726016998291,-1.3332005155137558,-2.5262203852282923,6.1098095057304285,1.0167405605316162,-5.344599370156423
1708435869.9746356,-2.141714572906494,-1.3332494807294388,-2.5261455217944544,6.109739768296041,1.0167784690856934,-5.34461492696871
1708435869.97661,-2.141719102859497,-1.333200530414917,-2.526187245045797,6.109760510712423,1.0167529582977295,-5.3446752468692225
1708435869.9786184,-2.141711950302124,-1.3332133454135437,-2.526158873234884,6.109773742943563,1.0167405605316162,-5.344662670289175
1708435869.980648,-2.1416943073272705,-1.3331803542426606,-2.526170794163839,6.109776484757223,1.0167529582977295,-5.3447070757495325
1708435869.982635,-2.141751766204834,-1.3331846606782456,-2.526179854069845,6.1097274897392175,1.0167194604873657,-5.3447145263301294
1708435869.984638,-2.141714572906494,-1.3331994724324723,-2.5262370745288294,6.10976921299056,1.0167903900146484,-5.344791058694021
1708435869.9866261,-2.141714572906494,-1.333246113067009,-2.526187245045797,6.109739768296041,1.0167484283447266,-5.344810966645376
1708435869.9886382,-2.1417348384857178,-1.3332167279771348,-2.5261991659747522,6.109773742943563,1.0167224407196045,-5.344802443181173
1708435869.9906385,-2.141690731048584,-1.333200530414917,-2.5261946360217493,6.109731900482931,1.0167315006256104,-5.34489089647402
1708435869.9926426,-2.141721487045288,-1.3331726354411622,-2.526142422352926,6.109719860344686,1.016769289970398,-5.34485358396639
1708435869.9946067,-2.141711950302124,-1.3331760627082367,-2.5262158552752894,6.109773623734274,1.016781210899353,-5.344921592866079
1708435869.9965978,-2.141664981842041,-1.333225206737854,-2.5261827150927942,6.1097720740135095,1.0167648792266846,-5.3449382225619715
1708435869.9986038,-2.1417076587677,-1.3331803542426606,-2.526208225880758,6.109764802246847,1.0167903900146484,-5.345022443925039
1708435870.0006275,-2.1416819095611572,-1.3332332533648987,-2.526170794163839,6.109764802246847,1.0168054103851318,-5.344964925442831
1708435870.0026531,-2.1416897773742676,-1.333237425690033,-2.526179854069845,6.10976921299056,1.0167485475540161,-5.3450584451304834
1708435870.0046575,-2.1417393684387207,-1.3332080704024811,-2.5261917749988,6.109780776291647,1.0168306827545166,-5.3450369278537195
1708435870.006647,-2.141710042953491,-1.3332494509271164,-2.526187245045797,6.1097155688102625,1.0167903900146484,-5.345129911099569
1708435870.0086546,-2.1417031288146973,-1.3331919026425858,-2.5261736551867884,6.109757411270895,1.0167887210845947,-5.345158163701193
1708435870.0106716,-2.1417031288146973,-1.3331803691438218,-2.526208225880758,6.10976921299056,1.0167440176010132,-5.345136467610494
1708435870.012705,-2.1416985988616943,-1.333200530414917,-2.526187245045797,6.10976921299056,1.0168218612670898,-5.34519195953478
1708435870.014817,-2.1416773796081543,-1.3331759733012696,-2.5261407534228724,6.109764802246847,1.0167723894119263,-5.3452333251582544
1708435870.0166636,-2.141686201095581,-1.3332295280746003,-2.526142422352926,6.109760510712423,1.016838550567627,-5.345272187386648
1708435870.018627,-2.1417031288146973,-1.3332167279771348,-2.5261946360217493,6.109760510712423,1.0167468786239624,-5.345299247895376
1708435870.0206525,-2.141723394393921,-1.3332613569549103,-2.526212517415182,6.1097720740135095,1.0167841911315918,-5.345359925423757
1708435870.0227253,-2.141719102859497,-1.3332047027400513,-2.5261572043048304,6.109773742943563,1.0167633295059204,-5.345428172742025
1708435870.0246327,-2.141723394393921,-1.333160401587822,-2.5261498133288782,6.10978518703536,1.0168172121047974,-5.345414404069082
1708435870.02665,-2.141714572906494,-1.333225206737854,-2.5261662642108362,6.109749543457784,1.0168505907058716,-5.34548265138735
1708435870.0286536,-2.141690731048584,-1.3332123768380661,-2.5261901060687464,6.1097484705741785,1.0168143510818481,-5.345549825822012
1708435870.0306163,-2.141747236251831,-1.333151952629425,-2.526187245045797,6.1097895977790735,1.0168172121047974,-5.345582369958059
1708435870.032673,-2.1416985988616943,-1.3332166981748124,-2.5261409918414515,6.109752881317892,1.016812801361084,-5.3456454316722315
1708435870.0346358,-2.141726016998291,-1.3332005155137558,-2.526203695927755,6.109797107964315,1.016800880432129,-5.345743064080374
1708435870.0366836,-2.141726016998291,-1.3331684482148667,-2.5261977354632776,6.109764802246847,1.0168036222457886,-5.34582639137377
1708435870.0386212,-2.141730546951294,-1.3331642311862488,-2.5261736551867884,6.109764802246847,1.016812801361084,-5.345845107232229
1708435870.0406582,-2.1417393684387207,-1.3331888628057023,-2.526137892399923,6.109780776291647,1.016791820526123,-5.345867876206533
1708435870.04266,-2.1416943073272705,-1.3332167279771348,-2.526203695927755,6.109809386521139,1.016808271408081,-5.345964614545004
1708435870.0446215,-2.141710042953491,-1.3332209301045914,-2.526203695927755,6.109767663269796,1.0167887210845947,-5.346040074025289
1708435870.0466635,-2.1416773796081543,-1.3331846755794068,-2.526203695927755,6.109739768296041,1.016834020614624,-5.346128229294912
1708435870.0486295,-2.141710042953491,-1.3332047176412125,-2.5261827150927942,6.109760510712423,1.0168462991714478,-5.346175853406088
1708435870.050638,-2.14176869392395,-1.333208979373314,-2.5261827150927942,6.109778034477987,1.0168371200561523,-5.346251968537466
1708435870.052658,-2.141690731048584,-1.333200530414917,-2.5262022654162806,6.109760510712423,1.016812801361084,-5.346318904553549
1708435870.0546257,-2.141719102859497,-1.3331975054791947,-2.526203695927755,6.109773742943563,1.016791820526123,-5.346402589474813
1708435870.0566604,-2.141730546951294,-1.3331962537816544,-2.5262370745288294,6.109760510712423,1.016808271408081,-5.346510831509725
1708435870.0586123,-2.1417171955108643,-1.3332090240767975,-2.5262203852282923,6.10976921299056,1.016800880432129,-5.346581701432363
1708435870.0606353,-2.1416943073272705,-1.333200530414917,-2.526187245045797,6.109778153687277,1.016834020614624,-5.346636895333425
1708435870.062648,-2.141719102859497,-1.3332246106914063,-2.526224915181295,6.109801518708029,1.016808271408081,-5.346728984509603
1708435870.0646186,-2.1416985988616943,-1.3331726354411622,-2.526208225880758,6.109783875733175,1.0168037414550781,-5.346861426030294
1708435870.066641,-2.141681671142578,-1.3332167130759736,-2.5261781851397913,6.109764802246847,1.0168037414550781,-5.346928660069601
1708435870.0686328,-2.141751766204834,-1.333228976731636,-2.5261736551867884,6.109792816429891,1.016808271408081,-5.347015563641683
1708435870.0706933,-2.141686201095581,-1.3331684333137055,-2.526203695927755,6.109751689224996,1.016829490661621,-5.347152058278219
1708435870.0726688,-2.141719102859497,-1.3332047027400513,-2.526203695927755,6.109723198204794,1.0168371200561523,-5.347202304993765
1708435870.0746582,-2.141730546951294,-1.3332166981748124,-2.5261991659747522,6.109801518708029,1.016808271408081,-5.347351018582479
1708435870.0766814,-2.141714572906494,-1.3332005453160782,-2.526203695927755,6.109749543457784,1.0168534517288208,-5.347372774277822
1708435870.0786223,-2.141726016998291,-1.3332166981748124,-2.526208225880758,6.109764802246847,1.0168416500091553,-5.3475210706340235
1708435870.0806353,-2.1417348384857178,-1.3332124662450333,-2.526224915181295,6.109748589783468,1.016808271408081,-5.347644511853353
1708435870.0826652,-2.1417057514190674,-1.3331962090781708,-2.5261917749988,6.10975609996871,1.0168037414550781,-5.3478044907199305
1708435870.0846076,-2.1417438983917236,-1.333187685613968,-2.5262280146228235,6.109736192017355,1.0168172121047974,-5.347853962575094
1708435870.0866418,-2.141723394393921,-1.3332656782916565,-2.5261827150927942,6.109752881317892,1.0167872905731201,-5.347994033490316
1708435870.0886323,-2.141690731048584,-1.3331803691438218,-2.526196304951803,6.10976921299056,1.0168249607086182,-5.348117713128225
1708435870.0906286,-2.1416897773742676,-1.3332208704999466,-2.526175324116842,6.109789716988363,1.0167841911315918,-5.348314170037405
1708435870.0926182,-2.141730546951294,-1.3332209301045914,-2.526224915181295,6.109702336579122,1.0168204307556152,-5.348347846661703
1708435870.0946238,-2.141686201095581,-1.3331961643746872,-2.5261946360217493,6.10981177070693,1.016808271408081,-5.348474566136495
1708435870.096651,-2.1417348384857178,-1.3332332086614151,-2.5261946360217493,6.109761822014608,1.016812801361084,-5.348635200654165
1708435870.0986352,-2.141719102859497,-1.3331846606782456,-2.526196304951803,6.109694826393881,1.0167796611785889,-5.34880239168276
1708435870.1006236,-2.1416685581207275,-1.333168478017189,-2.526212755833761,6.109761702805319,1.0167841911315918,-5.3489413301097315
1708435870.102635,-2.1416985988616943,-1.3331931692412873,-2.526187245045797,6.109703647881307,1.0168218612670898,-5.349133137856619
1708435870.104617,-2.1417031288146973,-1.3331974756768723,-2.526179854069845,6.109708058625021,1.0167964696884155,-5.349260155354635
1708435870.1066196,-2.1416943073272705,-1.3331931245378037,-2.5261917749988,6.10978518703536,1.016781210899353,-5.349354688321249
1708435870.1086397,-2.1417348384857178,-1.3331357699683686,-2.526179854069845,6.109766113549032,1.0167394876480103,-5.349554423485891
1708435870.110655,-2.141756296157837,-1.3332047176412125,-2.5261946360217493,6.109721290856161,1.0168143510818481,-5.349637631569998
1708435870.1126575,-2.1416943073272705,-1.3331366640380402,-2.526175324116842,6.1096991179283044,1.016785740852356,-5.349774305020468
1708435870.1146507,-2.1417348384857178,-1.3331271570971985,-2.526170794163839,6.109719860344686,1.0167529582977295,-5.350019756947653
1708435870.1166136,-2.141664981842041,-1.333208979373314,-2.526196304951803,6.109712469368734,1.0167723894119263,-5.3501997033702295
1708435870.118618,-2.1416943073272705,-1.3331812632134934,-2.526151482258932,6.109725701599874,1.016757607460022,-5.350312534962789
1708435870.1206381,-2.1416985988616943,-1.3331760478070755,-2.526179854069845,6.109713780670919,1.01677405834198,-5.350570742283956
1708435870.1226192,-2.1416819095611572,-1.3331685078195115,-2.526184384022848,6.109728801041403,1.0167150497436523,-5.350708727036611
1708435870.1246476,-2.1416897773742676,-1.3331726503423234,-2.526200834904806,6.109718191414633,1.0167286396026611,-5.350847546254293
1708435870.1266387,-2.1416897773742676,-1.333220900302269,-2.526163403187887,6.109672057419576,1.0167242288589478,-5.351075057183401
1708435870.128629,-2.141726016998291,-1.333176926975586,-2.526172463093893,6.109639513283529,1.0166881084442139,-5.351205650960104
1708435870.130639,-2.141730546951294,-1.3331519675305863,-2.526130501423971,6.109688269882955,1.016683578491211,-5.351409498845236
1708435870.13265,-2.141719102859497,-1.3332167130759736,-2.526158873234884,6.109706032067098,1.0167510509490967,-5.351627771054403
1708435870.1346428,-2.141714572906494,-1.3331931096366425,-2.526170794163839,6.109660255699911,1.0166926383972168,-5.351899747048513
1708435870.1366336,-2.141690731048584,-1.3331726503423234,-2.526146952305929,6.109648334770956,1.0166926383972168,-5.351993147526876
1708435870.1386194,-2.1416897773742676,-1.3332167130759736,-2.526130501423971,6.1096393940742395,1.0166475772857666,-5.3522284666644495
1708435870.1406384,-2.141721725463867,-1.3331357699683686,-2.526156012211935,6.109668957978048,1.0166640281677246,-5.352423016224996
1708435870.142634,-2.1417484283447266,-1.3331604164889832,-2.52614409128298,6.109668957978048,1.0166488885879517,-5.352650467549459
1708435870.1446583,-2.141730546951294,-1.3331803691438218,-2.5261152426349085,6.109634864121237,1.0166325569152832,-5.352853540574209
1708435870.1466317,-2.1417171955108643,-1.333168478017189,-2.5260732809649866,6.109645116120138,1.016603946685791,-5.353120271359579
1708435870.14863,-2.1417031288146973,-1.3331733059934159,-2.5261061827289026,6.109695541649618,1.016599416732788,-5.353237632905142
1708435870.1506493,-2.141714572906494,-1.3331812781146546,-2.5261362234698694,6.109657037049093,1.016634225845337,-5.353449110184805
1708435870.1526413,-2.1417484283447266,-1.333168478017189,-2.5261316935168665,6.1096733687217615,1.016588807106018,-5.3536919991122645
1708435870.1546423,-2.1416985988616943,-1.333208979373314,-2.5260987917529505,6.109645116120138,1.0165770053863525,-5.353896204625265
1708435870.1566794,-2.141660451889038,-1.3331931096366425,-2.5260868708239954,6.109649526863851,1.016543984413147,-5.354082767163412
1708435870.1586306,-2.141710042953491,-1.3331555885127564,-2.5261288324939173,6.109604942589559,1.016543984413147,-5.354257170354025
1708435870.1606355,-2.1417438983917236,-1.333188847904541,-2.5260372797595423,6.109575140267172,1.0165156126022339,-5.354496244584219
1708435870.1626234,-2.1416819095611572,-1.3331931096366425,-2.5260704199420374,6.109631883888998,1.0165736675262451,-5.354743544255392
1708435870.1646492,-2.1416773796081543,-1.3331237745336075,-2.526034418736593,6.109608042031088,1.0165544748306274,-5.354930106793539
1708435870.1666439,-2.141747236251831,-1.333128036265709,-2.526059929524557,6.109693991928854,1.016533613204956,-5.3551568428622645
1708435870.16865,-2.1417057514190674,-1.3331409257701416,-2.52602988878359,6.1096287844474695,1.016491174697876,-5.355408374463217
1708435870.1706216,-2.141721487045288,-1.3331604164889832,-2.526017729436056,6.109624373703756,1.016463041305542,-5.355602804814474
1708435870.172645,-2.1417641639709473,-1.3332059991410752,-2.526050869618551,6.109649526863851,1.0164763927459717,-5.355796758328573
1708435870.1746256,-2.141721725463867,-1.3331733059934159,-2.526034418736593,6.10965262630538,1.0164763927459717,-5.356048409138815
1708435870.1766605,-2.141726016998291,-1.3331647676280518,-2.526038948689596,6.1096300957496545,1.0164432525634766,-5.356254760419027
1708435870.1786237,-2.141730546951294,-1.3331647676280518,-2.526081148778097,6.109612571984091,1.0164191722869873,-5.356444780026571
1708435870.1806324,-2.1417596340179443,-1.3331812781146546,-2.5260239283191126,6.109600531845846,1.016449213027954,-5.356696192418234
1708435870.1826262,-2.1416943073272705,-1.3331485849669953,-2.5260403792010706,6.109625685005941,1.0164191722869873,-5.356886212025778
1708435870.1846635,-2.1417031288146973,-1.3331409257701416,-2.526026789342062,6.109616863518514,1.016416072845459,-5.357162002717153
1708435870.186643,-2.1417641639709473,-1.3331690293601532,-2.5260449091540735,6.109633195191183,1.0163710117340088,-5.357364479695455
1708435870.1886318,-2.1417429447174072,-1.3331647676280518,-2.5260165373431605,6.109601604729452,1.0163922309875488,-5.357612196599142
1708435870.1906362,-2.1416897773742676,-1.3331366193345566,-2.525993887578146,6.10969244220809,1.0163891315460205,-5.3578389326678675
1708435870.1926632,-2.141714572906494,-1.3331528466990967,-2.5259743372546595,6.109591710358419,1.0163755416870117,-5.358040396367208
1708435870.1946263,-2.1417348384857178,-1.3331812781146546,-2.525938336049215,6.10964201667861,1.0163604021072388,-5.358292464409963
1708435870.1966546,-2.1417338848114014,-1.3331855547479172,-2.525942866002218,6.109591710358419,1.016351580619812,-5.35846579471697
1708435870.1986573,-2.14178466796875,-1.3331366640380402,-2.5260210672961634,6.1096287844474695,1.0163531303405762,-5.358676497136251
1708435870.2006345,-2.1417713165283203,-1.3331158769181748,-2.525947395955221,6.109636294632711,1.0162991285324097,-5.358887855206625
1708435870.202643,-2.141747236251831,-1.3331690293601532,-2.525989357625143,6.109616863518514,1.0163453817367554,-5.3590885440455835
1708435870.2046285,-2.1417384147644043,-1.3331323874047776,-2.525968376790182,6.109596240311422,1.0163244009017944,-5.359378461037771
1708435870.206632,-2.1417338848114014,-1.3331776571324845,-2.525914494191305,6.109609353333273,1.0162746906280518,-5.359585348759786
1708435870.2086434,-2.1417622566223145,-1.3331495833447953,-2.52590257326235,6.1095971939857385,1.016288161277771,-5.359759334717886
1708435870.2106376,-2.1417758464813232,-1.3331452769092103,-2.5258691946612757,6.109596121102133,1.0163061618804932,-5.359981660042898
1708435870.212633,-2.1417429447174072,-1.333161474471428,-2.5259116331683558,6.1096287844474695,1.0162525177001953,-5.360213522111074
1708435870.214634,-2.1417667865753174,-1.333133028154709,-2.525907103215353,6.10964201667861,1.016185998916626,-5.360370937977926
1708435870.2166786,-2.1417577266693115,-1.3331323874047776,-2.5258663336383265,6.1096746800239465,1.016219139099121,-5.360591177140371
1708435870.2186258,-2.1417622566223145,-1.333176926975586,-2.5259116331683558,6.1096287844474695,1.0162312984466553,-5.360785369073049
1708435870.2206576,-2.1417667865753174,-1.3331657362035294,-2.5258918444262903,6.109588253289022,1.0162538290023804,-5.360998634492056
1708435870.2226205,-2.1417667865753174,-1.333161474471428,-2.5258708635913294,6.109649526863851,1.0161995887756348,-5.361219410096304
1708435870.224641,-2.1417338848114014,-1.3331244152835389,-2.5258947054492396,6.10964201667861,1.0162039995193481,-5.361454788838522
1708435870.2266316,-2.141791582107544,-1.3331168454936524,-2.5258708635913294,6.109604942589559,1.0161995887756348,-5.361626927052633
1708435870.2286394,-2.141770124435425,-1.3331244152835389,-2.5258947054492396,6.109631883888998,1.016196608543396,-5.361811880265371
1708435870.230623,-2.141791582107544,-1.333161474471428,-2.5259462038623255,6.10956763008193,1.0161423683166504,-5.362065676842825
1708435870.2326372,-2.1417791843414307,-1.3331571084311982,-2.5258963743792933,6.109600531845846,1.0161467790603638,-5.362238172684805
1708435870.2346504,-2.141770124435425,-1.3331528466990967,-2.525900904332296,6.1096006510551355,1.016168475151062,-5.362425033246176
1708435870.2366302,-2.141803026199341,-1.333112583761551,-2.525818411503927,6.109555709152975,1.0161350965499878,-5.362559501324789
1708435870.2386203,-2.141791582107544,-1.3331039559892197,-2.525835100804464,6.109646427422323,1.0160915851593018,-5.3627755681621
1708435870.2406425,-2.141787052154541,-1.333133028154709,-2.525851551686422,6.109608161240377,1.016127586364746,-5.362960640584127
1708435870.2426124,-2.1418073177337646,-1.3331733059934159,-2.525839630757467,6.109592664032736,1.016082525253296,-5.363129202519552
1708435870.2446513,-2.141826868057251,-1.3331115257791062,-2.525865141545431,6.109630214958944,1.016025424003601,-5.363275114689962
1708435870.2466247,-2.141843557357788,-1.3331690293601532,-2.525874201451437,6.109609353333273,1.0160796642303467,-5.363470260296957
1708435870.2486427,-2.1418392658233643,-1.3331495535424729,-2.525806252156393,6.109649526863851,1.0160553455352783,-5.363636795674459
1708435870.2506309,-2.141843557357788,-1.3331657362035294,-2.52577788034548,6.109583961754598,1.0160796642303467,-5.363848332558767
1708435870.252647,-2.141826868057251,-1.3331733059934159,-2.525832001362936,6.109625685005941,1.0160597562789917,-5.363962475453512
1708435870.2546449,-2.141801118850708,-1.3330930036357422,-2.525806252156393,6.109609353333273,1.0160642862319946,-5.364105407391683
1708435870.2566476,-2.1418392658233643,-1.3330844652703782,-2.52584416071047,6.10964201667861,1.0160058736801147,-5.364296380673544
1708435870.2586265,-2.141818046569824,-1.3331006628325959,-2.525789801274435,6.1096746800239465,1.0160809755325317,-5.364517454301016
1708435870.2606163,-2.141796588897705,-1.333112583761551,-2.5257750193225306,6.109686600952902,1.0160270929336548,-5.364656273518698
1708435870.2626371,-2.141876697540283,-1.3331168603948136,-2.5257583300219935,6.10966585853652,1.0160058736801147,-5.364757482205526
1708435870.2646208,-2.1418347358703613,-1.3331211072257538,-2.5257914702044886,6.109657037049093,1.0159952640533447,-5.364970032368795
1708435870.2666128,-2.1418392658233643,-1.3331373047879715,-2.5257659594165247,6.109698402672567,1.0159952640533447,-5.365027491246359
1708435870.2686107,-2.1418371200561523,-1.333141566520073,-2.5257673899279993,6.109658348351278,1.0159789323806763,-5.365232590829031
1708435870.2706194,-2.141843557357788,-1.3331244152835389,-2.5258410612689417,6.109677779465475,1.0159789323806763,-5.365350667630331
1708435870.2726498,-2.1418347358703613,-1.3330758523992081,-2.5257673899279993,6.109596121102133,1.0159742832183838,-5.365473333989279
1708435870.2746136,-2.1418256759643555,-1.3331244003823777,-2.5257673899279993,6.109643804817953,1.0159457921981812,-5.365687016640798
1708435870.2766514,-2.1418087482452393,-1.3330844652703782,-2.5257840792285364,6.109640705376425,1.0160208940505981,-5.365764979516165
1708435870.27862,-2.1418302059173584,-1.333112583761551,-2.5257750193225306,6.109697329788961,1.0159094333648682,-5.365891400967733
1708435870.280662,-2.1418347358703613,-1.3331211072257538,-2.5258124510394495,6.109649526863851,1.0159636735916138,-5.36605936685671
1708435870.2826371,-2.141796588897705,-1.3331495535424729,-2.525717798863546,6.109661447792806,1.0159517526626587,-5.366170648728506
1708435870.2846394,-2.1418540477752686,-1.3330844652703782,-2.5257719198810022,6.109657037049093,1.015913963317871,-5.366285983716146
1708435870.2866676,-2.141846179962158,-1.3331006628325959,-2.5257931391345423,6.109631883888998,1.0159473419189453,-5.3663968483554285
1708435870.288653,-2.1418585777282715,-1.33313304305587,-2.525723997746603,6.1096287844474695,1.0159175395965576,-5.366533223782675
1708435870.290622,-2.141850709915161,-1.3331049245646973,-2.525738779698507,6.109697210579672,1.015944480895996,-5.36660731235613
1708435870.2926552,-2.1418540477752686,-1.333072544341423,-2.525714937840597,6.109714853554525,1.0158947706222534,-5.3667102495776575
1708435870.2946165,-2.1418168544769287,-1.3330920350602646,-2.525740448628561,6.109664547234335,1.0159274339675903,-5.366805855427877
1708435870.296654,-2.1418347358703613,-1.3330802035382767,-2.5257194677936,6.109701621323385,1.015857219696045,-5.366902236138479
1708435870.298623,-2.1418800354003906,-1.3331458431533356,-2.525726858769552,6.10967646816329,1.0158828496932983,-5.367005232964651
1708435870.30062,-2.141846179962158,-1.3331168454936524,-2.525735918675558,6.109701621323385,1.0158751010894775,-5.367067400609152
1708435870.3026354,-2.141846179962158,-1.3331287664226075,-2.525731388722555,6.109704959183492,1.0158374309539795,-5.367188636456625
1708435870.3046193,-2.1418371200561523,-1.3331211072257538,-2.525726858769552,6.109728801041403,1.0158872604370117,-5.367186907921926
1708435870.3066213,-2.1418824195861816,-1.333161474471428,-2.5257194677936,6.109651315003195,1.015879511833191,-5.367360178624288
1708435870.3086123,-2.141911745071411,-1.3331168454936524,-2.5256956259356897,6.109709489136495,1.0158677101135254,-5.367435280476705
1708435870.3106337,-2.141812562942505,-1.333133028154709,-2.525752369557516,6.109715449600973,1.0158963203430176,-5.367425207291738
1708435870.3126783,-2.1418824195861816,-1.3331006628325959,-2.5257194677936,6.109721290856161,1.0158931016921997,-5.367517534886495
1708435870.3146918,-2.141873598098755,-1.333141566520073,-2.5257449785815638,6.109696137696066,1.0158298015594482,-5.367585007344381
1708435870.3166873,-2.1418867111206055,-1.3331338924220582,-2.525686566029684,6.109712469368734,1.0158767700195312,-5.367677752171652
1708435870.3186374,-2.1418709754943848,-1.3331452769092103,-2.5256622473346155,6.109731900482931,1.0158751010894775,-5.367700997983114
1708435870.3206615,-2.1418328285217285,-1.3331168454936524,-2.5257285276996058,6.1097484705741785,1.0158374309539795,-5.3677929679500025
1708435870.3226678,-2.1418893337249756,-1.3330844652703782,-2.5256791750537317,6.109773623734274,1.0158298015594482,-5.367832366620199
1708435870.324631,-2.141836643218994,-1.3331373047879715,-2.525761429463522,6.109706866532125,1.0158343315124512,-5.367908839379446
1708435870.3266237,-2.1418778896331787,-1.3331168454936524,-2.5256503264056605,6.109745132714071,1.0158343315124512,-5.367874328290121
1708435870.3286076,-2.141845464706421,-1.3331091862967988,-2.5256956259356897,6.109792816429891,1.0158841609954834,-5.367907051240103
1708435870.3306317,-2.141862392425537,-1.3331091862967988,-2.5257211367236536,6.109728801041403,1.0158133506774902,-5.367942873631613
1708435870.3326585,-2.1418778896331787,-1.3330920350602646,-2.525670115147726,6.109736192017355,1.0158298015594482,-5.367966715489523
1708435870.3346384,-2.141914129257202,-1.3331580770066758,-2.5257001558886927,6.109780776291647,1.0158677101135254,-5.368018690739767
1708435870.336632,-2.141862154006958,-1.3331006628325959,-2.5256531874286097,6.109735357552328,1.0158677101135254,-5.368021909390585
1708435870.3386295,-2.1419007778167725,-1.3331373047879715,-2.525670353566305,6.109731900482931,1.0158722400665283,-5.3680299560176294
1708435870.3406308,-2.1418938636779785,-1.3331082177213212,-2.5256791750537317,6.109818208008566,1.0158840417861938,-5.368013445531027
1708435870.3426652,-2.141862392425537,-1.333112583761551,-2.5257001558886927,6.109718668251791,1.0158555507659912,-5.368021909390585
1708435870.344639,-2.141906976699829,-1.3331049245646973,-2.5256577173816126,6.109747159271993,1.0158840417861938,-5.368042890225546
1708435870.3466396,-2.1419098377227783,-1.3331006628325959,-2.5256713072406214,6.109830009728231,1.0158555507659912,-5.368005696927206
1708435870.3486214,-2.1418893337249756,-1.3331168454936524,-2.5256534258471888,6.109800565033712,1.0158298015594482,-5.3679779211627405
1708435870.3506165,-2.1419098377227783,-1.333112583761551,-2.5256791750537317,6.109702217369833,1.0158510208129883,-5.367962364350454
1708435870.3526347,-2.141869068145752,-1.3331006628325959,-2.5257166067706507,6.109791862755575,1.0158179998397827,-5.367925588284628
1708435870.3546128,-2.141914129257202,-1.3331082177213212,-2.525703016911642,6.10975609996871,1.0158811807632446,-5.367886249219076
1708435870.3566463,-2.141922950744629,-1.3331091862967988,-2.525686566029684,6.109824406891622,1.0158766508102417,-5.367826644574301
1708435870.358623,-2.1419520378112793,-1.3330802035382767,-2.5256927649127405,6.109805094986715,1.0158677101135254,-5.367807451878683
1708435870.3606203,-2.1419053077697754,-1.3330596548369904,-2.525674645100729,6.109845387726583,1.0158432722091675,-5.367722694073812
1708435870.3626356,-2.141939163208008,-1.3331211072257538,-2.525686566029684,6.109796154289999,1.0158178806304932,-5.367723766957418
1708435870.3646116,-2.1419389247894287,-1.3331049245646973,-2.5257211367236536,6.109821307450094,1.015831470489502,-5.367696587239401
1708435870.366643,-2.1419718265533447,-1.333112583761551,-2.5256791750537317,6.109800565033712,1.015815019607544,-5.367582682763235
1708435870.368632,-2.1419131755828857,-1.3330802035382767,-2.5257330576526087,6.109775173455038,1.0158555507659912,-5.36762905517687
1708435870.370665,-2.1418893337249756,-1.3331006628325959,-2.525665823613302,6.109816896706381,1.0158510208129883,-5.367503587399618
1708435870.372647,-2.1419098377227783,-1.3331253838590165,-2.525703016911642,6.109782922058859,1.0158464908599854,-5.367468837891714
1708435870.374614,-2.141873598098755,-1.33310820282016,-2.5256503264056605,6.10987805107192,1.0158343315124512,-5.36743271747698
1708435870.3766508,-2.1419265270233154,-1.333121122126915,-2.5257328192340296,6.109852897911825,1.0158510208129883,-5.367349747811453
1708435870.3786533,-2.1419131755828857,-1.3331538152745743,-2.525703016911642,6.109803545265951,1.0158677101135254,-5.367240850125448
1708435870.3806577,-2.1418778896331787,-1.3331742745688935,-2.525691095982687,6.109775173455038,1.0158677101135254,-5.3671855370150965
1708435870.3826604,-2.141925573348999,-1.3331700575402756,-2.525686566029684,6.109849917679586,1.0158225297927856,-5.367118362580435
1708435870.3846443,-2.1418895721435547,-1.3331168454936524,-2.525714937840597,6.109861719399252,1.0158677101135254,-5.366978649293081
1708435870.3866563,-2.1419007778167725,-1.3331049245646973,-2.5257328192340296,6.109848487168112,1.0158432722091675,-5.366935912762777
1708435870.3886163,-2.141880512237549,-1.3330844652703782,-2.5257001558886927,6.109824406891622,1.0158677101135254,-5.366784397755758
1708435870.3906562,-2.1419310569763184,-1.3330853444388886,-2.525703016911642,6.109844076424398,1.0158677101135254,-5.3666648904429834
1708435870.3926392,-2.1419222354888916,-1.3330844652703782,-2.5257495085345667,6.109845506935873,1.0158252716064453,-5.366492275391714
1708435870.394621,-2.1419131755828857,-1.3331409257701416,-2.525691095982687,6.109844076424398,1.0158886909484863,-5.366353754197256
1708435870.396625,-2.1418893337249756,-1.3331049245646973,-2.525691095982687,6.109844076424398,1.0158510208129883,-5.366263453160421
1708435870.3986113,-2.141930103302002,-1.3331168454936524,-2.525723997746603,6.109844076424398,1.0158464908599854,-5.366067055855886
1708435870.4006126,-2.1419007778167725,-1.3331168454936524,-2.525686566029684,6.109894501953878,1.0158631801605225,-5.36591220298876
1708435870.4026678,-2.1419007778167725,-1.3331082177213212,-2.5257495085345667,6.109860408097067,1.0158705711364746,-5.365743760262625
1708435870.4046369,-2.1419177055358887,-1.3331006628325959,-2.525670353566305,6.109832155495443,1.0158931016921997,-5.36560166278948
1708435870.4072595,-2.1419506072998047,-1.3331244003823777,-2.5256956259356897,6.109823334008016,1.0158751010894775,-5.365421656762258
1708435870.4086583,-2.1418964862823486,-1.3330639612725754,-2.525707546864645,6.109904873162069,1.0159335136413574,-5.365230743085043
1708435870.4106383,-2.1419222354888916,-1.3331125688603898,-2.5257285276996058,6.109802353173055,1.0158947706222534,-5.365105930958883
1708435870.4126399,-2.1419053077697754,-1.3331115257791062,-2.525691095982687,6.109847295075216,1.0158872604370117,-5.364825193081991
1708435870.4146388,-2.1419053077697754,-1.3331211072257538,-2.5256956259356897,6.109916913300314,1.0159035921096802,-5.36463845172991
1708435870.4166389,-2.1419177055358887,-1.333112583761551,-2.525714937840597,6.109904992371359,1.0159274339675903,-5.364426855240957
1708435870.41866,-2.1418964862823486,-1.3330802035382767,-2.525723997746603,6.109896170883932,1.0159155130386353,-5.364195708428518
1708435870.4206173,-2.141914129257202,-1.3331006479314347,-2.525710407887594,6.109830963402548,1.0159310102462769,-5.364038411770956
1708435870.4226272,-2.1419389247894287,-1.3331366640380402,-2.525735918675558,6.109867918282308,1.0159354209899902,-5.36373478571047
1708435870.4246228,-2.1418917179107666,-1.3331168454936524,-2.52574330965151,6.109879839211263,1.015913963317871,-5.363532606755392
1708435870.4266422,-2.1419053077697754,-1.33316224933181,-2.525738779698507,6.109909403115072,1.0159711837768555,-5.363224689160482
1708435870.4286196,-2.1418964862823486,-1.3331452918103714,-2.5257194677936,6.109854686051168,1.0160043239593506,-5.362950269375936
1708435870.430609,-2.1419177055358887,-1.3331871193698426,-2.525726858769552,6.109904873162069,1.0159412622451782,-5.362739924584524
1708435870.4326463,-2.1419222354888916,-1.3331211072257538,-2.52574330965151,6.109893071442404,1.0159907341003418,-5.36247837940325
1708435870.4346173,-2.1419551372528076,-1.3330887270024796,-2.525747839604513,6.109872329026022,1.0159621238708496,-5.362141970788137
1708435870.4366229,-2.141862154006958,-1.333112583761551,-2.525818649922506,6.109904873162069,1.015998363494873,-5.361874345933096
1708435870.4386137,-2.1419053077697754,-1.3331452769092103,-2.52574330965151,6.109930026322164,1.0160315036773682,-5.361580971871511
1708435870.4406297,-2.1418850421905518,-1.3331253838590165,-2.5257509390460413,6.109863507538595,1.016014814376831,-5.361307565365927
1708435870.4426255,-2.141930103302002,-1.333121122126915,-2.5257795492755335,6.109867918282308,1.0160765647888184,-5.36098558107485
1708435870.4446073,-2.141930103302002,-1.3331082177213212,-2.5257628599749964,6.109876739769735,1.0160841941833496,-5.3605772892581385
1708435870.4466105,-2.1419222354888916,-1.333133028154709,-2.52574330965151,6.109934437065878,1.0161291360855103,-5.36034077802767
1708435870.448625,-2.1419310569763184,-1.333121122126915,-2.5257795492755335,6.10985158660964,1.0161454677581787,-5.3599494139300745
1708435870.4506397,-2.1418938636779785,-1.3330844652703782,-2.5257750193225306,6.109897482186117,1.016127586364746,-5.359627072011129
1708435870.4526157,-2.1418893337249756,-1.333112583761551,-2.5258124510394495,6.109876739769735,1.0161231756210327,-5.35927385488619
1708435870.454633,-2.1418893337249756,-1.3330963861993332,-2.5258455912219446,6.109896170883932,1.0161728858947754,-5.3589218894587916
1708435870.456677,-2.1419098377227783,-1.333112583761551,-2.525839630757467,6.109900581627645,1.0161395072937012,-5.358484748994009
1708435870.458627,-2.1418850421905518,-1.3330963265946885,-2.5258260408984583,6.109797942429342,1.0162129402160645,-5.358062926922933
1708435870.4606178,-2.1418533325195312,-1.3331201386502762,-2.525835100804464,6.109855997353353,1.0162280797958374,-5.3576645890818995
1708435870.4626164,-2.1419053077697754,-1.3331323874047776,-2.525851551686422,6.109896170883932,1.0162162780761719,-5.357276384030477
1708435870.4646232,-2.1418893337249756,-1.3331244003823777,-2.5258634726153772,6.1099092839057825,1.0161950588226318,-5.356814448033468
1708435870.4666157,-2.141845464706421,-1.3330920052579422,-2.5258873144732874,6.109848487168112,1.0162479877471924,-5.356408957635061
1708435870.4686217,-2.1419098377227783,-1.3331452769092103,-2.5258782545672815,6.109860408097067,1.016288161277771,-5.3559786717044275
1708435870.470625,-2.141902446746826,-1.3331323874047776,-2.5259037653552454,6.10985158660964,1.0162599086761475,-5.3555294911014
1708435870.472637,-2.1418778896331787,-1.3331006628325959,-2.525940004979269,6.109890091210165,1.0162674188613892,-5.355023328457968
1708435870.4747512,-2.141873598098755,-1.3330963861993332,-2.525944534932272,6.109848487168112,1.0163244009017944,-5.354546014462606
1708435870.4766257,-2.141864538192749,-1.3331571233323594,-2.52596098581423,6.109839665680685,1.0163319110870361,-5.354007546101705
1708435870.4786184,-2.141862154006958,-1.3331416112235566,-2.525914494191305,6.1098365662391565,1.0163155794143677,-5.353531483803884
1708435870.480641,-2.141873598098755,-1.3331373047879715,-2.525959316884176,6.109918224602499,1.0164101123809814,-5.352989081536428
1708435870.4826267,-2.1418778896331787,-1.3331495535424729,-2.525959316884176,6.109815466194906,1.0164294242858887,-5.352479819451467
1708435870.4846282,-2.1418912410736084,-1.333120123749115,-2.525905434285299,6.109848487168112,1.0164204835891724,-5.351941529904501
1708435870.4866292,-2.1418709754943848,-1.33310820282016,-2.525942866002218,6.109832274704733,1.016411542892456,-5.351450030003683
1708435870.4886262,-2.1418709754943848,-1.3331210923245926,-2.5259998480426233,6.1098365662391565,1.0164568424224854,-5.350877110158102
1708435870.490625,-2.1418371200561523,-1.3331244152835389,-2.525954786931173,6.109839665680685,1.0164763927459717,-5.350288275872366
1708435870.492611,-2.1418256759643555,-1.3331373196891327,-2.5259907881366175,6.1097766039665125,1.0165165662765503,-5.349646035824911
1708435870.4946113,-2.1419026851654053,-1.3331409257701416,-2.5260239283191126,6.109779464989462,1.0165380239486694,-5.349057916794912
1708435870.496681,-2.1418912410736084,-1.3331495535424729,-2.5259984175311487,6.109758841782369,1.0165647268295288,-5.348441485558645
1708435870.498625,-2.1418709754943848,-1.3331690293601532,-2.5259953180896204,6.109780776291647,1.0165603160858154,-5.34781247774233
1708435870.500627,-2.1418371200561523,-1.3331452769092103,-2.526017729436056,6.109797107964315,1.0165798664093018,-5.347191993390219
1708435870.5026278,-2.141850709915161,-1.3331528466990967,-2.52606445947756,6.109739768296041,1.0166010856628418,-5.3466190735446375
1708435870.5046659,-2.1418371200561523,-1.3331366640380402,-2.526076618825094,6.109778034477987,1.0166206359863281,-5.345986549054281
1708435870.506667,-2.1418540477752686,-1.3331571084311982,-2.526050869618551,6.109802949219503,1.0166399478912354,-5.345402423535482
1708435870.508635,-2.1418256759643555,-1.3331158769181748,-2.5261452833758753,6.109711158066549,1.016672968864441,-5.344796721135275
1708435870.510648,-2.1418676376342773,-1.333133028154709,-2.5260987917529505,6.1097484705741785,1.0166970491409302,-5.344152275715963
1708435870.5126467,-2.1418135166168213,-1.3331528466990967,-2.5261316935168665,6.1097274897392175,1.0167182683944702,-5.343474451695577
1708435870.5146327,-2.141822338104248,-1.3331244152835389,-2.526139561329977,6.109675037651815,1.0167301893234253,-5.342789892350332
1708435870.516635,-2.141805410385132,-1.3331571233323594,-2.526176993046896,6.109646904259481,1.016757607460022,-5.3421452085124415
1708435870.5186508,-2.141789674758911,-1.3331657213023682,-2.526146952305929,6.109737622528829,1.0167440176010132,-5.341494087372915
1708435870.5206368,-2.141817808151245,-1.333213360314705,-2.526217285786764,6.109737622528829,1.0167887210845947,-5.340780083333151
1708435870.5226345,-2.141761302947998,-1.3331974905780335,-2.5262158552752894,6.109671938210287,1.01683509349823,-5.340105775986807
1708435870.5246425,-2.1417577266693115,-1.3331244003823777,-2.5261781851397913,6.109660136490621,1.016800880432129,-5.339344326649801
1708435870.526621,-2.1418187618255615,-1.3331985038569947,-2.5262489954577845,6.10964201667861,1.0168862342834473,-5.338591818009512
1708435870.5286257,-2.1417462825775146,-1.3331485849669953,-2.5262067953692835,6.10965262630538,1.0169180631637573,-5.337875548993246
1708435870.5306268,-2.1417622566223145,-1.3331732761910935,-2.526242796574728,6.1095794318015955,1.0169585943222046,-5.337062362824575
1708435870.5326674,-2.1417553424835205,-1.3331769418767472,-2.526238266621725,6.109609353333273,1.0169495344161987,-5.336322609578268
1708435870.534646,-2.141721487045288,-1.3331280660680314,-2.526300017033712,6.109618294029989,1.0169858932495117,-5.33552331129183
1708435870.536659,-2.1416897773742676,-1.3331528466990967,-2.5262697378741663,6.109515535622396,1.0170307159423828,-5.334784809743063
1708435870.5386255,-2.1417031288146973,-1.3332176816514512,-2.526353899632589,6.109561192780294,1.0170789957046509,-5.3339561263667505
1708435870.5406187,-2.1416985988616943,-1.3331399273923417,-2.5263312498675745,6.109504687577047,1.0170700550079346,-5.333168868218557
1708435870.542651,-2.1417393684387207,-1.3331485849669953,-2.526383940373556,6.109549271851339,1.0170849561691284,-5.332320574914114
1708435870.5446413,-2.1416285037994385,-1.3331571084311982,-2.526376549397604,6.109582173615255,1.0171136856079102,-5.331489447747366
1708435870.5466168,-2.1416828632354736,-1.3331769418767472,-2.526407782231466,6.109476315766134,1.0171705484390259,-5.330676917229788
1708435870.5486376,-2.1416332721710205,-1.3332133305123826,-2.5263822714435022,6.109489667206564,1.0171946287155151,-5.329914514218466
1708435870.550632,-2.1416351795196533,-1.333173320894577,-2.5264604727374476,6.109452235489645,1.017193078994751,-5.329004887734548
1708435870.5526378,-2.1416306495666504,-1.3332219284823914,-2.526496235524313,6.109409081726827,1.0172336101531982,-5.328120295201437
1708435870.5546145,-2.1415979862213135,-1.3331358295730134,-2.526503864918844,6.1094103930290125,1.0172576904296875,-5.327216092740194
1708435870.5566626,-2.141566038131714,-1.3332133752158661,-2.5265324751483362,6.10936855056838,1.0172984600067139,-5.326349083577291
1708435870.5586405,-2.14158296585083,-1.3331519675305863,-2.5265067259417933,6.109349238663473,1.0173250436782837,-5.325455073510305
1708435870.5606587,-2.1415581703186035,-1.3331485104611893,-2.5265772978412073,6.109362470894613,1.0173569917678833,-5.3244991342173975
1708435870.5626314,-2.141509532928467,-1.333184615974762,-2.5265710989581507,6.109301674156942,1.0174487829208374,-5.323582951222555
1708435870.5646224,-2.1414856910705566,-1.3331357103637238,-2.5265756289111536,6.109294044762411,1.0174620151519775,-5.322624150906698
1708435870.566637,-2.1414787769317627,-1.3331803989461442,-2.52664024034609,6.109283196717062,1.0175191164016724,-5.321643833314077
1708435870.5686576,-2.1414380073547363,-1.333188847904541,-2.526656691228048,6.109238374024191,1.0175431966781616,-5.3207178751574915
1708435870.570657,-2.1414425373077393,-1.3331975054791947,-2.5266597906695765,6.1092145321662805,1.017600417137146,-5.31970847049822
1708435870.5726647,-2.141385793685913,-1.3331760180047532,-2.526695791875021,6.109178769379415,1.0176228284835815,-5.318713370953695
1708435870.5746145,-2.1414287090301514,-1.3331847202828904,-2.526736323033468,6.109211432724752,1.01767098903656,-5.317744914685385
1708435870.5766535,-2.141374349594116,-1.3332246404937287,-2.5267558733569544,6.109129416733541,1.0177208185195923,-5.316786650811331
1708435870.5786393,-2.1413302421569824,-1.333220900302269,-2.5267677942859095,6.109122025757589,1.0177147388458252,-5.315826718007223
1708435870.5806746,-2.141328811645508,-1.3332527738860627,-2.5268080870257776,6.109074461251058,1.017783761024475,-5.314831558858053
1708435870.5826313,-2.141263246536255,-1.3332569909146805,-2.526827875767843,6.109059083252706,1.017848253250122,-5.313816968594686
1708435870.584681,-2.141202211380005,-1.3332279932549973,-2.526856247578756,6.109010088234701,1.017879843711853,-5.312788669263021
1708435870.5866394,-2.1411657333374023,-1.3332279336503525,-2.526889149342672,6.10901557186202,1.0179203748703003,-5.311857942734854
1708435870.5886629,-2.1412041187286377,-1.3332236123136063,-2.5269013086902063,6.1089621661003015,1.0179431438446045,-5.310820523892538
1708435870.590634,-2.1411404609680176,-1.3332725328258057,-2.526928249989645,6.10900496223525,1.017991065979004,-5.309843067322866
1708435870.592661,-2.1410841941833496,-1.3332598072341462,-2.526952091847555,6.108914243965902,1.0180153846740723,-5.308819715176718
1708435870.5946414,-2.1410672664642334,-1.3332639944604416,-2.526956621800558,6.10888289192275,1.0181126594543457,-5.3078463713275355
1708435870.5966718,-2.141045093536377,-1.3333122295192261,-2.526980702077047,6.1088706133659265,1.0181353092193604,-5.30684864917864
1708435870.5986254,-2.1410000324249268,-1.3333363992026825,-2.5270076433764856,6.108855950623312,1.0182089805603027,-5.305747453366415
1708435870.6006877,-2.140984058380127,-1.33332875490699,-2.527026955281393,6.108773696213522,1.0182855129241943,-5.3047454992877405
1708435870.6026795,-2.140927314758301,-1.333290846352913,-2.5270422140704554,6.108714329987325,1.0183457136154175,-5.303593222294943
1708435870.6046438,-2.1408841609954834,-1.333319218163826,-2.5270870367633265,6.108690488129415,1.0184088945388794,-5.302559677754537
1708435870.6066551,-2.1408028602600098,-1.3333030206016083,-2.5271111170398157,6.10867069938735,1.0184073448181152,-5.301489357148306
1708435870.6086495,-2.1407675743103027,-1.333323599105217,-2.5271876494037073,6.1085857031639,1.018542766571045,-5.300487462674276
1708435870.6106677,-2.140740156173706,-1.3334085506251832,-2.5271998087512415,6.108624326973715,1.0185621976852417,-5.299415055905477
1708435870.6126912,-2.140713691711426,-1.333374874000885,-2.5272236506091517,6.108547794609823,1.0186253786087036,-5.298305932675497
1708435870.614654,-2.140587091445923,-1.333411530857422,-2.527292791997091,6.1084914086158655,1.0186809301376343,-5.2972639242755335
1708435870.616689,-2.140584707260132,-1.3334439259818573,-2.5273404757129114,6.108440387039938,1.0187214612960815,-5.296193305646078
1708435870.6186252,-2.1404874324798584,-1.3334438812783738,-2.527355496083395,6.108380424767294,1.018805742263794,-5.295072738324301
1708435870.6206279,-2.140432834625244,-1.3334476065686722,-2.527367655430929,6.108308779984274,1.0188746452331543,-5.293965939675466
1708435870.6226454,-2.140371799468994,-1.3334842187217255,-2.5274515787707728,6.108204233437338,1.0189379453659058,-5.292832199727194
1708435870.624622,-2.14025616645813,-1.3334918332150956,-2.52747089067568,6.108193862229147,1.0190099477767944,-5.29171592393984
1708435870.626644,-2.1402130126953125,-1.3334747862866898,-2.5275443235980433,6.108084547310629,1.0191030502319336,-5.2907196323024195
1708435870.6286154,-2.140136241912842,-1.3335233491710206,-2.5275760332690638,6.10803388336257,1.01915442943573,-5.289600793515341
1708435870.6306252,-2.1400644779205322,-1.3335722398808976,-2.527607504521505,6.1078847525413416,1.019186019897461,-5.288547698651449
1708435870.6326463,-2.139976978302002,-1.3336006563952942,-2.5276435057269495,6.107878076821127,1.0193045139312744,-5.28739166656603
1708435870.634628,-2.139906644821167,-1.3335430932096024,-2.527691427861349,6.107733595162191,1.0193392038345337,-5.28632086912264
1708435870.6366704,-2.139777421951294,-1.333640382891037,-2.5277770201312464,6.107666241913595,1.0194265842437744,-5.285230878983633
1708435870.638633,-2.139700412750244,-1.3336919856122513,-2.527825180684225,6.107583868294515,1.0195406675338745,-5.284131471310751
1708435870.6406384,-2.1396334171295166,-1.3336678755334397,-2.5278685728656214,6.107437598496237,1.0196248292922974,-5.283159796391622
1708435870.6426752,-2.139481544494629,-1.3336387139609833,-2.527870003377096,6.107417928963461,1.019680380821228,-5.282130543385641
1708435870.6446657,-2.1393826007843018,-1.3337071549943467,-2.5279930273639124,6.107214796334066,1.019824504852295,-5.2811036745654505
1708435870.6466465,-2.1392951011657715,-1.333731011753418,-2.5280123392688196,6.107098567276754,1.0199012756347656,-5.280081335698263
1708435870.648634,-2.1391961574554443,-1.3337429028800507,-2.5280798117267054,6.1069384692008875,1.019959807395935,-5.279058877621786
1708435870.650623,-2.13903546333313,-1.333749921326973,-2.528139893208639,6.106827723770895,1.0200848579406738,-5.278069798146383
1708435870.65266,-2.138864755630493,-1.333790810113289,-2.5282254854785364,6.106705415039816,1.0201570987701416,-5.277077976857321
1708435870.6546185,-2.138749837875366,-1.3338461977294465,-2.5282614866839808,6.106539356499471,1.0202693939208984,-5.276078645383016
1708435870.656653,-2.1385796070098877,-1.3338669550469895,-2.5282896200763147,6.106421100884237,1.0203535556793213,-5.27507454553713
1708435870.6586359,-2.1384143829345703,-1.3339278113893052,-2.5284131209002894,6.106289851456442,1.0204826593399048,-5.274116937314169
1708435870.6606374,-2.138272285461426,-1.3339459610036393,-2.5285163561450403,6.106123673706808,1.0205897092819214,-5.273171130810873
1708435870.6626487,-2.1380908489227295,-1.3339588654092331,-2.528555456792013,6.1058740494544885,1.020735263824463,-5.272208158169882
1708435870.664619,-2.137916088104248,-1.3339777898839493,-2.5286439100848597,6.105727541237631,1.0208765268325806,-5.271181289349691
1708435870.6666572,-2.1377651691436768,-1.334030733709671,-2.5287652651416224,6.105495798378744,1.0209354162216187,-5.270201865826742
1708435870.6686502,-2.137547492980957,-1.334050641661026,-2.528799835835592,6.105222928314962,1.021041989326477,-5.269297305737631
1708435870.670633,-2.1373138427734375,-1.3341024828008194,-2.528912130986349,6.104959952622213,1.0212165117263794,-5.268283192311422
1708435870.6726773,-2.1370937824249268,-1.3341136288693924,-2.528966013585226,6.104687917023458,1.0213243961334229,-5.267437760029928
1708435870.6746523,-2.1368985176086426,-1.3341623109630127,-2.529107157384054,6.104469287186422,1.0214804410934448,-5.266543928776876
1708435870.676656,-2.1366264820098877,-1.3341570657542725,-2.5292211214648646,6.104227053910055,1.021637201309204,-5.265668336545126
1708435870.6786237,-2.1363697052001953,-1.334176929002144,-2.5293458143817347,6.103902923851766,1.021797776222229,-5.2647215763675135
1708435870.680634,-2.136106491088867,-1.3342409890941163,-2.5293906370746058,6.1036085961158655,1.0219424962997437,-5.263866368924276
1708435870.6826518,-2.1358587741851807,-1.3343175214580079,-2.5295901934253138,6.103350150376119,1.0220695734024048,-5.262975994740621
1708435870.6846273,-2.1355161666870117,-1.3343776923469086,-2.529710117970602,6.102982508927145,1.022230863571167,-5.262119952832357
1708435870.686626,-2.135263681411743,-1.3343926531127472,-2.529797140751974,6.102723467140951,1.0223824977874756,-5.261255327855245
1708435870.688631,-2.1350131034851074,-1.334421084528305,-2.529900375996725,6.102385389595785,1.0225749015808105,-5.260413471852438
1708435870.6906338,-2.1346044540405273,-1.3345005077174683,-2.530057970677511,6.1020089266593835,1.0227972269058228,-5.259588066731588
1708435870.6926453,-2.1342461109161377,-1.3345646274140854,-2.5301435629474085,6.101589190750875,1.02292799949646,-5.25879139104952
1708435870.694635,-2.1339190006256104,-1.334608019595482,-2.5302963892566126,6.101170766144552,1.0231280326843262,-5.257951800023214
1708435870.6966293,-2.1335885524749756,-1.3346720796874543,-2.530466143284933,6.100756871491232,1.0233458280563354,-5.257209006940023
1708435870.6986158,-2.133208990097046,-1.3347196739963074,-2.5306339899646204,6.100281345635214,1.0235291719436646,-5.25648266473879
1708435870.7006404,-2.132845163345337,-1.334840254192688,-2.5307658354388636,6.099874603539266,1.0237215757369995,-5.2556708494769495
1708435870.7026458,-2.132441759109497,-1.3348840785077591,-2.5308812300311487,6.099411356240072,1.0239137411117554,-5.254905883465902
1708435870.7046351,-2.131970167160034,-1.3348704886487504,-2.5310915152179163,6.098954307823934,1.0241228342056274,-5.2542681137668055
1708435870.706632,-2.1316006183624268,-1.334974543457367,-2.531200710927145,6.0984428999717615,1.0243345499038696,-5.2535778919803064
1708435870.7086263,-2.1310863494873047,-1.3350344759276886,-2.5313988367663782,6.097900259285726,1.0246456861495972,-5.252945844327108
1708435870.71065,-2.1305623054504395,-1.3351351034692307,-2.531515661870138,6.097333895951071,1.0248562097549438,-5.25227934518923
1708435870.7126746,-2.1300971508026123,-1.3351660531810303,-2.531757179890768,6.096698391228475,1.025125503540039,-5.251622025166647
1708435870.7146459,-2.1295621395111084,-1.3353025031140824,-2.5319085756884974,6.09618233421401,1.02544367313385,-5.251098815594808
1708435870.716622,-2.129004955291748,-1.3353330355933686,-2.532126013432638,6.095552432328024,1.0256541967391968,-5.25048262277712
1708435870.7186227,-2.1285417079925537,-1.3354817044785996,-2.532346550618307,6.094888317375936,1.0259485244750977,-5.249954048787252
1708435870.7206244,-2.1279780864715576,-1.335541845565178,-2.5325010458575647,6.094340193062582,1.0261516571044922,-5.24937612215151
1708435870.7226157,-2.127389907836914,-1.3355399531177063,-2.5327635447131556,6.093633162766256,1.026458740234375,-5.248891655598776
1708435870.7246206,-2.126812219619751,-1.335636631851532,-2.5329960028277796,6.092844354897299,1.02670156955719,-5.248410646115438
1708435870.7266572,-2.1261470317840576,-1.3357848835042496,-2.5332074801074427,6.092083799629965,1.0270276069641113,-5.2478874365436
1708435870.7286365,-2.125492572784424,-1.3358646643212815,-2.5333617369281214,6.0913429138954065,1.0273481607437134,-5.247475210820333
1708435870.7306526,-2.124891519546509,-1.3359275621226807,-2.5336316267596644,6.090532052307882,1.0276648998260498,-5.246980611477987
1708435870.732621,-2.1241888999938965,-1.3361161214164277,-2.5338714758502405,6.08974181392745,1.027977466583252,-5.246517364178793
1708435870.7346334,-2.1234848499298096,-1.3361633282950898,-2.5340662638293665,6.089015471726217,1.0282524824142456,-5.2461034695254725
1708435870.736623,-2.12277889251709,-1.3362753701261063,-2.534344259892599,6.088104831963339,1.0285773277282715,-5.245734516774313
1708435870.738622,-2.122105836868286,-1.3363420975259324,-2.5345869700061243,6.087212669640341,1.0289229154586792,-5.245372954999105
1708435870.7406194,-2.121337413787842,-1.3364538562348862,-2.5348389784442347,6.08634244182662,1.0292749404907227,-5.245014015828268
1708435870.7426853,-2.120553493499756,-1.3365451854518433,-2.5351029078113,6.0853426335151575,1.0296519994735718,-5.244613830243246
1708435870.7446203,-2.1197681427001953,-1.336664931183197,-2.5353501478778284,6.08446096160964,1.0300127267837524,-5.2442994753467005
1708435870.7466247,-2.1189699172973633,-1.3367970448783417,-2.53560978571047,6.08350025394515,1.0303446054458618,-5.244031016026632
1708435870.748623,-2.118180513381958,-1.336937130694725,-2.53589898744692,6.082450377732076,1.0307875871658325,-5.24369198480715
1708435870.75063,-2.117365837097168,-1.3370408129743119,-2.5361300150500696,6.081337678223409,1.0311589241027832,-5.2433828751193445
1708435870.7526717,-2.1164944171905518,-1.3371320974877854,-2.536438767110006,6.0803319094474695,1.0314857959747314,-5.243210617695944
1708435870.754626,-2.1155636310577393,-1.337251828317978,-2.5367148558246058,6.079196321755209,1.0319491624832153,-5.243012015019552
1708435870.7566347,-2.1146938800811768,-1.337382749920227,-2.5370612780200403,6.078143584519186,1.0323536396026611,-5.242775742207662
1708435870.758629,-2.113779306411743,-1.337474451666214,-2.5372772852527063,6.077086674958029,1.0327131748199463,-5.2426504532443445
1708435870.7606378,-2.1129567623138428,-1.337638334637024,-2.537548367177145,6.076025831490316,1.0331732034683228,-5.242402021084921
1708435870.7626424,-2.111995220184326,-1.3378184598735352,-2.5378997961627405,6.074921834259786,1.033532977104187,-5.242270652447836
1708435870.7646248,-2.110961437225342,-1.337921456699707,-2.538166348134176,6.073647844582357,1.03394615650177,-5.242197457944052
1708435870.7666314,-2.1100213527679443,-1.3380540621331711,-2.53851563135256,6.072470533638754,1.0343657732009888,-5.242064658795492
1708435870.7686455,-2.1090142726898193,-1.3381695312312623,-2.5387900511371058,6.071219193726339,1.034855604171753,-5.242013637219564
1708435870.770655,-2.1079859733581543,-1.3382880848697205,-2.5391472021686,6.069941150933065,1.0352556705474854,-5.24199098745455
1708435870.7726245,-2.1069223880767822,-1.3384119135192414,-2.5395084063159388,6.06867943981246,1.0357213020324707,-5.241947833691732
1708435870.7746234,-2.1058402061462402,-1.3385431331447144,-2.5397709051715296,6.06738172748641,1.0362199544906616,-5.241903130208151
1708435870.776615,-2.104823589324951,-1.3386989098838349,-2.540114227925436,6.066114532738485,1.0366363525390625,-5.241887990628378
1708435870.778624,-2.1036722660064697,-1.3388349127820511,-2.5404141584979456,6.064745771675863,1.0371013879776,-5.241905752812521
1708435870.7806325,-2.1025643348693848,-1.3389911365560074,-2.5408037344561976,6.063446628838339,1.0375250577926636,-5.241973106061117
1708435870.782651,-2.101527214050293,-1.3391173344901581,-2.5411279837237757,6.06209813335494,1.0380765199661255,-5.2420775333987635
1708435870.7846544,-2.100295305252075,-1.3392290484956284,-2.5414579550372522,6.0606247065360925,1.0385321378707886,-5.242161575947897
1708435870.7866268,-2.0991575717926025,-1.3394214075854798,-2.5418015162097376,6.0592055199439905,1.0390130281448364,-5.242270652447836
1708435870.7886627,-2.097975969314575,-1.33955733597789,-2.542227331792013,6.057716715126791,1.039539098739624,-5.242328707371847
1708435870.7906446,-2.096742630004883,-1.339684621696808,-2.5425334612475794,6.056223976403036,1.0400559902191162,-5.242464367543356
1708435870.792643,-2.0955076217651367,-1.3397871416858216,-2.542942825947897,6.054693448334493,1.0405319929122925,-5.242576781903402
1708435870.7946343,-2.094308853149414,-1.3399432462504883,-2.543269697819845,6.053198802262106,1.0409713983535767,-5.242748324071066
1708435870.7966502,-2.0930449962615967,-1.3400954467109223,-2.543630901967184,6.051577555924215,1.04154372215271,-5.242904130612509
1708435870.798632,-2.091721534729004,-1.3401990246823807,-2.5440197626696985,6.05001853683547,1.0420488119125366,-5.243076030408041
1708435870.800647,-2.0904531478881836,-1.3403617155602952,-2.544436279927389,6.048289167671957,1.042519211769104,-5.243290964757101
1708435870.8026466,-2.089111328125,-1.3404402893832703,-2.5447784105883997,6.046687114029684,1.0431309938430786,-5.2434943358050745
1708435870.8046312,-2.0878114700317383,-1.3406368506005784,-2.5451977888690394,6.045045125275411,1.0436911582946777,-5.243773643170492
1708435870.8066366,-2.086458444595337,-1.340755508547165,-2.5455623308764856,6.043305742531576,1.0442520380020142,-5.244033757840292
1708435870.8091576,-2.085047483444214,-1.3409390312484284,-2.5459986368762415,6.041609632759847,1.0448142290115356,-5.2443371454821985
1708435870.8126516,-2.0822832584381104,-1.3412532967380066,-2.546840016041891,6.038043963700094,1.0459656715393066,-5.244991604481832
1708435870.8146558,-2.0808138847351074,-1.341417373423912,-2.5472448507892054,6.036304938584127,1.0464807748794556,-5.245293203984396
1708435870.8166986,-2.079381227493286,-1.3416012239507218,-2.5476139227496546,6.034524547844686,1.0470147132873535,-5.2456821838962
1708435870.8187478,-2.077913999557495,-1.3417555552772065,-2.548054281865255,6.032679784088888,1.0476245880126953,-5.246043507252828
1708435870.8206332,-2.0764048099517822,-1.3418708157590409,-2.5484655539142054,6.03090118148879,1.0481595993041992,-5.246427599583761
1708435870.8226285,-2.0749311447143555,-1.3421152544072648,-2.5488975683795374,6.029012906342306,1.0487408638000488,-5.246817652379171
1708435870.8246355,-2.0734057426452637,-1.3422631037286301,-2.549338165913717,6.0270858881767175,1.0493299961090088,-5.247259918843405
1708435870.82665,-2.0718324184417725,-1.3424784404090424,-2.5497849623309534,6.025111663132467,1.0498816967010498,-5.247752849255697
1708435870.828626,-2.070307970046997,-1.34263031304393,-2.550202194844381,6.02315508106307,1.050439476966858,-5.2482139507876795
1708435870.8306363,-2.0687499046325684,-1.3427611601403733,-2.5506096521960657,6.021214353829183,1.0509276390075684,-5.248705569897787
1708435870.832641,-2.0671629905700684,-1.3429728907397767,-2.55104905763735,6.019146907120504,1.051490068435669,-5.249129954968588
1708435870.8346264,-2.0655088424682617,-1.3431044977954407,-2.5515227953540247,6.017108070641317,1.0521167516708374,-5.249629203473226
1708435870.836625,-2.063844919204712,-1.3432957094958802,-2.55198318163027,6.015080439835348,1.0528168678283691,-5.250138823186056
1708435870.8386288,-2.062192678451538,-1.343438209300377,-2.5524662176715296,6.013042080193319,1.0534812211990356,-5.250685516987936
1708435870.8406692,-2.0605690479278564,-1.3436297488263627,-2.5528979937182825,6.010933744698324,1.0541454553604126,-5.251219216977255
1708435870.8426955,-2.0589165687561035,-1.3437891018441697,-2.553337637578146,6.0088350651557825,1.054782748222351,-5.251806561146871
1708435870.8446524,-2.057185649871826,-1.3439978969148179,-2.5537639299975794,6.006778108864584,1.0553507804870605,-5.252363983784811
1708435870.8466423,-2.0555593967437744,-1.3441273731044312,-2.5542362372027796,6.0046037314231775,1.0560047626495361,-5.252958957348959
1708435870.8486514,-2.053764581680298,-1.3443109852126618,-2.5546756426440638,6.002441513329305,1.0566743612289429,-5.25356370607485
1708435870.8506434,-2.052023410797119,-1.3444905889085312,-2.5551002661334437,6.000183927803793,1.057364821434021,-5.254129354153768
1708435870.852654,-2.050276041030884,-1.3446983707002182,-2.555617634450094,5.997961628227987,1.0580168962478638,-5.254686419163839
1708435870.854628,-2.0484561920166016,-1.344861016874649,-2.556052271519796,5.995664822846212,1.0586662292480469,-5.25528330007662
1708435870.856665,-2.046660900115967,-1.3450741183808823,-2.5565295855151575,5.993435847550192,1.059294581413269,-5.255955998097555
1708435870.858634,-2.0449066162109375,-1.3452699792436142,-2.556967322026388,5.9911537049110315,1.059948205947876,-5.256544534360067
1708435870.8606088,-2.0430901050567627,-1.3454600733569642,-2.557349507008688,5.988836872368612,1.0605454444885254,-5.257242623959677
1708435870.862627,-2.0411856174468994,-1.3456025135568161,-2.5578721205340784,5.986517774849691,1.0611505508422852,-5.25794500509371
1708435870.8646257,-2.039402723312378,-1.3458112639239808,-2.5583234469043177,5.984278905182638,1.061754822731018,-5.258572642003195
1708435870.866628,-2.0375773906707764,-1.3459615123322983,-2.558732811604635,5.9820387242134,1.0623844861984253,-5.259340349827902
1708435870.8686302,-2.0358057022094727,-1.3461364072612305,-2.5592218081103724,5.979730236321249,1.0630381107330322,-5.259966079388754
1708435870.8706286,-2.033998966217041,-1.3462874603322526,-2.5596748034106653,5.977409231453695,1.06365168094635,-5.2607027927981775
1708435870.872642,-2.032156229019165,-1.3465482008508225,-2.5600810686694544,5.975028502732076,1.0643140077590942,-5.261366430913107
1708435870.8746161,-2.0302188396453857,-1.3466907155564805,-2.5605862776385706,5.972594845085897,1.0648852586746216,-5.262145940457479
1708435870.8766344,-2.0282859802246094,-1.3469024908593674,-2.561025683079855,5.970273601799764,1.0655313730239868,-5.262842361127035
1708435870.878626,-2.026503562927246,-1.3470743161490937,-2.561462942753927,5.967877495079794,1.0661760568618774,-5.263600293789999
1708435870.8806174,-2.024562120437622,-1.3472606402686615,-2.5619731585132044,5.9655953524406335,1.0668253898620605,-5.264301125203268
1708435870.8826263,-2.0227577686309814,-1.3475224387696763,-2.5623253027545374,5.96329282501296,1.067405343055725,-5.265066210423605
1708435870.8846197,-2.0208382606506348,-1.347691760664322,-2.5627947489367884,5.960926759033956,1.0680499076843262,-5.265762154256002
1708435870.8866355,-2.0189616680145264,-1.3479290169528504,-2.5632310549365442,5.958429443627157,1.0686430931091309,-5.266499344502584
1708435870.8886316,-2.016998291015625,-1.348099560742714,-2.5636327902423304,5.955957758217611,1.0692960023880005,-5.267326895390646
1708435870.8906217,-2.015073299407959,-1.3483427923968812,-2.5641022364245813,5.95345019081191,1.0699043273925781,-5.267994944249288
1708435870.8927019,-2.0131280422210693,-1.3485123974135895,-2.5645652453051966,5.951135146408834,1.0705647468566895,-5.26870316663851
1708435870.8946204,-2.011198043823242,-1.34871260941539,-2.5650349299060267,5.948694216995992,1.0711965560913086,-5.269468609486715
1708435870.8966308,-2.0092201232910156,-1.348907084470131,-2.5654669443713587,5.946205127030172,1.0717599391937256,-5.270155493413107
1708435870.8986251,-2.0072240829467773,-1.3491670948318024,-2.565927330647604,5.943771946221151,1.072426199913025,-5.270949308072225
1708435870.9006197,-2.0052568912506104,-1.3493777823499222,-2.566333595906393,5.94125376918868,1.0730464458465576,-5.271727267895834
1708435870.9026468,-2.0032968521118164,-1.3495779198459168,-2.566805903111593,5.938933002739706,1.0736801624298096,-5.272397224103109
1708435870.904616,-2.001373291015625,-1.3497798454812546,-2.5672007242785853,5.936435210495748,1.074259877204895,-5.273124996815817
1708435870.9066424,-1.9993880987167358,-1.3500119757703324,-2.567667309437887,5.933990943222799,1.074851155281067,-5.273855153714315
1708435870.9086478,-1.997346043586731,-1.350247786646225,-2.568068329487936,5.93155466297225,1.0753916501998901,-5.274558130894796
1708435870.910625,-1.9953036308288574,-1.3504950863173981,-2.568512741719381,5.92899106720046,1.0759730339050293,-5.275349322949545
1708435870.9126816,-1.9933109283447266,-1.3506726336530228,-2.568953339253561,5.9264505980308435,1.0765165090560913,-5.276108924542562
1708435870.9146748,-1.9912289381027222,-1.350961522465088,-2.5693896452533167,5.923920380860128,1.0771125555038452,-5.276861969624655
1708435870.916662,-1.98918616771698,-1.351159543996193,-2.5697973410235804,5.921443092613973,1.0776770114898682,-5.277633730565206
1708435870.9186265,-1.9871695041656494,-1.3514369440129776,-2.5702458063708704,5.918975102692404,1.0782173871994019,-5.278354350720541
1708435870.9206722,-1.9851086139678955,-1.3516628456166764,-2.570557419453756,5.916574227600851,1.0787445306777954,-5.279121224080221
1708435870.922645,-1.9831547737121582,-1.351918177013733,-2.5710650126086634,5.914031374245443,1.079358458518982,-5.279876891766683
1708435870.9246435,-1.981097936630249,-1.3521170181087037,-2.571418587361471,5.911480176239767,1.0799165964126587,-5.280648652707235
1708435870.9267232,-1.9790256023406982,-1.3524083358100434,-2.5718520323382776,5.908954369812765,1.0804316997528076,-5.281405512486593
1708435870.928633,-1.976908564567566,-1.3526553374579926,-2.5722387472735804,5.906405913620748,1.0809992551803589,-5.282165829335348
1708435870.930655,-1.974890947341919,-1.352890060549118,-2.5726495424853724,5.903906094818868,1.0815768241882324,-5.282962028180258
1708435870.9326396,-1.9727882146835327,-1.3531326365521927,-2.5730634371386927,5.90148018577651,1.0820754766464233,-5.283688012753622
1708435870.9346206,-1.9708001613616943,-1.3533965659192582,-2.573463026677267,5.8989919302757166,1.082587718963623,-5.284383300934927
1708435870.9366424,-1.968743920326233,-1.3536391121200104,-2.5738044420825403,5.896477448731222,1.0830802917480469,-5.285165254269735
1708435870.938632,-1.966621994972229,-1.3539598298123856,-2.574197594319479,5.8939154026801965,1.0836131572723389,-5.285942856465475
1708435870.9406579,-1.9645034074783325,-1.3541043412736435,-2.5746353308307093,5.891325223236837,1.0841506719589233,-5.286625568066732
1708435870.942643,-1.962389349937439,-1.35452292979274,-2.574965302144186,5.888812529831686,1.084707498550415,-5.287362043057577
1708435870.9446602,-1.9602071046829224,-1.3547640454820176,-2.5753729979144495,5.88623725154952,1.0852855443954468,-5.288081828747885
1708435870.9466372,-1.958095669746399,-1.355043725376465,-2.575791660939352,5.88367913940505,1.085821509361267,-5.28885788122286
1708435870.9486206,-1.9559710025787354,-1.3553783607533951,-2.5761545340167444,5.88107048252181,1.086342453956604,-5.289562765751974
1708435870.9506574,-1.953861117362976,-1.3556444954923172,-2.576479736958639,5.878508436470785,1.0868502855300903,-5.290384236966268
1708435870.9526527,-1.9516724348068237,-1.3559192729047318,-2.576945130025045,5.876023518830099,1.0873019695281982,-5.291050080453054
1708435870.9546435,-1.949641466140747,-1.3562315863421937,-2.577232901250021,5.873516905098715,1.087809443473816,-5.291779998932974
1708435870.956673,-1.9474906921386719,-1.3565502625754853,-2.5776425043689173,5.871026146202841,1.0882809162139893,-5.292524699364797
1708435870.9586332,-1.9453344345092773,-1.356833041911461,-2.5779524485217493,5.8683873293693445,1.0887500047683716,-5.2932602802859705
1708435870.960622,-1.9431159496307373,-1.357155756359436,-2.578357521687643,5.865763175278463,1.0893124341964722,-5.293996099625723
1708435870.9626257,-1.9409123659133911,-1.3575032365373154,-2.5787037054644983,5.863161790161886,1.0897670984268188,-5.294720117245809
1708435870.964666,-1.9387249946594238,-1.3578129720738907,-2.579155508671896,5.860506403237142,1.0902491807937622,-5.2953946630107325
1708435870.9666557,-1.9365297555923462,-1.358071745639183,-2.5794807116137903,5.858035433083334,1.09066641330719,-5.296197060738699
1708435870.9686253,-1.9343860149383545,-1.358480454688408,-2.5798118750201624,5.8554608700569055,1.0911186933517456,-5.296905223523275
1708435870.970651,-1.9322112798690796,-1.3587785077146073,-2.5802257696734827,5.852970230370321,1.0916073322296143,-5.2975977698909205
1708435870.9726515,-1.9300967454910278,-1.3590804648450394,-2.580560270939962,5.850410687714376,1.0920056104660034,-5.298289601002828
1708435870.974652,-1.9278472661972046,-1.3593794417432328,-2.580888573323385,5.847859132080831,1.0924352407455444,-5.299022499714987
1708435870.9766243,-1.9256014823913574,-1.3597427320531388,-2.581198755894796,5.845250355988302,1.0928990840911865,-5.299673620854513
1708435870.978627,-1.9234589338302612,-1.3601302814534684,-2.5815723578082483,5.842751848488607,1.093335747718811,-5.300302330647604
1708435870.9806437,-1.9212533235549927,-1.3604739618352433,-2.5818827787982386,5.840308177262106,1.0938173532485962,-5.300967756901876
1708435870.9826107,-1.919120192527771,-1.3607466530850907,-2.5822182337390345,5.837903129845419,1.0941306352615356,-5.301637891923086
1708435870.9846115,-1.9169281721115112,-1.3611185115626832,-2.5825372377978724,5.835418212204733,1.0945801734924316,-5.302245322857992
1708435870.9866045,-1.914747953414917,-1.36150577784095,-2.5828819910632532,5.832805859833517,1.0949591398239136,-5.302885059510366
1708435870.988631,-1.9124515056610107,-1.361803577547409,-2.5832188765155237,5.8302661059196375,1.0953773260116577,-5.3035463134395044
1708435870.9906604,-1.910232424736023,-1.3621425938657303,-2.5835381189929407,5.827810513764181,1.0958585739135742,-5.304183963929312
1708435870.9926333,-1.9080781936645508,-1.3625180286220093,-2.5838945547686976,5.82531892040328,1.0962750911712646,-5.304796938096182
1708435870.994625,-1.9058915376663208,-1.3628600996783753,-2.5841806570636194,5.822935092240133,1.0966711044311523,-5.305328492318289
1708435870.9966311,-1.903708577156067,-1.3632148218205948,-2.584409777318136,5.820469009667196,1.0970512628555298,-5.305953506623403
1708435870.9986227,-1.9015034437179565,-1.3635982883027573,-2.5847633520709437,5.81804524639205,1.0974758863449097,-5.306583885346548
1708435871.0006468,-1.8992993831634521,-1.3639777463725586,-2.5850585142718714,5.815461385041036,1.0978646278381348,-5.307191316281454
1708435871.0026116,-1.8970569372177124,-1.3643443894437333,-2.585350577031271,5.8130777952964685,1.098204255104065,-5.30777490535845
1708435871.0046678,-1.8948599100112915,-1.3646527838758011,-2.5856667200671595,5.810594308167257,1.0985462665557861,-5.308437410985128
1708435871.006652,-1.892693042755127,-1.3650680643371125,-2.5859795252429407,5.808142292290487,1.098968267440796,-5.308956567441122
1708435871.008622,-1.89042329788208,-1.3654594433358689,-2.5862658659564417,5.805796372681417,1.0993168354034424,-5.309621040021078
1708435871.0106087,-1.88823401927948,-1.3658215564540406,-2.5865443388568323,5.8032662747199915,1.0996805429458618,-5.310129884873525
1708435871.0126314,-1.8860093355178833,-1.366282434468605,-2.5868244806872767,5.800866234093466,1.0999912023544312,-5.310776893292562
1708435871.0146809,-1.8837239742279053,-1.3666315090707322,-2.5871122519122522,5.798413502960958,1.1003514528274536,-5.31128037372698
1708435871.0167308,-1.8815168142318726,-1.366990180020668,-2.587411705647604,5.796012866287985,1.1006925106048584,-5.311914149914877
1708435871.0186856,-1.8793655633926392,-1.3674083960107346,-2.5877111593829554,5.793710458069601,1.1011277437210083,-5.312511328850881
1708435871.0206535,-1.8772048950195312,-1.367794321184494,-2.587928358708517,5.791367637902059,1.1014223098754883,-5.313093427811758
1708435871.0226185,-1.8750380277633667,-1.368250699048378,-2.588238541279928,5.788994300156393,1.1016967296600342,-5.313601140175955
1708435871.024631,-1.8728203773498535,-1.3686288309148331,-2.5885096232043665,5.786576258927145,1.102067470550537,-5.314202133809225
1708435871.0266206,-1.8706445693969727,-1.3690228474191208,-2.588797156010763,5.7841447470481775,1.1023703813552856,-5.314788643513815
1708435871.0286214,-1.8684018850326538,-1.369467170243599,-2.5890353361712855,5.781771170883932,1.1027203798294067,-5.315293137227194
1708435871.0306125,-1.8662235736846924,-1.3698367935470124,-2.5893035570727747,5.779496538430013,1.1029983758926392,-5.31580233970751
1708435871.0326185,-1.8640071153640747,-1.3702509862235566,-2.589612070714132,5.7772278664405725,1.1033228635787964,-5.316335324441091
1708435871.0346434,-1.861836552619934,-1.3706737172654648,-2.5898576418506067,5.7747700093086145,1.1037085056304932,-5.3168461362468165
1708435871.0366533,-1.859609603881836,-1.3710437727025528,-2.59013015428652,5.772418129235067,1.1040732860565186,-5.317402009163992
1708435871.0386255,-1.8573893308639526,-1.3714577865651627,-2.590339962636129,5.770085322647848,1.1043918132781982,-5.318011168633596
1708435871.0406342,-1.8551826477050781,-1.3718522948077698,-2.5906816164599817,5.767689692765035,1.1047520637512207,-5.318503801022665
1708435871.042604,-1.8529996871948242,-1.3722880643657227,-2.5909422079669397,5.765331256180563,1.1050764322280884,-5.31899613538851
1708435871.0446463,-1.8507624864578247,-1.3726905298284073,-2.591147247944967,5.763037788658895,1.1054216623306274,-5.3195586840259
1708435871.046618,-1.8485944271087646,-1.3731251519969483,-2.591511074696676,5.760691511421957,1.1058104038238525,-5.320206467305319
1708435871.0486467,-1.8464374542236328,-1.373576046233513,-2.5917165915118616,5.7582764504249475,1.1060985326766968,-5.320758763943807
1708435871.0506487,-1.8442414999008179,-1.3739460867694397,-2.591959301625387,5.755959379463949,1.1064335107803345,-5.321320120488302
1708435871.0526555,-1.8419891595840454,-1.3743695479682465,-2.5922797361956995,5.753507602005758,1.1067548990249634,-5.321867112313406
1708435871.0546212,-1.8398730754852295,-1.3747320485166092,-2.5925074259387415,5.751155483513632,1.1071045398712158,-5.322394792233602
1708435871.0566413,-1.8376272916793823,-1.3751395803740998,-2.592766348515646,5.748796927719869,1.1074033975601196,-5.3229955474482935
1708435871.0586257,-1.8354527950286865,-1.3755676758340378,-2.593041960393087,5.746470558434286,1.107685923576355,-5.323550824319021
1708435871.0606453,-1.8333170413970947,-1.3759910476258774,-2.5933719317065638,5.744123089104452,1.108032464981079,-5.324120704327719
1708435871.062617,-1.8310579061508179,-1.3764386785081406,-2.5936172644244593,5.741728055268087,1.108364462852478,-5.324647847806112
1708435871.0646791,-1.8288443088531494,-1.3767648947289963,-2.5938764254199427,5.739365207939901,1.1087125539779663,-5.325198415909902
1708435871.066632,-1.8266265392303467,-1.3771792662194748,-2.594210688267843,5.736941325455465,1.109053134918213,-5.325804833565847
1708435871.068642,-1.8244096040725708,-1.3775994044593354,-2.594429318104879,5.734605300217428,1.109336018562317,-5.32636130252947
1708435871.0706272,-1.8222702741622925,-1.3780055356076737,-2.5946434179889124,5.732297527581014,1.1096807718276978,-5.326930050049917
1708435871.0726428,-1.8200520277023315,-1.3784251821092148,-2.594966713582174,5.729879486351766,1.1100577116012573,-5.32748651901354
1708435871.074631,-1.8177839517593384,-1.3787921530059357,-2.5952513853656214,5.727569091110983,1.1104271411895752,-5.32801062265505
1708435871.076621,-1.815625548362732,-1.37920896828685,-2.59552246729006,5.725164282112875,1.110737919807434,-5.32859713235964
1708435871.0786178,-1.813401699066162,-1.3796475690654297,-2.595799748097555,5.722746360092916,1.1110212802886963,-5.329140488301412
1708435871.0806184,-1.8112119436264038,-1.3800151211074372,-2.5960288683520716,5.720367896347799,1.1112769842147827,-5.329667274151937
1708435871.0826294,-1.809069037437439,-1.3803981852582474,-2.5963555018054407,5.718182909279623,1.111586332321167,-5.330290917550222
1708435871.084621,-1.806892991065979,-1.3808214229396363,-2.596630875264303,5.715853202133932,1.1119067668914795,-5.330838922654287
1708435871.0866268,-1.804682970046997,-1.3811637622169037,-2.5969353357898157,5.713511335640707,1.1121745109558105,-5.331319097672598
1708435871.0886252,-1.8025226593017578,-1.3816403460553666,-2.5972302595721644,5.7111496208007715,1.1125210523605347,-5.331921641026632
1708435871.0906413,-1.8002570867538452,-1.3820246321013947,-2.5974398295031946,5.708740997105398,1.1128602027893066,-5.332425896321432
1708435871.0926504,-1.7980293035507202,-1.3824358892491837,-2.597786251698629,5.706357586174764,1.1132162809371948,-5.332942310963766
1708435871.0946186,-1.7958303689956665,-1.3828551334193726,-2.5980287233935755,5.704000639706411,1.1135529279708862,-5.3334583083735865
1708435871.0966153,-1.7935949563980103,-1.38320908070121,-2.598274056111471,5.7016398189361475,1.1138473749160767,-5.334053162728445
1708435871.0986242,-1.7914243936538696,-1.3837262851050873,-2.598534886037008,5.699343669205465,1.1142208576202393,-5.334550205861227
1708435871.100627,-1.7892643213272095,-1.383994312291481,-2.5987640062915247,5.696975576668539,1.1146184206008911,-5.335115436707632
1708435871.10264,-1.7869731187820435,-1.3844056290439148,-2.599069658909933,5.694614517479696,1.1149460077285767,-5.335624281560079
1708435871.1046214,-1.7847540378570557,-1.3848433208516617,-2.5993526617633265,5.692241418152609,1.1153186559677124,-5.336147789155142
1708435871.106671,-1.7825931310653687,-1.3852619689754029,-2.5995877424823206,5.689845788269796,1.1156846284866333,-5.3366891781436365
1708435871.1086285,-1.7804057598114014,-1.3856723767570038,-2.599905554448263,5.687560307770529,1.1160073280334473,-5.337234977875845
1708435871.110688,-1.7782233953475952,-1.3860601049712677,-2.6001766363727015,5.685207175999441,1.116379737854004,-5.337787751351492
1708435871.1126752,-1.7760478258132935,-1.386459694509842,-2.60050875345339,5.6828574416931055,1.1167117357254028,-5.338356916104452
1708435871.1146429,-1.7738739252090454,-1.3868704003146668,-2.6008053461657923,5.680557656079092,1.1170598268508911,-5.338840965424673
1708435871.1166527,-1.771655559539795,-1.3872415733388443,-2.6010316053973597,5.6781266806419275,1.117375373840332,-5.339419190083639
1708435871.1186268,-1.7694361209869385,-1.3877010357430954,-2.6012700239764612,5.6757346270378015,1.117654800415039,-5.339948121701376
1708435871.1206346,-1.7672146558761597,-1.3880757105401536,-2.601497475300924,5.673272657185354,1.118053913116455,-5.3405126372920435
1708435871.1226509,-1.7650048732757568,-1.388508067732193,-2.6018391291247767,5.6708695171173,1.1183570623397827,-5.341068748627798
1708435871.1246302,-1.7628298997879028,-1.3888781380704422,-2.602043930684225,5.668646263867178,1.118738055229187,-5.3416214624988
1708435871.1266594,-1.7606010437011719,-1.389350489979126,-2.602272097264425,5.666267621308126,1.1190074682235718,-5.342133764420645
1708435871.1286232,-1.7583969831466675,-1.3897458773902436,-2.6025927702533167,5.66394059637145,1.1193450689315796,-5.342719380055563
1708435871.1306467,-1.7561901807785034,-1.390115500693657,-2.6028769651996058,5.661596286087789,1.1197354793548584,-5.343265000973837
1708435871.1326482,-1.7539939880371094,-1.3905804020217438,-2.6031120459186,5.659210848599233,1.1200594902038574,-5.343817893658773
1708435871.1346304,-1.751799464225769,-1.3910236221602936,-2.6034134070025843,5.656848716526785,1.120334267616272,-5.344375077878134
1708435871.1366637,-1.7495993375778198,-1.3914599877646943,-2.603630606328146,5.654539096146383,1.120642066001892,-5.344909612332479
1708435871.1386316,-1.7474195957183838,-1.391814337377884,-2.6039391199695032,5.652305114060201,1.1210157871246338,-5.345483664666311
