Eg3-git/Classifiers/Data Collection/u3/u3cir4_ur3e_joint_states.csv
time,elbow_joint,shoulder_lift_joint,shoulder_pan_joint,wrist_1_joint,wrist_2_joint,wrist_3_joint
1708435898.9648006,-2.141726016998291,-1.3332559180310746,-2.5264151732074183,6.110027777939596,1.0171931982040405,-5.466753605996267
1708435898.9668138,-2.1417534351348877,-1.3332603734782715,-2.5264604727374476,6.110030877381124,1.0172019004821777,-5.466795388852255
1708435898.968785,-2.1417758464813232,-1.3332769733718415,-2.526424233113424,6.110034096031942,1.0171931982040405,-5.4667702356921595
1708435898.970787,-2.1417338848114014,-1.3333299320987244,-2.5264106432544153,6.11005591133193,1.0171900987625122,-5.46673292318453
1708435898.9728398,-2.1417622566223145,-1.3332725328258057,-2.526419703160421,6.11006377914504,1.0172185897827148,-5.466777865086691
1708435898.9747913,-2.1417429447174072,-1.3332691204598923,-2.5264318625079554,6.1100265858467,1.0171856880187988,-5.466795388852255
1708435898.976848,-2.1417667865753174,-1.333285779958107,-2.5264318625079554,6.110079991608419,1.0171931982040405,-5.46674615541567
1708435898.9788053,-2.1417462825775146,-1.3332963746837159,-2.5264018217669886,6.1100265858467,1.017176866531372,-5.466729823743002
1708435898.980827,-2.1417713165283203,-1.3332277995399018,-2.5264647642718714,6.110014664917745,1.0171812772750854,-5.466685001050131
1708435898.9828336,-2.1417417526245117,-1.333301992421486,-2.526419703160421,6.110079991608419,1.0172141790390015,-5.466774706040518
1708435898.9848433,-2.1417667865753174,-1.3333095920136948,-2.5264559427844446,6.110128867417135,1.0171856880187988,-5.466721002255575
1708435898.9868443,-2.1417462825775146,-1.3332813394120713,-2.5264228026019495,6.1100265858467,1.0172019004821777,-5.466741744671957
1708435898.988827,-2.1417622566223145,-1.3332559180310746,-2.5264151732074183,6.110035407334127,1.017181396484375,-5.466758076344625
1708435898.9908211,-2.1417670249938965,-1.3332769882730027,-2.526386801396505,6.110108244210043,1.0172020196914673,-5.466717902814047
1708435898.9928238,-2.1417462825775146,-1.3332440865090867,-2.5264228026019495,6.110076892166891,1.0171725749969482,-5.466758076344625
1708435898.994849,-2.1417958736419678,-1.3332603734782715,-2.526428524647848,6.1101125357444666,1.0171856880187988,-5.466754917298452
1708435898.9968019,-2.1417622566223145,-1.3332813692143937,-2.5264151732074183,6.11011694648818,1.0172141790390015,-5.466750566159384
1708435898.998789,-2.1417622566223145,-1.3332691055587311,-2.5264812151538294,6.110079991608419,1.0171573162078857,-5.466766838227407
1708435899.0007792,-2.1417670249938965,-1.3332396161607285,-2.5264812151538294,6.110072600632467,1.0172511339187622,-5.466737274323599
1708435899.0028539,-2.1417508125305176,-1.3332813692143937,-2.5264151732074183,6.110072600632467,1.0172141790390015,-5.466766838227407
1708435899.0048246,-2.1417622566223145,-1.3332888197949906,-2.5264273325549524,6.11006377914504,1.0172053575515747,-5.466775778924124
1708435899.0069058,-2.1417462825775146,-1.3333166998675843,-2.5264483133899134,6.110068189888754,1.017176866531372,-5.466754917298452
1708435899.0088134,-2.1417460441589355,-1.333272562628128,-2.5264437834369105,6.1100385067756555,1.0171931982040405,-5.466729823743002
1708435899.0108562,-2.1417553424835205,-1.3333167147687455,-2.5264273325549524,6.110042798310079,1.0171812772750854,-5.46674615541567
1708435899.0128646,-2.1417508125305176,-1.3332681518844147,-2.5264738241778772,6.110076892166891,1.017148494720459,-5.466743115578787
1708435899.0147994,-2.1417746543884277,-1.3333095473102112,-2.526403252278463,6.110030877381124,1.0172141790390015,-5.4667373339282435
1708435899.0168576,-2.1417713165283203,-1.3332725328258057,-2.5264151732074183,6.11005591133193,1.0172511339187622,-5.4667298833476465
1708435899.0187948,-2.1417553424835205,-1.3332844537547608,-2.5264061133014124,6.110124456673422,1.0172019004821777,-5.466709140931265
1708435899.0208285,-2.1417462825775146,-1.333223358993866,-2.526412312184469,6.110051619797506,1.0172019004821777,-5.466738585625784
1708435899.022829,-2.1417293548583984,-1.3332559180310746,-2.5264363924609583,6.110047209053793,1.0171931982040405,-5.466758076344625
1708435899.0248244,-2.1417596340179443,-1.3332647544196625,-2.5264318625079554,6.110051619797506,1.0172348022460938,-5.466696921979086
1708435899.0268188,-2.1417622566223145,-1.3332769882730027,-2.526436154042379,6.1101125357444666,1.0171931982040405,-5.466738585625784
1708435899.02879,-2.1417622566223145,-1.3332976263812562,-2.5263822714435022,6.110055076866903,1.0172185897827148,-5.466726783906118
1708435899.0307894,-2.1417384147644043,-1.3332559180310746,-2.5264106432544153,6.11006377914504,1.0171691179275513,-5.466685001050131
1708435899.0328484,-2.1417293548583984,-1.333239645963051,-2.5264063517199915,6.110091912537374,1.0172141790390015,-5.466713551674978
1708435899.0347912,-2.1417622566223145,-1.3332471561482926,-2.526395861302511,6.110017883568563,1.0172019004821777,-5.4667046705829065
1708435899.0368304,-2.1417124271392822,-1.3332440865090867,-2.5263972918139856,6.110088813095846,1.0172064304351807,-5.466750566159384
1708435899.0388012,-2.1417791843414307,-1.3332725328258057,-2.5263941923724573,6.110051619797506,1.0171931982040405,-5.466734234486715
1708435899.040846,-2.1417508125305176,-1.3333051067641755,-2.5264106432544153,6.110014664917745,1.017209768295288,-5.466754917298452
1708435899.0428483,-2.1417667865753174,-1.3332725328258057,-2.5263615290271204,6.110022294312277,1.017181396484375,-5.466689411793844
1708435899.0448031,-2.1417622566223145,-1.3332963746837159,-2.5264063517199915,6.110096323281088,1.0172064304351807,-5.466717902814047
1708435899.0468369,-2.141726016998291,-1.3332932603410264,-2.5263734499560755,6.110109436302938,1.0172141790390015,-5.466718856488363
1708435899.0488153,-2.1417622566223145,-1.3332769882730027,-2.526386801396505,6.110103833466329,1.0172141790390015,-5.466758076344625
1708435899.050817,-2.1417577266693115,-1.3332888197949906,-2.5264480749713343,6.1100995419319055,1.0172141790390015,-5.466762487088339
1708435899.0528352,-2.1417758464813232,-1.3332769882730027,-2.5264061133014124,6.1101125357444666,1.0171560049057007,-5.466754917298452
1708435899.0547981,-2.1417670249938965,-1.3333051067641755,-2.5263822714435022,6.110091912537374,1.0172141790390015,-5.466689352189199
1708435899.0568595,-2.1417171955108643,-1.3332725328258057,-2.5263987223254603,6.110076892166891,1.017197608947754,-5.466758076344625
1708435899.0588102,-2.1417293548583984,-1.3332027059844513,-2.526395861302511,6.1101170656974695,1.0171931982040405,-5.466743115578787
1708435899.0608141,-2.1417462825775146,-1.3332844537547608,-2.5264228026019495,6.1100594876106165,1.017197608947754,-5.466701332722799
1708435899.0628233,-2.1417462825775146,-1.333223358993866,-2.5264151732074183,6.110042798310079,1.0171602964401245,-5.466726783906118
1708435899.0647898,-2.1417293548583984,-1.333239645963051,-2.526386801396505,6.110046374588766,1.017197608947754,-5.466766838227407
1708435899.0668085,-2.1417622566223145,-1.3332647395185013,-2.5263825098620813,6.110014664917745,1.017197608947754,-5.4667386452304285
1708435899.0687792,-2.1417462825775146,-1.3332603734782715,-2.5264151732074183,6.11011694648818,1.0172019004821777,-5.466754917298452
1708435899.0708036,-2.1417293548583984,-1.3332321506789704,-2.5264602343188685,6.110050785332479,1.0172064304351807,-5.466731194649832
1708435899.0728047,-2.1417508125305176,-1.3332472008517762,-2.5264604727374476,6.110108244210043,1.0171931982040405,-5.466743055974142
1708435899.0748076,-2.1417667865753174,-1.3332734566977997,-2.5264106432544153,6.110079991608419,1.0172555446624756,-5.466705683861868
1708435899.0768428,-2.1417791843414307,-1.3332769882730027,-2.5264106432544153,6.110079991608419,1.017209768295288,-5.466763798390524
1708435899.0788574,-2.1417713165283203,-1.3332472008517762,-2.5264151732074183,6.110072600632467,1.0172141790390015,-5.466766838227407
1708435899.0808187,-2.1417882442474365,-1.3332725328258057,-2.5264363924609583,6.110075700073995,1.017197608947754,-5.4667386452304285
1708435899.0828106,-2.1417667865753174,-1.3332265776446839,-2.5264559427844446,6.110125767975607,1.0172348022460938,-5.466829005871908
1708435899.0848126,-2.1417622566223145,-1.3332769882730027,-2.5263987223254603,6.1100594876106165,1.0171691179275513,-5.466754857693807
1708435899.0868225,-2.1417553424835205,-1.3332484525493165,-2.5264151732074183,6.110051619797506,1.0172230005264282,-5.466734234486715
1708435899.0888286,-2.1417596340179443,-1.3332769882730027,-2.5264061133014124,6.1100594876106165,1.0172230005264282,-5.466683630143301
1708435899.0908072,-2.1417837142944336,-1.3332559180310746,-2.526452604924337,6.110121357231893,1.0171931982040405,-5.466734234486715
1708435899.092824,-2.1417577266693115,-1.333300770526268,-2.526419703160421,6.110047209053793,1.0172185897827148,-5.46674615541567
1708435899.0948064,-2.1417124271392822,-1.333268166785576,-2.5264151732074183,6.110030877381124,1.017148494720459,-5.466734234486715
1708435899.0968554,-2.1417622566223145,-1.3332440865090867,-2.526424233113424,6.110047209053793,1.017209768295288,-5.4667179624186915
1708435899.0988173,-2.1417667865753174,-1.3332844537547608,-2.5264483133899134,6.110072600632467,1.017197608947754,-5.466698173676626
1708435899.1008036,-2.1417462825775146,-1.3332888197949906,-2.526452604924337,6.110068189888754,1.017197608947754,-5.4667298833476465
1708435899.1028206,-2.1417791843414307,-1.333239645963051,-2.5264151732074183,6.11005591133193,1.0172141790390015,-5.466704730187551
1708435899.1047938,-2.1417338848114014,-1.3332844537547608,-2.5264273325549524,6.110030877381124,1.0172216892242432,-5.466705683861868
1708435899.1068292,-2.1417713165283203,-1.3332277995399018,-2.526407782231466,6.110109436302938,1.0172173976898193,-5.466738585625784
1708435899.1088192,-2.1417667865753174,-1.333268166785576,-2.5264678637133997,6.110051619797506,1.0172216892242432,-5.4667298833476465
1708435899.110829,-2.1417622566223145,-1.3332900714925309,-2.5264363924609583,6.110030877381124,1.0171931982040405,-5.466750506554739
1708435899.1128345,-2.1417667865753174,-1.3332769882730027,-2.52645713487734,6.1100385067756555,1.0172467231750488,-5.466738585625784
1708435899.1148126,-2.1417622566223145,-1.333301992421486,-2.5264182726489466,6.110079991608419,1.01723051071167,-5.4667667786227625
1708435899.1167955,-2.141721487045288,-1.3332888197949906,-2.5264061133014124,6.110068189888754,1.0172054767608643,-5.4667298833476465
1708435899.1188214,-2.1417622566223145,-1.3332559180310746,-2.5264061133014124,6.110096323281088,1.017181396484375,-5.466734234486715
1708435899.120806,-2.1417384147644043,-1.3332725328258057,-2.5264392534839075,6.110079991608419,1.0172423124313354,-5.466750506554739
1708435899.1228077,-2.1417553424835205,-1.3332603734782715,-2.5264812151538294,6.110030877381124,1.0172380208969116,-5.466710154210226
1708435899.1248183,-2.1417462825775146,-1.333235279922821,-2.5264559427844446,6.1100560305412195,1.0172545909881592,-5.4667298833476465
1708435899.1268055,-2.1417667865753174,-1.333260403280594,-2.5264301935779017,6.110030877381124,1.017237901687622,-5.466796640549795
1708435899.128802,-2.1417553424835205,-1.3332932901433487,-2.5264318625079554,6.110096323281088,1.01723051071167,-5.4667474071132105
1708435899.1308012,-2.1417508125305176,-1.333268166785576,-2.5264228026019495,6.110034215241232,1.0172054767608643,-5.4667298833476465
1708435899.132839,-2.1417553424835205,-1.3332963746837159,-2.5264318625079554,6.110047209053793,1.0171931982040405,-5.4667298833476465
1708435899.1347923,-2.1417713165283203,-1.3332813394120713,-2.5264363924609583,6.1100103733833215,1.017270803451538,-5.4667179624186915
1708435899.1368277,-2.1417462825775146,-1.333268166785576,-2.5264061133014124,6.110075700073995,1.0172511339187622,-5.466669027005331
1708435899.1388273,-2.1417622566223145,-1.3332429242185135,-2.5264273325549524,6.110068189888754,1.017209768295288,-5.466743055974142
1708435899.1408339,-2.1417667865753174,-1.3332813394120713,-2.5263987223254603,6.110022294312277,1.017197608947754,-5.4667179624186915
1708435899.142805,-2.1417758464813232,-1.333239645963051,-2.5264151732074183,6.11006377914504,1.0172053575515747,-5.466747466717855
1708435899.144825,-2.1417622566223145,-1.3332515370896836,-2.526424233113424,6.110091912537374,1.0171725749969482,-5.4667092005359095
1708435899.146825,-2.1417429447174072,-1.3332559180310746,-2.5264392534839075,6.1100265858467,1.0172173976898193,-5.466741804276602
1708435899.1488352,-2.1417462825775146,-1.3332559180310746,-2.5264273325549524,6.110068189888754,1.0172291994094849,-5.466754857693807
1708435899.1508029,-2.1417462825775146,-1.3332844537547608,-2.5264318625079554,6.110035407334127,1.0172621011734009,-5.466750566159384
1708435899.1528108,-2.1417293548583984,-1.3332440865090867,-2.5263899008380335,6.11006377914504,1.0172291994094849,-5.466750566159384
1708435899.1548095,-2.1417553424835205,-1.333251566892006,-2.5264182726489466,6.11006377914504,1.017237901687622,-5.466741804276602
1708435899.156815,-2.1417622566223145,-1.3333051216653367,-2.5264559427844446,6.110042798310079,1.0172501802444458,-5.4667298833476465
1708435899.1588118,-2.1417622566223145,-1.333251566892006,-2.5263808409320276,6.110047209053793,1.0172173976898193,-5.466750506554739
1708435899.160808,-2.1417713165283203,-1.3332769882730027,-2.5264483133899134,6.110072600632467,1.0172665119171143,-5.4667298833476465
1708435899.16282,-2.1417713165283203,-1.3332725328258057,-2.5264182726489466,6.110019075661459,1.0172336101531982,-5.466762427483694
1708435899.1648235,-2.1417462825775146,-1.3332976710847397,-2.5264318625079554,6.110088813095846,1.0172545909881592,-5.466734234486715
1708435899.1667838,-2.1417293548583984,-1.3332429242185135,-2.5264106432544153,6.110051619797506,1.0172041654586792,-5.466676358376638
1708435899.1688254,-2.1417596340179443,-1.3332888346961518,-2.5264273325549524,6.110084521561422,1.0172336101531982,-5.4667179624186915
1708435899.1708,-2.1417622566223145,-1.3332559180310746,-2.5264018217669886,6.110072600632467,1.0172160863876343,-5.466741744671957
1708435899.1727958,-2.141726016998291,-1.333301992421486,-2.5264228026019495,6.11009310463027,1.0172172784805298,-5.466774706040518
1708435899.1748016,-2.1417837142944336,-1.3333166998675843,-2.5264182726489466,6.110088813095846,1.0172619819641113,-5.466753605996267
1708435899.1768174,-2.1417837142944336,-1.3332472008517762,-2.5264273325549524,6.11005591133193,1.0172414779663086,-5.466721002255575
1708435899.178825,-2.1417667865753174,-1.3333672297051926,-2.5264228026019495,6.109985339432516,1.0172414779663086,-5.4667373339282435
1708435899.1808035,-2.1417667865753174,-1.3332769882730027,-2.5264018217669886,6.11006377914504,1.0172216892242432,-5.466758076344625
1708435899.1827972,-2.1417641639709473,-1.3332691055587311,-2.5264228026019495,6.110048401146688,1.0172576904296875,-5.466758076344625
1708435899.1847978,-2.1417713165283203,-1.3332725328258057,-2.5264678637133997,6.110030877381124,1.0172291994094849,-5.466790978108541
1708435899.1868017,-2.1417462825775146,-1.3332559180310746,-2.5264139811145228,6.110079991608419,1.0172457695007324,-5.466741744671957
1708435899.188807,-2.1417622566223145,-1.3332515370896836,-2.5264888445483606,6.110023486405172,1.0172786712646484,-5.4667373339282435
1708435899.190797,-2.1417417526245117,-1.3332528334907074,-2.5264228026019495,6.1100594876106165,1.0172576904296875,-5.466758076344625
1708435899.1928108,-2.1417791843414307,-1.3332725328258057,-2.5264106432544153,6.11006377914504,1.0172698497772217,-5.466741804276602
1708435899.194818,-2.1417124271392822,-1.3332888346961518,-2.5264437834369105,6.110030877381124,1.0172698497772217,-5.466753605996267
1708435899.1967824,-2.1417384147644043,-1.3332813394120713,-2.5264273325549524,6.1100690243537805,1.0172786712646484,-5.466802481804983
1708435899.1987863,-2.1417622566223145,-1.3332920980504532,-2.5264318625079554,6.110035407334127,1.0172457695007324,-5.466790978108541
1708435899.2008028,-2.141721487045288,-1.3332900714925309,-2.5264318625079554,6.110022294312277,1.0172326564788818,-5.4667821566211146
1708435899.2028172,-2.1417622566223145,-1.3332769882730027,-2.5264318625079554,6.110076892166891,1.0172576904296875,-5.466744963322775
1708435899.2048237,-2.1417622566223145,-1.3332233142903824,-2.5264723936664026,6.11006377914504,1.0172576904296875,-5.466765884553091
1708435899.2067957,-2.1417596340179443,-1.3332309138825913,-2.5264392534839075,6.110048401146688,1.0172905921936035,-5.466757182274954
1708435899.20882,-2.1417293548583984,-1.3332647544196625,-2.5264106432544153,6.11009310463027,1.0173027515411377,-5.466716710721151
1708435899.2107973,-2.1417429447174072,-1.3332647395185013,-2.5264604727374476,6.110035407334127,1.0172786712646484,-5.466814402733938
1708435899.2128096,-2.1417462825775146,-1.3332769733718415,-2.5264468828784388,6.110050785332479,1.0172655582427979,-5.466789487992422
1708435899.214923,-2.1417622566223145,-1.3333051216653367,-2.526442352925436,6.110051619797506,1.017335295677185,-5.466839853917257
1708435899.2167964,-2.1417622566223145,-1.3332976710847397,-2.5264061133014124,6.11006377914504,1.0172488689422607,-5.466805760060446
1708435899.2188027,-2.1417293548583984,-1.3332603734782715,-2.5264647642718714,6.110109436302938,1.0172532796859741,-5.4668341914760035
1708435899.2208345,-2.1417758464813232,-1.3332691055587311,-2.5264604727374476,6.110035407334127,1.0172905921936035,-5.466773513947622
1708435899.2228386,-2.1416921615600586,-1.3332559180310746,-2.5264812151538294,6.110076892166891,1.0172523260116577,-5.466805760060446
1708435899.2248325,-2.1417622566223145,-1.3332888197949906,-2.5264347235309046,6.11008762100295,1.0172983407974243,-5.466786507760183
1708435899.2267857,-2.1417462825775146,-1.3332844537547608,-2.5264933745013636,6.110079991608419,1.0173395872116089,-5.466805760060446
1708435899.2287972,-2.1417837142944336,-1.3332202297500153,-2.5264347235309046,6.1100103733833215,1.0173308849334717,-5.46681791940798
1708435899.2308006,-2.1417758464813232,-1.3332813394120713,-2.5264766852008265,6.11006377914504,1.0172860622406006,-5.466769043599264
1708435899.2328238,-2.1417384147644043,-1.3333007556251069,-2.526496235524313,6.110039698868551,1.0172357559204102,-5.466830972825186
1708435899.2348006,-2.1417622566223145,-1.3332888197949906,-2.5264347235309046,6.110068189888754,1.0173027515411377,-5.46681791940798
1708435899.2368329,-2.1417293548583984,-1.3333007407239457,-2.5264468828784388,6.11005591133193,1.0172655582427979,-5.46684301296343
1708435899.2388294,-2.1417622566223145,-1.3333298724940796,-2.5264301935779017,6.110017883568563,1.017335295677185,-5.46681791940798
1708435899.2408252,-2.1417713165283203,-1.3332813692143937,-2.5264559427844446,6.110088813095846,1.017274260520935,-5.466859285031454
1708435899.2428098,-2.1417553424835205,-1.333263785844185,-2.526454273854391,6.110060322075643,1.017293930053711,-5.466780666504995
1708435899.2447877,-2.1417384147644043,-1.333239645963051,-2.5264678637133997,6.110072600632467,1.017261028289795,-5.46681791940798
1708435899.2468138,-2.1417758464813232,-1.333268166785576,-2.5264318625079554,6.1100385067756555,1.017335295677185,-5.466822389756338
1708435899.2487988,-2.1417577266693115,-1.3332647395185013,-2.5264347235309046,6.110042798310079,1.0173027515411377,-5.466829840336935
1708435899.2508075,-2.1417124271392822,-1.3333051067641755,-2.5265095869647425,6.110129821091451,1.0172983407974243,-5.466871563588278
1708435899.2528102,-2.141780138015747,-1.3332681518844147,-2.5264678637133997,6.110015857010641,1.0173426866531372,-5.4668254295932215
1708435899.2547998,-2.1417462825775146,-1.333263785844185,-2.5264483133899134,6.10999487617568,1.0173027515411377,-5.466788176690237
1708435899.256844,-2.1417338848114014,-1.3332352352193375,-2.5264318625079554,6.110034215241232,1.0172852277755737,-5.466838602219717
1708435899.2587943,-2.1417758464813232,-1.3332888197949906,-2.5264604727374476,6.1100560305412195,1.0172852277755737,-5.466838602219717
1708435899.260799,-2.141726016998291,-1.3332888197949906,-2.5264514128314417,6.110060202866354,1.0172852277755737,-5.466838661824362
1708435899.262817,-2.1417713165283203,-1.3333051067641755,-2.5264347235309046,6.110096323281088,1.0172817707061768,-5.4668461124049585
1708435899.2647898,-2.1417429447174072,-1.3333095920136948,-2.5264347235309046,6.110030877381124,1.0172655582427979,-5.466838661824362
1708435899.2668052,-2.1417882442474365,-1.3332725328258057,-2.5264559427844446,6.110039698868551,1.0172655582427979,-5.466817859803335
1708435899.2687855,-2.1417713165283203,-1.3333123338273545,-2.5264437834369105,6.110064613610067,1.017335295677185,-5.466809217129843
1708435899.2707868,-2.1417508125305176,-1.3333095920136948,-2.5264392534839075,6.110072600632467,1.017261028289795,-5.466820959244863
1708435899.2728088,-2.1417791843414307,-1.3332559180310746,-2.5264139811145228,6.110079991608419,1.0172773599624634,-5.466853920613424
1708435899.2748144,-2.1417667865753174,-1.3333095920136948,-2.5264723936664026,6.110051619797506,1.0172773599624634,-5.4668461124049585
1708435899.2768059,-2.1417338848114014,-1.3332559180310746,-2.5265308062182825,6.1100560305412195,1.017293930053711,-5.46681791940798
1708435899.2787907,-2.1417667865753174,-1.3332725328258057,-2.526458803807394,6.110068189888754,1.0172852277755737,-5.466829840336935
1708435899.2808015,-2.1417462825775146,-1.3332265776446839,-2.5264304319964808,6.1099984524543665,1.017293930053711,-5.46679258743395
1708435899.2827978,-2.1417508125305176,-1.333235279922821,-2.5264723936664026,6.110048401146688,1.0172655582427979,-5.466825489197866
1708435899.2847826,-2.1417293548583984,-1.3332725328258057,-2.5264843145953577,6.110023486405172,1.0173351764678955,-5.466804746781484
1708435899.2867978,-2.1417293548583984,-1.3332725328258057,-2.5264301935779017,6.110019075661459,1.0173308849334717,-5.466821018849508
1708435899.288831,-2.1417622566223145,-1.3332484525493165,-2.5264182726489466,6.1100594876106165,1.0173027515411377,-5.4668583313571375
1708435899.2907944,-2.1417462825775146,-1.3332813692143937,-2.5264559427844446,6.110072600632467,1.0172860622406006,-5.466804806386129
1708435899.2928104,-2.1417462825775146,-1.3333095473102112,-2.5264514128314417,6.110035407334127,1.0172773599624634,-5.4668670932399195
1708435899.294791,-2.1417713165283203,-1.3332638007453461,-2.526479784642355,6.110084521561422,1.0172852277755737,-5.4668012897120875
1708435899.2967908,-2.1417171955108643,-1.3332515370896836,-2.5264723936664026,6.109986293106832,1.0172817707061768,-5.466796998177664
1708435899.2988183,-2.1417508125305176,-1.3332725328258057,-2.5264468828784388,6.110076892166891,1.0172686576843262,-5.46687895456423
1708435899.3007812,-2.1417384147644043,-1.3332484525493165,-2.5264437834369105,6.110030877381124,1.0173264741897583,-5.466788117085592
1708435899.3028052,-2.1417622566223145,-1.3332963746837159,-2.5264347235309046,6.1100103733833215,1.0173426866531372,-5.466796938573019
1708435899.3048003,-2.1417667865753174,-1.3332515370896836,-2.526479784642355,6.110035407334127,1.0172852277755737,-5.466796938573019
1708435899.3068166,-2.1417462825775146,-1.3332146269134064,-2.5264514128314417,6.110015857010641,1.0172983407974243,-5.466804806386129
1708435899.3088515,-2.1417596340179443,-1.3332888197949906,-2.5263972918139856,6.110022294312277,1.0173072814941406,-5.466858390961782
1708435899.310798,-2.1417667865753174,-1.3332769882730027,-2.526438061391012,6.110011565476217,1.0172686576843262,-5.4668341914760035
1708435899.312833,-2.1417667865753174,-1.3332352352193375,-2.5264514128314417,6.110076892166891,1.0173027515411377,-5.466821078454153
1708435899.3148391,-2.1417293548583984,-1.3332528185895463,-2.5264766852008265,6.110047209053793,1.0172524452209473,-5.466825489197866
1708435899.3168197,-2.1417429447174072,-1.3332647395185013,-2.526442352925436,6.110060322075643,1.017307162284851,-5.466862682496206
1708435899.3188145,-2.1417758464813232,-1.3332813692143937,-2.5264723936664026,6.110051619797506,1.017276406288147,-5.4668341914760035
1708435899.3208206,-2.1417622566223145,-1.3332681518844147,-2.5265005270587366,6.11005591133193,1.0173264741897583,-5.4668461124049585
1708435899.3228123,-2.1417553424835205,-1.3332472008517762,-2.526442352925436,6.110043990402975,1.0172773599624634,-5.466821078454153
1708435899.324824,-2.1417293548583984,-1.3333095920136948,-2.5264514128314417,6.110007154732504,1.0172611474990845,-5.466825489197866
1708435899.3268096,-2.1417713165283203,-1.3332603734782715,-2.5264766852008265,6.110035407334127,1.0172611474990845,-5.466809217129843
1708435899.3288183,-2.1417338848114014,-1.3332559180310746,-2.526463333760397,6.110068189888754,1.0172983407974243,-5.4668583313571375
1708435899.3308146,-2.1417641639709473,-1.333268166785576,-2.5264061133014124,6.11000286319808,1.0172444581985474,-5.46687895456423
1708435899.3328092,-2.1417462825775146,-1.333263785844185,-2.5264256636248987,6.110020267754354,1.0173470973968506,-5.466870192681448
1708435899.334826,-2.1417667865753174,-1.3332725328258057,-2.5263941923724573,6.110079991608419,1.017335295677185,-5.466804746781484
1708435899.3368251,-2.1417667865753174,-1.3332603734782715,-2.5264151732074183,6.11003206947402,1.0172655582427979,-5.4668583313571375
1708435899.33883,-2.1416964530944824,-1.3332888346961518,-2.5264301935779017,6.1101019261176965,1.0172523260116577,-5.466796938573019
1708435899.340906,-2.1417293548583984,-1.3332559180310746,-2.526463333760397,6.110043990402975,1.0172983407974243,-5.4668583313571375
1708435899.3428247,-2.141721487045288,-1.3332725328258057,-2.5264106432544153,6.110023486405172,1.017335295677185,-5.46684176126589
1708435899.344838,-2.1417622566223145,-1.3332725328258057,-2.5264602343188685,6.110064613610067,1.0172686576843262,-5.466858390961782
1708435899.3468142,-2.1417293548583984,-1.3332233142903824,-2.5264015833484095,6.110076892166891,1.0172444581985474,-5.466850463544027
1708435899.348809,-2.1417667865753174,-1.333272547726967,-2.5264468828784388,6.110011565476217,1.0172698497772217,-5.466874603425161
1708435899.3508193,-2.1417713165283203,-1.3333123487285157,-2.5264347235309046,6.11006377914504,1.0172983407974243,-5.466853920613424
1708435899.3528178,-2.1417012214660645,-1.3332559180310746,-2.526463333760397,6.110007154732504,1.0172983407974243,-5.466838661824362
1708435899.3548417,-2.1417667865753174,-1.3332559180310746,-2.5264888445483606,6.109990584641256,1.0173026323318481,-5.466829840336935
1708435899.3568263,-2.1417462825775146,-1.333268166785576,-2.5264559427844446,6.110027777939596,1.0172698497772217,-5.46678072610964
1708435899.3588192,-2.1417713165283203,-1.333263785844185,-2.5264182726489466,6.110007154732504,1.0173264741897583,-5.4668583313571375
1708435899.360863,-2.1417462825775146,-1.3332440716079255,-2.5264392534839075,6.1100265858467,1.0172655582427979,-5.466829840336935
1708435899.3628132,-2.1417012214660645,-1.3332233142903824,-2.5264392534839075,6.110024678498068,1.0172983407974243,-5.466829840336935
1708435899.3648286,-2.1417384147644043,-1.333235279922821,-2.5264514128314417,6.110039698868551,1.0173308849334717,-5.466825489197866
1708435899.3668191,-2.1417641639709473,-1.333235279922821,-2.5264888445483606,6.110064613610067,1.0172698497772217,-5.466837350522177
1708435899.3687966,-2.1417791843414307,-1.3332976263812562,-2.526508394871847,6.110023486405172,1.0173308849334717,-5.466829840336935
1708435899.3708596,-2.141780138015747,-1.3332309138825913,-2.526442352925436,6.110064613610067,1.017261028289795,-5.4668583313571375
1708435899.3728163,-2.1417596340179443,-1.3332813692143937,-2.5264604727374476,6.110036599427023,1.0172444581985474,-5.466829840336935
1708435899.374824,-2.1417293548583984,-1.3332559180310746,-2.52640945116152,6.110072600632467,1.0173070430755615,-5.466862682496206
1708435899.3768413,-2.141710042953491,-1.3332932603410264,-2.526442352925436,6.110052811890402,1.0172444581985474,-5.466788176690237
1708435899.378795,-2.1417553424835205,-1.333321065907814,-2.5264468828784388,6.110019075661459,1.0172370672225952,-5.4668341914760035
1708435899.3807974,-2.1417338848114014,-1.333251566892006,-2.526479784642355,6.110023486405172,1.0172905921936035,-5.46684176126589
1708435899.3828065,-2.1416897773742676,-1.3332857501557847,-2.5264559427844446,6.110039698868551,1.017293930053711,-5.466858390961782
1708435899.3847961,-2.1417667865753174,-1.3332396161607285,-2.5264301935779017,6.110052811890402,1.0172817707061768,-5.466825489197866
1708435899.386825,-2.141721487045288,-1.333313913350441,-2.5264723936664026,6.110035407334127,1.0172444581985474,-5.46684176126589
1708435899.3888013,-2.1417758464813232,-1.3332963746837159,-2.5264678637133997,6.110027777939596,1.0172817707061768,-5.466813568268911
1708435899.3908055,-2.1417124271392822,-1.3332484525493165,-2.5264604727374476,6.110039698868551,1.0172488689422607,-5.466862682496206
1708435899.3928754,-2.1417338848114014,-1.3332888346961518,-2.5264106432544153,6.110060322075643,1.0172621011734009,-5.4668341914760035
1708435899.3948486,-2.1417596340179443,-1.3332725328258057,-2.5264392534839075,6.110055076866903,1.017307162284851,-5.466809217129843
1708435899.396826,-2.1417338848114014,-1.3332440716079255,-2.5264301935779017,6.110027777939596,1.0172326564788818,-5.466837410126821
1708435899.3987994,-2.141710042953491,-1.3333051216653367,-2.5264468828784388,6.110030877381124,1.0172619819641113,-5.466825489197866
1708435899.4007974,-2.1417124271392822,-1.3332559180310746,-2.5264514128314417,6.110027777939596,1.0172488689422607,-5.4668548742877405
1708435899.402833,-2.1416966915130615,-1.3332277995399018,-2.5264182726489466,6.110039698868551,1.0172576904296875,-5.46684176126589
1708435899.4048152,-2.1417171955108643,-1.333263785844185,-2.5264256636248987,6.110007154732504,1.0172489881515503,-5.466837350522177
1708435899.4068084,-2.1417508125305176,-1.333263785844185,-2.5264723936664026,6.110057103424825,1.0172576904296875,-5.466837350522177
1708435899.4088068,-2.141721487045288,-1.3332844537547608,-2.5264018217669886,6.110020267754354,1.0172369480133057,-5.466853920613424
1708435899.410805,-2.1417670249938965,-1.3332932603410264,-2.5264139811145228,6.110027777939596,1.017274260520935,-5.4668461124049585
1708435899.412821,-2.1417429447174072,-1.3332725328258057,-2.5264514128314417,6.11005591133193,1.0172576904296875,-5.4668548742877405
1708435899.4148068,-2.1416897773742676,-1.3332888346961518,-2.5264347235309046,6.110057103424825,1.0172860622406006,-5.466829840336935
1708435899.4168372,-2.1417713165283203,-1.3332725328258057,-2.5264604727374476,6.1099984524543665,1.0172414779663086,-5.466862682496206
1708435899.420802,-2.1416897773742676,-1.3332769882730027,-2.5264318625079554,6.110020267754354,1.0172817707061768,-5.46684176126589
1708435899.4228244,-2.1416966915130615,-1.3332725328258057,-2.5264468828784388,6.10996555069045,1.0172414779663086,-5.466875735913412
1708435899.424822,-2.141710042953491,-1.3332528185895463,-2.5264273325549524,6.109978663712301,1.0172830820083618,-5.466841820870535
1708435899.4268239,-2.1416966915130615,-1.3332813692143937,-2.5264723936664026,6.11000286319808,1.0172532796859741,-5.466796998177664
1708435899.4287972,-2.141730546951294,-1.3332647395185013,-2.5264766852008265,6.109982955246725,1.0172576904296875,-5.466817859803335
1708435899.43092,-2.141730308532715,-1.3332725328258057,-2.5264301935779017,6.110012280731954,1.017274260520935,-5.466796938573019
1708435899.43281,-2.141747236251831,-1.333280087714531,-2.5264392534839075,6.110043990402975,1.0172655582427979,-5.466822330151693
1708435899.4348104,-2.1417012214660645,-1.3332396161607285,-2.5264766852008265,6.109974372177877,1.0172532796859741,-5.466796998177664
1708435899.4368188,-2.141751766204834,-1.3332888346961518,-2.5264061133014124,6.110024678498068,1.0172786712646484,-5.466813568268911
1708435899.438842,-2.1417384147644043,-1.3332559180310746,-2.5264766852008265,6.110043990402975,1.0172532796859741,-5.46684176126589
1708435899.4408317,-2.1416852474212646,-1.333239645963051,-2.5264392534839075,6.109974372177877,1.0172619819641113,-5.466809217129843
1708435899.442802,-2.141710042953491,-1.3332647395185013,-2.5264061133014124,6.109967100411215,1.0172576904296875,-5.4668341914760035
1708435899.4448073,-2.141721487045288,-1.3332036149552842,-2.5264766852008265,6.11004518249587,1.0172085762023926,-5.466805760060446
1708435899.4467933,-2.141726016998291,-1.3332944822362442,-2.526438061391012,6.109999286919393,1.0172655582427979,-5.466829840336935
1708435899.4488184,-2.141721487045288,-1.3332472008517762,-2.5264228026019495,6.110020267754354,1.0172590017318726,-5.4668341914760035
1708435899.4507957,-2.141730546951294,-1.3332146269134064,-2.5264723936664026,6.110015857010641,1.0172621011734009,-5.4668429533587855
1708435899.4528098,-2.141726016998291,-1.3332559180310746,-2.5264437834369105,6.1100408909614465,1.0172457695007324,-5.466801349316732
1708435899.4547985,-2.1416943073272705,-1.3332515370896836,-2.5264468828784388,6.11000810840682,1.0172905921936035,-5.466789487992422
1708435899.4568129,-2.1417012214660645,-1.3332515370896836,-2.5264468828784388,6.110023486405172,1.0172532796859741,-5.466829840336935
1708435899.4587898,-2.1417057514190674,-1.3332725328258057,-2.5264437834369105,6.109975802689352,1.0172532796859741,-5.4668461124049585
1708435899.4608123,-2.1417429447174072,-1.333235279922821,-2.5265067259417933,6.109987485199728,1.0172698497772217,-5.466850403939382
1708435899.462798,-2.141730546951294,-1.333285705452301,-2.5264766852008265,6.11003206947402,1.0173158645629883,-5.466829840336935
1708435899.4648135,-2.141723394393921,-1.3332813692143937,-2.526482645665304,6.109975802689352,1.0172576904296875,-5.466830913220541
1708435899.4668021,-2.1417348384857178,-1.3332975667766114,-2.5264301935779017,6.110032188683309,1.0172576904296875,-5.466829840336935
1708435899.4688118,-2.1417429447174072,-1.3332603734782715,-2.5263972918139856,6.1100408909614465,1.0172457695007324,-5.466801349316732
1708435899.4707985,-2.1417429447174072,-1.3332571995309372,-2.5264602343188685,6.10999487617568,1.017307162284851,-5.466862682496206
1708435899.4727952,-2.1417057514190674,-1.3332844537547608,-2.526458803807394,6.1100408909614465,1.0172786712646484,-5.466871444378988
1708435899.4748027,-2.1417076587677,-1.3332800728133698,-2.5264139811145228,6.109990584641256,1.017274260520935,-5.466850523148672
1708435899.4767983,-2.1416985988616943,-1.3332559329322358,-2.526442352925436,6.110012280731954,1.0172817707061768,-5.466796998177664
1708435899.4787958,-2.141686201095581,-1.333313913350441,-2.5264468828784388,6.110015857010641,1.0173395872116089,-5.466862682496206
1708435899.4808042,-2.141714572906494,-1.3332471710494538,-2.526463333760397,6.109999286919393,1.0172698497772217,-5.466788117085592
1708435899.4827974,-2.1417438983917236,-1.3332977157882233,-2.5264559427844446,6.109999286919393,1.0172698497772217,-5.466829840336935
1708435899.4848123,-2.141730546951294,-1.3332725328258057,-2.5265050570117396,6.110052692681112,1.0172743797302246,-5.466837350522177
1708435899.486832,-2.1417236328125,-1.3333123338273545,-2.5264256636248987,6.109980094223776,1.0172861814498901,-5.466792647038595
1708435899.4888406,-2.141686201095581,-1.3332603883794327,-2.526479784642355,6.109996068268575,1.0172983407974243,-5.46684176126589
1708435899.4908075,-2.141686201095581,-1.3332638007453461,-2.526454273854391,6.110024559288778,1.0173133611679077,-5.46681791940798
1708435899.4928236,-2.141695261001587,-1.333251566892006,-2.526479784642355,6.109980094223776,1.0173133611679077,-5.466832999383108
1708435899.4948235,-2.141716718673706,-1.3332888346961518,-2.526475254689352,6.109999286919393,1.0173264741897583,-5.466853920613424
1708435899.4967828,-2.141686201095581,-1.3332603734782715,-2.5265050570117396,6.109971511154928,1.017333984375,-5.466853920613424
1708435899.4988294,-2.141695261001587,-1.333239645963051,-2.52649170557131,6.109987485199728,1.0173540115356445,-5.466870192681448
1708435899.500839,-2.1416943073272705,-1.3332725328258057,-2.526508394871847,6.109988796501913,1.0173616409301758,-5.466926578675405
1708435899.5028057,-2.141695261001587,-1.3332472008517762,-2.526520315800802,6.1099504111106775,1.0173702239990234,-5.466870192681448
1708435899.5047932,-2.141723394393921,-1.3332857352546235,-2.526482645665304,6.109954821854391,1.0173988342285156,-5.466869060193197
1708435899.5068247,-2.1417031288146973,-1.3332471561482926,-2.526499334965841,6.109938609391012,1.0173734426498413,-5.4669135252581995
1708435899.5088055,-2.1416783332824707,-1.3332484674504776,-2.5265324751483362,6.109993207245626,1.0174425840377808,-5.4669135252581995
1708435899.5108685,-2.14169979095459,-1.333239645963051,-2.5265398661242884,6.109961616783895,1.0174587965011597,-5.466900412236349
1708435899.5128243,-2.1416783332824707,-1.3332888346961518,-2.5265234152423304,6.109874355583944,1.017478585243225,-5.466934148465292
1708435899.5148325,-2.1416454315185547,-1.3332233738950272,-2.5265398661242884,6.1098906872566126,1.017486333847046,-5.466892902051107
1708435899.5168111,-2.1416590213775635,-1.3332769882730027,-2.5265517870532435,6.109854924469747,1.017486333847046,-5.466958288346426
1708435899.518807,-2.141672372817993,-1.3332515370896836,-2.5265591780291956,6.109858143120565,1.0175232887268066,-5.466998044644491
1708435899.520828,-2.1416499614715576,-1.3333095473102112,-2.526578728352682,6.109888541489401,1.0175635814666748,-5.466973368321554
1708435899.5228138,-2.1416633129119873,-1.3332147014192124,-2.526595417653219,6.109897362976827,1.017541766166687,-5.466976288949148
1708435899.524853,-2.1416828632354736,-1.3332888346961518,-2.526562039052145,6.109857308655538,1.0175824165344238,-5.467013482247488
1708435899.5267844,-2.1416261196136475,-1.3332813692143937,-2.526649300252096,6.109873521118917,1.0176315307617188,-5.467053894196646
1708435899.5287914,-2.1416306495666504,-1.3333139580539246,-2.526602808629171,6.109795081406393,1.0176349878311157,-5.467043999825613
1708435899.530797,-2.1416103839874268,-1.3332725328258057,-2.52664024034609,6.109819996147909,1.0176796913146973,-5.467073325310842
1708435899.5328012,-2.141655445098877,-1.3332932603410264,-2.5266013781176966,6.109816777497091,1.017687201499939,-5.467080895100729
1708435899.5347874,-2.1416351795196533,-1.3332888048938294,-2.5266643206225794,6.109824406891622,1.0176985263824463,-5.467085186635153
1708435899.5368173,-2.1415979862213135,-1.3332813692143937,-2.5266552607165735,6.109813558846273,1.017780065536499,-5.467153851185934
1708435899.538836,-2.141561508178711,-1.3332603883794327,-2.5267213026629847,6.109770881920614,1.0177669525146484,-5.467149500046865
1708435899.5408375,-2.141556978225708,-1.3333051812699814,-2.5266671816455286,6.109775292664327,1.0177748203277588,-5.4671483675586146
1708435899.5428352,-2.14158296585083,-1.3332769882730027,-2.526745382939474,6.109751808434286,1.0178523063659668,-5.467164341603414
1708435899.5447953,-2.141566038131714,-1.3332472008517762,-2.526703182850973,6.109723317414083,1.017814040184021,-5.4671483675586146
1708435899.546839,-2.141592025756836,-1.3332471561482926,-2.5267391840564173,6.109760510712423,1.0178678035736084,-5.467216912900106
1708435899.548834,-2.1415581703186035,-1.333272547726967,-2.526748243962423,6.109720098763265,1.017879605293274,-5.467191580926077
1708435899.5507812,-2.1415183544158936,-1.3332472008517762,-2.5267587343799036,6.109724509506979,1.017906904220581,-5.46724504629244
1708435899.5528252,-2.1415398120880127,-1.333313913350441,-2.5267558733569544,6.109691965370931,1.017906904220581,-5.467276457940237
1708435899.5547836,-2.1415555477142334,-1.3332559329322358,-2.5267468134509485,6.109758126526632,1.0179388523101807,-5.467325572167532
1708435899.5568073,-2.1415059566497803,-1.3333255511573334,-2.526841465626852,6.109691965370931,1.0180041790008545,-5.467312518750326
1708435899.5588317,-2.1415059566497803,-1.3332515370896836,-2.526832405720846,6.109688389092245,1.0180164575576782,-5.467352573071615
1708435899.5607984,-2.14145827293396,-1.3332769882730027,-2.526827875767843,6.109709369927206,1.0180197954177856,-5.467356924210684
1708435899.5628219,-2.141512393951416,-1.3332471561482926,-2.5268517176257532,6.109710323601522,1.0180392265319824,-5.467327598725454
1708435899.5648136,-2.1414875984191895,-1.3332603883794327,-2.5268877188311976,6.10963653305129,1.0180467367172241,-5.467434231434957
1708435899.5668418,-2.141488552093506,-1.3333167147687455,-2.5268500486956995,6.109605061798849,1.0181035995483398,-5.467367712651388
1708435899.5687914,-2.141455888748169,-1.333321065907814,-2.5268381277667444,6.109674441605367,1.018087387084961,-5.467424396668569
1708435899.5707889,-2.141448736190796,-1.3332713705352326,-2.526919190083639,6.109518754273214,1.0181071758270264,-5.4674275557147425
1708435899.5728085,-2.1413867473602295,-1.3332725328258057,-2.5269325415240687,6.1096300957496545,1.0181430578231812,-5.467451397572653
1708435899.574808,-2.1413586139678955,-1.3332484674504776,-2.526926581059591,6.109514343529501,1.018164038658142,-5.467528704796926
1708435899.5768137,-2.1413586139678955,-1.3332932901433487,-2.5269597212420862,6.109574067383566,1.018174648284912,-5.467531863843099
1708435899.5787938,-2.141374349594116,-1.3332725328258057,-2.526964251195089,6.109590637474813,1.0182031393051147,-5.4674458543406885
1708435899.5807974,-2.141310930252075,-1.3332352352193375,-2.5269671122180384,6.109566557198324,1.0182524919509888,-5.467515591775076
1708435899.5828142,-2.1413559913635254,-1.3332189482501526,-2.526994053517477,6.109530079155721,1.0182750225067139,-5.467514459286825
1708435899.5848076,-2.141322374343872,-1.3333210957101365,-2.526989523564474,6.10948537567214,1.0183333158493042,-5.467571977769033
1708435899.586811,-2.141310930252075,-1.3333095920136948,-2.527109448109762,6.109484183579244,1.0183734893798828,-5.46757954755892
1708435899.588859,-2.14129376411438,-1.3332725328258057,-2.5270422140704554,6.109507190972128,1.018338680267334,-5.467554573212759
1708435899.590832,-2.1413073539733887,-1.3333051216653367,-2.5270660559283655,6.109444844513693,1.0183793306350708,-5.4676111976252955
1708435899.5928283,-2.1412508487701416,-1.3332528334907074,-2.5271123091327112,6.109397160797872,1.0184197425842285,-5.4675655404673975
1708435899.594795,-2.1412720680236816,-1.3332813692143937,-2.5271363894092005,6.109392988472738,1.0184481143951416,-5.467610363160269
1708435899.596812,-2.1412551403045654,-1.333346576695778,-2.5271814505206507,6.109422194748678,1.0184677839279175,-5.467630926762716
1708435899.5987916,-2.1412642002105713,-1.3332440716079255,-2.5271320978747767,6.109417903214254,1.0185366868972778,-5.467682961617605
1708435899.6008286,-2.141251802444458,-1.3332725328258057,-2.527163569127218,6.109373080521383,1.0185528993606567,-5.467666689549581
1708435899.6028183,-2.141148805618286,-1.3333167147687455,-2.527184549962179,6.109426605492391,1.0185726881027222,-5.467677418385641
1708435899.6047966,-2.1412153244018555,-1.3332769882730027,-2.527175490056173,6.109346139221945,1.0185669660568237,-5.467693690453665
1708435899.6068234,-2.141233444213867,-1.3332681518844147,-2.5271876494037073,6.1093580601509,1.01863694190979,-5.467698041592733
1708435899.608822,-2.1412110328674316,-1.3332515370896836,-2.5271952787982386,6.1093060849006555,1.0186196565628052,-5.467738215123312
1708435899.610832,-2.1411712169647217,-1.3332888346961518,-2.5272608439074915,6.10932348945693,1.0186734199523926,-5.4677667061435145
1708435899.6128194,-2.1411499977111816,-1.3332681518844147,-2.5272682348834437,6.109314667969503,1.0186480283737183,-5.467799309884207
1708435899.614807,-2.1410887241363525,-1.3332888346961518,-2.52726394334902,6.109265553742208,1.0187418460845947,-5.4677698651896876
1708435899.6168203,-2.1411404609680176,-1.3332647544196625,-2.527245823537008,6.109253752022543,1.0187125205993652,-5.467807118092672
1708435899.6187906,-2.141106605529785,-1.3332813692143937,-2.527250353490011,6.109246241837301,1.0187366008758545,-5.467761103306906
1708435899.6208138,-2.141104221343994,-1.3333210957101365,-2.527299944554464,6.1092296717460535,1.018784761428833,-5.467819039021627
1708435899.6228182,-2.1410839557647705,-1.3333036017468949,-2.5272837320910853,6.109189617424764,1.0188133716583252,-5.467794839535848
1708435899.624828,-2.141113042831421,-1.3332888346961518,-2.5273030439959925,6.109194028168478,1.0188491344451904,-5.467858974133627
1708435899.6268303,-2.1411242485046387,-1.3332757961801072,-2.5273268858539026,6.109260070114889,1.0188567638397217,-5.467870895062582
1708435899.6287923,-2.141045093536377,-1.3332506579211731,-2.5273268858539026,6.109174358635702,1.0188641548156738,-5.467850391064779
1708435899.6308036,-2.1410982608795166,-1.3332233142903824,-2.5273435751544397,6.109109151154318,1.0189049243927002,-5.467797164116995
1708435899.6328282,-2.1410181522369385,-1.333259494309761,-2.527297083531515,6.109150278359213,1.0189334154129028,-5.467849198971884
1708435899.6348138,-2.1410317420959473,-1.3333167147687455,-2.5273600260363978,6.10912965515212,1.0189571380615234,-5.467833880578176
1708435899.6368198,-2.1409740447998047,-1.333263785844185,-2.527308766041891,6.109114515572347,1.0189528465270996,-5.467857901250021
1708435899.638801,-2.1410272121429443,-1.333259494309761,-2.527341906224386,6.109090792923727,1.0189814567565918,-5.467865471039907
1708435899.6408062,-2.141029119491577,-1.3332800728133698,-2.527367655430929,6.109115350037374,1.0190250873565674,-5.467841688786642
1708435899.6428218,-2.1410202980041504,-1.3332813692143937,-2.527428929005758,6.1090979454811,1.0190131664276123,-5.467902664338247
1708435899.6448612,-2.1409964561462402,-1.333324671988823,-2.5274365584002894,6.109087455063619,1.019041657447815,-5.467930857335226
1708435899.6468387,-2.1409566402435303,-1.3332681518844147,-2.527400557194845,6.1090582487876794,1.0190613269805908,-5.467930857335226
1708435899.6487978,-2.140984058380127,-1.3333210957101365,-2.5273659865008753,6.109066951065817,1.0190613269805908,-5.46790582338442
1708435899.650799,-2.14098858833313,-1.3333210957101365,-2.5273869673358362,6.109034049301901,1.0190775394439697,-5.4678895513163965
1708435899.652812,-2.14100980758667,-1.333292083149292,-2.5273824373828333,6.109026539116659,1.0190645456314087,-5.467897240315573
1708435899.6547987,-2.1409318447113037,-1.3332844537547608,-2.5274155775653284,6.109060275345602,1.019085168838501,-5.467914585267202
1708435899.6568244,-2.140957832336426,-1.333275781278946,-2.5274606386767786,6.10900245884017,1.0190808773040771,-5.4678895513163965
1708435899.6587977,-2.1409249305725098,-1.333263785844185,-2.5273616949664515,6.109051453858175,1.0191346406936646,-5.467901472245352
1708435899.6608026,-2.140911340713501,-1.3333509278348465,-2.5273945967303675,6.108969914704122,1.0191057920455933,-5.467917744313375
1708435899.6628215,-2.140920400619507,-1.3333289635232468,-2.5274110476123255,6.109003531723776,1.0191094875335693,-5.467913512383596
1708435899.6648126,-2.1408753395080566,-1.3332888346961518,-2.5274530092822474,6.108962404518881,1.0191140174865723,-5.467872981225149
1708435899.6668425,-2.1408867835998535,-1.3333007556251069,-2.5274065176593226,6.108987319260397,1.019085168838501,-5.467904750500814
1708435899.6688285,-2.1409294605255127,-1.333302066927292,-2.5274065176593226,6.1089504835899255,1.0191256999969482,-5.46790582338442
1708435899.6708157,-2.1408798694610596,-1.3333377105048676,-2.5274277369128626,6.108975398331442,1.0191256999969482,-5.467950288449423
1708435899.6728456,-2.1409451961517334,-1.3332681518844147,-2.5274232069598597,6.108976590424337,1.0191140174865723,-5.46797085205187
1708435899.6748009,-2.1408772468566895,-1.3332681518844147,-2.5274351278888147,6.108947264939108,1.0190925598144531,-5.467922095452444
1708435899.6768394,-2.1409382820129395,-1.3332800728133698,-2.5274351278888147,6.108976590424337,1.01914644241333,-5.467929426823751
1708435899.6788003,-2.1408684253692627,-1.3332725328258057,-2.527409617100851,6.108853328018942,1.019097089767456,-5.467922095452444
1708435899.6808145,-2.1408514976501465,-1.3332744997790833,-2.5274723211871546,6.108939635544576,1.0191140174865723,-5.467966500912802
1708435899.682824,-2.1408514976501465,-1.3332725328258057,-2.5274887720691126,6.108976590424337,1.0191346406936646,-5.467937235032217
1708435899.684808,-2.140897512435913,-1.3333051216653367,-2.527463499699728,6.1088905213172815,1.0191214084625244,-5.467885259781973
1708435899.686804,-2.1408886909484863,-1.3332757961801072,-2.5274186770068567,6.108857738762655,1.019097089767456,-5.467913512383596
1708435899.6888058,-2.14084792137146,-1.3332472008517762,-2.5274277369128626,6.108924257546224,1.0191051959991455,-5.467920664940969
1708435899.6907933,-2.1408345699310303,-1.3332725328258057,-2.5274723211871546,6.108928668289938,1.0191376209259033,-5.467929426823751
1708435899.6928234,-2.140864849090576,-1.333288849597313,-2.5274232069598597,6.108847486763754,1.019134521484375,-5.467937235032217
1708435899.6948133,-2.1408560276031494,-1.3332888346961518,-2.5273945967303675,6.108952748566427,1.0191094875335693,-5.467901472245352
1708435899.696826,-2.1408638954162598,-1.3332888346961518,-2.5274396578418177,6.108891713410177,1.0191302299499512,-5.467917744313375
1708435899.6987984,-2.1408514976501465,-1.3333166998675843,-2.5274768511401575,6.108834373741903,1.0191171169281006,-5.467909101639883
1708435899.7007995,-2.140904664993286,-1.3332770031741639,-2.5274186770068567,6.108879554062643,1.0191302299499512,-5.467864398156301
1708435899.7028074,-2.1408863067626953,-1.3333051216653367,-2.5274561087237757,6.108863699227133,1.0190763473510742,-5.467946771775381
1708435899.7047822,-2.140789270401001,-1.3332932901433487,-2.5274019877063196,6.1088647721107385,1.0191140174865723,-5.467873040829794
1708435899.7068388,-2.1408817768096924,-1.333272562628128,-2.5274441877948206,6.108854877739706,1.0191256999969482,-5.467914525662557
1708435899.708835,-2.1408772468566895,-1.3333254319480439,-2.5274396578418177,6.108839738159933,1.0191256999969482,-5.467910114918844
1708435899.7107959,-2.140873908996582,-1.333277018075325,-2.5274110476123255,6.108863580017843,1.0191140174865723,-5.46790582338442
1708435899.712812,-2.140897512435913,-1.3332844835570832,-2.5273779074298304,6.108847367554464,1.0190763473510742,-5.46786863008608
1708435899.7147877,-2.140873908996582,-1.3332758110812684,-2.5274604002581995,6.108869063645162,1.0191140174865723,-5.46790582338442
1708435899.7168288,-2.1408603191375732,-1.333300696020462,-2.5274396578418177,6.108860242157736,1.0190808773040771,-5.4678983131991785
1708435899.7188053,-2.140836477279663,-1.333239660864212,-2.5274351278888147,6.108806836396017,1.019085168838501,-5.467946712170736
1708435899.720788,-2.140864849090576,-1.3333167296699067,-2.5274277369128626,6.108818757324972,1.0190775394439697,-5.467881743107931
1708435899.722828,-2.140897512435913,-1.3333051067641755,-2.5274201075183313,6.108869063645162,1.019068956375122,-5.467877332364218
1708435899.7248049,-2.140897512435913,-1.3332888346961518,-2.5274232069598597,6.1088647721107385,1.0190284252166748,-5.467849198971884
1708435899.726792,-2.140838861465454,-1.3333421808532258,-2.5274201075183313,6.108844029694357,1.0190404653549194,-5.467849198971884
1708435899.728806,-2.140902280807495,-1.3332471561482926,-2.5274155775653284,6.108880984574117,1.0190329551696777,-5.467894736920492
1708435899.7308033,-2.1408603191375732,-1.3333007556251069,-2.5273824373828333,6.10879813411788,1.0190285444259644,-5.467894736920492
1708435899.7328105,-2.140913486480713,-1.3332352352193375,-2.5273733774768274,6.108873355179586,1.018987774848938,-5.467870895062582
1708435899.7347991,-2.1408603191375732,-1.3333183389953156,-2.5273779074298304,6.10877405384139,1.018989086151123,-5.467850391064779
1708435899.7368054,-2.1408932209014893,-1.3332757961801072,-2.5273869673358362,6.108778345375814,1.0190010070800781,-5.467814568673269
1708435899.7388122,-2.140864849090576,-1.3332888346961518,-2.527375046406881,6.1088318703468225,1.0189565420150757,-5.467798296605245
1708435899.7408378,-2.1408684253692627,-1.3333123487285157,-2.527320925389425,6.108819949417867,1.0189740657806396,-5.467798296605245
1708435899.7427952,-2.1408772468566895,-1.3332725328258057,-2.527350966130392,6.108823168068685,1.0189157724380493,-5.4677457253085535
1708435899.744806,-2.1408681869506836,-1.3332638454488297,-2.527329985295431,6.108808028488912,1.0189334154129028,-5.467725102101461
1708435899.746804,-2.1408560276031494,-1.3332888346961518,-2.5273764769183558,6.108836161881246,1.018896222114563,-5.467738215123312
1708435899.7488172,-2.140897512435913,-1.3332725328258057,-2.527329985295431,6.108824360161581,1.0189049243927002,-5.467733863984243
1708435899.7507954,-2.140852451324463,-1.3332844537547608,-2.527339045201437,6.108794915467062,1.01888108253479,-5.467727724705831
1708435899.752835,-2.14084792137146,-1.3333007258227845,-2.5272939840899866,6.1088318703468225,1.01885986328125,-5.4677467981921595
1708435899.7548175,-2.1408603191375732,-1.3332769584706803,-2.5273435751544397,6.108869063645162,1.0188361406326294,-5.467693690453665
1708435899.7568274,-2.140836477279663,-1.3332233142903824,-2.5272656122790735,6.108827459603109,1.0188491344451904,-5.467699233685629
1708435899.758819,-2.1408638954162598,-1.3332769733718415,-2.5272985140429896,6.108778345375814,1.0188000202178955,-5.467654530202047
1708435899.7608345,-2.140904664993286,-1.3332844239524384,-2.5273194948779505,6.108836281090536,1.018829584121704,-5.46763384739031
1708435899.7628186,-2.140902280807495,-1.3332932156375428,-2.5273001829730433,6.1088037369544885,1.0187476873397827,-5.467642609273092
1708435899.764837,-2.1408908367156982,-1.333268181686737,-2.5273001829730433,6.108844029694357,1.0187475681304932,-5.467594925557272
1708435899.766807,-2.14090895652771,-1.3332603585771103,-2.527254883443014,6.108819949417867,1.0187487602233887,-5.467594925557272
1708435899.7688153,-2.140913486480713,-1.3332735163024445,-2.527288262044088,6.108876573830404,1.018699288368225,-5.467612389718191
1708435899.7708044,-2.1408514976501465,-1.3332725328258057,-2.527231041585104,6.108762132912435,1.0187005996704102,-5.467542652283804
1708435899.772806,-2.1408345699310303,-1.3332691055587311,-2.5272355715381067,6.10884844043807,1.0186927318572998,-5.467544082795278
1708435899.7748036,-2.1409170627593994,-1.3332484525493165,-2.5272236506091517,6.108812439232626,1.0186314582824707,-5.467454556618826
1708435899.776829,-2.1408729553222656,-1.3332603734782715,-2.5272281805621546,6.108799326210775,1.0186314582824707,-5.467454556618826
1708435899.7788093,-2.1409213542938232,-1.333321065907814,-2.5272043387042444,6.108819949417867,1.0186240673065186,-5.467442695294515
1708435899.7808025,-2.14090895652771,-1.3332441312125702,-2.5271335283862513,6.108828770905294,1.0185915231704712,-5.467447046433584
1708435899.7828119,-2.140904664993286,-1.33323089898143,-2.52717096010317,6.108833062439718,1.0185757875442505,-5.467387143765585
1708435899.7848084,-2.140925884246826,-1.3333095473102112,-2.527126137410299,6.1088528511817834,1.018531084060669,-5.467378501092092
1708435899.7868247,-2.1409213542938232,-1.3332725328258057,-2.527168099080221,6.108827459603109,1.0185235738754272,-5.4673752824412745
1708435899.7888083,-2.1408956050872803,-1.3332559329322358,-2.5271320978747767,6.108799326210775,1.0185117721557617,-5.467355791722433
1708435899.790827,-2.1409249305725098,-1.3333210212043305,-2.527081076298849,6.108861553459921,1.018496036529541,-5.46732330719103
1708435899.792846,-2.1408638954162598,-1.3332352352193375,-2.5271487871753138,6.108808028488912,1.0184766054153442,-5.467282835637228
1708435899.794791,-2.1409409046173096,-1.3333139580539246,-2.5270541349994105,6.108799326210775,1.0184481143951416,-5.4672309199916285
1708435899.7968097,-2.1409451961517334,-1.3332725328258057,-2.5270541349994105,6.108819949417867,1.0184240341186523,-5.467215720807211
1708435899.7987998,-2.1409125328063965,-1.3333020371249695,-2.5270751158343714,6.108873355179586,1.018388032913208,-5.467248264943258
1708435899.800789,-2.1409363746643066,-1.3332352203181763,-2.5270090738879603,6.10884844043807,1.018355131149292,-5.467203799878256
1708435899.8028433,-2.1409037113189697,-1.3332844537547608,-2.526973311101095,6.108855950623312,1.0183473825454712,-5.46717214981188
1708435899.8048117,-2.140920400619507,-1.3332844239524384,-2.5270467440234583,6.1088037369544885,1.0182745456695557,-5.467123452817098
1708435899.8068027,-2.1409318447113037,-1.3332888048938294,-2.527017895375387,6.108811127930441,1.0182995796203613,-5.467172924672262
1708435899.8088667,-2.140968084335327,-1.3332396310618897,-2.52696139017214,6.108844029694357,1.0182750225067139,-5.467120114956991
1708435899.8108032,-2.140984058380127,-1.3332735014012833,-2.5269792715655726,6.108823048859396,1.0182394981384277,-5.4670841733561915
1708435899.8128562,-2.1409318447113037,-1.3332813841155549,-2.52696139017214,6.1088658449943445,1.0182154178619385,-5.467064623032705
1708435899.8148017,-2.1409566402435303,-1.3332321506789704,-2.526943031941549,6.108885395317831,1.0181584358215332,-5.467036489640371
1708435899.816831,-2.140961170196533,-1.3332603734782715,-2.526922051106588,6.108885276108541,1.0181553363800049,-5.4669916669475
1708435899.8188035,-2.140977144241333,-1.3332245659879227,-2.526931111012594,6.108815657883444,1.0181221961975098,-5.466969136391775
1708435899.820801,-2.1409547328948975,-1.3332725328258057,-2.526898209248678,6.108815657883444,1.0181440114974976,-5.466993574296133
1708435899.8228257,-2.140977144241333,-1.3333095771125336,-2.526902739201681,6.108861553459921,1.0180785655975342,-5.466887537633077
1708435899.8248098,-2.141005277633667,-1.3332070273211976,-2.5268741289721888,6.108818757324972,1.0180623531341553,-5.466925446187155
1708435899.8268123,-2.1410133838653564,-1.3332603734782715,-2.5268741289721888,6.108879554062643,1.0180721282958984,-5.466872040425436
1708435899.8287902,-2.1409752368927,-1.3332813692143937,-2.5268710295306605,6.108831155091085,1.0180141925811768,-5.466852847729818
1708435899.8308084,-2.1410088539123535,-1.3332813841155549,-2.5268755594836634,6.108818757324972,1.0179779529571533,-5.466832284127371
1708435899.8328283,-2.14104962348938,-1.3333051216653367,-2.5268307367907923,6.1088881371314905,1.017953872680664,-5.4668583313571375
1708435899.834813,-2.1409952640533447,-1.33320805550132,-2.5268591086017054,6.108863580017843,1.0179226398468018,-5.466772023831503
1708435899.8368258,-2.1410675048828125,-1.3332440865090867,-2.526872460042135,6.108851659088888,1.0179400444030762,-5.466830913220541
1708435899.8388221,-2.1410043239593506,-1.3332603138736268,-2.526789967213766,6.108839738159933,1.0178743600845337,-5.4667320291148584
1708435899.8408234,-2.1410088539123535,-1.3332233142903824,-2.526869599019186,6.108869063645162,1.0178622007369995,-5.466806832944052
1708435899.8429115,-2.1409876346588135,-1.333321065907814,-2.526811424885885,6.10884844043807,1.0178052186965942,-5.466753665600912
1708435899.844831,-2.1410202980041504,-1.3332484376481553,-2.5267916361438196,6.108867871552267,1.0178678035736084,-5.46674615541567
1708435899.8468456,-2.1410202980041504,-1.3333020371249695,-2.526773754750387,6.108876573830404,1.0177977085113525,-5.466758076344625
1708435899.8488083,-2.1410043239593506,-1.3332857501557847,-2.526778046284811,6.1088528511817834,1.0177783966064453,-5.466710154210226
1708435899.8508124,-2.1410248279571533,-1.3332647544196625,-2.5267751852618616,6.108892547875204,1.0178077220916748,-5.4667068163501185
1708435899.8528252,-2.1410248279571533,-1.3332515370896836,-2.5268383661853235,6.108847367554464,1.0178120136260986,-5.466690901909963
1708435899.8548095,-2.1410202980041504,-1.3332976710847397,-2.5267885367022913,6.108872163086691,1.0177419185638428,-5.466695312653677
1708435899.8568199,-2.1410000324249268,-1.3332070273211976,-2.5267842451678675,6.108826625138082,1.0177298784255981,-5.466671113167898
1708435899.8587992,-2.1409831047058105,-1.3332813692143937,-2.5267468134509485,6.1088647721107385,1.0177223682403564,-5.466638628636495
1708435899.8607984,-2.1410248279571533,-1.3332638007453461,-2.5267391840564173,6.108900415688314,1.0177104473114014,-5.466667954121725
1708435899.8628304,-2.1409707069396973,-1.3332975965789338,-2.5267391840564173,6.108851659088888,1.0177028179168701,-5.466558102761404
1708435899.8648183,-2.1410133838653564,-1.3332769733718415,-2.5267604033099573,6.108896958618917,1.01768159866333,-5.4665953556643885
1708435899.8668041,-2.14098858833313,-1.3333051067641755,-2.5267723242389124,6.108839738159933,1.0177223682403564,-5.466587428246633
1708435899.868806,-2.14098858833313,-1.3332559180310746,-2.5267632643329065,6.108892428665914,1.0176773071289062,-5.466590944920675
1708435899.8708105,-2.1409592628479004,-1.3332769733718415,-2.5267723242389124,6.108799326210775,1.017719030380249,-5.466575507317678
1708435899.8728597,-2.140961170196533,-1.3332595539144059,-2.5267842451678675,6.108799326210775,1.0176773071289062,-5.466596190129415
1708435899.8747964,-2.140907049179077,-1.3332725328258057,-2.5267723242389124,6.108808028488912,1.0177397727966309,-5.466543022786276
1708435899.8768203,-2.140970230102539,-1.3332725179246445,-2.5267391840564173,6.108767735749044,1.017723560333252,-5.466534380112783
1708435899.8788083,-2.1408867835998535,-1.333252803688385,-2.5267301241504114,6.108776318817892,1.0177147388458252,-5.466523293648855
1708435899.88081,-2.1409249305725098,-1.3332769882730027,-2.5267871061908167,6.108638274460592,1.017730951309204,-5.4665308634387415
1708435899.8828208,-2.1408727169036865,-1.3333051067641755,-2.526820484791891,6.108712422638693,1.0177104473114014,-5.466518942509786
1708435899.8848207,-2.1408612728118896,-1.3332638007453461,-2.5267751852618616,6.108676421433248,1.0177713632583618,-5.466527465973989
1708435899.8868272,-2.1407711505889893,-1.3332595241120835,-2.5267825762378138,6.108555543213644,1.0177428722381592,-5.466502670441763
1708435899.8888521,-2.1407809257507324,-1.3332713705352326,-2.5268307367907923,6.108543622284689,1.017783522605896,-5.46647018591036
1708435899.8907995,-2.140707492828369,-1.3333246570876618,-2.526872460042135,6.108504760056295,1.0177792310714722,-5.466523293648855
1708435899.8928235,-2.1406960487365723,-1.3333201867393036,-2.5268142859088343,6.108501422196188,1.0177913904190063,-5.466523293648855
1708435899.8948138,-2.1406447887420654,-1.3332920682481308,-2.5268965403186243,6.108400451927938,1.0178031921386719,-5.466518942509786
1708435899.8968325,-2.1406006813049316,-1.333320216541626,-2.5268755594836634,6.108376252442159,1.0178314447402954,-5.466547433529989
1708435899.898817,-2.1405563354492188,-1.3332992506078263,-2.5269206205951136,6.108295905381002,1.0178436040878296,-5.466543738042013
1708435899.9007912,-2.1404919624328613,-1.333357186322548,-2.526952091847555,6.108268844872274,1.017842411994934,-5.466535154973165
1708435899.9028163,-2.1404902935028076,-1.3333409440568467,-2.526984993611471,6.108196723252096,1.0179004669189453,-5.46651125351061
1708435899.9048297,-2.1403143405914307,-1.3333559793284913,-2.5269625822650355,6.108145940094747,1.017891764640808,-5.466535154973165
1708435899.9068332,-2.140305757522583,-1.3333975982717057,-2.5270405451404017,6.108065831452169,1.0179200172424316,-5.466470245515005
1708435899.9088194,-2.140204906463623,-1.3333844107440491,-2.5271006266223353,6.107981788903036,1.01792311668396,-5.4664868156062525
1708435899.9108012,-2.1400511264801025,-1.3334200990251084,-2.5270944277392786,6.107868897705831,1.0179188251495361,-5.466518942509786
1708435899.9128444,-2.140033483505249,-1.3334070903113862,-2.5271363894092005,6.107781398087301,1.0179756879806519,-5.466461543236868
1708435899.914819,-2.139897584915161,-1.3334562492421647,-2.527151648198263,6.107735025673666,1.0179669857025146,-5.466502670441763
1708435899.9168599,-2.139817953109741,-1.3334875863841553,-2.52717096010317,6.10763035991744,1.0180076360702515,-5.466526452695028
1708435899.9188385,-2.139698028564453,-1.3335659217885514,-2.5272117296801966,6.1075185416038416,1.0180851221084595,-5.466523293648855
1708435899.9207973,-2.1395280361175537,-1.3335277152112504,-2.527304712926046,6.107455479889669,1.0181090831756592,-5.466543022786276
1708435899.9228072,-2.139418840408325,-1.3335058105042954,-2.5273240248309534,6.107303249626913,1.018127679824829,-5.466567997132437
1708435899.9248266,-2.139233112335205,-1.3335756373456498,-2.527346436177389,6.107143509178915,1.018261194229126,-5.4665831367122095
1708435899.9268153,-2.1390788555145264,-1.3336189997247239,-2.5274155775653284,6.1070371744926355,1.0183289051055908,-5.46660685936083
1708435899.9288461,-2.1388769149780273,-1.3336561185172577,-2.5274723211871546,6.106828200608053,1.0184218883514404,-5.466623071824209
1708435899.9307919,-2.138767957687378,-1.3336756092360993,-2.527548853551046,6.1067131636436365,1.01850163936615,-5.466671113167898
1708435899.9328454,-2.1385838985443115,-1.333716095691063,-2.5275548140155237,6.106536853104391,1.0185933113098145,-5.466654841099874
1708435899.9347987,-2.1383779048919678,-1.3336985123208542,-2.5276947657214563,6.106386887818136,1.0187103748321533,-5.466646198426382
1708435899.936808,-2.138212203979492,-1.3337715578130265,-2.527741257344381,6.10620545127944,1.018753170967102,-5.466646258031027
1708435899.938825,-2.137958288192749,-1.333816022878029,-2.527836863194601,6.106046783715048,1.018898606300354,-5.466755811368124
1708435899.9408221,-2.1377933025360107,-1.333863617186882,-2.5279088656054896,6.105823862343588,1.0190305709838867,-5.466775421296255
1708435899.9428065,-2.137507915496826,-1.3338505339673539,-2.5280001799212855,6.105600940972128,1.0191638469696045,-5.46681118408312
1708435899.9448347,-2.13733172416687,-1.333902822141983,-2.5280919710742396,6.105333435326376,1.0192712545394897,-5.466780785714285
1708435899.9467914,-2.137037515640259,-1.3339592230371018,-2.5282462278949183,6.105114924698629,1.0194735527038574,-5.466862622891561
1708435899.9488313,-2.1368234157562256,-1.333954782491066,-2.5283497015582483,6.104800689011373,1.019638180732727,-5.466951433812277
1708435899.9507906,-2.1365561485290527,-1.3339899343303223,-2.5284279028521937,6.104583370476522,1.0197323560714722,-5.466925446187155
1708435899.9528341,-2.136284351348877,-1.334042252307274,-2.528571907673971,6.10431598404006,1.0199497938156128,-5.466974500809805
1708435899.9547994,-2.1359848976135254,-1.3340614599040528,-2.528733555470602,6.104088771134176,1.0201541185379028,-5.467034165059225
1708435899.9568036,-2.1356394290924072,-1.3341180396131058,-2.5288475195514124,6.103782164841451,1.0203465223312378,-5.46708190837969
1708435899.9588077,-2.1353683471679688,-1.3342070889524003,-2.5290547052966517,6.103372442513265,1.0205880403518677,-5.4671494404422205
1708435899.9608068,-2.135005474090576,-1.3342507791570206,-2.529243294392721,6.10309516170577,1.0207957029342651,-5.467237476502554
1708435899.9628222,-2.1346752643585205,-1.3342973005822678,-2.529402558003561,6.102747428208151,1.0210239887237549,-5.4672731200801294
1708435899.9648414,-2.134286642074585,-1.334366263156273,-2.529546324406759,6.102485883026876,1.0212857723236084,-5.467364434395925
1708435899.9668138,-2.133989095687866,-1.33440517008815,-2.529729429875509,6.102146851807394,1.0214319229125977,-5.467460040246145
1708435899.9688044,-2.1336166858673096,-1.3344649982503434,-2.529942576085226,6.101766693383016,1.0217063426971436,-5.467585925255911
1708435899.9708197,-2.1332151889801025,-1.3345082861236115,-2.53014046350588,6.1013835547264,1.0219753980636597,-5.46768039861788
1708435899.9727945,-2.1327991485595703,-1.3345594865134736,-2.530323092137472,6.101009595185079,1.0222727060317993,-5.467801276837484
1708435899.9747984,-2.132361888885498,-1.334638775592186,-2.5305302778827112,6.1005334732826135,1.0225894451141357,-5.467863265668051
1708435899.9768217,-2.1318564414978027,-1.3347280037454148,-2.530783478413717,6.100075113564291,1.0228781700134277,-5.467970792447225
1708435899.9788089,-2.131443977355957,-1.3348158609918137,-2.53099495569338,6.099672543793478,1.0231685638427734,-5.4680783192264
1708435899.980803,-2.1309902667999268,-1.3348877739957352,-2.5312064329730433,6.099178182869711,1.0235469341278076,-5.468193833027975
1708435899.982801,-2.130506992340088,-1.3349998158267518,-2.5314913431750696,6.098744141846456,1.023819088935852,-5.468309883271353
1708435899.984801,-2.129958152770996,-1.3350593161633988,-2.531726662312643,6.098268854409017,1.024155855178833,-5.4684664646731775
1708435899.9867952,-2.1294751167297363,-1.335147501235344,-2.5320118109332483,6.097745644837179,1.0245296955108643,-5.468572858964102
1708435899.9887998,-2.12896990776062,-1.335201845770218,-2.532241169606344,6.097292649536886,1.0248609781265259,-5.468720380459921
1708435899.9907968,-2.128397226333618,-1.3353388768485566,-2.5325875918017786,6.096708881645956,1.0253002643585205,-5.468843464051382
1708435899.9928362,-2.127809524536133,-1.3353692156127472,-2.5328756014453333,6.096174824028768,1.0256434679031372,-5.469016198311941
1708435899.9948304,-2.127190113067627,-1.335538075571396,-2.5331721941577356,6.095587599068441,1.0260521173477173,-5.469191137944357
1708435899.996843,-2.1265666484832764,-1.3356584322503586,-2.5335159937488,6.095030176430502,1.026503086090088,-5.46930575767626
1708435899.9988174,-2.1259608268737793,-1.3357529801181336,-2.5337873140918177,6.094462144165792,1.0268977880477905,-5.469514612351553
1708435900.0008097,-2.125361680984497,-1.3358085465482255,-2.5341935793506067,6.0937527296836755,1.0273308753967285,-5.469641927872793
1708435900.0028102,-2.124706268310547,-1.3359401238015671,-2.534513298665182,6.0932128308113,1.0277729034423828,-5.469857875500814
1708435900.004814,-2.1240744590759277,-1.3360844266465683,-2.534828011189596,6.092497098236837,1.0281965732574463,-5.470000390206472
1708435900.0068414,-2.123338460922241,-1.33621138453994,-2.535234276448385,6.091913568764486,1.028707504272461,-5.470200304185049
1708435900.0088067,-2.1226327419281006,-1.336338685160019,-2.5356016794787806,6.091242182045736,1.0292354822158813,-5.470363382493154
1708435900.0108106,-2.121872901916504,-1.3365279150060196,-2.535973612462179,6.090529191284933,1.0297527313232422,-5.470620278512136
1708435900.0128396,-2.121133327484131,-1.3366268140128632,-2.536323134099142,6.089837062149801,1.0302886962890625,-5.470744792615072
1708435900.014804,-2.1203598976135254,-1.336693288092949,-2.5367069880114954,6.08900402763442,1.0308986902236938,-5.470976118241445
1708435900.01684,-2.119642972946167,-1.3368935298970719,-2.537147823964254,6.088283645897665,1.0313137769699097,-5.471174780522482
1708435900.018827,-2.118798017501831,-1.3370085221580048,-2.5375481287585657,6.087493288307943,1.0319653749465942,-5.471485022698538
1708435900.0208094,-2.118008852005005,-1.3371725392392655,-2.5379813353167933,6.086748587876119,1.0324732065200806,-5.471630577241079
1708435900.022814,-2.1171648502349854,-1.3373150837472458,-2.538405481969015,6.085935699730673,1.033060073852539,-5.471870783959524
1708435900.0248187,-2.1163699626922607,-1.337532178764679,-2.538788143788473,6.085129964142599,1.0336697101593018,-5.472061936055319
1708435900.0268064,-2.1155335903167725,-1.3376630407622834,-2.5392289797412317,6.084284174233236,1.0342705249786377,-5.472268466149465
1708435900.0288322,-2.114680290222168,-1.3378098470023652,-2.53965932527651,6.083487498551168,1.0348790884017944,-5.472501520310537
1708435900.0308099,-2.113826036453247,-1.3380188208869477,-2.5401530901538294,6.082604753762045,1.035508632659912,-5.4727031032191675
1708435900.0328321,-2.112879514694214,-1.3382102710059662,-2.5405893961535853,6.081720101624288,1.0362069606781006,-5.472961668168203
1708435900.034829,-2.1119582653045654,-1.3384151768735428,-2.541076723729269,6.08080421665267,1.0368852615356445,-5.473238114510671
1708435900.0368364,-2.1109871864318848,-1.338548020725586,-2.5415237585650843,6.07983027675704,1.037587285041809,-5.473496679459707
1708435900.038803,-2.110090970993042,-1.3387737435153504,-2.542102877293722,6.078937518387594,1.0382100343704224,-5.473772887383596
1708435900.0408177,-2.109151601791382,-1.338965268140175,-2.5424910227404993,6.07803903797225,1.0389002561569214,-5.4740405718432825
1708435900.042819,-2.108243465423584,-1.3391606968692322,-2.5430546442614954,6.077216970711508,1.0395656824111938,-5.474269155655996
1708435900.0448914,-2.107236623764038,-1.3392970126918335,-2.5435166994677942,6.076221811562338,1.040256142616272,-5.474572662507192
1708435900.046896,-2.1061789989471436,-1.3395375472358246,-2.544015947972433,6.07516490200118,1.0410348176956177,-5.474832538758413
1708435900.0488656,-2.1051628589630127,-1.3397008341601868,-2.5446353594409388,6.07424162605361,1.0417888164520264,-5.475128177796499
1708435900.050805,-2.1041369438171387,-1.3399412792972107,-2.545145813618795,6.073162901192465,1.042554259300232,-5.475454095994131
1708435900.0528316,-2.103059768676758,-1.340144322519638,-2.54571777979006,6.072144138603964,1.043335199356079,-5.4757734576808375
1708435900.0547938,-2.10201096534729,-1.340347782974579,-2.5463672319995325,6.071063029557028,1.0441865921020508,-5.476100806389944
1708435900.056997,-2.100846767425537,-1.34052266300235,-2.546898428593771,6.069979178696432,1.0449466705322266,-5.476423625146047
1708435900.0588026,-2.0997493267059326,-1.3407006573728104,-2.547485891972677,6.068907248764791,1.0457044839859009,-5.476770285760061
1708435900.0608053,-2.098632335662842,-1.3409114342978974,-2.5480242411242884,6.067842829018392,1.0464484691619873,-5.476999048386709
1708435900.0628467,-2.097506046295166,-1.3412176978639145,-2.548723045979635,6.066752064019003,1.0473122596740723,-5.477361921464102
1708435900.0648031,-2.0963125228881836,-1.3414375197938462,-2.5493136088000696,6.065700399666586,1.0481219291687012,-5.47779614130129
1708435900.066794,-2.095184803009033,-1.3416345578483124,-2.5499287287341517,6.064540016442098,1.0490200519561768,-5.478122119103567
1708435900.0688155,-2.0939533710479736,-1.3418657940677186,-2.5505853335009974,6.063436972885885,1.04985773563385,-5.4783586899386805
1708435900.0707984,-2.0926754474639893,-1.3421336573413392,-2.551225725804464,6.062251794129171,1.0506664514541626,-5.478733424340383
1708435900.072846,-2.0914952754974365,-1.342307375078537,-2.551920000706808,6.060969221382894,1.0514836311340332,-5.479100827370779
1708435900.0748272,-2.0902397632598877,-1.342546523814537,-2.5525243918048304,6.059822785645284,1.0523626804351807,-5.4794727007495325
1708435900.0768373,-2.0889196395874023,-1.342778132562973,-2.5532310644732874,6.058730947762289,1.053304672241211,-5.479773465787069
1708435900.078807,-2.087692975997925,-1.3430420917323609,-2.553864065800802,6.057498442917623,1.054243564605713,-5.480091993008749
1708435900.0808272,-2.086338758468628,-1.3433187913945694,-2.554556671773092,6.0562161085899255,1.055249571800232,-5.480480674897329
1708435900.0828447,-2.084960699081421,-1.3435727816871186,-2.5552313963519495,6.054947364121237,1.056212067604065,-5.4808266202556055
1708435900.0848224,-2.083652973175049,-1.3438854080489655,-2.55601412454714,6.053655493050375,1.0571926832199097,-5.481191817914144
1708435900.0868404,-2.082218647003174,-1.3440663081458588,-2.5566962401019495,6.052276122360983,1.0582284927368164,-5.481620494519369
1708435900.0888233,-2.0808634757995605,-1.3443130415729065,-2.5573912302600306,6.050913798599996,1.0592586994171143,-5.4819552342044275
1708435900.090812,-2.0793917179107666,-1.3446372908404847,-2.558106009160177,6.049566137581625,1.0602474212646484,-5.482304696236746
1708435900.0928378,-2.078017234802246,-1.3449375045350571,-2.5588629881488245,6.048227059632101,1.0612400770187378,-5.482712570820944
1708435900.094797,-2.0766215324401855,-1.3451457184604187,-2.5595949331866663,6.046841847687521,1.0622303485870361,-5.483035985623495
1708435900.0968268,-2.0751614570617676,-1.3455042403987427,-2.560288969670431,6.045461165695944,1.063268780708313,-5.483439151440756
1708435900.0988257,-2.07372784614563,-1.345729560857155,-2.561037842427389,6.044119584351339,1.0643287897109985,-5.483827475701467
1708435900.1008322,-2.072230815887451,-1.3460941475680848,-2.5618251005755823,6.042665350228109,1.0653694868087769,-5.48425013223757
1708435900.102825,-2.0707151889801025,-1.3463676881841202,-2.5626238028155726,6.041231620102682,1.066399335861206,-5.484705928956167
1708435900.104851,-2.0691421031951904,-1.3466859769872208,-2.5633538405047815,6.039723980217733,1.0675632953643799,-5.485106710587637
1708435900.106857,-2.0675933361053467,-1.3470131617835541,-2.5641585032092493,6.038242208748617,1.0686218738555908,-5.485496644173757
1708435900.1088192,-2.0660462379455566,-1.347272129063942,-2.56496245065798,6.036812054901876,1.0696702003479004,-5.485876325760977
1708435900.1107962,-2.064490795135498,-1.3475983154824753,-2.5656684080706995,6.035306083946981,1.0708125829696655,-5.486319903527395
1708435900.1128619,-2.0629303455352783,-1.3478807371905823,-2.5664635340320032,6.033774125366964,1.071860671043396,-5.486684326325552
1708435900.1148238,-2.0613186359405518,-1.3482939165881653,-2.5673282782184046,6.0323489783103845,1.072961688041687,-5.48707759777178
1708435900.1168518,-2.059659481048584,-1.3486245286515732,-2.568071190510885,6.030840503960409,1.0741369724273682,-5.4875227252589625
1708435900.1188283,-2.0580384731292725,-1.348978952770569,-2.5689120928393763,6.029307234078207,1.0752367973327637,-5.487915817891256
1708435900.1208546,-2.056389093399048,-1.3493331384709855,-2.5697532335864466,6.027672874718466,1.076366662979126,-5.488343421612875
1708435900.122821,-2.054666519165039,-1.3496921223453064,-2.5705557505237024,6.0260140774543665,1.0775601863861084,-5.488770310078756
1708435900.1247969,-2.0529518127441406,-1.3500481259873887,-2.571399513875143,6.024454700737753,1.0786834955215454,-5.489171151314871
1708435900.1268153,-2.051286458969116,-1.350390003328659,-2.5722199122058313,6.022777664452352,1.0797886848449707,-5.489539984856741
1708435900.1288211,-2.049501657485962,-1.3507858526757737,-2.57300311723818,6.021147954254904,1.0809048414230347,-5.489970509205953
1708435900.1308274,-2.0478830337524414,-1.3511073154262085,-2.5737934748279017,6.019507634430685,1.0820021629333496,-5.490412775670187
1708435900.1328485,-2.046071767807007,-1.351530135875084,-2.574622694646017,6.0178714869316,1.0831201076507568,-5.490877274666921
1708435900.1348364,-2.0442686080932617,-1.3519216787866135,-2.5754550139056605,6.0161534426505945,1.0842775106430054,-5.491242293511526
1708435900.136839,-2.0424537658691406,-1.3523312223008652,-2.576319996510641,6.014454352646627,1.0854347944259644,-5.491673652325765
1708435900.1388197,-2.0406415462493896,-1.3527631771615525,-2.577134672795431,6.012746202736654,1.0866520404815674,-5.492075566445486
1708435900.1408267,-2.0387942790985107,-1.35310751319442,-2.5780356566058558,6.011026251107015,1.0878826379776,-5.4924615065204065
1708435900.142848,-2.036930799484253,-1.353571967487671,-2.5788713137256067,6.009311902313986,1.089009404182434,-5.4929020444499415
1708435900.144827,-2.0350730419158936,-1.353965238933899,-2.5797393957721155,6.007569420128622,1.0902318954467773,-5.493262652550833
1708435900.1468427,-2.033196210861206,-1.3544251930764695,-2.5805702845202845,6.005769479065695,1.091328740119934,-5.493674580250875
1708435900.148822,-2.0313169956207275,-1.354827196603157,-2.5813596884356897,6.0039334175880334,1.0924804210662842,-5.494124654923574
1708435900.1508188,-2.0294599533081055,-1.3553234797767182,-2.5822418371783655,6.002232181816854,1.0936572551727295,-5.494502607976095
1708435900.152851,-2.027606964111328,-1.3557091814330597,-2.583055082951681,6.000519740372457,1.0948032140731812,-5.494916323815481
1708435900.1548228,-2.02573299407959,-1.3561024826816102,-2.5839596430407923,5.9987350580985925,1.0959022045135498,-5.495340589676992
1708435900.1570914,-2.023853063583374,-1.356516422038414,-2.584831778203146,5.996894228249349,1.0971366167068481,-5.495766405259268
1708435900.1588104,-2.0218513011932373,-1.3570558589747925,-2.5856779257403772,5.995063769608297,1.0982929468154907,-5.49618494907488
1708435900.1608467,-2.0199105739593506,-1.3575264078429718,-2.586458985005514,5.99308334568099,1.0995360612869263,-5.4965882937060755
1708435900.162832,-2.017876148223877,-1.357976109986641,-2.587358538304464,5.991168010025778,1.1006475687026978,-5.496917192135946
1708435900.164803,-2.0159406661987305,-1.3584873092225571,-2.588191811238424,5.989330518036642,1.101812481880188,-5.4972386995898646
1708435900.1668384,-2.0140180587768555,-1.3588761997273942,-2.589036289845602,5.987382399826803,1.102900743484497,-5.497691039239065
1708435900.168823,-2.0119385719299316,-1.3594005566886445,-2.5898616949664515,5.9855432389076135,1.1040232181549072,-5.498063270245687
1708435900.1708539,-2.0099308490753174,-1.359863967900612,-2.5907307306872767,5.983643877297201,1.105128526687622,-5.498500649129049
1708435900.172824,-2.007863998413086,-1.3603364092162629,-2.591541115437643,5.981713640480795,1.1062088012695312,-5.498841647301809
1708435900.174801,-2.005836248397827,-1.360859529381134,-2.5923710505114954,5.979760396271505,1.107374906539917,-5.499252502118246
1708435900.176843,-2.0037641525268555,-1.3612830203822632,-2.593205277119772,5.9777800915534876,1.1085600852966309,-5.499627713357107
1708435900.1788151,-2.0016748905181885,-1.3618192833713074,-2.594067398701803,5.975817787438192,1.1096967458724976,-5.499920729790823
1708435900.1808188,-1.9995641708374023,-1.362349883919098,-2.594907824193136,5.9737926600273035,1.1107838153839111,-5.500282529984609
1708435900.182815,-1.9974958896636963,-1.3628942233375092,-2.595682446156637,5.971788990288534,1.11184823513031,-5.500682477151052
1708435900.1848197,-1.995354413986206,-1.3633796137622376,-2.596476141606466,5.969846355706014,1.112917184829712,-5.500992004071371
1708435900.1868281,-1.9932904243469238,-1.3637914520553132,-2.5973034540759485,5.967917668610372,1.1139988899230957,-5.501331571732656
1708435900.188835,-1.9911372661590576,-1.364335299735405,-2.5980659166919153,5.966051685601034,1.1151124238967896,-5.501755599175588
1708435900.1908197,-1.9889466762542725,-1.3649551731399079,-2.598962370549337,5.963999616890707,1.1162868738174438,-5.50202447572817
1708435900.1928296,-1.9866632223129272,-1.3654960554889222,-2.599726740513937,5.961841809540548,1.1174836158752441,-5.502363685761587
1708435900.194791,-1.9844406843185425,-1.3659643095782776,-2.6006158033954065,5.959778535157003,1.1186041831970215,-5.5026777426349085
1708435900.19684,-1.9821584224700928,-1.3665695500424881,-2.6013522783862513,5.957670438080587,1.1197168827056885,-5.502982739602224
1708435900.1988537,-1.9799493551254272,-1.3671225023320694,-2.602173630391256,5.9556898949439905,1.1207854747772217,-5.503323022519247
1708435900.2008164,-1.9777791500091553,-1.367559404378273,-2.602865759526388,5.9535244581993005,1.121789574623108,-5.50355708995928
1708435900.202824,-1.9755849838256836,-1.3681642276099701,-2.6036625544177454,5.951536285668173,1.1228755712509155,-5.503901425992147
1708435900.2048132,-1.9733386039733887,-1.3686370265534897,-2.604368511830465,5.949558365135946,1.1238951683044434,-5.504195753728048
1708435900.20681,-1.9711980819702148,-1.369104416375496,-2.6050825754748743,5.9474408505256555,1.124927282333374,-5.504435185586111
1708435900.2088492,-1.9689757823944092,-1.3697213989547272,-2.605814043675558,5.945410358696737,1.1259232759475708,-5.504654530678884
1708435900.2107935,-1.9667737483978271,-1.370308832531311,-2.606537644063131,5.943272578507223,1.1269125938415527,-5.50490910211672
1708435900.2128308,-1.9646092653274536,-1.3707025212100525,-2.607199494038717,5.941247689514913,1.1278690099716187,-5.505164209996359
1708435900.2147958,-1.9623959064483643,-1.3713269096663971,-2.6079137961017054,5.939115869789877,1.1288460493087769,-5.505406383668081
1708435900.2168117,-1.9601792097091675,-1.3718453806689759,-2.6086016337024134,5.93705569484786,1.1297862529754639,-5.505676869546072
1708435900.2188,-1.957996129989624,-1.3723998230746766,-2.6093204657184046,5.9350342629249475,1.1308284997940063,-5.5059161225902
1708435900.220791,-1.955773949623108,-1.3729280096343537,-2.6100602785693567,5.93294512012557,1.1317675113677979,-5.506143335496084
1708435900.2228034,-1.953533411026001,-1.373486952190735,-2.6107288042651575,5.930876362114706,1.1327853202819824,-5.5064226428615015
1708435900.2247937,-1.9513676166534424,-1.3740375500968476,-2.611563030873434,5.928798901825704,1.1338112354278564,-5.5066484848605555
1708435900.226803,-1.9491024017333984,-1.374604956512787,-2.612218681965963,5.926695096283712,1.134857416152954,-5.506997887288229
1708435900.2288103,-1.9469319581985474,-1.375191943054535,-2.612910572682516,5.924641120224752,1.1358097791671753,-5.507202748452322
1708435900.230794,-1.9447275400161743,-1.3757966470769425,-2.613642994557516,5.922509777336874,1.1367183923721313,-5.50741017261614
1708435900.232797,-1.9425220489501953,-1.3763376635364075,-2.6143081823932093,5.920413720398702,1.1376959085464478,-5.507701639329092
1708435900.234858,-1.940359354019165,-1.3769129526666184,-2.6150317827807825,5.918377029686727,1.1386785507202148,-5.507985238228933
1708435900.236791,-1.938171625137329,-1.37747576952491,-2.6157291571246546,5.916348564415731,1.1397247314453125,-5.508271817361013
1708435900.2387917,-1.935979962348938,-1.377989412551262,-2.616493050252096,5.914259540825643,1.140699863433838,-5.508461062108175
1708435900.240805,-1.933797836303711,-1.3785617661527176,-2.6172073523150843,5.9121320126350305,1.1416919231414795,-5.508744482194082
1708435900.2428265,-1.931633710861206,-1.3790343564799805,-2.617995087300436,5.91001986244277,1.1426283121109009,-5.508962992821829
1708435900.2448688,-1.929398536682129,-1.3797173512033005,-2.6186822096454065,5.907913076668539,1.1435602903366089,-5.509202067052023
1708435900.2467928,-1.9272453784942627,-1.3801850837520142,-2.619336191807882,5.905978429108419,1.1444618701934814,-5.509502116833822
1708435900.2488444,-1.9250954389572144,-1.3808103066733857,-2.6200740973102015,5.903906094818868,1.145477056503296,-5.5097161571132105
1708435900.250791,-1.9228442907333374,-1.3814425778440018,-2.6208213011371058,5.90182791927413,1.1463844776153564,-5.509987954293386
1708435900.2527986,-1.920659065246582,-1.381939874296524,-2.6215360800372522,5.89983223655776,1.1473573446273804,-5.510250572358267
1708435900.254824,-1.9184478521347046,-1.382465661769249,-2.622223440800802,5.897766697197714,1.1483222246170044,-5.510490481053488
1708435900.2568464,-1.9163291454315186,-1.3830452126315613,-2.622920815144674,5.895734298020162,1.1492801904678345,-5.510712746773855
1708435900.2588117,-1.9141135215759277,-1.3836379659226914,-2.623594109212057,5.8936160681541345,1.150212049484253,-5.510997478161947
1708435900.2608142,-1.9118974208831787,-1.3841352623752137,-2.624383513127462,5.891484129219808,1.1512136459350586,-5.511227850114004
1708435900.262809,-1.9097280502319336,-1.3847444218448182,-2.6250909010516565,5.889475452690878,1.1522481441497803,-5.511485282574789
1708435900.264801,-1.907503366470337,-1.3852912497571488,-2.6258350054370325,5.887414204865255,1.1532922983169556,-5.5117197076426905
1708435900.2668142,-1.9052895307540894,-1.3858289432576676,-2.626532856618063,5.885400283127584,1.1541805267333984,-5.512021545563833
1708435900.2688415,-1.9031803607940674,-1.38640849411998,-2.62720233598818,5.883258569031515,1.1552355289459229,-5.51221883693804
1708435900.270821,-1.9009473323822021,-1.3869102013162156,-2.6279664675342005,5.881189691811361,1.1561959981918335,-5.512551788483755
1708435900.2728045,-1.8987398147583008,-1.3874730181745072,-2.6287182013141077,5.87915204742507,1.157124400138855,-5.512786094342367
1708435900.2748144,-1.8965189456939697,-1.3880464148572464,-2.629411284123556,5.877088176995077,1.1580679416656494,-5.512960139905111
1708435900.276812,-1.8943068981170654,-1.3886090081981202,-2.6301215330706995,5.874944555550375,1.1590038537979126,-5.513284091149465
1708435900.2788007,-1.892113208770752,-1.3891348254731675,-2.6308534781085413,5.872953045159139,1.1600096225738525,-5.5135396162616175
1708435900.280852,-1.8898791074752808,-1.3897187870791932,-2.6315446535693567,5.870884287148275,1.1609615087509155,-5.513803784047262
1708435900.2828217,-1.8877027034759521,-1.3902534258416672,-2.632254664097921,5.868907081871786,1.1619161367416382,-5.513968650494711
1708435900.2848363,-1.8854371309280396,-1.390741915707924,-2.63302451768984,5.866781222611227,1.1628773212432861,-5.514289681111471
1708435900.2868261,-1.8831638097763062,-1.3913390052369614,-2.6337552706347864,5.864752161293783,1.1638095378875732,-5.514483992253439
1708435900.2888026,-1.8809839487075806,-1.391854615216591,-2.6344249884234827,5.862665879517355,1.1648367643356323,-5.514775518571035
1708435900.2908204,-1.8787695169448853,-1.3923762154630204,-2.6351032892810267,5.860574114113607,1.165833830833435,-5.514976922665731
1708435900.2927983,-1.8765920400619507,-1.3929315668395539,-2.635844055806295,5.858493912010946,1.1668187379837036,-5.5152316133128565
1708435900.2947993,-1.874354600906372,-1.3934991520694275,-2.6365464369403284,5.856482255249777,1.1678038835525513,-5.515515093003408
1708435900.2967975,-1.872192144393921,-1.3940294098905106,-2.637207333241598,5.854376661568441,1.1687159538269043,-5.515792493020193
1708435900.298798,-1.869972825050354,-1.3945888739875336,-2.6379361788379114,5.852300393372335,1.1696560382843018,-5.5160425941096705
1708435900.3008456,-1.8678431510925293,-1.3950790923884888,-2.638606850300924,5.850289571076193,1.1705974340438843,-5.516247634087698
1708435900.3028102,-1.865584373474121,-1.3956903380206604,-2.639313522969381,5.848160135536947,1.17151939868927,-5.516560796891348
1708435900.3047888,-1.8633923530578613,-1.396224634056427,-2.6400144735919397,5.846098410874166,1.1724398136138916,-5.516770128403799
1708435900.3068051,-1.8611394166946411,-1.3968523156693955,-2.6406620184527796,5.844061004906454,1.173424482345581,-5.517018143330709
1708435900.3088017,-1.858974575996399,-1.397334174518921,-2.6413992086993616,5.842048394470968,1.174438238143921,-5.517275933419363
1708435900.3107898,-1.8568058013916016,-1.397901029591896,-2.642142359410421,5.840077984123983,1.1754333972930908,-5.517514709626333
1708435900.3128338,-1.8545409440994263,-1.3984559935382386,-2.642844263707296,5.838029253273763,1.1764435768127441,-5.517766896878378
1708435900.3147972,-1.852355718612671,-1.3990274530700226,-2.6435187498675745,5.83594702461318,1.1774379014968872,-5.518078807984487
1708435900.3168008,-1.8501863479614258,-1.3995372515967865,-2.644259516392843,5.833897220879354,1.1784155368804932,-5.518264297639028
1708435900.3188217,-1.8479208946228027,-1.4001434010318299,-2.6448937098132532,5.831739055901327,1.1794157028198242,-5.518535975609915
1708435900.3208385,-1.8457956314086914,-1.4006917637637635,-2.6455753485309046,5.829695570259847,1.1803265810012817,-5.51877081791033
1708435900.3228335,-1.8435739278793335,-1.4012338382056733,-2.6463194529162806,5.8276197789009,1.1813859939575195,-5.518972758446829
1708435900.3248732,-1.841380000114441,-1.401784823541977,-2.647050682698385,5.825511324196615,1.1823713779449463,-5.519215051327841
1708435900.3268378,-1.8391882181167603,-1.4023392361453553,-2.6478076616870325,5.8235312578971765,1.183347225189209,-5.519511822854177
1708435900.3287935,-1.8370742797851562,-1.4028748285821457,-2.6484859625445765,5.821468698769369,1.1843363046646118,-5.519730273877279
1708435900.3308113,-1.8348753452301025,-1.4034097653678437,-2.6492045561419886,5.819325434952535,1.185293197631836,-5.5199689904796045
1708435900.3328176,-1.8326494693756104,-1.4040144842914124,-2.64988357225527,5.817208397179403,1.186274766921997,-5.5202248136149805
1708435900.3347883,-1.8303873538970947,-1.404597134595253,-2.6506224314319056,5.815117108612814,1.1872106790542603,-5.520499710236685
1708435900.3368087,-1.8282181024551392,-1.4051239651492615,-2.651369873677389,5.813083040505209,1.188188910484314,-5.520771388207571
1708435900.338819,-1.8260116577148438,-1.4056877952865143,-2.652081076298849,5.8110182164009,1.1891651153564453,-5.520997110997335
1708435900.3408763,-1.8238002061843872,-1.4062663477710267,-2.6527627150165003,5.809015857964315,1.190138578414917,-5.521212402974264
1708435900.3428276,-1.8216665983200073,-1.4067921799472352,-2.6534817854510706,5.806929218560018,1.1910799741744995,-5.52148420015444
1708435900.3449266,-1.8194842338562012,-1.4073642206243058,-2.65417725244631,5.804898488312521,1.1920239925384521,-5.52174282470812
1708435900.346886,-1.8172131776809692,-1.4078660172275086,-2.6549304167376917,5.802826988487997,1.1930272579193115,-5.521968547497885
1708435900.3488326,-1.8150403499603271,-1.4084572953036805,-2.655628029500143,5.800714838295736,1.1940363645553589,-5.522175077592031
1708435900.3508072,-1.8128286600112915,-1.4090381574681778,-2.6563475767718714,5.79867302158431,1.194947361946106,-5.5225088636027735
1708435900.3528578,-1.810651183128357,-1.409571425323822,-2.6570127646075647,5.796566355019369,1.1959515810012817,-5.52269030014147
1708435900.354794,-1.8084380626678467,-1.4101224106601258,-2.657764259968893,5.7944843647773645,1.1969194412231445,-5.522933546696798
1708435900.3568275,-1.806253433227539,-1.4106704008630295,-2.658508841191427,5.792494046479025,1.1979496479034424,-5.523196522389547
1708435900.3588257,-1.8041038513183594,-1.411176474099495,-2.6591785589801233,5.790400969773092,1.1988158226013184,-5.523456339036123
1708435900.3608117,-1.801888346672058,-1.411734865312912,-2.6599016825305384,5.788361537247457,1.1998460292816162,-5.523683671151296
1708435900.3628259,-1.7996277809143066,-1.4123228353312989,-2.660616938267843,5.7862024185951135,1.2007766962051392,-5.5239745418178
1708435900.3648257,-1.7974992990493774,-1.4128204000047226,-2.6614015738116663,5.784099805146017,1.2017773389816284,-5.524172131215231
1708435900.3668358,-1.7952837944030762,-1.413441465502121,-2.6620665232287806,5.782048928528585,1.2028388977050781,-5.524415616189138
1708435900.3687975,-1.7930554151535034,-1.413992778663971,-2.6627402941333216,5.780104982643881,1.2038055658340454,-5.524715785180227
1708435900.3707993,-1.790838360786438,-1.4145107728293915,-2.6634395758258265,5.778051006584921,1.2048105001449585,-5.524942402039663
1708435900.3728478,-1.788664698600769,-1.4150453966907044,-2.6641464869128626,5.776040303498068,1.205729365348816,-5.525205198918478
1708435900.3747993,-1.7864004373550415,-1.4155864280513306,-2.66490346590151,5.7739412663276575,1.206770420074463,-5.5253870526896876
1708435900.376843,-1.7841932773590088,-1.41616706669841,-2.6655669848071497,5.77189718463973,1.207754373550415,-5.525679413472311
1708435900.3788023,-1.7819675207138062,-1.4167465430549164,-2.666220013295309,5.769838559418478,1.2087351083755493,-5.52590519586672
1708435900.3808043,-1.7798415422439575,-1.4172604543021698,-2.666908566151754,5.767771708756246,1.209662675857544,-5.526246551667349
1708435900.3828065,-1.777653455734253,-1.4178246718696137,-2.667643133793966,5.765697347908773,1.2105910778045654,-5.526464764271871
1708435900.384811,-1.7754230499267578,-1.4183623653701325,-2.668349568043844,5.763717996865072,1.2115752696990967,-5.526742939149038
1708435900.3868165,-1.773248314857483,-1.418987901215889,-2.6690455118762415,5.761631715088644,1.2125389575958252,-5.526979092751638
1708435900.388798,-1.771111011505127,-1.4195061188987275,-2.669771734868185,5.759580004006185,1.2134748697280884,-5.5272210280047815
1708435900.3907998,-1.7688549757003784,-1.420048178439476,-2.6704638640033167,5.7574394820030115,1.2143819332122803,-5.5274643937693995
1708435900.3928163,-1.7666982412338257,-1.4206408572248002,-2.6711493174182337,5.755369293480673,1.2154203653335571,-5.527719620858328
1708435900.3947945,-1.7643946409225464,-1.4211126279881974,-2.671856705342428,5.75322841384963,1.216368317604065,-5.527937773858206
1708435900.396833,-1.7622320652008057,-1.4217502039721985,-2.6726000944720667,5.7512117502983,1.2173409461975098,-5.528196458016531
1708435900.398798,-1.7600177526474,-1.4222775113633652,-2.673286739979879,5.749173390656271,1.21839439868927,-5.528386656438009
1708435900.4007933,-1.757800579071045,-1.4228389126113434,-2.674004379902975,5.747125136643209,1.2193005084991455,-5.52868771949877
1708435900.4028213,-1.7556734085083008,-1.4234156918576737,-2.674744431172506,5.745099890023031,1.2203197479248047,-5.528991762791769
1708435900.4048505,-1.7534188032150269,-1.4239621621421357,-2.6754232088672083,5.7430447218711755,1.2213075160980225,-5.529151741658346
1708435900.406826,-1.751279592514038,-1.4244967711022873,-2.6761789957629603,5.740922200470724,1.2222638130187988,-5.529473308716909
1708435900.4088402,-1.7490540742874146,-1.4250362080386658,-2.676812712346212,5.738845932274618,1.2231876850128174,-5.529662613068716
1708435900.4108076,-1.7468427419662476,-1.4255542022040864,-2.6776018778430384,5.736748206406393,1.224145531654358,-5.52991754213442
1708435900.4128666,-1.744683027267456,-1.4261011195233841,-2.678269688283102,5.734605777054586,1.2250961065292358,-5.530217651520864
1708435900.4148517,-1.7424983978271484,-1.4266404074481507,-2.6790183226214808,5.73255072811202,1.2260723114013672,-5.530431989823477
1708435900.4168162,-1.7403059005737305,-1.4272075456431885,-2.679728333150045,5.7305534956748865,1.2271432876586914,-5.530690316353933
1708435900.418846,-1.7380356788635254,-1.4277959775975724,-2.6804147402392786,5.728452193527975,1.2280975580215454,-5.530945662652151
1708435900.4208028,-1.7359004020690918,-1.4282931101373215,-2.68116265932192,5.726224171906271,1.2290297746658325,-5.5311846772777
1708435900.4228363,-1.7337160110473633,-1.4288741064122696,-2.6818719545947474,5.724224316864767,1.2299617528915405,-5.531440202389852
1708435900.4248285,-1.7315518856048584,-1.429469035272934,-2.682603422795431,5.722166168480673,1.2310019731521606,-5.5316346923457544
1708435900.42684,-1.7292793989181519,-1.4300323885730286,-2.683258358632223,5.720154630928793,1.2319594621658325,-5.531915012990133
1708435900.4288003,-1.727157711982727,-1.4305745673230668,-2.684044901524679,5.718142139702596,1.2328791618347168,-5.532146457825796
1708435900.4307966,-1.7249571084976196,-1.4310476642898102,-2.6847568194018763,5.71611653545455,1.2338072061538696,-5.532388452683584
1708435900.43287,-1.722730278968811,-1.4316852700761338,-2.685451332722799,5.714149701386251,1.2346681356430054,-5.532639924679891
1708435900.434818,-1.720520257949829,-1.432199166422226,-2.686174456273214,5.712025391846456,1.235598087310791,-5.532899502907888
1708435900.4367995,-1.7183411121368408,-1.432795913224556,-2.6868470350848597,5.70999156215743,1.2364987134933472,-5.533089582120077
1708435900.4388008,-1.7160953283309937,-1.4332846862128754,-2.6875930468188685,5.707887756615438,1.2375116348266602,-5.53341639438738
1708435900.4408288,-1.7139286994934082,-1.4337986272624512,-2.688294235860006,5.705874788552084,1.2384880781173706,-5.533692542706625
1708435900.4428384,-1.7117512226104736,-1.434359834795334,-2.6890459696399134,5.703766512661733,1.2394884824752808,-5.533919994031088
1708435900.4448414,-1.7094978094100952,-1.4349650007537385,-2.689788881932394,5.701718556671896,1.2405097484588623,-5.534187320862905
1708435900.4468353,-1.707265019416809,-1.435485453610756,-2.690463129674093,5.699637400894918,1.2415186166763306,-5.534368459378378
1708435900.448809,-1.7050771713256836,-1.4360190790942688,-2.6912530104266565,5.697656798153677,1.2425254583358765,-5.534632627164022
1708435900.4508028,-1.7029054164886475,-1.4366123241237183,-2.6919265429126185,5.695513713150778,1.2435017824172974,-5.534870270882742
1708435900.4528139,-1.7006886005401611,-1.4371879708817978,-2.692669693623678,5.693428504257955,1.2444853782653809,-5.535158161317007
1708435900.4548094,-1.6984598636627197,-1.4376759094050904,-2.6933415571795862,5.691365051060476,1.245534896850586,-5.535397712384359
1708435900.4568212,-1.6962519884109497,-1.438327745800354,-2.6940537134753626,5.689266073494711,1.2464401721954346,-5.5356571714030665
1708435900.4587965,-1.6940183639526367,-1.4388208401254197,-2.6947785059558313,5.687207686692037,1.2474405765533447,-5.535875384007589
