Eg3-git/Classifiers/Data Collection/u3/u3cir5_ur3e_joint_states.csv
time,elbow_joint,shoulder_lift_joint,shoulder_pan_joint,wrist_1_joint,wrist_2_joint,wrist_3_joint
1708435912.4708874,-2.153045654296875,-1.3378910583308716,-2.530278269444601,6.142024028092184,1.024428129196167,-5.483785096799032
1708435912.4728935,-2.153034210205078,-1.337879092698433,-2.530327860509054,6.142000305443563,1.0244027376174927,-5.483809177075521
1708435912.4749472,-2.1530117988586426,-1.3379033368876954,-2.530257050191061,6.14205681064681,1.0244027376174927,-5.48374051252474
1708435912.4768867,-2.1530613899230957,-1.3378556978753586,-2.530297819768087,6.1420490620429895,1.024423599243164,-5.483768765126364
1708435912.4789488,-2.153049945831299,-1.3379163157990952,-2.530297819768087,6.141979324608602,1.024407148361206,-5.483733002339498
1708435912.4808853,-2.1530163288116455,-1.3379075986197968,-2.530285898839132,6.1420525191123865,1.0243769884109497,-5.48378956714739
1708435912.4828856,-2.153034210205078,-1.3378748011640091,-2.530247990285055,6.14199589469985,1.0244399309158325,-5.483768765126364
1708435912.4849072,-2.1530003547668457,-1.3379368794015427,-2.530311409627096,6.142043816834249,1.0244444608688354,-5.483736042176382
1708435912.486893,-2.1530587673187256,-1.3379563105157395,-2.5302932898150843,6.142024028092184,1.024390459060669,-5.483785096799032
1708435912.4889293,-2.1530251502990723,-1.3379206371358414,-2.530306879674093,6.142040240555563,1.024423599243164,-5.4837316314326685
1708435912.4908862,-2.1530542373657227,-1.3378910285285492,-2.5302661100970667,6.142035949021139,1.0244207382202148,-5.483768765126364
1708435912.4929245,-2.1530632972717285,-1.3379249435714264,-2.530278269444601,6.142028319626608,1.0244072675704956,-5.483776156102316
1708435912.4949126,-2.153029680252075,-1.3379401576570054,-2.530311409627096,6.142043816834249,1.0244027376174927,-5.483785096799032
1708435912.4969492,-2.1530046463012695,-1.3379195195487519,-2.530273739491598,6.1419750330741785,1.0243828296661377,-5.483826998864309
1708435912.4989514,-2.153034210205078,-1.3378672909787674,-2.5302768389331263,6.142007815628805,1.0244072675704956,-5.483743433152334
1708435912.5009205,-2.1530542373657227,-1.33792498827491,-2.530285898839132,6.142077314644613,1.0243589878082275,-5.483768765126364
1708435912.5029044,-2.1530702114105225,-1.337874786262848,-2.530311409627096,6.142007815628805,1.0243949890136719,-5.4837884346591395
1708435912.5048895,-2.153038501739502,-1.3379040670445939,-2.530269209538595,6.141966330796041,1.0243754386901855,-5.483768765126364
1708435912.5069134,-2.1530587673187256,-1.3379249584725876,-2.530281368886129,6.142028319626608,1.0243995189666748,-5.483813707028524
1708435912.508929,-2.1530542373657227,-1.3379368794015427,-2.5302661100970667,6.142040240555563,1.024416208267212,-5.48376572528948
1708435912.510871,-2.153049945831299,-1.337904081945755,-2.530299488698141,6.141966450005331,1.024416208267212,-5.483780686055319
1708435912.5128903,-2.153033971786499,-1.3379281622222443,-2.530315939580099,6.142031657486715,1.0244040489196777,-5.48378956714739
1708435912.5148835,-2.152984619140625,-1.3378824156573792,-2.530278269444601,6.1420525191123865,1.0244085788726807,-5.483801786099569
1708435912.516909,-2.1530542373657227,-1.3379325878671189,-2.530306879674093,6.142024028092184,1.0244040489196777,-5.483798448239462
1708435912.5189178,-2.153049945831299,-1.337929145698883,-2.530320469533102,6.142003524094381,1.0244208574295044,-5.483792845402853
1708435912.5209007,-2.1530542373657227,-1.3378963631442566,-2.5302451292621058,6.1420489428337,1.024359107017517,-5.483780686055319
1708435912.5229006,-2.153045654296875,-1.3379195195487519,-2.5302541891681116,6.142031657486715,1.0243889093399048,-5.483801786099569
1708435912.524923,-2.153043031692505,-1.3378953647664567,-2.53030234972109,6.141987311631002,1.0244085788726807,-5.483818177376882
1708435912.5268984,-2.1529934406280518,-1.3378434938243409,-2.530304018651144,6.142035949021139,1.0243635177612305,-5.483792845402853
1708435912.528935,-2.153034210205078,-1.337931440477707,-2.530257050191061,6.14205681064681,1.0243873596191406,-5.483759824429647
1708435912.5308897,-2.1530160903930664,-1.337920607333519,-2.5302873293506067,6.141987311631002,1.0244207382202148,-5.483739022408621
1708435912.5328875,-2.1530206203460693,-1.3379163157990952,-2.5303366819964808,6.142031657486715,1.0243754386901855,-5.483834509049551
1708435912.5348754,-2.1530542373657227,-1.3378748011640091,-2.530304018651144,6.141966330796041,1.024396300315857,-5.483759824429647
1708435912.5369074,-2.153034210205078,-1.3379163157990952,-2.530278269444601,6.142032730370321,1.0244085788726807,-5.483736042176382
1708435912.5389104,-2.153045654296875,-1.337904081945755,-2.530269209538595,6.1419750330741785,1.0243468284606934,-5.48376435438265
1708435912.540896,-2.1530137062072754,-1.3378824156573792,-2.5302706400500696,6.1419880268867395,1.0243422985076904,-5.483736042176382
1708435912.5429018,-2.153029441833496,-1.3379238557866593,-2.530224148427145,6.141966330796041,1.0243635177612305,-5.483727101479666
1708435912.5449018,-2.153038501739502,-1.337961660032608,-2.530273739491598,6.142003524094381,1.0243844985961914,-5.483776156102316
1708435912.54691,-2.153029441833496,-1.3379368794015427,-2.5302496592151087,6.141999113350668,1.0243350267410278,-5.483773175870077
1708435912.548942,-2.1530094146728516,-1.3378910434297104,-2.530315939580099,6.141999232559957,1.0243844985961914,-5.48376435438265
1708435912.5508885,-2.1530656814575195,-1.3379411858371277,-2.5302496592151087,6.141987311631002,1.0243725776672363,-5.483768765126364
1708435912.5529132,-2.153045654296875,-1.337895394568779,-2.530299488698141,6.142028319626608,1.0243394374847412,-5.483752433453695
1708435912.5548956,-2.153079032897949,-1.3378954243711014,-2.530278269444601,6.1420525191123865,1.0243182182312012,-5.483776156102316
1708435912.5569425,-2.1530632972717285,-1.3379574728063126,-2.5302751700030726,6.142117607384481,1.024289608001709,-5.483743433152334
1708435912.5588884,-2.152984619140625,-1.337904081945755,-2.530299488698141,6.141991603165426,1.024294137954712,-5.483801786099569
1708435912.5608952,-2.1530206203460693,-1.3378878396800538,-2.5302661100970667,6.141991603165426,1.024277687072754,-5.483767275010244
1708435912.5628707,-2.1530542373657227,-1.337953121667244,-2.5303247610675257,6.142003524094381,1.0242687463760376,-5.483801786099569
1708435912.5648913,-2.1530587673187256,-1.3379206371358414,-2.5302661100970667,6.142061102181234,1.024336338043213,-5.483747963105337
1708435912.5668917,-2.153033971786499,-1.3379119348577042,-2.5302661100970667,6.1420525191123865,1.024289608001709,-5.48377758661379
1708435912.5689244,-2.153049945831299,-1.337948815231659,-2.530308548604147,6.141983735352316,1.0242912769317627,-5.483792845402853
1708435912.5708878,-2.1530163288116455,-1.3379249584725876,-2.5302706400500696,6.141996013909139,1.0242539644241333,-5.483794037495748
1708435912.5729766,-2.153043031692505,-1.3379368794015427,-2.5302048365222376,6.142061102181234,1.024294137954712,-5.483759824429647
1708435912.5748875,-2.1529979705810547,-1.3379040968469162,-2.5302587191211146,6.141979443817892,1.0242986679077148,-5.483785096799032
1708435912.5769098,-2.1530251502990723,-1.3379170161536713,-2.5302332083331507,6.142031657486715,1.0242793560028076,-5.483779493962423
1708435912.5788882,-2.153049945831299,-1.3378921610168,-2.530224148427145,6.14201973655776,1.0243031978607178,-5.483785096799032
1708435912.5808947,-2.1530251502990723,-1.337911919956543,-2.5302467981921595,6.142035949021139,1.0242704153060913,-5.48376435438265
1708435912.5828903,-2.1530206203460693,-1.3378878396800538,-2.5302394072162073,6.142011034279623,1.024316668510437,-5.48376435438265
1708435912.5849051,-2.1530163288116455,-1.3378953647664567,-2.5301974455462855,6.141979324608602,1.024300217628479,-5.483809236680166
1708435912.5869224,-2.153034210205078,-1.3379411858371277,-2.5302019754992884,6.142031657486715,1.024312138557434,-5.483761254941122
1708435912.5889084,-2.1529977321624756,-1.3379195195487519,-2.5302603880511683,6.142035949021139,1.0242958068847656,-5.483759824429647
1708435912.590884,-2.1530590057373047,-1.3378961992314835,-2.5302065054522913,6.141986238747396,1.024272084236145,-5.483810607586996
1708435912.592937,-2.1530206203460693,-1.3379119348577042,-2.530185047780172,6.14199589469985,1.0242986679077148,-5.483793977891104
1708435912.5948942,-2.1530163288116455,-1.33789977551017,-2.5302110354052942,6.142035949021139,1.0242793560028076,-5.4837510029422205
1708435912.5969684,-2.1530206203460693,-1.3379407537034531,-2.530168596898214,6.142000305443563,1.024312138557434,-5.48377758661379
1708435912.5989377,-2.1530542373657227,-1.3379407984069367,-2.5301476160632532,6.142031657486715,1.0242793560028076,-5.483789507542745
1708435912.6009192,-2.153038501739502,-1.337916226392128,-2.530182186757223,6.141982900887289,1.0242657661437988,-5.4838061968432825
1708435912.6029773,-2.1530117988586426,-1.3378793162158509,-2.530124012623922,6.1419750330741785,1.024312138557434,-5.48376435438265
1708435912.6049073,-2.1529767513275146,-1.3379365813783188,-2.530198637639181,6.1419750330741785,1.0242867469787598,-5.483739022408621
1708435912.6069496,-2.153034210205078,-1.337932364349701,-2.530137364064352,6.141917812615194,1.02432119846344,-5.483748022709982
1708435912.6089413,-2.1530587673187256,-1.3378878396800538,-2.530203167592184,6.141970741539755,1.024300217628479,-5.483759884034292
1708435912.6109235,-2.1530206203460693,-1.3379492473653336,-2.530149284993307,6.14199589469985,1.0243048667907715,-5.48371529976
1708435912.6129303,-2.1530163288116455,-1.337932364349701,-2.5302122274981897,6.142044651299276,1.0242629051208496,-5.4837568441974085
1708435912.614897,-2.1530747413635254,-1.3379449409297486,-2.530203167592184,6.141999232559957,1.0242503881454468,-5.483776156102316
1708435912.6169198,-2.153038501739502,-1.3379323792508622,-2.530198637639181,6.142035949021139,1.0242884159088135,-5.4837568441974085
1708435912.6189024,-2.1530590057373047,-1.3378793162158509,-2.530137364064352,6.142022955208578,1.024300217628479,-5.483761254941122
1708435912.6209145,-2.153043031692505,-1.3379039627364655,-2.5302003065692347,6.142028319626608,1.0242912769317627,-5.483748022709982
1708435912.6229131,-2.153049945831299,-1.3378912222436448,-2.530191246663229,6.142085063248434,1.0243093967437744,-5.483747963105337
1708435912.6249218,-2.1530251502990723,-1.3379196238568802,-2.530207697545187,6.14205681064681,1.0242884159088135,-5.48377758661379
1708435912.6268895,-2.1530702114105225,-1.3378878396800538,-2.5302003065692347,6.142043816834249,1.0242674350738525,-5.483830038701193
1708435912.6288977,-2.1530094146728516,-1.3379196238568802,-2.5301957766162317,6.142003524094381,1.0242550373077393,-5.483777646218435
1708435912.630875,-2.153029441833496,-1.337907688026764,-2.530191246663229,6.142003524094381,1.0242629051208496,-5.483736042176382
1708435912.6329346,-2.1530003547668457,-1.3378997457078476,-2.5301957766162317,6.142035949021139,1.0242748260498047,-5.483770136033193
1708435912.634885,-2.153038501739502,-1.3379162412932892,-2.530140225087301,6.141994821816244,1.024300217628479,-5.483749334012167
1708435912.6369195,-2.1530163288116455,-1.3379366260818024,-2.530198637639181,6.14201973655776,1.024300217628479,-5.48374051252474
1708435912.6389084,-2.153079032897949,-1.3379039776376267,-2.530165735875265,6.14205681064681,1.0242414474487305,-5.483707789574758
1708435912.640903,-2.1530542373657227,-1.337883622651436,-2.530174795781271,6.142031657486715,1.0242913961410522,-5.48374051252474
1708435912.6429205,-2.153043031692505,-1.337879331117012,-2.5302110354052942,6.142035949021139,1.0242639780044556,-5.483773175870077
1708435912.6449132,-2.1530632972717285,-1.337903992538788,-2.530182186757223,6.142011034279623,1.0242584943771362,-5.483719710503713
1708435912.6469293,-2.153043031692505,-1.3379237961820145,-2.530207697545187,6.142043816834249,1.0243092775344849,-5.483700338994161
1708435912.6489139,-2.153047561645508,-1.3378473085216065,-2.530161205922262,6.142031657486715,1.0242674350738525,-5.483737413083212
1708435912.6508877,-2.1530117988586426,-1.3378631335547944,-2.53011924425234,6.142061102181234,1.024272084236145,-5.483707789574758
1708435912.6528938,-2.153049945831299,-1.337895469074585,-2.530186716710226,6.1420525191123865,1.0242629051208496,-5.483756784592764
1708435912.654883,-2.1530117988586426,-1.337920458321907,-2.530137364064352,6.142003524094381,1.0242674350738525,-5.483749334012167
1708435912.6569364,-2.1530160903930664,-1.3379449111274262,-2.530186716710226,6.141999232559957,1.0242539644241333,-5.483786467705862
1708435912.6589086,-2.152984619140625,-1.337903992538788,-2.530215565358297,6.14201973655776,1.0242503881454468,-5.483700338994161
1708435912.660903,-2.1530251502990723,-1.3379323047450562,-2.53017765680422,6.1419904110725305,1.024272084236145,-5.483721081410543
1708435912.6629083,-2.153043031692505,-1.3378589016250153,-2.530215565358297,6.142043816834249,1.0242674350738525,-5.483700338994161
1708435912.6649024,-2.153049945831299,-1.33789977551017,-2.53017765680422,6.142011034279623,1.0242550373077393,-5.483749334012167
1708435912.6669078,-2.153029441833496,-1.337916688328125,-2.530165735875265,6.142002332001486,1.024272084236145,-5.483733002339498
1708435912.6688993,-2.1530959606170654,-1.3379204732230683,-2.530203167592184,6.142003524094381,1.0242550373077393,-5.483709160481588
1708435912.6708813,-2.1530656814575195,-1.3378911924413224,-2.530198637639181,6.142035949021139,1.0242639780044556,-5.483750704918997
1708435912.6729221,-2.153038501739502,-1.337903992538788,-2.530186716710226,6.142077314644613,1.0242458581924438,-5.483741823826925
1708435912.6749036,-2.1530675888061523,-1.3378878396800538,-2.530128542576925,6.141991722374716,1.024213194847107,-5.483733002339498
1708435912.6769247,-2.1530251502990723,-1.3378920716098328,-2.530170265828268,6.1420525191123865,1.0242550373077393,-5.483734432850973
1708435912.678908,-2.1530163288116455,-1.337903992538788,-2.530241076146261,6.142055737763204,1.0242658853530884,-5.483713571225302
1708435912.680904,-2.1530094146728516,-1.3378836077502747,-2.530173126851217,6.142060029297628,1.0242793560028076,-5.483695928250448
1708435912.6828978,-2.1530160903930664,-1.3378954392722626,-2.530173126851217,6.1420569298561,1.0242540836334229,-5.48369282880892
1708435912.6849034,-2.1530542373657227,-1.3378836077502747,-2.530198637639181,6.142040240555563,1.0243165493011475,-5.48369282880892
1708435912.686892,-2.1530163288116455,-1.3378751140883942,-2.530158344899313,6.142040240555563,1.0242793560028076,-5.4836435357676905
1708435912.6889176,-2.1530137062072754,-1.3379076731256028,-2.53017765680422,6.141998040467062,1.0242630243301392,-5.483680550252096
1708435912.6908839,-2.1530048847198486,-1.3378792715123673,-2.530191246663229,6.142031657486715,1.0243257284164429,-5.483680550252096
1708435912.6928926,-2.153049945831299,-1.337911919956543,-2.53017765680422,6.142006742745199,1.024288535118103,-5.483689490948812
1708435912.69491,-2.1530542373657227,-1.337936521773674,-2.530161205922262,6.142076241761007,1.0242630243301392,-5.483710650597708
1708435912.6968908,-2.153038501739502,-1.3378997308066864,-2.530186716710226,6.142101514130392,1.02432119846344,-5.483652416859762
1708435912.6989408,-2.1530251502990723,-1.3378912073424836,-2.53015381494631,6.14201973655776,1.0242459774017334,-5.483698372040884
1708435912.70092,-2.1529934406280518,-1.3378432107022782,-2.5302200953113,6.141978490143575,1.0242503881454468,-5.483706180249349
1708435912.702997,-2.153034210205078,-1.3378878843835373,-2.5302065054522913,6.142043816834249,1.0242630243301392,-5.483637396489279
1708435912.7048993,-2.1530675888061523,-1.337928057914116,-2.530161205922262,6.142039525299825,1.024283766746521,-5.483673099671499
1708435912.7069314,-2.1530251502990723,-1.3379162412932892,-2.53017765680422,6.142060029297628,1.0242884159088135,-5.48364490667452
1708435912.7089376,-2.1530590057373047,-1.3378517192653199,-2.53017765680422,6.142015445023336,1.0242912769317627,-5.483673159276144
1708435912.710887,-2.1530702114105225,-1.337883622651436,-2.5302122274981897,6.14201973655776,1.0242793560028076,-5.483673099671499
1708435912.7129073,-2.153043031692505,-1.3378997606090088,-2.530144755040304,6.1420525191123865,1.0243048667907715,-5.483632985745565
1708435912.7149234,-2.1530251502990723,-1.337883637552597,-2.530215565358297,6.142035949021139,1.0242584943771362,-5.483689550553457
1708435912.7168984,-2.1530117988586426,-1.3379161369851609,-2.530198637639181,6.142003524094381,1.0242584943771362,-5.483649317418234
1708435912.71891,-2.153034210205078,-1.337923825984337,-2.530165735875265,6.142006742745199,1.0242630243301392,-5.483665649090902
1708435912.7209303,-2.153034210205078,-1.3378750544837494,-2.530168596898214,6.142088520317831,1.0242414474487305,-5.483723823224203
1708435912.722894,-2.1530251502990723,-1.3378920716098328,-2.530161205922262,6.142055737763204,1.0243076086044312,-5.483665649090902
1708435912.7249062,-2.1530544757843018,-1.337892086510994,-2.530156675969259,6.1421090243156335,1.024312138557434,-5.483681980763571
1708435912.726877,-2.153034210205078,-1.3379280728152771,-2.530189577733175,6.142071950226583,1.024220585823059,-5.483652416859762
1708435912.7288966,-2.1530163288116455,-1.337936521773674,-2.530182186757223,6.142043816834249,1.024295687675476,-5.483693901692526
1708435912.730895,-2.152980327606201,-1.3378954839757462,-2.530173126851217,6.142071950226583,1.0242704153060913,-5.483628575001852
1708435912.7329004,-2.153038501739502,-1.3378878843835373,-2.530173126851217,6.14201973655776,1.0242912769317627,-5.483702723179952
1708435912.734894,-2.1530094146728516,-1.3378997159055253,-2.530194107686178,6.142039525299825,1.0242822170257568,-5.483656827603475
1708435912.736925,-2.153038501739502,-1.3379399639419098,-2.53017765680422,6.142068731575765,1.0243031978607178,-5.483681921158926
1708435912.7389128,-2.153043031692505,-1.3378912222436448,-2.530198637639181,6.142071950226583,1.0243076086044312,-5.483677570019857
1708435912.7409203,-2.1530137062072754,-1.3379280728152771,-2.5302274862872522,6.142092811852255,1.0242868661880493,-5.48362106481661
1708435912.742882,-2.1530251502990723,-1.337858871822693,-2.530194107686178,6.142014133721151,1.0243031978607178,-5.483677570019857
1708435912.7449074,-2.1530160903930664,-1.337933213715889,-2.530131165181295,6.142067658692159,1.0242912769317627,-5.483674470578329
1708435912.746888,-2.1530253887176514,-1.3378836524537583,-2.530173126851217,6.142063247948446,1.0242822170257568,-5.483661238347189
1708435912.7489035,-2.1530094146728516,-1.3378750693849106,-2.5301805178271692,6.142088520317831,1.0242704153060913,-5.483632985745565
1708435912.7508912,-2.153017997741699,-1.3378750395825882,-2.5302065054522913,6.142063247948446,1.0243077278137207,-5.483677570019857
1708435912.7528937,-2.1530542373657227,-1.33789977551017,-2.53017765680422,6.142018663674154,1.0243031978607178,-5.483632985745565
1708435912.7549083,-2.1530251502990723,-1.3379407984069367,-2.530185047780172,6.142060029297628,1.0242986679077148,-5.483693901692526
1708435912.756969,-2.1530632972717285,-1.3379034113935013,-2.5302110354052942,6.1420806525047205,1.024294137954712,-5.483636085187094
1708435912.7589018,-2.1530590057373047,-1.3378750842860718,-2.5302065054522913,6.142009961396017,1.024294137954712,-5.48360783258547
1708435912.760908,-2.153029441833496,-1.3378792864135285,-2.530168596898214,6.141998159676351,1.0243031978607178,-5.483674470578329
1708435912.76291,-2.1529934406280518,-1.3379246604493638,-2.530182186757223,6.142039525299825,1.0243349075317383,-5.483673159276144
1708435912.7648942,-2.1530094146728516,-1.337891237144806,-2.530185047780172,6.142092811852255,1.0243604183197021,-5.483677570019857
1708435912.7668903,-2.153022527694702,-1.3379118901542206,-2.530182186757223,6.142092811852255,1.024289608001709,-5.483612243329183
1708435912.7689242,-2.153017997741699,-1.3378547740033646,-2.530168596898214,6.142079818039694,1.0243394374847412,-5.48364490667452
1708435912.7709103,-2.1529722213745117,-1.33792798340831,-2.5302019754992884,6.142071950226583,1.0243439674377441,-5.483652416859762
1708435912.7729003,-2.1530137062072754,-1.3379288625768204,-2.5302303473102015,6.142043816834249,1.0243350267410278,-5.483632985745565
1708435912.774904,-2.153017997741699,-1.337883622651436,-2.5302019754992884,6.1420514462287805,1.0243394374847412,-5.48364490667452
1708435912.7769046,-2.1530046463012695,-1.3378717017224808,-2.530260149632589,6.142030703812399,1.0243513584136963,-5.483693901692526
1708435912.7789142,-2.1530251502990723,-1.33789977551017,-2.5302184263812464,6.142014252930441,1.0243680477142334,-5.48361969390978
1708435912.7809029,-2.1530046463012695,-1.33789977551017,-2.530189577733175,6.142117726593771,1.0243680477142334,-5.4836241642581385
1708435912.7829194,-2.153029441833496,-1.3378878247788926,-2.5302603880511683,6.142088520317831,1.0243500471115112,-5.483632985745565
1708435912.7849104,-2.1530137062072754,-1.3378793609193345,-2.5302467981921595,6.1420806525047205,1.0243500471115112,-5.483677570019857
1708435912.7868884,-2.152988910675049,-1.3378878247788926,-2.5302258173571985,6.142047035485067,1.0243635177612305,-5.48364490667452
1708435912.7889104,-2.1530094146728516,-1.3378750395825882,-2.5302513281451624,6.142092811852255,1.0243589878082275,-5.483719352875845
1708435912.790902,-2.153047561645508,-1.337883622651436,-2.5302303473102015,6.142018663674154,1.0243782997131348,-5.483665649090902
1708435912.7929146,-2.1530094146728516,-1.337907688026764,-2.5302467981921595,6.142060029297628,1.0244536399841309,-5.483664278184072
1708435912.7948964,-2.1529767513275146,-1.3378954243711014,-2.5302332083331507,6.142039525299825,1.02443265914917,-5.483587090169088
1708435912.7969344,-2.153038263320923,-1.3378912222436448,-2.5302796999560755,6.142079818039694,1.0244027376174927,-5.48361969390978
1708435912.7989342,-2.153029441833496,-1.3378716868213196,-2.5302615801440638,6.142031657486715,1.0243949890136719,-5.483652416859762
1708435912.8008897,-2.1529934406280518,-1.3378869754127045,-2.5302918593036097,6.142039525299825,1.0244264602661133,-5.483697239552633
1708435912.802927,-2.1530473232269287,-1.3378962588361283,-2.530299488698141,6.141994821816244,1.0244371891021729,-5.483656827603475
1708435912.8049028,-2.153071880340576,-1.3379204136184235,-2.530323330556051,6.14210473278121,1.024465799331665,-5.483706180249349
1708435912.8069181,-2.1530094146728516,-1.3379039776376267,-2.530269209538595,6.1420960305030725,1.024411678314209,-5.4836687485324305
1708435912.8089163,-2.1529722213745117,-1.3379407835057755,-2.530335251485006,6.142063247948446,1.0244476795196533,-5.483671788369314
1708435912.8108873,-2.1529767513275146,-1.3378911924413224,-2.530318800603048,6.1420514462287805,1.024411678314209,-5.483677570019857
1708435912.8128965,-2.153017997741699,-1.3378912073424836,-2.5303502718554896,6.142048227577963,1.0244145393371582,-5.483722452317373
1708435912.8148675,-2.152939558029175,-1.3378878396800538,-2.5303593317614954,6.142113435059347,1.0244191884994507,-5.483647886906759
1708435912.816894,-2.1529810428619385,-1.3378674697927018,-2.5302932898150843,6.142084228783407,1.0244355201721191,-5.483680550252096
1708435912.8189147,-2.152988910675049,-1.3378878396800538,-2.5303548018084925,6.142035233765402,1.0244190692901611,-5.4836687485324305
1708435912.820873,-2.1529767513275146,-1.337838814859726,-2.5303428808795374,6.142060029297628,1.0244522094726562,-5.483655456696646
1708435912.8229067,-2.152988910675049,-1.3378716868213196,-2.5303216616259974,6.1420384524162195,1.0244596004486084,-5.483697239552633
1708435912.8249059,-2.1529979705810547,-1.3378685724786301,-2.5303383509265345,6.14210473278121,1.0244234800338745,-5.483709160481588
1708435912.8268788,-2.1530022621154785,-1.337916226392128,-2.5303247610675257,6.142103659897604,1.0244641304016113,-5.483725551758901
1708435912.8289182,-2.1530022621154785,-1.3379039776376267,-2.5303261915790003,6.142091738968649,1.0245184898376465,-5.48372990289797
1708435912.8308873,-2.153033971786499,-1.337904007439949,-2.5303097406970423,6.142047035485067,1.0244505405426025,-5.48371667066683
1708435912.832961,-2.153033971786499,-1.3378675293973465,-2.5303638617144983,6.142076241761007,1.0244927406311035,-5.483686987553732
1708435912.8348901,-2.1529979705810547,-1.337883622651436,-2.5302932898150843,6.142067658692159,1.0244596004486084,-5.483734373246328
1708435912.836928,-2.152968645095825,-1.3379280728152771,-2.5303548018084925,6.142084228783407,1.0245048999786377,-5.483707789574758
1708435912.838917,-2.153033971786499,-1.337892086510994,-2.5302842299090784,6.142084228783407,1.0244791507720947,-5.48376709619631
1708435912.8409228,-2.1529600620269775,-1.337940828209259,-2.530314270650045,6.142139661103048,1.0244702100753784,-5.483789447938101
1708435912.8429356,-2.153029441833496,-1.3378997457078476,-2.5303383509265345,6.14209936836318,1.0245286226272583,-5.4837820569621485
1708435912.8449244,-2.1530065536499023,-1.3378516298583527,-2.5303307215320032,6.142078745156088,1.0244988203048706,-5.483793918286459
1708435912.84692,-2.1529898643493652,-1.3379081946662446,-2.5303593317614954,6.142119872360983,1.0245286226272583,-5.48374051252474
1708435912.8489187,-2.153029441833496,-1.3378912073424836,-2.5303383509265345,6.142090666085043,1.0244896411895752,-5.483747963105337
1708435912.8509047,-2.153026819229126,-1.3379441511682053,-2.5303714911090296,6.142119157105245,1.0245405435562134,-5.4838136474238794
1708435912.8529437,-2.1529855728149414,-1.3379118901542206,-2.5303669611560267,6.1421851990516565,1.024531602859497,-5.483710889016287
1708435912.8548894,-2.1530137062072754,-1.3378878396800538,-2.5303669611560267,6.142191874771871,1.0245651006698608,-5.483736161385671
1708435912.8569324,-2.1529810428619385,-1.3379204732230683,-2.5303457419024866,6.1421875832374475,1.0245224237442017,-5.483773175870077
1708435912.858923,-2.1530094146728516,-1.3378708076528092,-2.5304086844073694,6.142232286721029,1.0245723724365234,-5.483759884034292
1708435912.86093,-2.1530518531799316,-1.3379365664771576,-2.5303669611560267,6.142199504166403,1.0245814323425293,-5.483751062546865
1708435912.862935,-2.15303111076355,-1.3378835928491135,-2.5303967634784144,6.142199504166403,1.0245559215545654,-5.483780686055319
1708435912.8649158,-2.1529855728149414,-1.3378800761750718,-2.5303831736194056,6.142199504166403,1.0245016813278198,-5.483768824731008
1708435912.8669271,-2.1530110836029053,-1.3379484725049515,-2.5303624312030237,6.142212497978964,1.0245678424835205,-5.483801726494924
1708435912.8689167,-2.152994155883789,-1.3378394109061738,-2.5303457419024866,6.14225600936965,1.0246009826660156,-5.483771804963247
1708435912.8708894,-2.1530094146728516,-1.3378675144961854,-2.5303502718554896,6.142211425095358,1.0245678424835205,-5.483780686055319
1708435912.8729153,-2.152973175048828,-1.3379323941520234,-2.5303338209735315,6.1421875832374475,1.024599313735962,-5.483759884034292
1708435912.874917,-2.1529529094696045,-1.3378589314273377,-2.5303998629199427,6.142236697464742,1.0246373414993286,-5.4837884346591395
1708435912.8769436,-2.1530110836029053,-1.337875099187233,-2.530390803013937,6.142227995186605,1.02461576461792,-5.483784023915426
1708435912.8788946,-2.1529810428619385,-1.3379448813251038,-2.5303953329669397,6.142232286721029,1.0246202945709229,-5.483821038399832
1708435912.8809175,-2.1529643535614014,-1.337916226392128,-2.530402723942892,6.142150509148397,1.0246038436889648,-5.483812216912405
1708435912.8829193,-2.1529643535614014,-1.3378870797208329,-2.5303714911090296,6.142199504166403,1.024590253829956,-5.48375112215151
1708435912.884907,-2.152973175048828,-1.3379077178290864,-2.530353371297018,6.142154800682821,1.0245946645736694,-5.483817998562948
1708435912.8869078,-2.1530110836029053,-1.3378559362939377,-2.5303366819964808,6.142224299698629,1.0246236324310303,-5.483792845402853
1708435912.8889043,-2.1529855728149414,-1.3378474426320572,-2.530390803013937,6.1421790001686,1.02461576461792,-5.48382550874819
1708435912.8909135,-2.152994155883789,-1.3379238557866593,-2.530414644871847,6.142220008164205,1.0246111154556274,-5.483877483998434
1708435912.8929288,-2.1529617309570312,-1.3379238706878205,-2.5303338209735315,6.142159092217245,1.0246609449386597,-5.483824555073873
1708435912.894894,-2.152981758117676,-1.3379119348577042,-2.530386273060934,6.142162787705221,1.0246565341949463,-5.483837727700369
1708435912.8969443,-2.1530182361602783,-1.33789977551017,-2.5304115454303187,6.142137396126547,1.0246111154556274,-5.483833316956655
1708435912.8989294,-2.152968645095825,-1.3378391426852723,-2.530365292225973,6.1421790001686,1.0246446132659912,-5.483858112488882
1708435912.9010386,-2.1529855728149414,-1.337932513361313,-2.53041917482485,6.1421453831489465,1.0246851444244385,-5.483856860791342
1708435912.9029205,-2.152998685836792,-1.3379206222346802,-2.530423704777853,6.142199623375692,1.0246639251708984,-5.483816627656118
1708435912.9049225,-2.1530110836029053,-1.3379084330848237,-2.5303834120379847,6.142211425095358,1.0246400833129883,-5.483882013951437
1708435912.9069533,-2.1529572010040283,-1.337874860768654,-2.530374352131979,6.142220008164205,1.0246772766113281,-5.483894173298971
1708435912.9089317,-2.1530022621154785,-1.3379119050553818,-2.530405584965841,6.142199504166403,1.0246564149856567,-5.483812216912405
1708435912.9109225,-2.1530470848083496,-1.3379075837186356,-2.530431095753805,6.142220008164205,1.0246236324310303,-5.483856860791342
1708435912.912947,-2.152994155883789,-1.3378585887006302,-2.530398193989889,6.142220008164205,1.0246684551239014,-5.483852450047628
1708435912.914897,-2.152973175048828,-1.3378585588983078,-2.530410114918844,6.142195212631979,1.0246564149856567,-5.48383611837496
1708435912.9169242,-2.152977466583252,-1.3378997457078476,-2.530386273060934,6.142154800682821,1.0246806144714355,-5.483881000672476
1708435912.9188929,-2.152973175048828,-1.33791637540374,-2.530332152043478,6.142203795700826,1.0246593952178955,-5.483872119580404
1708435912.9209049,-2.152977466583252,-1.3378426146558304,-2.530381743107931,6.142239796906271,1.0246851444244385,-5.483852450047628
1708435912.9229534,-2.152998685836792,-1.3378997606090088,-2.530390803013937,6.14220820644454,1.0246593952178955,-5.483843568955557
1708435912.9249017,-2.1529862880706787,-1.3378910434297104,-2.530344311391012,6.142142879753866,1.024659276008606,-5.483888451253073
1708435912.926913,-2.1529529094696045,-1.337879092698433,-2.530369822178976,6.142224418907919,1.0246925354003906,-5.483859900628225
1708435912.9289098,-2.152998685836792,-1.3379607063582917,-2.530414644871847,6.142171370774069,1.0246999263763428,-5.483872119580404
1708435912.9309006,-2.1530065536499023,-1.3379084032825013,-2.530377213154928,6.1421416876609705,1.0246999263763428,-5.483867708836691
1708435912.9329355,-2.152981996536255,-1.3378673207810898,-2.530440155659811,6.142195212631979,1.0247422456741333,-5.483814064656393
1708435912.934926,-2.153026819229126,-1.3379119050553818,-2.530368153248922,6.142220008164205,1.0247211456298828,-5.483904782925741
1708435912.9369402,-2.1529369354248047,-1.3379084181836625,-2.530377451573507,6.1422027228172205,1.0246671438217163,-5.483909193669454
1708435912.938923,-2.1529486179351807,-1.3378556680730362,-2.530435625706808,6.1421790001686,1.0246716737747192,-5.483875159417288
1708435912.940914,-2.152973175048828,-1.33788354814563,-2.530402723942892,6.142170297890463,1.02473783493042,-5.483900372182028
1708435912.942911,-2.152994394302368,-1.3379281622222443,-2.530390803013937,6.14220808723525,1.024713397026062,-5.483884040509359
1708435912.9449148,-2.1529290676116943,-1.3379291606000443,-2.530452315007345,6.142163502960958,1.0246999263763428,-5.483933333550588
1708435912.9469004,-2.152998685836792,-1.337854267363884,-2.530410114918844,6.1421875832374475,1.0246880054473877,-5.483837966118948
1708435912.9489121,-2.152973175048828,-1.3378747713616868,-2.530410114918844,6.142211305886068,1.0246999263763428,-5.483933273945944
1708435912.9508898,-2.152970314025879,-1.33789977551017,-2.530389134083883,6.1421790001686,1.0246412754058838,-5.483942155038015
1708435912.952891,-2.152977466583252,-1.3379488003304978,-2.530426565800802,6.1421790001686,1.0247166156768799,-5.483903471623556
1708435912.9549067,-2.152973175048828,-1.3379206371358414,-2.530410114918844,6.142184483795919,1.0247166156768799,-5.483879629765646
1708435912.9569108,-2.152966022491455,-1.3379205924323578,-2.5304344336139124,6.142183291703024,1.0247043371200562,-5.483884040509359
1708435912.9589193,-2.152973175048828,-1.3378790777972718,-2.530381743107931,6.142220008164205,1.0246760845184326,-5.4838765303241175
1708435912.9608989,-2.1530022621154785,-1.3378997457078476,-2.5303965250598353,6.142183291703024,1.0246671438217163,-5.48394209543337
1708435912.9629197,-2.1529600620269775,-1.3378748160651703,-2.5304434935199183,6.142196285515585,1.0246834754943848,-5.483903471623556
1708435912.9649081,-2.152998685836792,-1.3379281622222443,-2.530417505894796,6.142175662308492,1.0247043371200562,-5.483909193669454
1708435912.9669342,-2.152994155883789,-1.3379563105157395,-2.530377213154928,6.1422157166297815,1.0246491432189941,-5.483928922806875
1708435912.9689295,-2.1530110836029053,-1.337891013627388,-2.530417505894796,6.1421790001686,1.02473783493042,-5.483953718339102
1708435912.9709065,-2.153017997741699,-1.3378586036017914,-2.5304673353778284,6.142203795700826,1.0246760845184326,-5.483895961438314
1708435912.9729147,-2.152994155883789,-1.3379368645003815,-2.5304344336139124,6.1422005770500085,1.0247211456298828,-5.483949307595388
1708435912.9749207,-2.1529486179351807,-1.337891013627388,-2.530410114918844,6.142203795700826,1.02473783493042,-5.483895961438314
1708435912.9769177,-2.1529898643493652,-1.3379443895867844,-2.530426565800802,6.142191874771871,1.0246580839157104,-5.483884100114004
1708435912.9789205,-2.1530065536499023,-1.337945432668068,-2.530422035847799,6.142129885941305,1.0247044563293457,-5.483920160924093
1708435912.9809234,-2.152968645095825,-1.3378748011640091,-2.5304389635669153,6.142211425095358,1.0247211456298828,-5.483949307595388
1708435912.9829054,-2.1529862880706787,-1.3379530769637604,-2.530426565800802,6.142195093422689,1.0246999263763428,-5.483895961438314
1708435912.9849286,-2.1530067920684814,-1.3378953498652955,-2.530422035847799,6.142183291703024,1.0247255563735962,-5.483924452458517
1708435912.9869118,-2.1529414653778076,-1.33792498827491,-2.530401055012838,6.142138469010153,1.0247423648834229,-5.483933333550588
1708435912.9889266,-2.1530067920684814,-1.3378835183433075,-2.5304599444018763,6.142147290497579,1.024728775024414,-5.483933333550588
1708435912.9908938,-2.152966022491455,-1.337960572247841,-2.530431095753805,6.142138588219442,1.0246789455413818,-5.483879629765646
1708435912.992987,-2.152954578399658,-1.3378759187510987,-2.5304344336139124,6.142175662308492,1.024690866470337,-5.483953658734457
1708435912.9948986,-2.1529078483581543,-1.3379368495992203,-2.5304253737079065,6.142191874771871,1.0247044563293457,-5.48394495645632
1708435912.9969332,-2.152933359146118,-1.3378513169339676,-2.530422035847799,6.142175662308492,1.0246835947036743,-5.483887199555532
1708435912.998978,-2.152977466583252,-1.3379163456014176,-2.530414644871847,6.142175662308492,1.0246716737747192,-5.483875159417288
1708435913.000919,-2.152937889099121,-1.337904081945755,-2.530417505894796,6.142200696259298,1.0246999263763428,-5.483879689370291
1708435913.0029194,-2.152933359146118,-1.3379281622222443,-2.530426565800802,6.1421265480811975,1.0246999263763428,-5.483896021042959
1708435913.0049021,-2.1529502868652344,-1.3379206967404862,-2.5304554144488733,6.142126667290487,1.0246789455413818,-5.483940426503317
1708435913.0069292,-2.152970314025879,-1.3379119050553818,-2.530401055012838,6.142167794495382,1.024692416191101,-5.483916644250051
1708435913.0089278,-2.152974843978882,-1.3378835630467911,-2.530422035847799,6.14216028431014,1.0246999263763428,-5.483867708836691
1708435913.010874,-2.152970314025879,-1.337858573799469,-2.530389134083883,6.142098295479574,1.0246789455413818,-5.483900312577383
1708435913.0129054,-2.1529290676116943,-1.3378989112428208,-2.5304837862597864,6.142193066864767,1.0246880054473877,-5.483909193669454
1708435913.0148776,-2.152942180633545,-1.33792498827491,-2.530464474354879,6.142132150917806,1.0247043371200562,-5.483888451253073
1708435913.0168757,-2.152916431427002,-1.3378705245307465,-2.5304434935199183,6.142119872360983,1.024692416191101,-5.483925525342123
1708435913.0188935,-2.1529617309570312,-1.337944434290268,-2.5303800741778772,6.142087447434225,1.024708867073059,-5.483904723321096
1708435913.0208929,-2.152933359146118,-1.3378835183433075,-2.530426565800802,6.1420960305030725,1.0246760845184326,-5.483918134366171
1708435913.0228827,-2.152937889099121,-1.3379606914571305,-2.5304434935199183,6.142084228783407,1.0246715545654297,-5.483872119580404
1708435913.0249083,-2.1529059410095215,-1.3378878396800538,-2.5304673353778284,6.14201973655776,1.0246716737747192,-5.483883980904714
1708435913.026877,-2.1528847217559814,-1.3379163157990952,-2.530431095753805,6.141962992935934,1.0246835947036743,-5.483881000672476
1708435913.0289063,-2.1529102325439453,-1.3379526448300858,-2.530393664036886,6.141967522888937,1.0246684551239014,-5.483864370976583
1708435913.0309021,-2.1528892517089844,-1.3379484725049515,-2.530410114918844,6.141935097962179,1.0246925354003906,-5.483868781720297
1708435913.032944,-2.1529271602630615,-1.3378759187510987,-2.530372683201925,6.14188705661849,1.0246999263763428,-5.483852450047628
1708435913.0349011,-2.1529102325439453,-1.337908224468567,-2.5304463545428675,6.141878354340353,1.0246834754943848,-5.483902994786398
1708435913.0368886,-2.1528663635253906,-1.3379365813783188,-2.530414644871847,6.141867267876425,1.0246925354003906,-5.483788494263784
1708435913.0389135,-2.1528618335723877,-1.337826670413353,-2.530410114918844,6.141864049225607,1.0246102809906006,-5.483830038701193
1708435913.0408914,-2.152902364730835,-1.3378750544837494,-2.530431095753805,6.141847479134359,1.0246760845184326,-5.483797315751211
1708435913.0429018,-2.1528236865997314,-1.3378793162158509,-2.530414644871847,6.1418648836906335,1.024605631828308,-5.483834389840261
1708435913.044907,-2.152845859527588,-1.337839425807335,-2.530377213154928,6.141767012863912,1.0246429443359375,-5.483719829713003
1708435913.046911,-2.1528544425964355,-1.337883622651436,-2.5304389635669153,6.141713726311483,1.0246355533599854,-5.483736161385671
1708435913.0489094,-2.1528098583221436,-1.3378759187510987,-2.530431095753805,6.141711580544271,1.0246819257736206,-5.483737413083212
1708435913.0508878,-2.152830123901367,-1.337867484693863,-2.530365292225973,6.141687500267782,1.0246400833129883,-5.483713571225302
1708435913.052897,-2.152830123901367,-1.3378962141326447,-2.530410114918844,6.141634094506063,1.0246491432189941,-5.48369282880892
1708435913.0549142,-2.1528406143188477,-1.3378477853587647,-2.530381743107931,6.141635167389669,1.0246111154556274,-5.483649317418234
1708435913.0568898,-2.152777910232544,-1.3378308874419709,-2.530353609715597,6.1415501711662195,1.0246201753616333,-5.483641807232992
1708435913.0588927,-2.152777910232544,-1.3378558617881318,-2.53041917482485,6.141592848091879,1.0245829820632935,-5.483592514191763
1708435913.0608776,-2.152770757675171,-1.3378642362407227,-2.530369822178976,6.141482817917623,1.0245587825775146,-5.483609143887655
1708435913.062905,-2.152743339538574,-1.3378520768931885,-2.5304115454303187,6.141487943917074,1.0245633125305176,-5.483547929917471
1708435913.0648844,-2.1527099609375,-1.3378642362407227,-2.530381743107931,6.1414610026176355,1.0245739221572876,-5.4835286180125635
1708435913.0669131,-2.152747869491577,-1.3378717017224808,-2.530372683201925,6.141413080483236,1.024519681930542,-5.483553711568014
1708435913.06889,-2.1526551246643066,-1.3378436130336304,-2.530431095753805,6.141278850823202,1.0244914293289185,-5.483492557202474
1708435913.0708926,-2.1526577472686768,-1.3378605407527466,-2.5303366819964808,6.141268241196432,1.0244988203048706,-5.48349249759783
1708435913.072932,-2.1526057720184326,-1.3378605407527466,-2.530374352131979,6.141212332039633,1.0245331525802612,-5.483452324067251
1708435913.0749109,-2.1526215076446533,-1.3378443729928513,-2.5303624312030237,6.141148197441854,1.0244550704956055,-5.48342860141863
1708435913.0769172,-2.1525862216949463,-1.3378282350352784,-2.5303412119494837,6.141116487770834,1.0245016813278198,-5.483433012162344
1708435913.0789149,-2.152541160583496,-1.3378206354430695,-2.5303953329669397,6.141049372940817,1.024438738822937,-5.483422342930929
1708435913.0809019,-2.1525588035583496,-1.3378006976893921,-2.5303247610675257,6.14090775230483,1.0244567394256592,-5.483349327241079
1708435913.0829303,-2.1525235176086426,-1.3378210824779053,-2.5303216616259974,6.140835630684652,1.0244072675704956,-5.483334247265951
1708435913.0849097,-2.152487277984619,-1.337776095872261,-2.5303760210620325,6.140760767250814,1.024423599243164,-5.483293835316793
1708435913.0868998,-2.1524581909179688,-1.3377487820437928,-2.5303474108325403,6.140651571541586,1.0243754386901855,-5.483238641415731
1708435913.0889208,-2.1524219512939453,-1.3377930086902161,-2.5303261915790003,6.140600430756368,1.0243545770645142,-5.4831740895854395
1708435913.0909393,-2.1523990631103516,-1.3378133934787293,-2.5302723089801233,6.14050458648757,1.0243349075317383,-5.483126405869619
1708435913.092981,-2.1523661613464355,-1.337695763712265,-2.530269209538595,6.1404281733329675,1.0243198871612549,-5.48307848373522
1708435913.0949166,-2.1523971557617188,-1.3377043169787903,-2.530278269444601,6.140348899155416,1.024277687072754,-5.48298150697817
1708435913.0969205,-2.152323007583618,-1.3377119165709992,-2.530269209538595,6.1402073977287195,1.024272084236145,-5.482942823563711
1708435913.0989742,-2.1522865295410156,-1.3376555305770417,-2.5302332083331507,6.140124547272482,1.0242594480514526,-5.4828917423831385
1708435913.100911,-2.152226686477661,-1.3376682263663788,-2.5302496592151087,6.140050399094381,1.0241936445236206,-5.482802275811331
1708435913.102963,-2.1522109508514404,-1.3376974028399964,-2.5302332083331507,6.139953481941976,1.0241906642913818,-5.482759181653158
1708435913.1049342,-2.1521902084350586,-1.337676690225937,-2.5302677790271204,6.139821517258444,1.0241363048553467,-5.482740704213278
1708435913.1069024,-2.152208089828491,-1.337637023334839,-2.5302422682391565,6.139717209130087,1.0241498947143555,-5.482656006013052
1708435913.1089242,-2.1521401405334473,-1.3376455766013642,-2.530135695134298,6.139556872635641,1.0241138935089111,-5.482575301324026
1708435913.110902,-2.152088165283203,-1.3375642013600846,-2.530170265828268,6.1394535181816,1.02412748336792,-5.482536200677053
1708435913.112931,-2.1521055698394775,-1.3375896376422425,-2.5301881472217005,6.139375078469076,1.0240825414657593,-5.482497517262594
1708435913.114905,-2.1519997119903564,-1.3375491958907624,-2.5301087538348597,6.139279234200277,1.0240657329559326,-5.482433203850881
1708435913.1169293,-2.15201735496521,-1.337528483276703,-2.5301058928119105,6.139086353569784,1.0240672826766968,-5.482422117386953
1708435913.1188912,-2.1519722938537598,-1.33751733720813,-2.5300892035113733,6.139019953995504,1.0240130424499512,-5.482326571141378
1708435913.1209142,-2.1519203186035156,-1.3374927204898377,-2.530107323323385,6.138809668808737,1.02402663230896,-5.48218417564501
1708435913.1229005,-2.1518726348876953,-1.3374371093562623,-2.530081812535421,6.138686525612631,1.0239906311035156,-5.4821164051639
1708435913.124921,-2.151799201965332,-1.3374897998622437,-2.530086342488424,6.138557898789205,1.0239546298980713,-5.48208207288851
1708435913.1271856,-2.1517603397369385,-1.3374217313579102,-2.530020062123434,6.138497102051534,1.0239096879959106,-5.481989626084463
1708435913.1289122,-2.151745319366455,-1.3373530966094513,-2.530053202305929,6.138242113381185,1.0239157676696777,-5.481957976018087
1708435913.1309054,-2.1516942977905273,-1.3373573285392304,-2.5300007502185267,6.1381497261817834,1.0238585472106934,-5.481911603604452
1708435913.132893,-2.1516048908233643,-1.3373538714698334,-2.5300262610064905,6.138088452606954,1.0238630771636963,-5.481860582028524
1708435913.134884,-2.151556968688965,-1.3373261255076905,-2.529952589665548,6.137940394669332,1.0237936973571777,-5.481754783784048
1708435913.1369147,-2.151500701904297,-1.337293491964676,-2.529999558125631,6.137772547989645,1.0237458944320679,-5.481607321892874
1708435913.1388907,-2.151423692703247,-1.3372498911670228,-2.52993613878359,6.137628185539999,1.023684024810791,-5.481629196797506
1708435913.1408868,-2.151355743408203,-1.3372056794217606,-2.5299094359027308,6.137444007187643,1.0236693620681763,-5.481533590947286
1708435913.142918,-2.151346206665039,-1.3372064393809815,-2.5299111048327845,6.137345540314474,1.023612141609192,-5.4813919703113
1708435913.1448965,-2.1512210369110107,-1.3371865910342713,-2.5298898855792444,6.137157547264852,1.0236060619354248,-5.48137349287142
1708435913.1469085,-2.1511669158935547,-1.3371344369700928,-2.5298538843738,6.136957156449117,1.0235234498977661,-5.481253031884329
1708435913.148893,-2.151142120361328,-1.337126986389496,-2.529846493397848,6.136829721718588,1.023529291152954,-5.481164757405416
1708435913.1508904,-2.1510422229766846,-1.3371108335307618,-2.529858414326803,6.136661636620321,1.0235141515731812,-5.481101695691244
1708435913.1529217,-2.150977849960327,-1.3370425266078492,-2.529775921498434,6.136485326081075,1.0234284400939941,-5.481026772652761
1708435913.1548932,-2.1509220600128174,-1.337022678261139,-2.5298028627978724,6.136305558472433,1.0234498977661133,-5.480901781712667
1708435913.1569157,-2.1508374214172363,-1.3369983446649094,-2.5297864119159144,6.1360933659370325,1.0233805179595947,-5.480822447930471
1708435913.1589274,-2.150819778442383,-1.3369825941375275,-2.529745880757467,6.1359256384666345,1.0233609676361084,-5.480751876031057
1708435913.1609,-2.1507718563079834,-1.336921976213791,-2.52975041071047,6.135726439743795,1.0233008861541748,-5.48062247434725
1708435913.1628993,-2.150665760040283,-1.336930440073349,-2.5296769777881067,6.135595309525289,1.0232527256011963,-5.480547610913412
1708435913.164888,-2.150557279586792,-1.3368709248355408,-2.5296860376941126,6.13536690452651,1.0232244729995728,-5.480447653924124
1708435913.1669178,-2.150581121444702,-1.3368382912925263,-2.529649798070089,6.13520764091567,1.0232062339782715,-5.480369512234823
1708435913.1689055,-2.150475025177002,-1.3368632060340424,-2.529597345982687,6.13501929023818,1.023156762123108,-5.480244104062216
1708435913.1708941,-2.1503496170043945,-1.3368390661529084,-2.5295854250537317,6.134880530625143,1.0231068134307861,-5.480104092751638
1708435913.1729352,-2.150339126586914,-1.336803064947464,-2.5295568148242396,6.134599077492513,1.0230721235275269,-5.480094675217764
1708435913.1749203,-2.1502957344055176,-1.336798833017685,-2.5295119921313685,6.134432303696432,1.0230365991592407,-5.479961756859915
1708435913.1769183,-2.1502366065979004,-1.3367511493018647,-2.5295210520373743,6.134216415673055,1.023045539855957,-5.4798705021487635
1708435913.1788938,-2.1501643657684326,-1.336768166427948,-2.529539171849386,6.134028064995565,1.022955298423767,-5.479803148900167
1708435913.1809075,-2.1500961780548096,-1.3367358607104798,-2.5294938723193567,6.13382517078475,1.0229418277740479,-5.479646805916921
1708435913.18298,-2.150045871734619,-1.336748645906784,-2.5294280687915247,6.13359688499526,1.022804856300354,-5.4795554916011255
1708435913.1849334,-2.1499602794647217,-1.336671696310379,-2.529447619115011,6.1333738444145105,1.0228320360183716,-5.479471568261282
1708435913.186966,-2.149893045425415,-1.3366967302611847,-2.529400889073507,6.133218753128805,1.0227841138839722,-5.479368750249044
1708435913.1888921,-2.1497631072998047,-1.3366280955127259,-2.529393498097555,6.1329455254371545,1.0227150917053223,-5.479238931332723
1708435913.1908925,-2.1497421264648438,-1.3366076213172455,-2.5293951670276087,6.132766830712118,1.0226740837097168,-5.479156557713644
1708435913.1929374,-2.1496775150299072,-1.3365796369365235,-2.5293665567981165,6.132555353432455,1.022633671760559,-5.479020539914266
1708435913.1949253,-2.1495935916900635,-1.3365239363959809,-2.529314104710714,6.132330882340231,1.022606372833252,-5.478957835827963
1708435913.1969771,-2.14953351020813,-1.3365486425212403,-2.529339615498678,6.132090437203207,1.0225417613983154,-5.478772882615225
1708435913.1989114,-2.149449586868286,-1.3365486425212403,-2.529240671788351,6.1319488165672205,1.022505760192871,-5.478690508996145
1708435913.200962,-2.1494064331054688,-1.3364567321589966,-2.5292704741107386,6.131785261421957,1.0224695205688477,-5.478635911141531
1708435913.202894,-2.149317741394043,-1.3364402514747162,-2.5292134920703333,6.131589162140646,1.0224097967147827,-5.4784457127200525
1708435913.2048864,-2.149233818054199,-1.3364453476718445,-2.5292556921588343,6.131401645928182,1.0223661661148071,-5.478363339100973
1708435913.2069016,-2.1491634845733643,-1.3363731366446991,-2.52919847169985,6.131177532463827,1.0223464965820312,-5.478234652672903
1708435913.2089088,-2.149132490158081,-1.336369351749756,-2.5291460196124476,6.130990135460653,1.0222910642623901,-5.4781360069858
1708435913.2108893,-2.148982286453247,-1.3363086444190522,-2.5291641394244593,6.130687939911642,1.0222172737121582,-5.478028480206625
1708435913.2129047,-2.148942470550537,-1.3363095086864014,-2.529152218495504,6.130517351418295,1.0222022533416748,-5.477916602288381
1708435913.2148993,-2.1488754749298096,-1.3362814348987122,-2.5291100184070032,6.1303268549735925,1.0221993923187256,-5.477796916161672
1708435913.2169008,-2.148791551589966,-1.3362215918353577,-2.5290454069720667,6.130081879883566,1.0220805406570435,-5.4777308146106165
1708435913.218897,-2.148662567138672,-1.336168498998024,-2.5290334860431116,6.129936682968893,1.02206552028656,-5.477639500294821
1708435913.2208817,-2.148582935333252,-1.3361416918090363,-2.5290096441852015,6.129720437317648,1.0220069885253906,-5.477503482495443
1708435913.2229238,-2.148556709289551,-1.336125211124756,-2.528994623814718,6.129463779717245,1.0219992399215698,-5.477391544972555
1708435913.2249055,-2.1484155654907227,-1.3360893291286011,-2.528999153767721,6.129236089974203,1.0219138860702515,-5.477264706288473
1708435913.2269704,-2.148359537124634,-1.3361233931830903,-2.528928581868307,6.129044878273763,1.0218909978866577,-5.47716468969454
1708435913.2289245,-2.148284673690796,-1.3360465329936524,-2.5289135614978235,6.128857600479879,1.0218007564544678,-5.4770254532443445
1708435913.2309124,-2.148221969604492,-1.3360473972610016,-2.5289090315448206,6.128618109017172,1.0217949151992798,-5.476867858563558
1708435913.2329237,-2.148149251937866,-1.3359782260707398,-2.528877560292379,6.128389584809103,1.021742343902588,-5.4767688552485865
1708435913.234886,-2.148036241531372,-1.3359306317618866,-2.52887469926943,6.128210651665487,1.02167809009552,-5.476690773163931
1708435913.2368793,-2.1479454040527344,-1.3359186214259644,-2.528846327458517,6.127962696343221,1.0216013193130493,-5.476575795804159
1708435913.2388952,-2.1478641033172607,-1.3358826500228425,-2.5287981669055384,6.1277915118034265,1.0215604305267334,-5.4764103333102625
1708435913.2409236,-2.1478517055511475,-1.335862697368004,-2.5288072268115442,6.127538311272421,1.0214793682098389,-5.476339701806204
1708435913.2429185,-2.1477231979370117,-1.3358550828746338,-2.528757635747091,6.127331244736471,1.0214734077453613,-5.47621596256365
1708435913.244888,-2.147639036178589,-1.3358031672290345,-2.5287051836596888,6.127123105316915,1.0214489698410034,-5.476054851208822
1708435913.2469394,-2.147570848464966,-1.335751013164856,-2.5286689440356653,6.126928555756368,1.0214011669158936,-5.475976769124166
1708435913.2489386,-2.1474974155426025,-1.3357110184482117,-2.5286946932422083,6.1266753552253626,1.021336555480957,-5.4758973757373255
1708435913.2508821,-2.147430419921875,-1.335727946167328,-2.528663221989767,6.1265612719352625,1.0213093757629395,-5.47575426498522
1708435913.2529368,-2.1473748683929443,-1.335687206392624,-2.5286229292498987,6.126314031868734,1.0212072134017944,-5.475597147141592
1708435913.2548943,-2.1473076343536377,-1.335615412597992,-2.5286060015307825,6.126094329148092,1.021196961402893,-5.475526932870046
1708435913.25692,-2.1472034454345703,-1.3356154424003144,-2.5285776297198694,6.12586926200942,1.0211564302444458,-5.475394014512197
1708435913.258889,-2.147155523300171,-1.33560402811084,-2.528588358555929,6.125668990402975,1.0211458206176758,-5.4752671162234705
1708435913.2608829,-2.1470789909362793,-1.335568295126297,-2.528562847767965,6.125515329628744,1.021061658859253,-5.475224856530325
1708435913.262896,-2.14705753326416,-1.3354871732047577,-2.5284937063800257,6.125319230347433,1.0209954977035522,-5.47504306236376
1708435913.2649112,-2.146932601928711,-1.3354795736125489,-2.5285027662860315,6.125061738282003,1.0209187269210815,-5.474989120160238
1708435913.2669015,-2.1469085216522217,-1.3354434830001374,-2.528438154851095,6.124843227654257,1.0208872556686401,-5.474869434033529
1708435913.2689054,-2.1468377113342285,-1.3354162734797974,-2.528451744710104,6.124638426094808,1.0208815336227417,-5.474782590066091
1708435913.2708986,-2.146752119064331,-1.3354332011989136,-2.528393332158224,6.1244510290916345,1.0208030939102173,-5.474686924611227
1708435913.2729106,-2.1466503143310547,-1.3353402328542252,-2.5283780733691614,6.124272572785177,1.0207548141479492,-5.474567238484518
1708435913.2749162,-2.146624803543091,-1.3353410524180909,-2.5283451716052454,6.12404357173995,1.0206992626190186,-5.474443499241964
1708435913.2769568,-2.146583080291748,-1.335292638545372,-2.528301779423849,6.123929130821981,1.0206679105758667,-5.474352304135458
1708435913.2789154,-2.1464977264404297,-1.3352650564960022,-2.5283363501178187,6.123745071678915,1.0206105709075928,-5.474284891282217
1708435913.28091,-2.1464757919311523,-1.3352408868125458,-2.5282612482654017,6.123574125557699,1.020574688911438,-5.4741403500186365
1708435913.2829013,-2.1463615894317627,-1.335245208149292,-2.528255287800924,6.12327133396224,1.020564079284668,-5.474040512238638
1708435913.2849379,-2.1462857723236084,-1.3352171939662476,-2.52820855775942,6.123146402626791,1.0205117464065552,-5.473985854779379
1708435913.2868907,-2.1462345123291016,-1.3351660829833527,-2.528148953114645,6.122994649201193,1.0204544067382812,-5.4738251010524195
1708435913.2888935,-2.1461665630340576,-1.3352102202228089,-2.5282164255725306,6.122748362808981,1.0204275846481323,-5.473754469548361
1708435913.2909029,-2.1460869312286377,-1.3350857657245179,-2.5281382242785853,6.1225730059440515,1.020371913909912,-5.473670844231741
1708435913.292906,-2.1460134983062744,-1.335093454723694,-2.528130833302633,6.122446644097128,1.020295262336731,-5.473546747361318
1708435913.2949517,-2.1460232734680176,-1.3350976717523118,-2.528123442326681,6.122242200165548,1.0202305316925049,-5.473472062741415
1708435913.296909,-2.1459121704101562,-1.3350582283786316,-2.5280378500567835,6.122116195946493,1.0202229022979736,-5.473371748124258
1708435913.2988975,-2.1458332538604736,-1.3349860173514863,-2.5279927889453333,6.121915447502889,1.0201823711395264,-5.473242286835806
1708435913.3009224,-2.145820140838623,-1.3350263696959992,-2.5280633608447474,6.121760475426473,1.0200847387313843,-5.473158721123831
1708435913.3029506,-2.1457600593566895,-1.3350349229625245,-2.5280228296863,6.121592867165365,1.020098328590393,-5.4731414953814905
1708435913.3049018,-2.1456875801086426,-1.3349422377398987,-2.5280290285693567,6.121434438019552,1.020028829574585,-5.473034207020895
1708435913.306897,-2.145603656768799,-1.334853397016861,-2.5279584566699427,6.121274459152975,1.0199825763702393,-5.4729459325419825
1708435913.308936,-2.1455650329589844,-1.3348901134780427,-2.5279930273639124,6.121151315956869,1.0199658870697021,-5.472845856343405
1708435913.3109019,-2.145507335662842,-1.3348747056773682,-2.5279012362109583,6.120996224671163,1.0199463367462158,-5.472725156937734
1708435913.3128994,-2.1454386711120605,-1.3348423999599,-2.527898375188009,6.120755064278402,1.0199027061462402,-5.472699228917257
1708435913.3148875,-2.145392656326294,-1.3348267835429688,-2.5279374758349817,6.120627748757162,1.0197721719741821,-5.472549919282095
1708435913.316873,-2.1453561782836914,-1.3347875487855454,-2.5278173128711146,6.120501625328817,1.0197947025299072,-5.472442809735433
1708435913.318883,-2.1452929973602295,-1.334807277922966,-2.5278640429126185,6.120321023255148,1.0197374820709229,-5.472363118325369
1708435913.3209126,-2.145289421081543,-1.3347261411002656,-2.5278354326831263,6.1201655743415735,1.0196940898895264,-5.472312394772665
1708435913.322905,-2.145205497741699,-1.3346900057843705,-2.527769390736715,6.120083915978231,1.0196549892425537,-5.47221559682955
1708435913.3248973,-2.1451611518859863,-1.3347064715674897,-2.527782980595724,6.119879710465231,1.0196051597595215,-5.472099308167593
1708435913.3269117,-2.1450681686401367,-1.3347320419600983,-2.5277214686023157,6.119760024338522,1.019590139389038,-5.472016576920645
1708435913.3289084,-2.145000457763672,-1.3347197037986298,-2.5277016798602503,6.119568335800924,1.019537329673767,-5.47192752758135
1708435913.3309076,-2.144989252090454,-1.334638164644577,-2.527698818837301,6.119417774468221,1.0195103883743286,-5.471904579793112
1708435913.332927,-2.1448917388916016,-1.3346072000316163,-2.527637545262472,6.119265544205465,1.0194658041000366,-5.471817735825674
1708435913.3348799,-2.144897937774658,-1.3345630478909989,-2.527621094380514,6.119139063149252,1.01943838596344,-5.471745971833364
1708435913.3369179,-2.144850254058838,-1.334595338707306,-2.5276225248919886,6.119055735855856,1.0193767547607422,-5.471654836331503
1708435913.3388917,-2.144752264022827,-1.3345595759204407,-2.5276270548449915,6.1188944456870935,1.0193454027175903,-5.471587721501486
1708435913.34088,-2.14473032951355,-1.3345595759204407,-2.5276361147509974,6.118791329651632,1.0192999839782715,-5.471482161675588
1708435913.342951,-2.144707202911377,-1.3345518720201035,-2.527553383504049,6.118615376740255,1.019277572631836,-5.471402827893392
1708435913.3449025,-2.1446666717529297,-1.3345485192588349,-2.5275519529925745,6.118556725769796,1.0192203521728516,-5.471380058919088
1708435913.346902,-2.1446142196655273,-1.3344469529441376,-2.5275638739215296,6.118437158852377,1.0192627906799316,-5.471263591443197
1708435913.348912,-2.1445553302764893,-1.3344512742808838,-2.5275519529925745,6.1183098433311365,1.019155740737915,-5.471211616192953
1708435913.3508887,-2.144489049911499,-1.3344920438579102,-2.5275116602527063,6.118202316551962,1.0191377401351929,-5.471123282109396
1708435913.352889,-2.144519805908203,-1.3343949031880875,-2.527479950581686,6.1180912134941,1.0190880298614502,-5.471076850091116
1708435913.354905,-2.144418239593506,-1.3344809871963044,-2.527430597935812,6.117942201882162,1.0190356969833374,-5.4709471503840845
1708435913.3569198,-2.1443989276885986,-1.33444436014209,-2.5274441877948206,6.117822634964742,1.0190160274505615,-5.470917050038473
1708435913.3588855,-2.1443750858306885,-1.3343922060779114,-2.5273900667773646,6.117678391724386,1.0189800262451172,-5.470882240925924
1708435913.3609385,-2.144343137741089,-1.3343837422183533,-2.527412716542379,6.117619383126058,1.0189528465270996,-5.470797244702474
1708435913.362915,-2.144306182861328,-1.3344049912742157,-2.527334515248434,6.117541181832113,1.0189363956451416,-5.470771555100576
1708435913.3648932,-2.144292116165161,-1.334363804464676,-2.527350966130392,6.117399799614706,1.018855094909668,-5.470674399529592
1708435913.3669293,-2.144263744354248,-1.3343361926129838,-2.5273435751544397,6.117309677391805,1.0188523530960083,-5.470602933560507
1708435913.3689132,-2.1441915035247803,-1.3343487542918702,-2.5273104349719446,6.117214786797323,1.0188044309616089,-5.470506076012747
1708435913.370884,-2.144217014312744,-1.3343892854503174,-2.5273075739489954,6.117122876435079,1.0187803506851196,-5.470409278069631
1708435913.3729413,-2.1441850662231445,-1.3342962724021454,-2.5272865931140345,6.116961705475607,1.0187442302703857,-5.470390741025106
1708435913.37488,-2.1440951824188232,-1.3343161207488556,-2.527254883443014,6.116845595627584,1.0187333822250366,-5.47029430070986
1708435913.3769417,-2.1441128253936768,-1.3342844408801575,-2.527276341115133,6.116807329445638,1.018688440322876,-5.470287624989645
1708435913.378904,-2.144047498703003,-1.3342801493457337,-2.527210060750143,6.11674855926589,1.0186389684677124,-5.470208410416738
1708435913.3808863,-2.144044876098633,-1.3342886877110978,-2.5272191206561487,6.116636740952291,1.018612027168274,-5.4701725284205835
1708435913.3829045,-2.144019842147827,-1.3342648309520264,-2.5272071997271937,6.116515981941976,1.018575668334961,-5.4700802008258265
1708435913.3848948,-2.144026041030884,-1.3342690628818055,-2.5271664301501673,6.116432297020712,1.0185233354568481,-5.470027808343069
1708435913.386903,-2.143960952758789,-1.3342410039952775,-2.527201239262716,6.11633979061202,1.018496036529541,-5.469944540654318
1708435913.388946,-2.1439247131347656,-1.3342571270516892,-2.527138058339254,6.11620711067275,1.0184301137924194,-5.469929043446676
1708435913.3908966,-2.143890857696533,-1.3341964942267914,-2.527118508015768,6.1161725399787805,1.0184223651885986,-5.4698572794543665
1708435913.3929315,-2.1438345909118652,-1.3341888350299378,-2.527138058339254,6.116158234864034,1.0183908939361572,-5.469797734414236
1708435913.3949172,-2.1438565254211426,-1.3342129600099106,-2.5271156469928187,6.116017925530233,1.0183627605438232,-5.469748560582296
1708435913.3969362,-2.143840789794922,-1.3342092347196122,-2.5270825068103235,6.115909325867452,1.0183684825897217,-5.469721559678213
1708435913.3989162,-2.143812417984009,-1.3342050027898331,-2.5270689169513147,6.115887629776754,1.0183231830596924,-5.46969455877413
1708435913.400916,-2.1438212394714355,-1.334152252679207,-2.5270348230945032,6.115782010346212,1.0183038711547852,-5.4695977608310145
1708435913.4029808,-2.1437771320343018,-1.3341412407210846,-2.5270586649524134,6.115686404495992,1.0182749032974243,-5.469524745141165
1708435913.4049292,-2.1437902450561523,-1.3341736060431977,-2.52702242532839,6.115663754730978,1.0182348489761353,-5.469486776982443
1708435913.4069266,-2.143777847290039,-1.3341496151736756,-2.52702242532839,6.115535247116842,1.0182483196258545,-5.469495598469869
1708435913.4089305,-2.143732786178589,-1.3341165792993088,-2.5270002524005335,6.115426647454061,1.018195629119873,-5.469407562409536
1708435913.410896,-2.1437337398529053,-1.334088997249939,-2.5269716421710413,6.115350591927328,1.0181715488433838,-5.4693220297442835
1708435913.4129145,-2.143697738647461,-1.3340642911246796,-2.5270002524005335,6.115283119469442,1.0181429386138916,-5.469336811696188
1708435913.4149263,-2.143636703491211,-1.3341093820384522,-2.5269294420825403,6.115317809372701,1.018094778060913,-5.469263080750601
1708435913.4169142,-2.1436657905578613,-1.3341221672347565,-2.526889149342672,6.115217911988058,1.0180574655532837,-5.469212059174673
1708435913.418931,-2.143636465072632,-1.3340564382127305,-2.526919190083639,6.115190493851461,1.0180542469024658,-5.469201211129324
1708435913.4208987,-2.143575668334961,-1.3340898615172883,-2.526889149342672,6.115085232048788,1.018018364906311,-5.469128493462698
1708435913.4229171,-2.1435890197753906,-1.3340402704528351,-2.5269163290606897,6.115045892983236,1.0179941654205322,-5.46910530725588
1708435913.424877,-2.1436188220977783,-1.3340410751155396,-2.526944700871603,6.114944922714987,1.0179579257965088,-5.469053332005636
1708435913.4269354,-2.1435322761535645,-1.3340899509242554,-2.5268545786487024,6.114865886956014,1.0179624557495117,-5.468996767197744
1708435913.4289064,-2.143552541732788,-1.334037871365883,-2.5268755594836634,6.114866602211752,1.017935872077942,-5.4689611236201685
1708435913.4308894,-2.1434919834136963,-1.3340336692384263,-2.5268681685077112,6.114811169892111,1.0178605318069458,-5.468945864831106
1708435913.4329045,-2.143521785736084,-1.3340251457742234,-2.526818815861837,6.114767777710714,1.0179113149642944,-5.468881670628683
1708435913.4348888,-2.14349365234375,-1.334033654337265,-2.526844326649801,6.114666807442465,1.0178709030151367,-5.468882266675131
1708435913.4369044,-2.1434733867645264,-1.3340213310769578,-2.526827875767843,6.114643084793844,1.0178499221801758,-5.468838278447286
1708435913.4388924,-2.1434526443481445,-1.3340105277350922,-2.52675706544985,6.114619958191671,1.0178227424621582,-5.4687374273883265
1708435913.4408932,-2.1434786319732666,-1.3339813512614747,-2.526841465626852,6.114498364716329,1.0178316831588745,-5.468738083039419
1708435913.4429064,-2.143430233001709,-1.3339410585216065,-2.5267961660968226,6.114491569786825,1.0177838802337646,-5.468669656907217
1708435913.4448922,-2.1434221267700195,-1.3339691323092957,-2.5267587343799036,6.114432084351339,1.0177463293075562,-5.46869540611376
1708435913.446929,-2.1434051990509033,-1.3339572113803406,-2.5267587343799036,6.114366757660665,1.0177057981491089,-5.468586031590597
1708435913.448912,-2.143415927886963,-1.333970160489418,-2.5267255941974085,6.11434947231368,1.0176893472671509,-5.468574051056997
1708435913.4509172,-2.1433820724487305,-1.3338999909213562,-2.5267768541919153,6.114322173386373,1.0176604986190796,-5.468542579804556
1708435913.4529228,-2.143357276916504,-1.3339386743358155,-2.5267346541034144,6.114240515023031,1.0176290273666382,-5.468527380620138
1708435913.454887,-2.1433467864990234,-1.3339224469712754,-2.526748243962423,6.114188301354208,1.0176457166671753,-5.468458954487936
1708435913.456932,-2.143350601196289,-1.3338935387185593,-2.5267346541034144,6.114144670754232,1.0176424980163574,-5.4684717694865626
1708435913.4589064,-2.14333438873291,-1.3338983666947861,-2.526736323033468,6.114073145180502,1.0176020860671997,-5.468378547822134
1708435913.4609149,-2.143327474594116,-1.333873526459076,-2.526707712803976,6.113967764168539,1.0175704956054688,-5.46837562719454
1708435913.46293,-2.143277883529663,-1.3338940751603623,-2.526728693638937,6.113953339844503,1.0175416469573975,-5.468303505574362
1708435913.4648948,-2.1432666778564453,-1.3338897091201325,-2.526691261922018,6.113900053292074,1.0175251960754395,-5.468275431786672
1708435913.4669414,-2.1432673931121826,-1.33391389370475,-2.5266626516925257,6.113844859391012,1.0175342559814453,-5.46824294725527
1708435913.468912,-2.1431851387023926,-1.3338256043246766,-2.5267046133624476,6.1137850163276575,1.0174893140792847,-5.468261126671926
1708435913.4709086,-2.1431896686553955,-1.333878905778267,-2.5267048517810267,6.113762366562643,1.0174773931503296,-5.468241218720571
1708435913.472942,-2.143191337585449,-1.3338504445603867,-2.5267048517810267,6.113693702011862,1.0174683332443237,-5.468147997056143
1708435913.4748902,-2.1431596279144287,-1.333833248620369,-2.5266671816455286,6.113659131317892,1.0175026655197144,-5.468128506337301
1708435913.4769008,-2.1430864334106445,-1.3338256043246766,-2.5266147295581263,6.113615262299337,1.0175191164016724,-5.468108956013815
1708435913.4788964,-2.1430695056915283,-1.3338384342244645,-2.5266431013690394,6.113546955376425,1.0174908638000488,-5.468125108872549
1708435913.4809015,-2.1430397033691406,-1.333821327691414,-2.5266476313220423,6.113475191384115,1.0174528360366821,-5.4680731932269495
1708435913.4829097,-2.143059730529785,-1.3338710975698014,-2.5266221205340784,6.113414156227865,1.017502784729004,-5.468056682740347
1708435913.4849088,-2.143007755279541,-1.3338299703649064,-2.5266807715045374,6.113407838135519,1.0174620151519775,-5.467977289353506
1708435913.4869146,-2.142951250076294,-1.3338384342244645,-2.5266311804400843,6.113290416985311,1.0174665451049805,-5.468030456696646
1708435913.4889286,-2.142939805984497,-1.333822564487793,-2.5266476313220423,6.113251197129049,1.0174798965454102,-5.467916492615835
1708435913.4909034,-2.1428990364074707,-1.3338021647981186,-2.526679340993063,6.113175141602316,1.0174620151519775,-5.4678853193866175
1708435913.4929304,-2.142833709716797,-1.3338384342244645,-2.5266087690936487,6.113147723465719,1.0174787044525146,-5.467832330857412
1708435913.4949312,-2.1428184509277344,-1.3338183772614975,-2.5266597906695765,6.113104450493612,1.0174908638000488,-5.467869762574331
1708435913.4969285,-2.1427879333496094,-1.3337935221246262,-2.5266597906695765,6.113032805710592,1.0174529552459717,-5.467797342930929
1708435913.4988952,-2.1427390575408936,-1.3338504445603867,-2.5266385714160364,6.112940299301901,1.0174455642700195,-5.46784228483309
1708435913.5008864,-2.1427125930786133,-1.3338632893613358,-2.5266552607165735,6.112880456238546,1.0174365043640137,-5.4678306619273584
1708435913.5029328,-2.142660617828369,-1.333810643558838,-2.5266340414630335,6.112821686058798,1.0174741744995117,-5.467802707348959
1708435913.5049133,-2.1425724029541016,-1.3338225495866318,-2.5266385714160364,6.112729298859396,1.0174908638000488,-5.467762295399801
1708435913.5069327,-2.1425271034240723,-1.333810643558838,-2.5266597906695765,6.112718570023336,1.0174787044525146,-5.46773082414736
1708435913.508909,-2.1425201892852783,-1.3338711720756073,-2.5266807715045374,6.112585770874777,1.0174832344055176,-5.467698101197378
1708435913.5108874,-2.1424803733825684,-1.3338546466878434,-2.5266838709460657,6.112582671433248,1.0175026655197144,-5.467694822941915
1708435913.5129101,-2.142436981201172,-1.3338256192258378,-2.5266838709460657,6.112491118698873,1.017498254776001,-5.467727486287252
1708435913.5148883,-2.142352342605591,-1.3338831675103684,-2.526679340993063,6.112386691361227,1.0174819231033325,-5.467654530202047
1708435913.5169094,-2.142275333404541,-1.333821327691414,-2.526712242756979,6.112224685936727,1.017510175704956,-5.467619005833761
1708435913.5189304,-2.1421711444854736,-1.3339235049537201,-2.526686731969015,6.112175094872274,1.0175223350524902,-5.467638317738668
1708435913.5209048,-2.142132520675659,-1.3338213723948975,-2.526752773915426,6.112070667534628,1.0175342559814453,-5.467594925557272
1708435913.5229104,-2.1420600414276123,-1.333919734959938,-2.526727263127462,6.111999738007345,1.017513394355774,-5.467594925557272
1708435913.5248978,-2.1419761180877686,-1.3338745546391984,-2.5267391840564173,6.111883389740743,1.0175750255584717,-5.467599217091696
1708435913.526926,-2.1419451236724854,-1.3339395982078095,-2.5267513434039515,6.111796366959371,1.0175583362579346,-5.467509690915243
1708435913.52893,-2.1418089866638184,-1.3339429658702393,-2.5268052260028284,6.111675965576925,1.0176078081130981,-5.467566494141714
1708435913.5309029,-2.141711950302124,-1.3338778775981446,-2.526839796696798,6.111552822380819,1.0176424980163574,-5.467566494141714
1708435913.5329015,-2.141632556915283,-1.3339019876769562,-2.5268517176257532,6.1113518355186365,1.0176591873168945,-5.4675061146365564
1708435913.53489,-2.141533374786377,-1.3339459610036393,-2.5268381277667444,6.111214744835653,1.0176993608474731,-5.467543963585989
1708435913.5369024,-2.141373634338379,-1.3339259040406723,-2.5268951098071497,6.111170637398519,1.0176829099655151,-5.467539672051565
1708435913.538902,-2.1412765979766846,-1.3339863133481522,-2.5269327799426478,6.111108648567953,1.0177475214004517,-5.467539672051565
1708435913.540911,-2.1411447525024414,-1.3339863282493134,-2.526944700871603,6.110902893334188,1.0177596807479858,-5.467547003422872
1708435913.5428777,-2.1410348415374756,-1.3340223145535965,-2.5270665327655237,6.110758292465963,1.0177973508834839,-5.467535320912496
1708435913.5448995,-2.140869379043579,-1.334018037920334,-2.5270405451404017,6.110615002899923,1.0178574323654175,-5.467518810425894
1708435913.5468848,-2.140676736831665,-1.3340342503837128,-2.5270257631884974,6.110405909806051,1.0178064107894897,-5.467539672051565
1708435913.5489647,-2.140575408935547,-1.3340536963990708,-2.5270915667163294,6.110243189125814,1.0178921222686768,-5.467531685029165
1708435913.5508876,-2.1403756141662598,-1.3340614599040528,-2.5271275679217737,6.110113489418783,1.0179567337036133,-5.467548195515768
1708435913.552892,-2.1402089595794678,-1.334081844692566,-2.5271876494037073,6.109901773720541,1.018049955368042,-5.467551175748007
1708435913.5548909,-2.1400115489959717,-1.3340563637069245,-2.5272520224200647,6.109693991928854,1.0180890560150146,-5.46749854484667
1708435913.5568938,-2.1397714614868164,-1.3341135692647477,-2.52727181116213,6.109523045807638,1.0181114673614502,-5.467523161564962
1708435913.5589175,-2.1396055221557617,-1.3342177283814927,-2.5273526350604456,6.109242784767904,1.0182210206985474,-5.467515532170431
1708435913.5609007,-2.1393566131591797,-1.3341581535390397,-2.527438227330343,6.109002578049459,1.018276572227478,-5.467548195515768
1708435913.562918,-2.139141082763672,-1.3341930520585557,-2.527479950581686,6.108797180443563,1.0183775424957275,-5.467515472565786
1708435913.5649323,-2.138873338699341,-1.3342655462077637,-2.5275400320636194,6.108498322754659,1.0184450149536133,-5.467523161564962
1708435913.5668883,-2.138650894165039,-1.334301308994629,-2.527633015309469,6.108145940094747,1.018593668937683,-5.467482332383291
1708435913.5689256,-2.138345956802368,-1.3343170595220109,-2.527700487767355,6.107854473381796,1.0187515020370483,-5.467543903981344
1708435913.5709076,-2.138099431991577,-1.3343450290015717,-2.5277708212481897,6.107608663826742,1.0188555717468262,-5.46749842563738
1708435913.5729058,-2.137791395187378,-1.3343276542476197,-2.5278640429126185,6.107256519585409,1.0189708471298218,-5.467531148587362
1708435913.5748885,-2.1375906467437744,-1.3344364625266572,-2.5279884974109095,6.106957542687216,1.01907479763031,-5.467555526887075
1708435913.5769222,-2.137204170227051,-1.3344682318023224,-2.52812630334963,6.1065945504005334,1.0191693305969238,-5.4675427118884485
1708435913.5789223,-2.1368966102600098,-1.3345243346742173,-2.5281806627856653,6.106369721680441,1.0194100141525269,-5.467575136815206
1708435913.5809066,-2.136599063873291,-1.3345722419074555,-2.5282884279834192,6.105983960419454,1.0195420980453491,-5.467607800160543
1708435913.582909,-2.136206865310669,-1.3345910173705597,-2.5284698645221155,6.105645763664999,1.0197057723999023,-5.467614714299337
1708435913.5849016,-2.135868787765503,-1.3346594286016007,-2.5286152998553675,6.105221378594198,1.0198981761932373,-5.467642609273092
1708435913.586923,-2.1355059146881104,-1.33476014555011,-2.5286977926837366,6.1048892615135095,1.0200830698013306,-5.467658821736471
1708435913.5889208,-2.135129451751709,-1.3347875636867066,-2.528841797505514,6.1044291136558435,1.0202829837799072,-5.46768290201296
1708435913.590898,-2.1346867084503174,-1.3348594468883057,-2.5289574305163782,6.104006159096517,1.0205384492874146,-5.467718962823049
1708435913.5929403,-2.134324789047241,-1.334895060663559,-2.5290799776660364,6.103583681374349,1.020667552947998,-5.467722360287802
1708435913.5949023,-2.1338894367218018,-1.3349626076272507,-2.529245201741354,6.103201854019918,1.0208317041397095,-5.4678359667407435
1708435913.5969026,-2.1334903240203857,-1.3349867922118683,-2.5293875376330774,6.102682101517477,1.0211275815963745,-5.467827383671896
1708435913.598896,-2.132997512817383,-1.335073859696724,-2.529655996953146,6.102247702866354,1.021297574043274,-5.4678664843188685
1708435913.600939,-2.132516622543335,-1.335218684082367,-2.5297942797290247,6.101676213532247,1.021613359451294,-5.467915419732229
1708435913.602912,-2.1320104598999023,-1.3352416467717667,-2.5299857298480433,6.101138102799215,1.0218638181686401,-5.467970613633291
1708435913.605008,-2.1314709186553955,-1.3353741627982636,-2.5301900545703333,6.100591766625204,1.0221781730651855,-5.46798158088793
1708435913.6069486,-2.1309642791748047,-1.3354416948607941,-2.530341450368063,6.100066292076864,1.0224220752716064,-5.468042377625601
1708435913.6089401,-2.1304216384887695,-1.3355050545981904,-2.5306113401996058,6.099544393807211,1.022685170173645,-5.468068901692526
1708435913.6108987,-2.1299281120300293,-1.3355682802251359,-2.5308316389666956,6.0990545628364465,1.0229417085647583,-5.468149844800131
1708435913.6129174,-2.1293351650238037,-1.3356927049211045,-2.5310238043414515,6.098467337876119,1.0232019424438477,-5.468222085629598
1708435913.6149375,-2.128782272338867,-1.335756005053856,-2.531210962926046,6.09787808635787,1.0235532522201538,-5.4682772795306605
1708435913.6169171,-2.128197193145752,-1.3359038841775437,-2.5314224402057093,6.097294556885519,1.0237998962402344,-5.468313280736105
1708435913.6189153,-2.127612352371216,-1.3359751564315339,-2.5316622892962855,6.096730100899496,1.0241575241088867,-5.46843666235079
1708435913.6208897,-2.12701678276062,-1.3361317676356812,-2.531944815312521,6.096037733345785,1.0244625806808472,-5.468476061020986
1708435913.6229131,-2.12640643119812,-1.3362032783082505,-2.532170836125509,6.095469224243917,1.0248066186904907,-5.468551222478048
1708435913.624911,-2.1257517337799072,-1.3363751334002991,-2.532475296651022,6.094729888230123,1.025169014930725,-5.468651119862692
1708435913.6269376,-2.125098466873169,-1.336446077828743,-2.5327604452716272,6.094124305039205,1.0255132913589478,-5.468734804783956
1708435913.6289253,-2.12436580657959,-1.3365693253329773,-2.5330572764026087,6.09339855888442,1.0258408784866333,-5.46888775030245
1708435913.6309037,-2.123748302459717,-1.3366607141545792,-2.5333572069751185,6.092676269799032,1.0262178182601929,-5.468991879616873
1708435913.6329467,-2.1230244636535645,-1.3368318986943741,-2.5336313883410853,6.092031466751852,1.0265095233917236,-5.469111267720358
1708435913.6349118,-2.1223175525665283,-1.3370011460832139,-2.5339210669146937,6.091285455017843,1.026919960975647,-5.469211165105001
1708435913.6369216,-2.1216495037078857,-1.3371244084886094,-2.5342119375811976,6.090531217842855,1.0273181200027466,-5.469286445771353
1708435913.6389146,-2.1208486557006836,-1.3372718256763,-2.534581009541647,6.0898064253623865,1.0277467966079712,-5.469430510197775
1708435913.6408918,-2.1200711727142334,-1.3373911839774628,-2.5349212328540247,6.089013564377584,1.0281962156295776,-5.469505492840902
1708435913.6429484,-2.1192314624786377,-1.3375223738006135,-2.535285774861471,6.088273513108053,1.0286693572998047,-5.46962404647936
1708435913.6448905,-2.118424654006958,-1.3377381724170228,-2.5355961958514612,6.087317693024435,1.0290863513946533,-5.469760898743765
1708435913.6469092,-2.117668390274048,-1.3378866922906418,-2.535894219075338,6.086513507157125,1.0295974016189575,-5.469908897076742
1708435913.6489,-2.116783618927002,-1.3380659830621262,-2.536320511494772,6.085664021759786,1.0300465822219849,-5.470109943543569
1708435913.6509087,-2.1159751415252686,-1.3382217449000855,-2.536642614995138,6.084827887802877,1.0304737091064453,-5.470158819352285
1708435913.6529274,-2.1151132583618164,-1.338376836185791,-2.5370236078845423,6.083966600685873,1.030963659286499,-5.470371905957357
1708435913.6548946,-2.114211320877075,-1.3385648441365738,-2.537424151097433,6.082995641022482,1.0314730405807495,-5.470494572316305
1708435913.6569216,-2.113281011581421,-1.3387357008508225,-2.5378292242633265,6.082067119866171,1.0320569276809692,-5.470674816762106
1708435913.6588855,-2.112318754196167,-1.3389194470695038,-2.538245503102438,6.081121194153585,1.0325559377670288,-5.470825974141256
1708435913.6608794,-2.1114096641540527,-1.3390693825534363,-2.538693968449728,6.0801278231437585,1.0331555604934692,-5.470944408570425
1708435913.6629183,-2.1103909015655518,-1.3392316114953537,-2.5390570799456995,6.079160201340475,1.0336997509002686,-5.471128050480978
1708435913.6649005,-2.1094071865081787,-1.3394400936416169,-2.5394859949695032,6.078182208329,1.0342366695404053,-5.471267167721884
1708435913.6669176,-2.1084423065185547,-1.339639202957489,-2.539881769810812,6.07731186130599,1.034831166267395,-5.47147119442095
1708435913.6689007,-2.1074302196502686,-1.3398433190635224,-2.54034668604006,6.076345550804891,1.0353829860687256,-5.471674744282858
1708435913.670906,-2.1063392162323,-1.3400879216245194,-2.54075271288027,6.075330126076498,1.0360344648361206,-5.471830193196432
1708435913.6728954,-2.105306625366211,-1.3402649623206635,-2.541184727345602,6.074259745865621,1.036613941192627,-5.472046617661611
1708435913.674889,-2.104149580001831,-1.3405261200717469,-2.5416272322284144,6.0732332346733,1.037244200706482,-5.4722246567355555
1708435913.6769218,-2.103024959564209,-1.3407576394132157,-2.5420969168292444,6.072172510414877,1.0378817319869995,-5.472351674233572
1708435913.678895,-2.101943254470825,-1.3409935694983979,-2.542624537144796,6.071051943093099,1.0385771989822388,-5.472567025815145
1708435913.6808956,-2.1008152961730957,-1.3411990416100998,-2.5431183020221155,6.069962608605184,1.0392063856124878,-5.47278327146639
1708435913.6829581,-2.0996968746185303,-1.3413970482400437,-2.54356819788088,6.068843710213461,1.0398200750350952,-5.472944919263021
1708435913.6848872,-2.0984714031219482,-1.341726304297783,-2.5441394487964075,6.067708837776937,1.0404831171035767,-5.473171953354971
1708435913.686929,-2.0972940921783447,-1.3419490319541474,-2.5446134249316614,6.066581237107076,1.041153907775879,-5.473387304936544
1708435913.6889431,-2.0960919857025146,-1.3422493052533646,-2.5451622645007532,6.06548176982955,1.0418387651443481,-5.473599139844076
1708435913.6908937,-2.0948827266693115,-1.3425119680217286,-2.545760695134298,6.064313399582662,1.0426359176635742,-5.473838273678915
1708435913.6929474,-2.0936214923858643,-1.342753292327263,-2.5462403933154505,6.063155996590414,1.0433485507965088,-5.4740981499301355
1708435913.6949341,-2.092381000518799,-1.3430577975562592,-2.5467470327960413,6.06194423416213,1.0440342426300049,-5.474337164555685
1708435913.6969159,-2.0911126136779785,-1.3433252435973664,-2.547394577656881,6.060753214150228,1.044830083847046,-5.474534753953115
1708435913.6988914,-2.089794635772705,-1.34361985445533,-2.5479617754565638,6.059512245446005,1.0456045866012573,-5.4748151938067835
1708435913.70093,-2.088517904281616,-1.34385039032016,-2.548541847859518,6.058258640557089,1.0463160276412964,-5.475106481705801
1708435913.7029562,-2.0872068405151367,-1.3441980642131348,-2.5491178671466272,6.057037222176351,1.0471240282058716,-5.475369576607839
1708435913.7049768,-2.0858755111694336,-1.3445176792195817,-2.54972488084902,6.055775511055746,1.0479339361190796,-5.475620631371633
1708435913.7069588,-2.0844497680664062,-1.3447871518186112,-2.5502918402301233,6.054438221245565,1.0487525463104248,-5.475871805344717
1708435913.7089226,-2.083021879196167,-1.3451439601233979,-2.55094558397402,6.0530656454856775,1.0495165586471558,-5.476129893456594
1708435913.7109065,-2.0816845893859863,-1.3454287213138123,-2.5515647570239466,6.051704156189718,1.0502732992172241,-5.476421360169546
1708435913.7129276,-2.0802342891693115,-1.3457686317018052,-2.5522502104388636,6.050325143128195,1.0510379076004028,-5.476745549832479
1708435913.7149262,-2.078813314437866,-1.346103460793831,-2.5528317133532923,6.04897295215682,1.0518779754638672,-5.4769872466670435
1708435913.7173536,-2.0773892402648926,-1.3464664679816742,-2.553509537373678,6.047589289933004,1.0527485609054565,-5.477298144494192
1708435913.7193491,-2.07590913772583,-1.3467646402171631,-2.554148260747091,6.046265589981832,1.053617238998413,-5.477549437676565
1708435913.721038,-2.0744147300720215,-1.3470988881639023,-2.5548210779773157,6.044902789383688,1.0545039176940918,-5.477860156689779
1708435913.7230692,-2.072953224182129,-1.3474793148091813,-2.555472437535421,6.043460356980123,1.0553890466690063,-5.478142563496725
1708435913.7249246,-2.0714240074157715,-1.347789616589882,-2.5561817328082483,6.042039739876547,1.0563117265701294,-5.478453520928518
1708435913.7269063,-2.0698611736297607,-1.3481274557164689,-2.5568655172931116,6.040576922684469,1.0572468042373657,-5.478757325802938
1708435913.728952,-2.0683295726776123,-1.348469765191414,-2.5575314203845423,6.039092409401693,1.058188796043396,-5.479082588349478
1708435913.7309084,-2.0667574405670166,-1.3488733184388657,-2.5581823031054896,6.037672388344564,1.0590771436691284,-5.4794021288501185
1708435913.732927,-2.065153121948242,-1.3492437166026612,-2.5589152018176478,6.0362139818962,1.0599788427352905,-5.479660753403799
1708435913.734901,-2.063523769378662,-1.3496526044658204,-2.5596559683429163,6.034783828049459,1.0609946250915527,-5.480000201855795
1708435913.7369385,-2.061936378479004,-1.3500233453563233,-2.5602930227862757,6.03328703620986,1.0618711709976196,-5.480326775704519
1708435913.7388995,-2.0602920055389404,-1.3503409934094925,-2.5610597769366663,6.031865584641256,1.0627593994140625,-5.480633322392599
1708435913.7408915,-2.0587384700775146,-1.3507161748460312,-2.5617411772357386,6.0304192183311365,1.0636729001998901,-5.480977062379019
1708435913.7429109,-2.0571072101593018,-1.3511466544917603,-2.5624359289752405,6.029075968056478,1.064619779586792,-5.481262807046072
1708435913.7448897,-2.0555002689361572,-1.3515366476825257,-2.5631330649005335,6.027543175011434,1.0655306577682495,-5.48154986301531
1708435913.7469866,-2.0537664890289307,-1.3519364905408402,-2.5638514200793665,6.026030766754904,1.0664924383163452,-5.48189348379244
1708435913.7489252,-2.052048683166504,-1.3523617547801514,-2.564613405858175,6.024479138642111,1.0674164295196533,-5.482208196316854
1708435913.750888,-2.050353765487671,-1.3528138113072892,-2.565320078526632,6.0228813765342615,1.068454384803772,-5.482478980218069
1708435913.7528915,-2.0486185550689697,-1.3531942528537293,-2.56606108347048,6.021302091866293,1.0694438219070435,-5.482785348092214
1708435913.7549064,-2.046863317489624,-1.3536540877870102,-2.5667911211596888,6.019758093148031,1.070440649986267,-5.483096305524008
1708435913.756951,-2.045153856277466,-1.3540641081384202,-2.5675559679614466,6.0182427046592615,1.0713318586349487,-5.483398620282308
1708435913.758922,-2.043463945388794,-1.3545281004956742,-2.568214241658346,6.016629802971639,1.0722897052764893,-5.483701769505636
1708435913.7609277,-2.041710138320923,-1.354966254239418,-2.5689919630633753,6.015160548477926,1.0732358694076538,-5.48405367532839
1708435913.7628908,-2.0398871898651123,-1.355425016289093,-2.5697246233569544,6.013547646790304,1.0741392374038696,-5.484355930482046
1708435913.764894,-2.0381033420562744,-1.3559407007745286,-2.570472304021017,6.012019264488973,1.075100064277649,-5.484715644513265
1708435913.7669222,-2.03629469871521,-1.3563931298306962,-2.5712197462665003,6.010289656906881,1.0761624574661255,-5.484993878995077
1708435913.7689056,-2.0345120429992676,-1.3569252502969285,-2.57198673883547,6.008712756424703,1.0771706104278564,-5.485323969517843
1708435913.7708871,-2.032613515853882,-1.3573494118503113,-2.572730604802267,6.006984579354086,1.0781556367874146,-5.48562735715975
1708435913.7729247,-2.0308218002319336,-1.3578194093755265,-2.573495690022604,6.0052703497703455,1.0790592432022095,-5.48586887518038
1708435913.7749088,-2.0290353298187256,-1.3582727772048493,-2.5742066542254847,6.003686773567953,1.0800203084945679,-5.486180488263265
1708435913.7769258,-2.0272202491760254,-1.3587762129357834,-2.574873749409811,6.00201843956069,1.0809621810913086,-5.486487809811727
1708435913.7789407,-2.0253870487213135,-1.3593270492604752,-2.5756083170520228,6.000397670059957,1.081860065460205,-5.486760918294088
1708435913.7809258,-2.023517608642578,-1.3598494988730927,-2.576350514088766,5.998768555908956,1.0828266143798828,-5.487072590981619
1708435913.782898,-2.0216052532196045,-1.3603998732617875,-2.577118460332052,5.996999251633444,1.0837719440460205,-5.487351123486654
1708435913.7849321,-2.0196645259857178,-1.3609326791814347,-2.5778794924365442,5.995228159218588,1.0847891569137573,-5.487686638032095
1708435913.786934,-2.01776123046875,-1.3614963305047532,-2.57858115831484,5.993517505913534,1.0857990980148315,-5.487933580075399
1708435913.7889714,-2.0158021450042725,-1.3620225501111527,-2.579362217579977,5.991726505547323,1.0866764783859253,-5.48822141090502
1708435913.7908862,-2.0138649940490723,-1.3625480097583313,-2.5800846258746546,5.989952552109518,1.0876725912094116,-5.488463524972097
1708435913.792907,-2.0119071006774902,-1.3630908739617844,-2.5808284918414515,5.988242614060201,1.0885878801345825,-5.488755170498983
1708435913.794896,-2.009958505630493,-1.3636657458594819,-2.581524435673849,5.9864412424858,1.0895414352416992,-5.489044670258657
1708435913.7969158,-2.0079965591430664,-1.3641713720611115,-2.5822394529925745,5.984648453980245,1.0904546976089478,-5.4893516341792505
1708435913.798968,-2.0059218406677246,-1.3647408497384568,-2.583019558583395,5.982848989754476,1.0913864374160767,-5.489574078713552
1708435913.8009288,-2.0038623809814453,-1.3653357487967988,-2.5837422052966517,5.981009351998129,1.0922245979309082,-5.489858035241262
1708435913.8029332,-2.0018668174743652,-1.3658607465079804,-2.584501091633932,5.97921775558547,1.093231439590454,-5.490083996449606
1708435913.8050392,-1.9998230934143066,-1.366462768321373,-2.5852237383471888,5.977290975838461,1.094175934791565,-5.490318481122152
1708435913.8069344,-1.9977470636367798,-1.3670251828483124,-2.5859339872943323,5.9755825875099084,1.0950963497161865,-5.490624074135916
1708435913.8089154,-1.9956891536712646,-1.3675418359092255,-2.5867424646960657,5.973678934365072,1.0959833860397339,-5.490849856530325
1708435913.810895,-1.9936387538909912,-1.36812478423629,-2.587428394948141,5.971893894463339,1.0968194007873535,-5.491037074719564
1708435913.8129184,-1.9915651082992554,-1.3686826539090653,-2.5881217161761683,5.970029222756185,1.097688913345337,-5.491308335457937
1708435913.8148782,-1.9893388748168945,-1.3693295133164902,-2.5888782183276575,5.968222486763754,1.0985981225967407,-5.491494421158926
1708435913.8169353,-1.9871957302093506,-1.3699391198209305,-2.589531723652975,5.966254937439718,1.0994668006896973,-5.4916444460498255
1708435913.8189042,-1.9849750995635986,-1.3704881233027955,-2.590283219014303,5.964360224991598,1.1003962755203247,-5.491900865231649
1708435913.8208814,-1.9828386306762695,-1.371151254778244,-2.590994660054342,5.962455737381735,1.1012643575668335,-5.4921040574656885
1708435913.8228867,-1.980626106262207,-1.3717248451760788,-2.5916617552386683,5.960548746376791,1.102124571800232,-5.492266003285543
1708435913.8248916,-1.9784467220306396,-1.3722664427808304,-2.592372719441549,5.958624589234152,1.1029913425445557,-5.4924954811679285
1708435913.8268902,-1.9762585163116455,-1.3729177725366135,-2.593055788670675,5.9565971968467615,1.1038322448730469,-5.4926573673831385
1708435913.8289275,-1.9740896224975586,-1.3734904539636155,-2.593726936970846,5.954583990364828,1.1046473979949951,-5.49280816713442
1708435913.8309193,-1.9718444347381592,-1.3740843844464798,-2.5944023768054407,5.952705728798666,1.1055091619491577,-5.493036631737844
1708435913.8329175,-1.9696358442306519,-1.3747360122254868,-2.5950570742236536,5.950674164086141,1.1063286066055298,-5.493154946957723
1708435913.8348918,-1.9674001932144165,-1.3753826332143326,-2.5957286993609827,5.948631870537557,1.10712468624115,-5.493351999913351
1708435913.8369079,-1.9652494192123413,-1.375977100139,-2.596370522175924,5.946687567024984,1.1079007387161255,-5.493445161973135
1708435913.838924,-1.9630441665649414,-1.376579688196518,-2.5970128218280237,5.944744455605306,1.1086138486862183,-5.493616882954733
1708435913.8408997,-1.9608309268951416,-1.3772636216929932,-2.5976269880877894,5.942819106369772,1.1091982126235962,-5.493752602730886
1708435913.842912,-1.9586154222488403,-1.3778706950000306,-2.5982304255114954,5.940729248314657,1.1099531650543213,-5.49388432899584
1708435913.844906,-1.9563910961151123,-1.3784717631391068,-2.598865572606222,5.938694941788473,1.110796332359314,-5.493999306355612
1708435913.8469188,-1.954250693321228,-1.3790673029473801,-2.5994895140277308,5.936709034233846,1.1115694046020508,-5.494150463734762
1708435913.848957,-1.9520163536071777,-1.3796981138041993,-2.6001136938678187,5.934790241509237,1.1122831106185913,-5.494312051926748
1708435913.85089,-1.9498717784881592,-1.3803455394557496,-2.600670401250021,5.93277798870162,1.1130212545394897,-5.494338277970449
1708435913.852914,-1.9476591348648071,-1.3810249131968995,-2.601278845463888,5.930799710541525,1.113692283630371,-5.494421962891714
1708435913.8549163,-1.9454114437103271,-1.381643922334053,-2.601840321217672,5.928714501648702,1.114470362663269,-5.494549397622244
1708435913.8569179,-1.9432498216629028,-1.3822170060924073,-2.6024189631091517,5.926669704705038,1.115281343460083,-5.494645003472463
1708435913.8589067,-1.9410263299942017,-1.3829341393760224,-2.6030882040606897,5.924637663155355,1.116119384765625,-5.494748417531149
1708435913.8609207,-1.9388129711151123,-1.3835043621114274,-2.60370380083193,5.922624695092001,1.1168906688690186,-5.494879666958944
1708435913.8629146,-1.936672568321228,-1.3842127931169053,-2.6042702833758753,5.920659887581625,1.1176536083221436,-5.4949883858310145
1708435913.8649156,-1.9345059394836426,-1.384769619708397,-2.6048813501941126,5.918590771942892,1.1184402704238892,-5.4950218240367334
1708435913.8669024,-1.9323234558105469,-1.385429249410965,-2.6054683367358606,5.916559326439657,1.1190725564956665,-5.495223347340719
1708435913.8689005,-1.9301471710205078,-1.3861041975072403,-2.6060317198382776,5.914633381157675,1.119825839996338,-5.495314423237936
1708435913.8708944,-1.9279375076293945,-1.386754886513092,-2.6065691153155726,5.912588941841879,1.1205058097839355,-5.495380703602926
1708435913.8729138,-1.9257495403289795,-1.3873645973256608,-2.6071398893939417,5.910546886711874,1.1212596893310547,-5.49550569454302
1708435913.8748987,-1.9236024618148804,-1.3880362671664734,-2.607788626347677,5.908447134285726,1.1219714879989624,-5.495611969624655
1708435913.876903,-1.921390175819397,-1.3886829924634476,-2.6083646456347864,5.906592237740316,1.1227298974990845,-5.4957162777530115
1708435913.8789039,-1.9192242622375488,-1.389329971080162,-2.6089256445514124,5.904631006508627,1.1234740018844604,-5.495856706296102
1708435913.880915,-1.9169865846633911,-1.389927790766098,-2.6094961802112024,5.902725684433737,1.1242610216140747,-5.49596089521517
1708435913.8829162,-1.9148236513137817,-1.3905918014100571,-2.6101418177234095,5.90068672874526,1.124975323677063,-5.495994750653402
1708435913.8849294,-1.9125598669052124,-1.3912466925433655,-2.6107171217547815,5.898701059609213,1.1257333755493164,-5.496114138756887
1708435913.886915,-1.9103540182113647,-1.3919230264476319,-2.6112876574145716,5.8967429278190515,1.1264407634735107,-5.496283475552694
1708435913.888901,-1.908091425895691,-1.3925278049758454,-2.611893955861227,5.89468406417922,1.1272424459457397,-5.496398929749624
1708435913.8909228,-1.9058997631072998,-1.3931340289166947,-2.612467352543966,5.8927204487617395,1.1279510259628296,-5.4964250961886805
1708435913.892936,-1.9037920236587524,-1.3937562269023438,-2.6131182352649134,5.89065836647109,1.1286039352416992,-5.496606711541311
1708435913.8949006,-1.901612401008606,-1.3944289100221177,-2.6136842409717005,5.888658273011007,1.1293758153915405,-5.49662417570223
1708435913.8969622,-1.8994543552398682,-1.394982488160469,-2.6142619291888636,5.886744487076559,1.1301013231277466,-5.496740047131674
1708435913.8989003,-1.8972136974334717,-1.3956745576909562,-2.6149359385119837,5.8846486685569666,1.1307889223098755,-5.49688029686083
1708435913.900917,-1.8949891328811646,-1.3962929558805008,-2.6155312697040003,5.882682072907247,1.1315662860870361,-5.4969714919673365
1708435913.9029405,-1.8927810192108154,-1.3969261807254334,-2.6161275545703333,5.880630481034078,1.1322944164276123,-5.497116152440206
1708435913.9049194,-1.8905614614486694,-1.397459940319397,-2.616685454045431,5.878676283150472,1.1330231428146362,-5.497211817895071
1708435913.9069226,-1.888316035270691,-1.398123787050583,-2.6172965208636683,5.876645791321554,1.1337268352508545,-5.497298840676443
1708435913.9089246,-1.8861167430877686,-1.3987796020558854,-2.617945734654562,5.874725925713339,1.1344270706176758,-5.497422460709707
1708435913.9108884,-1.8838927745819092,-1.399378315811493,-2.6185360590564173,5.872746336251058,1.135149359703064,-5.497513775025503
1708435913.9128962,-1.8816711902618408,-1.4000010651401062,-2.6191187540637415,5.870753752976217,1.135903239250183,-5.497609321271078
1708435913.9149015,-1.8795355558395386,-1.400535987024643,-2.619725052510397,5.8688158867652795,1.1366076469421387,-5.497801605855123
1708435913.9169447,-1.8772767782211304,-1.4012452822974701,-2.620380703602926,5.866789567261495,1.137326717376709,-5.497881297265188
1708435913.9189155,-1.8750475645065308,-1.4018429678729554,-2.6209707895862024,5.864720093994894,1.1380760669708252,-5.498000685368673
1708435913.9209218,-1.8729225397109985,-1.402471275334694,-2.6215534845935267,5.862716066628256,1.1387594938278198,-5.498071078454153
1708435913.922918,-1.8706859350204468,-1.4030691248229523,-2.6221776644336146,5.8607133505638025,1.1394847631454468,-5.498199407254354
1708435913.9248917,-1.868491768836975,-1.4036888492158432,-2.622789446507589,5.858706104546346,1.1402337551116943,-5.498339716588156
1708435913.9268975,-1.8662478923797607,-1.4043566149524231,-2.6234286467181605,5.856722342758932,1.1409785747528076,-5.498398546372549
1708435913.9289382,-1.8641098737716675,-1.4049290281585236,-2.624058548604147,5.854693639069357,1.141756534576416,-5.498555068169729
1708435913.930895,-1.861894965171814,-1.4055811029723664,-2.6246710459338587,5.8527012942130945,1.1425386667251587,-5.498576883469717
1708435913.932915,-1.8596649169921875,-1.406216324572899,-2.625195566807882,5.8506672261054895,1.143315076828003,-5.498753611241476
1708435913.9348843,-1.8575037717819214,-1.4068440657905121,-2.6258063952075403,5.84866892078475,1.1440030336380005,-5.498816970978872
1708435913.9369261,-1.855283260345459,-1.4074936521104355,-2.6263895670520228,5.8467222330863855,1.1447323560714722,-5.498968903218405
1708435913.9389036,-1.8530484437942505,-1.408125491147377,-2.6269853750811976,5.844758260041036,1.1454081535339355,-5.498986546193258
1708435913.9408913,-1.8508540391921997,-1.4087940913489838,-2.627552096043722,5.842790353089132,1.1461005210876465,-5.499163631592886
1708435913.9429126,-1.8486701250076294,-1.4093786191991349,-2.628134552632467,5.840871917992391,1.1468660831451416,-5.4992102424251
1708435913.9448986,-1.8464916944503784,-1.4100907009891053,-2.628759209309713,5.8388908980186365,1.1476229429244995,-5.499375526105062
1708435913.94692,-1.8442742824554443,-1.4106608045152207,-2.629400078450338,5.836874711304464,1.1483961343765259,-5.499453727399008
1708435913.948917,-1.8420841693878174,-1.4112953853658219,-2.629943911229269,5.834907638817587,1.1491491794586182,-5.499582235013143
1708435913.9508967,-1.8398797512054443,-1.4119562220624466,-2.63055664697756,5.832929122238912,1.1498481035232544,-5.4996535817729395
1708435913.9529305,-1.8376904726028442,-1.4125038248351593,-2.631160322819845,5.83082531669692,1.1505576372146606,-5.499765876923696
1708435913.954901,-1.8355172872543335,-1.4130951178124924,-2.6317432562457483,5.828749048500814,1.1513062715530396,-5.499873284493582
1708435913.9569175,-1.8333430290222168,-1.4137141418508072,-2.6323204676257532,5.826791155129232,1.1520438194274902,-5.499935273324148
1708435913.9589496,-1.8311479091644287,-1.4143578124097367,-2.6329546610461634,5.824797260552206,1.1527796983718872,-5.500055793915884
1708435913.960948,-1.8289343118667603,-1.4149924975684662,-2.633580748234884,5.822821008950033,1.1535228490829468,-5.500172022973196
1708435913.9629252,-1.82675039768219,-1.4156348270228882,-2.634155813847677,5.820788609772482,1.1542383432388306,-5.500258866940634
1708435913.964942,-1.824514389038086,-1.416294590835907,-2.634709898625509,5.818874227791586,1.1549584865570068,-5.50041109720339
1708435913.966922,-1.8222585916519165,-1.416929618721344,-2.6353049913989466,5.8167656538780115,1.1556438207626343,-5.500490371380941
