Eg3-git/Classifiers/Data Collection/u3/u3cir1_ur3e_joint_states.csv
time,elbow_joint,shoulder_lift_joint,shoulder_pan_joint,wrist_1_joint,wrist_2_joint,wrist_3_joint
1708435854.7285354,-2.1492955684661865,-1.3362182837775727,-2.5285335222827356,6.130710708885946,1.021165370941162,-5.476898554955618
1708435854.7305465,-2.149311065673828,-1.3361898225596924,-2.528562847767965,6.130737173348226,1.0211610794067383,-5.476875726376669
1708435854.7325373,-2.1492748260498047,-1.336128981118538,-2.528555218373434,6.130664217263021,1.0211610794067383,-5.476854924355642
1708435854.7345595,-2.149270534515381,-1.3361674708179017,-2.5285430590258997,6.130598532944479,1.021181583404541,-5.476781729851858
1708435854.7365658,-2.149259090423584,-1.3361421388438721,-2.5285473505603235,6.130568253784933,1.0211981534957886,-5.476762358342306
1708435854.7385464,-2.1492340564727783,-1.336142123942711,-2.528522316609518,6.130466687470236,1.021136999130249,-5.476766828690664
1708435854.7405787,-2.1492114067077637,-1.3360809993794938,-2.5284929911242884,6.130431997566976,1.0211619138717651,-5.476685051118032
1708435854.7425613,-2.1491947174072266,-1.3360231828740616,-2.528513495122091,6.130371796875753,1.0210998058319092,-5.4767648617373865
1708435854.7445807,-2.149211883544922,-1.336110846405365,-2.528538767491476,6.130406129151144,1.0211575031280518,-5.4767295757876795
1708435854.7465744,-2.149211883544922,-1.3360690486482163,-2.528518025075094,6.130267250328817,1.02114999294281,-5.4767009059535425
1708435854.7485409,-2.149134397506714,-1.3360496771386643,-2.5285266081439417,6.1301846382911584,1.021136999130249,-5.476623658333914
1708435854.7505574,-2.1491644382476807,-1.3360615980676194,-2.5285146872149866,6.130202281266012,1.0211052894592285,-5.4766369501696985
1708435854.7525601,-2.1491360664367676,-1.3360584539226075,-2.528522316609518,6.130132305413046,1.0210847854614258,-5.4765934387790125
1708435854.7545621,-2.1490840911865234,-1.3360302311233063,-2.528559748326437,6.130035149842062,1.0210933685302734,-5.4765812198268335
1708435854.7565339,-2.149001359939575,-1.3360271912864228,-2.5285640398608606,6.129984128266134,1.0210809707641602,-5.47649193206896
1708435854.7585335,-2.1490390300750732,-1.33600169539962,-2.5285308996783655,6.130026924401083,1.0210647583007812,-5.4765008131610315
1708435854.7605574,-2.149003028869629,-1.336006076341011,-2.5285235087024134,6.12990020492629,1.0210940837860107,-5.476472202931539
1708435854.7625344,-2.1489877700805664,-1.3359659773162385,-2.5284786860095423,6.129873263626852,1.0210528373718262,-5.476424638425009
1708435854.7645535,-2.1489877700805664,-1.335962639456131,-2.5284655729876917,6.129822242050924,1.0210405588150024,-5.476391975079672
1708435854.7665727,-2.148923397064209,-1.335987926726677,-2.528532091771261,6.129742729454794,1.021025538444519,-5.4763692061053675
1708435854.7685413,-2.148911952972412,-1.3359712970307847,-2.5284698645221155,6.129661786347189,1.0210535526275635,-5.476309661065237
1708435854.7705774,-2.1488640308380127,-1.3359669160893937,-2.5284579435931605,6.129618394165792,1.0210211277008057,-5.476269189511434
1708435854.7725565,-2.1488237380981445,-1.3359192621758957,-2.5284698645221155,6.129538047104635,1.0209717750549316,-5.476254169140951
1708435854.774538,-2.148836612701416,-1.3359149259379883,-2.528450314198629,6.129408108979025,1.0209524631500244,-5.476239208375112
1708435854.776548,-2.148763418197632,-1.3358897280744095,-2.5284176508532923,6.129271852761068,1.0209444761276245,-5.47616017261614
1708435854.7785351,-2.1487555503845215,-1.3358660352281113,-2.528458897267477,6.1292492029960535,1.020961880683899,-5.476092819367544
1708435854.7805429,-2.148764133453369,-1.335859314804413,-2.5284069220172327,6.129206526070394,1.020880103111267,-5.476082150136129
1708435854.7825606,-2.1487245559692383,-1.3358434003642579,-2.5284231344806116,6.1290931580360315,1.020843744277954,-5.476033453141348
1708435854.7845433,-2.1486926078796387,-1.3358104538968583,-2.528414551411764,6.128985512047567,1.0208687782287598,-5.475989822541372
1708435854.7865543,-2.1486573219299316,-1.3358356219581147,-2.528418842946188,6.128909098892965,1.0208320617675781,-5.47594660917391
1708435854.7885473,-2.148583173751831,-1.3357910972884675,-2.5283950010882776,6.128896105080404,1.0208287239074707,-5.4758615533458155
1708435854.7905517,-2.148608684539795,-1.3358280968717118,-2.5283663908587855,6.128754722862997,1.0207793712615967,-5.475797239934103
1708435854.7925556,-2.1485486030578613,-1.3357833188823243,-2.5283826033221644,6.128658520966329,1.0207762718200684,-5.475835744534628
1708435854.7945533,-2.1485047340393066,-1.3357418191483994,-2.528375212346212,6.128531563072958,1.0207935571670532,-5.475762967263357
1708435854.7965434,-2.1484317779541016,-1.3357550960830231,-2.528374973927633,6.1284758923347376,1.0207358598709106,-5.475744668637411
1708435854.7985482,-2.1484317779541016,-1.335796446805336,-2.52833062807192,6.128329980164327,1.0207114219665527,-5.475713018571035
1708435854.8005908,-2.1484293937683105,-1.3357475262931366,-2.528313938771383,6.128312337189474,1.0207126140594482,-5.475595239792959
1708435854.802578,-2.1483607292175293,-1.3357889515212555,-2.5282605330096644,6.12814353683547,1.0206798315048218,-5.475563947354452
1708435854.8045423,-2.148319959640503,-1.3357030314258118,-2.528269354497091,6.128046500473776,1.0206798315048218,-5.475425485764639
1708435854.8065429,-2.1482934951782227,-1.3356832575849076,-2.5283151308642786,6.127971398621359,1.0206023454666138,-5.475418988858358
1708435854.808547,-2.1482653617858887,-1.3356669706157227,-2.5283029715167444,6.1278430102165125,1.0206209421157837,-5.47536683479418
1708435854.8105485,-2.1481964588165283,-1.3356550943902512,-2.5282540957080286,6.127694594651022,1.02057945728302,-5.475374106560842
1708435854.8125563,-2.1481828689575195,-1.3356061440757294,-2.5282464663134974,6.127631532936849,1.020547866821289,-5.475326124821798
1708435854.814567,-2.148122549057007,-1.3356194210103531,-2.528217140828268,6.12750409820632,1.0205237865447998,-5.475192073975698
1708435854.816559,-2.1480746269226074,-1.335648776297905,-2.5282629171954554,6.127432095795431,1.0204744338989258,-5.4751485029803675
1708435854.8185437,-2.1480469703674316,-1.335593433385231,-2.5282462278949183,6.127304780274191,1.0204873085021973,-5.475055996571676
1708435854.820544,-2.147982597351074,-1.3355341118625184,-2.528217856084005,6.127192723542013,1.02046799659729,-5.475045506154196
1708435854.8226078,-2.1479310989379883,-1.3355516505292435,-2.5281692186938685,6.127069461136617,1.0204471349716187,-5.474982563649313
1708435854.824569,-2.1478493213653564,-1.3355193448117753,-2.52820593515505,6.126903998642721,1.0204319953918457,-5.474914197121755
1708435854.8265376,-2.147793769836426,-1.3355238151601334,-2.528116528187887,6.126784074097433,1.0204119682312012,-5.474858407174246
1708435854.8285716,-2.1477415561676025,-1.3354920756867905,-2.5281384626971644,6.1266599772270105,1.0203553438186646,-5.47479880252947
1708435854.8305454,-2.1477067470550537,-1.3354995411685486,-2.5281339327441614,6.12654875495986,1.0203641653060913,-5.474784974251882
1708435854.8325803,-2.147674322128296,-1.33548458040271,-2.528151575719015,6.126454221993246,1.0203194618225098,-5.474676076565878
1708435854.8345447,-2.1476521492004395,-1.3355021637729187,-2.528098169957296,6.126298177033224,1.020353078842163,-5.474562708531515
1708435854.836559,-2.147573709487915,-1.3354485642961045,-2.5280655066119593,6.1261576292808435,1.0203115940093994,-5.474465672169821
1708435854.838553,-2.147519111633301,-1.3354084354690094,-2.528086010609762,6.126017319947042,1.020259141921997,-5.474438850079672
1708435854.8405612,-2.147459030151367,-1.3354008954814454,-2.5281243960009974,6.125917780190267,1.020235300064087,-5.474355224763052
1708435854.842612,-2.147390127182007,-1.3353516918471833,-2.5280500094043177,6.125811207085409,1.0202317237854004,-5.474316064511434
1708435854.8445907,-2.1473398208618164,-1.3354053062251587,-2.5280097166644495,6.125645148545065,1.0201705694198608,-5.474235717450277
1708435854.846563,-2.1472949981689453,-1.3353529584458848,-2.5280750433551233,6.125526654511251,1.0201835632324219,-5.474163655434744
1708435854.848547,-2.147275924682617,-1.3353331846049805,-2.528055731450216,6.125357734947958,1.020192265510559,-5.474084440861837
1708435854.8505313,-2.1472082138061523,-1.3352800023606797,-2.528010908757345,6.125226962357321,1.0201396942138672,-5.474008444939749
1708435854.8525553,-2.147171974182129,-1.3352636408856888,-2.528076235448019,6.125090944557943,1.0200906991958618,-5.473957959805624
1708435854.8545837,-2.1471073627471924,-1.335236371760704,-2.527998749409811,6.124942409783163,1.0200014114379883,-5.473860863839285
1708435854.8565402,-2.147047281265259,-1.3352319461158295,-2.527978245412008,6.124778139382162,1.0200469493865967,-5.4737518469439905
1708435854.8585312,-2.1470494270324707,-1.3352825355580826,-2.527982536946432,6.12464331367568,1.0200350284576416,-5.473738018666403
1708435854.8605275,-2.146944999694824,-1.3352141094258805,-2.5279749075519007,6.124527919083395,1.0199946165084839,-5.473641161118643
1708435854.8625255,-2.1468522548675537,-1.335249589090683,-2.527954403554098,6.124375092774191,1.0199226140975952,-5.4736109415637415
1708435854.864543,-2.146869659423828,-1.3352141392282029,-2.52793795267214,6.124232399254598,1.0199227333068848,-5.4734376708613794
1708435854.8665397,-2.1468095779418945,-1.33517678201709,-2.5279179255114954,6.124039518624105,1.0199401378631592,-5.473382596169607
1708435854.8685317,-2.1467044353485107,-1.3351617616466065,-2.5279510656939905,6.1239123223121545,1.01987886428833,-5.473331574593679
1708435854.870539,-2.146693706512451,-1.3351944249919434,-2.5279386679278772,6.1237923977668665,1.0198709964752197,-5.4732434193240564
1708435854.8725586,-2.1466054916381836,-1.3351451319507142,-2.527919117604391,6.123620497971334,1.019834280014038,-5.473217908536093
1708435854.8745234,-2.1465463638305664,-1.3350930970958252,-2.527890984212057,6.123522865563192,1.0198097229003906,-5.473121050988333
1708435854.8765368,-2.1464731693267822,-1.3351552349380036,-2.5279117266284388,6.1232759831245325,1.0197653770446777,-5.472995762025015
1708435854.8785367,-2.1463892459869385,-1.335150809293129,-2.5278952757464808,6.123148667603292,1.0197741985321045,-5.472956244145529
1708435854.8805373,-2.1463210582733154,-1.335106299524643,-2.5278428236590784,6.123012292176046,1.0197172164916992,-5.472898129616873
1708435854.882554,-2.1462817192077637,-1.335107536321022,-2.5278878847705286,6.1228041527564905,1.0196975469589233,-5.472873989735739
1708435854.8845596,-2.1461896896362305,-1.3350169372609635,-2.5278549830066126,6.1227348921592615,1.019674301147461,-5.472754661236898
1708435854.8865325,-2.146146297454834,-1.33501252651725,-2.52783972421755,6.122574674874105,1.0196417570114136,-5.472624901925222
1708435854.8885365,-2.1460378170013428,-1.3350332987359543,-2.5278027693377894,6.122370111733236,1.0196666717529297,-5.472627703343527
1708435854.8905435,-2.1459789276123047,-1.335004748111107,-2.527827803288595,6.12222574928359,1.019608974456787,-5.4725109974490564
1708435854.8925653,-2.1459035873413086,-1.3350464266589661,-2.527832094823019,6.122128712921896,1.0196382999420166,-5.472410027180807
1708435854.894544,-2.1458067893981934,-1.335013509993889,-2.5277860800372522,6.121930110245504,1.0195891857147217,-5.472355965767996
1708435854.8965828,-2.145764112472534,-1.335037724380829,-2.527832094823019,6.121820556908407,1.0195814371109009,-5.472285215054647
1708435854.898551,-2.1457371711730957,-1.3350061041167756,-2.5277534166919153,6.121641385346212,1.019553303718567,-5.472233120595114
1708435854.9005914,-2.1455910205841064,-1.335009129052498,-2.527790609990255,6.121424782067098,1.019566297531128,-5.472128693257467
1708435854.9025807,-2.1455113887786865,-1.3349527579597016,-2.527761999760763,6.121297704964437,1.0195589065551758,-5.471957031880514
1708435854.9045675,-2.1454274654388428,-1.3349824112704773,-2.5277589003192347,6.121134388237753,1.0195374488830566,-5.471994225178854
1708435854.9065597,-2.145343780517578,-1.335010365848877,-2.5277708212481897,6.120860087662496,1.0195212364196777,-5.47184801498522
1708435854.9085522,-2.145341396331787,-1.3349943918040772,-2.5277915636645716,6.1207220433051965,1.0195138454437256,-5.471789542828695
1708435854.9105659,-2.145179510116577,-1.33499130726371,-2.527762238179342,6.120589005738058,1.0195138454437256,-5.4717087785350245
1708435854.9125721,-2.145141124725342,-1.334970311527588,-2.527799193059103,6.120396363526144,1.0195015668869019,-5.471666995679037
1708435854.914547,-2.1449851989746094,-1.3349780899337311,-2.527794901524679,6.120172250061788,1.0194659233093262,-5.471571091805593
1708435854.9165847,-2.144871950149536,-1.334973783498146,-2.527807060872213,6.120022165566244,1.0194940567016602,-5.471470002328054
1708435854.9185529,-2.1447808742523193,-1.334970311527588,-2.5277786890613,6.119801509171285,1.0194447040557861,-5.471447292958395
1708435854.9205422,-2.144669532775879,-1.335043342118599,-2.5278189818011683,6.119565474777975,1.0194616317749023,-5.471391801034109
1708435854.9225676,-2.1445512771606445,-1.3349943918040772,-2.527790609990255,6.119338261872091,1.0195027589797974,-5.471271101628439
1708435854.924579,-2.1444380283355713,-1.3349737983993073,-2.5277698675738733,6.11917661407546,1.019510269165039,-5.47124827304949
1708435854.9265811,-2.144261121749878,-1.3349943918040772,-2.527855936680929,6.118968713074484,1.0194897651672363,-5.471094731484548
1708435854.9285777,-2.144200086593628,-1.3349780899337311,-2.527823273335592,6.118757831841268,1.0194778442382812,-5.4710304776774805
1708435854.9305453,-2.1440670490264893,-1.3349987727454682,-2.5278754870044153,6.118521797447958,1.019514560699463,-5.47099751630892
1708435854.932593,-2.143894672393799,-1.3349885207465668,-2.5278471151935022,6.118339168816366,1.0194940567016602,-5.470921341572897
1708435854.934544,-2.14377760887146,-1.3350389760783692,-2.5278309027301233,6.1180916903312585,1.0195181369781494,-5.470816973839895
1708435854.9365587,-2.1436400413513184,-1.3350389760783692,-2.5279160181628626,6.117889272957601,1.0195505619049072,-5.470779124890463
1708435854.9385443,-2.143500328063965,-1.33503773928199,-2.5278952757464808,6.117628323822775,1.0195374488830566,-5.47067624727358
1708435854.9405708,-2.1433374881744385,-1.335058407192566,-2.527947250996725,6.117437946587362,1.019566297531128,-5.470605854188101
1708435854.9426188,-2.1431524753570557,-1.3350496155074616,-2.5279672781573694,6.117084014206686,1.0195987224578857,-5.470525685940878
1708435854.9445524,-2.143010377883911,-1.3350780767253418,-2.5279749075519007,6.11689983585433,1.0195857286453247,-5.470504347478048
1708435854.946574,-2.1427717208862305,-1.3350780767253418,-2.5280523935901087,6.116599666863241,1.019593596458435,-5.470383111630575
1708435854.9485471,-2.1426093578338623,-1.3350975078395386,-2.5280185381518763,6.116303789406576,1.0196514129638672,-5.4702492395984095
1708435854.950551,-2.1424458026885986,-1.3351269376328965,-2.5280588308917444,6.116033065110006,1.019659161567688,-5.470254842435018
1708435854.9525526,-2.142195224761963,-1.3351662170938035,-2.5281079451190394,6.115705835610189,1.0196948051452637,-5.47019195953478
1708435854.9545603,-2.1419780254364014,-1.3351780635169526,-2.5282095114337366,6.115430700569906,1.0197726488113403,-5.4701531569110315
1708435854.956559,-2.1417152881622314,-1.3352273118546982,-2.5281952063189905,6.1150317070777795,1.0197627544403076,-5.470060590897695
1708435854.9585364,-2.141572952270508,-1.3352141392282029,-2.5281952063189905,6.114688026696005,1.0197584629058838,-5.470021490250723
1708435854.960554,-2.141313314437866,-1.3352539998343964,-2.528250757847921,6.114393102913656,1.0197827816009521,-5.46986818710436
1708435854.9625404,-2.1410417556762695,-1.335264877682068,-2.5282703081714075,6.114125597267904,1.0198678970336914,-5.4698408285724085
1708435854.9646616,-2.1407811641693115,-1.3353062582067032,-2.528355662022726,6.11372326591567,1.0198875665664673,-5.469830338154928
1708435854.966563,-2.140501022338867,-1.3353303682855149,-2.528374973927633,6.113340961724081,1.0199270248413086,-5.4696842471705835
1708435854.9685364,-2.1402032375335693,-1.3353331846049805,-2.5284157435046595,6.112986552506246,1.0200121402740479,-5.469649557267324
1708435854.970544,-2.139937400817871,-1.3353559982827683,-2.5285614172564905,6.112538444786825,1.0200642347335815,-5.469590250645773
1708435854.9725718,-2.1395316123962402,-1.335445375447609,-2.5285308996783655,6.112109529763021,1.020145297050476,-5.469476584588186
1708435854.974538,-2.1392529010772705,-1.3354768019965668,-2.528583590184347,6.111698257714071,1.0201835632324219,-5.469462994729177
1708435854.9765787,-2.138892889022827,-1.3355337542346497,-2.5286436716662806,6.111225950508871,1.020309567451477,-5.469407502804891
1708435854.9785545,-2.1385598182678223,-1.3355324876359482,-2.5287230650531214,6.110857832222738,1.0203937292099,-5.469319585953848
1708435854.980546,-2.1381587982177734,-1.3356139820865174,-2.528754774724142,6.110402452736654,1.0204613208770752,-5.469242338334219
1708435854.982566,-2.137829065322876,-1.3356040132096787,-2.5289128462420862,6.1100255129630945,1.0205411911010742,-5.469158713017599
1708435854.984556,-2.1374175548553467,-1.335705192094185,-2.5289467016803187,6.109509694367208,1.0206865072250366,-5.469112161790029
1708435854.9865484,-2.136932373046875,-1.33574132741008,-2.529031817113058,6.108883487969198,1.02074134349823,-5.469065252934591
1708435854.988567,-2.136547327041626,-1.3358131510070343,-2.529163662587301,6.108306634217062,1.020833134651184,-5.468992416058676
1708435854.9905596,-2.1360559463500977,-1.3358280819705506,-2.5292967001544397,6.107768642693319,1.0210678577423096,-5.4689447919475
1708435854.9925494,-2.1355643272399902,-1.3358836782029648,-2.5293644110309046,6.10722433307723,1.0211271047592163,-5.46890110174288
1708435854.9945579,-2.1350913047790527,-1.3359193217805405,-2.5294843355761927,6.106596457749166,1.0212799310684204,-5.468780640755789
1708435854.9965634,-2.134632110595703,-1.3358973276666184,-2.5295878092395228,6.105968820839681,1.0213947296142578,-5.468769494687216
1708435854.9985554,-2.1341049671173096,-1.3359810423902054,-2.529687229787008,6.1054526446159265,1.0215325355529785,-5.468754593526022
1708435855.0005465,-2.13362979888916,-1.3360734295896073,-2.529893223439352,6.104838955193319,1.0216799974441528,-5.468592707310812
1708435855.0025403,-2.1330907344818115,-1.3361258667758484,-2.5300167242633265,6.1042247889335535,1.0218371152877808,-5.468590203915731
1708435855.0045905,-2.132509708404541,-1.3362433922341843,-2.5301323572741907,6.103577244072714,1.0219608545303345,-5.468514327202932
1708435855.006555,-2.1320114135742188,-1.3362913143685837,-2.5302684942828577,6.102928626328268,1.022194743156433,-5.468491379414694
1708435855.0085828,-2.1314117908477783,-1.3363380444100876,-2.530404869710104,6.102252232819357,1.0222891569137573,-5.468406562005178
1708435855.0105486,-2.1308751106262207,-1.3364051443389435,-2.53056508699526,6.101551759033956,1.0225350856781006,-5.468327228222982
1708435855.0125751,-2.1302690505981445,-1.3365137738040467,-2.5307243506061,6.100817549019613,1.0227195024490356,-5.468263391648428
1708435855.0145662,-2.1296133995056152,-1.3366096776774903,-2.5308802763568323,6.10002230384902,1.0229002237319946,-5.46819913784136
1708435855.0165813,-2.128946304321289,-1.3366608035615464,-2.5310447851764124,6.099253046303549,1.023062825202942,-5.468155745659963
1708435855.0185597,-2.128300428390503,-1.3367400628379364,-2.5311594645129603,6.098503339081564,1.0232877731323242,-5.468071047459738
1708435855.0205753,-2.1276779174804688,-1.336881385450699,-2.5314016977893274,6.09777187088088,1.0235247611999512,-5.4680198470698755
1708435855.022557,-2.126986265182495,-1.3369981062463303,-2.5315445105182093,6.097026574402609,1.0237001180648804,-5.467992846165792
1708435855.0245721,-2.1262736320495605,-1.3370717477849503,-2.531720225011007,6.0962175009544275,1.0239577293395996,-5.467920724545614
1708435855.0265956,-2.125584363937378,-1.3371878874352952,-2.531911913548605,6.095365869789877,1.0242398977279663,-5.46785676876177
1708435855.0285642,-2.124826192855835,-1.3373120737126847,-2.532135550175802,6.094505655556478,1.0244178771972656,-5.4678338209735315
1708435855.0305414,-2.1240882873535156,-1.3374164414456864,-2.5323897043811243,6.093538272171774,1.0247520208358765,-5.467762295399801
1708435855.03258,-2.1233463287353516,-1.3375687015107651,-2.5326219240771692,6.09261308887557,1.0249109268188477,-5.467632774506704
1708435855.034543,-2.1225523948669434,-1.3376840961030503,-2.5327964464770716,6.091639745026388,1.025139331817627,-5.46766305366625
1708435855.0365448,-2.121767044067383,-1.3377947223237534,-2.5330165068255823,6.09076093414382,1.025404930114746,-5.467532817517416
1708435855.0385497,-2.1209661960601807,-1.3378700476935883,-2.5332611242877405,6.089804637223043,1.0256586074829102,-5.467535320912496
1708435855.040577,-2.120041847229004,-1.3379942041686554,-2.5335055033313196,6.088819610863485,1.025914192199707,-5.467410270367758
1708435855.0425754,-2.1191999912261963,-1.3381583851626893,-2.533667866383688,6.087710487633505,1.0261666774749756,-5.467362288628713
1708435855.0445876,-2.118265390396118,-1.338294432764389,-2.533973280583517,6.086725818901815,1.0264225006103516,-5.46729946533312
1708435855.046562,-2.117421865463257,-1.3383962971023102,-2.534266773854391,6.085579621582784,1.0267360210418701,-5.467219058667318
1708435855.0485861,-2.1164705753326416,-1.3385114085725327,-2.5344935099231165,6.0845022080238245,1.0270497798919678,-5.46714693704714
1708435855.0505424,-2.115483522415161,-1.3386874806931992,-2.534732166920797,6.083365905075826,1.0273417234420776,-5.467140738164083
1708435855.0525644,-2.1144583225250244,-1.3387740117362519,-2.5350452105151575,6.082247006684103,1.02766752243042,-5.467032198105947
1708435855.054559,-2.1135191917419434,-1.3389790517142792,-2.5352850596057337,6.080948221474447,1.027967929840088,-5.466984156762258
1708435855.0567837,-2.1125082969665527,-1.3391434115222474,-2.5355284849749964,6.079816686898031,1.0282717943191528,-5.46686697403063
1708435855.058767,-2.111457586288452,-1.3393197816661377,-2.5358341375934046,6.078691947251119,1.0285636186599731,-5.466849629079
1708435855.060557,-2.1104378700256348,-1.3394215565970917,-2.5361087957965296,6.077423560410299,1.0288925170898438,-5.466788355504171
1708435855.0625663,-2.1093108654022217,-1.3395561438849946,-2.5363648573504847,6.0762542364890955,1.029232144355774,-5.466721181069509
1708435855.0645921,-2.1082170009613037,-1.3397321564010163,-2.5366275946246546,6.0749233839805505,1.029557228088379,-5.466666106377737
1708435855.0665638,-2.1070926189422607,-1.339920700793602,-2.536961380635397,6.073642122536459,1.0298813581466675,-5.4665972034083765
1708435855.0685518,-2.1059863567352295,-1.3400880557349701,-2.537208143864767,6.072285163193502,1.0302869081497192,-5.466497306023733
1708435855.0705488,-2.1047985553741455,-1.3402225983193894,-2.5375493208514612,6.070951568871298,1.030614972114563,-5.466446284447805
1708435855.0725613,-2.1036324501037598,-1.340397374039032,-2.537894074116842,6.069555389672079,1.0309877395629883,-5.466395203267233
1708435855.074561,-2.1024272441864014,-1.3405979883721848,-2.5381651560412806,6.0681954500968835,1.0313444137573242,-5.46628982225527
1708435855.0765588,-2.1011881828308105,-1.3408504736474534,-2.5384488741504114,6.0668760416801355,1.0317416191101074,-5.466291968022482
1708435855.0785575,-2.0999813079833984,-1.341029779320099,-2.5387685934649866,6.065427887230673,1.03209388256073,-5.466192070637838
1708435855.0805628,-2.0986812114715576,-1.3411960017732163,-2.5390759150134485,6.064093935280599,1.0325199365615845,-5.46607488790621
1708435855.0825667,-2.0974411964416504,-1.3414022338441391,-2.539413038884298,6.062652218132772,1.0328691005706787,-5.466071609650747
1708435855.0845537,-2.0961833000183105,-1.3416350346854706,-2.539698902760641,6.0611997721488855,1.0332280397415161,-5.465988580380575
1708435855.0865335,-2.094815492630005,-1.3418621730855484,-2.5400894323932093,6.059711921006002,1.0336583852767944,-5.465868178998129
1708435855.0885386,-2.0935373306274414,-1.3420656782439728,-2.540351454411642,6.058168518334188,1.034071683883667,-5.465845052395956
1708435855.090535,-2.092205286026001,-1.3423468631557007,-2.5407241026507776,6.056641447335043,1.0345335006713867,-5.465707723294393
1708435855.0925663,-2.0908031463623047,-1.3425049644759675,-2.541035000477926,6.055066215782919,1.0348641872406006,-5.465669397507803
1708435855.094558,-2.089453935623169,-1.342723326092102,-2.5414121786700647,6.05345498302535,1.0353262424468994,-5.465576891099111
1708435855.0965452,-2.0880892276763916,-1.3429338198951264,-2.541821066533224,6.051768290787496,1.0357755422592163,-5.465566877518789
1708435855.0985618,-2.08659029006958,-1.3432059747031708,-2.5421202818499964,6.050078499108114,1.036159634590149,-5.4654006401645105
1708435855.100538,-2.085202217102051,-1.3434406381896515,-2.5424800554858606,6.048423397331991,1.0366086959838867,-5.465358380471365
1708435855.102562,-2.08376145362854,-1.3436767321876069,-2.5428364912616175,6.046748864441671,1.0370535850524902,-5.465283397828237
1708435855.1045582,-2.082273244857788,-1.343944327240326,-2.543225113545553,6.044925915985861,1.0374951362609863,-5.465198520814077
1708435855.1065822,-2.0807619094848633,-1.3441462230733414,-2.5435922781573694,6.043195712357321,1.0378986597061157,-5.46514326730837
1708435855.1085467,-2.0792782306671143,-1.3444183629802247,-2.543936077748434,6.04146288612441,1.0383654832839966,-5.465031091366903
1708435855.1105483,-2.077746868133545,-1.3446437579444428,-2.54431659380068,6.039691674500265,1.0387523174285889,-5.464947704468862
1708435855.1125574,-2.0761868953704834,-1.3449188780835648,-2.5446799437152308,6.037842976837911,1.0392746925354004,-5.464877192174093
1708435855.114556,-2.0745692253112793,-1.3451789778522034,-2.545080010090963,6.036059009819784,1.0397405624389648,-5.464764122162954
1708435855.1165307,-2.0729923248291016,-1.3454916936210175,-2.5454638640033167,6.034188973694601,1.0402123928070068,-5.464692000542776
1708435855.1185608,-2.0713775157928467,-1.3457289797118683,-2.5459046999560755,6.032432067185201,1.040717601776123,-5.464568142090933
1708435855.1205378,-2.069737434387207,-1.345960558657982,-2.546267811452047,6.030690896302023,1.0411465167999268,-5.4645007888423365
1708435855.122554,-2.068099021911621,-1.3462551993182679,-2.5466635862933558,6.02881549575881,1.0416641235351562,-5.464409534131185
1708435855.124563,-2.0663790702819824,-1.3464972537807007,-2.5470553080188196,6.026921498566427,1.0421082973480225,-5.464305285607473
1708435855.1265516,-2.064685583114624,-1.3468095672181626,-2.547483746205465,6.025019156723776,1.042565107345581,-5.464270357285635
1708435855.1285484,-2.0630006790161133,-1.3470654052546998,-2.5479241053210657,6.023151385575094,1.0430090427398682,-5.464130345975057
1708435855.1305451,-2.06123685836792,-1.347311721449234,-2.5483039061175745,6.021176206856527,1.0435152053833008,-5.464026812707083
1708435855.1325722,-2.0594475269317627,-1.3475855749896546,-2.548776451741354,6.019176471024313,1.0440287590026855,-5.463931206856863
1708435855.1345625,-2.057675361633301,-1.3478904378465195,-2.5492168108569544,6.017196404724874,1.04450523853302,-5.463904265557424
1708435855.1365347,-2.055868625640869,-1.3482341033271332,-2.5495908896075647,6.01513563373641,1.0449533462524414,-5.4637935797320765
1708435855.1385527,-2.0540361404418945,-1.3484804344228287,-2.550018374119894,6.013115274697103,1.0454593896865845,-5.463680211697714
1708435855.1405697,-2.0521762371063232,-1.3487842094949265,-2.5504913965808313,6.0110217211540125,1.0459481477737427,-5.46355647245516
1708435855.142606,-2.05031681060791,-1.3490323287299653,-2.5509188810931605,6.008871900826254,1.0464531183242798,-5.463457409535543
1708435855.1446364,-2.048496961593628,-1.349398450260498,-2.5513506571399134,6.006762373238363,1.046926498413086,-5.463397804890768
1708435855.1465623,-2.0465831756591797,-1.3496929568103333,-2.5518348852740687,6.004608857422628,1.0474148988723755,-5.463270846997396
1708435855.1486173,-2.044642210006714,-1.3499549490264435,-2.552262608204977,6.002512204438009,1.0480012893676758,-5.463162187729971
1708435855.1505308,-2.042703866958618,-1.3503056180528183,-2.552673641835348,6.0003371117408655,1.0484230518341064,-5.463029269372122
1708435855.152561,-2.0407447814941406,-1.3506450069001694,-2.5532036463366907,5.998236048012533,1.0490026473999023,-5.462995652352468
1708435855.15456,-2.0387909412384033,-1.3509841424277802,-2.553638283406393,5.9960282919700525,1.0494420528411865,-5.462888483201162
1708435855.1565564,-2.036795139312744,-1.3514012706330796,-2.5540412108050745,5.993779647141256,1.0499603748321533,-5.462777439747946
1708435855.158538,-2.0347390174865723,-1.3517346543124695,-2.554530207310812,5.991586077004232,1.0504279136657715,-5.462693754826681
1708435855.1605308,-2.0327394008636475,-1.3520637613585968,-2.5549374262439173,5.98933111408309,1.0509012937545776,-5.462508682404653
1708435855.162532,-2.0306904315948486,-1.3524399411729355,-2.5554466883288782,5.986977922707357,1.051443099975586,-5.4624261299716395
1708435855.1645417,-2.0286245346069336,-1.3528226178935547,-2.5558655897723597,5.984781968384542,1.0519558191299438,-5.462252382432119
1708435855.166526,-2.0265073776245117,-1.3531814378551026,-2.556370560322897,5.982402670174398,1.0525538921356201,-5.462149206792013
1708435855.1685386,-2.0244343280792236,-1.3535357278636475,-2.5568252245532435,5.9800253985221765,1.0531398057937622,-5.462054495011465
1708435855.170553,-2.022324800491333,-1.3539843422225495,-2.5572903792010706,5.97758566120223,1.0537248849868774,-5.461886231099264
1708435855.1725464,-2.020174264907837,-1.3543574672988434,-2.5577481428729456,5.975191700249471,1.0542490482330322,-5.461831931267874
1708435855.1745355,-2.0180306434631348,-1.3547880810550232,-2.558187786732809,5.97272406795577,1.054776906967163,-5.461687032376425
1708435855.1765285,-2.0158350467681885,-1.3552131366780777,-2.55867582956423,5.97028278091506,1.055355429649353,-5.461546603833334
1708435855.178527,-2.0136215686798096,-1.3556028467467804,-2.559127394353048,5.96796344497756,1.0558710098266602,-5.461461369191305
1708435855.1805282,-2.0114285945892334,-1.3560080987266083,-2.5595834890948694,5.965681421547689,1.056494116783142,-5.461248163376943
1708435855.1825328,-2.0092194080352783,-1.3564338845065613,-2.5600436369525355,5.963205921440878,1.0570067167282104,-5.461165789757864
1708435855.1845586,-2.006963014602661,-1.3568690878203888,-2.560490671788351,5.960852849274435,1.057486653327942,-5.4610090295421045
1708435855.1872146,-2.0047030448913574,-1.3572590065053483,-2.56095534959902,5.9584025023277185,1.0579591989517212,-5.460917596017019
1708435855.1885476,-2.002534866333008,-1.3576442015222092,-2.561392847691671,5.956063139229574,1.0584115982055664,-5.4608288447009485
1708435855.1905339,-2.0003743171691895,-1.3581046623042603,-2.561828676854269,5.9536887286003015,1.0589284896850586,-5.460639540349142
1708435855.1925514,-1.9982383251190186,-1.3585185271552582,-2.5622640291797083,5.951302039414205,1.0594508647918701,-5.46052855650057
1708435855.194536,-1.9959837198257446,-1.3589447748712082,-2.5626466909991663,5.94885419586257,1.0599592924118042,-5.460376564656393
1708435855.1965327,-1.9938225746154785,-1.3594301652959366,-2.563169304524557,5.946398246079244,1.0604568719863892,-5.460224155579702
1708435855.1985345,-1.9916658401489258,-1.3597581100514908,-2.563596789036886,5.94392870643691,1.0609818696975708,-5.460141781960623
1708435855.200546,-1.9894051551818848,-1.3602133852294465,-2.564024035130636,5.941543328552999,1.061457633972168,-5.459940556679861
1708435855.2025466,-1.9872536659240723,-1.3606695544770737,-2.5644798914538782,5.939139711647787,1.0619702339172363,-5.459841851388113
1708435855.2045574,-1.9850033521652222,-1.3610208195498963,-2.564902130757467,5.93674777725295,1.0625165700912476,-5.4596731702433985
1708435855.206598,-1.9828262329101562,-1.3614320915988465,-2.5653799215899866,5.934479701309957,1.0629769563674927,-5.4595534841166895
1708435855.2085657,-1.9805880784988403,-1.3618447941592713,-2.565831247960226,5.932069170265951,1.063477635383606,-5.459444109593527
1708435855.2105796,-1.9784221649169922,-1.3622812938741227,-2.5662663618670862,5.92971299865798,1.0639584064483643,-5.459296111260549
1708435855.212559,-1.9761576652526855,-1.362744854097702,-2.566707197819845,5.927313673287191,1.064442753791809,-5.459188644086019
1708435855.214537,-1.9739362001419067,-1.3631632190993805,-2.567191187535421,5.924806940346517,1.0649683475494385,-5.459062937890188
1708435855.216551,-1.9717214107513428,-1.3635318887284775,-2.567648235951559,5.922440755158224,1.0655235052108765,-5.458893064652578
1708435855.2185352,-1.9695488214492798,-1.3639762264541169,-2.5681117216693323,5.920067775040426,1.0659704208374023,-5.458779279385702
1708435855.220542,-1.967397928237915,-1.3643503350070496,-2.5684948603259485,5.9176416275794885,1.066491961479187,-5.458614710961477
1708435855.2225664,-1.9652276039123535,-1.3647444260171433,-2.5689430872546595,5.915211784630575,1.0669760704040527,-5.458516363297598
1708435855.2245452,-1.9630496501922607,-1.3651836526444932,-2.5694475809680384,5.912792193680563,1.0674775838851929,-5.458368424569265
1708435855.2265813,-1.9608389139175415,-1.3656266045621415,-2.569939676915304,5.910357343941488,1.0679931640625,-5.458248619233267
1708435855.2286215,-1.9586777687072754,-1.3660196524909516,-2.5703137556659144,5.908004390984335,1.0684815645217896,-5.45812172094454
1708435855.2305424,-1.9565212726593018,-1.3664800238660355,-2.5708137194262903,5.905650245934286,1.0689160823822021,-5.457989994679586
1708435855.2325492,-1.9542680978775024,-1.366901234989502,-2.571204725896017,5.903310644417562,1.0694422721862793,-5.457870368157522
1708435855.2345634,-1.9521558284759521,-1.3673091989806672,-2.5716856161700647,5.900959837227621,1.0698736906051636,-5.457748059426443
1708435855.236541,-1.9498956203460693,-1.3677475464395066,-2.572092596684591,5.898610579758444,1.0703343152999878,-5.457574729119436
1708435855.2385547,-1.9476101398468018,-1.368191422229149,-2.5725603739367884,5.896257388382711,1.0708673000335693,-5.457452241574423
1708435855.240543,-1.945424199104309,-1.3685440880111237,-2.572993580495016,5.893881428032675,1.0713311433792114,-5.45726722875704
1708435855.242563,-1.9431817531585693,-1.3689253789237519,-2.5734134356128138,5.891413557320394,1.071824073791504,-5.457144800816671
1708435855.244558,-1.940951943397522,-1.3693529826453705,-2.573901955281393,5.88906608799056,1.0723239183425903,-5.456980470811025
1708435855.2465634,-1.938816785812378,-1.3697383117726822,-2.574366633092062,5.88671754577712,1.0728623867034912,-5.456906859074728
1708435855.248578,-1.9366050958633423,-1.3701117497733613,-2.5747080484973353,5.884259331017294,1.0733493566513062,-5.456766490136282
1708435855.2505436,-1.9344080686569214,-1.3705514383367081,-2.575210158024923,5.881782281189718,1.0739234685897827,-5.456585888062612
1708435855.252559,-1.932220697402954,-1.3709714722684403,-2.575613085423605,5.879349219589987,1.0744398832321167,-5.456532839928762
1708435855.2545733,-1.9300776720046997,-1.3713285785964509,-2.5760484377490442,5.8769792197044275,1.0749475955963135,-5.4563674370395105
1708435855.2565665,-1.9278392791748047,-1.3717439484647294,-2.5764804522143763,5.87466191032485,1.0754642486572266,-5.456240479146139
1708435855.2585719,-1.9257183074951172,-1.372136966591217,-2.5769687334643763,5.872297751694479,1.0760166645050049,-5.456108872090475
1708435855.2605624,-1.9235265254974365,-1.372566581969597,-2.577449385319845,5.869903075485983,1.0764960050582886,-5.455960873757498
1708435855.2625644,-1.9213132858276367,-1.3729997438243409,-2.5778492132769983,5.8674625037010095,1.0770090818405151,-5.455826465283529
1708435855.2645798,-1.9190442562103271,-1.3733733308366318,-2.578280750905172,5.865102994232931,1.0774446725845337,-5.455677155648367
1708435855.2665627,-1.916857123374939,-1.373849631553032,-2.5786710421191614,5.862697946816244,1.077938437461853,-5.455566469823019
1708435855.2685537,-1.9146617650985718,-1.374222920542099,-2.5791805426227015,5.8603176949317834,1.0783978700637817,-5.455448452626364
1708435855.270539,-1.912402629852295,-1.3746229273131867,-2.5796409288989466,5.857940304070272,1.0788872241973877,-5.45523184934725
1708435855.2726476,-1.9101507663726807,-1.3750674587539216,-2.580059591923849,5.855568635254659,1.0794157981872559,-5.455189828072683
1708435855.2745676,-1.9079651832580566,-1.3754988622716446,-2.5805111567126673,5.853191602021017,1.079850435256958,-5.454988602791921
1708435855.2765646,-1.9057681560516357,-1.3758834165385743,-2.580963436757223,5.850740897446432,1.0803961753845215,-5.454886380826132
1708435855.2785656,-1.903586745262146,-1.3763211828521271,-2.581423584614889,5.848276483803549,1.0808970928192139,-5.454787735139028
1708435855.2805636,-1.901421308517456,-1.3767519903234025,-2.5818100611316126,5.845945465355673,1.0813242197036743,-5.4546266237842005
1708435855.2825794,-1.8992502689361572,-1.3770932269147416,-2.582278553639547,5.8436269638831995,1.0817883014678955,-5.454526607190267
1708435855.2845848,-1.8970375061035156,-1.3776037406972428,-2.582754437123434,5.84127818325118,1.0822893381118774,-5.454374913369314
1708435855.2865834,-1.8948183059692383,-1.3779642146876832,-2.583205525075094,5.838918912201681,1.0828016996383667,-5.454289142285482
1708435855.288562,-1.8926405906677246,-1.3783883315375824,-2.583677593861715,5.836534487992086,1.0832775831222534,-5.454092625771658
1708435855.2905636,-1.8904612064361572,-1.378803090458252,-2.58409554163088,5.834099280625143,1.0837833881378174,-5.45401776233782
1708435855.2925484,-1.8881815671920776,-1.3792068374207993,-2.5845640341388147,5.831744181900778,1.0842667818069458,-5.453931156788961
1708435855.2945561,-1.8859871625900269,-1.3796087068370362,-2.584986988698141,5.829255807190695,1.0847680568695068,-5.453782264386312
1708435855.296549,-1.8837380409240723,-1.3800934267095109,-2.58536941209902,5.82685803154067,1.0852473974227905,-5.453643385563986
1708435855.2985485,-1.8815315961837769,-1.3804849249175568,-2.5858708063708704,5.824455964356222,1.0857645273208618,-5.453458432351248
1708435855.300576,-1.879333257675171,-1.380958155994751,-2.586264673863546,5.822113740235128,1.0862690210342407,-5.453356329594747
1708435855.302548,-1.8771384954452515,-1.3813470315984269,-2.586769167576925,5.8197433827217,1.086748719215393,-5.453208808098928
1708435855.304619,-1.8749903440475464,-1.3817304831794281,-2.587212387715475,5.817284214287557,1.0873034000396729,-5.453058067952291
1708435855.3065472,-1.872771143913269,-1.3821200740388413,-2.5876715818988245,5.814912426262655,1.087815523147583,-5.452986184750692
1708435855.3085535,-1.8706086874008179,-1.3825988483479996,-2.588050190602438,5.8125460026557825,1.0882742404937744,-5.452846054230825
1708435855.3105671,-1.86846923828125,-1.3830137711814423,-2.5884972254382532,5.810168254166403,1.088832139968872,-5.452744428311483
1708435855.312553,-1.8662762641906738,-1.3834078025868912,-2.5889859835254114,5.807834255486288,1.0892874002456665,-5.452572945748464
1708435855.3145506,-1.8641176223754883,-1.3838761907866974,-2.5894532839404505,5.805388915329733,1.0897765159606934,-5.452469472085134
1708435855.3165708,-1.8618119955062866,-1.3842702370933075,-2.5899294058429163,5.80294035652236,1.0902200937271118,-5.452261153851644
1708435855.3185744,-1.8596245050430298,-1.3846848022988816,-2.590367380772726,5.800529348641195,1.0907132625579834,-5.452235285435812
1708435855.3205984,-1.8574490547180176,-1.3850831103375931,-2.5908032099353235,5.798147904663839,1.0911720991134644,-5.452095035706655
1708435855.322542,-1.8551725149154663,-1.3855649691871186,-2.5912297407733362,5.7957708714301965,1.0916436910629272,-5.451931182538168
1708435855.3245664,-1.8529958724975586,-1.386020080452301,-2.591677729283468,5.7933400748069666,1.0921818017959595,-5.45179665485491
1708435855.3265607,-1.8507955074310303,-1.3864232313684006,-2.5921362082110804,5.790979850083151,1.092628836631775,-5.451641444359915
1708435855.328565,-1.8485736846923828,-1.3867767614177247,-2.592604939137594,5.788564431458273,1.0931215286254883,-5.451477293168203
1708435855.3305485,-1.8463637828826904,-1.3872165989926835,-2.5930033365832728,5.786128031998434,1.0936862230300903,-5.451338235531942
1708435855.332552,-1.8442405462265015,-1.387631283407547,-2.593482319508688,5.783741700440206,1.0941792726516724,-5.451215986405508
1708435855.3345482,-1.8419758081436157,-1.3880478304675599,-2.5939274469958704,5.781369316368856,1.0946834087371826,-5.451054815446035
1708435855.336546,-1.8398864269256592,-1.388453648691513,-2.594407622014181,5.779117095261373,1.095147967338562,-5.450948838387625
1708435855.3385572,-1.8377147912979126,-1.3889328700355072,-2.5947728792773646,5.7767382738883875,1.0956523418426514,-5.450838152562277
1708435855.3405902,-1.835477352142334,-1.3893250685981293,-2.595236841832296,5.7743804333503626,1.0962096452713013,-5.450653199349539
1708435855.3425488,-1.833251714706421,-1.3897696149400254,-2.595684591923849,5.771967398911276,1.0966905355453491,-5.4505754748927515
1708435855.3445754,-1.8310680389404297,-1.3901546758464356,-2.5961158911334437,5.769565450936117,1.0971816778182983,-5.45042467514147
1708435855.346561,-1.8288346529006958,-1.3906083566001435,-2.5965634028064173,5.767167556076803,1.0976667404174805,-5.4502549211131495
1708435855.348594,-1.826606273651123,-1.3910095703652878,-2.5969820658313196,5.76477204540328,1.098183512687683,-5.450172189866201
1708435855.3505611,-1.8244099617004395,-1.3915201884559174,-2.5974209944354456,5.762412059098043,1.0987123250961304,-5.45010751882662
1708435855.3525612,-1.8222359418869019,-1.3918605160764237,-2.5978718439685267,5.759980189591207,1.0992001295089722,-5.449878458176748
1708435855.3545694,-1.8199822902679443,-1.3922749918750306,-2.5983122030841272,5.757609116822042,1.099778652191162,-5.449770573769705
1708435855.3565774,-1.8177564144134521,-1.392691896562912,-2.598727289830343,5.755094635277548,1.1002211570739746,-5.449638311062948
1708435855.3585472,-1.815609097480774,-1.3930528473905106,-2.599133555089132,5.752726542740621,1.100692868232727,-5.449561421071188
1708435855.3605485,-1.8134008646011353,-1.3935258996537705,-2.59959847131838,5.750339615135946,1.1012146472930908,-5.449384395276205
1708435855.3625653,-1.8113038539886475,-1.393912674193718,-2.6000822226153772,5.748011576920309,1.1016701459884644,-5.449204150830404
1708435855.364565,-1.8090659379959106,-1.394339234834053,-2.6005035082446497,5.7456140396888635,1.1022082567214966,-5.4490771929370325
1708435855.3665469,-1.8068925142288208,-1.3947093349746247,-2.600971762334005,5.743257868080892,1.1026259660720825,-5.448958877717153
1708435855.368557,-1.8046941757202148,-1.3951264184764405,-2.6014347712146204,5.740831720619955,1.1031848192214966,-5.448809568081991
1708435855.3705485,-1.802486777305603,-1.3955294799855729,-2.601879421864645,5.738440620690145,1.1036161184310913,-5.44870371023287
1708435855.372551,-1.8002300262451172,-1.395932526593544,-2.602314535771505,5.736018407135763,1.1040843725204468,-5.448523465787069
1708435855.374579,-1.7980592250823975,-1.3963879209807892,-2.6027703920947474,5.733633148461141,1.1045900583267212,-5.44842911163439
1708435855.3765419,-1.7958170175552368,-1.3967964363149186,-2.6032257715808313,5.731246936112203,1.10504949092865,-5.4483182469951075
1708435855.3785691,-1.7935773134231567,-1.3971617829850693,-2.6036647001849573,5.728806841164388,1.1054928302764893,-5.448138121758596
1708435855.3805735,-1.7913713455200195,-1.39754872143779,-2.604145113621847,5.726469743042745,1.1060593128204346,-5.448006753121511
1708435855.3825617,-1.7892225980758667,-1.3979593527368088,-2.6045356432544153,5.724037158280172,1.1064907312393188,-5.447932902966635
1708435855.3845885,-1.7870057821273804,-1.3983468276313324,-2.6049535910235804,5.721616971283712,1.1070040464401245,-5.447779778634207
1708435855.386578,-1.7847973108291626,-1.3988201928189774,-2.605429474507467,5.71930884101943,1.1074843406677246,-5.447639588509695
1708435855.3885677,-1.782638430595398,-1.3992314648679276,-2.605832640324728,5.716942298203268,1.1079920530319214,-5.447525982056753
1708435855.390545,-1.7804691791534424,-1.399638683801033,-2.60630447069277,5.714621054917135,1.1084562540054321,-5.447338346635
1708435855.3925927,-1.7783094644546509,-1.4000254285386582,-2.6067493597613733,5.712234782963552,1.1089650392532349,-5.447222832833425
1708435855.394549,-1.776033878326416,-1.4004466396621247,-2.607155148183004,5.709856557637014,1.1093796491622925,-5.447070840989248
1708435855.3965511,-1.7738404273986816,-1.4008445304683228,-2.607615057622091,5.707553076535024,1.1098942756652832,-5.446926478539602
1708435855.3985565,-1.7716399431228638,-1.40122343719516,-2.608049456273214,5.70507429817275,1.1103540658950806,-5.446870330964224
1708435855.4005458,-1.7694381475448608,-1.4016963851502915,-2.6085265318499964,5.702664601593771,1.1108263731002808,-5.4467302600490015
1708435855.4025745,-1.7671693563461304,-1.4020992082408448,-2.6089277903186243,5.7002420900161646,1.1113396883010864,-5.446565930043356
1708435855.4045346,-1.7649692296981812,-1.4025260371020813,-2.609391991292135,5.697866427689352,1.111872673034668,-5.446467582379476
1708435855.4065497,-1.7627809047698975,-1.4029512268355866,-2.6098440329181116,5.6954349158103845,1.112368106842041,-5.446311179791586
1708435855.4085398,-1.7605912685394287,-1.403362126355507,-2.6103156248675745,5.693072008877554,1.1128638982772827,-5.446155552064077
1708435855.4105506,-1.7584199905395508,-1.403759853248932,-2.6107426325427454,5.690613257675924,1.1134248971939087,-5.446077768002645
1708435855.4125662,-1.7561770677566528,-1.4042083036950608,-2.6111534277545374,5.68823395946578,1.1139373779296875,-5.4458797613727015
1708435855.4145563,-1.7540174722671509,-1.4046418231776734,-2.6116696039782923,5.685884284764089,1.1144509315490723,-5.4457812944995325
1708435855.4165294,-1.7518587112426758,-1.4050252002528687,-2.612080160771505,5.68352900722579,1.1149624586105347,-5.445674602185385
1708435855.4185505,-1.7496258020401,-1.4055103820613404,-2.612551991139547,5.681122350483694,1.1154507398605347,-5.445515338574545
1708435855.4205465,-1.7474303245544434,-1.4059173625758667,-2.612966601048605,5.6787447212036035,1.1159844398498535,-5.445355419312612
1708435855.4225574,-1.745252013206482,-1.4062741559794922,-2.6133697668658655,5.676323401718893,1.1164475679397583,-5.445236329232351
1708435855.4245594,-1.7430973052978516,-1.406751663689949,-2.613833252583639,5.67390917518691,1.117017388343811,-5.445084218178884
1708435855.4265456,-1.7408219575881958,-1.4071618479541321,-2.6142688433276575,5.671528267651357,1.1175012588500977,-5.445010487233297
1708435855.4285336,-1.7386493682861328,-1.4076005083373566,-2.6146751085864466,5.66912333944396,1.1179860830307007,-5.444825832043783
1708435855.4305346,-1.7364403009414673,-1.408057452445366,-2.6152074972735804,5.666695105820455,1.1185795068740845,-5.444750968609945
1708435855.432549,-1.7342512607574463,-1.4084962469390412,-2.6156473795520228,5.664266752987661,1.1190141439437866,-5.444599692021505
1708435855.4345791,-1.7320797443389893,-1.4089122277549286,-2.6160288492785853,5.661878990917959,1.1195597648620605,-5.444443766270773
1708435855.4366124,-1.7299033403396606,-1.4093229484609147,-2.6165059248553675,5.659458088665762,1.1200801134109497,-5.444349292908804
1708435855.438572,-1.7276633977890015,-1.4097326558879395,-2.6168718973742884,5.657103228359976,1.1204822063446045,-5.444189314042227
1708435855.4405856,-1.7255600690841675,-1.4101682913354416,-2.6173608938800257,5.654825734883108,1.1209791898727417,-5.443997148667471
1708435855.4426026,-1.7233421802520752,-1.4105761510184784,-2.6178484598742884,5.652374672680654,1.1214954853057861,-5.443918291722433
1708435855.4445963,-1.7211692333221436,-1.4109714490226288,-2.6182265917407435,5.650031852513113,1.1219635009765625,-5.443788055573599
1708435855.4466784,-1.7189514636993408,-1.411411390905716,-2.618689839039938,5.647669243603506,1.1224565505981445,-5.443671707306997
1708435855.4485705,-1.7167608737945557,-1.41184555113826,-2.619161907826559,5.64529304483489,1.1230272054672241,-5.4435166160212916
1708435855.450534,-1.7145847082138062,-1.4122200173190613,-2.619596306477682,5.642921018391409,1.1235064268112183,-5.443348232899801
1708435855.4525797,-1.7123552560806274,-1.412631706600525,-2.619995419179098,5.640566515713491,1.12395441532135,-5.443225685750143
1708435855.454558,-1.7101904153823853,-1.4130108517459412,-2.6204636732684534,5.638145017414846,1.1244665384292603,-5.443098549042837
1708435855.4565728,-1.7079570293426514,-1.4134703886559983,-2.620934073125021,5.635674226074972,1.124971866607666,-5.443010512982504
1708435855.4585686,-1.7058185338974,-1.4138743740371247,-2.6214056650744837,5.633250582009115,1.1254851818084717,-5.442835811768667
1708435855.4605598,-1.7035828828811646,-1.4142984014800568,-2.6218448320971888,5.630819010525503,1.1259185075759888,-5.442740205918447
1708435855.4625857,-1.7013444900512695,-1.414712981586792,-2.6223488489734095,5.628406691342153,1.126403570175171,-5.442596916352407
1708435855.4645548,-1.6991499662399292,-1.4150965970805665,-2.6227684656726282,5.6259909746940515,1.1268962621688843,-5.442449275647299
1708435855.4665508,-1.6969294548034668,-1.415482984190323,-2.6232553164111536,5.623694824963369,1.1273807287216187,-5.442310456429617
1708435855.4685812,-1.6946946382522583,-1.415902094250061,-2.623713795338766,5.621328341751852,1.1279234886169434,-5.442220274602072
1708435855.4705555,-1.6925126314163208,-1.4163138729384919,-2.624127451573507,5.6189454076583765,1.1283667087554932,-5.44203889766802
1708435855.4725919,-1.6902999877929688,-1.4166956704906006,-2.624610249196188,5.616587269097128,1.1288551092147827,-5.441904548798696
1708435855.4745545,-1.6880522966384888,-1.417114720945694,-2.625009838734762,5.6142504689987085,1.129342794418335,-5.441784862671987
1708435855.4765866,-1.6858479976654053,-1.4175401490977784,-2.6255603472339075,5.611902582436361,1.1298648118972778,-5.441677693520681
1708435855.4785936,-1.6836291551589966,-1.4179506462863465,-2.62594443956484,5.609501051693716,1.130340337753296,-5.4415550271617334
1708435855.4805665,-1.6813851594924927,-1.4183173489621659,-2.6263464132892054,5.607088970928945,1.1308403015136719,-5.44134241739382
1708435855.482581,-1.6792364120483398,-1.4187977623990555,-2.626819674168722,5.604676055699148,1.1313362121582031,-5.441255036984579
1708435855.4846015,-1.6770573854446411,-1.4191198658994217,-2.6272509733783167,5.602239835053243,1.1318247318267822,-5.441091243420736
1708435855.4865532,-1.6747679710388184,-1.4195044201663514,-2.627681080495016,5.599814641266622,1.1323665380477905,-5.440977279339926
1708435855.4885516,-1.6726300716400146,-1.4200031918338318,-2.6281617323504847,5.597363698273458,1.1328710317611694,-5.4408414403544825
1708435855.4905396,-1.6704306602478027,-1.4203819644502182,-2.6285844484912317,5.595064925938406,1.133367657661438,-5.440759245549337
1708435855.4925902,-1.668229579925537,-1.4208106708577652,-2.629076067601339,5.592700230866232,1.1338682174682617,-5.440643016492025
1708435855.494559,-1.666072964668274,-1.421274558906891,-2.6294904390918177,5.590279745846548,1.1343772411346436,-5.4404906074153345
1708435855.4965692,-1.6638849973678589,-1.4216547918370743,-2.6299870649920862,5.588007974415579,1.1348330974578857,-5.440335754548208
1708435855.498543,-1.6616367101669312,-1.4221828442863007,-2.6304264704333704,5.585633563786306,1.135362148284912,-5.440245691929952
1708435855.5005906,-1.6593958139419556,-1.4225379538587113,-2.630812946950094,5.583154189377584,1.1358097791671753,-5.440080169831411
1708435855.502619,-1.6572500467300415,-1.4228915733150025,-2.6312769095050257,5.580813932209768,1.136293649673462,-5.439941648636953
1708435855.5045607,-1.6550028324127197,-1.4233002376607438,-2.6317041555987757,5.578375208168783,1.1368321180343628,-5.439823393021719
1708435855.5065625,-1.6528888940811157,-1.4237943899682541,-2.6321359316455286,5.575982200890341,1.1372997760772705,-5.4396507183658045
1708435855.5085635,-1.6507165431976318,-1.4241959017566224,-2.632620398198263,5.5735763786132715,1.137869119644165,-5.439563874398367
1708435855.5105605,-1.648490071296692,-1.4245823335698624,-2.63304311433901,5.571187901287832,1.1384388208389282,-5.439379338418142
1708435855.5125391,-1.6463242769241333,-1.4250182968429108,-2.6334741751300257,5.568722831993856,1.1389745473861694,-5.439244870339529
1708435855.5145478,-1.6440967321395874,-1.4254594904235383,-2.633925501500265,5.5662879822547815,1.139474630355835,-5.439150158558981
1708435855.5165415,-1.641878366470337,-1.4258443874171753,-2.6343775431262415,5.563920187741079,1.1399592161178589,-5.439018491898672
1708435855.5185568,-1.6397422552108765,-1.4262846273234864,-2.6347630659686487,5.56148128488616,1.1404677629470825,-5.438936297093527
1708435855.520555,-1.6375648975372314,-1.4267278474620362,-2.63517934480776,5.559102999954977,1.1409273147583008,-5.438719216977255
1708435855.5225449,-1.6353936195373535,-1.4271308493665238,-2.6356142202960413,5.556780802994528,1.1413545608520508,-5.438612882290975
1708435855.5245507,-1.6331148147583008,-1.4276370716146012,-2.6361478010760706,5.55436663606719,1.1418317556381226,-5.43846828142275
1708435855.526531,-1.6309022903442383,-1.4280366462520142,-2.636574093495504,5.552063095360555,1.142372965812683,-5.438390318547384
1708435855.528568,-1.6287548542022705,-1.428400532608368,-2.6369648615466517,5.549658882408895,1.1428210735321045,-5.438214425240652
1708435855.530537,-1.6265640258789062,-1.428839625125267,-2.6374085585223597,5.547198462277212,1.1433262825012207,-5.438145224248068
1708435855.532544,-1.6243492364883423,-1.4293051374009629,-2.637811247502462,5.544861423760214,1.143762230873108,-5.437969092522756
1708435855.5345469,-1.6221312284469604,-1.429722712641098,-2.6382349173175257,5.542485761433401,1.1442011594772339,-5.4378496448146265
1708435855.536534,-1.6199524402618408,-1.4301298421672364,-2.6386755148517054,5.5400879857833765,1.1447843313217163,-5.437688950692312
1708435855.5385394,-1.6177659034729004,-1.4305373442224045,-2.6391587893115442,5.537661242275991,1.145268201828003,-5.437525395547048
1708435855.5405502,-1.6155306100845337,-1.4308982503465195,-2.639557425175802,5.535189258843221,1.145825982093811,-5.437466565762655
1708435855.5425348,-1.613343358039856,-1.4313427221826096,-2.64001709619631,5.532857525139608,1.1463086605072021,-5.43728614250292
1708435855.5445762,-1.6111260652542114,-1.4317741853049775,-2.6404975096331995,5.530482756882467,1.1468433141708374,-5.437183264886038
1708435855.5465958,-1.6089584827423096,-1.432168961768486,-2.6409361998187464,5.528127062111654,1.1472735404968262,-5.437085274850027
1708435855.5485435,-1.6067824363708496,-1.4325962227633973,-2.6413751284228724,5.525811660080709,1.1478074789047241,-5.436945203934805
1708435855.550544,-1.6045854091644287,-1.4330666971257706,-2.641838852559225,5.5234842775161646,1.1482431888580322,-5.436765376721517
1708435855.5525346,-1.6023297309875488,-1.4334899348071595,-2.642273489628927,5.521014678269186,1.1487678289413452,-5.4366822878467005
1708435855.554554,-1.6001179218292236,-1.4338791531375428,-2.642728869115011,5.518697607308187,1.1492443084716797,-5.4365795890437525
1708435855.5565474,-1.59793221950531,-1.4342700403979798,-2.6432209650622767,5.51629792430953,1.1497162580490112,-5.436388615761892
1708435855.5585356,-1.5957043170928955,-1.4346611958793183,-2.6436598936664026,5.513891744404592,1.1502223014831543,-5.436272088681356
1708435855.5605857,-1.5935181379318237,-1.4351011973670502,-2.644100014363424,5.511488246708669,1.1506849527359009,-5.436141018067495
1708435855.5625596,-1.5912812948226929,-1.4354621332934876,-2.644517962132589,5.509056198387899,1.1511696577072144,-5.436030213032858
1708435855.564554,-1.5891385078430176,-1.4358494889787217,-2.644953791295187,5.506713318615713,1.1517021656036377,-5.435792271290914
1708435855.5665352,-1.5869078636169434,-1.4363040339997788,-2.6453922430621546,5.5042510507400415,1.1521626710891724,-5.4357433954821985
1708435855.5685432,-1.5847395658493042,-1.436702237730362,-2.6458354632007044,5.501774835377493,1.1526877880096436,-5.435574237500326
1708435855.5705879,-1.5825365781784058,-1.437098042373993,-2.646287266408102,5.499414014607229,1.153159499168396,-5.435472253953115
1708435855.5725393,-1.5803911685943604,-1.4374917310527344,-2.6468082110034388,5.4970560548599146,1.1536380052566528,-5.435328547154562
1708435855.5745368,-1.578220248222351,-1.4379650813392182,-2.647291962300436,5.494670021324911,1.1541434526443481,-5.435127858315603
1708435855.5765538,-1.5759979486465454,-1.438357637529709,-2.647743288670675,5.492309140950002,1.154668927192688,-5.435054127370016
1708435855.5785518,-1.5738102197647095,-1.438754455452301,-2.6481455008136194,5.489875125675955,1.1551120281219482,-5.434909466897146
1708435855.580568,-1.5715081691741943,-1.439178467994072,-2.648569170628683,5.487516450672903,1.155608892440796,-5.4347795883761805
1708435855.5825672,-1.5692766904830933,-1.4396383923343201,-2.6490123907672327,5.485119151860037,1.1560735702514648,-5.434655789528982
1708435855.584557,-1.5670859813690186,-1.4400997769883652,-2.6494720617877405,5.482701766281881,1.1565662622451782,-5.434548143540518
1708435855.5865588,-1.5648778676986694,-1.4404622328332444,-2.6498947779284876,5.480339634209432,1.1571075916290283,-5.434416715298788
1708435855.5885656,-1.5626938343048096,-1.4408443880132218,-2.6503220240222376,5.4779913304145715,1.1576001644134521,-5.43430203596224
1708435855.590552,-1.5605175495147705,-1.4411483717015763,-2.6508143583880823,5.475557732373037,1.1581367254257202,-5.4341663161860865
1708435855.5925515,-1.5583571195602417,-1.4416097712567826,-2.651205364857809,5.473187315254965,1.158665657043457,-5.434027377759115
1708435855.594553,-1.5561273097991943,-1.442054570918419,-2.6516411940204065,5.470820951252737,1.1592351198196411,-5.43388814130892
1708435855.5965614,-1.553991436958313,-1.442459062939026,-2.65205961862673,5.468391406327047,1.1596332788467407,-5.433796886597769
1708435855.598545,-1.5517652034759521,-1.4429001671126862,-2.6525190512286585,5.466039168625631,1.1602119207382202,-5.433629933987753
1708435855.6005914,-1.5495622158050537,-1.4433312875083466,-2.6530187765704554,5.463685261994161,1.1606674194335938,-5.4334856311427515
1708435855.6025383,-1.5473700761795044,-1.4437538844398041,-2.653454605733053,5.461256015091696,1.1611648797988892,-5.433341983948843
1708435855.6045477,-1.5451420545578003,-1.444135920410492,-2.6539061705218714,5.458905982762136,1.1616652011871338,-5.43325508037676
1708435855.6065428,-1.5429166555404663,-1.4445687991431733,-2.654332939778463,5.456473219185629,1.1621208190917969,-5.433091584836141
1708435855.6085858,-1.5407371520996094,-1.4449384969523926,-2.654781166707174,5.454071688442983,1.1626015901565552,-5.432939592991964
1708435855.6105652,-1.5385204553604126,-1.445359544163086,-2.6551926771747034,5.451663601189413,1.1630533933639526,-5.432866577302114
1708435855.6125531,-1.5362824201583862,-1.445840672855713,-2.655630652104513,5.44929467418746,1.16360342502594,-5.432673637066976
1708435855.614544,-1.534135341644287,-1.4462301594069977,-2.6560588518725794,5.44693552234725,1.164131999015808,-5.432550970708029
1708435855.6165571,-1.5319099426269531,-1.4466703993133088,-2.656571928654806,5.444559502392568,1.1646277904510498,-5.432366017495291
1708435855.6185465,-1.5297348499298096,-1.4470820885947724,-2.6569460074054163,5.4421459315116785,1.1651158332824707,-5.432214144860403
1708435855.620564,-1.5275330543518066,-1.4474194210818787,-2.657461945210592,5.439675378590383,1.1656087636947632,-5.432071034108297
1708435855.622551,-1.5253539085388184,-1.4478467267802735,-2.657905403767721,5.437287556916036,1.1660895347595215,-5.432004813347952
1708435855.6245446,-1.5231518745422363,-1.4483364683440705,-2.6582914034472864,5.434925842076101,1.1665618419647217,-5.43181282678713
1708435855.6265578,-1.5209715366363525,-1.4487229746631165,-2.658755127583639,5.432547676354208,1.1670382022857666,-5.43175840774645
1708435855.6285574,-1.5187760591506958,-1.449145571594574,-2.6592019240008753,5.430212425976553,1.1675554513931274,-5.431549731885092
1708435855.630552,-1.5165239572525024,-1.449578234260418,-2.659661595021383,5.427824723511495,1.1679741144180298,-5.4314749280558985
1708435855.6325486,-1.5143928527832031,-1.4500591617873688,-2.6601420084582728,5.425465512066641,1.168516993522644,-5.43135238090624
1708435855.634541,-1.512141466140747,-1.450433836584427,-2.660581175480978,5.422939824848928,1.1690617799758911,-5.431240443383352
1708435855.6366608,-1.509894847869873,-1.450886071925499,-2.66102105775942,5.4206421850021265,1.1695345640182495,-5.431085232888357
1708435855.6385531,-1.5077581405639648,-1.4512802821448822,-2.661492649708883,5.4182230708892725,1.1699728965759277,-5.430978898202078
1708435855.6405709,-1.5055420398712158,-1.4516573560288926,-2.6618502775775355,5.415818738728323,1.1705514192581177,-5.430834476147787
1708435855.6425443,-1.5032968521118164,-1.452085868721344,-2.6623099485980433,5.4134254334266565,1.1710143089294434,-5.430707399045126
1708435855.6445894,-1.5011112689971924,-1.4525056791356583,-2.662764851246969,5.411004650383749,1.171555757522583,-5.430559877549307
1708435855.6465666,-1.4989557266235352,-1.4529372167638321,-2.6632168928729456,5.408603060036459,1.172011375427246,-5.43043286005129
1708435855.6485543,-1.4967010021209717,-1.45336106539283,-2.663590971623556,5.406146037369528,1.172532558441162,-5.430321995412008
1708435855.650542,-1.4945614337921143,-1.4537920591286202,-2.664117161427633,5.403895365982809,1.1730378866195679,-5.4301451484309595
1708435855.6525567,-1.4923938512802124,-1.4542119738510628,-2.6645427385913294,5.401532816677847,1.1734650135040283,-5.430059377347128
1708435855.6545682,-1.4901467561721802,-1.4546353754452248,-2.664999548588888,5.3991397497947595,1.173937439918518,-5.4299073855029505
1708435855.6565552,-1.487958312034607,-1.4550338771990319,-2.6654372851001185,5.396770047932424,1.1743528842926025,-5.429808859025137
1708435855.658553,-1.4858143329620361,-1.4554951649955292,-2.665870014821188,5.394320773869314,1.174760341644287,-5.42960757413973
1708435855.6605432,-1.4836021661758423,-1.4558220964721222,-2.666300121937887,5.391872632294454,1.1752548217773438,-5.429504398499624
1708435855.6625407,-1.4814155101776123,-1.4563158986023446,-2.666759792958395,5.38952254036025,1.1757920980453491,-5.429394785557882
1708435855.6645477,-1.4792490005493164,-1.4567773801139374,-2.6672003904925745,5.387108075409689,1.1763083934783936,-5.429274622594015
1708435855.6665366,-1.4769809246063232,-1.4572253611734887,-2.6676481405841272,5.384752142220297,1.176849365234375,-5.429119114075796
1708435855.6685886,-1.4748387336730957,-1.4575627830675622,-2.6680496374713343,5.38236020782546,1.1773372888565063,-5.428967122231619
1708435855.6705556,-1.4726362228393555,-1.4579702404192467,-2.668514076863424,5.379844474583425,1.1778777837753296,-5.428823832665579
1708435855.672555,-1.4704090356826782,-1.458410733645298,-2.668896500264303,5.377549695759573,1.1784111261367798,-5.428741518651144
1708435855.674544,-1.468222975730896,-1.4588411685875435,-2.6693854967700403,5.375148522644796,1.1789393424987793,-5.428597156201498
1708435855.676554,-1.4660693407058716,-1.459224784081318,-2.669833008443014,5.372803854733267,1.1794276237487793,-5.428490404282705
1708435855.6785386,-1.4638148546218872,-1.45962447047744,-2.6702848116504114,5.37046771028594,1.1799604892730713,-5.428310577069418
1708435855.6805398,-1.461668610572815,-1.4600516197136422,-2.670711342488424,5.36809532621459,1.1804847717285156,-5.42818791071047
1708435855.6825361,-1.4594475030899048,-1.460438386803009,-2.671105686818258,5.365713763027944,1.1809812784194946,-5.428035918866293
1708435855.6845715,-1.457222580909729,-1.460882843737938,-2.671609942113058,5.363324391632833,1.1814533472061157,-5.427900258694784
1708435855.6865454,-1.4550485610961914,-1.4612724867514153,-2.6720457712756556,5.360887098103323,1.181962251663208,-5.427809778844015
1708435855.6885514,-1.4528299570083618,-1.4616835129312058,-2.672464434300558,5.358493912010946,1.1824097633361816,-5.427666787301199
1708435855.6905391,-1.4506069421768188,-1.462120847111084,-2.672939125691549,5.3561028120811365,1.1829233169555664,-5.427473310624258
1708435855.6925762,-1.4483832120895386,-1.4625042241862793,-2.673387114201681,5.353692519455709,1.183432936668396,-5.427427891884939
1708435855.6945426,-1.4461653232574463,-1.4629984360984345,-2.6738017241107386,5.3512929556663416,1.1839038133621216,-5.42728025117983
1708435855.696584,-1.4439771175384521,-1.4634178143790741,-2.6742568651782435,5.348907637387075,1.1843843460083008,-5.427165154610769
1708435855.698536,-1.4417580366134644,-1.4637909096530457,-2.674692694340841,5.346575903683462,1.1848201751708984,-5.427098814641134
1708435855.7005842,-1.4395668506622314,-1.4642388385585328,-2.6750837008105677,5.344360577851095,1.1852601766586304,-5.427022639905111
1708435855.7025847,-1.4374356269836426,-1.4646957975677033,-2.6755316893206995,5.342168319016256,1.1857298612594604,-5.426951173936025
1708435855.704537,-1.4352400302886963,-1.4651482862285157,-2.6759513060199183,5.339999425202169,1.186089277267456,-5.426834110413687
1708435855.7065804,-1.4330118894577026,-1.4655825731209298,-2.6763954798327845,5.3378068683441064,1.1865543127059937,-5.426843587552206
1708435855.7085507,-1.4308457374572754,-1.4660709661296387,-2.676831070576803,5.335612702160635,1.1869583129882812,-5.426856640969412
1708435855.7105744,-1.4286526441574097,-1.4665263456157227,-2.677209440861837,5.3334540007408044,1.1873679161071777,-5.426849071179525
1708435855.7126024,-1.426404595375061,-1.4668743473342438,-2.677664581929342,5.331320094853201,1.187751054763794,-5.4268046657191675
1708435855.7145483,-1.4241613149642944,-1.4674658936313172,-2.6780882517444056,5.329164433270254,1.1881194114685059,-5.426812473927633
1708435855.716559,-1.4219944477081299,-1.4679752451232453,-2.6784985701190394,5.327080833702841,1.188454270362854,-5.426901106034414
1708435855.7185433,-1.4197579622268677,-1.4684201043895264,-2.678901974354879,5.324989962368765,1.1888116598129272,-5.426961366330282
1708435855.7206192,-1.4175862073898315,-1.4689368170550843,-2.6793139616595667,5.322941231518545,1.1891719102859497,-5.426991526280538
1708435855.7225556,-1.4153461456298828,-1.4694147867015381,-2.679692808781759,5.320879447251119,1.1895281076431274,-5.427108649407522
1708435855.7245517,-1.4131900072097778,-1.4698684972575684,-2.68010121980776,5.318918573647299,1.189852237701416,-5.427152280007498
1708435855.7265499,-1.410940408706665,-1.4704168152860184,-2.6805248896228235,5.316882121353903,1.1901847124099731,-5.427247528229849
1708435855.7285473,-1.4087485074996948,-1.4709294003299256,-2.680871550236837,5.314917909889974,1.1904354095458984,-5.427298430596487
1708435855.730541,-1.4065651893615723,-1.4714355927756806,-2.6812875906573694,5.312968957215109,1.1908133029937744,-5.427426878605978
1708435855.73258,-1.404406189918518,-1.471960612838604,-2.681662384663717,5.311125504761495,1.191117286682129,-5.427547220383779
1708435855.7345552,-1.4021775722503662,-1.4724752467921753,-2.6820815245257776,5.309290098934927,1.1913681030273438,-5.427657906209127
1708435855.7365768,-1.4000065326690674,-1.473019042318203,-2.6824286619769495,5.307434844761648,1.1916899681091309,-5.4278263489352625
1708435855.7385333,-1.3977656364440918,-1.4736108121326943,-2.6827593485461634,5.305629300862112,1.1919498443603516,-5.427935723458425
1708435855.740572,-1.3956117630004883,-1.4741011571935196,-2.6831637064563196,5.30385314205245,1.1922060251235962,-5.428209487591879
1708435855.7425666,-1.3933625221252441,-1.4747032088092347,-2.6834784189807337,5.302105831890859,1.1923798322677612,-5.428375844155447
1708435855.7445898,-1.391257643699646,-1.4752602142146607,-2.683894936238424,5.300328004151144,1.1926281452178955,-5.428602401410238
1708435855.7465794,-1.3890039920806885,-1.4758534592441102,-2.684265438710348,5.298591005593099,1.1928683519363403,-5.428830269967214
1708435855.748541,-1.3867909908294678,-1.4764231008342286,-2.684596840535299,5.296816813736715,1.1930397748947144,-5.429088656102316
1708435855.750548,-1.3845984935760498,-1.476965219979622,-2.685049597417013,5.295130240708151,1.1932109594345093,-5.429376308118002
1708435855.7525737,-1.3824023008346558,-1.4775945407203217,-2.6853440443622034,5.293535876065054,1.1934237480163574,-5.429764393960134
1708435855.7545521,-1.380179524421692,-1.4781678852489968,-2.6856876055346888,5.291945504933157,1.1935875415802002,-5.430030111466543
1708435855.75659,-1.3780134916305542,-1.4788328495672722,-2.686089340840475,5.290352928429403,1.1938122510910034,-5.430287424718038
1708435855.7585719,-1.3758494853973389,-1.479459562604763,-2.686338011418478,5.2887495038803,1.1939475536346436,-5.4306557218181055
1708435855.7605617,-1.3735908269882202,-1.4800708305886765,-2.6867597738849085,5.287285375386038,1.1941156387329102,-5.431018058453695
1708435855.7625554,-1.3714022636413574,-1.4807149034789582,-2.6871233622180384,5.285785841732778,1.1942521333694458,-5.431358877812521
1708435855.7645705,-1.3691834211349487,-1.4813832131079216,-2.6874099413501185,5.284326362400808,1.1943644285202026,-5.431789759789602
1708435855.7665684,-1.3670238256454468,-1.4819985789111634,-2.6878023783313196,5.282893883972921,1.1944388151168823,-5.432207945977346
1708435855.7685516,-1.3648507595062256,-1.4826934871128579,-2.6881049315081995,5.281522559910574,1.1945915222167969,-5.4326674977885645
1708435855.7705445,-1.3625985383987427,-1.4832987946322937,-2.688510243092672,5.280165064125814,1.194719672203064,-5.433104936276571
1708435855.7725704,-1.3604562282562256,-1.483949103658535,-2.688824240361349,5.278790819435873,1.1947790384292603,-5.433599058781759
1708435855.7745461,-1.3582192659378052,-1.4847045478275795,-2.6892290751086634,5.277391898422994,1.1948456764221191,-5.434097294007437
1708435855.776579,-1.356019377708435,-1.4853925716928025,-2.6894798914538782,5.276137876301565,1.1948895454406738,-5.434529368077413
1708435855.778561,-1.3538364171981812,-1.4860603374293824,-2.6898320356952112,5.274836468487539,1.1949702501296997,-5.435072843228475
1708435855.7805526,-1.3516254425048828,-1.4867848765901108,-2.690143648778097,5.273587631970205,1.1950016021728516,-5.435589675103323
1708435855.7825816,-1.3494377136230469,-1.487475798731186,-2.690441672001974,5.272376525193014,1.194988489151001,-5.436220292245046
1708435855.7845545,-1.347223162651062,-1.488109679227211,-2.690789286290304,5.271221148758688,1.1950987577438354,-5.436833862458364
1708435855.7865546,-1.3450531959533691,-1.488899217253067,-2.691136900578634,5.27001171091155,1.1951347589492798,-5.437332991753713
1708435855.788569,-1.3428767919540405,-1.4895637419870873,-2.6915138403521937,5.2688090083892725,1.1951664686203003,-5.43799597421755
1708435855.7905478,-1.3406908512115479,-1.4903160792640229,-2.691828791295187,5.267747151642599,1.1951130628585815,-5.438650314007894
1708435855.7925644,-1.3384989500045776,-1.4910824757865448,-2.692183796559469,5.266633915692129,1.1951206922531128,-5.439241651688711
1708435855.7945485,-1.3363181352615356,-1.4917843800834198,-2.69250733057131,5.265556323319235,1.195089340209961,-5.439910296593801
1708435855.7965612,-1.3341584205627441,-1.4924809795669098,-2.692871395741598,5.264549958496847,1.1950007677078247,-5.440518323575155
1708435855.798548,-1.3319523334503174,-1.4932946127704163,-2.6931946913348597,5.263552474766531,1.194900631904602,-5.44122022787203
1708435855.8005416,-1.3297456502914429,-1.4940525156310578,-2.6935420672046106,5.262547361641683,1.1947879791259766,-5.441941980515615
1708435855.8025825,-1.3275525569915771,-1.494819053714611,-2.6938613096820276,5.261658715992727,1.1946547031402588,-5.442713443432943
1708435855.8045647,-1.3254083395004272,-1.4955624502948304,-2.6942251364337366,5.260796236782827,1.1946494579315186,-5.443481449280874
1708435855.8065739,-1.3231241703033447,-1.4963703092983742,-2.694564406071798,5.259955274849691,1.1945161819458008,-5.444272998963491
1708435855.808547,-1.3209129571914673,-1.4972244438580056,-2.694895092641012,5.259120750218191,1.1943963766098022,-5.445076886807577
1708435855.8105555,-1.3186739683151245,-1.498006322687008,-2.695145908986227,5.2583281872566126,1.1943535804748535,-5.445935551320211
1708435855.8125842,-1.3164235353469849,-1.4987716686776658,-2.6954901854144495,5.257489073067465,1.1941921710968018,-5.446836237107412
1708435855.8145432,-1.314253807067871,-1.4996486392668267,-2.69585091272463,5.256803321629324,1.1941169500350952,-5.447671059762136
1708435855.8165681,-1.3120390176773071,-1.500460909014084,-2.69619065919985,5.256072509079733,1.1939524412155151,-5.448550883923666
1708435855.8185644,-1.3098124265670776,-1.5012983095696946,-2.696484629307882,5.255454945355215,1.193795084953308,-5.449512366448538
1708435855.8205705,-1.307632327079773,-1.5021446731737633,-2.6968258062945765,5.254870462208547,1.193688154220581,-5.450454775487081
1708435855.8225617,-1.3053810596466064,-1.5029916998795052,-2.6971808115588587,5.254214632302084,1.1935189962387085,-5.451503280793325
1708435855.824572,-1.3032033443450928,-1.5038419973901291,-2.6974435488330286,5.2537094233329675,1.193306565284729,-5.45245743194689
1708435855.8265538,-1.3010156154632568,-1.5047002148679276,-2.6978161970721644,5.253228652268209,1.193064570426941,-5.4535139242755335
1708435855.828559,-1.2987991571426392,-1.5056583148292084,-2.698139492665426,5.252589809685507,1.1928786039352417,-5.454541150723593
1708435855.830545,-1.2965904474258423,-1.5065509390882035,-2.698479239140646,5.252173650055685,1.1926138401031494,-5.455659155045645
1708435855.8325717,-1.2944114208221436,-1.5074085903218766,-2.698798958455221,5.251691865711965,1.1924389600753784,-5.456692461167471
1708435855.8345647,-1.2921873331069946,-1.508368396466114,-2.699106041585104,5.251330005913534,1.1921453475952148,-5.457797173653738
1708435855.8365386,-1.2900294065475464,-1.50934877738867,-2.699425284062521,5.2509710667426965,1.1918693780899048,-5.458852056656973
1708435855.8385768,-1.2878203392028809,-1.5102369983545323,-2.699798647557394,5.250671970635214,1.1916252374649048,-5.459944311772482
1708435855.8405387,-1.2855877876281738,-1.5112848219326516,-2.7000439802752894,5.250403928547659,1.191296935081482,-5.461091999207632
1708435855.8425484,-1.2834265232086182,-1.5121802550605317,-2.7004087607013147,5.250104772835531,1.1910206079483032,-5.462203327809469
1708435855.8445802,-1.2811932563781738,-1.513199684475996,-2.700707499180929,5.249861049443044,1.1907275915145874,-5.4632620255099695
1708435855.846555,-1.2789995670318604,-1.51420225695286,-2.7010472456561487,5.249694156437673,1.1904480457305908,-5.4645602146731775
1708435855.8485518,-1.2767810821533203,-1.5151634973338624,-2.7013633886920374,5.24949465969161,1.1901227235794067,-5.4657480160342615
1708435855.8505898,-1.2745375633239746,-1.516251066034176,-2.7017479578601282,5.249397325306692,1.1897950172424316,-5.466984335576193
1708435855.8525512,-1.2724089622497559,-1.5172754165581246,-2.7020424048053187,5.249295758991995,1.1894707679748535,-5.4682515303241175
1708435855.8545501,-1.2701597213745117,-1.5182276603630562,-2.7023893038379114,5.2491745231445215,1.1891181468963623,-5.469519976769583
1708435855.8565643,-1.2680267095565796,-1.5193351370147248,-2.702761952077047,5.2491105673606775,1.188720464706421,-5.470870439206259
1708435855.8585625,-1.265794038772583,-1.5203937266818066,-2.7030683199511927,5.24909673908309,1.1883407831192017,-5.472189668809072
1708435855.8605394,-1.2636408805847168,-1.5214194034091015,-2.703428570424215,5.249087798386373,1.187947392463684,-5.473625127469198
1708435855.8625383,-1.2614082098007202,-1.5225471940687676,-2.7037439982043665,5.2492145774658105,1.187616229057312,-5.4750694076167505
1708435855.8645513,-1.2592253684997559,-1.523628657018282,-2.7041032950030726,5.249380516796865,1.1872200965881348,-5.476483229790823
1708435855.8665776,-1.256986141204834,-1.5247541901520272,-2.7044506708728235,5.249531554966726,1.1867820024490356,-5.477965001259939
1708435855.8685603,-1.2547868490219116,-1.5258154359510918,-2.7048633734332483,5.2496662614639185,1.1863497495651245,-5.4794474879847925
1708435855.8705354,-1.2526330947875977,-1.5270246614566823,-2.705219570790426,5.249837922840872,1.1859338283538818,-5.480999056492941
1708435855.872558,-1.250372052192688,-1.5281119619360943,-2.705505911503927,5.2500651953514,1.1855175495147705,-5.482562903557913
1708435855.8745537,-1.248207688331604,-1.5292079646936436,-2.7059431711779993,5.250337469368734,1.1849901676177979,-5.484161321316854
1708435855.8765538,-1.2460023164749146,-1.5304370087436219,-2.7062161604510706,5.250616836338796,1.1845184564590454,-5.485794667397634
1708435855.8785522,-1.2438054084777832,-1.5315782849541684,-2.7065921465503138,5.250957357674398,1.1840540170669556,-5.487405304108755
1708435855.8805573,-1.2416621446609497,-1.532782671307661,-2.707007948552267,5.251264202385702,1.1835618019104004,-5.489048663769857
1708435855.8825512,-1.2395256757736206,-1.5339093965343018,-2.707327191029684,5.251572179585256,1.1830695867538452,-5.490715984498159
1708435855.8846145,-1.237303376197815,-1.5351644617370148,-2.707670036946432,5.252087878971853,1.1826050281524658,-5.492283646260397
1708435855.8865387,-1.235124111175537,-1.5363900524428864,-2.7080491224872034,5.252408611565389,1.1820800304412842,-5.493834618722097
1708435855.8885512,-1.2329381704330444,-1.5375039738467713,-2.7084291617022913,5.253029513150015,1.1815431118011475,-5.495559279118673
1708435855.890562,-1.230758547782898,-1.538776920442917,-2.7088123003589075,5.253507363587179,1.181022047996521,-5.497253600751058
1708435855.8925462,-1.2285627126693726,-1.5400474567762394,-2.7092002073871058,5.254093873291769,1.180465817451477,-5.498931411896841
1708435855.8945417,-1.226332187652588,-1.5413160820356389,-2.7095750013934534,5.254652368813314,1.179942011833191,-5.500714961682455
1708435855.8965528,-1.2241696119308472,-1.5425721065006037,-2.7099221388446253,5.255359339504995,1.179385781288147,-5.502457861100332
1708435855.8985457,-1.2219749689102173,-1.5438491509160777,-2.7103379408465784,5.256086635380544,1.1787514686584473,-5.504257623349325
1708435855.9005363,-1.2198054790496826,-1.5451114580831309,-2.710663382207052,5.256782042771139,1.1781715154647827,-5.50612044731249
1708435855.902553,-1.2175877094268799,-1.5463596445373078,-2.7110403219806116,5.25756053903655,1.1775046586990356,-5.5079113880740564
1708435855.9045396,-1.2154916524887085,-1.547770831068494,-2.711435619984762,5.258421051293173,1.1769459247589111,-5.509771827851431
1708435855.906544,-1.2132887840270996,-1.549017309477069,-2.711843554173605,5.259216534882345,1.1762880086898804,-5.511700932179586
1708435855.9085784,-1.2112374305725098,-1.5503494900516053,-2.712210718785421,5.260103571205892,1.1757166385650635,-5.5136505405055445
1708435855.9105675,-1.2091350555419922,-1.551637665634491,-2.7125404516803187,5.260999130993643,1.1751335859298706,-5.5156933704959314
1708435855.9125433,-1.206977367401123,-1.55294791169975,-2.7129934469806116,5.261904942780294,1.1744749546051025,-5.517700199280874
1708435855.9145405,-1.2048078775405884,-1.5542902548662205,-2.713364903126852,5.262775051384725,1.173789381980896,-5.519766096268789
1708435855.9165347,-1.2027308940887451,-1.5556821602261444,-2.713681761418478,5.263724553375997,1.1731290817260742,-5.521646205578939
1708435855.918541,-1.2005563974380493,-1.5569813356599589,-2.714090172444479,5.26467393615798,1.1725040674209595,-5.523655299340383
1708435855.920538,-1.198535680770874,-1.5583770538545032,-2.7144253889666956,5.265794861107626,1.1717981100082397,-5.525556389485494
1708435855.9225445,-1.1964164972305298,-1.559728817348816,-2.7148857752429407,5.266911315708914,1.1711746454238892,-5.527545754109518
1708435855.9245417,-1.1943836212158203,-1.561066949074604,-2.7152321974383753,5.268003690033712,1.170445203781128,-5.529514316712515
1708435855.9265487,-1.1923054456710815,-1.5624976579895993,-2.7156155745135706,5.2691396353538416,1.1697769165039062,-5.53156823316683
1708435855.9285562,-1.1903016567230225,-1.5638995704105874,-2.7160401980029505,5.2703356621559045,1.1690638065338135,-5.533628527318136
1708435855.9305701,-1.1883213520050049,-1.5652656185305496,-2.716362778340475,5.271557318955221,1.1683428287506104,-5.535643223916189
1708435855.9325593,-1.1862976551055908,-1.5666975744864722,-2.7167380491839808,5.272803294449606,1.1675361394882202,-5.537777129803793
1708435855.9345798,-1.1843225955963135,-1.5680684978472819,-2.7170756498919886,5.274064826756277,1.1669063568115234,-5.539854649697439
1708435855.9365501,-1.1823290586471558,-1.569533946491294,-2.7175005117999476,5.275309312134542,1.1661571264266968,-5.542036060486929
1708435855.9385474,-1.180401086807251,-1.570918699304098,-2.717839066182272,5.27664082029418,1.1654192209243774,-5.544151727353231
1708435855.940592,-1.1784242391586304,-1.5722395382323207,-2.7182026545154017,5.277988004475393,1.164743423461914,-5.546359602605001
1708435855.9425642,-1.1764329671859741,-1.5737196407713832,-2.7185846010791224,5.279331314354696,1.1639457941055298,-5.548665229474203
1708435855.94458,-1.174526333808899,-1.5752407513060511,-2.718985382710592,5.280802356987753,1.1631650924682617,-5.550936047230856
1708435855.9465823,-1.1725969314575195,-1.5766822300352992,-2.7194250265704554,5.282152998238363,1.162415862083435,-5.553176466618673
1708435855.9485972,-1.1706181764602661,-1.5780941448607386,-2.719734493886129,5.28364925363616,1.1617082357406616,-5.555337254201071
1708435855.9505858,-1.1686502695083618,-1.579557558099264,-2.7201548258410853,5.2851226208503626,1.1609123945236206,-5.557495597993032
1708435855.9525764,-1.1667389869689941,-1.581060071984762,-2.7204771677600306,5.286727654724874,1.1600487232208252,-5.559781018887655
1708435855.9545932,-1.1648752689361572,-1.5826193294920863,-2.720832173024313,5.288320171623983,1.159232258796692,-5.562056247388021
1708435855.9565806,-1.1628978252410889,-1.5841175518431605,-2.721297089253561,5.290055739670553,1.1584128141403198,-5.564253334199087
1708435855.958551,-1.1609728336334229,-1.5856839619078578,-2.7216759363757532,5.291745829373159,1.157555103302002,-5.566527072583334
1708435855.960592,-1.1590818166732788,-1.587198396722311,-2.722058121358053,5.293461251049795,1.1567280292510986,-5.568867568169729
1708435855.962552,-1.1571847200393677,-1.5887733898558558,-2.722405497227804,5.295180845051565,1.1558551788330078,-5.571186069642202
1708435855.9645796,-1.1552377939224243,-1.5903436146178187,-2.7228453795062464,5.296964692860403,1.154941439628601,-5.57371557155718
1708435855.9665625,-1.153364658355713,-1.5919496021666468,-2.7232773939715784,5.298891770630636,1.1541457176208496,-5.576162819062368
1708435855.9685967,-1.151498556137085,-1.593562742272848,-2.723640267048971,5.300785946636953,1.1532037258148193,-5.578680340443746
1708435855.9705741,-1.1495919227600098,-1.5951348743834437,-2.72402006784548,5.302631127625265,1.1523070335388184,-5.581213835869924
1708435855.9725626,-1.1477264165878296,-1.5967728100218714,-2.7244067827807825,5.304601835995474,1.1513742208480835,-5.583792452012197
1708435855.974555,-1.1458820104599,-1.5984145603575648,-2.7248552481280726,5.306537556439199,1.1504621505737305,-5.5863386432277125
1708435855.9765832,-1.144093632698059,-1.6000048122801722,-2.7251675764666956,5.30854223945693,1.149442434310913,-5.588766459618704
1708435855.9785545,-1.1422911882400513,-1.6016799412169398,-2.7255683580981653,5.310711729317465,1.1485592126846313,-5.591259900723593
1708435855.9805644,-1.1403876543045044,-1.60327210048818,-2.7260080019580286,5.312704789429464,1.14753258228302,-5.593828145657675
1708435855.9825904,-1.138574242591858,-1.6050616703429164,-2.7264121214496058,5.314831840782919,1.1465308666229248,-5.5963632504092615
1708435855.9845467,-1.136749267578125,-1.6066895924010218,-2.7267258802997034,5.317057597428121,1.145490050315857,-5.598915163670675
1708435855.9866056,-1.1349776983261108,-1.608424802819723,-2.727104727421896,5.319315361767568,1.1445014476776123,-5.6015759150134485
1708435855.9885576,-1.1331804990768433,-1.6101399860777796,-2.72750431696047,5.321661579399862,1.1434684991836548,-5.604177896176473
1708435855.9905798,-1.131340742111206,-1.6118775806822718,-2.727884356175558,5.323878752976217,1.1423959732055664,-5.606904689465658
1708435855.992573,-1.129503846168518,-1.6136027775206507,-2.72823149362673,5.3262818334396265,1.14131760597229,-5.6096142570125025
1708435855.9945388,-1.1278523206710815,-1.615336080590719,-2.7285824457751673,5.328690993576803,1.1402616500854492,-5.6124038139926355
1708435855.9965637,-1.1261285543441772,-1.6170808277525843,-2.7290073076831263,5.3311054585273645,1.1391466856002808,-5.615209464226858
1708435855.9985375,-1.1244540214538574,-1.6188527546324671,-2.7293217817889612,5.33359836319045,1.1380503177642822,-5.617829803620474
1708435856.0005705,-1.1227775812149048,-1.6206494770445765,-2.7296233812915247,5.336067068367758,1.1368836164474487,-5.6204620043384
1708435856.0025675,-1.1211575269699097,-1.622352739373678,-2.729988400136129,5.338559615402975,1.1357622146606445,-5.623187307511465
1708435856.0045912,-1.1195011138916016,-1.6242367229857386,-2.7302537600146692,5.341132628708639,1.1346499919891357,-5.625888709221975
1708435856.006556,-1.117878794670105,-1.6260634861388148,-2.7306187788592737,5.343764531403341,1.1334880590438843,-5.628484789525167
1708435856.0085394,-1.1162757873535156,-1.6278897724547328,-2.7309375444995325,5.346454071789541,1.1322822570800781,-5.631221059952871
1708435856.0105374,-1.1146987676620483,-1.6296893558897914,-2.7312079111682337,5.3490773914153955,1.131084680557251,-5.633901063595907
1708435856.0125551,-1.1132020950317383,-1.6315175495543421,-2.7315693537341517,5.351897763996877,1.1298657655715942,-5.636791173611776
1708435856.0145445,-1.111645221710205,-1.6333090267577113,-2.731856648121969,5.354626703053274,1.1287270784378052,-5.639574174080984
1708435856.016556,-1.1101596355438232,-1.6351710758604945,-2.7321069876300257,5.357373285084524,1.127542495727539,-5.642430011426107
1708435856.0185318,-1.1085617542266846,-1.6370679340758265,-2.732378069554464,5.360210704594412,1.1262263059616089,-5.645317618046896
1708435856.0205624,-1.1071373224258423,-1.6389051876463832,-2.7326374689685267,5.3630427596862695,1.124969720840454,-5.648026351128713
1708435856.0225766,-1.1056418418884277,-1.6408096752562464,-2.73283559480776,5.365955340653219,1.1236680746078491,-5.650787595902578
1708435856.024538,-1.1041760444641113,-1.6426826916136683,-2.733152453099386,5.368777084141531,1.1223796606063843,-5.653395895157949
1708435856.0265555,-1.1027581691741943,-1.644595285455221,-2.733331028615133,5.371626722603597,1.1210901737213135,-5.6561018268214625
1708435856.0285416,-1.1013773679733276,-1.646402498284811,-2.733619515095846,5.374551403313436,1.1197314262390137,-5.658738736306326
1708435856.030539,-1.0999428033828735,-1.6482736072936,-2.733830515538351,5.377426433354177,1.1185317039489746,-5.661473576222555
1708435856.032569,-1.0986227989196777,-1.6501556835570277,-2.734041992818014,5.380325841694631,1.1173362731933594,-5.664216999207632
1708435856.0345392,-1.097293496131897,-1.6520124874510707,-2.734269444142477,5.383273768215933,1.116097331047058,-5.666892472897665
1708435856.036544,-1.0960259437561035,-1.6539317570128382,-2.7344773451434534,5.386187898903646,1.1147557497024536,-5.669624332581655
1708435856.0385358,-1.0947669744491577,-1.65586580852651,-2.7346656958209437,5.3892472861106775,1.1134157180786133,-5.672326509152548
1708435856.0405393,-1.0934956073760986,-1.6576491794981898,-2.734786574040548,5.392263102322378,1.1120778322219849,-5.675185743962423
1708435856.0425742,-1.0921947956085205,-1.6596085033812464,-2.734943215047018,5.395223068981924,1.110733151435852,-5.677930001412527
1708435856.0445635,-1.0908854007720947,-1.6614238224425257,-2.735119644795553,5.398294615536489,1.1093212366104126,-5.680486206208364
1708435856.0465994,-1.0897233486175537,-1.6633388004698695,-2.7352831999408167,5.401332485466757,1.107966423034668,-5.683095697556631
1708435856.0486362,-1.0885746479034424,-1.6651164493956507,-2.735394064580099,5.404375958233633,1.1065813302993774,-5.685668234025137
1708435856.0505579,-1.0873199701309204,-1.6670385799803675,-2.735485617314474,5.407370555191793,1.1051336526870728,-5.688254002724783
1708435856.052557,-1.08611261844635,-1.6689039669432582,-2.7355640570269983,5.410434889584341,1.103737473487854,-5.690688494835989
1708435856.054565,-1.0850160121917725,-1.6707755527892054,-2.7357011477099817,5.413477766304769,1.1022710800170898,-5.69319457212557
1708435856.0565705,-1.0839486122131348,-1.6726237736144007,-2.7357688585864466,5.416523146420278,1.1008130311965942,-5.6957653800593775
1708435856.0585456,-1.0828614234924316,-1.6745144329466761,-2.735840622578756,5.419607865601339,1.0993732213974,-5.698258403931753
1708435856.0605488,-1.0817058086395264,-1.6763197384276332,-2.7358558813678187,5.4226526496704,1.0979938507080078,-5.700799647961752
1708435856.0625596,-1.080672264099121,-1.6781898937621058,-2.735920254384176,5.425704884320059,1.0965303182601929,-5.703260246907369
1708435856.0645483,-1.079628348350525,-1.679967542687887,-2.735932175313131,5.42876290062026,1.095125675201416,-5.7057762185679834
1708435856.0665603,-1.0785350799560547,-1.6818715534605921,-2.7359755674945276,5.431783246784963,1.0937376022338867,-5.708211366330282
1708435856.0685534,-1.0774987936019897,-1.683629652062887,-2.7359312216388147,5.434764253884115,1.0922313928604126,-5.710496489201681
1708435856.0705304,-1.0764955282211304,-1.6855036220946253,-2.735926930104391,5.437758195191183,1.0907819271087646,-5.712841455136434
1708435856.0725493,-1.0754761695861816,-1.6873022518553675,-2.7358549276935022,5.440806138306417,1.0892596244812012,-5.714980487023489
1708435856.07456,-1.0744751691818237,-1.6890961132445277,-2.735751454030172,5.443778085499563,1.0877900123596191,-5.71727961698641
1708435856.0765376,-1.0735305547714233,-1.690869470635885,-2.7356351057635706,5.446862923889913,1.0862600803375244,-5.719424013291494
1708435856.0785458,-1.0726169347763062,-1.6926642856993617,-2.73551851907839,5.44983201006011,1.0848243236541748,-5.7215657273875635
1708435856.080546,-1.0716804265975952,-1.6944648228087367,-2.735406462346212,5.452856647759237,1.0833792686462402,-5.723755363618032
1708435856.0825548,-1.0708459615707397,-1.696144243279928,-2.7353344599353235,5.455860364228048,1.0819271802902222,-5.725870076810018
1708435856.0845861,-1.0699299573898315,-1.6978785000243128,-2.7351821104632776,5.458775150566854,1.080465316772461,-5.727958981190817
1708435856.0865505,-1.069042444229126,-1.699651380578512,-2.7350338141070765,5.461694466858663,1.078963041305542,-5.730015281830923
1708435856.0885506,-1.0682768821716309,-1.701320310632223,-2.7348619143115442,5.464565384178915,1.0774612426757812,-5.732102100049154
1708435856.0905337,-1.0673915147781372,-1.7031032047667445,-2.734706226979391,5.4674309370811365,1.0759484767913818,-5.734085802231924
1708435856.0925436,-1.0666037797927856,-1.7048036060728968,-2.7345264593707483,5.470318841725149,1.0743744373321533,-5.7361414472209376
1708435856.0945477,-1.0658204555511475,-1.7065965137877406,-2.734351460133688,5.473110425263204,1.0728715658187866,-5.738121334706442
1708435856.0965378,-1.0651016235351562,-1.7082306347289027,-2.734147850667135,5.476033258229055,1.0712970495224,-5.740006987248556
1708435856.0985441,-1.0644116401672363,-1.7099181614317835,-2.7338667551623743,5.478834914952078,1.0698314905166626,-5.74178779522051
1708435856.1005414,-1.06368088722229,-1.711588521996969,-2.733591143284933,5.481621908932485,1.0682964324951172,-5.743510607873098
1708435856.1025355,-1.062970519065857,-1.7132235966124476,-2.73330265680422,5.484319436341085,1.0668227672576904,-5.745238069687979
1708435856.1045268,-1.0623304843902588,-1.7149206600584925,-2.7331371943103235,5.487154769688406,1.0652992725372314,-5.746851388608114
1708435856.1065555,-1.0616366863250732,-1.7165490589537562,-2.732784096394674,5.489785778313436,1.063787817955017,-5.748475436364309
1708435856.1085656,-1.060937762260437,-1.7181912861266078,-2.732443634663717,5.492547082691946,1.0623589754104614,-5.750049177800314
1708435856.1105509,-1.0603392124176025,-1.7197581730284632,-2.732141081486837,5.4951186058814905,1.0608482360839844,-5.751576427613394
1708435856.1125486,-1.05961012840271,-1.7214051685728968,-2.73185903230776,5.4977431176002405,1.0592747926712036,-5.753027323876516
1708435856.1145456,-1.058953046798706,-1.7230497799315394,-2.7314537207232874,5.500350999623098,1.0578255653381348,-5.7545581499682825
1708435856.1165385,-1.0582737922668457,-1.7246223888792933,-2.7310946623431605,5.502958404808798,1.056388020515442,-5.755993489419119
1708435856.1185591,-1.05776846408844,-1.7261315784850062,-2.7307267824756067,5.505525040417471,1.054957389831543,-5.757464651261465
1708435856.1205707,-1.0572093725204468,-1.7277022800841273,-2.7303434054004114,5.508043277054586,1.0534809827804565,-5.758821014557974
1708435856.1225572,-1.0566036701202393,-1.7292443714537562,-2.729931656514303,5.510514485626974,1.052080512046814,-5.760131065045492
1708435856.1245484,-1.0559923648834229,-1.7308179340758265,-2.7295334974872034,5.513045358448782,1.0506480932235718,-5.761529211197988
1708435856.1265454,-1.0553746223449707,-1.7323938808836878,-2.7291019598590296,5.515465247422018,1.0492597818374634,-5.762706104909078
1708435856.128532,-1.0548580884933472,-1.7338530025877894,-2.7286067644702356,5.517807054310598,1.0477344989776611,-5.764070336018698
1708435856.1305535,-1.0542548894882202,-1.7353574238219203,-2.728147570286886,5.520236182003774,1.046243667602539,-5.765216950570242
1708435856.1325488,-1.0536646842956543,-1.736960073510641,-2.727639977131979,5.5225692866142175,1.0447899103164673,-5.766428593789236
1708435856.1345415,-1.0531648397445679,-1.738380571404928,-2.727107826863424,5.524882721691885,1.04326593875885,-5.767542544995443
1708435856.1365337,-1.0525528192520142,-1.7398606739439906,-2.7266090551959437,5.527125286846914,1.0418123006820679,-5.768601242695944
1708435856.1385417,-1.052047610282898,-1.7413512669005335,-2.7261059919940394,5.529405104904928,1.0402805805206299,-5.76978570619692
1708435856.1405454,-1.0515474081039429,-1.742735048333639,-2.725595299397604,5.531600343972006,1.0387496948242188,-5.770728890095846
1708435856.1425388,-1.050999641418457,-1.744195123712057,-2.7250638643847864,5.533770906716146,1.0372422933578491,-5.771661762391226
1708435856.1445372,-1.0505220890045166,-1.7455946407713832,-2.724487606679098,5.535924601345815,1.0358054637908936,-5.772633735333578
1708435856.1465895,-1.0499427318572998,-1.7470361195006312,-2.7240150610553187,5.538062321930685,1.0343446731567383,-5.77343321243395
1708435856.1485922,-1.0494446754455566,-1.748512407342428,-2.723374907170431,5.540135788708486,1.0329618453979492,-5.774282280598776
1708435856.1505575,-1.0489428043365479,-1.7499047718443812,-2.722794834767477,5.54217295625762,1.0315545797348022,-5.774998788033621
1708435856.152537,-1.0483957529067993,-1.7512537441649378,-2.7221975962268274,5.544265734940328,1.0301103591918945,-5.775751833115713
1708435856.1545525,-1.0479265451431274,-1.752637048760885,-2.721574131642477,5.546204376011648,1.028731107711792,-5.776400391255514
1708435856.1565385,-1.0474164485931396,-1.7539993725218714,-2.7209184805499476,5.548142540245809,1.0273526906967163,-5.77710193792452
1708435856.1585457,-1.0469309091567993,-1.7553941212096156,-2.720310990010397,5.55003576257781,1.0260285139083862,-5.777657632027761
1708435856.1605434,-1.0463473796844482,-1.7566119633116664,-2.7196806112872522,5.551964330464163,1.0246368646621704,-5.778324548398153
1708435856.1625369,-1.0458858013153076,-1.7579781017699183,-2.719032112752096,5.553793656616964,1.023254156112671,-5.778852943574087
1708435856.1645615,-1.0453301668167114,-1.7593065700926722,-2.7183900515185755,5.555558728962698,1.0218299627304077,-5.779403869305746
1708435856.1665385,-1.044863224029541,-1.760629793206686,-2.717715565358297,5.557328510075369,1.0204205513000488,-5.779865626488821
1708435856.1685658,-1.044265627861023,-1.7619058094420375,-2.717041317616598,5.559020566731252,1.0190294981002808,-5.780376140271322
1708435856.170562,-1.043769121170044,-1.763254781762594,-2.7164176146136683,5.560722338944235,1.0176788568496704,-5.780735317860739
1708435856.172549,-1.043267011642456,-1.7644688091673792,-2.7157116572009485,5.562294769078054,1.0163122415542603,-5.781129841004507
1708435856.1745503,-1.0427688360214233,-1.7657419643797816,-2.715008322392599,5.563953208714285,1.014973759651184,-5.78144741455187
1708435856.1765437,-1.0422500371932983,-1.7670237026610316,-2.7142966429339808,5.5655192015464685,1.013668417930603,-5.781783227120535
1708435856.178546,-1.0417454242706299,-1.7682072124876917,-2.71360689798464,5.566950189858236,1.0123183727264404,-5.782078091298239
1708435856.1805682,-1.0411815643310547,-1.7694274387755335,-2.712827269230978,5.568413185864248,1.0110440254211426,-5.782240096722738
1708435856.18256,-1.0406839847564697,-1.7706686458983363,-2.712177817021505,5.5698802945907495,1.0096756219863892,-5.782434527073995
1708435856.1845517,-1.0401867628097534,-1.7718364200987757,-2.711452309285299,5.571297395020284,1.0084582567214966,-5.782610837613241
1708435856.1865637,-1.0396392345428467,-1.7730094395079554,-2.7106192747699183,5.572660434037008,1.007164478302002,-5.782708529626028
1708435856.1885664,-1.0390559434890747,-1.77418913463735,-2.7099016348468226,5.573952245503225,1.0059089660644531,-5.782780174409048
1708435856.1905584,-1.0385174751281738,-1.7753197155394496,-2.709130589162008,5.57528697231368,1.0046558380126953,-5.78281939426531
1708435856.1925712,-1.0379868745803833,-1.7764464817442835,-2.708405319844381,5.57643877246932,1.003387689590454,-5.782855157052175
1708435856.1945555,-1.0374486446380615,-1.777590890923971,-2.707602326069967,5.577631938248434,1.0022448301315308,-5.782797757779257
1708435856.196556,-1.0369699001312256,-1.7787162266173304,-2.706839148198263,5.578803705960073,1.0009632110595703,-5.782718066369192
1708435856.1985717,-1.036365032196045,-1.779781003991598,-2.7060847918139856,5.579896735935964,0.9997592568397522,-5.782576982175009
1708435856.2005699,-1.035824179649353,-1.7809020481505335,-2.7052770296679896,5.581012177258291,0.9986404180526733,-5.782477800046102
1708435856.2025404,-1.0352617502212524,-1.782018323937887,-2.70449144044985,5.582116591721334,0.9974763989448547,-5.782285575066702
1708435856.2045393,-1.0347036123275757,-1.783121248284811,-2.70369536081423,5.583092438965597,0.9962994456291199,-5.782146398221151
1708435856.2065437,-1.0341702699661255,-1.7841259441771449,-2.702860418950216,5.584031867771902,0.9950486421585083,-5.781975869332449
1708435856.2085657,-1.0335277318954468,-1.7851735554137171,-2.7020767370807093,5.584993290692129,0.9939333200454712,-5.781702045594351
1708435856.2105453,-1.0329421758651733,-1.7861749134459437,-2.701254669819967,5.585934328823843,0.9928705096244812,-5.781467978154318
1708435856.2125828,-1.0323312282562256,-1.7872306309142054,-2.7004266420947474,5.586778390198507,0.9916883111000061,-5.781086329613821
1708435856.2145617,-1.0317496061325073,-1.7882219753661097,-2.699684206639425,5.587615418225088,0.9905884861946106,-5.780757073556082
1708435856.216548,-1.031095266342163,-1.7892114124693812,-2.6988046805011194,5.58829818943099,0.989484429359436,-5.780439857636587
1708435856.2185574,-1.0304360389709473,-1.7901941738524378,-2.697996441517965,5.589051532536306,0.9883997440338135,-5.7799952069865626
1708435856.220551,-1.0298351049423218,-1.7912165127196253,-2.6972654501544397,5.589805531292715,0.9873197674751282,-5.779563848172323
1708435856.2226326,-1.029221773147583,-1.7921563587584437,-2.6964386145221155,5.590503740101614,0.9862061142921448,-5.77908564010729
