Eg3-git/Classifiers/Data Collection/u3/u3star3_ur3e_joint_states.csv
time,elbow_joint,shoulder_lift_joint,shoulder_pan_joint,wrist_1_joint,wrist_2_joint,wrist_3_joint
1708435760.260046,-2.141730308532715,-1.3332089495709916,-2.5262234846698206,6.109797227173605,1.0167529582977295,-5.465837780629293
1708435760.2619948,-2.1417346000671387,-1.3332005155137558,-2.5262067953692835,6.10975598075942,1.0167529582977295,-5.465809230004446
1708435760.2640553,-2.141690254211426,-1.333201677804329,-2.5262234846698206,6.109739529877462,1.0167605876922607,-5.46577221552004
1708435760.2661366,-2.141714572906494,-1.3331642311862488,-2.5262144247638147,6.109816896706381,1.0167399644851685,-5.465853695069448
1708435760.2679946,-2.1417059898376465,-1.3332459044507523,-2.5262234846698206,6.109764802246847,1.0167399644851685,-5.46579742828478
1708435760.270017,-2.1416778564453125,-1.3332373213819046,-2.5262325445758265,6.109792816429891,1.0167518854141235,-5.46586257616152
1708435760.2719994,-2.1417102813720703,-1.3331685674241562,-2.526210133229391,6.109800565033712,1.0167768001556396,-5.465846542512075
1708435760.2740345,-2.1417837142944336,-1.3332251471332093,-2.5262518564807337,6.109809624939718,1.0167648792266846,-5.465849463139669
1708435760.2759984,-2.1416778564453125,-1.33316424608741,-2.5262444655047815,6.109767424851217,1.016756296157837,-5.465849463139669
1708435760.278032,-2.1417346000671387,-1.3332089495709916,-2.5262067953692835,6.109763014107504,1.0168095827102661,-5.465834681187765
1708435760.2800474,-2.141726016998291,-1.3332208704999466,-2.5262113253222864,6.1097603915031335,1.0167443752288818,-5.465792957936422
1708435760.2819977,-2.141718864440918,-1.333200530414917,-2.5261827150927942,6.109809624939718,1.0167691707611084,-5.465772394333975
1708435760.2840152,-2.141726016998291,-1.3332046878388901,-2.5261827150927942,6.109792816429891,1.0167529582977295,-5.465829018746511
1708435760.2859902,-2.1417031288146973,-1.3331804287484665,-2.5261946360217493,6.109827506333151,1.0167486667633057,-5.4658048192607325
1708435760.2879913,-2.141730308532715,-1.3331962686828156,-2.5262563864337366,6.109800565033712,1.0167605876922607,-5.465842131768362
1708435760.2900279,-2.141775369644165,-1.3332132709077378,-2.52622634569277,6.109839427262106,1.0167737007141113,-5.46584660211672
1708435760.2920039,-2.141726016998291,-1.3332046580365677,-2.5262325445758265,6.109797227173605,1.0167648792266846,-5.4658048192607325
1708435760.2939897,-2.141730308532715,-1.3332289469293137,-2.5262563864337366,6.109739529877462,1.0167274475097656,-5.465779785309927
1708435760.2960224,-2.141721725463867,-1.3331685078195115,-2.5262113253222864,6.109780895500936,1.0167442560195923,-5.465788547192709
1708435760.297999,-2.1417384147644043,-1.3332407933524628,-2.5262234846698206,6.109780895500936,1.0167680978775024,-5.465812687073843
1708435760.3000128,-2.1417102813720703,-1.3331996363452454,-2.5262113253222864,6.109809624939718,1.0167648792266846,-5.46578419605364
1708435760.301999,-2.141767978668213,-1.3332166832736512,-2.5262325445758265,6.1097603915031335,1.016706943511963,-5.465866986905233
1708435760.3040242,-2.141718864440918,-1.3332047027400513,-2.5262113253222864,6.1097720740135095,1.0167561769485474,-5.465817157422201
1708435760.3059945,-2.1416778564453125,-1.3332089346698304,-2.5262203852282923,6.1097603915031335,1.0167529582977295,-5.465877894555227
1708435760.3080423,-2.141721725463867,-1.3332578253797074,-2.526193443928854,6.109776484757223,1.0167198181152344,-5.4658581654178064
1708435760.3100562,-2.141751289367676,-1.333172695045807,-2.5262234846698206,6.109709369927206,1.0167691707611084,-5.465862635766165
1708435760.3120053,-2.141714572906494,-1.3331760627082367,-2.5262280146228235,6.10978530624465,1.0167574882507324,-5.465862635766165
1708435760.3142378,-2.141730308532715,-1.3331685078195115,-2.5262189547168177,6.109813916474142,1.0167617797851562,-5.465791646634237
1708435760.3160357,-2.141746997833252,-1.33316424608741,-2.5261738936053675,6.109834778099813,1.0167737007141113,-5.465842191373007
1708435760.318064,-2.141726016998291,-1.3332118403962632,-2.5261991659747522,6.109739529877462,1.0167198181152344,-5.46582150856127
1708435760.3200347,-2.141721725463867,-1.333212436442711,-2.5262144247638147,6.1098259566123865,1.0167529582977295,-5.465813700352804
1708435760.322057,-2.1417346000671387,-1.3332089495709916,-2.526284996663229,6.109816896706381,1.0167573690414429,-5.46584660211672
1708435760.3240762,-2.1417346000671387,-1.3331962686828156,-2.5262113253222864,6.1097720740135095,1.0167529582977295,-5.465844992791311
1708435760.3259945,-2.141721725463867,-1.3332047325423737,-2.5261991659747522,6.109805094986715,1.0167155265808105,-5.465837780629293
1708435760.32804,-2.141730308532715,-1.3332208854011078,-2.5262113253222864,6.109850036888876,1.0167405605316162,-5.465853754674093
1708435760.3300474,-2.141690254211426,-1.3332167130759736,-2.5262487570392054,6.109809624939718,1.0167486667633057,-5.4657960573779505
1708435760.3320677,-2.1416945457458496,-1.3332246106914063,-2.5261991659747522,6.109792816429891,1.0167574882507324,-5.465858105813162
1708435760.3339958,-2.141746997833252,-1.3331962686828156,-2.526187245045797,6.109792816429891,1.016794204711914,-5.465820256863729
1708435760.3359911,-2.141767978668213,-1.3331846755794068,-2.5262113253222864,6.109788405686178,1.0167529582977295,-5.465851012860433
1708435760.3379867,-2.141779661178589,-1.333200530414917,-2.5261991659747522,6.109734999924459,1.0167360305786133,-5.465852860604421
1708435760.3400097,-2.1417102813720703,-1.3331930947354813,-2.5262158552752894,6.10976921299056,1.0167529582977295,-5.465870384369985
1708435760.3419776,-2.141730308532715,-1.3332167130759736,-2.5262113253222864,6.109800565033712,1.0167198181152344,-5.465809230004446
1708435760.3439867,-2.1417031288146973,-1.3331962686828156,-2.5261901060687464,6.109846699028768,1.0167691707611084,-5.465874735509054
1708435760.3460195,-2.1417174339294434,-1.3331962686828156,-2.526203695927755,6.109727370529928,1.0167574882507324,-5.465846661721365
1708435760.34805,-2.1417102813720703,-1.3332578402808686,-2.5262113253222864,6.109816896706381,1.0167691707611084,-5.465866927300588
1708435760.3499825,-2.141707420349121,-1.3331599098495026,-2.5262773672686976,6.109805094986715,1.0167405605316162,-5.465895477925436
1708435760.3520434,-2.1417346000671387,-1.3331962686828156,-2.5261827150927942,6.109822976380148,1.0167529582977295,-5.465886656438009
1708435760.3539972,-2.1416778564453125,-1.3331962686828156,-2.5261991659747522,6.109788405686178,1.0167486667633057,-5.465849463139669
1708435760.3559825,-2.141721725463867,-1.3332047325423737,-2.5262203852282923,6.109854566841879,1.0167768001556396,-5.465830270444052
1708435760.357991,-2.141714572906494,-1.3332005006125947,-2.5262203852282923,6.109763014107504,1.0167486667633057,-5.465889934693472
1708435760.3599913,-2.1417384147644043,-1.333172695045807,-2.526203695927755,6.109797227173605,1.0167605876922607,-5.465870384369985
1708435760.3619986,-2.141718864440918,-1.3331273359111329,-2.5262234846698206,6.109767424851217,1.0167317390441895,-5.4658406416522425
1708435760.3640373,-2.141726016998291,-1.3332166832736512,-2.5262532869922083,6.1097603915031335,1.0167405605316162,-5.465866092835562
1708435760.3659992,-2.1416988372802734,-1.3332373809865494,-2.5262113253222864,6.109821545868673,1.0167442560195923,-5.465842191373007
1708435760.368011,-2.1417722702026367,-1.3332294684699555,-2.5262444655047815,6.109719741135397,1.0167574882507324,-5.4658735434161585
1708435760.3700452,-2.141742706298828,-1.3331877154162903,-2.5262368361102503,6.1097943661506555,1.0167486667633057,-5.4658735434161585
1708435760.3720174,-2.141742706298828,-1.333200530414917,-2.5262203852282923,6.1097484705741785,1.0167486667633057,-5.465870384369985
1708435760.3740628,-2.1417839527130127,-1.3331962686828156,-2.526224676762716,6.109751450806417,1.0167486667633057,-5.465894226227896
1708435760.3760176,-2.141775369644165,-1.3332613122514267,-2.5262203852282923,6.109792816429891,1.0167529582977295,-5.465849463139669
1708435760.378036,-2.1417059898376465,-1.3331963133862992,-2.5261827150927942,6.109727370529928,1.0167853832244873,-5.465844992791311
1708435760.3800347,-2.141775369644165,-1.3331847053817292,-2.526187245045797,6.109809624939718,1.0167648792266846,-5.465857271348135
1708435760.3820295,-2.1417346000671387,-1.3332208704999466,-2.526212517415182,6.1097484705741785,1.0167486667633057,-5.465894226227896
1708435760.3840687,-2.1417102813720703,-1.333208979373314,-2.526187245045797,6.10975598075942,1.0167443752288818,-5.465870384369985
1708435760.3860166,-2.1417462825775146,-1.3331760627082367,-2.5261574427234095,6.109764802246847,1.0167691707611084,-5.465889815484182
1708435760.3880055,-2.141718864440918,-1.3332081002048035,-2.5262370745288294,6.109764802246847,1.0167486667633057,-5.465852860604421
1708435760.3900404,-2.141726016998291,-1.3332080853036423,-2.5262234846698206,6.109767424851217,1.0167529582977295,-5.465852860604421
1708435760.392009,-2.14168643951416,-1.3331931096366425,-2.526229206715719,6.109726059227743,1.0167691707611084,-5.4658647815333765
1708435760.394056,-2.1416735649108887,-1.333188847904541,-2.5262280146228235,6.109797227173605,1.0167529582977295,-5.46589428583254
1708435760.3959918,-2.141726016998291,-1.3331931245378037,-2.5262158552752894,6.109792816429891,1.0167737007141113,-5.465852860604421
1708435760.3980322,-2.141726016998291,-1.3331599545529862,-2.5262203852282923,6.109722840576925,1.0167529582977295,-5.465894226227896
1708435760.400021,-2.1416735649108887,-1.333225132232048,-2.5261946360217493,6.109806287079611,1.0167737007141113,-5.465877954159872
1708435760.4020195,-2.1416735649108887,-1.3331931096366425,-2.5262113253222864,6.109734999924459,1.0167574882507324,-5.465877954159872
1708435760.404013,-2.1416988372802734,-1.3331599098495026,-2.526187245045797,6.10975598075942,1.0167810916900635,-5.465848449860708
1708435760.4060156,-2.141723155975342,-1.333156169658043,-2.526224676762716,6.109780895500936,1.0167361497879028,-5.465827349816458
1708435760.4080215,-2.1417129039764404,-1.333225132232048,-2.5262113253222864,6.1097720740135095,1.016731858253479,-5.465844992791311
1708435760.4100685,-2.1417016983032227,-1.3332203191569825,-2.5261917749988,6.10976921299056,1.0167399644851685,-5.46585721174349
1708435760.4119935,-2.141763687133789,-1.3332124662450333,-2.5262113253222864,6.109809624939718,1.0167111158370972,-5.465869132672445
1708435760.4140854,-2.141746997833252,-1.3332208704999466,-2.5262325445758265,6.109757411270895,1.0167605876922607,-5.465877954159872
1708435760.4160728,-2.141775369644165,-1.3331726801446457,-2.526208225880758,6.109788405686178,1.016797423362732,-5.465889875088827
1708435760.418061,-2.141721725463867,-1.3331684929183503,-2.5262280146228235,6.109851228981771,1.0167561769485474,-5.4658735434161585
1708435760.420034,-2.1417551040649414,-1.3332494062236329,-2.5261901060687464,6.109797227173605,1.0167973041534424,-5.4658910671817225
1708435760.42201,-2.141690254211426,-1.3331599098495026,-2.5261827150927942,6.109788405686178,1.0167518854141235,-5.465885464345114
1708435760.4239984,-2.1417551040649414,-1.3332459789565583,-2.5261827150927942,6.109821545868673,1.0167680978775024,-5.465820256863729
1708435760.4260414,-2.1417174339294434,-1.3332133007100602,-2.5262067953692835,6.109818446427145,1.0168052911758423,-5.46585721174349
1708435760.428015,-2.141763687133789,-1.3331685227206727,-2.5261781851397913,6.109767424851217,1.0167930126190186,-5.465852860604421
1708435760.430043,-2.1417384147644043,-1.333188847904541,-2.5261662642108362,6.109813916474142,1.0168052911758423,-5.465886716042654
1708435760.4320412,-2.1417346000671387,-1.3331769567779084,-2.526187245045797,6.109809624939718,1.0167312622070312,-5.465852860604421
1708435760.434011,-2.141751289367676,-1.33321666837249,-2.5261991659747522,6.109846699028768,1.0167768001556396,-5.465910557900564
1708435760.4360409,-2.1417346000671387,-1.3331804287484665,-2.526187245045797,6.109783875733175,1.0168061256408691,-5.4658810536014
1708435760.4380388,-2.141746997833252,-1.3332046878388901,-2.526203695927755,6.1097603915031335,1.0167475938796997,-5.465877954159872
1708435760.4400766,-2.141767978668213,-1.3331561845592041,-2.5261781851397913,6.109763014107504,1.0167680978775024,-5.465885464345114
1708435760.4420223,-2.1416945457458496,-1.3331685078195115,-2.526203695927755,6.109813916474142,1.0167930126190186,-5.465919319783346
1708435760.4440098,-2.141718864440918,-1.3332047027400513,-2.5262158552752894,6.109758484154501,1.016796588897705,-5.465848449860708
1708435760.4460185,-2.141726016998291,-1.3332047027400513,-2.5262158552752894,6.109779345780172,1.0167768001556396,-5.4658647815333765
1708435760.4480348,-2.141714572906494,-1.3332046878388901,-2.526203695927755,6.109813916474142,1.0168083906173706,-5.4658929149257105
1708435760.4500284,-2.1417102813720703,-1.3332251471332093,-2.5262189547168177,6.10978530624465,1.0168503522872925,-5.4658735434161585
1708435760.4520123,-2.141711711883545,-1.3331962686828156,-2.5261784235583704,6.10976921299056,1.0168336629867554,-5.465918425713674
1708435760.45403,-2.141730308532715,-1.3332047176412125,-2.5262354055987757,6.109797227173605,1.0167921781539917,-5.465898696576254
1708435760.456048,-2.1416945457458496,-1.3332175624421616,-2.526210133229391,6.109801757126608,1.0168039798736572,-5.465923730527059
1708435760.4580276,-2.1416821479797363,-1.3332331639579316,-2.5262280146228235,6.109767424851217,1.0168577432632446,-5.465922776852743
1708435760.4600291,-2.14168643951416,-1.3332655143788834,-2.5262234846698206,6.109739529877462,1.016845941543579,-5.465894226227896
1708435760.4619963,-2.1416501998901367,-1.3332613122514267,-2.5262280146228235,6.109780895500936,1.0168249607086182,-5.465898696576254
1708435760.4640164,-2.141658067703247,-1.3332613122514267,-2.5262234846698206,6.109734999924459,1.0168249607086182,-5.465889875088827
1708435760.4660013,-2.1416995525360107,-1.333200530414917,-2.5262654463397425,6.10977195480422,1.0168577432632446,-5.465852860604421
1708435760.4680305,-2.141617774963379,-1.3332208854011078,-2.5262609163867396,6.109797227173605,1.0168371200561523,-5.465901796017782
1708435760.470024,-2.1416871547698975,-1.333225132232048,-2.5262725988971155,6.109731662064352,1.016890287399292,-5.465901796017782
1708435760.4720192,-2.141663074493408,-1.333228961830475,-2.5262816588031214,6.1097242710884,1.0168404579162598,-5.4658735434161585
1708435760.4740305,-2.1416025161743164,-1.3332080853036423,-2.5262444655047815,6.109736192017355,1.0168447494506836,-5.465894226227896
1708435760.476023,-2.141639232635498,-1.3332005453160782,-2.5262637774096888,6.109766471176901,1.016893744468689,-5.4658647815333765
1708435760.4780588,-2.1416192054748535,-1.3332577061704178,-2.5262354055987757,6.109673607140341,1.0168695449829102,-5.465869132672445
1708435760.4800076,-2.14158296585083,-1.3332613122514267,-2.5262308756457728,6.109728801041403,1.0168566703796387,-5.465918425713674
1708435760.4820132,-2.141566038131714,-1.3331847202828904,-2.5262518564807337,6.109680878907003,1.0169060230255127,-5.465906147156851
1708435760.4840436,-2.141505718231201,-1.3331727248481293,-2.5262683073626917,6.109654056816854,1.0168684720993042,-5.465839628373281
1708435760.486036,-2.141477584838867,-1.333131582742073,-2.5262308756457728,6.109555351525106,1.0168763399124146,-5.465852800999777
1708435760.4880197,-2.141474723815918,-1.333191917543747,-2.526259247456686,6.1095701334770105,1.01692533493042,-5.465869132672445
1708435760.4900446,-2.1414666175842285,-1.3332450997880478,-2.5262518564807337,6.109483706742086,1.0169376134872437,-5.465885464345114
1708435760.492069,-2.1414542198181152,-1.3331846755794068,-2.526313606892721,6.109492528229513,1.0169289112091064,-5.465869132672445
1708435760.4939992,-2.141479969024658,-1.333233193760254,-2.526280466710226,6.1094655869300745,1.016970157623291,-5.465885523949758
1708435760.496016,-2.1413657665252686,-1.3332452040961762,-2.526242796574728,6.109385120659628,1.0169857740402222,-5.465848449860708
1708435760.4980185,-2.1413912773132324,-1.333191917543747,-2.526266876851217,6.109335529595175,1.0169647932052612,-5.465860251580374
1708435760.5000093,-2.1414084434509277,-1.3332124513438721,-2.526266876851217,6.109346139221945,1.0170260667800903,-5.465889875088827
1708435760.5020196,-2.141319751739502,-1.3332646203092118,-2.526245657597677,6.109269845276632,1.0169802904129028,-5.465877894555227
1708435760.5040205,-2.141270399093628,-1.3332039427808304,-2.526229445134298,6.109278905182638,1.0170458555221558,-5.465876642857687
1708435760.5060418,-2.141246795654297,-1.333252714281418,-2.526370112095968,6.109264004021444,1.0170533657073975,-5.465894226227896
1708435760.5080402,-2.141207218170166,-1.3332203191569825,-2.5263193289386194,6.109195220261373,1.0170742273330688,-5.465881113206045
1708435760.51003,-2.141167163848877,-1.3332682114890595,-2.5263119379626673,6.109118926316061,1.017122507095337,-5.465877954159872
1708435760.512045,-2.1411633491516113,-1.3332725328258057,-2.5263643900500696,6.109081613808431,1.0171375274658203,-5.465894226227896
1708435760.5140803,-2.141111373901367,-1.333264024262764,-2.5263598600970667,6.1090712426002405,1.0171418190002441,-5.465836171303884
1708435760.5160382,-2.141059398651123,-1.3333653074553986,-2.526350800191061,6.109035241394796,1.0171616077423096,-5.465906147156851
1708435760.5180755,-2.141002893447876,-1.333311678176262,-2.526358429585592,6.108961927681722,1.0171573162078857,-5.4658735434161585
1708435760.520016,-2.1409878730773926,-1.333332137470581,-2.526424233113424,6.108926164894857,1.0171691179275513,-5.465852860604421
1708435760.5220218,-2.140944480895996,-1.333408461218216,-2.5264061133014124,6.108894693642416,1.0172303915023804,-5.465882364903585
1708435760.5240352,-2.140843629837036,-1.3334213656238099,-2.5264228026019495,6.108839499741354,1.0172793865203857,-5.465894226227896
1708435760.526022,-2.1407761573791504,-1.333371402030327,-2.526479784642355,6.108721244126119,1.017209768295288,-5.465886656438009
1708435760.528061,-2.1406877040863037,-1.333439664249756,-2.526470724736349,6.10865997055129,1.0172524452209473,-5.465853754674093
1708435760.5300446,-2.140611171722412,-1.333496094947197,-2.526565138493673,6.108582126885214,1.0173026323318481,-5.465833489094869
1708435760.5320442,-2.1405560970306396,-1.3334918481162568,-2.5265100638019007,6.1085030911262415,1.0173628330230713,-5.465849463139669
1708435760.5340292,-2.140500545501709,-1.3334875863841553,-2.5266135374652308,6.108357894211569,1.0173377990722656,-5.465821448956625
1708435760.5360074,-2.1404168605804443,-1.3335479956916352,-2.52664024034609,6.108254897385397,1.0173734426498413,-5.465809230004446
1708435760.5380406,-2.140263795852661,-1.3335722100785752,-2.526623789464132,6.108249056130209,1.0174185037612915,-5.465809289609091
1708435760.5400193,-2.140205144882202,-1.3336168390563508,-2.5266552607165735,6.108059155731954,1.0174543857574463,-5.465777937565939
1708435760.5420446,-2.1401662826538086,-1.3336189550212403,-2.52667481104006,6.107948529511251,1.0175025463104248,-5.465740684662954
1708435760.5440073,-2.1400208473205566,-1.3336226058057328,-2.526727263127462,6.107849943428793,1.0175069570541382,-5.4657421747790735
1708435760.5459895,-2.1398816108703613,-1.333662526016571,-2.5268052260028284,6.10769413688735,1.0175429582595825,-5.465761307870046
1708435760.548037,-2.1397781372070312,-1.3336986166289826,-2.5267825762378138,6.107538687973776,1.0175836086273193,-5.4657538572894495
1708435760.550017,-2.1396913528442383,-1.3337675494006653,-2.52682334581484,6.107398497849264,1.0175299644470215,-5.465725843106405
1708435760.552027,-2.1395585536956787,-1.3337627363255997,-2.5268710295306605,6.107233750611105,1.0175539255142212,-5.465747896824972
1708435760.5540278,-2.1394073963165283,-1.333856777553894,-2.526919190083639,6.107040989189901,1.0175856351852417,-5.465637866650717
1708435760.556019,-2.1392228603363037,-1.333842695956566,-2.527006212865011,6.106878030091085,1.0176959037780762,-5.465637866650717
1708435760.5579944,-2.139103889465332,-1.3338384193233033,-2.5270047823535364,6.10669885852889,1.0177032947540283,-5.465556923543112
1708435760.5600321,-2.1388800144195557,-1.3339068454555054,-2.527039353047506,6.106514799385824,1.017734169960022,-5.465619448815481
1708435760.562049,-2.138683319091797,-1.333935247068741,-2.5271006266223353,6.106304156571188,1.0178031921386719,-5.4655388037311
1708435760.5640311,-2.1385011672973633,-1.3339300912669678,-2.527139727269308,6.106121885567465,1.017907977104187,-5.4655643741237085
1708435760.5660129,-2.13826847076416,-1.3339784753373642,-2.5272088686572474,6.105893122940817,1.0179274082183838,-5.4654908815967005
1708435760.568006,-2.138101100921631,-1.3340145659497757,-2.5272565523730677,6.105599987297811,1.0179669857025146,-5.465455118809835
1708435760.5700376,-2.1378824710845947,-1.3340383184007187,-2.52727181116213,6.105365383415975,1.0180076360702515,-5.465414945279257
1708435760.572007,-2.137662410736084,-1.3340580028346558,-2.5273240248309534,6.105111348419943,1.0180916786193848,-5.465346280728475
1708435760.5740116,-2.1373982429504395,-1.3340932738832016,-2.52738863626589,6.104876506119528,1.018193244934082,-5.465331260357992
1708435760.5760288,-2.1372063159942627,-1.3341051501086731,-2.5274649302112024,6.104584920197286,1.0182043313980103,-5.465246085320608
1708435760.5780337,-2.136955738067627,-1.3341485422900696,-2.527541462575094,6.104346143990316,1.0182968378067017,-5.465250615273611
1708435760.5800219,-2.1366631984710693,-1.3342058074525376,-2.5275760332690638,6.104002105980673,1.018336296081543,-5.46518320242037
1708435760.5820224,-2.13641619682312,-1.3342248660377045,-2.5276194254504603,6.1037059901054285,1.0184489488601685,-5.465143028889791
1708435760.5840292,-2.1361501216888428,-1.334292860036232,-2.52771240869631,6.103366958885946,1.0185134410858154,-5.465153400097982
1708435760.586021,-2.1358377933502197,-1.3342921000770112,-2.5277770201312464,6.103088843613424,1.0186220407485962,-5.465054933224813
1708435760.588037,-2.135571241378784,-1.3343926531127472,-2.527807060872213,6.102763044625082,1.0186896324157715,-5.465018932019369
1708435760.5900426,-2.135284900665283,-1.334448666577675,-2.527890984212057,6.102416145592489,1.018753170967102,-5.4649474064456385
1708435760.5920417,-2.134979724884033,-1.334456281071045,-2.5279973188983362,6.102034914284506,1.018862247467041,-5.464932088051931
1708435760.5940292,-2.134706497192383,-1.3345441830209275,-2.52805740038027,6.101647841721334,1.0188767910003662,-5.464877132569448
1708435760.5960243,-2.1343138217926025,-1.3346324873021622,-2.5281248728381556,6.10124837139205,1.0190064907073975,-5.464829150830404
1708435760.5980372,-2.1340038776397705,-1.334684283738472,-2.5282161871539515,6.100874411850729,1.0190613269805908,-5.464785877858297
1708435760.6000397,-2.133615016937256,-1.3347683411887665,-2.5283377806292933,6.100370752602377,1.0192197561264038,-5.4646722118007105
1708435760.6020355,-2.133211851119995,-1.3348240566304703,-2.528433863316671,6.099859463959493,1.01931893825531,-5.464579645787374
1708435760.6039944,-2.1328816413879395,-1.3348635745099564,-2.528508726750509,6.099454510002889,1.0194274187088013,-5.464594427739279
1708435760.606001,-2.1324901580810547,-1.3349549633315583,-2.528628412877218,6.0989407179649255,1.0195114612579346,-5.464481059704916
1708435760.6080215,-2.1320836544036865,-1.3350750517896195,-2.528703753148214,6.098456012993612,1.0196359157562256,-5.464467231427328
1708435760.610014,-2.131646156311035,-1.3350949895432969,-2.528869930897848,6.097998606949606,1.019736647605896,-5.464378003274099
1708435760.612027,-2.1312649250030518,-1.3351906698993226,-2.529011074696676,6.0974498865898035,1.0198479890823364,-5.464282457028524
1708435760.614063,-2.1307759284973145,-1.335278497343399,-2.5291267077075403,6.096897351532736,1.0199891328811646,-5.4642062226878565
1708435760.616049,-2.130296230316162,-1.335366354589798,-2.5292134920703333,6.096386897354879,1.0201376676559448,-5.464159611855642
1708435760.618025,-2.129831075668335,-1.3354373586228867,-2.5293455759631556,6.095777618675985,1.0202863216400146,-5.4640759269343775
1708435760.6200104,-2.129281997680664,-1.3355290752700348,-2.5294774214373987,6.095170008927145,1.0203858613967896,-5.463955108319418
1708435760.6220388,-2.1287941932678223,-1.3356166344932099,-2.5295899550067347,6.094557630806722,1.020533561706543,-5.463911596928732
1708435760.6240385,-2.128270387649536,-1.3357202869704743,-2.5297487417804163,6.093839990883627,1.0206865072250366,-5.463792089615957
1708435760.6260664,-2.127730131149292,-1.3358363074115296,-2.5298600832568567,6.093210923462667,1.0208395719528198,-5.463704053555624
1708435760.6280406,-2.1271965503692627,-1.3359234195998688,-2.5299919287311,6.092545616417684,1.0209672451019287,-5.463657561932699
1708435760.6300302,-2.1265642642974854,-1.3360879880240937,-2.530194346104757,6.091872918396749,1.0211400985717773,-5.463499371205465
1708435760.6320443,-2.1260242462158203,-1.3361959767392655,-2.5303412119494837,6.091089713364401,1.0212595462799072,-5.463421765957968
1708435760.6340332,-2.125347852706909,-1.3363314282945176,-2.530480925236837,6.090343344002523,1.0214515924453735,-5.463300410901205
1708435760.6360288,-2.1246886253356934,-1.336471439605095,-2.5306575934039515,6.089570987015524,1.0215914249420166,-5.463188592587606
1708435760.6380155,-2.124070405960083,-1.3365619641593476,-2.530825678502218,6.088730323105612,1.021804690361023,-5.463118139897482
1708435760.640005,-2.123401403427124,-1.3366569143584748,-2.5309770742999476,6.087909686356344,1.0219806432724,-5.4630359450923365
1708435760.6420197,-2.122664451599121,-1.336768851881363,-2.531120840703146,6.087111103325643,1.0221906900405884,-5.462890926991598
1708435760.6440325,-2.1220197677612305,-1.336916671400406,-2.5313084761248987,6.086229431420126,1.0223859548568726,-5.462832514439718
1708435760.6459987,-2.1212520599365234,-1.3370479804328461,-2.531480852757589,6.085377323418417,1.0225749015808105,-5.462666992341177
1708435760.6480446,-2.1204957962036133,-1.337175430064537,-2.5316441694842737,6.084377157479086,1.0227676630020142,-5.462551836167471
1708435760.649988,-2.1197750568389893,-1.3373273772052308,-2.5318737665759485,6.083432662277975,1.02299165725708,-5.462423507367269
1708435760.6519969,-2.118943929672241,-1.33747090518985,-2.5320404211627405,6.082455861359396,1.0232210159301758,-5.462321523820059
1708435760.6540403,-2.1181859970092773,-1.3376014095595856,-2.532245699559347,6.08143304565505,1.0234777927398682,-5.462120000516073
1708435760.6560092,-2.117313861846924,-1.337799684410431,-2.5324633757220667,6.080364453583517,1.0236942768096924,-5.461976651345388
1708435760.6580324,-2.116471290588379,-1.3379266125014802,-2.5326371828662317,6.079319226532736,1.0238620042800903,-5.4619439283954065
1708435760.6600816,-2.115615129470825,-1.3381121915629883,-2.53286058107485,6.078271496086874,1.0240614414215088,-5.461709145699636
1708435760.662047,-2.1147375106811523,-1.3382542592338105,-2.5330992380725306,6.077251779824056,1.0243066549301147,-5.461615089570181
1708435760.6640577,-2.113884925842285,-1.3384051781943818,-2.5332985560046595,6.076183426171102,1.0245676040649414,-5.461434368287222
1708435760.6660433,-2.113001823425293,-1.3385634285262604,-2.5335188547717493,6.074975478440084,1.0247914791107178,-5.461302582417623
1708435760.6680183,-2.112049102783203,-1.3388010126403351,-2.5337260405169886,6.0738868592079065,1.0250287055969238,-5.4612218777285975
1708435760.6699963,-2.1110780239105225,-1.338925064807274,-2.533912960683004,6.072628366738119,1.0252771377563477,-5.461024765168325
1708435760.6720011,-2.110102653503418,-1.3391162616065522,-2.534193817769186,6.071462261467733,1.0255414247512817,-5.460876766835348
1708435760.6740308,-2.1091060638427734,-1.3392959100059052,-2.534463946019308,6.070261466294088,1.025847315788269,-5.46071839729418
1708435760.6760602,-2.108074903488159,-1.3394497793963929,-2.534640614186422,6.068932163506307,1.0260827541351318,-5.460591499005453
1708435760.6780267,-2.1070761680603027,-1.3396127980998536,-2.5349794069873255,6.067718016892233,1.026330590248108,-5.4604371825801294
1708435760.6800654,-2.106048107147217,-1.3397635978511353,-2.535182062779562,6.06637059429244,1.026615023612976,-5.460170094166891
1708435760.6820483,-2.104959726333618,-1.3399265122464676,-2.535426441823141,6.065114962845602,1.0268847942352295,-5.460092310105459
1708435760.6840076,-2.103844404220581,-1.3401314926198502,-2.5356691519366663,6.0637515662010095,1.0271568298339844,-5.45990109840502
1708435760.6859994,-2.102776050567627,-1.340301827793457,-2.535916868840353,6.062443482666769,1.0274693965911865,-5.459720377122061
1708435760.688032,-2.1016898155212402,-1.3405439269593735,-2.5362396875964563,6.061103331833639,1.0277340412139893,-5.459554080163137
1708435760.6900177,-2.1004719734191895,-1.3406413954547425,-2.5364583174334925,6.059650647431173,1.0279866456985474,-5.459383849297659
1708435760.6920278,-2.099302053451538,-1.3409009736827393,-2.5366933981524866,6.058201658516683,1.0283246040344238,-5.459253970776693
1708435760.6940293,-2.0981295108795166,-1.3410716515830536,-2.5370188395129603,6.056748735695638,1.028587818145752,-5.459046069775717
1708435760.6960244,-2.096867084503174,-1.341292993431427,-2.5373383204089563,6.055315959244528,1.0289483070373535,-5.458857897912161
1708435760.6980245,-2.095709800720215,-1.3414588135531922,-2.537600580845968,6.053775417595663,1.02923583984375,-5.458605353032247
1708435760.7000108,-2.0944459438323975,-1.341729224925377,-2.5379441420184534,6.052251684456625,1.0295690298080444,-5.458480004464285
1708435760.7020435,-2.0931975841522217,-1.3418486726335068,-2.538178030644552,6.050669777184286,1.0298895835876465,-5.458225611840383
1708435760.704026,-2.0919108390808105,-1.3421194714358826,-2.5383833090411585,6.04907118061141,1.030234694480896,-5.458068970833914
1708435760.7060483,-2.0905885696411133,-1.3422809553197403,-2.538713518773214,6.0474305031593225,1.0305591821670532,-5.457868758832113
1708435760.7080364,-2.089221477508545,-1.3425167512944718,-2.5390313307391565,6.045885669976034,1.0309208631515503,-5.457698408757345
1708435760.710017,-2.0879554748535156,-1.3426949244788666,-2.5392966906176966,6.044231164246359,1.031232476234436,-5.457465235386984
1708435760.7120316,-2.0865931510925293,-1.342929260139801,-2.5396326223956507,6.042554366379537,1.0315452814102173,-5.457242671643392
1708435760.7140474,-2.08520245552063,-1.343169854288437,-2.5399742762195032,6.04079698303298,1.0319137573242188,-5.457015518342153
1708435760.7160764,-2.083789825439453,-1.3434092861464997,-2.540253464375631,6.039059865265646,1.0322905778884888,-5.456798617039816
1708435760.718114,-2.08233380317688,-1.343681202535965,-2.540565554295675,6.037313210755148,1.0326229333877563,-5.456638757382528
1708435760.7200413,-2.080939292907715,-1.3438711178353806,-2.540835444127218,6.035594928055563,1.0329110622406006,-5.456434075032369
1708435760.722092,-2.0794990062713623,-1.344135658150055,-2.541180435811178,6.033823597222128,1.0333545207977295,-5.456145826970236
1708435760.724021,-2.078066349029541,-1.3443822276643296,-2.5415504614459437,6.03214322307662,1.0337152481079102,-5.456066850815908
1708435760.7260523,-2.076610803604126,-1.3446408373168488,-2.541924063359396,6.03030680397109,1.0340752601623535,-5.455817107354299
1708435760.7280035,-2.075037956237793,-1.34490122020755,-2.542229715977804,6.028525459557333,1.0344716310501099,-5.455547873173849
1708435760.7300174,-2.073528289794922,-1.345093534593918,-2.542504612599508,6.026681291847982,1.0348442792892456,-5.455285374318258
1708435760.7320054,-2.0719926357269287,-1.3453687590411683,-2.542886797581808,6.024718868523397,1.0352290868759155,-5.455053810273306
1708435760.7340245,-2.0704448223114014,-1.3456420612386246,-2.543197218571798,6.022818314820089,1.0356379747390747,-5.4548415581332605
1708435760.7360492,-2.0688273906707764,-1.3459124130061646,-2.5435543696032923,6.020849454193868,1.0359987020492554,-5.454684440289633
1708435760.7380166,-2.067218780517578,-1.3461549145034333,-2.5438855330096644,6.018883216172018,1.0363789796829224,-5.454457525406973
1708435760.7400253,-2.065582275390625,-1.3464359951070328,-2.5442453066455286,6.016805636673727,1.036810278892517,-5.454250160847799
1708435760.7420192,-2.0639328956604004,-1.346656934624054,-2.544605557118551,6.0148870823676965,1.0371655225753784,-5.4540802280055445
1708435760.744031,-2.062267303466797,-1.347002075319626,-2.5449605623828333,6.012813079148092,1.0376068353652954,-5.453790370618002
1708435760.7460213,-2.0606420040130615,-1.3471920055202027,-2.5453510920154017,6.01085256317214,1.0379830598831177,-5.453624908124105
1708435760.7480257,-2.0589678287506104,-1.3475463551333924,-2.545706097279684,6.008742558747091,1.0383915901184082,-5.453308109437124
1708435760.7500346,-2.057176351547241,-1.3477613788894196,-2.5460379759417933,6.006676184922018,1.0388036966323853,-5.453090194855825
1708435760.7519994,-2.055445432662964,-1.3480452311090012,-2.5464215914355677,6.004538523941793,1.0392465591430664,-5.452867929135458
1708435760.754,-2.0536398887634277,-1.3483655911735077,-2.546809975300924,6.002397048264303,1.039637804031372,-5.452690426503317
1708435760.755998,-2.0519349575042725,-1.348569930796959,-2.5472381750689905,6.000296699791708,1.0400586128234863,-5.452446762715475
1708435760.7580245,-2.0501272678375244,-1.348972277050354,-2.54754883447756,5.9980941889579675,1.0405404567718506,-5.4521188775645655
1708435760.7600014,-2.0482687950134277,-1.3492099058679123,-2.5479989687549036,5.995894896775045,1.040945053100586,-5.451895777379171
1708435760.7620242,-2.0464820861816406,-1.3494927448085328,-2.5483904520617884,5.993704545288839,1.0413987636566162,-5.451690081750051
1708435760.764015,-2.0446078777313232,-1.3498033446124573,-2.548790518437521,5.991459715157308,1.0418317317962646,-5.45146763721575
1708435760.7660198,-2.0427205562591553,-1.350069449549057,-2.5492432753192347,5.989121067314901,1.04221510887146,-5.451236430798666
1708435760.768011,-2.0407819747924805,-1.3504263919642945,-2.5495689550982874,5.9868531105811975,1.0426850318908691,-5.450964872037069
1708435760.7700229,-2.0389304161071777,-1.350692631011345,-2.549980942402975,5.98442958572463,1.043089509010315,-5.450706366692678
1708435760.7720027,-2.0369627475738525,-1.3510110092214127,-2.5503769556628626,5.982203352242269,1.0435311794281006,-5.450450126324789
1708435760.7740507,-2.0350229740142822,-1.351342723970749,-2.5507682005511683,5.97988115528182,1.0439388751983643,-5.450261775647299
1708435760.776021,-2.0330376625061035,-1.3516539496234437,-2.55117637315859,5.977499949723043,1.0444000959396362,-5.449928645287649
1708435760.7780242,-2.0310449600219727,-1.3520049762776871,-2.5515931288348597,5.975105988770284,1.0448615550994873,-5.449715439473287
1708435760.7800393,-2.0289976596832275,-1.3522694569877167,-2.55202824274172,5.97269235828475,1.0453139543533325,-5.449492935334341
1708435760.7820473,-2.027019500732422,-1.3526536238244553,-2.552459780369894,5.970260965615072,1.0458004474639893,-5.449234728013174
1708435760.7840128,-2.024989366531372,-1.3529882741025467,-2.5528438727008265,5.967862713127889,1.0462888479232788,-5.448962990437643
1708435760.7859938,-2.0228521823883057,-1.3533485990813752,-2.5533252398120325,5.965550172119894,1.0467171669006348,-5.448749367390768
1708435760.787995,-2.020850419998169,-1.3536611062339325,-2.5537567774402063,5.962982046395101,1.0471742153167725,-5.448461238537924
1708435760.7900136,-2.018691062927246,-1.3541020911983033,-2.554148022328512,5.960487115174093,1.0475776195526123,-5.44830155769457
1708435760.7920656,-2.0165414810180664,-1.354436771278717,-2.554572645817892,5.957913982659139,1.0480999946594238,-5.448001686726705
1708435760.794053,-2.0143465995788574,-1.3547489208034058,-2.5549877325641077,5.955380666046896,1.048494577407837,-5.4477418700801294
1708435760.7959964,-2.0122153759002686,-1.3551705193570633,-2.5553868452655237,5.952799784928121,1.048985242843628,-5.447491172944204
1708435760.798036,-2.0100226402282715,-1.355550007229187,-2.5558722654925745,5.950192916184225,1.0494049787521362,-5.447289351616995
1708435760.8000147,-2.0077977180480957,-1.3559031945518036,-2.5562592188464563,5.947599398880758,1.0499475002288818,-5.447017971669332
1708435760.8020341,-2.0055460929870605,-1.3562751126340409,-2.5567200819598597,5.945012914925375,1.050472617149353,-5.446762804185049
1708435760.804049,-2.0032858848571777,-1.356629492049553,-2.557180468236105,5.9424006817634485,1.050952672958374,-5.446502987538473
1708435760.8060167,-2.0011138916015625,-1.3570103210261841,-2.557607714329855,5.9397939322288416,1.0514299869537354,-5.446252171193258
1708435760.8079984,-1.9989858865737915,-1.3573615711978455,-2.5579713026629847,5.937228548317709,1.0518380403518677,-5.446046296750204
1708435760.810022,-1.9968317747116089,-1.3577695500901719,-2.558358971272604,5.934780347138204,1.0522841215133667,-5.445802871380941
1708435760.812021,-1.9946342706680298,-1.3580881369164963,-2.5587948004352015,5.93228434303359,1.0526708364486694,-5.445583407078878
1708435760.8140438,-1.9924238920211792,-1.3584571939757843,-2.559239451085226,5.929712760239401,1.053263545036316,-5.445324961339132
1708435760.8160226,-1.990164875984192,-1.3588041824153443,-2.5596302191363733,5.927028882294454,1.0537042617797852,-5.4450565616237085
1708435760.8180656,-1.9879025220870972,-1.3591987651637574,-2.560058895741598,5.924417483597555,1.0541683435440063,-5.444859508668081
1708435760.8200085,-1.9856544733047485,-1.3595944058946152,-2.5605109373675745,5.921804058342733,1.0546528100967407,-5.444580201302664
1708435760.822039,-1.9835186004638672,-1.35992947340522,-2.560906235371725,5.919271337776937,1.055092215538025,-5.444336716328756
1708435760.8240342,-1.981294870376587,-1.3603359770825882,-2.561293427144186,5.916753876000204,1.0555620193481445,-5.444118980561392
1708435760.8259997,-1.9791282415390015,-1.3606321078589936,-2.5617221037494105,5.914224850922384,1.0560756921768188,-5.4438549915896814
1708435760.8279963,-1.9769513607025146,-1.3610607844642182,-2.562092129384176,5.911562073021688,1.0564955472946167,-5.44363254705538
1708435760.8300107,-1.974672555923462,-1.3614618343165894,-2.5625301043139856,5.909040081291952,1.0569761991500854,-5.443459335957662
1708435760.8320158,-1.9725091457366943,-1.361792044048645,-2.5629454294787806,5.906516420632162,1.057485580444336,-5.443174366150991
1708435760.8340294,-1.9703574180603027,-1.3621327441981812,-2.5633536020862024,5.903972255974569,1.0579054355621338,-5.442948822175161
1708435760.8360133,-1.9682729244232178,-1.3625125747970124,-2.5638604799853724,5.901447284012594,1.0583786964416504,-5.442761842404501
1708435760.8380527,-1.966080904006958,-1.3629354697516938,-2.564263645802633,5.898909437447347,1.0588724613189697,-5.442494753991262
1708435760.8400235,-1.963874101638794,-1.3632660669139405,-2.564683500920431,5.89633725860671,1.059309720993042,-5.442254726086752
1708435760.8420234,-1.9616048336029053,-1.3636452716640015,-2.565061632786886,5.893693911820211,1.0597383975982666,-5.442024592553274
1708435760.8440204,-1.9594460725784302,-1.363969848757126,-2.565518919621603,5.891152608185568,1.060174584388733,-5.441809956227438
1708435760.8459864,-1.957228183746338,-1.364336447124817,-2.5659058729754847,5.888549077301779,1.0606805086135864,-5.441636566315786
1708435760.8480005,-1.9550162553787231,-1.3647354257157822,-2.566373888646261,5.8859901306922815,1.0611001253128052,-5.441311303769247
1708435760.8500192,-1.9528377056121826,-1.3650966894677659,-2.566855255757467,5.883510935097494,1.0615450143814087,-5.441100601349966
1708435760.85205,-1.95070219039917,-1.3655543488315125,-2.567212168370382,5.880840408592977,1.0619943141937256,-5.440854612980978
1708435760.8540137,-1.948441743850708,-1.3658590775779267,-2.5676830450641077,5.878377306252279,1.062406301498413,-5.440651480351583
1708435760.8560143,-1.9462273120880127,-1.3662223380855103,-2.5680654684649866,5.87577103355483,1.0628807544708252,-5.4404125849353235
1708435760.8580468,-1.9440189599990845,-1.3666274708560486,-2.568461004887716,5.873256432801046,1.063267707824707,-5.440188650284902
1708435760.8600488,-1.9418237209320068,-1.3669637602618714,-2.5689004103290003,5.8706761477287195,1.0637861490249634,-5.44001275697817
1708435760.8620222,-1.9395873546600342,-1.3673476439765473,-2.5693774859057825,5.868171441345968,1.0642591714859009,-5.439760212098257
1708435760.8640304,-1.9373894929885864,-1.3676557552865525,-2.5697477499591272,5.865580308228292,1.064699411392212,-5.439533118401663
1708435760.866015,-1.9352587461471558,-1.3680847448161622,-2.570139233266012,5.862995731621542,1.0651354789733887,-5.43928707042803
1708435760.868002,-1.933018684387207,-1.368414745931961,-2.5705798308001917,5.8603789685066126,1.0656181573867798,-5.439048532639639
1708435760.8700113,-1.9308199882507324,-1.3687483829310914,-2.5709999243365687,5.857835280686178,1.0660412311553955,-5.438866202031271
1708435760.8720047,-1.9286164045333862,-1.3691072922996064,-2.5714574495898646,5.85523949840621,1.0665677785873413,-5.438536409531729
1708435760.8740153,-1.92644202709198,-1.3695317071727295,-2.5718699137317103,5.852703797608175,1.0670195817947388,-5.438425544892446
1708435760.875998,-1.9242677688598633,-1.369885877971985,-2.5722642580615442,5.8501144526298425,1.0675212144851685,-5.438124064599172
1708435760.878017,-1.9220097064971924,-1.3702491086772461,-2.57263428369631,5.847522723465719,1.0680216550827026,-5.4379212895976465
1708435760.8800452,-1.9198845624923706,-1.3705703032067795,-2.5730260054217737,5.845060336380758,1.068428874015808,-5.437682394181387
1708435760.8820245,-1.9176722764968872,-1.3708934497884293,-2.5734339396106165,5.842485415726461,1.068860411643982,-5.4374553004847925
1708435760.8840537,-1.9154856204986572,-1.3712803286365052,-2.573916737233297,5.840094315796652,1.0694026947021484,-5.437213722859518
1708435760.8860269,-1.9132356643676758,-1.3716675800136109,-2.574320379887716,5.837513315468588,1.0697733163833618,-5.436973635350363
1708435760.8880103,-1.9110356569290161,-1.372033716445305,-2.5746696631061,5.835020291596212,1.0702425241470337,-5.436763052140371
1708435760.8900213,-1.9088209867477417,-1.3723682922175904,-2.57508355775942,5.832416522293844,1.07073974609375,-5.436519745980398
1708435760.8920372,-1.9065955877304077,-1.3728048217347641,-2.5755274931537073,5.829848992615499,1.0711389780044556,-5.436288122330801
1708435760.8942156,-1.9043763875961304,-1.3731189531138916,-2.575864855443136,5.8272695420081995,1.0715880393981934,-5.436136011277334
1708435760.8960385,-1.9021846055984497,-1.3735194516232987,-2.576343361531393,5.824748146324911,1.0720402002334595,-5.435819629822866
1708435760.8980014,-1.8999942541122437,-1.373855711226799,-2.5767419973956507,5.822232472687521,1.0725218057632446,-5.435562853013174
1708435760.9000185,-1.8977981805801392,-1.374252588754036,-2.5772247950183313,5.819632756500997,1.0729801654815674,-5.435311977063314
1708435760.9020004,-1.8955217599868774,-1.3746477377465744,-2.5775941053973597,5.8169782040412805,1.0734978914260864,-5.435113314782278
1708435760.9040077,-1.893341064453125,-1.3749939960292359,-2.5779927412616175,5.814472424774923,1.0740184783935547,-5.43494022289385
1708435760.9060173,-1.891156554222107,-1.3754024815610428,-2.578475538884298,5.811894643097677,1.0744500160217285,-5.434643034135
1708435760.9080102,-1.888979434967041,-1.3757576507380982,-2.5788942019092005,5.809349524765768,1.0749226808547974,-5.4344250599490564
1708435760.9100277,-1.8867594003677368,-1.3760913026383896,-2.579323116933004,5.806802499085226,1.0754077434539795,-5.434219185506002
1708435760.9120138,-1.8844753503799438,-1.3764671397260209,-2.579733673726217,5.804295170098104,1.075806975364685,-5.434025291596548
1708435760.9140468,-1.8822894096374512,-1.3768368375352402,-2.580129686986105,5.8016172526176355,1.0762709379196167,-5.433777336274282
1708435760.9160328,-1.8800690174102783,-1.3772247296622773,-2.580561701451437,5.79900752285079,1.0767529010772705,-5.433526579533712
1708435760.9180536,-1.8778554201126099,-1.3775316935828705,-2.5810187498675745,5.796386945038595,1.077160120010376,-5.433332268391744
1708435760.920018,-1.8756983280181885,-1.3780417007258912,-2.5814266840564173,5.793890106468954,1.0776164531707764,-5.433063928280966
1708435760.9220269,-1.8735684156417847,-1.3783102643540879,-2.581808869038717,5.791405784874716,1.0780247449874878,-5.432866875325338
1708435760.9240215,-1.8713899850845337,-1.3787189436009903,-2.5822539965258997,5.788818347245016,1.0785150527954102,-5.432574395333425
1708435760.9260228,-1.869232177734375,-1.3790992510369797,-2.5826481024371546,5.786240207939901,1.0789252519607544,-5.4323968330966395
1708435760.9280276,-1.8670358657836914,-1.3794289094260712,-2.5830825010882776,5.783636438637533,1.0793339014053345,-5.432178799306051
1708435760.9300406,-1.8647748231887817,-1.379734383230545,-2.5835350195514124,5.781093704491415,1.0798853635787964,-5.431917492543356
1708435760.9320006,-1.8625898361206055,-1.3801834148219605,-2.5839269796954554,5.778539287834921,1.0803357362747192,-5.431712929402487
1708435760.9340177,-1.8604238033294678,-1.3805713218501587,-2.5843899885760706,5.776022183686056,1.0807924270629883,-5.431436661873953
1708435760.936008,-1.8582041263580322,-1.3809638631394883,-2.584818426762716,5.773519027024069,1.0812324285507202,-5.431222085152761
1708435760.9380362,-1.8560179471969604,-1.381301925783493,-2.585269276295797,5.771010625153341,1.081648588180542,-5.430993501340048
1708435760.940004,-1.85378098487854,-1.3816525650075455,-2.5856366793261927,5.768400895386495,1.082100510597229,-5.430766705666677
1708435760.9419987,-1.8515936136245728,-1.3820044708302994,-2.5860303084002894,5.765789377480306,1.08254075050354,-5.430525068436758
1708435760.9440217,-1.8493688106536865,-1.3823919755271454,-2.586482588444845,5.763260233193197,1.0829904079437256,-5.4303099552737635
1708435760.9460273,-1.847239375114441,-1.3826890748790284,-2.5869396368609827,5.760699975281515,1.0834176540374756,-5.430111531411306
1708435760.948022,-1.845047116279602,-1.3831470769694825,-2.5873828569995325,5.758152711182394,1.083873987197876,-5.429911259804861
1708435760.9500353,-1.8428120613098145,-1.3835272055915375,-2.5877860228167933,5.755620944290914,1.0843595266342163,-5.4296263496028345
1708435760.952003,-1.8406246900558472,-1.3838492047837754,-2.58820087114443,5.753044116287985,1.084831714630127,-5.42939925590624
1708435760.9540343,-1.8383936882019043,-1.3842086505940934,-2.5886247793780726,5.750457274704733,1.0853160619735718,-5.429151777421133
1708435760.9560385,-1.8362562656402588,-1.3846096706441422,-2.58901554742922,5.747896301537313,1.0858007669448853,-5.4289217034923
1708435760.958024,-1.8339617252349854,-1.3849435311606904,-2.5893974939929407,5.745431053429403,1.0862290859222412,-5.428685669098989
1708435760.9600434,-1.831794023513794,-1.385360063319542,-2.589869562779562,5.742902743607321,1.0866734981536865,-5.428430918847219
1708435760.9620192,-1.8296172618865967,-1.3857103747180481,-2.5902631918536585,5.740279900818624,1.0871495008468628,-5.428229216729299
1708435760.9640224,-1.827386736869812,-1.386119009261467,-2.590684477482931,5.737739431649008,1.0876176357269287,-5.428067926560537
1708435760.966024,-1.8251928091049194,-1.3864128303578873,-2.5911482016192835,5.735083806305685,1.0880087614059448,-5.427782420312063
1708435760.9680252,-1.8229434490203857,-1.3868079793504258,-2.591548744832174,5.73258255699233,1.0884662866592407,-5.4275633732425135
1708435760.9700665,-1.820794939994812,-1.387216643696167,-2.5918903986560267,5.7300031063850305,1.08889901638031,-5.427348558102743
1708435760.9720137,-1.818559169769287,-1.3875675809434433,-2.5923002401935022,5.727505075722494,1.0893670320510864,-5.4270933906184595
1708435760.974034,-1.8163695335388184,-1.387942836885788,-2.592752997075216,5.7249337313468835,1.0898845195770264,-5.426858846341268
1708435760.9760258,-1.8141614198684692,-1.3882842671922226,-2.5932186285602015,5.722253668099203,1.0903115272521973,-5.426595989857809
1708435760.9780414,-1.8119937181472778,-1.3887090694955369,-2.593604866658346,5.719748008042135,1.0907645225524902,-5.426401857529775
1708435760.9800391,-1.8098342418670654,-1.3889778864434739,-2.5940001646624964,5.717262971192159,1.091211199760437,-5.426113788281576
1708435760.981993,-1.8075644969940186,-1.3894566011479874,-2.594440762196676,5.714752781182089,1.0916876792907715,-5.42587519088854
1708435760.9840498,-1.8054355382919312,-1.3898080003312607,-2.5948479811297815,5.712217616825857,1.0921473503112793,-5.425682310258047
1708435760.985998,-1.803253173828125,-1.3902081412127991,-2.595266405736105,5.709675180702963,1.092604160308838,-5.4253690282451075
1708435760.9880004,-1.8009973764419556,-1.3906153601459046,-2.5956528822528284,5.706980454712667,1.0930843353271484,-5.4251378814326685
1708435760.9900193,-1.7987414598464966,-1.390965611939766,-2.59605318704714,5.7044357536132715,1.0935406684875488,-5.424924079571859
1708435760.99199,-1.7965420484542847,-1.3912640076926728,-2.596448008214132,5.701870727330007,1.094034194946289,-5.424746696149008
1708435760.9940336,-1.794394850730896,-1.3916307103684922,-2.596887175236837,5.699336755066671,1.0944819450378418,-5.424531404172079
1708435760.9960055,-1.792234182357788,-1.3920723509839554,-2.5973480383502405,5.696863639145651,1.0949221849441528,-5.42423135439028
1708435760.9980168,-1.7899951934814453,-1.3924103391221543,-2.5977543036090296,5.694262075215139,1.0953923463821411,-5.42402553955187
1708435761.0000575,-1.7877833843231201,-1.3927306693843384,-2.598187033330099,5.691612052708425,1.095876932144165,-5.4237821141826075
1708435761.0019963,-1.7855556011199951,-1.3931695830873032,-2.5986231009112757,5.689060973912039,1.0963777303695679,-5.423564020787374
1708435761.0040286,-1.7834349870681763,-1.3934816134027024,-2.5989843050586146,5.686465728073873,1.0967531204223633,-5.423314992581503
1708435761.0060308,-1.7812811136245728,-1.3938736480525513,-2.599433247243063,5.683981764107504,1.0972381830215454,-5.4231417814837855
1708435761.008035,-1.779076337814331,-1.3942447316697617,-2.599851195012228,5.681442189007559,1.0975924730300903,-5.422886256371633
1708435761.0099878,-1.7769088745117188,-1.394603968863823,-2.6003289858447474,5.6789084551628015,1.0980945825576782,-5.4227251450168055
1708435761.0120018,-1.7747771739959717,-1.394983099108078,-2.600739304219381,5.6763078449066064,1.0985139608383179,-5.422531251107351
1708435761.0140388,-1.7725245952606201,-1.3952708554318924,-2.601187054310934,5.673671233444967,1.0990116596221924,-5.422238651906149
1708435761.016028,-1.7702577114105225,-1.3956214499524613,-2.6015782991992396,5.67101143577651,1.0994240045547485,-5.421957914029257
1708435761.0180614,-1.7680774927139282,-1.3960403066924592,-2.6019673983203333,5.668536054878988,1.099835753440857,-5.421711806450979
1708435761.0200224,-1.7658451795578003,-1.3964526069215317,-2.602412287388937,5.666109430580892,1.100337028503418,-5.421529893075125
1708435761.0219982,-1.7636733055114746,-1.396751196389534,-2.6027897039996546,5.663511085301199,1.100772738456726,-5.421307210122244
1708435761.024073,-1.7614598274230957,-1.3971067678979416,-2.603255573903219,5.660931038647451,1.1012376546859741,-5.421010200177328
1708435761.0260265,-1.7592118978500366,-1.3974536073258896,-2.603621308003561,5.658370601921835,1.1016820669174194,-5.420812908803121
1708435761.0280225,-1.7570240497589111,-1.397829146390297,-2.6040568987475794,5.655888485699453,1.10215425491333,-5.420569900666372
1708435761.0300362,-1.754787564277649,-1.3981847924045105,-2.6044512430774134,5.653396177082815,1.102651834487915,-5.420350376759664
1708435761.0320234,-1.7525912523269653,-1.3985607785037537,-2.604825560246603,5.650926160603323,1.1030594110488892,-5.420066777859823
1708435761.0340273,-1.750449299812317,-1.3989111495069046,-2.605309549962179,5.648301529675283,1.1035034656524658,-5.419860963021414
1708435761.0360315,-1.7482178211212158,-1.3992581230453034,-2.6056914965258997,5.645756351738729,1.1039972305297852,-5.419650439416067
1708435761.0379932,-1.7459825277328491,-1.3996544194272538,-2.6060736815081995,5.643177914410391,1.1045069694519043,-5.4193905035602015
1708435761.0400572,-1.7437769174575806,-1.3999804121306916,-2.606468741093771,5.6406099674995325,1.1049306392669678,-5.419213060532705
1708435761.0420382,-1.7415316104888916,-1.400356651549675,-2.6069420019732874,5.638067114144125,1.1052875518798828,-5.418911401425497
1708435761.043995,-1.7393943071365356,-1.4007648092559357,-2.607354227696554,5.635450589447775,1.1058138608932495,-5.418739859257833
1708435761.0459783,-1.7371443510055542,-1.4011063140681763,-2.6078019777881067,5.632930564671316,1.1062910556793213,-5.418483261262075
1708435761.0480008,-1.7349271774291992,-1.4015425604632874,-2.6081793943988245,5.630275475769796,1.106693983078003,-5.418289009724752
1708435761.0499961,-1.7327431440353394,-1.401910738354065,-2.6085570494281214,5.627629804402151,1.1072114706039429,-5.418047372494833
1708435761.052061,-1.7305737733840942,-1.4022591424039383,-2.6089943091021937,5.625117051392355,1.1076396703720093,-5.4177579323398035
1708435761.0540385,-1.7284069061279297,-1.4025680881789704,-2.609441582356588,5.622644889145651,1.1080557107925415,-5.417572263871328
1708435761.0559947,-1.7262177467346191,-1.4029364746860047,-2.6098461786853235,5.62012933471755,1.1085282564163208,-5.41736334959139
1708435761.058052,-1.7239866256713867,-1.4032868307879944,-2.6102286020862024,5.617506849556722,1.108963966369629,-5.41711134115328
1708435761.0600166,-1.7218196392059326,-1.4037148219398041,-2.6107376257525843,5.614979731827535,1.1094691753387451,-5.416863922272817
1708435761.0620232,-1.7195988893508911,-1.4041174960187455,-2.611135784779684,5.612382340222158,1.109970211982727,-5.416656021271841
1708435761.0640166,-1.717400074005127,-1.4044409853271027,-2.6115837732898157,5.609795379429617,1.1104140281677246,-5.4164308349238794
1708435761.06605,-1.7152019739151,-1.4048731637052079,-2.6119988600360315,5.607151913433828,1.110865831375122,-5.416170779858724
1708435761.068053,-1.713097095489502,-1.405269281273224,-2.612380568181173,5.604687619000234,1.1113593578338623,-5.415973607693807
1708435761.0700295,-1.710939645767212,-1.4056359094432374,-2.6128137747394007,5.6021319506462,1.1117339134216309,-5.415680054818289
1708435761.072029,-1.708731770515442,-1.40599478900943,-2.613208834324972,5.599498438626089,1.1121708154678345,-5.415445570145742
1708435761.074034,-1.706554651260376,-1.4064248961261292,-2.6136327425586146,5.596868085652151,1.1125953197479248,-5.415288750325338
1708435761.0760298,-1.70429527759552,-1.4067876052907486,-2.6140149275409144,5.59436063745574,1.1130603551864624,-5.415048305188314
1708435761.0780234,-1.7021570205688477,-1.4071334314397355,-2.61443001428713,5.591890680580892,1.1134755611419678,-5.414843622838156
1708435761.079997,-1.6999459266662598,-1.4075090152076264,-2.6149149576770228,5.589380073338308,1.1139851808547974,-5.414562944565908
1708435761.0820282,-1.6977964639663696,-1.407912017112114,-2.6153016726123255,5.586832928448477,1.114421010017395,-5.414352659379141
1708435761.083994,-1.6955057382583618,-1.4082666796496888,-2.61574894586672,5.584280180722036,1.1148418188095093,-5.414104882870809
1708435761.0859816,-1.693252444267273,-1.4086125952056427,-2.6161308924304407,5.581766593247213,1.1153470277786255,-5.413870755826132
1708435761.0879831,-1.691057801246643,-1.4090288293412705,-2.6165340582477015,5.57904218414382,1.1157832145690918,-5.413643602524893
1708435761.09,-1.6888595819473267,-1.4093598288348694,-2.6170037428485315,5.5765713331993005,1.116254210472107,-5.4134095946895044
1708435761.092044,-1.686632513999939,-1.409692035322525,-2.6173725763904017,5.574085759907522,1.1167601346969604,-5.413189951573507
1708435761.094063,-1.6844956874847412,-1.4100548934987565,-2.6178131739245813,5.571535634785452,1.1172363758087158,-5.412943307553427
1708435761.0960057,-1.6823270320892334,-1.4104543340257187,-2.618286196385519,5.568896162300863,1.1177494525909424,-5.412683848534719
1708435761.0980194,-1.6801040172576904,-1.410819635992386,-2.618700091038839,5.566321241646566,1.1182255744934082,-5.412479523812429
1708435761.1000257,-1.6778703927993774,-1.4111907643130799,-2.6191654841052454,5.563708710461416,1.1186777353286743,-5.412215058003561
1708435761.1020246,-1.675721287727356,-1.411508710389473,-2.6195276419269007,5.561226653843679,1.1191387176513672,-5.411939088498251
1708435761.104024,-1.673527717590332,-1.4118602138808747,-2.6199188868152063,5.5586163876350305,1.1195781230926514,-5.411761526261465
1708435761.1059926,-1.6713342666625977,-1.4121871304563065,-2.620362106953756,5.556127118855276,1.1200107336044312,-5.411510471497671
1708435761.1080377,-1.6690926551818848,-1.412652389412262,-2.6208258310901087,5.55358641126708,1.1204134225845337,-5.411304537449972
1708435761.1099997,-1.666914701461792,-1.4129668933204194,-2.621232573186056,5.550990867405691,1.1208829879760742,-5.411040310059683
1708435761.1120396,-1.6646974086761475,-1.4133143436959763,-2.6216400305377405,5.548440265446462,1.121331810951233,-5.410788182412283
1708435761.1140454,-1.6624526977539062,-1.4136451047709961,-2.6220389048205774,5.545866834908285,1.121792197227478,-5.410586420689718
1708435761.1160047,-1.660243034362793,-1.4139971000007172,-2.6225274244891565,5.54334186294631,1.1222783327102661,-5.410396699105398
1708435761.1179957,-1.6581189632415771,-1.4143804174712677,-2.6229313055621546,5.540821242123403,1.1227177381515503,-5.410149220620291
1708435761.1200304,-1.6559178829193115,-1.4147804391435166,-2.623349968587057,5.538189458637991,1.1231780052185059,-5.409892682229177
1708435761.1220388,-1.653717279434204,-1.415090174680092,-2.6237979570971888,5.5356541750724695,1.1235767602920532,-5.409704271947042
1708435761.124006,-1.6514556407928467,-1.4155361217311402,-2.624221388493673,5.533170807152548,1.1241196393966675,-5.409444395695822
1708435761.1260202,-1.6492153406143188,-1.4158630830100556,-2.6246219317065638,5.530623185425558,1.1245462894439697,-5.409222070370809
1708435761.1280632,-1.6470695734024048,-1.4162460428527375,-2.625070873891012,5.528125214367666,1.1250231266021729,-5.408993844185964
1708435761.1300676,-1.6448984146118164,-1.4165963244489213,-2.6255019346820276,5.52553157785491,1.1254839897155762,-5.408711437379019
1708435761.1320298,-1.6426222324371338,-1.416982815866806,-2.625845257435934,5.522978472500601,1.125932216644287,-5.408569935952322
1708435761.134057,-1.6404169797897339,-1.4173827481320878,-2.6263397375689905,5.520424890309133,1.1264166831970215,-5.408326212559835
1708435761.136033,-1.6381614208221436,-1.4177494806102295,-2.626718584691183,5.517842876702108,1.1268967390060425,-5.408041600381033
1708435761.1380377,-1.6360048055648804,-1.418137089615204,-2.6271331946002405,5.515220570355215,1.1272848844528198,-5.407819334660665
1708435761.1400323,-1.6337610483169556,-1.4185249668410798,-2.6275296846972864,5.5126704452331445,1.1277379989624023,-5.407626454030172
1708435761.1419983,-1.6315515041351318,-1.4189292353442688,-2.6278825441943567,5.51018242815093,1.1282061338424683,-5.407363895569937
1708435761.144024,-1.6294071674346924,-1.419291452770569,-2.6284025351153772,5.507642555027761,1.1286464929580688,-5.407116655503408
1708435761.145993,-1.6271604299545288,-1.4196675431779404,-2.628774944935934,5.504997956543722,1.1291626691818237,-5.4069464842425745
1708435761.147994,-1.6250438690185547,-1.419975997214653,-2.6292229334460657,5.502379047661581,1.1296360492706299,-5.406686906014578
1708435761.1500456,-1.6228647232055664,-1.4203857791474839,-2.6296215693103235,5.4998336909110925,1.1301559209823608,-5.406418506299154
1708435761.1520195,-1.6206964254379272,-1.4207320225289841,-2.6300273577319544,5.497284519463339,1.130608320236206,-5.406196061764852
1708435761.1540344,-1.6184903383255005,-1.4210915279439469,-2.6304691473590296,5.494737732201376,1.1310486793518066,-5.405990068112509
1708435761.1560216,-1.6162810325622559,-1.4215117406896134,-2.6308017412768763,5.4921008227165125,1.1314808130264282,-5.405705515538351
1708435761.158033,-1.6140958070755005,-1.4219398957541962,-2.6312993208514612,5.4895328162010095,1.1319373846054077,-5.405559782181875
1708435761.159998,-1.6119155883789062,-1.422263742690422,-2.631669346486227,5.487008201866903,1.1323732137680054,-5.405337576066152
1708435761.1620202,-1.6096888780593872,-1.4226858478835602,-2.6321752707110804,5.484380292683401,1.132899284362793,-5.405082348977224
1708435761.1640308,-1.6075189113616943,-1.4230156403831025,-2.632528845463888,5.4818060276801965,1.1333396434783936,-5.404847804700033
1708435761.1660204,-1.6053595542907715,-1.423358680014946,-2.6330185572253626,5.479357409268179,1.1337264776229858,-5.404632631932394
1708435761.1680045,-1.6031713485717773,-1.4237796527198334,-2.633404795323507,5.47680019119338,1.1341665983200073,-5.4043734709369105
1708435761.1700258,-1.6009564399719238,-1.4241025310805817,-2.633787218724386,5.474235641747274,1.1346042156219482,-5.4041423241244715
1708435761.1719906,-1.5986902713775635,-1.4244579386762162,-2.6342933813678187,5.471613514214315,1.1350654363632202,-5.403956417237417
1708435761.1740484,-1.5965499877929688,-1.424890549187996,-2.6346214453326624,5.46914170959548,1.1355291604995728,-5.403728846703665
1708435761.1759934,-1.594322919845581,-1.425237627034523,-2.635045115147726,5.466609227448263,1.1360466480255127,-5.403420213853018
1708435761.1780193,-1.5921119451522827,-1.425573081975319,-2.6354573408709925,5.46404908874587,1.1365067958831787,-5.403243188058035
1708435761.180018,-1.5899412631988525,-1.425986335878708,-2.6359103361712855,5.461492049485006,1.1369621753692627,-5.402996603642599
1708435761.1820269,-1.5877654552459717,-1.4263160091689606,-2.636310879384176,5.458978283196249,1.1374199390411377,-5.4028348366366785
1708435761.184,-1.5855591297149658,-1.4266545933536072,-2.6367514769183558,5.456356274872579,1.1378675699234009,-5.402538243924276
1708435761.185995,-1.5833425521850586,-1.4270016115954895,-2.637101952229635,5.453802931099691,1.138319492340088,-5.4023189584361475
1708435761.188025,-1.5811283588409424,-1.4274028998664399,-2.6375301519977015,5.451237666397848,1.1387519836425781,-5.402084473763601
1708435761.1900156,-1.5789551734924316,-1.427768276338913,-2.637965981160299,5.448711025505819,1.1391998529434204,-5.401861850415365
1708435761.192033,-1.5767326354980469,-1.4281114351800461,-2.6383240858661097,5.446173238545217,1.1396814584732056,-5.401663128529684
1708435761.1940477,-1.5745325088500977,-1.4285255533507843,-2.638756815587179,5.443608569889822,1.1401463747024536,-5.401403788720266
1708435761.196048,-1.5723265409469604,-1.4288469117930909,-2.639139000569479,5.441005217819967,1.1405705213546753,-5.4011529127704065
1708435761.1980202,-1.5700833797454834,-1.429163784985878,-2.6395583788501185,5.438449132233419,1.1410071849822998,-5.400933686886923
1708435761.200033,-1.5678273439407349,-1.429584653382637,-2.639920775090353,5.435996341496267,1.1414471864700317,-5.400816623364584
1708435761.2020268,-1.5656943321228027,-1.4300139409354706,-2.640251700078146,5.433616089611807,1.141753911972046,-5.400633160267965
1708435761.204009,-1.5635206699371338,-1.430364490752556,-2.64061147371401,5.431262421398916,1.142038106918335,-5.400531713162557
1708435761.2060475,-1.5613569021224976,-1.4307486575892945,-2.64097243944277,5.428805160313406,1.1422892808914185,-5.400391403828756
1708435761.2080364,-1.5591213703155518,-1.4310818326524277,-2.6413617769824427,5.426371681481161,1.1426111459732056,-5.400187198315756
1708435761.2100575,-1.5568530559539795,-1.4315028500607987,-2.641745392476217,5.4240057347114465,1.1429681777954102,-5.4000553528415125
1708435761.2120156,-1.554690957069397,-1.4319022011807938,-2.6420868078814905,5.421547996788778,1.1433322429656982,-5.399933044110433
1708435761.2140563,-1.5524816513061523,-1.432290018802025,-2.64243728319277,5.419278013497152,1.1436550617218018,-5.3998300472842615
1708435761.2160358,-1.5502619743347168,-1.432688446050026,-2.6427040735827845,5.416987943440237,1.1438103914260864,-5.399758521710531
1708435761.2180724,-1.5481128692626953,-1.433137984280922,-2.643008057271139,5.414784359722891,1.1439493894577026,-5.399735991154806
1708435761.2200496,-1.545878291130066,-1.4335123312524338,-2.6432910601245325,5.412529098778524,1.1439963579177856,-5.399658385907308
1708435761.222054,-1.5436930656433105,-1.433944584136345,-2.6434782187091272,5.410318124085226,1.1440967321395874,-5.399708692227499
1708435761.224099,-1.5415282249450684,-1.4342921537211915,-2.6437674204455774,5.408135223179617,1.1442300081253052,-5.3997042814837855
1708435761.2260203,-1.5393211841583252,-1.4348399353078385,-2.6439982096301478,5.405933308392324,1.1443662643432617,-5.399664107953207
1708435761.2279968,-1.5370622873306274,-1.4351758819869538,-2.644315544758932,5.403853702336111,1.144576072692871,-5.399720613156454
1708435761.2300477,-1.534883737564087,-1.4356460285237809,-2.6445284525500696,5.401682722359457,1.144677996635437,-5.399713102971212
1708435761.2320135,-1.5326728820800781,-1.4360918563655396,-2.644709650670187,5.399532127171316,1.1447573900222778,-5.39978921810259
1708435761.2340307,-1.5304957628250122,-1.4365103405765076,-2.6449013392077845,5.397414433747091,1.1447914838790894,-5.399936918412344
1708435761.23603,-1.5282598733901978,-1.4369491201690217,-2.6451097170459192,5.395396101265707,1.1447827816009521,-5.400053028260366
1708435761.2380426,-1.5260952711105347,-1.4373821032098313,-2.6452985445605677,5.39332144239501,1.1447182893753052,-5.400193158780233
1708435761.2400343,-1.5239084959030151,-1.437846229677536,-2.6454060713397425,5.39137231090621,1.144593596458435,-5.400280002747671
1708435761.2420325,-1.5217795372009277,-1.438338191514351,-2.6455546061145228,5.389450776367941,1.1444779634475708,-5.400484148656027
1708435761.2440255,-1.5195732116699219,-1.4388411504081269,-2.64573580423464,5.387576687126913,1.1443415880203247,-5.400611106549398
1708435761.2460332,-1.5173746347427368,-1.439258725648262,-2.6458872000323694,5.385630178242483,1.1442424058914185,-5.400766674672262
1708435761.2480462,-1.5151402950286865,-1.4396441143802186,-2.646008316670553,5.383744108467855,1.144174337387085,-5.400901142750875
1708435761.2500422,-1.5129472017288208,-1.440174252992012,-2.6461356321917933,5.381827103882589,1.1440575122833252,-5.40114260116686
1708435761.25201,-1.5107163190841675,-1.440715105538704,-2.6462884585009974,5.379978227406301,1.1438719034194946,-5.401287798081533
1708435761.254056,-1.5084750652313232,-1.4411046963981171,-2.6463587919818323,5.378194677620687,1.1436429023742676,-5.401555899773733
1708435761.256018,-1.5063292980194092,-1.441563071017601,-2.646435324345724,5.376473891526022,1.1434440612792969,-5.401867989693777
1708435761.2580545,-1.5041471719741821,-1.442049504523613,-2.6464744249926966,5.3748167035873315,1.1431503295898438,-5.402129177247183
1708435761.260055,-1.5019340515136719,-1.4425963771394272,-2.646498505269186,5.373176085739889,1.1428786516189575,-5.4024274984942835
1708435761.2620213,-1.4997280836105347,-1.4430840474418183,-2.6465702692614954,5.371503400593557,1.1425694227218628,-5.402795735989706
1708435761.2640328,-1.4975676536560059,-1.4436409932425995,-2.646646324788229,5.36988781669692,1.1422932147979736,-5.403185788785116
1708435761.2660248,-1.4953285455703735,-1.4440992188504715,-2.646632973347799,5.3682817099388025,1.1419851779937744,-5.4035431186305445
1708435761.2680373,-1.49310302734375,-1.4445698720267792,-2.6466901938067835,5.366657423764028,1.1415592432022095,-5.403990451489584
1708435761.270028,-1.4909074306488037,-1.4450571101954957,-2.6466692129718226,5.365101742535391,1.141101360321045,-5.4043877760516565
1708435761.2719994,-1.488681674003601,-1.4456679087928315,-2.646721426640646,5.363593864231863,1.1406160593032837,-5.404845956956045
1708435761.2740376,-1.486509084701538,-1.4461577174118538,-2.646672073994772,5.362135696202078,1.1401156187057495,-5.405329112206594
1708435761.276024,-1.4842400550842285,-1.4467003804496308,-2.646609131489889,5.360681164055624,1.1395736932754517,-5.40579861799349
1708435761.2780166,-1.4821242094039917,-1.447226234977581,-2.6465566794024866,5.359327423363485,1.1390782594680786,-5.406275812779562
1708435761.2800143,-1.479907512664795,-1.447823480968811,-2.646456305180685,5.357957708626547,1.138489842414856,-5.406849984322683
1708435761.2820184,-1.4776631593704224,-1.4483334136060257,-2.6463831106769007,5.356561171799459,1.1379693746566772,-5.407392684613363
1708435761.2840288,-1.4754619598388672,-1.448926256304123,-2.646287266408102,5.355355310231008,1.137405514717102,-5.4080237189876
1708435761.28599,-1.473315954208374,-1.4494621616652985,-2.6462376753436487,5.354056107788839,1.1368515491485596,-5.408571902905599
1708435761.2880123,-1.471146583557129,-1.449996256535389,-2.646112028752462,5.3527177450950525,1.1362550258636475,-5.409194235001699
1708435761.2900095,-1.4689106941223145,-1.450601415043213,-2.645987335835592,5.351523148804464,1.1355888843536377,-5.409852449093954
1708435761.292003,-1.466694951057434,-1.4511301454952736,-2.64587647119631,5.350302922516622,1.1349729299545288,-5.410504881535665
1708435761.2940295,-1.4645296335220337,-1.4517672446421166,-2.645702902470724,5.349184679775991,1.1342885494232178,-5.411213699971334
1708435761.296031,-1.4623475074768066,-1.4523043271950264,-2.645628277455465,5.347991335182943,1.1335625648498535,-5.411942187939779
1708435761.2979848,-1.4601526260375977,-1.4529286709478875,-2.6454559008227747,5.346907245903768,1.1327730417251587,-5.412621740494863
1708435761.3000033,-1.4579952955245972,-1.4535804477385064,-2.6453104654895228,5.345917689591207,1.1320242881774902,-5.41343188682665
1708435761.3020196,-1.455785870552063,-1.4541885194233437,-2.6451802889453333,5.344865667610922,1.131239891052246,-5.4142453114139
1708435761.3040228,-1.453593373298645,-1.4547573414495965,-2.645012442265646,5.343872177391805,1.1304676532745361,-5.4150495568858545
1708435761.3060205,-1.4514305591583252,-1.45538284004245,-2.6448805967914026,5.3429197547729395,1.1295841932296753,-5.415934387837545
1708435761.3080497,-1.4492155313491821,-1.4560412776521225,-2.644644085560934,5.342058169632711,1.1286745071411133,-5.416762177144186
1708435761.3100336,-1.447002649307251,-1.4566438284567376,-2.644501511250631,5.341126966267385,1.127798080444336,-5.417588297520773
1708435761.3119895,-1.4448418617248535,-1.457267389898636,-2.6442349592791956,5.340285050659933,1.1269057989120483,-5.418537680302755
1708435761.3140373,-1.4426438808441162,-1.4578867864659806,-2.6440489927874964,5.339547800808706,1.125936508178711,-5.419445876275198
1708435761.3160207,-1.4405391216278076,-1.4585086193731804,-2.643852774296896,5.338819730072775,1.125002384185791,-5.420401219521658
1708435761.318049,-1.4383745193481445,-1.459136740570404,-2.6436284224139612,5.338084566384115,1.124082326889038,-5.421348754559652
1708435761.3200336,-1.4362154006958008,-1.4597795021585007,-2.643405262623922,5.3373597142990015,1.1230767965316772,-5.422406260167257
1708435761.3220413,-1.4341363906860352,-1.4603900399855156,-2.6432014147387903,5.336703109532156,1.122050166130066,-5.423364226018087
1708435761.324033,-1.432033658027649,-1.4609993261149903,-2.642916742955343,5.336126434593954,1.12106192111969,-5.424388055001394
1708435761.3260493,-1.429921269416809,-1.461692490880825,-2.642648522053854,5.335601377278127,1.1200379133224487,-5.425443474446432
1708435761.3280473,-1.4278440475463867,-1.4623784583858033,-2.642409149800436,5.334997164994039,1.118963599205017,-5.426489833985464
1708435761.3300388,-1.4257243871688843,-1.463014767771103,-2.6421216169940394,5.334538209229269,1.1179066896438599,-5.427627150212423
1708435761.3320186,-1.423564076423645,-1.4637075674584885,-2.6418007055865687,5.334003078728475,1.1168287992477417,-5.428652052079336
1708435761.3340201,-1.4214696884155273,-1.4643869561007996,-2.641522232686178,5.333578216820516,1.1157327890396118,-5.42974687019457
1708435761.3360014,-1.4193490743637085,-1.465000109081604,-2.641186777745382,5.333196806698599,1.114619493484497,-5.430848483239309
1708435761.3380206,-1.4173082113265991,-1.4656453889659424,-2.6408825556384485,5.3328067539031885,1.1134796142578125,-5.431952182446615
1708435761.3400018,-1.41519296169281,-1.4663014870933075,-2.6405351797686976,5.33251832702712,1.1123265027999878,-5.433111611996786
1708435761.342038,-1.4131301641464233,-1.4669853311828156,-2.640219036732809,5.332198130875387,1.11117684841156,-5.434262518082754
1708435761.3440542,-1.4110338687896729,-1.4676914748600502,-2.639923636113302,5.33193193653182,1.1100155115127563,-5.4355419913875025
1708435761.3460445,-1.4089970588684082,-1.468330019419529,-2.63953143755068,5.331683623581686,1.1088131666183472,-5.436754826699392
1708435761.3480067,-1.4070029258728027,-1.469079391365387,-2.6391709486590784,5.331566917687216,1.107580542564392,-5.437977735196249
1708435761.3500154,-1.4049839973449707,-1.4698040646365662,-2.6388471762286585,5.331369745522299,1.106305480003357,-5.439247492943899
1708435761.3520064,-1.4029483795166016,-1.4704698634198685,-2.6385086218463343,5.331280278950491,1.1050679683685303,-5.440531853829519
1708435761.3540142,-1.4008830785751343,-1.471162588601448,-2.638179127370016,5.331188726216116,1.103803038597107,-5.441763106976644
1708435761.3560114,-1.3988683223724365,-1.4718924400261422,-2.637839142476217,5.331109630852499,1.1025135517120361,-5.443199996148245
1708435761.3580143,-1.3968865871429443,-1.4725531873157998,-2.637491289769308,5.331135022431173,1.101261854171753,-5.444532756005422
1708435761.3600676,-1.394910454750061,-1.473264755015709,-2.637127701436178,5.331139492779531,1.099972128868103,-5.445968035851614
1708435761.3619962,-1.3928953409194946,-1.4739975494197388,-2.6367605368243616,5.331261980324545,1.0986642837524414,-5.447435144578115
1708435761.3640163,-1.3909265995025635,-1.474744626586773,-2.6363306681262415,5.331336962967672,1.0973023176193237,-5.448863629494802
1708435761.3660204,-1.3890149593353271,-1.4754874271205445,-2.6359592119800013,5.33150880315856,1.095956802368164,-5.450357441102163
1708435761.3680165,-1.3870842456817627,-1.4761946213296433,-2.6356504599200647,5.3317423341567896,1.0946263074874878,-5.451805178319113
1708435761.3700364,-1.385109782218933,-1.4769377049854775,-2.6352089087115687,5.331904876023092,1.0932570695877075,-5.45339942375292
1708435761.372005,-1.383150339126587,-1.4776597407511254,-2.6348465124713343,5.332108604698934,1.0919163227081299,-5.454854015504019
1708435761.374025,-1.3812389373779297,-1.4784030330232163,-2.63444167772402,5.332335698395529,1.0905665159225464,-5.456461493168966
1708435761.376026,-1.3792918920516968,-1.4791323703578492,-2.6340583006488245,5.332599031716146,1.0890828371047974,-5.457999710236685
1708435761.3780177,-1.3774069547653198,-1.4799587962082406,-2.633646790181295,5.332972574024954,1.0877716541290283,-5.459538582955496
1708435761.3799899,-1.3755700588226318,-1.4806560960463067,-2.6332600752459925,5.333253848343649,1.0862964391708374,-5.461044553910391
1708435761.3820186,-1.3736820220947266,-1.481435665195324,-2.632864538823263,5.333659279137411,1.084944725036621,-5.462496999894277
1708435761.384006,-1.371804118156433,-1.482207403784134,-2.6324499289142054,5.334048974304952,1.0834994316101074,-5.46408731142153
1708435761.386032,-1.3699795007705688,-1.482965962295868,-2.6319811979876917,5.334569620877065,1.0820735692977905,-5.4656376282321375
1708435761.3880167,-1.3681358098983765,-1.4837580409697075,-2.631561581288473,5.335099088936605,1.0806289911270142,-5.467309300099508
1708435761.3899984,-1.3663285970687866,-1.484499418442585,-2.631155554448263,5.335592436581411,1.0791703462600708,-5.468943838273184
1708435761.392012,-1.3645477294921875,-1.4852943506887932,-2.6307078043567103,5.3361350176628015,1.0776790380477905,-5.470474068318502
1708435761.3940346,-1.3626900911331177,-1.4860612240484734,-2.6302629152881067,5.336704122811117,1.0762107372283936,-5.472169582043783
1708435761.3960454,-1.3608769178390503,-1.4868124288371583,-2.6298778692828577,5.337376999645986,1.0747497081756592,-5.473900024090902
1708435761.398034,-1.3590866327285767,-1.4876651850393792,-2.6294122377978724,5.338025557785787,1.0733294486999512,-5.475605074559347
1708435761.4000146,-1.3573553562164307,-1.4884568390301247,-2.6289456526385706,5.338751959591665,1.0717639923095703,-5.477310661469595
1708435761.4020257,-1.3555622100830078,-1.4892617401531716,-2.6284850279437464,5.339507567673483,1.070286750793457,-5.47913766304125
1708435761.4040425,-1.3537883758544922,-1.4900148299387475,-2.6280387083636683,5.340286659985342,1.0688092708587646,-5.48099917570223
1708435761.4060183,-1.3520598411560059,-1.4908175852945824,-2.6276138464557093,5.3411336419876,1.0673158168792725,-5.482823852692739
1708435761.408014,-1.3503574132919312,-1.491612770860531,-2.6271424929248255,5.3418964622314355,1.0658063888549805,-5.484694306050436
1708435761.4100466,-1.3486063480377197,-1.4924517658403893,-2.6267157236682337,5.342792022019186,1.0642749071121216,-5.486552838479177
1708435761.4120169,-1.3468713760375977,-1.4932097357562562,-2.626300875340597,5.343714225083151,1.0627634525299072,-5.4884148875819605
1708435761.4140317,-1.3451964855194092,-1.4939822492054482,-2.6259308497058313,5.344587969570913,1.0612157583236694,-5.4903350512134
1708435761.4160213,-1.3435492515563965,-1.4947634202292939,-2.6255067030536097,5.345586347370901,1.0597379207611084,-5.492106858883993
1708435761.4180446,-1.3418842554092407,-1.4955966782620926,-2.62502628961672,5.346570598870077,1.058194637298584,-5.493920389805929
1708435761.420074,-1.3402173519134521,-1.496390127842762,-2.6246071497546595,5.347579765110769,1.0566548109054565,-5.495804313813345
1708435761.4220583,-1.338577389717102,-1.4972060185721894,-2.624277178441183,5.348662662297048,1.0551177263259888,-5.497588161622183
1708435761.4240494,-1.3369576930999756,-1.4980245915106316,-2.6237948576556605,5.349750804692068,1.053504467010498,-5.499519590531484
1708435761.426019,-1.3353354930877686,-1.498866358106472,-2.6234379450427454,5.350796270161428,1.0519449710845947,-5.501392070447103
1708435761.4280028,-1.3337392807006836,-1.4996220108917733,-2.623009983693258,5.352000403195181,1.0504041910171509,-5.5032522718058985
1708435761.4300225,-1.332163691520691,-1.5004510891488572,-2.62254244485964,5.3531914232070825,1.0488489866256714,-5.505202237759725
1708435761.432014,-1.3305249214172363,-1.5012850251844903,-2.6221752802478235,5.354471373348989,1.0473023653030396,-5.5072253982173365
1708435761.4340544,-1.3290072679519653,-1.5020878699472924,-2.6217597166644495,5.3556585786636255,1.0456457138061523,-5.5091909805880945
1708435761.4360313,-1.3274506330490112,-1.5029114571264763,-2.6213939825641077,5.356955635338583,1.0440949201583862,-5.511245195065634
1708435761.4380393,-1.3258166313171387,-1.5037584018758317,-2.6209166685687464,5.358276057034292,1.042540192604065,-5.513370637093679
1708435761.4400465,-1.3243004083633423,-1.5046206277659913,-2.6204984823810022,5.359643029957571,1.040875792503357,-5.515536133443014
1708435761.4420002,-1.3227230310440063,-1.5054029312780877,-2.6200903097735804,5.3610278246696375,1.0392087697982788,-5.5177810231791895
1708435761.4440284,-1.3211417198181152,-1.506340117459633,-2.619650665913717,5.362512874394216,1.0376389026641846,-5.5199660698520105
1708435761.4459975,-1.319564700126648,-1.5071900126389046,-2.6192689577685755,5.364009547024526,1.035942554473877,-5.52218079963793
1708435761.447999,-1.318045735359192,-1.508055367772915,-2.6188481489764612,5.365566062718191,1.0343095064163208,-5.52424401441683
1708435761.450035,-1.3165171146392822,-1.508980431859829,-2.6183794180499476,5.367155420571127,1.0327229499816895,-5.526500765477316
1708435761.4520032,-1.3149186372756958,-1.5098735255054017,-2.6180272738086146,5.368784177094259,1.031062126159668,-5.528746370469229
1708435761.4539955,-1.3134138584136963,-1.5107770909420033,-2.6175811926471155,5.3704649088676355,1.0293961763381958,-5.530954126511709
1708435761.4560084,-1.3119051456451416,-1.5116999235800286,-2.6171990076648157,5.372112083226003,1.0277544260025024,-5.533152882252828
1708435761.4580634,-1.3104301691055298,-1.5126465682736416,-2.61680514017214,5.373801278858938,1.0261032581329346,-5.535410765801565
1708435761.4600177,-1.308907389640808,-1.5135252450457592,-2.6163883844958704,5.375693130284109,1.0244841575622559,-5.537715796624319
1708435761.4620287,-1.3074226379394531,-1.514384714221098,-2.6160245577441614,5.377410042076864,1.0227837562561035,-5.540054563676016
1708435761.4640315,-1.3059576749801636,-1.5153477874449273,-2.6156168619738978,5.379219639092245,1.021092176437378,-5.5424615184413355
1708435761.466035,-1.3045138120651245,-1.5162708175233384,-2.6152499357806605,5.3811314580734155,1.019443154335022,-5.544986013566152
1708435761.4680343,-1.303060531616211,-1.5172519733062764,-2.614870850239889,5.383092152863302,1.0177266597747803,-5.547509376202719
1708435761.4700477,-1.3016148805618286,-1.5181574460915108,-2.6144662539111536,5.385042178421774,1.0160188674926758,-5.550085131322042
1708435761.4720302,-1.3002148866653442,-1.5190895472517987,-2.6140952746020716,5.387036371022024,1.0142940282821655,-5.55263734260668
1708435761.4740384,-1.2987781763076782,-1.520039090221264,-2.6137567202197474,5.3890211460884,1.012606143951416,-5.555135432873861
1708435761.475992,-1.2973082065582275,-1.5210142110339184,-2.613401476536886,5.3910878775413416,1.0108751058578491,-5.557671014462606
1708435761.4780202,-1.2959611415863037,-1.5219807636788865,-2.61304217973818,5.393149781018057,1.009202241897583,-5.560126368199484
1708435761.479996,-1.2945669889450073,-1.522937924867012,-2.612682644520895,5.395336496620931,1.0075552463531494,-5.562747899685995
1708435761.4819942,-1.2932069301605225,-1.5239363473704834,-2.6123138109790247,5.397579717427053,1.0058633089065552,-5.565179053937094
1708435761.4839928,-1.2918784618377686,-1.5249698136797925,-2.611990515385763,5.399771439820089,1.00417160987854,-5.567737166081564
1708435761.4860415,-1.2905869483947754,-1.5259550598314782,-2.611715857182638,5.402057039528646,1.0024654865264893,-5.570404235516683
1708435761.4879944,-1.2892111539840698,-1.5269648146680375,-2.6113644281970423,5.404391872673788,1.0008751153945923,-5.5730382839785975
1708435761.490024,-1.2878398895263672,-1.527957708840706,-2.6110079924212855,5.406716692238607,0.9991285800933838,-5.575828317795889
1708435761.4920254,-1.2865923643112183,-1.5289813813618203,-2.6106796900378626,5.409133899002828,0.9974225759506226,-5.578561488782064
1708435761.4940116,-1.2853281497955322,-1.530035839681961,-2.61039382616152,5.411557841091909,0.9958284497261047,-5.58145505586733
1708435761.4960423,-1.2840678691864014,-1.531081860219576,-2.610094134007589,5.414075183659353,0.9941642880439758,-5.584313873444692
1708435761.4980314,-1.282807469367981,-1.5320859786919137,-2.6098108927356165,5.416547643929281,0.9925258755683899,-5.587117556725637
1708435761.500003,-1.281545639038086,-1.5331612278572102,-2.609535519276754,5.4190783379371545,0.990924596786499,-5.58989912668337
1708435761.5020216,-1.2803288698196411,-1.5341740746847172,-2.609259907399313,5.421679127007284,0.9892699718475342,-5.5926852265941065
1708435761.504013,-1.2789760828018188,-1.535244134520628,-2.6090498606311243,5.424268412380972,0.9875820875167847,-5.5955432693110865
1708435761.5060403,-1.2778186798095703,-1.5362613660148163,-2.608744208012716,5.426908123284139,0.9859998822212219,-5.598315898572103
1708435761.5080178,-1.2766672372817993,-1.537326482390501,-2.608542267476217,5.429643022805013,0.9843693375587463,-5.601253573094503
1708435761.5100389,-1.2756141424179077,-1.5383821290782471,-2.608314339314596,5.4323885319526575,0.9827718138694763,-5.604143563901083
1708435761.5120292,-1.27439284324646,-1.539457307463028,-2.6081600824939173,5.435157048493185,0.981181800365448,-5.607187513505117
1708435761.5140395,-1.273238182067871,-1.5405722961625834,-2.6079428831683558,5.437961387425222,0.9795790910720825,-5.610291425381796
1708435761.516018,-1.2721880674362183,-1.5416401096484442,-2.607821528111593,5.440820503025808,0.9780380725860596,-5.613343302403585
1708435761.5180378,-1.2710657119750977,-1.5427591663650055,-2.607661310826437,5.443691062718191,0.9764343500137329,-5.616382304822103
1708435761.5200338,-1.2700402736663818,-1.5438463550857087,-2.6075173060046595,5.446610080986776,0.9749267101287842,-5.619365696107046
1708435761.5221338,-1.2690030336380005,-1.5449093294194718,-2.6073811689959925,5.4496222017105005,0.9733378291130066,-5.622321669255392
1708435761.5240679,-1.268046498298645,-1.5460404616645356,-2.6072779337512415,5.452571618347921,0.971800684928894,-5.625378433858053
1708435761.526045,-1.267000675201416,-1.5471550461700936,-2.6072028318988245,5.455581474095144,0.9703114628791809,-5.628375116978781
1708435761.528,-1.2659411430358887,-1.5482972369394084,-2.6071654001819056,5.458644139557638,0.9688225984573364,-5.6314823667155665
1708435761.530024,-1.2649900913238525,-1.5493574880859633,-2.607023302708761,5.4617618201072595,0.9673543572425842,-5.634547356759207
1708435761.5320547,-1.2640035152435303,-1.5503966075233002,-2.6070218721972864,5.464833247452535,0.9659532308578491,-5.637650195752279
1708435761.5340261,-1.263135552406311,-1.5515611090562125,-2.6069675127612513,5.467933702259817,0.9644799828529358,-5.640901390706198
1708435761.536004,-1.2621843814849854,-1.5527097911438723,-2.606940809880392,5.471217858582296,0.9631185531616211,-5.644119266663687
1708435761.5380144,-1.2612640857696533,-1.5538268604180594,-2.606952730809347,5.474374460964956,0.9618155360221863,-5.647381965314047
1708435761.540029,-1.260465383529663,-1.5549316306463261,-2.606972042714254,5.4777413485343835,0.9604530930519104,-5.650578741227285
1708435761.5420253,-1.259586215019226,-1.5560926983929058,-2.6070082823382776,5.480982172280111,0.9591176509857178,-5.653671983872549
1708435761.544019,-1.2587671279907227,-1.5571890699541946,-2.60714298883547,5.4842272875602625,0.9578553438186646,-5.656801883374349
1708435761.5460434,-1.2579312324523926,-1.5583548287725826,-2.6072450319873255,5.487507152348318,0.9565531015396118,-5.659985546265737
1708435761.5480425,-1.2571048736572266,-1.5595270742527028,-2.6073020140277308,5.490776645928182,0.9553669095039368,-5.663127664719717
1708435761.5500176,-1.2562888860702515,-1.5605772475576778,-2.6074350515948694,5.494136976986685,0.9540647268295288,-5.666306142007009
1708435761.5520396,-1.2556179761886597,-1.5617479470423241,-2.6075666586505335,5.497446584492483,0.9528317451477051,-5.669578735028402
1708435761.554049,-1.2548575401306152,-1.5629322438365598,-2.6077359358416956,5.50087450721816,0.9515655636787415,-5.672886137162344
1708435761.556011,-1.2541025876998901,-1.5640044568902631,-2.607896391545431,5.504186141281881,0.9504190683364868,-5.676289145146505
1708435761.5580578,-1.2534701824188232,-1.565144479074963,-2.6080520788775843,5.507626104145803,0.9492343664169312,-5.6796075145350855
1708435761.5600204,-1.2527779340744019,-1.5662404194338997,-2.608192745839254,5.511083650379934,0.9481827616691589,-5.682788376008169
1708435761.5620313,-1.252095341682434,-1.5673896738192816,-2.608431402836935,5.514522599964895,0.9471231698989868,-5.685992781315939
1708435761.564011,-1.2515251636505127,-1.5684925266871979,-2.6086347738849085,5.517872798233785,0.9460148215293884,-5.689156536255972
1708435761.5660264,-1.250855803489685,-1.5696250864169379,-2.6088877359973353,5.521290290146627,0.9450067281723022,-5.69233209291567
1708435761.5680275,-1.2502779960632324,-1.5706578814609493,-2.6090813318835657,5.524764108448782,0.9439817070960999,-5.695580009614126
1708435761.570024,-1.2496984004974365,-1.5717956028380335,-2.6094523111926478,5.528174209385671,0.9430989623069763,-5.698784176503317
1708435761.5720174,-1.2491611242294312,-1.5729032955565394,-2.609711472188131,5.531635212689199,0.9421406984329224,-5.702195111905233
1708435761.573997,-1.2485932111740112,-1.5740543804564417,-2.6100545565234583,5.535048472672262,0.9412649273872375,-5.7054792682277125
1708435761.5760055,-1.2480175495147705,-1.575198312798971,-2.6104112307177942,5.5385493514831445,0.940396249294281,-5.708788398896353
1708435761.578052,-1.247539758682251,-1.5763012371458949,-2.6108365694629114,5.542078542500295,0.9395021200180054,-5.712067906056539
1708435761.5800009,-1.247039556503296,-1.5774218044676722,-2.6111298243152063,5.545618343144216,0.9387627840042114,-5.715124551449911
1708435761.5820303,-1.2465641498565674,-1.5784784756102503,-2.6115837732898157,5.549116778164663,0.9379375576972961,-5.718360964451925
1708435761.5840273,-1.2460684776306152,-1.5796319446959437,-2.6119776407824915,5.5525603769119165,0.9371435046195984,-5.721573475991384
1708435761.586019,-1.2456053495407104,-1.5807777843871058,-2.6124089399920862,5.556023108750143,0.9364478588104248,-5.724763576184408
1708435761.5880063,-1.2452436685562134,-1.5818478069701136,-2.6128855387317103,5.559531080513754,0.9358322024345398,-5.727952722703115
1708435761.5900476,-1.2448008060455322,-1.5829030476012171,-2.613406244908468,5.56305872181014,0.93513423204422,-5.731287423764364
1708435761.5919964,-1.2443350553512573,-1.58402742962026,-2.6138649622546595,5.566475021630087,0.934505820274353,-5.734470252190725
1708435761.5940485,-1.2439848184585571,-1.5850817165770472,-2.6143348852740687,5.569943356304922,0.9339092969894409,-5.737859670315878
1708435761.5960057,-1.2436469793319702,-1.5862466297545375,-2.6149426142321985,5.573437380581655,0.9334178566932678,-5.741145078335897
1708435761.5980284,-1.243287444114685,-1.587231298486227,-2.615532461796896,5.5768940327461145,0.9329138994216919,-5.744289223347799
1708435761.600005,-1.2429962158203125,-1.5884105167784632,-2.616148296986715,5.5802907822425745,0.9324585795402527,-5.7473536173449915
1708435761.6020184,-1.242713451385498,-1.5894433460631312,-2.616711441670553,5.583698439389028,0.9319363832473755,-5.750463549290792
1708435761.6040313,-1.2423856258392334,-1.5905147991576136,-2.6173349062549036,5.5871139643485925,0.9314800500869751,-5.753523413334982
1708435761.6060197,-1.2420969009399414,-1.591604848901266,-2.61802322069277,5.590507018357076,0.9311081767082214,-5.756541732941763
1708435761.6080132,-1.2418415546417236,-1.5926968059935511,-2.618669335042135,5.59385501125411,0.9307204484939575,-5.759593192731039
1708435761.6100256,-1.2416284084320068,-1.5937472782530726,-2.619401518498556,5.597200023918905,0.9303926825523376,-5.762702230607168
1708435761.6120324,-1.241337776184082,-1.5948635540404261,-2.6200574080096644,5.600619959622183,0.9300723671913147,-5.765896443520681
1708435761.614032,-1.2411143779754639,-1.595935960809225,-2.620829407368795,5.604050266533651,0.9298078417778015,-5.769023541604177
1708435761.6160157,-1.2409461736679077,-1.5969106159605921,-2.621591869984762,5.607318627625265,0.929621160030365,-5.772157076989309
1708435761.6180518,-1.2407281398773193,-1.597938676873678,-2.6223555246936243,5.610629665642538,0.9294286370277405,-5.775186304246084
1708435761.6200278,-1.2405155897140503,-1.5989724598326625,-2.623122278844015,5.6139858839805505,0.9292615652084351,-5.7782103458987635
1708435761.6220312,-1.240344762802124,-1.600046773950094,-2.623918120061056,5.617235648422994,0.9292037487030029,-5.781114343796865
1708435761.6240087,-1.2401858568191528,-1.6010962925352992,-2.624770704899923,5.62049292305068,0.9291152358055115,-5.7841234544860285
1708435761.6260355,-1.240058422088623,-1.6020752392210902,-2.625563923512594,5.623734700470724,0.929054856300354,-5.787052188311712
1708435761.628008,-1.2399356365203857,-1.6030460796751917,-2.6265082995044153,5.62694131115035,0.9290200471878052,-5.790004853402273
1708435761.6300251,-1.2397657632827759,-1.6040760479369105,-2.6273956934558313,5.630022692471304,0.9290279150009155,-5.792939100657598
1708435761.632015,-1.2396713495254517,-1.6050793133177699,-2.6283183733569544,5.6332207200820825,0.9291414022445679,-5.795883212481634
1708435761.6340113,-1.2396010160446167,-1.6060711346068324,-2.6292501131640833,5.636382567673483,0.9292781949043274,-5.798844281827108
1708435761.636034,-1.2394990921020508,-1.6070581875243128,-2.6302247683154505,5.6395219443138025,0.9294013977050781,-5.801774446164266
1708435761.6380177,-1.2394239902496338,-1.6080690822997035,-2.631219212208883,5.642502951412954,0.9295651316642761,-5.804623905812399
1708435761.6400087,-1.2393616437911987,-1.6090289554991664,-2.6321526209460657,5.645421254425802,0.9297049641609192,-5.807385061179296
1708435761.641998,-1.2393254041671753,-1.6099182567992152,-2.633179012929098,5.648379969387808,0.9299551844596863,-5.810094509516851
1708435761.6440163,-1.2392442226409912,-1.6109158001341761,-2.634162727986471,5.651296305447378,0.9302284121513367,-5.812750224267141
1708435761.6460178,-1.2392657995224,-1.6118365726866664,-2.635153118764059,5.654294121056356,0.9305300116539001,-5.815362785254614
1708435761.6480093,-1.2392748594284058,-1.6127644977965296,-2.636272970830099,5.657115864544668,0.9309201240539551,-5.817941639815466
1708435761.6500278,-1.2392011880874634,-1.6137310467162074,-2.637357536946432,5.65998666265563,0.9313122034072876,-5.820634994898931
1708435761.6520352,-1.239229679107666,-1.614556451837057,-2.638373676930563,5.662725317269125,0.9318474531173706,-5.823234055434362
1708435761.654031,-1.2392702102661133,-1.6154662571349085,-2.6394522825824183,5.665544795780935,0.9322911500930786,-5.825835708771841
1708435761.6560192,-1.23935067653656,-1.6163765392699183,-2.6405890623675745,5.668320584088125,0.9328526258468628,-5.828435961400167
1708435761.6580238,-1.2393536567687988,-1.6172157726683558,-2.64173394838442,5.670987355500021,0.9334700107574463,-5.831076655779974
1708435761.6600232,-1.239397406578064,-1.618091722527975,-2.6428850332843226,5.673565852433004,0.9341495633125305,-5.833707008753912
1708435761.6620328,-1.2394137382507324,-1.6189528904356898,-2.644107166920797,5.676150429039755,0.9348672032356262,-5.836194906626837
1708435761.6640005,-1.2395304441452026,-1.6197639904417933,-2.645336691533224,5.678707945137777,0.9355879426002502,-5.838636432086126
1708435761.6660204,-1.2396039962768555,-1.6206618748106898,-2.6465230623828333,5.681283163815298,0.9363036751747131,-5.840963069592611
1708435761.6680045,-1.2396068572998047,-1.6214171848692835,-2.6477344671832483,5.683717894345083,0.9370700120925903,-5.843309555445806
1708435761.670019,-1.2397022247314453,-1.622331281701559,-2.648905579243795,5.6862507341201685,0.9378320574760437,-5.845633510743276
1708435761.6720307,-1.2397098541259766,-1.623141428033346,-2.65017539659609,5.688621687680044,0.9385854601860046,-5.847875777875082
1708435761.6740353,-1.239806056022644,-1.6239625416197718,-2.651440207158224,5.69098840931014,0.939452588558197,-5.850178275500433
1708435761.676,-1.2398408651351929,-1.6247536144652308,-2.652726952229635,5.6933196661765955,0.9403128027915955,-5.852335784827368
1708435761.6780183,-1.2399259805679321,-1.625601430932516,-2.654015604649679,5.695609438210287,0.9412883520126343,-5.8546234408961695
1708435761.6800048,-1.2400683164596558,-1.6263896427550257,-2.6553784052478235,5.6978962300117395,0.9421928524971008,-5.856876764689581
1708435761.6820557,-1.2400941848754883,-1.6271516285338343,-2.656609360371725,5.700085568218984,0.9432590007781982,-5.859154138957159
1708435761.6840062,-1.2402019500732422,-1.627902170220846,-2.658012930546896,5.702252793103018,0.9442621469497681,-5.861366246138708
1708435761.686033,-1.2402708530426025,-1.6287337742247523,-2.6593285242663782,5.704357611923971,0.9452790021896362,-5.863558087741033
1708435761.6880562,-1.240357756614685,-1.6294180355467738,-2.6606503168689173,5.706396269589224,0.9463168978691101,-5.8657481412040156
1708435761.690029,-1.240535855293274,-1.6302148304381312,-2.6619840304004114,5.708488034992971,0.9474424719810486,-5.867786292229788
1708435761.69204,-1.2405798435211182,-1.630899568597311,-2.6633783022509974,5.710452663689413,0.9485273361206055,-5.869824055825369
1708435761.694018,-1.2406667470932007,-1.6316477260985316,-2.6648436228381556,5.712450134545126,0.9496152400970459,-5.871837411318914
1708435761.6960301,-1.24082350730896,-1.632397790948385,-2.6662445704089563,5.714398729592123,0.950832724571228,-5.8738372961627405
1708435761.698061,-1.240860939025879,-1.6330954037108363,-2.6676693598376673,5.716312038689413,0.952119767665863,-5.875662002955572
1708435761.7000241,-1.2409898042678833,-1.63378967861318,-2.6690850893603724,5.718222129135885,0.9533660411834717,-5.877578590308325
1708435761.7020373,-1.24111807346344,-1.6344605884947718,-2.6705246607409876,5.720113146096029,0.954579770565033,-5.879350964223043
1708435761.7040424,-1.2411941289901733,-1.6351100407042445,-2.6718812624560755,5.721832859307089,0.9558131694793701,-5.881191227828161
1708435761.706049,-1.2412989139556885,-1.6358167133727015,-2.673297707234518,5.7236214754875085,0.9569839835166931,-5.883118722830908
1708435761.7080526,-1.2413359880447388,-1.6364919147887171,-2.674854580556051,5.7253432152564905,0.9582754373550415,-5.884852413331167
1708435761.7100255,-1.2414578199386597,-1.6371914348998011,-2.6763601938830774,5.726987230568685,0.9597071409225464,-5.886699740086691
1708435761.712033,-1.2415655851364136,-1.6378823719420375,-2.6779051462756556,5.7286685583885095,0.961071252822876,-5.888546113167898
1708435761.714033,-1.2416822910308838,-1.638524671594137,-2.6794121901141565,5.730277406960287,0.9624394774436951,-5.890362922345297
1708435761.716023,-1.2417422533035278,-1.639169832269186,-2.681002680455343,5.7318105576331995,0.9638441801071167,-5.8921664396869105
1708435761.718033,-1.2418380975723267,-1.6398045025267542,-2.6825199762927454,5.733340847283163,0.9652128219604492,-5.893938277159826
1708435761.7200723,-1.2419005632400513,-1.6403948269286097,-2.6840246359454554,5.734802830010214,0.9666197299957275,-5.895652506743566
1708435761.7220492,-1.2419548034667969,-1.6410280666747035,-2.6855791250811976,5.736262428551473,0.967974066734314,-5.897273812686102
1708435761.724113,-1.2420669794082642,-1.6416379414000453,-2.6870840231524866,5.7377086756523035,0.9694028496742249,-5.898963336144583
1708435761.7261,-1.2421598434448242,-1.642252107659811,-2.6886730829821985,5.739099252014913,0.9709152579307556,-5.900508169327871
1708435761.7280579,-1.2421921491622925,-1.642921587029928,-2.6902177969561976,5.740511643677511,0.9725229740142822,-5.902075324450628
1708435761.730053,-1.2422473430633545,-1.643569131890768,-2.6918864885913294,5.741814005165853,0.9740310311317444,-5.90362656513323
1708435761.732033,-1.2423237562179565,-1.6441260776915492,-2.693486754094259,5.743145930558004,0.97562575340271,-5.905163590108053
1708435761.7340279,-1.2423957586288452,-1.6447645626463832,-2.695049826298849,5.744406926422872,0.9772095084190369,-5.906690422688619
1708435761.736019,-1.2424604892730713,-1.645311018029684,-2.696604077016012,5.745688068657675,0.9787589311599731,-5.908161793147222
1708435761.7380352,-1.242544412612915,-1.6459595165648402,-2.698211733494894,5.746862995415487,0.9802600741386414,-5.909595344458715
1708435761.7400186,-1.2425636053085327,-1.6465450725951136,-2.699688975011007,5.748018133431234,0.9817202091217041,-5.911060903464453
1708435761.7420468,-1.2426713705062866,-1.6471277676024378,-2.701301399861471,5.749195921211996,0.9831246733665466,-5.912449989710943
1708435761.7440302,-1.2427613735198975,-1.6476661167540492,-2.7028430143939417,5.750363456993856,0.9846391677856445,-5.913952086363928
1708435761.7460332,-1.2427269220352173,-1.6482488117613734,-2.7045117060290735,5.7514381287391565,0.9862396121025085,-5.915289614592687
1708435761.7480228,-1.2427210807800293,-1.6488639316954554,-2.706205193196432,5.752539264946737,0.9879067540168762,-5.916806463395254
1708435761.7500176,-1.2427821159362793,-1.6495186291136683,-2.707859818135397,5.75363968589858,0.9895994067192078,-5.918250356112615
1708435761.7520308,-1.2427685260772705,-1.6500512562193812,-2.7094083468066614,5.7546878931816,0.9912781715393066,-5.9196746985064905
1708435761.7540123,-1.242827296257019,-1.650665899316305,-2.7110758463488978,5.755761372834005,0.9929372668266296,-5.921026680861608
