Eg3-git/Classifiers/Data Collection/u3/u3star2_ur3e_joint_states.csv
time,elbow_joint,shoulder_lift_joint,shoulder_pan_joint,wrist_1_joint,wrist_2_joint,wrist_3_joint
1708435735.0758722,-2.1415445804595947,-1.333136500125267,-2.5262234846698206,6.109154689102926,1.0168052911758423,-5.465973381196157
1708435735.0778687,-2.141500473022461,-1.3331528466990967,-2.5262067953692835,6.109154689102926,1.0167887210845947,-5.465936485921041
1708435735.079871,-2.1414875984191895,-1.333149866466858,-2.5262280146228235,6.109159099846639,1.0167768001556396,-5.465972487126486
1708435735.0819182,-2.141523599624634,-1.3331320744803925,-2.526219193135397,6.109171378403463,1.0167561769485474,-5.465989593659536
1708435735.0838733,-2.1415321826934814,-1.33316624284301,-2.5261946360217493,6.109183180123129,1.0167725086212158,-5.465956274663107
1708435735.085852,-2.1414918899536133,-1.3331034493497391,-2.5262234846698206,6.109138357430258,1.0167648792266846,-5.465992991124288
1708435735.087871,-2.1414670944213867,-1.3331034940532227,-2.5261781851397913,6.109208571701803,1.0167399644851685,-5.465960625802175
1708435735.0898683,-2.1414875984191895,-1.3331332069686432,-2.5262022654162806,6.10916684845046,1.0167274475097656,-5.465964917336599
1708435735.091861,-2.141514778137207,-1.3331198257258912,-2.5261991659747522,6.109112965851583,1.0167737007141113,-5.465944472943441
1708435735.0938635,-2.141511917114258,-1.3331814420274277,-2.5261827150927942,6.109130847245016,1.0167443752288818,-5.466025654469625
1708435735.0958676,-2.1415164470672607,-1.3331825894168396,-2.5262370745288294,6.10916684845046,1.0167360305786133,-5.46598863998522
1708435735.097869,-2.141507625579834,-1.3331034493497391,-2.5261991659747522,6.109150159149923,1.0167081356048584,-5.46601373354067
1708435735.0998852,-2.1414666175842285,-1.3331484210542222,-2.5261977354632776,6.109196650772848,1.0167691707611084,-5.465969149266378
1708435735.1018796,-2.141475200653076,-1.333149866466858,-2.5261781851397913,6.109163629799642,1.016719937324524,-5.465973381196157
1708435735.1039162,-2.141500473022461,-1.3331454408219834,-2.5262370745288294,6.109162437706747,1.0167405605316162,-5.4660014549838465
1708435735.1058698,-2.1414875984191895,-1.333181456928589,-2.5261946360217493,6.109150159149923,1.0167243480682373,-5.465956274663107
1708435735.1078968,-2.1414709091186523,-1.333136500125267,-2.5261946360217493,6.109154689102926,1.01676607131958,-5.465985361729757
1708435735.1098592,-2.141507625579834,-1.3331439060023804,-2.5261781851397913,6.109159099846639,1.0167486667633057,-5.465989534054891
1708435735.1118462,-2.1414875984191895,-1.333107904796936,-2.5262609163867396,6.109183180123129,1.0167243480682373,-5.466034118329183
1708435735.113864,-2.141479015350342,-1.3331198257258912,-2.526196304951803,6.109147178917684,1.0166795253753662,-5.465951983128683
1708435735.1158862,-2.141507625579834,-1.3331781190684815,-2.5261693636523646,6.109129297524252,1.0167198181152344,-5.465936485921041
1708435735.1178563,-2.1414453983306885,-1.333161787395813,-2.5262203852282923,6.109129297524252,1.0167036056518555,-5.465960625802175
1708435735.1198595,-2.1414918899536133,-1.333199219112732,-2.5261617342578333,6.109096514969625,1.0167486667633057,-5.4660014549838465
1708435735.1218562,-2.1414794921875,-1.3331275296262284,-2.526175324116842,6.109124886780538,1.0167286396026611,-5.465976838265554
1708435735.1238587,-2.1414542198181152,-1.3331168454936524,-2.5261946360217493,6.109136807709493,1.0167286396026611,-5.465997223054067
1708435735.125857,-2.141507625579834,-1.3331691932729264,-2.5262158552752894,6.109154689102926,1.016732931137085,-5.4660056869136255
1708435735.1278837,-2.141462802886963,-1.3331198257258912,-2.5262234846698206,6.109129297524252,1.0167005062103271,-5.465952936802999
1708435735.129858,-2.1414918899536133,-1.3331409257701416,-2.5262022654162806,6.109138357430258,1.016716718673706,-5.4659563342677515
1708435735.1318486,-2.141507625579834,-1.3331454408219834,-2.5262067953692835,6.109154689102926,1.016716718673706,-5.465992991124288
1708435735.1338685,-2.1414918899536133,-1.333128736620285,-2.526203695927755,6.109117376595297,1.0166962146759033,-5.465977672730581
1708435735.1358497,-2.1414341926574707,-1.333133192067482,-2.526203695927755,6.10916684845046,1.0167092084884644,-5.4660009185420435
1708435735.1378772,-2.141462802886963,-1.3331198257258912,-2.5261781851397913,6.1091757891471765,1.01669180393219,-5.465981070195333
1708435735.1398678,-2.1414918899536133,-1.333199219112732,-2.5261827150927942,6.1091922400291345,1.016676425933838,-5.465947930012838
1708435735.1418712,-2.141479015350342,-1.3331034940532227,-2.5261946360217493,6.109178769379415,1.016676425933838,-5.465992991124288
1708435735.1439068,-2.1414833068847656,-1.3331154149821778,-2.5261617342578333,6.10916684845046,1.0167135000228882,-5.4660014549838465
1708435735.145854,-2.1414833068847656,-1.3331572723439713,-2.5261781851397913,6.109178769379415,1.0166839361190796,-5.465997223054067
1708435735.1478732,-2.1414666175842285,-1.3331454408219834,-2.526262346898214,6.109212982445516,1.0167092084884644,-5.465952996407644
1708435735.1498916,-2.1414623260498047,-1.3331364852241059,-2.5261991659747522,6.1091768620307825,1.0167005062103271,-5.465964082871572
1708435735.151859,-2.1414918899536133,-1.3331168454936524,-2.5261917749988,6.10916684845046,1.0166349411010742,-5.466014269982473
1708435735.153855,-2.141458511352539,-1.3331528466990967,-2.5261572043048304,6.1091264365013025,1.016704797744751,-5.465948764477865
1708435735.1558597,-2.1414666175842285,-1.3331528466990967,-2.5262158552752894,6.109154689102926,1.0166926383972168,-5.4660179058658045
1708435735.1578608,-2.141535997390747,-1.3331287664226075,-2.526170794163839,6.1091219065483,1.016676425933838,-5.465997163449423
1708435735.159873,-2.141475200653076,-1.3331198257258912,-2.5261917749988,6.109208571701803,1.0166926383972168,-5.466034177933828
1708435735.161866,-2.1415061950683594,-1.333107889895775,-2.5261827150927942,6.10914574840621,1.0166479349136353,-5.465944472943441
1708435735.163899,-2.1414875984191895,-1.3331736338189621,-2.526170794163839,6.109187710076132,1.0166807174682617,-5.4659886995898646
1708435735.1658957,-2.1414918899536133,-1.3331198257258912,-2.526217285786764,6.10914562919692,1.0166436433792114,-5.465940121804373
1708435735.1678665,-2.14150333404541,-1.3331528466990967,-2.5261662642108362,6.10919069030837,1.016640067100525,-5.4659563342677515
1708435735.169879,-2.1414542198181152,-1.3331781190684815,-2.5261781851397913,6.109202611237325,1.016685128211975,-5.465997223054067
1708435735.1718779,-2.1415164470672607,-1.3330990237048645,-2.526179854069845,6.109171378403463,1.016685128211975,-5.465972487126486
1708435735.1739123,-2.1414875984191895,-1.3331242364696045,-2.526250664387838,6.1091534970100305,1.0166772603988647,-5.4660014549838465
1708435735.1758687,-2.1414947509765625,-1.3331484210542222,-2.526137892399923,6.1091264365013025,1.0167179107666016,-5.465980295334951
1708435735.1778786,-2.1414947509765625,-1.3331287664226075,-2.5261662642108362,6.1091219065483,1.0166685581207275,-5.466005150471823
1708435735.1798916,-2.1414875984191895,-1.3331825894168396,-2.526154343281881,6.109183299332418,1.0166566371917725,-5.4660009185420435
1708435735.181858,-2.1414833068847656,-1.333136500125267,-2.526158873234884,6.109187710076132,1.016635775566101,-5.465992991124288
1708435735.1838844,-2.141540288925171,-1.3331409257701416,-2.5261827150927942,6.109133708267965,1.0166523456573486,-5.465964857731954
1708435735.1858845,-2.1415233612060547,-1.3331153702786942,-2.5262370745288294,6.109141218453207,1.0166566371917725,-5.465997223054067
1708435735.1878786,-2.1414875984191895,-1.33316624284301,-2.526212755833761,6.1091322777564905,1.0166728496551514,-5.465928022061483
1708435735.1898782,-2.14151930809021,-1.3331825894168396,-2.5261662642108362,6.109171378403463,1.0166150331497192,-5.465976838265554
1708435735.1918824,-2.141496181488037,-1.3331124049476166,-2.5261827150927942,6.10916684845046,1.0166444778442383,-5.465964917336599
1708435735.193897,-2.1414990425109863,-1.3331750494292756,-2.5261991659747522,6.109096514969625,1.016635775566101,-5.46594870487322
1708435735.195894,-2.1414875984191895,-1.3331124198487778,-2.5261662642108362,6.109141337662496,1.0166772603988647,-5.465997223054067
1708435735.1980357,-2.1414875984191895,-1.3331212860396882,-2.526208225880758,6.109171378403463,1.0166566371917725,-5.465992991124288
1708435735.199915,-2.1414794921875,-1.3332036447576066,-2.526217047368185,6.109222042351522,1.016689419746399,-5.466021303330557
1708435735.2018998,-2.1414453983306885,-1.333133192067482,-2.526200834904806,6.109171378403463,1.016640067100525,-5.465989534054891
1708435735.2039158,-2.1414496898651123,-1.3331154149821778,-2.526146952305929,6.109133708267965,1.0166369676589966,-5.465948764477865
1708435735.2058969,-2.141479015350342,-1.3331542772105713,-2.5261617342578333,6.109172689705648,1.016623854637146,-5.465964917336599
1708435735.2078881,-2.141507625579834,-1.3331376326135178,-2.526179854069845,6.109162437706747,1.0166815519332886,-5.465976838265554
1708435735.2098765,-2.1414875984191895,-1.3331287664226075,-2.526187245045797,6.10910843589858,1.0165989398956299,-5.465944472943441
1708435735.2118845,-2.14150333404541,-1.3331454408219834,-2.526212517415182,6.109162437706747,1.016623854637146,-5.46602982679476
1708435735.2139034,-2.141511917114258,-1.3331409257701416,-2.5261917749988,6.109171378403463,1.0166163444519043,-5.465952996407644
1708435735.2158933,-2.141531467437744,-1.3331124198487778,-2.526170794163839,6.109195101052084,1.0166772603988647,-5.465944472943441
1708435735.2178838,-2.1414709091186523,-1.3331528466990967,-2.526154343281881,6.109150159149923,1.016640067100525,-5.46601373354067
1708435735.2198849,-2.141496181488037,-1.3331661981395264,-2.5261662642108362,6.109168040543356,1.0166610479354858,-5.465981070195333
1708435735.2218606,-2.14150333404541,-1.3331287664226075,-2.526175324116842,6.109142768173971,1.0166325569152832,-5.466009501610891
1708435735.2238817,-2.1414709091186523,-1.333133192067482,-2.526154343281881,6.109112965851583,1.016640067100525,-5.466054145489828
1708435735.2258599,-2.141479015350342,-1.3331287664226075,-2.526208225880758,6.109084355622091,1.0166444778442383,-5.466032926236288
1708435735.2278852,-2.1414496898651123,-1.3331572723439713,-2.526175324116842,6.109124886780538,1.0166444778442383,-5.466021303330557
1708435735.2298684,-2.1414623260498047,-1.3331454408219834,-2.5262158552752894,6.1091264365013025,1.0166163444519043,-5.466017965470449
1708435735.231849,-2.141511917114258,-1.3331618022969742,-2.526170794163839,6.109154689102926,1.016648769378662,-5.466005150471823
1708435735.2338774,-2.1414875984191895,-1.3331376177123566,-2.526217285786764,6.109201180725851,1.016648769378662,-5.46598863998522
1708435735.235876,-2.1414623260498047,-1.333136500125267,-2.526170794163839,6.10919069030837,1.0166696310043335,-5.465992991124288
1708435735.2379072,-2.1414496898651123,-1.3331242513707657,-2.526196304951803,6.109138357430258,1.0166610479354858,-5.465997223054067
1708435735.2398965,-2.1414666175842285,-1.3331034940532227,-2.526208225880758,6.109199511795797,1.0166444778442383,-5.465992991124288
1708435735.2418637,-2.1414875984191895,-1.3331825894168396,-2.526200834904806,6.109178769379415,1.0166772603988647,-5.465940121804373
1708435735.2438755,-2.1414875984191895,-1.3331004989198227,-2.526187245045797,6.109130847245016,1.016607642173767,-5.465944472943441
1708435735.2458594,-2.141475200653076,-1.3331572723439713,-2.526109043751852,6.109162437706747,1.0165867805480957,-5.465940181409017
1708435735.2478793,-2.1414875984191895,-1.3331542772105713,-2.526217047368185,6.109196650772848,1.016685962677002,-5.465968255196707
1708435735.2498689,-2.141479015350342,-1.333121271138527,-2.526170794163839,6.109163629799642,1.0166163444519043,-5.465997223054067
1708435735.251868,-2.1414875984191895,-1.3331618022969742,-2.526151482258932,6.10916684845046,1.0166566371917725,-5.466012899075643
1708435735.253885,-2.1414947509765625,-1.3331168454936524,-2.526175324116842,6.109117376595297,1.0166369676589966,-5.465992991124288
1708435735.2558768,-2.1414990425109863,-1.3331528466990967,-2.5261662642108362,6.109208571701803,1.0166369676589966,-5.4659802357303064
1708435735.2578871,-2.14150333404541,-1.3331287664226075,-2.526137892399923,6.109171378403463,1.0166728496551514,-5.46596068540682
1708435735.2598689,-2.1414670944213867,-1.3331661981395264,-2.526196304951803,6.109171378403463,1.016648769378662,-5.465976838265554
1708435735.261854,-2.1414875984191895,-1.3331168454936524,-2.526154343281881,6.109112965851583,1.0166566371917725,-5.465992991124288
1708435735.2639065,-2.1414794921875,-1.333133192067482,-2.52616793314089,6.109150159149923,1.0166566371917725,-5.466032926236288
1708435735.2658532,-2.1415164470672607,-1.333149866466858,-2.526175324116842,6.109175908356466,1.0166938304901123,-5.465996805821554
1708435735.2678766,-2.1415162086486816,-1.333133192067482,-2.526221577321188,6.109150159149923,1.0166151523590088,-5.466025654469625
1708435735.2698708,-2.1414875984191895,-1.333127574329712,-2.526163403187887,6.10910843589858,1.0166728496551514,-5.466032866631643
1708435735.2718616,-2.141511917114258,-1.333158702855446,-2.5261381308185022,6.109193670540609,1.0166653394699097,-5.46601373354067
1708435735.2738712,-2.141496181488037,-1.3331542772105713,-2.526196304951803,6.109100925713339,1.0166772603988647,-5.46604568163027
1708435735.2758899,-2.141479015350342,-1.3331212860396882,-2.526154343281881,6.109133827477255,1.016623854637146,-5.466032866631643
1708435735.2778568,-2.141514778137207,-1.3331498813680192,-2.526158873234884,6.109130847245016,1.0166444778442383,-5.465976897870199
1708435735.2798781,-2.141514778137207,-1.3331618022969742,-2.526158873234884,6.109138357430258,1.0166728496551514,-5.466049079095022
1708435735.2818868,-2.1414833068847656,-1.333096058373787,-2.52620512643923,6.109093296318807,1.0166531801223755,-5.465968195592062
1708435735.2838671,-2.1414794921875,-1.3331257116845627,-2.526203695927755,6.109102237015524,1.0166369676589966,-5.466028753911154
1708435735.2858782,-2.1414296627044678,-1.3331498813680192,-2.526154343281881,6.10909782627181,1.0166696310043335,-5.466025654469625
1708435735.2879004,-2.1414918899536133,-1.333096058373787,-2.526154343281881,6.109138357430258,1.0166653394699097,-5.465952161942617
1708435735.289872,-2.141475200653076,-1.3331364852241059,-2.526187245045797,6.109130847245016,1.016640067100525,-5.4659844676600855
1708435735.291879,-2.141496181488037,-1.333096058373787,-2.5261827150927942,6.109163510590353,1.016640067100525,-5.4660009185420435
1708435735.2938743,-2.141514778137207,-1.3331168454936524,-2.526170794163839,6.109141218453207,1.0166685581207275,-5.4660009185420435
1708435735.2958796,-2.141496181488037,-1.3331153702786942,-2.526158873234884,6.109222042351522,1.0166610479354858,-5.466053311024801
1708435735.2978773,-2.1414875984191895,-1.3331168454936524,-2.526184384022848,6.1091757891471765,1.016648769378662,-5.466013673936025
1708435735.2999291,-2.1414833068847656,-1.333154321914055,-2.526184384022848,6.1091803191001794,1.016648769378662,-5.466032926236288
1708435735.301903,-2.1414947509765625,-1.333087147479393,-2.526221577321188,6.109150159149923,1.0166444778442383,-5.466028753911154
1708435735.3039396,-2.141475200653076,-1.3331498813680192,-2.52616793314089,6.109117376595297,1.0166728496551514,-5.466053311024801
1708435735.3058984,-2.1414875984191895,-1.3331301522305985,-2.526146952305929,6.109138357430258,1.0166815519332886,-5.466008667145864
1708435735.3078685,-2.1414875984191895,-1.3331409257701416,-2.526196304951803,6.109142768173971,1.016640067100525,-5.466021303330557
1708435735.3098662,-2.141479015350342,-1.3331034940532227,-2.5261977354632776,6.109172570496359,1.0166772603988647,-5.466040674840109
1708435735.3119006,-2.1414875984191895,-1.333133192067482,-2.526151482258932,6.109184729843893,1.0166728496551514,-5.466032926236288
1708435735.3139281,-2.1414384841918945,-1.3331124198487778,-2.5260897318469446,6.109133827477255,1.0166194438934326,-5.466032866631643
1708435735.3159113,-2.141475200653076,-1.33316624284301,-2.526156012211935,6.109133827477255,1.016689419746399,-5.4660009185420435
1708435735.317869,-2.141496181488037,-1.3331124049476166,-2.526142422352926,6.109117376595297,1.0166610479354858,-5.466005150471823
1708435735.3199048,-2.1414427757263184,-1.3330751818469544,-2.526156012211935,6.109187829285421,1.0166566371917725,-5.4660009185420435
1708435735.3218634,-2.141496181488037,-1.3331498813680192,-2.526156012211935,6.1091099856193445,1.0166032314300537,-5.466028753911154
1708435735.3238747,-2.141523599624634,-1.3330826622298737,-2.526156012211935,6.10916684845046,1.016640067100525,-5.466044906769888
1708435735.3258615,-2.141479015350342,-1.3331572872451325,-2.526187245045797,6.109079825669088,1.0167101621627808,-5.466028753911154
1708435735.3279116,-2.1414453983306885,-1.3331242513707657,-2.526126209889547,6.109117376595297,1.0166772603988647,-5.466015998517172
1708435735.3298917,-2.141447067260742,-1.3331376177123566,-2.526135031376974,6.109084355622091,1.0166938304901123,-5.466073278580801
1708435735.3318942,-2.141512155532837,-1.333087147479393,-2.526176993046896,6.1091099856193445,1.016607642173767,-5.466032151375906
1708435735.3338575,-2.1414875984191895,-1.3331706535867234,-2.526146952305929,6.109117376595297,1.016623854637146,-5.466020230446951
1708435735.335859,-2.1415061950683594,-1.333194838171341,-2.5261107126819056,6.109093415528097,1.016648769378662,-5.465992573891775
1708435735.3378794,-2.141519069671631,-1.3331168454936524,-2.5260914007769983,6.109154689102926,1.0166488885879517,-5.466061357651846
1708435735.339905,-2.1414990425109863,-1.3331004989198227,-2.5260749498950403,6.109183180123129,1.0166150331497192,-5.466020230446951
1708435735.3418806,-2.141475200653076,-1.333075226550438,-2.526088539754049,6.10914574840621,1.0166163444519043,-5.466024521981375
1708435735.3438783,-2.141514778137207,-1.3331661981395264,-2.526034418736593,6.10910843589858,1.0166325569152832,-5.466027919446127
1708435735.3459094,-2.14150333404541,-1.3330961030772706,-2.526050869618551,6.109151708870687,1.0167186260223389,-5.466089431439535
1708435735.3478637,-2.1415278911590576,-1.3331332069686432,-2.526048008595602,6.109141218453207,1.016648769378662,-5.466061357651846
1708435735.349878,-2.141479015350342,-1.33316624284301,-2.526068989430563,6.109141218453207,1.0166772603988647,-5.466028753911154
1708435735.3518643,-2.1414833068847656,-1.333136500125267,-2.525976006184713,6.109199631005087,1.0166685581207275,-5.466011766587393
1708435735.3538659,-2.1415233612060547,-1.333084152345993,-2.526022259389059,6.109187710076132,1.0166852474212646,-5.466037098561422
1708435735.3558736,-2.1415061950683594,-1.3331454408219834,-2.5260358492480677,6.109220492630758,1.0166282653808594,-5.466118518506185
1708435735.3578749,-2.141479015350342,-1.3331528466990967,-2.526026789342062,6.10919069030837,1.0166523456573486,-5.466093663369314
1708435735.3599088,-2.1414875984191895,-1.3331287664226075,-2.526081148778097,6.109150159149923,1.0166566371917725,-5.466085139905111
1708435735.361909,-2.141519069671631,-1.333091528420784,-2.526026789342062,6.109174358635702,1.0166728496551514,-5.466036383305685
1708435735.363897,-2.1414875984191895,-1.3331287664226075,-2.526043478642599,6.1091757891471765,1.016640067100525,-5.466036383305685
1708435735.3658915,-2.1415061950683594,-1.3331242513707657,-2.526026789342062,6.109166729241171,1.0166653394699097,-5.466080907975332
1708435735.3678617,-2.1415019035339355,-1.3331947934678574,-2.5260358492480677,6.10920416095809,1.0166653394699097,-5.466057125722067
1708435735.3698819,-2.1415019035339355,-1.3331661981395264,-2.525989357625143,6.10914562919692,1.016689419746399,-5.466068987046377
1708435735.371861,-2.1415185928344727,-1.3331572872451325,-2.526026789342062,6.10916684845046,1.0167056322097778,-5.466023568307058
1708435735.3738837,-2.1414918899536133,-1.333107904796936,-2.5260239283191126,6.109207141190328,1.016653060913086,-5.466048602257864
1708435735.3758883,-2.141474485397339,-1.33316624284301,-2.5260358492480677,6.1092145321662805,1.0166815519332886,-5.466011766587393
1708435735.377904,-2.1415271759033203,-1.333107889895775,-2.526026789342062,6.109181749611654,1.016648769378662,-5.466089431439535
1708435735.3798718,-2.1415061950683594,-1.333154321914055,-2.52606445947756,6.109211551934042,1.0166610479354858,-5.466052834187643
1708435735.381925,-2.141507625579834,-1.333182544713356,-2.526050869618551,6.109198200493612,1.016635775566101,-5.466117743645803
1708435735.3838873,-2.1414947509765625,-1.3331454557231446,-2.526026789342062,6.10920416095809,1.0165835618972778,-5.466040674840109
1708435735.3858628,-2.141486167907715,-1.33316624284301,-2.526038948689596,6.1091322777564905,1.0166653394699097,-5.466023687516348
1708435735.3879163,-2.141470193862915,-1.3331287664226075,-2.5260687510119837,6.109181749611654,1.0166325569152832,-5.466011766587393
1708435735.3898752,-2.1415395736694336,-1.3331332069686432,-2.526052538548605,6.10913239696578,1.016648769378662,-5.466024521981375
1708435735.391893,-2.1415019035339355,-1.3331409257701416,-2.5260615984546106,6.109211551934042,1.0166444778442383,-5.466073278580801
1708435735.3938768,-2.1414947509765625,-1.3331332069686432,-2.526010338460104,6.109207021981039,1.0166325569152832,-5.466048602257864
1708435735.395884,-2.1415228843688965,-1.3331825894168396,-2.526052538548605,6.109202611237325,1.0166325569152832,-5.466057125722067
1708435735.3978806,-2.141535758972168,-1.3331825894168396,-2.52600604692568,6.109202611237325,1.0166610479354858,-5.466072444115774
1708435735.399906,-2.1414990425109863,-1.3331409108689805,-2.526048008595602,6.109183180123129,1.0166120529174805,-5.466060523186819
1708435735.4019256,-2.141514778137207,-1.333173618917801,-2.526026789342062,6.109239804535665,1.0166696310043335,-5.466057125722067
1708435735.403894,-2.1414709091186523,-1.3331498813680192,-2.5260449091540735,6.109207021981039,1.0166120529174805,-5.46608949104418
1708435735.405913,-2.14150333404541,-1.333148406153061,-2.5260193983661097,6.10919069030837,1.0166282653808594,-5.466032866631643
1708435735.4079275,-2.1414833068847656,-1.3331153702786942,-2.5260358492480677,6.109218942909994,1.0166206359863281,-5.466020170842306
1708435735.4098687,-2.141523599624634,-1.3331572723439713,-2.5260358492480677,6.109165417938986,1.0166206359863281,-5.466032926236288
1708435735.4118707,-2.141531467437744,-1.3331364852241059,-2.526067558919088,6.109165417938986,1.0166163444519043,-5.466057125722067
1708435735.4138832,-2.1414990425109863,-1.3331617277911683,-2.526034418736593,6.109195101052084,1.0166412591934204,-5.466064755116598
1708435735.4158638,-2.14150333404541,-1.3331108552268525,-2.526017729436056,6.10919069030837,1.016648769378662,-5.466051940117971
1708435735.4178557,-2.141523599624634,-1.3331618022969742,-2.526088539754049,6.109226453095236,1.016648769378662,-5.466020230446951
1708435735.4198978,-2.1414542198181152,-1.3331825298121949,-2.526055399571554,6.109181749611654,1.016623854637146,-5.466040674840109
1708435735.4218743,-2.1414918899536133,-1.333140955572464,-2.526059929524557,6.109224903374471,1.0166282653808594,-5.466048661862509
1708435735.4238665,-2.141447067260742,-1.3332066994956513,-2.526072088872091,6.1091967699821375,1.0166163444519043,-5.466081623231069
1708435735.4258585,-2.1414599418640137,-1.3331454259208222,-2.526050869618551,6.1091803191001794,1.0166120529174805,-5.466061357651846
1708435735.4278708,-2.1414151191711426,-1.333143876200058,-2.526092831288473,6.109105574875631,1.0166696310043335,-5.4660043756114405
1708435735.4298615,-2.141356945037842,-1.3331735891154786,-2.5260794798480433,6.109081733017721,1.016685962677002,-5.466085199509756
1708435735.4318693,-2.141322612762451,-1.3332048815539856,-2.5260794798480433,6.10916684845046,1.0166938304901123,-5.466077570115225
1708435735.4338899,-2.141319751739502,-1.3331845563701172,-2.5260823408709925,6.109083163529196,1.0166685581207275,-5.466036383305685
1708435735.4359007,-2.1412906646728516,-1.3331724864295502,-2.5261197725879114,6.109059083252706,1.016701340675354,-5.466048602257864
1708435735.4378755,-2.141209840774536,-1.3332336109927674,-2.526139561329977,6.109033691674032,1.0167254209518433,-5.46607751051058
1708435735.439887,-2.1411936283111572,-1.3331871938756485,-2.526160542164938,6.109023320465841,1.0167243480682373,-5.46599251428713
1708435735.4418666,-2.1411547660827637,-1.3332770478776474,-2.526137892399923,6.108950125962057,1.0167080163955688,-5.46599251428713
1708435735.4439158,-2.1411449909210205,-1.333334670667984,-2.526175324116842,6.108938085823812,1.0167529582977295,-5.466032926236288
1708435735.4458606,-2.1410393714904785,-1.333312378530838,-2.5262489954577845,6.108939635544576,1.0167930126190186,-5.466032926236288
1708435735.4478586,-2.141024589538574,-1.3333247613957901,-2.5262489954577845,6.1089244959648035,1.0167810916900635,-5.466012899075643
1708435735.4498806,-2.1409144401550293,-1.3333277118257065,-2.52625018755068,6.1088929055030725,1.0167725086212158,-5.466049079095022
1708435735.4518652,-2.140878200531006,-1.3334097576192399,-2.5262954870807093,6.108770477562704,1.0168215036392212,-5.466032926236288
1708435735.4538736,-2.1407828330993652,-1.3334335696748276,-2.5263238588916224,6.108686792641439,1.0168415307998657,-5.466012899075643
1708435735.455883,-2.1407103538513184,-1.333400846724846,-2.5263643900500696,6.108647811203756,1.0168695449829102,-5.466028753911154
1708435735.4578848,-2.1406774520874023,-1.333423302774765,-2.5263658205615442,6.108510720520773,1.0168728828430176,-5.465931836758749
1708435735.459908,-2.14054799079895,-1.3334563684514542,-2.5264409224139612,6.108452069550314,1.0169178247451782,-5.465964082871572
1708435735.4618542,-2.1404850482940674,-1.3335544776967545,-2.5264301935779017,6.108347523003378,1.016958236694336,-5.465968255196707
1708435735.4638703,-2.140338897705078,-1.3335454773953934,-2.526496235524313,6.108223306923666,1.0169408321380615,-5.465969149266378
1708435735.4658763,-2.140261173248291,-1.3335726869157334,-2.5265608469592493,6.1081293700035,1.01701819896698,-5.4660014549838465
1708435735.467874,-2.1401655673980713,-1.3335385781577607,-2.5265427271472376,6.1079842922981165,1.0170589685440063,-5.466017965470449
1708435735.4698772,-2.140007734298706,-1.3336250942996521,-2.526562039052145,6.107812392502584,1.017086148262024,-5.465961579476492
1708435735.4718816,-2.1399009227752686,-1.3335939657739182,-2.5266733805285853,6.107718455582418,1.0171430110931396,-5.465969149266378
1708435735.4738793,-2.1397693157196045,-1.3336296391538163,-2.5267213026629847,6.107486474304952,1.0171988010406494,-5.465945068989889
1708435735.475874,-2.1396913528442383,-1.333760918383934,-2.526703182850973,6.107377517014303,1.0172466039657593,-5.46594071785082
1708435735.4778826,-2.139526128768921,-1.3337672513774415,-2.5267842451678675,6.1072308895881555,1.017290472984314,-5.465977672730581
1708435735.4798634,-2.139362096786499,-1.3337582659772416,-2.526811424885885,6.1070783016975305,1.0173745155334473,-5.465921465550558
1708435735.481851,-2.1391773223876953,-1.3338359606317063,-2.5268800894366663,6.10692452171401,1.017479419708252,-5.465909544621603
1708435735.4838943,-2.138953685760498,-1.3338461530259629,-2.526919190083639,6.106628644257345,1.0175397396087646,-5.465897385274069
1708435735.4858816,-2.1388301849365234,-1.3339359325221558,-2.5269838015185755,6.106483685761251,1.0176358222961426,-5.465921465550558
1708435735.4879007,-2.1386640071868896,-1.3339373183301468,-2.527076784764425,6.106283414154806,1.0177321434020996,-5.4658693114863794
1708435735.489866,-2.1384239196777344,-1.3339899492314835,-2.5271201769458216,6.106105553894796,1.0178207159042358,-5.465849463139669
1708435735.4918625,-2.138171434402466,-1.3340864491513749,-2.5272536913501185,6.105845320015707,1.0179166793823242,-5.46580940881838
1708435735.4938786,-2.1379525661468506,-1.3341389310410996,-2.527288262044088,6.1055734036262415,1.018021583557129,-5.46581751505007
1708435735.4958532,-2.137705087661743,-1.334174559717514,-2.527339045201437,6.105335938721456,1.01808500289917,-5.465822164212362
1708435735.4978693,-2.1374380588531494,-1.334190012221672,-2.5274458567248743,6.105072605400839,1.0182139873504639,-5.465834442769186
1708435735.4999108,-2.137197494506836,-1.3342898798039933,-2.527566973363058,6.104748236923971,1.0182600021362305,-5.465745214615957
1708435735.5018952,-2.1369471549987793,-1.33439156532798,-2.5276508967029017,6.104449379235067,1.0184098482131958,-5.465758029614584
1708435735.5039146,-2.1366190910339355,-1.3344258528998871,-2.527679506932394,6.104069578438558,1.0185177326202393,-5.465761486683981
1708435735.5058722,-2.1363000869750977,-1.3344902259162446,-2.5277844111071985,6.103721129685201,1.018629550933838,-5.465726021920339
1708435735.5078983,-2.1359775066375732,-1.3345694702914734,-2.5279017130481165,6.103390919953146,1.0188393592834473,-5.4657138029681605
1708435735.5098796,-2.135653495788574,-1.3346246492913743,-2.5280452410327356,6.103017198830404,1.0189757347106934,-5.465673867856161
1708435735.5119038,-2.13533091545105,-1.3347038489631196,-2.5281487146960657,6.102701771050253,1.0190950632095337,-5.465698484574453
1708435735.5139165,-2.134939193725586,-1.3347760152867814,-2.5282209555255335,6.102232205658712,1.0192478895187378,-5.4656012693988245
1708435735.5158973,-2.1345882415771484,-1.3348729771426697,-2.5283785502063196,6.101876485138693,1.019416332244873,-5.465666715298788
1708435735.517923,-2.1342334747314453,-1.3349564534476777,-2.5284770170794886,6.101480352669515,1.0195724964141846,-5.46566361585726
1708435735.519874,-2.1338257789611816,-1.3350433719209214,-2.528666321431295,6.10103319862441,1.0197409391403198,-5.465598646794454
1708435735.5218601,-2.133439540863037,-1.3351301413825531,-2.5287652651416224,6.10048924663619,1.0199288129806519,-5.465619270001547
1708435735.5238867,-2.1329309940338135,-1.335312010054924,-2.5289302507983606,6.100036251335897,1.0200930833816528,-5.46556264558901
1708435735.525865,-2.1325149536132812,-1.3353375804475327,-2.529088799153463,6.099444258003988,1.0203181505203247,-5.465490225945608
1708435735.5278957,-2.132007360458374,-1.3354617667249222,-2.5293052832232874,6.098967420845785,1.0205597877502441,-5.465511683617727
1708435735.5298967,-2.1315724849700928,-1.3356557351401825,-2.529456679021017,6.098422276764669,1.0207277536392212,-5.4654627482043665
1708435735.5318575,-2.131106376647949,-1.3357469898513337,-2.5295944849597376,6.097860085755148,1.0209367275238037,-5.4654346148120325
1708435735.5338688,-2.130587577819824,-1.335894690161087,-2.529757801686422,6.097260582237997,1.0211281776428223,-5.465438906346456
1708435735.5358543,-2.1300156116485596,-1.3359773767045517,-2.530003611241476,6.0966659663017175,1.021360993385315,-5.465444211159841
1708435735.5378866,-2.1294915676116943,-1.3361534190228959,-2.5301464239703577,6.096085893898763,1.0216262340545654,-5.465378050004141
1708435735.539892,-2.1289334297180176,-1.3362883192351838,-2.53033692041506,6.095353233605184,1.0218865871429443,-5.4653194586383265
1708435735.541874,-2.1282899379730225,-1.336468667989113,-2.5306084791766565,6.094690787583151,1.022195816040039,-5.4653194586383265
1708435735.5439045,-2.1277365684509277,-1.3366035533002396,-2.5307913462268274,6.093885767250814,1.022418737411499,-5.465302948151724
1708435735.545862,-2.1270840167999268,-1.3367454272559662,-2.5310238043414515,6.093230950623312,1.0226999521255493,-5.465251092110769
1708435735.5478969,-2.1264805793762207,-1.33688140035186,-2.531210962926046,6.092498290329733,1.0230056047439575,-5.465292755757467
1708435735.5498924,-2.1258256435394287,-1.3370293986848374,-2.5314059893237513,6.091715562134542,1.0232452154159546,-5.46522027650942
1708435735.5518854,-2.1251747608184814,-1.3372295659831543,-2.5316429773913782,6.090969192772665,1.0235379934310913,-5.465162758027212
1708435735.553905,-2.1244664192199707,-1.3373879951289673,-2.5319040457354944,6.090174901276388,1.0238374471664429,-5.465162758027212
1708435735.5558872,-2.1237528324127197,-1.3375885796597977,-2.53210956255068,6.089317667275228,1.0242122411727905,-5.465152088795797
1708435735.5579088,-2.1230227947235107,-1.3377969723990937,-2.532367531453268,6.088512527733602,1.0245411396026611,-5.465087954198019
1708435735.5599103,-2.122252941131592,-1.3379569214633484,-2.532619301472799,6.087580549507894,1.0248783826828003,-5.465084377919332
1708435735.5618448,-2.121501922607422,-1.3381359440139313,-2.5329163710223597,6.0866583464439294,1.0251904726028442,-5.465048615132467
1708435735.5638847,-2.1206750869750977,-1.3383261275342484,-2.533163611088888,6.0856902478034876,1.025534749031067,-5.465000692998068
1708435735.5658965,-2.119877815246582,-1.338533954029419,-2.5333927313434046,6.084728109627523,1.0259286165237427,-5.4649813810931605
1708435735.5679271,-2.119051933288574,-1.3387657415917893,-2.533682409917013,6.083755481034078,1.0262649059295654,-5.4649205843554896
1708435735.5698833,-2.11814284324646,-1.3389251989177247,-2.5340049902545374,6.082816350250997,1.0266501903533936,-5.464925889168875
1708435735.5718613,-2.1173126697540283,-1.3391029995730896,-2.534243408833639,6.081777560501852,1.0269855260849,-5.464845482503073
1708435735.573878,-2.1164400577545166,-1.339304805999138,-2.5345431009875696,6.080669510155477,1.0273715257644653,-5.464837912713186
1708435735.5758796,-2.115553855895996,-1.3395831745914002,-2.5348387400256556,6.079616653710165,1.0277429819107056,-5.464766089116232
1708435735.577886,-2.1146562099456787,-1.3398284179023285,-2.5351718107806605,6.078533279686727,1.0281847715377808,-5.464717153702871
1708435735.5798855,-2.1136698722839355,-1.340044842367508,-2.535492722188131,6.077477562218466,1.028580904006958,-5.4646652976619166
1708435735.5818737,-2.1127524375915527,-1.340244085793831,-2.535800043736593,6.076337086945333,1.0290422439575195,-5.464617256318228
1708435735.583888,-2.111741542816162,-1.3404634308866044,-2.536090675984518,6.075116383820333,1.0294581651687622,-5.464566294346945
1708435735.5858974,-2.11069917678833,-1.340751813059189,-2.536435906087057,6.073969471245565,1.029834508895874,-5.464574877415792
1708435735.5878575,-2.1096861362457275,-1.3409626197865983,-2.536776367818014,6.072790133744039,1.0302667617797852,-5.464522663746969
1708435735.5898645,-2.108675718307495,-1.3412256997874756,-2.5370808283435267,6.071533429413595,1.030756950378418,-5.4644628206836146
1708435735.5918505,-2.1076011657714844,-1.3414393377355118,-2.537431780491964,6.070252764015951,1.031124472618103,-5.4643946329699915
1708435735.5938754,-2.106532096862793,-1.3417187941125412,-2.5377512613879603,6.068997967034139,1.031655192375183,-5.4643423596965235
1708435735.5958571,-2.1054139137268066,-1.3420028400472184,-2.538140837346212,6.067672478943624,1.032118320465088,-5.464266244565145
1708435735.5978625,-2.1043074131011963,-1.342221052651741,-2.538520161305563,6.066377866059103,1.0326199531555176,-5.464255396519796
1708435735.5999033,-2.1031932830810547,-1.342521534567215,-2.538851324711935,6.065009820252218,1.0331063270568848,-5.4642120043384
1708435735.6019015,-2.102065324783325,-1.3428013634732743,-2.5391531626330774,6.063663589745321,1.0336036682128906,-5.46414423385729
1708435735.6038716,-2.1008973121643066,-1.3430626553348084,-2.5396011511432093,6.062330353050985,1.0340638160705566,-5.464092318211691
1708435735.6058946,-2.099717855453491,-1.343355731373169,-2.539988104497091,6.060888874321737,1.0346508026123047,-5.464032713566915
1708435735.607869,-2.0984768867492676,-1.3436921399882813,-2.5403555075274866,6.059437382012167,1.0351670980453491,-5.4639445582972925
1708435735.6099029,-2.0971734523773193,-1.3438740384629746,-2.540764872227804,6.057983863144674,1.0357038974761963,-5.463920537625448
1708435735.611905,-2.0960099697113037,-1.3442032051137467,-2.541088883076803,6.05652533748702,1.036208152770996,-5.46381646791567
1708435735.6138773,-2.0947747230529785,-1.344526083474495,-2.5415478388415735,6.054977285652914,1.0367865562438965,-5.46377277771105
1708435735.6158967,-2.093465805053711,-1.3448176097920914,-2.5419347921954554,6.053408252983846,1.0373082160949707,-5.463705603276388
1708435735.6178706,-2.0921292304992676,-1.345080391769745,-2.542380396519796,6.051780330925741,1.0378479957580566,-5.4636738936053675
1708435735.6198661,-2.0908217430114746,-1.3453885328820725,-2.542788330708639,6.050186502724447,1.0383968353271484,-5.463578287755148
1708435735.6218915,-2.0894765853881836,-1.345678375368454,-2.5431957880603235,6.04851649978713,1.038970947265625,-5.463518444691793
1708435735.6238604,-2.088136911392212,-1.345949040060379,-2.543602530156271,6.046890365868368,1.0395315885543823,-5.463470522557394
1708435735.6258795,-2.086759567260742,-1.346259669666626,-2.5440433661090296,6.045242297440328,1.0401535034179688,-5.463386062775747
1708435735.6278756,-2.0853657722473145,-1.346629114156105,-2.5444961229907435,6.043598878174581,1.040779948234558,-5.463269654904501
1708435735.6298892,-2.084002733230591,-1.3469186288169404,-2.5449894110309046,6.041838514595785,1.0413897037506104,-5.4632514158831995
1708435735.6319022,-2.082479476928711,-1.3471968334964295,-2.5453956762896937,6.04009901264266,1.0419989824295044,-5.463166836892263
1708435735.6338623,-2.0810317993164062,-1.3475402903607865,-2.5458384195910853,6.038250195771017,1.0426359176635742,-5.463098410760061
1708435735.6358836,-2.0794942378997803,-1.3478333067945023,-2.546351496373312,6.036608326226034,1.043261170387268,-5.462990407143728
1708435735.6379251,-2.07804012298584,-1.348177121286728,-2.5467456022845667,6.034727680474081,1.0438607931137085,-5.462930981312887
1708435735.6398935,-2.0765230655670166,-1.3485330504230042,-2.547316853200094,6.032942402153768,1.0444622039794922,-5.462880019341604
1708435735.6418827,-2.074930429458618,-1.3488320273211976,-2.5477681795703333,6.03117452838973,1.045141339302063,-5.462807838116781
1708435735.6438856,-2.073367118835449,-1.3491742771914979,-2.548234764729635,6.029334056168356,1.0458277463912964,-5.462699476872579
1708435735.645864,-2.0717904567718506,-1.3495866072228928,-2.5487645308123987,6.027390944748678,1.0464437007904053,-5.46265280643572
1708435735.6478748,-2.0701744556427,-1.3498884004405518,-2.549288813267843,6.025525438576498,1.0471417903900146,-5.462654415761129
1708435735.6498928,-2.068514823913574,-1.3502593350461503,-2.549800221120016,6.0235386965568445,1.047789216041565,-5.46251750389208
1708435735.6518972,-2.066878080368042,-1.350607843404152,-2.5502546469317835,6.021657335549154,1.0484384298324585,-5.462454620991842
1708435735.6538882,-2.065218925476074,-1.3509738457253953,-2.5507596174823206,6.019603717118063,1.0490425825119019,-5.462329570447103
1708435735.6558628,-2.0635550022125244,-1.3512816739133378,-2.5512753168689173,6.017468917160787,1.049604058265686,-5.462270144616262
1708435735.6578958,-2.0617263317108154,-1.3517394822886963,-2.551774803792135,6.015433895378866,1.0503506660461426,-5.4621745387660425
1708435735.6598945,-2.0600428581237793,-1.3520576518825074,-2.552323881779806,6.013466942101278,1.0510530471801758,-5.462119285260336
1708435735.6618743,-2.058335781097412,-1.352484868173935,-2.552863661442892,6.011430847435751,1.0517977476119995,-5.462071959172384
1708435735.6638744,-2.056539297103882,-1.3528437328389664,-2.553469483052389,6.00922309139327,1.0525362491607666,-5.46194297472109
1708435735.6658936,-2.054802417755127,-1.353221909408905,-2.5539172331439417,6.0071366904075525,1.0532890558242798,-5.4618271628962916
1708435735.6678686,-2.052971124649048,-1.3535583031228562,-2.5545321146594446,6.004993784218588,1.0540592670440674,-5.461783532296316
1708435735.669899,-2.0511245727539062,-1.3540022385171433,-2.555009190236227,6.002728807717123,1.0548210144042969,-5.461740795766012
1708435735.6718688,-2.049271821975708,-1.3543968808702012,-2.555631224309103,6.000454771309652,1.0555906295776367,-5.461632255707876
1708435735.6739016,-2.0474703311920166,-1.3548451972058793,-2.556178394948141,5.998239862709799,1.056404948234558,-5.461544160042898
1708435735.675862,-2.0456554889678955,-1.355304316883423,-2.556722942982809,5.996061789780416,1.0572682619094849,-5.461494032536642
1708435735.6778808,-2.0437355041503906,-1.3556776952794571,-2.5572951475726526,5.99390326717452,1.0579992532730103,-5.461373273526327
1708435735.679863,-2.041860818862915,-1.3561008882573624,-2.5577879587756556,5.991457927017965,1.0587522983551025,-5.461326662694113
1708435735.681864,-2.0398757457733154,-1.3565027725747605,-2.558373514805929,5.9890655157859705,1.0595417022705078,-5.461189572011129
1708435735.6838884,-2.037909507751465,-1.3570110958865662,-2.5589564482318323,5.986753451615133,1.06032395362854,-5.461138610039846
1708435735.6858618,-2.036008358001709,-1.3573631358197709,-2.5595765749560755,5.984332072525778,1.0611218214035034,-5.4610798994647425
1708435735.6878922,-2.0340230464935303,-1.3578702819398423,-2.5601523558246058,5.981907713204183,1.0619114637374878,-5.460975710545675
1708435735.6898751,-2.0320279598236084,-1.3582844597152253,-2.5607569853412073,5.979530441551962,1.0627416372299194,-5.46085095802416
1708435735.6918826,-2.030019760131836,-1.3587150436690827,-2.561326328908102,5.977090465813436,1.063494324684143,-5.460784618054525
1708435735.6938746,-2.0279650688171387,-1.3591986757567902,-2.561951224003927,5.974562990456381,1.064315676689148,-5.460684541855947
1708435735.6958783,-2.0259478092193604,-1.3596441757730027,-2.5625186602221888,5.9720709202583215,1.065149188041687,-5.460661474858419
1708435735.6978688,-2.023829460144043,-1.3600986462882538,-2.563127581273214,5.969605314522543,1.0659178495407104,-5.460545305405752
1708435735.6998684,-2.0217392444610596,-1.360533745293953,-2.563734833394186,5.967147576599874,1.0668495893478394,-5.460461680089132
1708435735.7018895,-2.0196495056152344,-1.3609653574279328,-2.5643418470965784,5.964539396553793,1.0676530599594116,-5.4603580872165125
1708435735.7039332,-2.017500162124634,-1.3614411068013688,-2.564982239400045,5.962082016258993,1.0685752630233765,-5.460240904484884
1708435735.705912,-2.015376567840576,-1.3619000178626557,-2.565589968358175,5.959435927658834,1.0694520473480225,-5.460194234048025
1708435735.7078998,-2.013117551803589,-1.3623782855323334,-2.566287342702047,5.956834184914388,1.0702223777770996,-5.460074071084158
1708435735.7098675,-2.0108635425567627,-1.3628490281156083,-2.5668571631061,5.954119789391317,1.0711534023284912,-5.459973696862356
1708435735.7118664,-2.00864577293396,-1.3633515250733872,-2.5674689451800745,5.951549279480734,1.071977972984314,-5.459915105496542
1708435735.7138724,-2.0064024925231934,-1.3637727809003373,-2.5681918303119105,5.94884346702651,1.0729361772537231,-5.4597782532321375
1708435735.7158613,-2.0042436122894287,-1.3642569792321702,-2.568737570439474,5.9462671158607385,1.0738039016723633,-5.459768001233236
1708435735.71788,-2.0019893646240234,-1.36471779764209,-2.5694013277636927,5.943608867913046,1.0746444463729858,-5.459681097661154
1708435735.7198825,-1.9998195171356201,-1.365148351793625,-2.5700178782092493,5.941131102829733,1.0754237174987793,-5.459594015275137
1708435735.721865,-1.9976091384887695,-1.3655603539994736,-2.570592466984884,5.938506591110983,1.0762401819229126,-5.459456686173574
1708435735.7238731,-1.9954007863998413,-1.3660941284945984,-2.5711832682238978,5.935822593956747,1.0770649909973145,-5.459441069756643
1708435735.7258723,-1.9932137727737427,-1.3664993059686203,-2.5718651453601282,5.933266746788778,1.0779188871383667,-5.45931309858431
1708435735.7278636,-1.9909788370132446,-1.3669459086707612,-2.572465244923727,5.930684911995687,1.0787357091903687,-5.459242347870962
1708435735.729868,-1.9887492656707764,-1.36743779600177,-2.573051993046896,5.927985536843099,1.0795472860336304,-5.459108654652731
1708435735.7318513,-1.986559510231018,-1.3678996872952958,-2.5736807028399866,5.925328242569723,1.0804251432418823,-5.459050182496206
1708435735.7338483,-1.9843019247055054,-1.3683076065829773,-2.574271027241842,5.922602641373434,1.081269383430481,-5.458926026021139
1708435735.735851,-1.982107400894165,-1.3688774865916749,-2.5748918692218226,5.920016753464498,1.0820786952972412,-5.458911959324972
1708435735.7378578,-1.9798742532730103,-1.369293974047043,-2.5755320231067103,5.917521345406332,1.0829150676727295,-5.458848838006155
1708435735.7398934,-1.9776480197906494,-1.3697774720242997,-2.576122824345724,5.914909946709432,1.083720088005066,-5.458691600953237
1708435735.7418945,-1.9754983186721802,-1.370179073219635,-2.5767152945147913,5.912220227509298,1.0845330953598022,-5.458659891282217
1708435735.74386,-1.9732866287231445,-1.3706692916205903,-2.5773513952838343,5.909534919052877,1.0853768587112427,-5.458540145550863
1708435735.7458658,-1.9710959196090698,-1.371164159183838,-2.577942196522848,5.9069827673728845,1.0863113403320312,-5.458489123974935
1708435735.7478783,-1.968941569328308,-1.371609390979149,-2.5786033312426966,5.904411542206564,1.0871363878250122,-5.458408776913778
1708435735.7498658,-1.9667940139770508,-1.372088001375534,-2.5792508761035364,5.901801812439718,1.0879629850387573,-5.4582200090037745
1708435735.7518792,-1.9646645784378052,-1.3725678783706208,-2.5799322764026087,5.899202811508932,1.0888376235961914,-5.4582295457469385
1708435735.7539053,-1.9624218940734863,-1.3729714167169114,-2.5805025736438196,5.896606194763937,1.0897101163864136,-5.458150509987966
1708435735.7559245,-1.9602322578430176,-1.3735558104566117,-2.581162993107931,5.893957125931539,1.0905145406723022,-5.458078269158499
1708435735.7578743,-1.9580143690109253,-1.3739804190448304,-2.581728998814718,5.891174900322714,1.0913033485412598,-5.457962218915121
1708435735.759905,-1.9558078050613403,-1.3745108556798478,-2.5823515097247522,5.888535129814901,1.092086911201477,-5.457887117062704
1708435735.7618575,-1.9536190032958984,-1.3749765318683167,-2.583045307789938,5.885954129486837,1.0929129123687744,-5.45781529346575
1708435735.763877,-1.9514789581298828,-1.37542678535495,-2.5836404005633753,5.883402573853292,1.0937529802322388,-5.457674030457632
1708435735.7659123,-1.949224829673767,-1.3759015512517472,-2.5842819849597376,5.880766141205587,1.0946069955825806,-5.457656566296713
1708435735.7678733,-1.947088599205017,-1.37649159253154,-2.584909741078512,5.878104078560629,1.0954852104187012,-5.457498912011282
1708435735.7698994,-1.9447765350341797,-1.3769131761840363,-2.5854933897601526,5.875484692841329,1.0963419675827026,-5.457485322152273
1708435735.7718763,-1.9426020383834839,-1.3773929935744782,-2.586137119923727,5.872888314514913,1.09718656539917,-5.457383994256155
1708435735.7738757,-1.940455436706543,-1.3777802300504227,-2.5867067019092005,5.870337950974264,1.0980116128921509,-5.457329456006185
1708435735.775871,-1.9382392168045044,-1.37833425522361,-2.5873740355121058,5.867767917900839,1.0988349914550781,-5.457197074090139
1708435735.777873,-1.9360706806182861,-1.3787192416242142,-2.5879932085620325,5.864994871407308,1.0997377634048462,-5.457150165234701
1708435735.7799437,-1.9338098764419556,-1.3792152863791962,-2.5885565916644495,5.862388837128439,1.1006104946136475,-5.457066480313436
1708435735.781871,-1.9317225217819214,-1.3796953719905396,-2.589203182850973,5.859756934433737,1.101446270942688,-5.456950251256124
1708435735.783871,-1.9294745922088623,-1.3800876152566453,-2.5898028055774134,5.857107031136312,1.1022354364395142,-5.456858996544973
1708435735.7858758,-1.927306890487671,-1.3806327444365998,-2.5904296080218714,5.854482638626852,1.1030967235565186,-5.456811432038442
1708435735.7878845,-1.9251497983932495,-1.381105126147606,-2.591036860142843,5.851847278862753,1.1038856506347656,-5.456755582486288
1708435735.7898748,-1.922932505607605,-1.3815855991891404,-2.59160286584963,5.849253523140707,1.1047874689102173,-5.4566437045680445
1708435735.7918763,-1.9206633567810059,-1.3819942039302369,-2.5922632853137415,5.846615421562948,1.1055827140808105,-5.456576232110159
1708435735.7938917,-1.9184657335281372,-1.3825078022531052,-2.5928502718554896,5.844028818398275,1.106427788734436,-5.4565210978137415
1708435735.79587,-1.9163175821304321,-1.3829329025796433,-2.5935068766223353,5.841500031739034,1.1071995496749878,-5.45635569492449
1708435735.7978976,-1.914142370223999,-1.3834446382573624,-2.594088379536764,5.839025485306539,1.1080856323242188,-5.45632124343981
1708435735.7998981,-1.9118990898132324,-1.3839000028422852,-2.5947073141681116,5.836386668473043,1.108893871307373,-5.456233207379476
1708435735.8018994,-1.90965735912323,-1.3843708050302048,-2.5953355471240442,5.833821999817648,1.1096946001052856,-5.456177596245901
1708435735.8039007,-1.9074183702468872,-1.384823427801468,-2.5959492365466517,5.831114280014791,1.1105421781539917,-5.456053916607992
1708435735.8058944,-1.9052085876464844,-1.3853423458388825,-2.596614662800924,5.828482615738668,1.111368179321289,-5.45596552291979
1708435735.8079278,-1.9030139446258545,-1.385833890443184,-2.5972254912005823,5.825917112618246,1.1120920181274414,-5.455919031296865
1708435735.8098857,-1.9007803201675415,-1.3863274169019242,-2.597827974949972,5.823298680573263,1.1129248142242432,-5.455830935631887
1708435735.8118784,-1.8986479043960571,-1.386713982825615,-2.598484818135397,5.820773947029867,1.1137208938598633,-5.455751542245046
1708435735.8139136,-1.8964303731918335,-1.387211100464203,-2.5991221109973353,5.818105923920431,1.1145427227020264,-5.455626908932821
1708435735.815877,-1.894193172454834,-1.3877096635154267,-2.5997257868396204,5.815406071930685,1.11538827419281,-5.455588523541586
1708435735.8179069,-1.891955018043518,-1.3881435257247468,-2.600372616444723,5.812768566399374,1.1162937879562378,-5.455431286488668
1708435735.8198817,-1.8897428512573242,-1.388646812444069,-2.6010361353503626,5.810206520348348,1.1171952486038208,-5.455421213303701
1708435735.8218668,-1.8876136541366577,-1.3891393852284928,-2.601642910634176,5.807561504631796,1.1180709600448608,-5.455317024384634
1708435735.823869,-1.885391116142273,-1.3895766747048874,-2.602229420338766,5.804958331375875,1.1189477443695068,-5.455270115529196
1708435735.825858,-1.8831321001052856,-1.390093357568123,-2.602839533482687,5.8023027060325525,1.1197762489318848,-5.455162588750021
1708435735.8278701,-1.8809630870819092,-1.3905526858619233,-2.60341459909548,5.79956995227889,1.120645523071289,-5.45506585041155
1708435735.8298755,-1.8787423372268677,-1.3910646748593827,-2.604063336049215,5.796960699349203,1.121505856513977,-5.4550063649760645
1708435735.8319235,-1.8765311241149902,-1.391535298233368,-2.6046205202685755,5.794323313027181,1.122338056564331,-5.454853121434347
1708435735.8339057,-1.8744043111801147,-1.3919495654157181,-2.605248037968771,5.791753756790914,1.1232355833053589,-5.454809669648306
1708435735.8358586,-1.8722410202026367,-1.3924105179360886,-2.6058433691607874,5.789171683579244,1.1240427494049072,-5.454714957867758
1708435735.8378985,-1.8700883388519287,-1.3929076802781601,-2.6064744631396692,5.78647922256545,1.124891757965088,-5.454659704362051
1708435735.8398721,-1.8679038286209106,-1.3934036505273362,-2.6069915930377405,5.783829796105184,1.1257086992263794,-5.454567317162649
1708435735.8418593,-1.8657004833221436,-1.3939151924899598,-2.6076985041247767,5.781181442528524,1.126549482345581,-5.454544250165121
1708435735.8438652,-1.8635261058807373,-1.394353137617447,-2.6082971731769007,5.778610336571493,1.12742280960083,-5.454435888920919
1708435735.8458908,-1.8612931966781616,-1.3947451573661347,-2.6089075247394007,5.776004063874044,1.1282391548156738,-5.454384986554281
1708435735.8478792,-1.8591026067733765,-1.3952943545630951,-2.609497610722677,5.773435818939962,1.1290955543518066,-5.454281810914175
1708435735.8498776,-1.8569421768188477,-1.395790458922722,-2.6101043860064905,5.770878660469808,1.1300183534622192,-5.454198424016134
1708435735.8518953,-1.854647159576416,-1.3962324571660538,-2.6107171217547815,5.768189656525411,1.1308302879333496,-5.454113606606619
1708435735.8538952,-1.8524647951126099,-1.3966865849545975,-2.6113267580615442,5.765559899597921,1.131653904914856,-5.454026583825247
1708435735.8558636,-1.8502721786499023,-1.397204504614212,-2.611979071293966,5.7629891512687585,1.1324994564056396,-5.453995231782095
1708435735.8579097,-1.8480944633483887,-1.3975922775319596,-2.6125651041613978,5.760471927910604,1.1334046125411987,-5.453895215188162
1708435735.8598888,-1.8458763360977173,-1.3981397163918992,-2.613204542790548,5.75790702083663,1.1342532634735107,-5.453775111828939
1708435735.8618772,-1.8436545133590698,-1.3986131113818665,-2.6138232390033167,5.755211221962728,1.1350133419036865,-5.4536595980273646
1708435735.863888,-1.8414361476898193,-1.399035320883133,-2.6144357363330286,5.752522098809042,1.1357827186584473,-5.4535924831973475
1708435735.8658698,-1.8392442464828491,-1.3995362681201478,-2.615026299153463,5.749927866249838,1.1366249322891235,-5.4535773436175745
1708435735.867847,-1.8370614051818848,-1.399859906440117,-2.6156814734088343,5.747392642288961,1.1375086307525635,-5.453517738972799
1708435735.8698714,-1.8348560333251953,-1.4004124265960236,-2.6162999312030237,5.744814383774557,1.138370394706726,-5.453340474759237
1708435735.871881,-1.832631230354309,-1.4008719635060807,-2.616950575505392,5.742166507035055,1.139227032661438,-5.453286055718557
1708435735.8739214,-1.8304274082183838,-1.401427538400032,-2.6176000277148646,5.739536988526144,1.1400432586669922,-5.453174535428182
1708435735.8758972,-1.8281868696212769,-1.4018257570317765,-2.6181932131396692,5.73680196979598,1.1408928632736206,-5.453077797089712
1708435735.8779225,-1.8260104656219482,-1.4022669804147263,-2.618833128605978,5.734152662545004,1.141680121421814,-5.453043107186453
1708435735.8798776,-1.8237913846969604,-1.402665526872017,-2.61943227449526,5.731642710953512,1.142553687095642,-5.452980403100149
1708435735.8818946,-1.8216383457183838,-1.4031818074039002,-2.6199973265277308,5.729015695839681,1.14339017868042,-5.4529247919665735
1708435735.883883,-1.8193871974945068,-1.4036179047873993,-2.620657507573263,5.726392614632406,1.14421546459198,-5.452772800122396
1708435735.8858957,-1.8171677589416504,-1.404158280496933,-2.6213048140155237,5.723732220917501,1.145052194595337,-5.452705268059866
1708435735.8878605,-1.8149279356002808,-1.4046166998199006,-2.621899191533224,5.7210943577583215,1.1458971500396729,-5.452642504368917
1708435735.8898826,-1.8127520084381104,-1.4050912421992798,-2.6225212256061,5.718450176506796,1.1467279195785522,-5.452574376259939
1708435735.8919053,-1.810632348060608,-1.4055095475963135,-2.623132292424337,5.715932357102194,1.1475356817245483,-5.452551190053121
1708435735.8938766,-1.8084276914596558,-1.4059893649867554,-2.6237500349627894,5.71336446979598,1.1483641862869263,-5.452393953000204
1708435735.8958964,-1.8062382936477661,-1.4064855438521882,-2.62443453470339,5.710767435818472,1.1492209434509277,-5.452266816292898
1708435735.897862,-1.8040215969085693,-1.4069642138532181,-2.6250441710101526,5.708159971028127,1.1500256061553955,-5.452183488999502
1708435735.8998997,-1.8017829656600952,-1.4074419003776093,-2.625685516987936,5.705472755223074,1.150855302810669,-5.452151660119192
1708435735.9018977,-1.799613118171692,-1.4079452616027375,-2.626336638127462,5.702804732113638,1.1517243385314941,-5.452109400426046
1708435735.9039404,-1.7974134683609009,-1.4084003430655976,-2.626918617879049,5.700203943043508,1.1525641679763794,-5.451974813138143
1708435735.905902,-1.795197606086731,-1.4088961643031617,-2.6275652090655726,5.697653400688925,1.1534404754638672,-5.451920394097463
1708435735.9078863,-1.793013095855713,-1.4093634498170395,-2.6281848589526575,5.695016014366903,1.1542309522628784,-5.451829497014181
1708435735.9099495,-1.790798544883728,-1.4098049712232132,-2.6287995020495813,5.692407417088308,1.1550722122192383,-5.451680664216177
1708435735.9118886,-1.7885828018188477,-1.4103096437505265,-2.629430119191305,5.689718293934622,1.1558810472488403,-5.451638464127676
1708435735.9138565,-1.7863800525665283,-1.4107614618590851,-2.630050245915548,5.687117028027334,1.1567507982254028,-5.451578919087545
1708435735.9158962,-1.7842063903808594,-1.4112283897450943,-2.6306639353381556,5.684532213002004,1.1575974225997925,-5.451507035885946
1708435735.9178646,-1.782060146331787,-1.4117033195546647,-2.631336514149801,5.681933927326956,1.158430576324463,-5.451342229043142
1708435735.9198883,-1.7798842191696167,-1.412140892153122,-2.6319177786456507,5.679272341519155,1.159255027770996,-5.451324824486868
1708435735.9218898,-1.7777283191680908,-1.412661926155426,-2.6325259844409388,5.676577794342794,1.1600748300552368,-5.451211873685018
1708435735.9238682,-1.7755004167556763,-1.4130919140628357,-2.633153740559713,5.673959541111746,1.1609352827072144,-5.4511324802981775
1708435735.92587,-1.7733495235443115,-1.4135557276061554,-2.633726183568136,5.671351003437795,1.1617934703826904,-5.451048735772268
1708435735.9278748,-1.771131992340088,-1.4140860003283997,-2.6344075838672083,5.668729352741995,1.1626179218292236,-5.450969640408651
1708435735.929908,-1.7689555883407593,-1.4145841014436265,-2.6350188891040247,5.666094291001119,1.1634794473648071,-5.450853530560629
1708435735.931928,-1.7667737007141113,-1.415009544496872,-2.6356104055987757,5.663522231369772,1.1643977165222168,-5.450822059308187
1708435735.9339023,-1.7645549774169922,-1.4155259144357224,-2.6361962000476282,5.660866546421804,1.165217638015747,-5.450742606316702
1708435735.935913,-1.7622884511947632,-1.4159773004106064,-2.63676363626589,5.658326434880056,1.1660462617874146,-5.450670842324392
1708435735.9378712,-1.7600970268249512,-1.4164386999658127,-2.637306038533346,5.655698704510488,1.1667708158493042,-5.450582806264059
1708435735.939914,-1.757916808128357,-1.4169683319381257,-2.6378617922412317,5.653178918152609,1.1675394773483276,-5.450491849576132
1708435735.941881,-1.7557588815689087,-1.4174101960710068,-2.638416353856222,5.650681006699362,1.1682915687561035,-5.450420324002401
1708435735.943905,-1.7534979581832886,-1.4178560835174103,-2.6390119234668177,5.64809803941802,1.1691464185714722,-5.450348619614736
1708435735.9458745,-1.7512681484222412,-1.4183261704495926,-2.639622990285055,5.6455076215560815,1.169967770576477,-5.450277153645651
1708435735.947919,-1.749024510383606,-1.418821470146515,-2.6402791182147425,5.64287685134963,1.1708521842956543,-5.450168196355001
1708435735.949879,-1.7468289136886597,-1.4193056684783478,-2.640866820012228,5.640226709633627,1.171644687652588,-5.4501171747790735
1708435735.9518754,-1.7446067333221436,-1.4197855454734345,-2.6414011160479944,5.637710141926565,1.1724169254302979,-5.450070683156149
1708435735.9538784,-1.7424397468566895,-1.4202291828444977,-2.6420002619372767,5.6350992796714685,1.1731687784194946,-5.450015131627218
1708435735.955896,-1.7402442693710327,-1.4206592452577134,-2.6425183455096644,5.6325381872947595,1.1739174127578735,-5.449874405060903
1708435735.9578784,-1.738020658493042,-1.4212203931859513,-2.6431434790240687,5.629830169468679,1.1745884418487549,-5.449835304413931
1708435735.9598858,-1.7357839345932007,-1.4217145305923005,-2.6437020937549036,5.627197015076437,1.1753590106964111,-5.4497268239604395
1708435735.96187,-1.7335909605026245,-1.4221684646657486,-2.644219938908712,5.624615716725149,1.1760797500610352,-5.449675504361288
1708435735.9639072,-1.731433629989624,-1.4226189714721222,-2.6447625795947474,5.622167038708486,1.1767834424972534,-5.449624542390005
1708435735.965877,-1.7293299436569214,-1.423078567986824,-2.6454322973834437,5.6195992706115625,1.1774563789367676,-5.449527923260824
1708435735.967881,-1.7270866632461548,-1.4235249918750306,-2.6459859053241175,5.617018985539236,1.1782076358795166,-5.449488882218496
1708435735.9698832,-1.7248631715774536,-1.4240178924850007,-2.6465850512133997,5.61443858125762,1.1790275573730469,-5.449400846158163
1708435735.9718893,-1.7226581573486328,-1.424499825840332,-2.647149149571554,5.611816990166464,1.1798007488250732,-5.449345592652456
1708435735.973912,-1.720433235168457,-1.4249460262111207,-2.647724215184347,5.609213161259451,1.1805325746536255,-5.449302319680349
1708435735.9758787,-1.7183070182800293,-1.4254595053246994,-2.648282591496603,5.606730866223135,1.1811792850494385,-5.449261848126547
1708435735.977894,-1.7161275148391724,-1.425926999454834,-2.6487634817706507,5.604135322361746,1.1819250583648682,-5.449166540299551
1708435735.9799116,-1.7139225006103516,-1.4263762843659897,-2.649367157612936,5.601604747563162,1.1826871633529663,-5.449114207421438
1708435735.9818733,-1.7118068933486938,-1.4268895846656342,-2.649855915700094,5.599012362747946,1.1834079027175903,-5.4490060845958155
1708435735.9839268,-1.7095690965652466,-1.4273505073836823,-2.650442902241842,5.596414196282186,1.184104561805725,-5.4489580432521265
1708435735.985869,-1.7073761224746704,-1.4278015059283753,-2.6510031859027308,5.593888985901632,1.184808373451233,-5.448951486741201
1708435735.987889,-1.7051807641983032,-1.4283052247813721,-2.6515019575702112,5.591447162419119,1.1855124235153198,-5.448919717465536
1708435735.9898715,-1.703013300895691,-1.428760440354683,-2.652071539555685,5.588910388737478,1.186229944229126,-5.448827330266134
1708435735.991887,-1.7007920742034912,-1.4292613726905365,-2.6525426546679896,5.586345958500662,1.1868412494659424,-5.448821131383077
1708435735.9938948,-1.698546290397644,-1.4298261863044281,-2.653076473866598,5.5838480470474146,1.1875516176223755,-5.448724452649252
1708435735.995874,-1.696297287940979,-1.430308298473694,-2.6535781065570276,5.581287550717153,1.188237190246582,-5.448758069668905
1708435735.9978924,-1.6940809488296509,-1.4307168138078232,-2.654064718876974,5.578786897450247,1.1888507604599,-5.448640827332632
1708435735.999893,-1.6918652057647705,-1.4311973017505188,-2.6545892397509974,5.576274621277609,1.1895201206207275,-5.4485530892955225
1708435736.0018885,-1.6896835565567017,-1.43168397367511,-2.6550686995135706,5.573800194054403,1.1902503967285156,-5.44853783050646
1708435736.0039077,-1.6874393224716187,-1.4321841460517426,-2.6555853525744837,5.571287381439962,1.1908164024353027,-5.4484779874431055
1708435736.0059085,-1.685252070426941,-1.432614193563797,-2.6560962835894983,5.568789768009939,1.191542387008667,-5.4484379331218165
1708435736.0079093,-1.6830617189407349,-1.433088944559433,-2.656616274510519,5.566241073399343,1.1922184228897095,-5.448434654866354
1708435736.0098867,-1.6809024810791016,-1.4335846465877076,-2.657041374837057,5.563678669720449,1.1928502321243286,-5.448379103337423
1708435736.011883,-1.6786876916885376,-1.4340111476233979,-2.6575236956225794,5.561139571457662,1.1934986114501953,-5.448277477418081
1708435736.0139008,-1.6764785051345825,-1.4345276218703766,-2.6580479780780237,5.558663832932272,1.1941627264022827,-5.448250238095419
1708435736.015875,-1.6742825508117676,-1.434973732834198,-2.6585972944842737,5.556177127152242,1.1947174072265625,-5.448247734700338
1708435736.0178964,-1.6720904111862183,-1.4354888659766694,-2.6590636412249964,5.553654002934255,1.1953831911087036,-5.44815564552416
1708435736.0198982,-1.6698909997940063,-1.435946987276413,-2.659524742756979,5.551134216576376,1.1959666013717651,-5.44813180366625
1708435736.021864,-1.6676568984985352,-1.4365342420390625,-2.6600292364703577,5.548623847752371,1.1965341567993164,-5.4480841795550745
1708435736.023902,-1.665439486503601,-1.4369183045676728,-2.660509173070089,5.546131837158956,1.1971343755722046,-5.448059980069296
1708435736.0258617,-1.6632473468780518,-1.437385306959488,-2.6609838644610804,5.543589699059286,1.1977466344833374,-5.448052469884054
1708435736.0279253,-1.6610381603240967,-1.4379019004157563,-2.6614792982684534,5.541162657528677,1.19839608669281,-5.447972003613607
1708435736.0298917,-1.6588765382766724,-1.438436121945717,-2.6619303862201136,5.538754033833303,1.1989538669586182,-5.447973136101858
1708435736.0318983,-1.6567796468734741,-1.438840077524521,-2.662384335194723,5.536128091603079,1.1995534896850586,-5.447904829178945
1708435736.0338957,-1.6544785499572754,-1.43938963234935,-2.6628766695605677,5.533644544869222,1.2001864910125732,-5.44788104692568
1708435736.0358806,-1.6523114442825317,-1.4398499590209504,-2.663344685231344,5.531162011414327,1.2008483409881592,-5.447815720235006
1708435736.037882,-1.650164008140564,-1.4402750891498108,-2.663778845463888,5.528774249344625,1.2014598846435547,-5.447834316884176
1708435736.039904,-1.6478976011276245,-1.4407586765340348,-2.664295260106222,5.526359247952261,1.2020750045776367,-5.447777752076284
1708435736.041866,-1.6457291841506958,-1.4412861478379746,-2.664743725453512,5.5237905261810205,1.2026597261428833,-5.447713855897085
1708435736.0439084,-1.6435147523880005,-1.4417296063951035,-2.6651597658740442,5.521345126419821,1.2032359838485718,-5.447718207036154
1708435736.0458634,-1.6413244009017944,-1.442249284391739,-2.6656363646136683,5.518819558411398,1.2037553787231445,-5.447658304368154
1708435736.0478768,-1.639075756072998,-1.4427000296166916,-2.666075054799215,5.516291785031118,1.2043269872665405,-5.447597686444418
1708435736.0498822,-1.6368498802185059,-1.443182111983635,-2.66651422182192,5.513783323555746,1.2048801183700562,-5.447557334099905
1708435736.051874,-1.634661316871643,-1.443651558165886,-2.6669541041003626,5.51140325048522,1.2054771184921265,-5.447586778794424
1708435736.053881,-1.632470965385437,-1.444131390457489,-2.667457644139425,5.508957612305441,1.2060117721557617,-5.447543446217672
1708435736.0558805,-1.6302906274795532,-1.4445571911386033,-2.6679263750659388,5.506442355900564,1.2065562009811401,-5.447494391595022
1708435736.0578792,-1.6280486583709717,-1.4450858694365998,-2.66836125055422,5.503890502243795,1.207103967666626,-5.447483603154318
1708435736.0598762,-1.6259018182754517,-1.4454840433648606,-2.668800179158346,5.501331913262167,1.2076321840286255,-5.447409693394796
1708435736.0618894,-1.6236821413040161,-1.4460293886116524,-2.669259850178854,5.498921918659963,1.2081348896026611,-5.447406832371847
1708435736.0638824,-1.6215072870254517,-1.4464715731194993,-2.6697071234332483,5.496457803040304,1.20867121219635,-5.447386984025137
1708435736.065885,-1.6193183660507202,-1.446943038409092,-2.6701751391040247,5.4941290495689294,1.2092477083206177,-5.447355810795919
1708435736.067894,-1.6170941591262817,-1.4474228259972115,-2.670654837285177,5.491600143700399,1.209821105003357,-5.447332803403036
1708435736.069873,-1.6148979663848877,-1.4479218882373353,-2.671093527470724,5.489105391293325,1.2104209661483765,-5.44734907547106
1708435736.0718822,-1.6126736402511597,-1.4484412533095856,-2.6715367476092737,5.486547815590658,1.2110176086425781,-5.4472678939448755
1708435736.0739212,-1.6104339361190796,-1.4488338765553017,-2.671978775654928,5.4841187475021265,1.2115119695663452,-5.4472894112216395
1708435736.0758753,-1.6082907915115356,-1.4493478697589417,-2.6724591890918177,5.481660175114431,1.2121251821517944,-5.44722414413561
1708435736.0779066,-1.6060665845870972,-1.4498034876636048,-2.6728983561145228,5.479258882790365,1.212697982788086,-5.44717646041979
1708435736.079904,-1.6038874387741089,-1.450325832968094,-2.673410717641012,5.4767939923103235,1.2131601572036743,-5.447168533002035
1708435736.081893,-1.601656198501587,-1.4508482602289696,-2.673840347920553,5.4742992399032495,1.213736653327942,-5.447124246750967
1708435736.0838892,-1.599421739578247,-1.451248751287796,-2.6743045488940638,5.4718015668685815,1.214324951171875,-5.4470646421061915
1708435736.0858662,-1.5971944332122803,-1.4517623719624062,-2.6746774355517786,5.469355094223776,1.2148652076721191,-5.447089497243063
1708435736.0878859,-1.5950500965118408,-1.4521927174976845,-2.675150696431295,5.466986286431112,1.215315818786621,-5.4470699469195765
1708435736.0898824,-1.5928428173065186,-1.4526586693576355,-2.6755133310901087,5.464599120407858,1.2158595323562622,-5.447053734456198
1708435736.0918827,-1.590699315071106,-1.453163207774498,-2.6759255568133753,5.462164747505941,1.2162994146347046,-5.4470094482051294
1708435736.0938754,-1.5884709358215332,-1.453625963335373,-2.6762834231006067,5.459718274861135,1.216762900352478,-5.447041575108663
1708435736.0958786,-1.5863091945648193,-1.4540845838240166,-2.676732603703634,5.457283127098837,1.2172918319702148,-5.447005037461416
1708435736.0978734,-1.5840318202972412,-1.454551452105381,-2.6771565119372767,5.454875516682424,1.2177839279174805,-5.4470699469195765
1708435736.0998855,-1.5818778276443481,-1.4550398674658318,-2.6774984041797083,5.452436435013571,1.2182068824768066,-5.447053734456198
1708435736.1018667,-1.5797083377838135,-1.4555638891509552,-2.6778691450702112,5.450038540154257,1.2186956405639648,-5.447041575108663
1708435736.1039073,-1.5775233507156372,-1.4560434234193345,-2.6782856623279017,5.447681116848745,1.2191107273101807,-5.447058145199911
1708435736.1059005,-1.5753318071365356,-1.4564512234977265,-2.678608004246847,5.445343959122457,1.2195301055908203,-5.447077576314108
1708435736.1079054,-1.5731079578399658,-1.4570270267179986,-2.6789868513690394,5.442912626057424,1.2199108600616455,-5.44705701271166
1708435736.1099083,-1.5709158182144165,-1.4574472916177292,-2.6793225447284144,5.440477299481191,1.2203277349472046,-5.447032872830526
1708435736.111872,-1.5687222480773926,-1.4579446923783799,-2.6796863714801233,5.438122021942892,1.2206823825836182,-5.447098139916555
1708435736.1139214,-1.5665078163146973,-1.4583702397397538,-2.6800175348864954,5.435798215657034,1.2211284637451172,-5.447133843098776
1708435736.1159155,-1.5643205642700195,-1.4588696372560044,-2.6803529898272913,5.433471548348226,1.2214634418487549,-5.447125260029928
1708435736.117897,-1.5621674060821533,-1.459341087644436,-2.6807170549975794,5.431142556458273,1.2217943668365479,-5.447162393723623
1708435736.1199028,-1.5599440336227417,-1.459817611878254,-2.6810973326312464,5.428778099804678,1.2221870422363281,-5.447165552769796
1708435736.1218638,-1.5577609539031982,-1.4602593940547486,-2.6813581625567835,5.426392543106832,1.2225394248962402,-5.4471198360072535
1708435736.1239111,-1.5555827617645264,-1.460665987139084,-2.6817477385150355,5.424100625305929,1.2228994369506836,-5.447208944951193
1708435736.1258848,-1.553343415260315,-1.4612494197538872,-2.682041947041647,5.4217790243919275,1.2231507301330566,-5.447232786809103
1708435736.127888,-1.5511283874511719,-1.4616259944489975,-2.6823414007769983,5.419438528805532,1.2234922647476196,-5.447237078343527
1708435736.1299036,-1.5489667654037476,-1.4620847564986725,-2.682608668004171,5.41718070486144,1.2237629890441895,-5.447296921406881
1708435736.1318653,-1.5467486381530762,-1.4625836175731202,-2.6829407850848597,5.414923655777731,1.2240225076675415,-5.447259847317831
1708435736.133888,-1.5445730686187744,-1.4630345788649102,-2.6832481066333216,5.412646639138021,1.2242456674575806,-5.44731188217272
1708435736.135913,-1.542321801185608,-1.4635064613870163,-2.683577362691061,5.410303103714742,1.2244778871536255,-5.447316233311788
1708435736.1378949,-1.5400373935699463,-1.463960551922657,-2.6837950388537806,5.40804939249114,1.2247908115386963,-5.447393182908193
1708435736.1399205,-1.5378832817077637,-1.4643799302032967,-2.6840508619891565,5.40578858831481,1.2250430583953857,-5.4474327007876795
1708435736.141896,-1.5356941223144531,-1.4648233887604256,-2.684314791356222,5.4036263702209375,1.2252296209335327,-5.447435681019918
1708435736.1438806,-1.5335239171981812,-1.4653521490148087,-2.6845770517932337,5.401350784092703,1.2254818677902222,-5.447464172040121
1708435736.145895,-1.5312882661819458,-1.4658029538444062,-2.684807840977804,5.399071681290426,1.225759506225586,-5.447492305432455
1708435736.1478887,-1.5290782451629639,-1.4662345808795472,-2.685117546712057,5.3968461630638025,1.226008653640747,-5.447573725377218
1708435736.149867,-1.5269135236740112,-1.4666522529772301,-2.6853964964496058,5.394505190640249,1.2262758016586304,-5.4476603905307215
1708435736.1518707,-1.5246700048446655,-1.467191533451416,-2.6856613794909876,5.392262089043417,1.226539969444275,-5.447663668786184
1708435736.1538935,-1.5225027799606323,-1.4676218417337914,-2.6858959833728235,5.390067207604208,1.2267875671386719,-5.447722498570577
1708435736.1558747,-1.520301342010498,-1.4680398491076012,-2.6861239115344446,5.387732255249777,1.2269340753555298,-5.447786394749777
1708435736.1578813,-1.5180835723876953,-1.4685400289348145,-2.6863892714129847,5.385506379395284,1.2272077798843384,-5.44791549841036
1708435736.1598816,-1.5159311294555664,-1.468966768389084,-2.6865716616259974,5.383314358979025,1.2273094654083252,-5.447934035454885
1708435736.161867,-1.5137442350387573,-1.4694133338383217,-2.6868067423449915,5.381074178009786,1.2275468111038208,-5.447997156773702
1708435736.1638737,-1.5114684104919434,-1.4699151080897828,-2.6870389620410364,5.378738570004263,1.2277030944824219,-5.448126260434286
1708435736.1659112,-1.5092395544052124,-1.4703270953944703,-2.6872742811786097,5.3765485165412805,1.227870225906372,-5.448214117680685
1708435736.1678755,-1.5070632696151733,-1.4708152574351807,-2.6875675360309046,5.374351012497701,1.2280786037445068,-5.4482519070254725
1708435736.1698806,-1.5048472881317139,-1.4712542456439515,-2.687798563634054,5.372263657837667,1.2282543182373047,-5.448397759591238
1708435736.171918,-1.5026631355285645,-1.4717399191907425,-2.688005510960714,5.37003521898345,1.2284539937973022,-5.448460642491476
1708435736.1738768,-1.5004329681396484,-1.4722266656211396,-2.688228432332174,5.367829668312826,1.2286098003387451,-5.448532048855917
1708435736.1759076,-1.4982266426086426,-1.472679154281952,-2.688406531010763,5.365576016693868,1.2287418842315674,-5.448623363171713
1708435736.1779218,-1.496050477027893,-1.4731299740127106,-2.688697163258688,5.363340008049764,1.2289350032806396,-5.448657993470327
1708435736.1799004,-1.4938693046569824,-1.473597602253296,-2.688915793095724,5.361080515175619,1.2290703058242798,-5.448725525532858
1708435736.181905,-1.4916468858718872,-1.474003480081894,-2.689122740422384,5.35883508899764,1.2292786836624146,-5.448850337659017
1708435736.1838875,-1.489497184753418,-1.4744877529195328,-2.689371172581808,5.356591868191519,1.2294631004333496,-5.448933724557058
1708435736.185909,-1.4873207807540894,-1.4749115419438859,-2.6895883719073694,5.354402887612142,1.2296189069747925,-5.4490578214274805
1708435736.1879177,-1.4851270914077759,-1.4754444521716614,-2.6897860209094446,5.352195012360372,1.2297784090042114,-5.449111942444937
1708435736.1898699,-1.4829273223876953,-1.475890801554062,-2.6899195353137415,5.349936711579122,1.2298657894134521,-5.449241224919454
1708435736.1918943,-1.4807277917861938,-1.4762895566276093,-2.690127436314718,5.347770380764761,1.2300066947937012,-5.449283544217245
1708435736.1939147,-1.478491187095642,-1.4767809373191376,-2.6903327147113245,5.345642494946279,1.2300775051116943,-5.4494397083865564
1708435736.19595,-1.4763035774230957,-1.4771960836699982,-2.690512482319967,5.343521404057302,1.230181097984314,-5.449548248444692
1708435736.1979074,-1.4740952253341675,-1.477696606223919,-2.690695587788717,5.341382372170248,1.2303380966186523,-5.449643556271688
1708435736.1998858,-1.4719287157058716,-1.4781351548484345,-2.6909006277667444,5.339234995632925,1.23039710521698,-5.449722234402792
1708435736.201929,-1.469700813293457,-1.4786400359920044,-2.6911285559283655,5.337096738606252,1.2305303812026978,-5.449834946786062
1708435736.2038786,-1.4675315618515015,-1.4790417712977906,-2.691288773213522,5.334932911186971,1.2305817604064941,-5.449901346360342
1708435736.2059016,-1.4653021097183228,-1.4795000416091462,-2.6915133635150355,5.332824218064108,1.2306818962097168,-5.450028065835134
1708435736.2079077,-1.4631242752075195,-1.4800093931010743,-2.69163161913027,5.330656635552206,1.2307541370391846,-5.450148646031515
1708435736.209898,-1.4609580039978027,-1.4804574114135285,-2.6918116251574915,5.328490960388937,1.2307486534118652,-5.450296227131979
1708435736.211924,-1.458722710609436,-1.480866090660431,-2.691946331654684,5.326418089657583,1.2308293581008911,-5.450370196496145
1708435736.2139068,-1.456558346748352,-1.481347219353058,-2.692118469868795,5.324326443463125,1.230860710144043,-5.450498346482412
1708435736.215921,-1.4543532133102417,-1.481814668779709,-2.692277256642477,5.3221433637435815,1.2309132814407349,-5.450657848511831
1708435736.217917,-1.4521158933639526,-1.4822624337724228,-2.692442003880636,5.320112633496084,1.2308915853500366,-5.45068741241564
1708435736.2199085,-1.4499719142913818,-1.4827055645040055,-2.692524496709005,5.317920255451956,1.2309690713882446,-5.450849060212271
1708435736.2219164,-1.4476948976516724,-1.4831044313362618,-2.6926844755755823,5.315825152188101,1.2309528589248657,-5.451011661683218
1708435736.2238972,-1.4454494714736938,-1.4835642737201233,-2.6927955786334437,5.31376467922286,1.2309528589248657,-5.451187793408529
1708435736.225875,-1.4432636499404907,-1.4840478611043473,-2.6929453055011194,5.31169884183959,1.2309690713882446,-5.451327685509817
1708435736.2278795,-1.441051721572876,-1.4844750326922913,-2.6929903666125696,5.3096476075942896,1.2309211492538452,-5.451454703007833
1708435736.2298768,-1.4388455152511597,-1.4849765461734314,-2.6931687037097376,5.307666826039114,1.2308359146118164,-5.451622072850363
1708435736.2319057,-1.4366554021835327,-1.485367776160576,-2.6932929197894495,5.305614578514852,1.2307510375976562,-5.451805655156271
1708435736.2338676,-1.4344604015350342,-1.485898272400238,-2.6933394114123743,5.30358366945342,1.2306756973266602,-5.451967958603994
1708435736.2358832,-1.432279348373413,-1.4862850171378632,-2.693411175404684,5.301507580071249,1.230599284172058,-5.452160481606619
1708435736.2378874,-1.4300901889801025,-1.486632452612259,-2.693514649068014,5.29954873302535,1.2305107116699219,-5.452327553425924
1708435736.2399101,-1.427941083908081,-1.4870938819697876,-2.6936164538012903,5.297495293408193,1.2304354906082153,-5.4525010029422205
1708435736.2418883,-1.4257407188415527,-1.4876241844943543,-2.6936658064471644,5.295454072743215,1.2304006814956665,-5.452713851128713
1708435736.243896,-1.4235496520996094,-1.4879971903613587,-2.693712298070089,5.293496179371633,1.230279564857483,-5.452920083199636
1708435736.245917,-1.4213261604309082,-1.4884615999511261,-2.693782393132345,5.291559386044302,1.2301585674285889,-5.453078810368673
1708435736.247902,-1.4191638231277466,-1.4888886672309418,-2.6937885920154017,5.28962670543746,1.2300667762756348,-5.453305904065267
1708435736.2498884,-1.416898250579834,-1.4893456262401124,-2.693799082432882,5.287641870766439,1.229881763458252,-5.453520599995748
1708435736.2518792,-1.4146976470947266,-1.4897515040687104,-2.693811003361837,5.285730111389913,1.2297788858413696,-5.453772429619924
1708435736.253912,-1.4124702215194702,-1.4902486068061371,-2.6938558260547083,5.283779668598928,1.2296348810195923,-5.45398444334139
1708435736.2559662,-1.410271167755127,-1.4906458717635651,-2.6939130465136927,5.281873690872946,1.2293959856033325,-5.454207662736074
1708435736.257888,-1.4080692529678345,-1.4910942551544686,-2.6938980261432093,5.279985713749685,1.2292286157608032,-5.454413835202352
1708435736.2598963,-1.4059638977050781,-1.4915074122003098,-2.6938725153552454,5.278139817505636,1.2290323972702026,-5.4546895066844385
1708435736.261903,-1.403768539428711,-1.4919941288283844,-2.6938753763781946,5.276178169041433,1.2287958860397339,-5.454911176358358
1708435736.2639835,-1.401573657989502,-1.4924032253078003,-2.6938889662372034,5.2743491409118555,1.2285361289978027,-5.45511365333666
1708435736.2660422,-1.3993412256240845,-1.4928914618543168,-2.693812672291891,5.272518980294027,1.2282230854034424,-5.455438856278555
1708435736.267952,-1.397141695022583,-1.49332748473201,-2.693779532109396,5.270651447563925,1.2279601097106934,-5.4557417074786585
1708435736.2699814,-1.3949772119522095,-1.4937140804580231,-2.6937196890460413,5.268824147969045,1.227658987045288,-5.455926422272817
1708435736.2719247,-1.3927878141403198,-1.4942202132991333,-2.693667236958639,5.266997623234548,1.2273471355438232,-5.456226114426748
1708435736.273927,-1.3905328512191772,-1.4946380120566864,-2.6936238447772425,5.265097248345175,1.2270748615264893,-5.4565163294421595
1708435736.2759104,-1.388321876525879,-1.4950784903815766,-2.693580452595846,5.263340043812551,1.2267423868179321,-5.456921641026632
1708435736.277919,-1.3861167430877686,-1.4954875868609925,-2.693475310002462,5.261567103653707,1.2263751029968262,-5.457184914742605
1708435736.2799342,-1.3839877843856812,-1.4959493440440674,-2.6933870951281946,5.259799051075735,1.226070523262024,-5.45742512146105
1708435736.281963,-1.381734848022461,-1.496395693426468,-2.693310562764303,5.258131432324209,1.225677490234375,-5.457800928746359
1708435736.2839892,-1.3794852495193481,-1.4968571227839966,-2.6932056585894983,5.256285238056936,1.2252861261367798,-5.458172682915823
1708435736.2859354,-1.3772566318511963,-1.4972450298121949,-2.6931594053851526,5.254521417408743,1.224934697151184,-5.458498720322744
1708435736.2878826,-1.3750534057617188,-1.4977379900268097,-2.6930890719043177,5.252822088986196,1.2244610786437988,-5.458788637314932
1708435736.2899046,-1.3728502988815308,-1.4981573683074494,-2.6929813067065638,5.2511223433311365,1.2240331172943115,-5.459086541329519
1708435736.291883,-1.3707023859024048,-1.4986061614802857,-2.692867104207174,5.249391424446859,1.2235448360443115,-5.45948297182192
1708435736.2938633,-1.3685227632522583,-1.4990612131408234,-2.692726437245504,5.247784960060873,1.2230926752090454,-5.459866766129629
1708435736.295852,-1.3662878274917603,-1.499472865169384,-2.692611281071798,5.246116208821096,1.2226481437683105,-5.46019155183901
1708435736.2978768,-1.3641645908355713,-1.4999378782561799,-2.6925199667560022,5.2444625971610925,1.2222373485565186,-5.460566882287161
1708435736.2999039,-1.3619672060012817,-1.5004205864718934,-2.6923955122577112,5.242771911412039,1.2217158079147339,-5.460950080548422
1708435736.3018599,-1.3597636222839355,-1.5008574289134522,-2.692322079335348,5.241088259011068,1.2212733030319214,-5.46133274236788
1708435736.303862,-1.3575598001480103,-1.501273938720562,-2.6920958201037806,5.239441382675924,1.2207233905792236,-5.461706284676687
1708435736.305928,-1.3553463220596313,-1.5017565202764054,-2.6920042673694056,5.2377991555030725,1.2202191352844238,-5.462162260209219
1708435736.3078876,-1.353134274482727,-1.5021767628243943,-2.6918278376208704,5.2362791178520105,1.2196754217147827,-5.462563816701071
1708435736.309884,-1.3509138822555542,-1.5026671227863808,-2.691648070012228,5.23465912321166,1.2191648483276367,-5.462986294423239
1708435736.311864,-1.3487071990966797,-1.503074550335743,-2.6915324370013636,5.233097481518545,1.218591570854187,-5.463401440774099
1708435736.3138547,-1.3465396165847778,-1.5035851460746308,-2.691348139439718,5.231551456242361,1.2181004285812378,-5.463831845914022
1708435736.3158662,-1.3443171977996826,-1.5039654684117814,-2.6911311785327356,5.229934799462118,1.2175443172454834,-5.464281980191366
1708435736.3179073,-1.3421956300735474,-1.5043892425349732,-2.690976683293478,5.2284191129501245,1.2169597148895264,-5.464703087006704
1708435736.3198624,-1.3399666547775269,-1.5048945260098954,-2.6908181349383753,5.226868200093069,1.2163792848587036,-5.465121094380514
1708435736.3218632,-1.3377587795257568,-1.5053948175958176,-2.6906099955188196,5.225283252983846,1.2158236503601074,-5.465563003216879
1708435736.323877,-1.3356411457061768,-1.5057730463198205,-2.6904104391681116,5.223777580052175,1.2152172327041626,-5.466057483349935
1708435736.3258576,-1.3333481550216675,-1.506210134630539,-2.690139357243673,5.22231005409316,1.2146334648132324,-5.466515843068258
1708435736.3278852,-1.3312314748764038,-1.5067348790219803,-2.6899731794940394,5.2207496640975855,1.2140247821807861,-5.466970030461447
1708435736.3298974,-1.3289786577224731,-1.5071710434607049,-2.6898353735553187,5.219219732075491,1.213391661643982,-5.46750128666033
1708435736.3318675,-1.326818585395813,-1.5076440137675782,-2.689544741307394,5.217726695328512,1.2127810716629028,-5.467942718659536
1708435736.33389,-1.3245800733566284,-1.5080689576319237,-2.689371172581808,5.216254699021139,1.2121151685714722,-5.468379918728964
1708435736.3358703,-1.3223754167556763,-1.5085431200316926,-2.689143482838766,5.2148247239883325,1.2114795446395874,-5.4689024726497095
1708435736.3378851,-1.3201079368591309,-1.508978472357132,-2.688939873372213,5.213298487454214,1.2108021974563599,-5.469414953385488
1708435736.3398805,-1.317912220954895,-1.5095003892532368,-2.688690964375631,5.211851584702291,1.2101500034332275,-5.469889167939321
1708435736.3418686,-1.3157196044921875,-1.5099226360074063,-2.688427273427145,5.210416841297903,1.2094866037368774,-5.470435742531912
1708435736.3439069,-1.31354820728302,-1.5103857678226014,-2.6881590525256556,5.2089702663715265,1.2087815999984741,-5.470952634011404
1708435736.3458617,-1.3113293647766113,-1.510850967173912,-2.6878984610186976,5.2075291750724695,1.2080525159835815,-5.4714906255351465
1708435736.3478858,-1.3090749979019165,-1.511308954363205,-2.6876843611346644,5.2061717984969995,1.207365870475769,-5.47207218805422
1708435736.3498604,-1.3069812059402466,-1.5118143421462555,-2.687420670186178,5.204748469382086,1.2066329717636108,-5.472539965306417
1708435736.3518574,-1.3047895431518555,-1.512262502019741,-2.687147919331686,5.203412729292669,1.2059897184371948,-5.473122541104452
1708435736.3538907,-1.3025634288787842,-1.5127042394927521,-2.6868918577777308,5.201952862530508,1.2052949666976929,-5.473640207444326
1708435736.3558674,-1.3003978729248047,-1.5131973338178177,-2.6866584459887903,5.200623798161306,1.2045331001281738,-5.474188868199484
1708435736.3578885,-1.2981942892074585,-1.513678864841797,-2.686319653187887,5.199254262238302,1.2038493156433105,-5.47476309934725
1708435736.3598776,-1.2959538698196411,-1.5142009493759652,-2.6860650221454065,5.197897183686056,1.2030919790267944,-5.475411955510275
1708435736.361859,-1.2937787771224976,-1.5146527712098141,-2.6858394781695765,5.196609157114782,1.202348232269287,-5.4759268204318445
1708435736.363898,-1.2915213108062744,-1.5151443046382447,-2.685540262852804,5.1952790198619745,1.2015998363494873,-5.47656232515444
1708435736.3658674,-1.2893260717391968,-1.515587405567505,-2.6852272192584437,5.193830120354452,1.2008068561553955,-5.477176074181692
1708435736.3678937,-1.2871770858764648,-1.516071942900755,-2.684951368962423,5.192532765656271,1.2000758647918701,-5.4777318874942225
1708435736.3698742,-1.2849162817001343,-1.5165252585760136,-2.6846564451800745,5.191173094301977,1.1993155479431152,-5.478354517613546
1708435736.3718743,-1.2827682495117188,-1.516966038649418,-2.684418026600973,5.189902263670721,1.1985312700271606,-5.479004208241598
1708435736.3739145,-1.2805606126785278,-1.5174922694316884,-2.6840246359454554,5.188650893955984,1.1977907419204712,-5.479633394871847
1708435736.3758676,-1.2783201932907104,-1.5179441173425694,-2.683737103139059,5.187333810120382,1.1969985961914062,-5.480275396500723
1708435736.3779054,-1.276164174079895,-1.5184541431120415,-2.6834538618670862,5.186085063010015,1.1961863040924072,-5.480909232293264
1708435736.3798757,-1.273978590965271,-1.5188773919693013,-2.6830900351153772,5.184912252217092,1.1953660249710083,-5.481576863919393
1708435736.3818805,-1.271764874458313,-1.5193875928274174,-2.68278676668276,5.183615493565359,1.1945785284042358,-5.482200388108389
1708435736.3838983,-1.269590973854065,-1.5198523339680214,-2.6824339071856897,5.1823869226272485,1.1937631368637085,-5.482883576546804
1708435736.385886,-1.267317295074463,-1.520378579651453,-2.682122532521383,5.1811691401298425,1.1929142475128174,-5.483501259480612
1708435736.3881476,-1.2651658058166504,-1.5209157590619107,-2.6818504969226282,5.179942238121786,1.1920974254608154,-5.484200660382406
1708435736.3898838,-1.2629386186599731,-1.5213306632689019,-2.6815388838397425,5.178708660393514,1.1912232637405396,-5.484902326260702
1708435736.3918762,-1.2607601881027222,-1.5218196597746392,-2.6811705271350306,5.177579301386633,1.1903376579284668,-5.485575739537374
1708435736.3938978,-1.2585222721099854,-1.5223128025284787,-2.6808765570269983,5.176330971508779,1.1894779205322266,-5.486315135155813
1708435736.3958867,-1.2563351392745972,-1.5228094843081017,-2.6804962793933313,5.175182688027181,1.1885638236999512,-5.487016085778372
1708435736.397871,-1.2540884017944336,-1.523310263907053,-2.680153195058004,5.173977452307501,1.187711238861084,-5.487700227891104
1708435736.3998885,-1.2518935203552246,-1.5238615733436127,-2.6798058191882532,5.1729227481182,1.1868232488632202,-5.488438729439871
1708435736.4018676,-1.2497174739837646,-1.524312936966755,-2.6794686953174036,5.171844321280279,1.1859430074691772,-5.489182893429891
1708435736.403907,-1.247558355331421,-1.524836180066206,-2.679056946431295,5.170731800585546,1.1851106882095337,-5.4899131695376795
1708435736.4059277,-1.245282769203186,-1.5252990511110802,-2.678775135670797,5.169641840248861,1.1841769218444824,-5.490625325833456
1708435736.4079056,-1.2430723905563354,-1.5258214634707947,-2.6784067789660853,5.168569195061483,1.183300256729126,-5.491357986127035
1708435736.4099364,-1.2409170866012573,-1.5264128607562562,-2.678063694630758,5.167465883284368,1.182345986366272,-5.492090586815969
1708435736.4118855,-1.238749623298645,-1.5268589717200776,-2.677703920994894,5.1664908705051324,1.1814846992492676,-5.4928404728518885
1708435736.4138713,-1.236596703529358,-1.5273180280676861,-2.6773322264300745,5.165381896286764,1.1805567741394043,-5.493595604096548
1708435736.4158862,-1.2343614101409912,-1.5278890219381829,-2.6769593397723597,5.1643986878688715,1.1796318292617798,-5.494364563618795
1708435736.417889,-1.2320798635482788,-1.5284796518138428,-2.676568333302633,5.1632799980934045,1.1786785125732422,-5.495132569466726
1708435736.4198964,-1.2299433946609497,-1.5289535385421296,-2.676196877156393,5.162257987051763,1.177712321281433,-5.495955232773916
1708435736.4218767,-1.2277278900146484,-1.5294469159892579,-2.6758297125445765,5.161263692169943,1.17677640914917,-5.496719304715292
1708435736.4238632,-1.2255107164382935,-1.529934623544552,-2.6754372755633753,5.160289186030187,1.1757793426513672,-5.497515443955557
1708435736.425904,-1.2233359813690186,-1.5305500787547608,-2.6750779787646692,5.159340131073751,1.174781084060669,-5.498365406190054
1708435736.4278803,-1.2211071252822876,-1.531061665420868,-2.6747034231769007,5.158288079291143,1.1737923622131348,-5.4992221037494105
1708435736.4299288,-1.2188652753829956,-1.531606239532568,-2.674357239400045,5.15744440534667,1.1728506088256836,-5.5001046697246
1708435736.4318879,-1.216766357421875,-1.5322276887348671,-2.673922840748922,5.156477737217703,1.1718462705612183,-5.5009536186801355
1708435736.4338844,-1.2144919633865356,-1.5327610534480591,-2.6735063234912317,5.155546831875601,1.170809268951416,-5.501799706612722
1708435736.4358585,-1.2123034000396729,-1.5333055716804047,-2.6731672922717493,5.154641854553976,1.1697674989700317,-5.502645615731375
1708435736.437859,-1.2101714611053467,-1.5338806000402947,-2.67275315919985,5.153735357313909,1.1687990427017212,-5.503486160431997
1708435736.4398937,-1.2079427242279053,-1.5344103065184136,-2.6723857561694544,5.152895289450445,1.1677978038787842,-5.50443143049349
1708435736.441866,-1.205763339996338,-1.5350315657309075,-2.671994749699728,5.15198831537322,1.166812777519226,-5.5052998701678675
1708435736.4438934,-1.203522801399231,-1.5355759722045441,-2.6716321150409144,5.151160377054968,1.1657664775848389,-5.506203655396597
1708435736.4458544,-1.201293706893921,-1.5360960264554997,-2.6711753050433558,5.1502765891845605,1.1647756099700928,-5.5071327725993555
1708435736.4478621,-1.199135422706604,-1.5366807740977784,-2.6707499662982386,5.1494096396263025,1.1637159585952759,-5.508105162774221
1708435736.4498463,-1.1969165802001953,-1.5373102662018319,-2.670347038899557,5.148648756533422,1.162753701210022,-5.509049359952108
1708435736.4518564,-1.1947245597839355,-1.5377973106554528,-2.66993219057192,5.147788840323248,1.161699652671814,-5.510059122239248
1708435736.453863,-1.1924769878387451,-1.5384808865240593,-2.6695364157306116,5.147076505213537,1.1606354713439941,-5.510953430329458
1708435736.4558783,-1.1903506517410278,-1.5390390020659943,-2.669126335774557,5.146273898869314,1.1595488786697388,-5.511990968381063
1708435736.4578712,-1.1881462335586548,-1.5396121007255097,-2.668774191533224,5.14548225977973,1.1585456132888794,-5.512966756020681
1708435736.4598665,-1.1859210729599,-1.5402158808759232,-2.668363634740011,5.144752818136968,1.157496452331543,-5.51394242445101
1708435736.4618654,-1.1837557554244995,-1.540816619326808,-2.6679237524615687,5.14401866772727,1.1564048528671265,-5.514996532593862
1708435736.4638584,-1.1815543174743652,-1.5414248959026118,-2.667544428502218,5.143337207823553,1.155363917350769,-5.515970710908071
1708435736.4658678,-1.1793842315673828,-1.5420571018806477,-2.6671040693866175,5.142647552281179,1.1543512344360352,-5.5170844236956995
1708435736.4679086,-1.1771351099014282,-1.5426889167032023,-2.666679922734396,5.141929137497701,1.1532896757125854,-5.518063012753622
1708435736.4698553,-1.1749318838119507,-1.5432971765151997,-2.6663132349597376,5.14121766665534,1.1522290706634521,-5.519175295029775
1708435736.4718766,-1.1727608442306519,-1.5439640127918501,-2.665898148213522,5.140592205315389,1.1511565446853638,-5.520195964966909
1708435736.473848,-1.1704801321029663,-1.5445093431374808,-2.665445868168966,5.1398527202899835,1.1501436233520508,-5.521215144787924
1708435736.475846,-1.1683058738708496,-1.5451206670007487,-2.6650756041156214,5.139185386687078,1.1490577459335327,-5.52221799293627
1708435736.4778717,-1.1661211252212524,-1.5457670737854023,-2.664630953465597,5.138541805535116,1.1479843854904175,-5.523254756127493
1708435736.4798522,-1.163970708847046,-1.5464071084610005,-2.6642280260669153,5.137971985131063,1.146842122077942,-5.524296883736746
1708435736.4818974,-1.1616930961608887,-1.5470313888839264,-2.6638296286212366,5.137333053141393,1.1457605361938477,-5.525277797375814
1708435736.4838657,-1.159497618675232,-1.5477026023766776,-2.6634147802936,5.1367848990257166,1.14472496509552,-5.526441756878988
1708435736.4858537,-1.1573387384414673,-1.5483468931964417,-2.662941280995504,5.1360709247882745,1.1435506343841553,-5.527498487626211
1708435736.4878902,-1.1551427841186523,-1.548962877397873,-2.6625803152667444,5.135550159006872,1.1424864530563354,-5.528551224862234
1708435736.4898674,-1.152894139289856,-1.5496279460242768,-2.662130657826559,5.134884077101507,1.1413731575012207,-5.529575053845541
1708435736.4918547,-1.1507256031036377,-1.5502539438060303,-2.661699358616964,5.134365308075704,1.140271782875061,-5.530688230191366
1708435736.4938655,-1.1484839916229248,-1.5509115376374503,-2.6613128821002405,5.133787053614416,1.139178991317749,-5.531782392655508
1708435736.4958568,-1.1463356018066406,-1.5515794616988678,-2.660896603261129,5.13314642289237,1.1381186246871948,-5.5328426400767725
1708435736.497874,-1.1441421508789062,-1.552203969364502,-2.660494867955343,5.132568585663595,1.1369764804840088,-5.533878270779745
1708435736.4998677,-1.1419833898544312,-1.5529749256423493,-2.6600454489337366,5.132026392012396,1.1358954906463623,-5.535088543091909
1708435736.501845,-1.1397572755813599,-1.553568248902895,-2.659614388142721,5.131507861405172,1.1347935199737549,-5.536129717026846
1708435736.5039082,-1.1375689506530762,-1.5541614194265385,-2.659191910420553,5.130875962763586,1.1337425708770752,-5.537236813698904
1708435736.5059273,-1.1353517770767212,-1.5548634690097352,-2.6587348620044153,5.130304115801611,1.132632851600647,-5.538377408181326
1708435736.5079238,-1.1331173181533813,-1.5555882018855591,-2.658360544835226,5.129851835757055,1.1315356492996216,-5.539500598107473
1708435736.5098777,-1.130928635597229,-1.556268261080124,-2.657957379017965,5.129262107401647,1.1304781436920166,-5.540652815495626
1708435736.511869,-1.1286953687667847,-1.5568690256080409,-2.6575244108783167,5.128780174046316,1.1293268203735352,-5.5418517033206385
1708435736.5139213,-1.1264784336090088,-1.5576577645591279,-2.657126251851217,5.128310012608328,1.1282426118850708,-5.54301500717272
1708435736.5158672,-1.1242750883102417,-1.5582954513705154,-2.6567021051989954,5.127885180502691,1.1271921396255493,-5.544163052235739
1708435736.5179107,-1.122162103652954,-1.5589537185481568,-2.6563125292407435,5.127330082445898,1.1259957551956177,-5.545293215905325
1708435736.5198574,-1.1199067831039429,-1.5596285055256267,-2.6558921972857874,5.126810955792227,1.1248794794082642,-5.546513501797811
1708435736.52187,-1.117722511291504,-1.5603502311608572,-2.6554530302630823,5.126324045449056,1.1238367557525635,-5.547714237366812
1708435736.5238678,-1.1155716180801392,-1.561019862336554,-2.655019823704855,5.1258486090000055,1.1227142810821533,-5.548937801514761
1708435736.5258589,-1.1133389472961426,-1.561688538906612,-2.6546245257007044,5.125390368490972,1.1216254234313965,-5.550133053456442
1708435736.5278838,-1.1112004518508911,-1.5624291033348818,-2.6542425791369837,5.12489332535819,1.1205905675888062,-5.551237944756643
1708435736.5298972,-1.1089746952056885,-1.5631403753398736,-2.653842274342672,5.124427544861593,1.1194965839385986,-5.552466694508688
1708435736.5318618,-1.1067678928375244,-1.5638713485426088,-2.6534605661975306,5.12395070770339,1.1183992624282837,-5.553645674382345
1708435736.5338576,-1.104630947113037,-1.5645719797215243,-2.65302020708193,5.12349950054244,1.117321491241455,-5.554796580468313
1708435736.5358524,-1.1024014949798584,-1.5651875671795388,-2.652665440236227,5.123105603247442,1.116224765777588,-5.555960718785421
1708435736.5378807,-1.1001989841461182,-1.5659099447405715,-2.652200762425558,5.1225832281406305,1.115038514137268,-5.557105366383688
1708435736.5398955,-1.0979716777801514,-1.5666383474930008,-2.6517964045154017,5.122249173908987,1.1139754056930542,-5.558207575474874
1708435736.5418596,-1.0957159996032715,-1.5673321278630574,-2.651376787816183,5.121825414686956,1.1128662824630737,-5.559363249932424
1708435736.5438874,-1.0935606956481934,-1.5680097204497834,-2.6509998480426233,5.121321636229315,1.1117414236068726,-5.560546104107992
1708435736.5458832,-1.091397762298584,-1.5687490871972223,-2.650552813206808,5.120952057629385,1.1106195449829102,-5.561697546635763
1708435736.547871,-1.0891860723495483,-1.56938538319476,-2.6501994768725794,5.120545673161306,1.1095515489578247,-5.5628772417651575
1708435736.5498648,-1.0870442390441895,-1.5701587703409423,-2.649832550679342,5.120147216110983,1.1083881855010986,-5.564051155244009
1708435736.5518847,-1.0848052501678467,-1.5708676777281703,-2.6493831316577356,5.119612204819479,1.10738205909729,-5.56527674594988
1708435736.5538692,-1.082665205001831,-1.5715686283507289,-2.649041716252462,5.119213539152899,1.1062687635421753,-5.566398564969198
1708435736.5558894,-1.0804715156555176,-1.5722981892027796,-2.6485922972308558,5.118778008013525,1.1051698923110962,-5.567530159150259
1708435736.557864,-1.078194499015808,-1.573047777215475,-2.648271624241964,5.118367659836569,1.1040287017822266,-5.568762962018148
1708435736.5599182,-1.0759801864624023,-1.5737177334227503,-2.647871796284811,5.117969083576956,1.1029939651489258,-5.570022467766897
1708435736.5618765,-1.0737627744674683,-1.5744358501830042,-2.6474841276751917,5.117555397539892,1.1019209623336792,-5.5712613503085535
1708435736.5638754,-1.0715115070343018,-1.5752002201476039,-2.647109095250265,5.117189931660452,1.1008193492889404,-5.572419766579763
1708435736.5658765,-1.0692622661590576,-1.5758911571898402,-2.6467095057116907,5.116813707142629,1.0997395515441895,-5.57369959751238
1708435736.5678728,-1.0670993328094482,-1.576625486413473,-2.6462932268725794,5.116452592402258,1.0986027717590332,-5.574869636689321
1708435736.5698624,-1.0648750066757202,-1.5773965320982875,-2.6458407084094446,5.116043615132131,1.0974814891815186,-5.576194349919454
