Eg3-git/Classifiers/Data Collection/u3/u3star5_ur3e_joint_states.csv
time,elbow_joint,shoulder_lift_joint,shoulder_pan_joint,wrist_1_joint,wrist_2_joint,wrist_3_joint
1708435821.2623618,-2.14768648147583,-1.3342171174338837,-2.523352924977438,6.121895301132955,1.0116294622421265,-5.4618404547320765
1708435821.264373,-2.1476433277130127,-1.3341887307218094,-2.523393217717306,6.121805894165792,1.0116188526153564,-5.461816791688101
1708435821.2663524,-2.1475868225097656,-1.3342452955297013,-2.5233519713031214,6.1216516373451135,1.011667013168335,-5.461846355591909
1708435821.268386,-2.14749813079834,-1.3342582893422623,-2.5233832041369837,6.121560680657186,1.0116955041885376,-5.461759928856985
1708435821.2704082,-2.147430658340454,-1.3341649186662217,-2.5234161059008997,6.121425735741415,1.0117361545562744,-5.461761299763815
1708435821.272345,-2.147379159927368,-1.334156335597374,-2.523428265248434,6.121355640679159,1.0117392539978027,-5.461752478276388
1708435821.2743552,-2.1473190784454346,-1.3341397655061265,-2.523472611104147,6.12121199348525,1.0117708444595337,-5.461777631436483
1708435821.2763457,-2.147243022918701,-1.3341411662152787,-2.5235043207751673,6.121059524803915,1.0118080377578735,-5.46174937883486
1708435821.2783558,-2.1472043991088867,-1.334141196017601,-2.5235000292407435,6.120956408768453,1.0118893384933472,-5.461667184029714
1708435821.2803612,-2.1471195220947266,-1.3341411662152787,-2.5235121885882776,6.1207830784614465,1.0119121074676514,-5.461708847676412
1708435821.282351,-2.1471123695373535,-1.3341540557197114,-2.523515526448385,6.120717036515035,1.0119524002075195,-5.4617255369769495
1708435821.2843792,-2.1469993591308594,-1.3340689551881333,-2.523572031651632,6.120507943421163,1.011967658996582,-5.461680595074789
1708435821.2863946,-2.146944761276245,-1.3341093820384522,-2.5236623922931116,6.1203733561332605,1.0120036602020264,-5.461673144494192
1708435821.2883716,-2.1469085216522217,-1.334081233744957,-2.5236528555499476,6.120232689171591,1.0120398998260498,-5.46165377298464
1708435821.2903752,-2.1468658447265625,-1.3340365302613755,-2.523639742528097,6.120105969696798,1.0121041536331177,-5.461637381707327
1708435821.2923512,-2.146792411804199,-1.334098533993103,-2.523688856755392,6.119957911759176,1.0121523141860962,-5.461671713982717
1708435821.2943535,-2.1467819213867188,-1.3340658110431214,-2.523724619542257,6.119866835861959,1.0122305154800415,-5.461592380200521
1708435821.2963583,-2.1466848850250244,-1.3340495389750977,-2.5237489382373255,6.119748580246725,1.0122864246368408,-5.461626712475912
1708435821.2983606,-2.146641731262207,-1.3340335947326203,-2.5237279574023646,6.119632231980123,1.0123130083084106,-5.461556736622946
1708435821.3003561,-2.146597385406494,-1.3340378564647217,-2.5237727800952356,6.119491684227743,1.0123943090438843,-5.461581770573751
1708435821.3023937,-2.1465134620666504,-1.333993138079979,-2.5237508455859583,6.119406211167135,1.0123807191848755,-5.461579028760092
1708435821.3043826,-2.146428108215332,-1.3339975041202088,-2.5237911383258265,6.119274604111471,1.0124907493591309,-5.461534086857931
1708435821.3063598,-2.146463394165039,-1.3340094250491639,-2.5238283316241663,6.119089591294088,1.0125147104263306,-5.461468223725454
1708435821.308354,-2.146350145339966,-1.3339733195355912,-2.5238359610186976,6.119002687722006,1.0125324726104736,-5.461456600819723
1708435821.310341,-2.1462857723236084,-1.3340030771544953,-2.5239091555224817,6.118845689087667,1.0125943422317505,-5.461470131074087
1708435821.3123817,-2.1462841033935547,-1.3339570623687287,-2.523892943059103,6.11873077133254,1.0125764608383179,-5.461453739796774
1708435821.3143587,-2.146219253540039,-1.3339615327170868,-2.523916784917013,6.1186139462287805,1.0126335620880127,-5.461446170006887
1708435821.3163414,-2.1461434364318848,-1.3339495819858094,-2.5239155928241175,6.118540870934286,1.012686014175415,-5.461413089429037
1708435821.3183734,-2.1460487842559814,-1.3339181703380127,-2.5239885489093226,6.118445265084066,1.0127296447753906,-5.461471561585562
1708435821.3203464,-2.1460437774658203,-1.3339387637427826,-2.5239647070514124,6.118325578957357,1.0127578973770142,-5.4614474217044275
1708435821.322348,-2.1459755897521973,-1.3338896495154877,-2.524003807698385,6.118147718697347,1.0128151178359985,-5.46135658422579
1708435821.3243663,-2.145869731903076,-1.3338690263083954,-2.524064842854635,6.118089425354757,1.0128257274627686,-5.461349133645193
1708435821.3263588,-2.1458802223205566,-1.3338778030923386,-2.524008099232809,6.117989289551534,1.012882947921753,-5.461381558571951
1708435821.3283603,-2.145803213119507,-1.333836482172348,-2.5241008440600794,6.117886411934652,1.0129188299179077,-5.461370054875509
1708435821.3303542,-2.1457595825195312,-1.3338615459254761,-2.5240801016436976,6.117778527527609,1.0129008293151855,-5.461362485085623
1708435821.3323565,-2.1456966400146484,-1.333809496169426,-2.5240758101092737,6.117729174881735,1.0129131078720093,-5.46134734550585
1708435821.334354,-2.145610809326172,-1.3338505190661927,-2.5241077581988733,6.117584097176351,1.012953519821167,-5.461330954228536
1708435821.336339,-2.1456127166748047,-1.3338583272746583,-2.5240958372699183,6.117464411049642,1.0129817724227905,-5.461315695439474
1708435821.3383517,-2.145503044128418,-1.3338428449681778,-2.52419358888735,6.117397415428915,1.013029932975769,-5.461328093205587
1708435821.3403747,-2.145472288131714,-1.3338062924197693,-2.524217669163839,6.1172311184699915,1.013028621673584,-5.461315695439474
1708435821.3423495,-2.145477294921875,-1.3337896925261994,-2.5241881052600306,6.117100226670065,1.0131068229675293,-5.46132463613619
1708435821.3443425,-2.145360231399536,-1.333810643558838,-2.524191681538717,6.116999375611105,1.0131595134735107,-5.461266879235403
1708435821.346376,-2.1453652381896973,-1.3338357371142884,-2.52417499223818,6.116921770363607,1.0131655931472778,-5.461312834416525
1708435821.3483493,-2.1452760696411133,-1.33378221214328,-2.524264399205343,6.116814243584432,1.0132150650024414,-5.461256150399343
1708435821.3503392,-2.1452574729919434,-1.3337540489486237,-2.5242229143725794,6.116718637734213,1.0132554769515991,-5.4612189571010035
1708435821.3523622,-2.145116090774536,-1.333794043665268,-2.5242887179004114,6.116619813233175,1.0133037567138672,-5.461232427750723
1708435821.3543577,-2.1451170444488525,-1.3337746423533936,-2.5242515246020716,6.116515385895529,1.0132689476013184,-5.461183253918783
1708435821.3563654,-2.145055055618286,-1.3337417703918,-2.5242636839496058,6.116388189583578,1.0133217573165894,-5.461170975361959
1708435821.3583627,-2.1450412273406982,-1.333771513109543,-2.524254862462179,6.116304504662313,1.013383388519287,-5.4611427823649805
1708435821.3603737,-2.1449766159057617,-1.3337878298810502,-2.52433687845339,6.116216647415914,1.0134029388427734,-5.4611844460116785
1708435821.3623698,-2.1449501514434814,-1.3337671768716355,-2.524348799382345,6.11610888221816,1.0134601593017578,-5.461163584386007
1708435821.364374,-2.144892692565918,-1.333665983085968,-2.524332586918966,6.116053449898519,1.01346755027771,-5.461090330277578
1708435821.3663476,-2.144850254058838,-1.3336985272220154,-2.5243855158435267,6.1159247038658044,1.0135003328323364,-5.461106661950247
1708435821.3683927,-2.1448094844818115,-1.3337235015681763,-2.524388853703634,6.115854489594259,1.0135353803634644,-5.461174015198843
1708435821.3703492,-2.144765615463257,-1.333669201736786,-2.5243595282184046,6.11574553230361,1.0135589838027954,-5.461120132599966
1708435821.3723536,-2.144705295562744,-1.3337429922870179,-2.5244203249560755,6.115642535477438,1.0135968923568726,-5.461092118416921
1708435821.3743718,-2.1446938514709473,-1.333674670462944,-2.5244532267199915,6.115542399674215,1.0136163234710693,-5.461005095635549
1708435821.376369,-2.14465069770813,-1.333702878361084,-2.5244324843036097,6.115462887078085,1.0136431455612183,-5.461030785237448
1708435821.3783937,-2.1446099281311035,-1.3337072295001526,-2.5244150797473353,6.115388142853536,1.0136268138885498,-5.461072448884146
1708435821.38037,-2.144595146179199,-1.3336386692574997,-2.524447743092672,6.115289675980367,1.0136762857437134,-5.46102744737734
1708435821.3823557,-2.1444854736328125,-1.3336790365031739,-2.524489227925436,6.115207421570577,1.0136464834213257,-5.461039666329519
1708435821.384361,-2.1445436477661133,-1.3336224120906373,-2.5244508425342005,6.1150879738624475,1.0137289762496948,-5.460985783730642
1708435821.3863802,-2.14444637298584,-1.3336593073657532,-2.5245047251330774,6.1150128720100305,1.0137276649475098,-5.461078409348623
1708435821.3884132,-2.144422769546509,-1.3336224120906373,-2.5244630018817347,6.1149412272270105,1.013768196105957,-5.460961941872732
1708435821.3903859,-2.144423484802246,-1.3336398166469117,-2.5245283285724085,6.114881622582235,1.013780117034912,-5.460979823266165
1708435821.392434,-2.144317626953125,-1.333603025679924,-2.524515453969137,6.114734995156088,1.013778567314148,-5.461028997098104
1708435821.394395,-2.1443352699279785,-1.333631919031479,-2.5245516935931605,6.1147873280342,1.0137993097305298,-5.460979823266165
1708435821.3963885,-2.144303560256958,-1.3336275678924103,-2.524572197590963,6.114719974785604,1.0138267278671265,-5.460976843033926
1708435821.398379,-2.144284963607788,-1.3335747432759781,-2.5245874563800257,6.114631879120626,1.013843059539795,-5.460930411015646
1708435821.400358,-2.144235610961914,-1.3335418564132233,-2.5245960394488733,6.114509451180258,1.0138474702835083,-5.460910979901449
1708435821.402357,-2.1441922187805176,-1.3335834306529541,-2.5245829264270228,6.114474880486288,1.013855218887329,-5.460952762757437
1708435821.4043562,-2.144115686416626,-1.3335387122682114,-2.524571243916647,6.1144165871436975,1.0138702392578125,-5.460916999970571
1708435821.4063425,-2.1441075801849365,-1.333550588493683,-2.524639670048849,6.114338743477621,1.0139317512512207,-5.460912529622213
1708435821.4083574,-2.14406681060791,-1.3335668307593842,-2.524627749119894,6.114295470505514,1.0139484405517578,-5.4609572927104395
1708435821.4103634,-2.1440889835357666,-1.3335637015155335,-2.524611298237936,6.11419557312087,1.0139797925949097,-5.460916999970571
1708435821.4123971,-2.1440367698669434,-1.3335102063468476,-2.524635378514425,6.114130723267355,1.0139799118041992,-5.460867826138632
1708435821.414351,-2.1439995765686035,-1.3335681420615693,-2.524618927632467,6.114063966065206,1.0140448808670044,-5.460867826138632
1708435821.4163759,-2.143972396850586,-1.3335518550923844,-2.52468449274172,6.11407898643569,1.0140068531036377,-5.460855905209677
1708435821.418359,-2.143894672393799,-1.3335518699935456,-2.524668280278341,6.1139412997062585,1.0140881538391113,-5.460876766835348
1708435821.4203591,-2.1439032554626465,-1.333559350376465,-2.524729315434591,6.113848674088278,1.0140714645385742,-5.4608333746539515
1708435821.422399,-2.1438724994659424,-1.3335352700999756,-2.52468449274172,6.113807904511251,1.0141003131866455,-5.460825506840841
1708435821.4243758,-2.143839120864868,-1.3334919226220627,-2.5246921221362513,6.113750088005819,1.0140913724899292,-5.460815433655874
1708435821.4264054,-2.1438565254211426,-1.3335451048663636,-2.5246835390674036,6.113618480950155,1.0141167640686035,-5.4608498255359095
1708435821.4283702,-2.1438379287719727,-1.3335114282420655,-2.5246713797198694,6.1136138317878626,1.0141198635101318,-5.460837785397665
1708435821.4303503,-2.1437931060791016,-1.3334831309369584,-2.52467924753298,6.113628732949056,1.0141481161117554,-5.460779730473654
1708435821.4323764,-2.1437947750091553,-1.3334669035724183,-2.5247650782214563,6.1134822247321985,1.014115333557129,-5.460816685353414
1708435821.434356,-2.1437408924102783,-1.3334831458381196,-2.5247162024127405,6.11343930938796,1.0141198635101318,-5.460767869149343
1708435821.4363763,-2.143737316131592,-1.333446354871132,-2.524719540272848,6.113367187767782,1.0141600370407104,-5.460816685353414
1708435821.4383454,-2.143709182739258,-1.3334888380816956,-2.5247519651996058,6.1132956621940515,1.0141891241073608,-5.4607975522624415
1708435821.4403512,-2.143676519393921,-1.3335006249002,-2.524735752736227,6.113280522614279,1.0141754150390625,-5.460788611565725
1708435821.4423523,-2.1436641216278076,-1.3334308725646515,-2.524792734776632,6.113228070526876,1.0142054557800293,-5.460760001336233
1708435821.4443593,-2.1436543464660645,-1.333484412436821,-2.524755303059713,6.1131595251853845,1.014212727546692,-5.460760001336233
1708435821.446353,-2.1436543464660645,-1.33348003149543,-2.524755303059713,6.11309968212203,1.0142536163330078,-5.460764471684591
1708435821.4483583,-2.1435792446136475,-1.3334177148393174,-2.524832789097921,6.113047230034628,1.014223337173462,-5.460712377225057
1708435821.4503329,-2.1435890197753906,-1.333426521425583,-2.5248034636126917,6.113048779755392,1.014240026473999,-5.460719887410299
1708435821.4523675,-2.1435279846191406,-1.3334431511214753,-2.524816338215963,6.112993705063619,1.0142430067062378,-5.460716847573416
1708435821.454342,-2.143566131591797,-1.333395541911461,-2.5247870127307337,6.112959372788229,1.014256477355957,-5.460770432149069
1708435821.4563456,-2.143521785736084,-1.3334440153888245,-2.5248435179339808,6.112890469818868,1.014255166053772,-5.460725788270132
1708435821.458344,-2.14349365234375,-1.3334233921817322,-2.524815384541647,6.112836348801412,1.01427161693573,-5.460734669362203
1708435821.4603343,-2.14349365234375,-1.333423377280571,-2.5248809496508997,6.112856018334188,1.014309048652649,-5.460684124623434
1708435821.4623442,-2.1434483528137207,-1.3334288907102128,-2.5248196760760706,6.112757670670309,1.0143167972564697,-5.4606643358813685
1708435821.464369,-2.1434459686279297,-1.333398388033249,-2.524827305470602,6.112685429840841,1.014319658279419,-5.4606855551349085
1708435821.4663525,-2.143387794494629,-1.3334288609078904,-2.5247979799853724,6.112727629929342,1.0143495798110962,-5.4606855551349085
1708435821.4683905,-2.143385171890259,-1.3333626699498673,-2.524888340626852,6.112606274872579,1.0143406391143799,-5.460713867341177
1708435821.4703622,-2.1433486938476562,-1.33344520748172,-2.524872128163473,6.112615334778585,1.014352798461914,-5.46068108478655
1708435821.4723442,-2.1433820724487305,-1.3334200841239472,-2.5248635450946253,6.11254237869338,1.0143810510635376,-5.460652474557058
1708435821.47435,-2.143312454223633,-1.333351508980133,-2.524907890950338,6.112527119904318,1.0143647193908691,-5.460682336484091
1708435821.4763265,-2.1433300971984863,-1.333412916665413,-2.5249362627612513,6.11250005939559,1.0143964290618896,-5.4606778661357325
1708435821.4783304,-2.143298387527466,-1.3333637875369568,-2.524879757558004,6.112380730896749,1.0143719911575317,-5.460645083581106
1708435821.4803586,-2.1432859897613525,-1.3333146435073395,-2.5249365011798304,6.112379061966696,1.0144010782241821,-5.460641745720999
1708435821.4823632,-2.143275260925293,-1.333323435192444,-2.5248785654651087,6.112338530808248,1.0143793821334839,-5.460628394280569
1708435821.4843435,-2.143312454223633,-1.3333594363978882,-2.5249157587634485,6.112298714905538,1.0144248008728027,-5.460621360932485
1708435821.4863822,-2.1432628631591797,-1.3333603304675599,-2.5249276796924036,6.112278926163473,1.0144367218017578,-5.460628394280569
1708435821.488373,-2.1432504653930664,-1.3333603304675599,-2.5248950163470667,6.112238395005026,1.014427661895752,-5.460621360932485
1708435821.490404,-2.1431808471679688,-1.3333725792220612,-2.524919096623556,6.112219202309408,1.0144490003585815,-5.460600439702169
1708435821.4923635,-2.1432435512542725,-1.3332948845675965,-2.524926726018087,6.112163769989767,1.0144894123077393,-5.46063465276827
1708435821.4943593,-2.143174648284912,-1.3333071929267426,-2.5249887148486536,6.112156379013815,1.0144894123077393,-5.460601870213644
1708435821.4963548,-2.1431334018707275,-1.333332137470581,-2.524939839039938,6.112057673722067,1.0144879817962646,-5.460597399865286
1708435821.4983523,-2.143157958984375,-1.3332506728223343,-2.524943176900045,6.112047183304586,1.0145375728607178,-5.460585180913107
1708435821.500354,-2.143118143081665,-1.333352730875351,-2.524959389363424,6.112102615624227,1.0145375728607178,-5.460594181214468
1708435821.5023482,-2.1431710720062256,-1.333315835600235,-2.524947468434469,6.1120009301002405,1.0145044326782227,-5.460594181214468
1708435821.504358,-2.143089771270752,-1.3333364886096497,-2.524979893361227,6.111989009171285,1.014561653137207,-5.46058971086611
1708435821.506343,-2.143094301223755,-1.3332714450410386,-2.524991814290182,6.112002479821005,1.01456618309021,-5.460570339356558
1708435821.5083482,-2.1430695056915283,-1.3333289635232468,-2.524987522755758,6.111903655319967,1.0145947933197021,-5.460586671029226
1708435821.5103405,-2.1430537700653076,-1.333308072095253,-2.524991814290182,6.111859190254965,1.0145689249038696,-5.460573319588796
1708435821.5123475,-2.143038034439087,-1.333287702207901,-2.5250006357776087,6.111786949425497,1.0146229267120361,-5.460553948079244
1708435821.514375,-2.143059730529785,-1.3332758408835907,-2.5249910990344446,6.111829149513998,1.0145930051803589,-5.460553948079244
1708435821.5163922,-2.1430625915527344,-1.333300770526268,-2.525003973637716,6.111808168679037,1.0145841836929321,-5.460541848336355
1708435821.518352,-2.1430230140686035,-1.333320991402008,-2.525032345448629,6.111809479981222,1.014604926109314,-5.460553948079244
1708435821.5203488,-2.1430060863494873,-1.3333051067641755,-2.5250161329852503,6.11171709278182,1.0146458148956299,-5.460483912621633
1708435821.522336,-2.143014669418335,-1.3332888644984742,-2.5250442663775843,6.111713874131002,1.014620304107666,-5.460546139870779
1708435821.524344,-2.143040418624878,-1.3332681369832535,-2.5250118414508265,6.111685502320089,1.0145959854125977,-5.460574869309561
1708435821.5263438,-2.1429741382598877,-1.333277018075325,-2.5250399748431605,6.1116076586540125,1.0146458148956299,-5.460501853619711
1708435821.528337,-2.1430041790008545,-1.3332757514766236,-2.525003258381979,6.111633407860555,1.0146818161010742,-5.4605300466166895
1708435821.5303428,-2.1429476737976074,-1.3332638156465073,-2.5250075499164026,6.111577737122335,1.0146204233169556,-5.460530106221334
1708435821.5323563,-2.1429803371429443,-1.33328132451091,-2.525043312703268,6.111577737122335,1.0146695375442505,-5.460522596036093
1708435821.5343497,-2.1429221630096436,-1.3332441312125702,-2.5251219908343714,6.111562835961141,1.0146939754486084,-5.460522655640737
1708435821.5363374,-2.1429734230041504,-1.333276943569519,-2.5249932448016565,6.111506211548605,1.0147316455841064,-5.460518185292379
1708435821.5383532,-2.142928123474121,-1.333306298857071,-2.525075976048605,6.111506211548605,1.0146470069885254,-5.460536007081167
1708435821.540357,-2.1428744792938232,-1.3332278293422242,-2.5250638167010706,6.11147021034316,1.0146515369415283,-5.460477713738577
1708435821.5423398,-2.1429572105407715,-1.3332595539144059,-2.5251131693469446,6.111423599510946,1.0147013664245605,-5.460486654435293
1708435821.544376,-2.142876148223877,-1.3332321357778092,-2.525075976048605,6.111508953362264,1.0146968364715576,-5.460491124783651
1708435821.5463698,-2.142850637435913,-1.3332528185895463,-2.5250638167010706,6.111419665604391,1.0146968364715576,-5.460498575364248
1708435821.5483646,-2.1428382396698,-1.3332365316203614,-2.525071684514181,6.111337053566732,1.0147089958190918,-5.460423771535055
1708435821.550361,-2.1428353786468506,-1.3332190078547974,-2.5250967184649866,6.111325132637777,1.0146833658218384,-5.460474733506338
1708435821.5523593,-2.1428232192993164,-1.333236501818039,-2.525108877812521,6.111362683563986,1.0146758556365967,-5.460474733506338
1708435821.5543897,-2.1428186893463135,-1.3331961941770096,-2.525046412144796,6.111314761429586,1.0147089958190918,-5.460474673901693
1708435821.5563567,-2.1428487300872803,-1.3332246106914063,-2.525120798741476,6.111307370453634,1.0147372484207153,-5.460412148629324
1708435821.5583498,-2.1427879333496094,-1.3332246106914063,-2.5250914732562464,6.111297118454733,1.0147662162780762,-5.460397068654196
1708435821.5603735,-2.1428239345550537,-1.3332080406001587,-2.525104347859518,6.11131631115035,1.014744758605957,-5.4604461828814905
1708435821.562408,-2.1427886486053467,-1.3332079958966752,-2.525079313908712,6.111249077111044,1.0147526264190674,-5.460446123276846
1708435821.5643935,-2.14277982711792,-1.3332036596587677,-2.525079313908712,6.111183392792501,1.0147734880447388,-5.460397068654196
1708435821.5663698,-2.14277982711792,-1.333237664108612,-2.5250750223742884,6.111225354462423,1.0147356986999512,-5.460441652928488
1708435821.5683608,-2.1427559852600098,-1.3332615953734894,-2.5251076857196253,6.1111429808433435,1.0148018598556519,-5.460392538701193
1708435821.5703535,-2.1427178382873535,-1.3331992787173768,-2.52509576479067,6.111147391587057,1.0148005485534668,-5.460427168999807
1708435821.572361,-2.142735481262207,-1.3332210940173645,-2.525111977254049,6.111108767777242,1.0148018598556519,-5.460450534020559
1708435821.5743682,-2.1427040100097656,-1.3332080256989975,-2.5250826517688196,6.11108015754775,1.0148260593414307,-5.460394028817312
1708435821.5763664,-2.1426784992218018,-1.3331961941770096,-2.52509576479067,6.111075746804037,1.0148260593414307,-5.460455004368917
1708435821.578363,-2.1426703929901123,-1.3332047921470185,-2.525128428136007,6.111068236618795,1.0148169994354248,-5.460405830536978
1708435821.5803673,-2.1426916122436523,-1.333159552221634,-2.52509576479067,6.111024844437399,1.014833688735962,-5.460402969514028
1708435821.5823536,-2.1427090167999268,-1.3332124662450333,-2.5251241366015833,6.1109845516975305,1.0148169994354248,-5.460377637539999
1708435821.5844781,-2.142679214477539,-1.3332047921470185,-2.525161091481344,6.1109962342079065,1.0148532390594482,-5.460370186959402
1708435821.5863612,-2.1426808834075928,-1.3332334172776719,-2.5250945726977747,6.110923039704122,1.014915108680725,-5.460379187260763
1708435821.5883613,-2.1426475048065186,-1.3331713837436219,-2.5251358191119593,6.110945689469137,1.0148859024047852,-5.46037465730776
1708435821.590373,-2.142639398574829,-1.3332048070481797,-2.525118414555685,6.11085461357192,1.0148860216140747,-5.460419360791342
1708435821.5923448,-2.142664909362793,-1.3332047921470185,-2.525102202092306,6.110868203430929,1.0148365497589111,-5.460348967705862
1708435821.594366,-2.1426851749420166,-1.3332298559001465,-2.5251315275775355,6.110855924874105,1.0148320198059082,-5.460379187260763
1708435821.5963619,-2.142611265182495,-1.333200530414917,-2.5251110235797327,6.11082016208724,1.0148155689239502,-5.460368577633993
1708435821.5983558,-2.1426656246185303,-1.333172546034195,-2.525140349064962,6.110829102783956,1.0148200988769531,-5.460407380257742
1708435821.6003623,-2.1426525115966797,-1.3331647527268906,-2.52510649362673,6.110803353577413,1.0149013996124268,-5.460334543381826
1708435821.6023552,-2.1426005363464355,-1.3331932139447709,-2.5251598993884485,6.110776650696554,1.0149195194244385,-5.460357968007223
1708435821.604374,-2.1425750255584717,-1.3332298559001465,-2.525151316319601,6.110769259720602,1.0148532390594482,-5.460374597703115
1708435821.606366,-2.142559289932251,-1.3331516844085236,-2.5251479784594935,6.110757338791647,1.0149149894714355,-5.460371319447653
1708435821.608386,-2.1426260471343994,-1.3331639182618638,-2.5251720587359827,6.110752808838644,1.0148770809173584,-5.460354928170339
1708435821.61035,-2.1425766944885254,-1.3331603121808548,-2.5251598993884485,6.11073778846816,1.0149134397506714,-5.460354928170339
1708435821.6123846,-2.1425881385803223,-1.3331647676280518,-2.5251928011523646,6.110734927445211,1.0149177312850952,-5.46033883491625
1708435821.6143663,-2.142596960067749,-1.3331813675216218,-2.5251720587359827,6.110680806427755,1.0148544311523438,-5.460343364869253
1708435821.6163862,-2.1425247192382812,-1.3331353676370163,-2.525167767201559,6.110680806427755,1.0148969888687134,-5.460375789796011
1708435821.6183815,-2.142568588256836,-1.3331647676280518,-2.525212113057272,6.110715377121725,1.0149178504943848,-5.460330073033468
1708435821.620373,-2.142540454864502,-1.3331440103105088,-2.525183979664938,6.110631930619039,1.0149013996124268,-5.460338894520895
1708435821.622371,-2.142507791519165,-1.333132193689682,-2.5251556078540247,6.110649812012472,1.0148589611053467,-5.460330073033468
1708435821.6243613,-2.142529010772705,-1.3331571829370041,-2.525167767201559,6.110609400063314,1.014937400817871,-5.460301462803976
1708435821.6263602,-2.1424953937530518,-1.333136574631073,-2.5252209345446985,6.110552298813619,1.0149178504943848,-5.460343364869253
1708435821.6283736,-2.1424999237060547,-1.3331440550139924,-2.525179688130514,6.110585200577535,1.014937400817871,-5.4603058139430445
1708435821.6303835,-2.1425209045410156,-1.3331945103457947,-2.5251830259906214,6.1106183407600305,1.0149328708648682,-5.4603058139430445
1708435821.6323512,-2.1424927711486816,-1.3331397038749238,-2.5251546541797083,6.110542046814718,1.0149791240692139,-5.460331503544943
1708435821.6343687,-2.1424927711486816,-1.333133117561676,-2.525212113057272,6.110570418625631,1.014920711517334,-5.460290972386495
1708435821.636367,-2.142484664916992,-1.3331036877683182,-2.525219742451803,6.1105092642600916,1.0149627923965454,-5.460319284592764
1708435821.6383579,-2.142456531524658,-1.3331989359906693,-2.5251711050616663,6.1105761406715295,1.014941930770874,-5.460293893014089
1708435821.6403775,-2.1424522399902344,-1.333190069799759,-2.5251665751086634,6.110506045609274,1.0149656534194946,-5.46031636396517
1708435821.6423447,-2.142489194869995,-1.3331287664226075,-2.525187317525045,6.110489594727316,1.014937400817871,-5.460261110459463
1708435821.644393,-2.142436981201172,-1.333173469906189,-2.525224033986227,6.110494124680319,1.0149567127227783,-5.460311834012167
1708435821.6463754,-2.1424202919006348,-1.3331124496511002,-2.525224033986227,6.110461342125692,1.0149656534194946,-5.460286502038137
1708435821.6483824,-2.142428398132324,-1.3331168454936524,-2.525219742451803,6.11043010929183,1.014994740486145,-5.4603028933154505
1708435821.6503582,-2.142408847808838,-1.3331571978381653,-2.525195900593893,6.110416638642111,1.0149612426757812,-5.460270110760824
1708435821.652371,-2.1423842906951904,-1.3330993515304108,-2.525212113057272,6.110389458924093,1.0149447917938232,-5.460288051758901
1708435821.6543462,-2.142408847808838,-1.333149717455246,-2.525187317525045,6.110459673195638,1.0149656534194946,-5.460295442734854
1708435821.656347,-2.1423795223236084,-1.3331572127393265,-2.525191609059469,6.110357987671652,1.0149946212768555,-5.46027905145754
1708435821.6583507,-2.1424131393432617,-1.3331365299275895,-2.525231901799337,6.11039565780715,1.0149946212768555,-5.46025932232012
1708435821.660351,-2.1424062252044678,-1.3331005734256287,-2.525224033986227,6.1103625176246545,1.015023112297058,-5.460275713597433
1708435821.6623538,-2.142397403717041,-1.3331528466990967,-2.525224033986227,6.110329735070028,1.0149685144424438,-5.460225466881887
1708435821.6643937,-2.1423356533050537,-1.3331453514150162,-2.5252233187304896,6.110359656601705,1.0149685144424438,-5.460257891808645
1708435821.6663883,-2.1423568725585938,-1.3331541132977982,-2.525219742451803,6.110301363259115,1.0150110721588135,-5.460214738045828
1708435821.6684039,-2.1423840522766113,-1.333133117561676,-2.525215450917379,6.110343205719747,1.014990210533142,-5.460243288670675
1708435821.6703687,-2.1423399448394775,-1.3331156086972733,-2.5252440611468714,6.110256302147665,1.015027403831482,-5.460222248231069
1708435821.672419,-2.1423399448394775,-1.3331418347409745,-2.52522856393923,6.110298383026876,1.014990210533142,-5.4602254072772425
1708435821.6743526,-2.1423091888427734,-1.333154098396637,-2.525215450917379,6.110320913582601,1.015018343925476,-5.460226599370138
1708435821.676342,-2.142390012741089,-1.33310058832679,-2.5252066294299524,6.110262381821432,1.015001893043518,-5.460210208092825
1708435821.6783419,-2.142378568649292,-1.3331418198398133,-2.5252233187304896,6.1102309105689905,1.0149766206741333,-5.460210208092825
1708435821.6803768,-2.142324924468994,-1.333121196632721,-2.5252679030047815,6.1102685807044885,1.0150049924850464,-5.460247818623678
1708435821.6823602,-2.1423206329345703,-1.333149717455246,-2.5252233187304896,6.110211837082662,1.0149720907211304,-5.460252288972036
1708435821.6843364,-2.142279863357544,-1.33309622228656,-2.5252516905414026,6.110202896385946,1.0149550437927246,-5.460165385399954
1708435821.6863716,-2.1423091888427734,-1.333113656645157,-2.5252354780780237,6.110162246018209,1.0150302648544312,-5.460223678742544
1708435821.6884048,-2.1422572135925293,-1.3331049245646973,-2.5252636114703577,6.110187756806173,1.0150425434112549,-5.460177485142843
1708435821.6903737,-2.142268180847168,-1.3330723655274888,-2.5252187887774866,6.1101757166679285,1.0150213241577148,-5.460160676633016
1708435821.6923776,-2.1422886848449707,-1.3331255477717896,-2.5252636114703577,6.110180365830221,1.0150257349014282,-5.460198406373159
1708435821.694371,-2.1422815322875977,-1.333109275703766,-2.5252440611468714,6.110163914948263,1.015000343322754,-5.460162285958425
1708435821.6963983,-2.142214775085449,-1.3331298989108582,-2.525271240864889,6.110135304718771,1.015000343322754,-5.4602400104152125
1708435821.6983428,-2.142268419265747,-1.3331375134042283,-2.525247399006979,6.110109793930807,1.0150213241577148,-5.460261110459463
1708435821.7003572,-2.1422324180603027,-1.3331049245646973,-2.525214497243063,6.11014877536849,1.015000343322754,-5.460186425839559
1708435821.702387,-2.142240524291992,-1.3331049245646973,-2.5252311865436,6.1101159928138635,1.0150290727615356,-5.46017420688738
1708435821.7043486,-2.1422576904296875,-1.33309622228656,-2.525226656590597,6.110095011978903,1.0150290727615356,-5.460195366536276
1708435821.7063868,-2.1422665119171143,-1.3330930036357422,-2.5252841154681605,6.11008762100295,1.015016794204712,-5.46017420688738
1708435821.708372,-2.1422946453094482,-1.3331049245646973,-2.5252559820758265,6.110117542534628,1.015049934387207,-5.46016234556307
1708435821.7103515,-2.1422410011291504,-1.3330930036357422,-2.5252636114703577,6.110030638962545,1.0150588750839233,-5.460186485444204
1708435821.7123642,-2.1422295570373535,-1.33307238042865,-2.525247399006979,6.110086428910055,1.0150362253189087,-5.4601756970035
1708435821.7143455,-2.1422226428985596,-1.3331505072167893,-2.525266949330465,6.110048639565267,1.0150485038757324,-5.460195366536276
1708435821.7163842,-2.1422338485717773,-1.3330767166665574,-2.5253127256976526,6.1099856970603845,1.0150575637817383,-5.460153285657064
1708435821.7183418,-2.142204761505127,-1.3330810827067872,-2.5253005663501185,6.110041367798605,1.0150530338287354,-5.460145954285757
1708435821.7203715,-2.1422181129455566,-1.3330735129169007,-2.5252679030047815,6.109987246781149,1.015065312385559,-5.4601667563067835
1708435821.722335,-2.1422338485717773,-1.333121196632721,-2.52525502840151,6.110020386963644,1.0150742530822754,-5.460208837185995
1708435821.724343,-2.142242908477783,-1.3330767315677186,-2.5252354780780237,6.110020386963644,1.0150907039642334,-5.460199896489279
1708435821.7263339,-2.142200231552124,-1.3330854338458558,-2.525242869053976,6.109978186875143,1.015065312385559,-5.4601908961879175
1708435821.7283382,-2.142202138900757,-1.333035485153534,-2.525275532399313,6.10991262176589,1.015044093132019,-5.460162285958425
1708435821.730345,-2.14214825630188,-1.333084301357605,-2.5253127256976526,6.1099634049232385,1.0150935649871826,-5.460180107747213
1708435821.7323618,-2.14220929145813,-1.3330279153636475,-2.525259319935934,6.109953152924337,1.0151054859161377,-5.460199896489279
1708435821.7343504,-2.14219331741333,-1.3330735129169007,-2.5252679030047815,6.1099634049232385,1.0150727033615112,-5.460180107747213
1708435821.7363572,-2.142160654067993,-1.3330398362926026,-2.5252636114703577,6.10990201213912,1.0150890350341797,-5.460122231637136
1708435821.7383647,-2.142165184020996,-1.3331017059138794,-2.525250498448507,6.109945761948385,1.0150727033615112,-5.460192088280813
1708435821.740357,-2.1421279907226562,-1.3331255477717896,-2.525271240864889,6.109927642136373,1.0150935649871826,-5.460196439419882
1708435821.7423408,-2.142143964767456,-1.333106057052948,-2.525266949330465,6.109941231995382,1.0150772333145142,-5.460154894982473
1708435821.744355,-2.1421992778778076,-1.3330778640559693,-2.5252342859851282,6.109866249352255,1.0151478052139282,-5.460138920937673
1708435821.7463346,-2.14216947555542,-1.333106057052948,-2.5253127256976526,6.109879720001974,1.015138864517212,-5.460143331681387
1708435821.748377,-2.1421499252319336,-1.333069161777832,-2.5252962748156946,6.109884249954977,1.0150963068008423,-5.460180107747213
1708435821.750333,-2.1421570777893066,-1.3330485385707398,-2.525283161793844,6.109921562462606,1.015129804611206,-5.460180107747213
1708435821.7523465,-2.142134189605713,-1.3330735129169007,-2.5253127256976526,6.109863388329305,1.015113115310669,-5.460154894982473
1708435821.7543414,-2.1421263217926025,-1.3330648106387635,-2.52527887025942,6.109909641533651,1.0151253938674927,-5.460180107747213
1708435821.7563455,-2.1421782970428467,-1.3330767315677186,-2.5253410975085657,6.109857547074117,1.0151658058166504,-5.460154954587118
1708435821.7583547,-2.1421256065368652,-1.3330113154700776,-2.525283161793844,6.109778034477987,1.0151373147964478,-5.460129920636312
1708435821.760339,-2.1420960426330566,-1.3330778640559693,-2.525287453328268,6.109835016518392,1.0151625871658325,-5.460123662148611
1708435821.7623384,-2.1421263217926025,-1.3330854338458558,-2.5252953211413782,6.109841096192159,1.0151461362838745,-5.460135523472921
1708435821.7643478,-2.1421501636505127,-1.3330604594996949,-2.525303904210226,6.109832155495443,1.0151581764221191,-5.4601637164699
1708435821.7663348,-2.1420812606811523,-1.3330561083606263,-2.525283161793844,6.109786975174703,1.0151747465133667,-5.4601637164699
1708435821.7683542,-2.1421217918395996,-1.3330886524966736,-2.5252376238452356,6.109779345780172,1.0151703357696533,-5.4601566831218165
1708435821.7703393,-2.1421430110931396,-1.3330897849849244,-2.5252743403064173,6.109776484757223,1.015128254890442,-5.460152212773458
1708435821.772334,-2.1420812606811523,-1.3330615919879456,-2.525299612675802,6.109792816429891,1.0151491165161133,-5.4601566831218165
1708435821.774365,-2.1420888900756836,-1.3331017059138794,-2.525315825139181,6.109780895500936,1.015156865119934,-5.460152212773458
1708435821.7763495,-2.1420936584472656,-1.3330243688872834,-2.525311533604757,6.109767424851217,1.0151658058166504,-5.460135523472921
1708435821.7783675,-2.142106771469116,-1.333057240848877,-2.5252953211413782,6.10976933219985,1.015128254890442,-5.460159365330831
1708435821.7803605,-2.1420812606811523,-1.3330485385707398,-2.52533990541567,6.109757411270895,1.0151253938674927,-5.460117761288778
1708435821.7823532,-2.142064332962036,-1.3330409687808533,-2.525315825139181,6.109740721970358,1.0151491165161133,-5.4601221720324915
1708435821.7843745,-2.142073154449463,-1.3330985766700287,-2.52533990541567,6.109757411270895,1.0151777267456055,-5.460105840359823
1708435821.7863688,-2.142057418823242,-1.3330854338458558,-2.525315825139181,6.109806287079611,1.0151536464691162,-5.460102740918295
1708435821.7884471,-2.1420485973358154,-1.3331136268428345,-2.525320116673605,6.109766471176901,1.0151658058166504,-5.460072998200552
1708435821.790379,-2.1420774459838867,-1.3330279153636475,-2.525360647832052,6.109801757126608,1.0152153968811035,-5.4601028005229395
1708435821.7923546,-2.1420986652374268,-1.3330366176417847,-2.525311533604757,6.109719741135397,1.0151658058166504,-5.460172716771261
1708435821.7943463,-2.1420705318450928,-1.3330279153636475,-2.52533990541567,6.109778392105856,1.0151896476745605,-5.460152212773458
1708435821.7963772,-2.1420414447784424,-1.333069161777832,-2.5252953211413782,6.109757411270895,1.0151941776275635,-5.460153464470999
1708435821.7983437,-2.1420750617980957,-1.333045319919922,-2.5253029505359095,6.109742390900411,1.0151896476745605,-5.460128072892324
1708435821.8003495,-2.1420459747314453,-1.3330854338458558,-2.5253072420703333,6.109728801041403,1.0151896476745605,-5.460119132195608
1708435821.8023422,-2.142050266265869,-1.3330778640559693,-2.525372568761007,6.109707939415731,1.0151686668395996,-5.460107211266653
1708435821.804351,-2.1420466899871826,-1.3330897849849244,-2.5253475348102015,6.109704959183492,1.0151851177215576,-5.460123602543966
1708435821.8063862,-2.1420679092407227,-1.3330485385707398,-2.5253105799304407,6.109725940018453,1.0152230262756348,-5.460114602242605
1708435821.8083754,-2.142009735107422,-1.3330604594996949,-2.5253029505359095,6.109725940018453,1.0152440071105957,-5.4601057211505335
1708435821.8103633,-2.142016649246216,-1.3330080968192597,-2.5253236929522913,6.10973488071517,1.0151972770690918,-5.460119132195608
1708435821.81242,-2.142054557800293,-1.3330287647298356,-2.525372568761007,6.10964201667861,1.0152095556259155,-5.460119132195608
1708435821.814354,-2.142005205154419,-1.333057240848877,-2.5253236929522913,6.109746801644125,1.015225887298584,-5.460081819687979
1708435821.8163562,-2.1420228481292725,-1.333003745680191,-2.5253148714648646,6.109692799835958,1.0152230262756348,-5.460102740918295
1708435821.8183753,-2.142033576965332,-1.3330485385707398,-2.5253637472735804,6.109718429833212,1.0152018070220947,-5.460114602242605
1708435821.82035,-2.142037868499756,-1.333094136123993,-2.5253520647632044,6.109636175423422,1.0152512788772583,-5.460153464470999
1708435821.822341,-2.1419882774353027,-1.3330124777606507,-2.525322500859396,6.109627234726705,1.0152302980422974,-5.460161153470175
1708435821.8243709,-2.1420466899871826,-1.33307238042865,-2.5253432432757776,6.109598862915792,1.0152422189712524,-5.460172716771261
1708435821.8263633,-2.1419930458068848,-1.3330528897098084,-2.5253356138812464,6.109655368119039,1.0151838064193726,-5.460152212773458
1708435821.8284006,-2.1419973373413086,-1.333057240848877,-2.5252984205829065,6.109657037049093,1.0152230262756348,-5.460161153470175
1708435821.8303623,-2.1419928073883057,-1.3330528897098084,-2.5253759066211146,6.10959147193984,1.0152006149291992,-5.460157875214712
1708435821.832388,-2.141989231109619,-1.3329993945411225,-2.5253966490374964,6.109682428627767,1.015242338180542,-5.460139934216635
1708435821.834352,-2.1419849395751953,-1.3330331605723877,-2.525322500859396,6.109600412636556,1.0151838064193726,-5.460123602543966
1708435821.8363569,-2.1419761180877686,-1.333045319919922,-2.5253594557391565,6.109637725144186,1.0152753591537476,-5.460130993519918
1708435821.8383534,-2.141997814178467,-1.3330985766700287,-2.5253682772265833,6.109625804215231,1.0152242183685303,-5.460139993821279
1708435821.840347,-2.1419804096221924,-1.3330080968192597,-2.5253594557391565,6.109645116120138,1.0152665376663208,-5.460139993821279
1708435821.8423562,-2.1419646739959717,-1.3330453050187607,-2.5253105799304407,6.1095971939857385,1.0152740478515625,-5.460128072892324
1708435821.8443878,-2.1419646739959717,-1.3331016910127182,-2.525379244481222,6.1096510765846155,1.0152618885040283,-5.460107211266653
1708435821.84636,-2.1419849395751953,-1.3330497604659577,-2.5253878275500696,6.109567272454061,1.0152497291564941,-5.460123602543966
1708435821.8483808,-2.1419575214385986,-1.3331266802600403,-2.525367323552267,6.109609353333273,1.0152696371078491,-5.460095290337698
1708435821.850367,-2.141989231109619,-1.3330287498286744,-2.5253921190844935,6.1096017239387415,1.0152664184570312,-5.460116151963369
1708435821.8523793,-2.1419734954833984,-1.3330409687808533,-2.5254042784320276,6.10955976226882,1.0152573585510254,-5.460120681916372
1708435821.8543675,-2.141948938369751,-1.333028720026352,-2.525379244481222,6.10963927486495,1.0152618885040283,-5.460111681615011
1708435821.8563783,-2.1419575214385986,-1.3330243688872834,-2.5254088083850306,6.109564411431112,1.0153117179870605,-5.460123602543966
1708435821.8583817,-2.1419081687927246,-1.3330778640559693,-2.5253878275500696,6.109531271248617,1.0152573585510254,-5.460104290639059
1708435821.860382,-2.142010450363159,-1.3330735129169007,-2.5253716150866907,6.109561192780294,1.0152785778045654,-5.460165623818533
1708435821.8623579,-2.1419849395751953,-1.3330212396434327,-2.525374952946798,6.109606134682455,1.0152696371078491,-5.460139993821279
1708435821.8644016,-2.142010450363159,-1.3330243688872834,-2.5253551642047327,6.109558093338766,1.0152981281280518,-5.460107211266653
1708435821.8663683,-2.1419575214385986,-1.3330485385707398,-2.525379244481222,6.109577882080831,1.0152814388275146,-5.460128072892324
1708435821.8683944,-2.141932725906372,-1.3330897849849244,-2.52539569536318,6.109494316368856,1.0152740478515625,-5.460132543240682
1708435821.8704007,-2.1419451236724854,-1.333069161777832,-2.525399986897604,6.109512316971578,1.015328049659729,-5.460107211266653
1708435821.872383,-2.141953945159912,-1.3330528897098084,-2.5254161993609827,6.109589803009786,1.0153144598007202,-5.460111681615011
1708435821.8743658,-2.1419663429260254,-1.33307038367305,-2.5253878275500696,6.1096075651939294,1.0152937173843384,-5.460116151963369
1708435821.8763852,-2.141975164413452,-1.3330985021642228,-2.5253499189959925,6.109508979111471,1.0153145790100098,-5.46009081998934
1708435821.87837,-2.141930103302002,-1.333028720026352,-2.525374952946798,6.109525668412008,1.0153026580810547,-5.460069660340444
1708435821.8803985,-2.1419167518615723,-1.3330243688872834,-2.5253716150866907,6.109558093338766,1.015359878540039,-5.460102740918295
1708435821.8823428,-2.1419663429260254,-1.3330212396434327,-2.5253594557391565,6.109516846924581,1.0152981281280518,-5.460099760686056
1708435821.8843598,-2.1419496536254883,-1.333045319919922,-2.5253921190844935,6.109525668412008,1.0152723789215088,-5.460107211266653
1708435821.8863525,-2.1419777870178223,-1.3330200177482148,-2.525411907826559,6.109495627671041,1.0152724981307983,-5.460086409245626
1708435821.8884027,-2.141925573348999,-1.3330409687808533,-2.5254326502429407,6.109483706742086,1.0153472423553467,-5.460107211266653
1708435821.890396,-2.141941547393799,-1.3330541116050263,-2.525407616292135,6.109562623291769,1.0152937173843384,-5.460132543240682
1708435821.8923976,-2.141925573348999,-1.3330287349275132,-2.525407616292135,6.109480726509847,1.0153144598007202,-5.460135523472921
1708435821.8944268,-2.141934394836426,-1.3330497753671189,-2.525423828755514,6.109501588135519,1.015305519104004,-5.4600741306888025
1708435821.8963583,-2.1418919563293457,-1.3330331605723877,-2.5254207293139856,6.109551179199972,1.0153263807296753,-5.460153464470999
1708435821.8983765,-2.141921281814575,-1.3330497306636353,-2.525407616292135,6.109468805580892,1.0152891874313354,-5.460069660340444
1708435821.9003494,-2.141970634460449,-1.333094136123993,-2.525407616292135,6.109477746277609,1.0152891874313354,-5.460107211266653
1708435821.9023674,-2.1419131755828857,-1.3330854338458558,-2.5254161993609827,6.109456527024069,1.0153807401657104,-5.460181657467977
1708435821.904365,-2.141921281814575,-1.3330331605723877,-2.525431458150045,6.109571683197775,1.015305519104004,-5.460159365330831
1708435821.906345,-2.141941547393799,-1.333028720026352,-2.525399986897604,6.109539139061727,1.0153383016586304,-5.460095290337698
1708435821.908363,-2.1419503688812256,-1.333107278948166,-2.525416437779562,6.109432804375448,1.015312910079956,-5.4600622097598475
1708435821.910348,-2.141904354095459,-1.3330037158778687,-2.525416437779562,6.1094655869300745,1.0152920484542847,-5.46009081998934
1708435821.9123642,-2.141904354095459,-1.3330528897098084,-2.5254033247577112,6.109494077950277,1.015321969985962,-5.460161153470175
1708435821.9143465,-2.141934394836426,-1.333028720026352,-2.525423828755514,6.1094446060951135,1.015333890914917,-5.460081938897268
1708435821.9163468,-2.1419219970703125,-1.333028720026352,-2.5254045168506067,6.109423744469442,1.0153383016586304,-5.460062269364492
1708435821.918344,-2.141934394836426,-1.3330331605723877,-2.5253871122943323,6.1094491360481165,1.015321969985962,-5.46009081998934
1708435821.920362,-2.141908645629883,-1.333094136123993,-2.5254033247577112,6.109468805580892,1.0153292417526245,-5.4600876609431666
1708435821.9223661,-2.1418919563293457,-1.3330243688872834,-2.525399986897604,6.109421241074362,1.01533842086792,-5.460107211266653
1708435821.9243445,-2.1419389247894287,-1.3330366176417847,-2.525407616292135,6.109437215119161,1.015317440032959,-5.460111681615011
1708435821.926366,-2.1419010162353516,-1.333082304602005,-2.525391403828756,6.109437215119161,1.0153462886810303,-5.460111681615011
1708435821.928343,-2.1419432163238525,-1.3330541116050263,-2.525391403828756,6.109441745072164,1.015333890914917,-5.460139993821279
1708435821.9303403,-2.1419010162353516,-1.333028720026352,-2.525431458150045,6.109434592514791,1.0153509378433228,-5.460120681916372
1708435821.932366,-2.1419010162353516,-1.332993046646454,-2.525407616292135,6.109469997673788,1.0153383016586304,-5.460123602543966
1708435821.9343553,-2.1419177055358887,-1.3330124479583283,-2.525435749684469,6.109425651818075,1.015341877937317,-5.460128072892324
1708435821.9363859,-2.1419503688812256,-1.3329973977855225,-2.525456492100851,6.109446155815878,1.0153672695159912,-5.4601280132876795
1708435821.9383512,-2.1418404579162598,-1.3330093187144776,-2.5254433790790003,6.1094491360481165,1.0153790712356567,-5.46009081998934
1708435821.9404101,-2.1419389247894287,-1.3329720956138154,-2.5254107157336634,6.109425651818075,1.0153881311416626,-5.460148874913351
1708435821.9423764,-2.141930103302002,-1.3329994839480896,-2.5253661314593714,6.109474527626791,1.015312910079956,-5.460132483636038
1708435821.9443622,-2.141909599304199,-1.3330497604659577,-2.525431458150045,6.109380471497335,1.0153582096099854,-5.460116151963369
1708435821.9463592,-2.1419219970703125,-1.3330212396434327,-2.525407616292135,6.109430062561788,1.015333890914917,-5.460139993821279
1708435821.9483685,-2.1418850421905518,-1.333016888504364,-2.5254603067981165,6.109401452332296,1.0153553485870361,-5.460128072892324
1708435821.9503484,-2.1419053077697754,-1.332979903822281,-2.525391403828756,6.109389531403341,1.0153292417526245,-5.460102740918295
1708435821.9523702,-2.141885280609131,-1.3330331605723877,-2.5254033247577112,6.109468805580892,1.0153553485870361,-5.460130993519918
1708435821.9543602,-2.1418581008911133,-1.3330660325339814,-2.525435749684469,6.1094480631645105,1.0153672695159912,-5.460132483636038
1708435821.9563591,-2.1418938636779785,-1.333041862850525,-2.525374952946798,6.1094103930290125,1.0153248310089111,-5.460163656865255
1708435821.958355,-2.141866683959961,-1.333045319919922,-2.525423828755514,6.109394061356344,1.015333890914917,-5.460099760686056
1708435821.960367,-2.141918182373047,-1.3330747348121186,-2.525440279637472,6.109368431359091,1.015337347984314,-5.460074190293447
1708435821.9623547,-2.1418895721435547,-1.3330375117114563,-2.5253945032702845,6.109372842102804,1.0153582096099854,-5.460087601338522
1708435821.9643717,-2.14190673828125,-1.3330331456712265,-2.525411907826559,6.109439122467794,1.0153701305389404,-5.460128072892324
1708435821.9663508,-2.1418752670288086,-1.333041862850525,-2.525435749684469,6.109372842102804,1.0153701305389404,-5.460123602543966
1708435821.9683678,-2.1418709754943848,-1.3330243688872834,-2.525423828755514,6.109377372055807,1.0153462886810303,-5.460095290337698
1708435821.9703546,-2.1418850421905518,-1.33307038367305,-2.525431458150045,6.109385120659628,1.0153292417526245,-5.460111681615011
1708435821.9723647,-2.1418752670288086,-1.3330331605723877,-2.525451962147848,6.109394061356344,1.015337347984314,-5.460128072892324
1708435821.9743614,-2.1418797969818115,-1.3330541116050263,-2.52541953722109,6.109356391220846,1.0153329372406006,-5.460123542939321
1708435821.9763505,-2.141862392425537,-1.333016888504364,-2.52541953722109,6.109377372055807,1.0153909921646118,-5.460135523472921
1708435821.9783556,-2.1418938636779785,-1.3329961758903046,-2.525440279637472,6.109389650612631,1.0153790712356567,-5.460099760686056
1708435821.9803588,-2.1419315338134766,-1.3330243688872834,-2.5254388491259974,6.109365451126852,1.015317440032959,-5.460135523472921
1708435821.9823499,-2.141909599304199,-1.3330006164363404,-2.525440279637472,6.109372842102804,1.015349268913269,-5.460170153771536
1708435821.9843695,-2.1418910026550293,-1.3330375117114563,-2.5254433790790003,6.109328138619222,1.015337347984314,-5.460172716771261
1708435821.9863527,-2.141914129257202,-1.3330375117114563,-2.525435749684469,6.109372842102804,1.015353798866272,-5.460114602242605
1708435821.9883695,-2.141914129257202,-1.333016888504364,-2.5254433790790003,6.1093580601509,1.0153790712356567,-5.460102740918295
1708435821.990376,-2.1418542861938477,-1.3330497604659577,-2.525440279637472,6.109412061959066,1.0153038501739502,-5.460086409245626
1708435821.9923584,-2.141841411590576,-1.3330375117114563,-2.5253945032702845,6.109365451126852,1.0153745412826538,-5.460128072892324
1708435821.9943612,-2.141849994659424,-1.3330497604659577,-2.525431458150045,6.109369981079855,1.0153626203536987,-5.460090879593984
1708435821.996357,-2.1418867111206055,-1.3330366176417847,-2.525473181401388,6.109332787781515,1.0153428316116333,-5.460139993821279
1708435821.9983618,-2.1418910026550293,-1.333016888504364,-2.525435749684469,6.109390842705526,1.0153745412826538,-5.460116151963369
1708435822.0003784,-2.14190673828125,-1.3330168736032029,-2.5253587404834192,6.109319197922506,1.015312910079956,-5.460107211266653
1708435822.002356,-2.141866683959961,-1.3330255907825013,-2.5254600683795374,6.109341609268942,1.015353798866272,-5.460114602242605
1708435822.0043502,-2.141866683959961,-1.333004967575409,-2.5254064241992396,6.109375941544332,1.0153248310089111,-5.460095290337698
1708435822.0063508,-2.141849994659424,-1.3329843443683167,-2.525468889866964,6.109423982888021,1.0153745412826538,-5.460111681615011
1708435822.0083592,-2.14180850982666,-1.333045319919922,-2.5253868738757532,6.109374511032858,1.0154001712799072,-5.460123602543966
1708435822.0103548,-2.141849994659424,-1.333057240848877,-2.525431458150045,6.109378921776571,1.0153582096099854,-5.460137073193685
1708435822.0123506,-2.1418416500091553,-1.3330877882293244,-2.525456492100851,6.109346139221945,1.015353798866272,-5.4600741306888025
1708435822.0143685,-2.1418797969818115,-1.3329843443683167,-2.525435749684469,6.10940312126235,1.0153672695159912,-5.460156742726461
1708435822.0163627,-2.1418673992156982,-1.3330409687808533,-2.52541953722109,6.109341609268942,1.015341877937317,-5.460128072892324
1708435822.0183628,-2.1418631076812744,-1.3330747348121186,-2.525468889866964,6.109346139221945,1.0153582096099854,-5.460086409245626
1708435822.0203562,-2.1418631076812744,-1.3330497604659577,-2.525451962147848,6.1093084690864465,1.0153837203979492,-5.4600651303874415
1708435822.0223556,-2.141845703125,-1.3330243688872834,-2.525428120289938,6.109404313355245,1.0153790712356567,-5.460139993821279
1708435822.0243685,-2.1418709754943848,-1.333045319919922,-2.5253902117358606,6.1093506691749475,1.0154032707214355,-5.460116092358724
1708435822.0263531,-2.1418673992156982,-1.3330462139895936,-2.525431458150045,6.109338509827413,1.0153536796569824,-5.460177187119619
1708435822.0283628,-2.1418004035949707,-1.3330212396434327,-2.5254765192614954,6.109371530800619,1.0153656005859375,-5.460095290337698
1708435822.0303597,-2.1418542861938477,-1.3330375117114563,-2.5254762808429163,6.109305965691366,1.0153864622116089,-5.460111681615011
1708435822.032368,-2.1418585777282715,-1.333028720026352,-2.5254107157336634,6.109301554947653,1.0153820514678955,-5.4600863496409815
1708435822.0343657,-2.1418416500091553,-1.333016888504364,-2.5254271666156214,6.1093129990394495,1.0153626203536987,-5.460139993821279
1708435822.0363574,-2.141855001449585,-1.333016888504364,-2.525451962147848,6.1093084690864465,1.0153987407684326,-5.460095290337698
1708435822.0383573,-2.1419272422790527,-1.3330584031394501,-2.525435749684469,6.109338509827413,1.0153329372406006,-5.460107211266653
1708435822.0403519,-2.141817331314087,-1.3330212396434327,-2.525447670613424,6.1093129990394495,1.0153745412826538,-5.460119132195608
1708435822.0423467,-2.1418631076812744,-1.333057240848877,-2.5253987948047083,6.109292495041647,1.0153820514678955,-5.460123662148611
1708435822.044367,-2.1418752670288086,-1.3330615919879456,-2.525440279637472,6.1093129990394495,1.0153864622116089,-5.460128072892324
1708435822.046378,-2.1418631076812744,-1.333004967575409,-2.5254433790790003,6.1093506691749475,1.0153942108154297,-5.460123662148611
1708435822.0483623,-2.1418755054473877,-1.333016888504364,-2.525435749684469,6.109301554947653,1.0153820514678955,-5.460107211266653
1708435822.0503535,-2.1418631076812744,-1.3330866557410737,-2.525440279637472,6.109322058945455,1.0154061317443848,-5.460152212773458
1708435822.0523627,-2.141855001449585,-1.3330243688872834,-2.525447670613424,6.109317528992452,1.0153864622116089,-5.460132543240682
1708435822.0543692,-2.141892910003662,-1.3330006164363404,-2.5254719893084925,6.109346139221945,1.0153656005859375,-5.460104290639059
1708435822.05634,-2.141850471496582,-1.333016888504364,-2.5254388491259974,6.109342801361837,1.0153820514678955,-5.460153404866354
1708435822.058346,-2.141850471496582,-1.3330255907825013,-2.525447670613424,6.109276044159689,1.0153610706329346,-5.460111681615011
1708435822.060384,-2.1418046951293945,-1.3330331605723877,-2.525468889866964,6.109302985459127,1.0153610706329346,-5.460123542939321
1708435822.0623848,-2.141843318939209,-1.333016888504364,-2.5254152456866663,6.109314906388082,1.0154061317443848,-5.460201028977529
1708435822.06437,-2.141796827316284,-1.3330866706422348,-2.5254271666156214,6.109310376435079,1.0153942108154297,-5.460093800221578
1708435822.066369,-2.1418755054473877,-1.3329886955073853,-2.525431458150045,6.1093129990394495,1.0154106616973877,-5.460148874913351
1708435822.0683827,-2.141850471496582,-1.333004967575409,-2.5254183451281946,6.1093129990394495,1.0154318809509277,-5.460123602543966
1708435822.070359,-2.1418416500091553,-1.333045319919922,-2.525468889866964,6.109298455506124,1.0153729915618896,-5.460102740918295
1708435822.0723484,-2.141855001449585,-1.333028720026352,-2.5254271666156214,6.10934733131484,1.0153987407684326,-5.460114602242605
1708435822.0743825,-2.141855001449585,-1.333018110399582,-2.5254152456866663,6.109260904579916,1.0154016017913818,-5.460177187119619
1708435822.0763495,-2.141794204711914,-1.333016888504364,-2.5254839102374476,6.109330880432882,1.0153896808624268,-5.460123602543966
1708435822.0783544,-2.1418347358703613,-1.3330331605723877,-2.5254390875445765,6.109326469689169,1.0153865814208984,-5.460074190293447
1708435822.080341,-2.1418304443359375,-1.3330541116050263,-2.5254645983325403,6.109319436341085,1.015419602394104,-5.460102740918295
1708435822.082359,-2.141850471496582,-1.3330331605723877,-2.5254600683795374,6.109290826111593,1.0154436826705933,-5.460119132195608
1708435822.0843942,-2.141855001449585,-1.3330255907825013,-2.5254839102374476,6.109326469689169,1.0154061317443848,-5.460090879593984
1708435822.0863657,-2.141805648803711,-1.333041862850525,-2.525463406239645,6.109305965691366,1.015425682067871,-5.460114602242605
1708435822.0883756,-2.141850471496582,-1.3329874736121674,-2.5254514853106897,6.109302985459127,1.0154138803482056,-5.4601444641696375
1708435822.0903647,-2.141822338104248,-1.3330866557410737,-2.525463406239645,6.10928629615859,1.015430212020874,-5.460159365330831
1708435822.0923774,-2.141839027404785,-1.333041862850525,-2.5255003611194056,6.109319436341085,1.015425682067871,-5.460147682820455
1708435822.094367,-2.141855001449585,-1.3330124479583283,-2.525446955357687,6.109316456108846,1.0154423713684082,-5.460126582776205
1708435822.0963867,-2.1418416500091553,-1.3330375117114563,-2.525446955357687,6.109326469689169,1.015451431274414,-5.460139993821279
1708435822.0983586,-2.141826629638672,-1.3330255907825013,-2.5254514853106897,6.109319436341085,1.0154048204421997,-5.460168246422903
1708435822.1003563,-2.141801118850708,-1.333016888504364,-2.525470797215597,6.1092474339301965,1.0154963731765747,-5.460147682820455
1708435822.1023438,-2.141843557357788,-1.333016888504364,-2.5254676977740687,6.109319436341085,1.0154706239700317,-5.460119132195608
1708435822.1043808,-2.141818046569824,-1.333058462744095,-2.5254557768451136,6.109293925553121,1.0154874324798584,-5.460126582776205
1708435822.1063683,-2.141901731491089,-1.3330506545356293,-2.5254345575915735,6.109330880432882,1.0154587030410767,-5.46008944908251
1708435822.1083505,-2.1418521404266357,-1.3329677444747468,-2.5254753271686,6.109314906388082,1.01544988155365,-5.460135523472921
1708435822.1103618,-2.141843557357788,-1.333004967575409,-2.5255044142352503,6.109326469689169,1.0154905319213867,-5.4601637164699
1708435822.1123743,-2.141839027404785,-1.3330331605723877,-2.5254719893084925,6.109277236252584,1.0155041217803955,-5.460159365330831
1708435822.1143575,-2.141843557357788,-1.3329962205937882,-2.5255327860461634,6.109319436341085,1.0155278444290161,-5.460150424634115
1708435822.1163585,-2.141794204711914,-1.333098442559578,-2.525487248097555,6.109301554947653,1.0154995918273926,-5.460143331681387
1708435822.1183662,-2.141818046569824,-1.3329798889211197,-2.5255077520953577,6.109295236855306,1.0154905319213867,-5.460147682820455
1708435822.120369,-2.141818046569824,-1.33307038367305,-2.5254958311664026,6.109310376435079,1.0155024528503418,-5.46010131040682
1708435822.1223679,-2.141892910003662,-1.3330006164363404,-2.525519673024313,6.10936855056838,1.0155068635940552,-5.460196499024526
1708435822.124359,-2.141826629638672,-1.3330375117114563,-2.525487248097555,6.109310376435079,1.015535593032837,-5.460159365330831
1708435822.1263506,-2.1418142318725586,-1.3330453050187607,-2.525515381489889,6.10928629615859,1.015509843826294,-5.460220817719595
1708435822.1283846,-2.1417810916900635,-1.333021269445755,-2.5254622141467493,6.109295236855306,1.0155608654022217,-5.460134450589315
1708435822.1303701,-2.141822338104248,-1.3330243837884446,-2.5255492369281214,6.109364020615377,1.015531063079834,-5.460138861333029
1708435822.1323655,-2.1418187618255615,-1.3330136698535462,-2.525470797215597,6.109293925553121,1.0155221223831177,-5.4602131883250635
1708435822.1343577,-2.1417853832244873,-1.3330374968102952,-2.525503460560934,6.109310376435079,1.0155189037322998,-5.4601876775371
1708435822.1363668,-2.141880512237549,-1.3330374968102952,-2.52553636232485,6.109290826111593,1.0155802965164185,-5.460208837185995
1708435822.1383643,-2.141818046569824,-1.3329843890718003,-2.525536123906271,6.109326469689169,1.0155638456344604,-5.46017420688738
1708435822.1403642,-2.1418187618255615,-1.33302557588134,-2.525519673024313,6.10928629615859,1.0155622959136963,-5.460204366837637
1708435822.1423807,-2.141794204711914,-1.3330331456712265,-2.5255077520953577,6.109293925553121,1.0155175924301147,-5.460237149392263
1708435822.1443684,-2.1418046951293945,-1.3330331605723877,-2.525531832371847,6.10928629615859,1.0155221223831177,-5.4601908961879175
1708435822.146376,-2.1417782306671143,-1.3330006462386628,-2.525543753300802,6.109271514206686,1.0155622959136963,-5.460210208092825
1708435822.148365,-2.1418099403381348,-1.3330168736032029,-2.52549916902651,6.109256493836202,1.0155667066574097,-5.460182015095846
1708435822.150347,-2.141818046569824,-1.3329755526832123,-2.525531832371847,6.109305965691366,1.0155547857284546,-5.460177425538198
1708435822.1523619,-2.141805648803711,-1.3330746603063126,-2.5254979769336146,6.10928629615859,1.0155622959136963,-5.460210208092825
1708435822.1543362,-2.1418850421905518,-1.3330375117114563,-2.525487248097555,6.109322058945455,1.0155459642410278,-5.46017307439913
1708435822.1563437,-2.1418566703796387,-1.3329919588616868,-2.525564734135763,6.109280574112692,1.0155746936798096,-5.460231129323141
1708435822.158336,-2.141794204711914,-1.3330822598985215,-2.5255516211139124,6.109290826111593,1.0155503749847412,-5.460296992455618
1708435822.1603575,-2.1418354511260986,-1.333054096703865,-2.5255022684680384,6.109305965691366,1.0155295133590698,-5.46029240289797
1708435822.162384,-2.141782760620117,-1.3330212545445939,-2.5255754629718226,6.109351861267843,1.0155576467514038,-5.460288051758901
1708435822.1643627,-2.1418099403381348,-1.333037481909134,-2.5255232493029993,6.109293925553121,1.0156121253967285,-5.460247818623678
1708435822.1664312,-2.1418354511260986,-1.3329973977855225,-2.5255559126483362,6.109294044762411,1.0155622959136963,-5.460247818623678
1708435822.168422,-2.1418354511260986,-1.3330331605723877,-2.5255678335772913,6.109281766205587,1.015532374382019,-5.460275713597433
1708435822.170386,-2.141801118850708,-1.3330331605723877,-2.5256004969226282,6.109257924347677,1.015579342842102,-5.46025932232012
1708435822.1723976,-2.1418397426605225,-1.333077849154808,-2.5255678335772913,6.109314906388082,1.0155702829360962,-5.460274581109182
1708435822.1743531,-2.141782760620117,-1.3330418181470414,-2.525560442601339,6.109293925553121,1.0155459642410278,-5.46024597087969
1708435822.1763904,-2.141850471496582,-1.333054081802704,-2.5255394617663782,6.109310376435079,1.0155866146087646,-5.46027905145754
1708435822.1783788,-2.1418354511260986,-1.3329633635333558,-2.5255559126483362,6.109310376435079,1.0155911445617676,-5.460288051758901
1708435822.180353,-2.141826629638672,-1.3330299270204087,-2.5255394617663782,6.109305965691366,1.0155622959136963,-5.460283581410543
1708435822.182426,-2.141818046569824,-1.333028720026352,-2.525548044835226,6.109277236252584,1.0155702829360962,-5.46024597087969
1708435822.1843467,-2.141831159591675,-1.3330212396434327,-2.5255351702319544,6.109277236252584,1.0156360864639282,-5.460311834012167
1708435822.1863425,-2.141805648803711,-1.333074690108635,-2.5255232493029993,6.1092896340186975,1.0155941247940063,-5.460290972386495
1708435822.1883678,-2.1418142318725586,-1.3330497306636353,-2.5254905859576624,6.109283315926351,1.0155822038650513,-5.460271362458364
1708435822.1903796,-2.1418354511260986,-1.3330418777516861,-2.5255394617663782,6.10926245430068,1.0155894756317139,-5.4603164235698145
1708435822.1923833,-2.141794204711914,-1.3330124479583283,-2.5255678335772913,6.109293925553121,1.0156315565109253,-5.460295442734854
1708435822.1943545,-2.141839027404785,-1.3330703389695664,-2.5255232493029993,6.109301554947653,1.0155956745147705,-5.460261110459463
1708435822.1963387,-2.141801357269287,-1.3330497604659577,-2.5255678335772913,6.10928629615859,1.015602946281433,-5.460295442734854
1708435822.198354,-2.1418354511260986,-1.3330212396434327,-2.5255473295794886,6.109351861267843,1.0156193971633911,-5.460271362458364
1708435822.200394,-2.1418142318725586,-1.3330169332078476,-2.5255351702319544,6.109257924347677,1.0155941247940063,-5.46024597087969
1708435822.2023606,-2.141805648803711,-1.3330461841872712,-2.5255516211139124,6.10930751541213,1.0155776739120483,-5.460295383130209
1708435822.2043383,-2.1417853832244873,-1.3330169034055253,-2.52556020418276,6.1093283770378015,1.0156104564666748,-5.460253421460287
1708435822.206353,-2.141798496246338,-1.333037481909134,-2.5255306402789515,6.109294044762411,1.0155866146087646,-5.460307363663809
1708435822.2083426,-2.141770362854004,-1.3329919290593644,-2.5255678335772913,6.1092896340186975,1.0156434774398804,-5.460311834012167
1708435822.2103364,-2.141740322113037,-1.3330125522664567,-2.5255916754352015,6.1093283770378015,1.0156059265136719,-5.460319284592764
1708435822.2123418,-2.141794204711914,-1.3330528748086472,-2.5255516211139124,6.109281766205587,1.0155822038650513,-5.460261170064108
1708435822.2143447,-2.141805648803711,-1.3330497455647965,-2.5255678335772913,6.109373080521383,1.0156315565109253,-5.4603028933154505
1708435822.2163436,-2.141789674758911,-1.333028720026352,-2.5256288687335413,6.10928629615859,1.0156224966049194,-5.460298422967092
1708435822.218365,-2.141740322113037,-1.3330374968102952,-2.5255427996264856,6.10928629615859,1.0155776739120483,-5.460282091294424
1708435822.2203596,-2.141770362854004,-1.333033175473549,-2.5256126562701624,6.109253513603964,1.0156316757202148,-5.460335973893301
1708435822.222357,-2.1417782306671143,-1.3330374968102952,-2.5255842844592493,6.109290826111593,1.0155776739120483,-5.4603028933154505
1708435822.2243702,-2.141794204711914,-1.332991899257042,-2.5255351702319544,6.109322058945455,1.0156360864639282,-5.460311834012167
1708435822.2263494,-2.1417529582977295,-1.3330212396434327,-2.525588575993673,6.109326469689169,1.0156059265136719,-5.460319284592764
1708435822.2283676,-2.141794204711914,-1.333012433057167,-2.525548044835226,6.109274375229635,1.0155941247940063,-5.460311834012167
1708435822.2303517,-2.1417739391326904,-1.3329720956138154,-2.5255559126483362,6.109281766205587,1.015627145767212,-5.460307363663809
1708435822.2323678,-2.1418027877807617,-1.3330331307700654,-2.5255516211139124,6.109326469689169,1.0155731439590454,-5.460282031689779
1708435822.2343667,-2.141765832901001,-1.332979903822281,-2.5255559126483362,6.109302985459127,1.0155940055847168,-5.46034944454302
1708435822.23634,-2.141761541366577,-1.3330093783191224,-2.5255351702319544,6.109323966294088,1.0156315565109253,-5.460282031689779
1708435822.2383666,-2.1418187618255615,-1.332991899257042,-2.525505844746725,6.109326469689169,1.015607476234436,-5.460286502038137
1708435822.2403717,-2.1418027877807617,-1.333000661139824,-2.5255473295794886,6.109298455506124,1.0156480073928833,-5.460273031388418
1708435822.2423484,-2.1417696475982666,-1.3330287349275132,-2.5255306402789515,6.109305965691366,1.0156104564666748,-5.460273031388418
1708435822.2443693,-2.1418440341949463,-1.3329886955073853,-2.5255559126483362,6.1092896340186975,1.0156182050704956,-5.460314814244406
1708435822.2463553,-2.1418354511260986,-1.3330243986896058,-2.5255516211139124,6.109265315323629,1.0156149864196777,-5.460347894822256
1708435822.2483654,-2.141782760620117,-1.3330124777606507,-2.5255516211139124,6.109323847084799,1.0155941247940063,-5.460319284592764
1708435822.2503467,-2.1418073177337646,-1.3330286902240296,-2.5255516211139124,6.1092896340186975,1.0156104564666748,-5.460319284592764
1708435822.2523386,-2.141787052154541,-1.3330299419215699,-2.5255635420428675,6.109293925553121,1.0156193971633911,-5.460298422967092
1708435822.2543669,-2.1417746543884277,-1.3329973381808777,-2.5255516211139124,6.109339940338888,1.0156193971633911,-5.460314814244406
1708435822.2563486,-2.141831159591675,-1.3330790412477036,-2.525527540837423,6.109314787178793,1.0155941247940063,-5.460323695336477
1708435822.2583568,-2.141765832901001,-1.3329961758903046,-2.5255351702319544,6.109298455506124,1.0156059265136719,-5.460273031388418
1708435822.2603662,-2.1418027877807617,-1.333045319919922,-2.525538508092062,6.10930751541213,1.0156148672103882,-5.460319284592764
1708435822.2623885,-2.1418099403381348,-1.3330660325339814,-2.5255842844592493,6.1092684147651575,1.01564359664917,-5.460277501736776
1708435822.264373,-2.141794204711914,-1.3329930168441315,-2.5256081263171595,6.109278785973348,1.0155657529830933,-5.460310284291403
1708435822.2663674,-2.141770362854004,-1.333034337764122,-2.5255559126483362,6.109314787178793,1.015607476234436,-5.460335973893301
1708435822.268376,-2.1417739391326904,-1.3330124628594895,-2.5255427996264856,6.10928629615859,1.0156104564666748,-5.460352365170614
1708435822.270384,-2.141822338104248,-1.3329974126866837,-2.5255473295794886,6.1092907069023035,1.0156059265136719,-5.460286561642782
1708435822.27237,-2.1417572498321533,-1.33302557588134,-2.5255189577685755,6.109342801361837,1.0155941247940063,-5.460310224686758
1708435822.2743504,-2.141798496246338,-1.3329886955073853,-2.5255473295794886,6.10934733131484,1.0156104564666748,-5.4603028933154505
1708435822.2763526,-2.141794204711914,-1.3330375117114563,-2.5255232493029993,6.109310376435079,1.0156193971633911,-5.460343305264608
1708435822.2783566,-2.1417746543884277,-1.3330006760409852,-2.525576655064718,6.109310376435079,1.015602946281433,-5.460282031689779
1708435822.280368,-2.141761541366577,-1.3330908876708527,-2.5255144278155726,6.10929702499465,1.0156148672103882,-5.460307363663809
1708435822.2823713,-2.1417782306671143,-1.3330615770867844,-2.5255473295794886,6.109252083092489,1.0156059265136719,-5.460290912781851
1708435822.2843623,-2.141831159591675,-1.333066002731659,-2.5255022684680384,6.1092580435569666,1.0156148672103882,-5.460323754941122
1708435822.2863514,-2.1417782306671143,-1.332988680606224,-2.5255678335772913,6.10929964759902,1.0155850648880005,-5.460336033497946
1708435822.2883682,-2.1418142318725586,-1.3329919439605256,-2.5255263487445276,6.109314787178793,1.0155686140060425,-5.460289422665731
1708435822.2903914,-2.1417958736419678,-1.3330006462386628,-2.525592867528097,6.109298455506124,1.015627145767212,-5.460314754639761
1708435822.2923994,-2.1417746543884277,-1.3330006462386628,-2.52556020418276,6.10928629615859,1.0156104564666748,-5.460314814244406
1708435822.294366,-2.1418440341949463,-1.3330006164363404,-2.5255351702319544,6.109305965691366,1.0156316757202148,-5.460340384637014
1708435822.2963595,-2.141787052154541,-1.3330049526742478,-2.5255232493029993,6.109281766205587,1.0155894756317139,-5.460319284592764
1708435822.29836,-2.1417534351348877,-1.3330331605723877,-2.5255678335772913,6.109335410385885,1.015591025352478,-5.460273031388418
1708435822.3003428,-2.1418142318725586,-1.3329517853311081,-2.5255559126483362,6.109377491265096,1.0156389474868774,-5.460265700017111
1708435822.3023336,-2.141782760620117,-1.3329918396523972,-2.5255427996264856,6.109257924347677,1.0156193971633911,-5.460352365170614
1708435822.3043587,-2.141798496246338,-1.3330497455647965,-2.525564734135763,6.109323847084799,1.0155776739120483,-5.460323754941122
1708435822.306371,-2.141787052154541,-1.3330375117114563,-2.5255189577685755,6.109323847084799,1.0155612230300903,-5.460290972386495
1708435822.308367,-2.141818046569824,-1.3330746305039902,-2.5255559126483362,6.10930751541213,1.015627145767212,-5.460311834012167
1708435822.3103907,-2.1418230533599854,-1.3330461841872712,-2.5255516211139124,6.109323847084799,1.0155657529830933,-5.460311774407522
1708435822.312383,-2.1418116092681885,-1.3330331605723877,-2.5255516211139124,6.10927294471816,1.015601396560669,-5.460323695336477
1708435822.3143737,-2.141805648803711,-1.3330331605723877,-2.5255797545062464,6.109302985459127,1.0156104564666748,-5.460290972386495
1708435822.3163671,-2.1418354511260986,-1.3330331605723877,-2.5255351702319544,6.109274375229635,1.0155776739120483,-5.460307363663809
1708435822.318347,-2.1418027877807617,-1.3330006313375016,-2.525531832371847,6.109323847084799,1.0156148672103882,-5.460323754941122
1708435822.3203921,-2.1418116092681885,-1.3330497306636353,-2.5255306402789515,6.109265315323629,1.015556812286377,-5.460310284291403
1708435822.3223486,-2.1418073177337646,-1.3330497455647965,-2.5255349318133753,6.109298455506124,1.0155985355377197,-5.460340444241659
1708435822.3243732,-2.141798496246338,-1.3329844188741227,-2.5256004969226282,6.109312045365133,1.015601396560669,-5.4603028933154505
1708435822.3263705,-2.141782760620117,-1.3330418181470414,-2.52555495897402,6.109271514206686,1.0156148672103882,-5.460320774708883
1708435822.3283682,-2.1417782306671143,-1.3330461394837876,-2.5255516211139124,6.1092355130012415,1.0155941247940063,-5.460322503243582
1708435822.3303578,-2.141827344894409,-1.333037481909134,-2.52558404604067,6.109274375229635,1.0155805349349976,-5.460331503544943
1708435822.3323462,-2.1418230533599854,-1.3330212396434327,-2.5255306402789515,6.109292375832357,1.0156059265136719,-5.460286561642782
1708435822.3343654,-2.1417534351348877,-1.3330628287843247,-2.52556020418276,6.109253513603964,1.0155941247940063,-5.460323695336477
1708435822.3363776,-2.141744613647461,-1.3329973977855225,-2.5255559126483362,6.10928629615859,1.0155894756317139,-5.460319284592764
1708435822.3383532,-2.141770362854004,-1.3330255609801789,-2.5256004969226282,6.109344470291891,1.0155941247940063,-5.460314814244406
1708435822.3403547,-2.141749143600464,-1.3329475086978455,-2.5255754629718226,6.109257924347677,1.0156238079071045,-5.460335973893301
1708435822.3423371,-2.141787052154541,-1.333054081802704,-2.5255723635302942,6.109323966294088,1.0155776739120483,-5.460332695637838
1708435822.3443718,-2.1418027877807617,-1.3330659878304978,-2.5255516211139124,6.10928629615859,1.0156104564666748,-5.460307363663809
1708435822.346343,-2.1418027877807617,-1.3330374670079728,-2.5255394617663782,6.109290826111593,1.0155894756317139,-5.46031636396517
1708435822.3483667,-2.141787052154541,-1.3330136847547074,-2.5255959669696253,6.109265315323629,1.0155894756317139,-5.460277561341421
1708435822.3503666,-2.141782760620117,-1.3330212545445939,-2.5255959669696253,6.109237062722006,1.0156316757202148,-5.460295383130209
1708435822.3523426,-2.141798496246338,-1.3330453348210831,-2.5256004969226282,6.10926245430068,1.015596866607666,-5.460282091294424
1708435822.3543437,-2.1418027877807617,-1.3330255907825013,-2.5255516211139124,6.109244453697958,1.0156104564666748,-5.46027905145754
1708435822.356342,-2.1418073177337646,-1.3330081415227433,-2.5255678335772913,6.109274375229635,1.0156148672103882,-5.460270110760824
1708435822.3583467,-2.1418187618255615,-1.3330461841872712,-2.5255754629718226,6.109277236252584,1.0156148672103882,-5.460323754941122
1708435822.360372,-2.1418230533599854,-1.3330124926618119,-2.5255842844592493,6.109295236855306,1.0155686140060425,-5.460356835518972
1708435822.3623533,-2.1418027877807617,-1.3329799485257645,-2.5255559126483362,6.109274375229635,1.015568733215332,-5.460310284291403
1708435822.3643727,-2.1417789459228516,-1.3330169034055253,-2.5255263487445276,6.109269845276632,1.0155985355377197,-5.460323754941122
1708435822.366361,-2.141798496246338,-1.3330093336156388,-2.5255306402789515,6.109265315323629,1.01564359664917,-5.460314814244406
1708435822.3683667,-2.1417622566223145,-1.333008126621582,-2.5255635420428675,6.109274375229635,1.0156149864196777,-5.460356835518972
1708435822.3703434,-2.141749143600464,-1.333054081802704,-2.5256004969226282,6.109274375229635,1.0156059265136719,-5.460338894520895
1708435822.3723984,-2.141765832901001,-1.3330243986896058,-2.525538508092062,6.109274375229635,1.015627145767212,-5.460330013428823
1708435822.3743732,-2.141749143600464,-1.3330287498286744,-2.52555495897402,6.109228122025289,1.0156104564666748,-5.460343364869253
1708435822.3763735,-2.141787052154541,-1.3329678785851975,-2.5255516211139124,6.109253513603964,1.015655755996704,-5.460343364869253
1708435822.3783681,-2.1417958736419678,-1.3330050569823761,-2.5255797545062464,6.109295236855306,1.015627145767212,-5.460354928170339
1708435822.3803566,-2.141770362854004,-1.3330418181470414,-2.525588575993673,6.10930751541213,1.0156059265136719,-5.460338894520895
1708435822.3823745,-2.141749143600464,-1.3330331605723877,-2.5255711714373987,6.1093329069908044,1.0156466960906982,-5.460343364869253
1708435822.3843546,-2.141770362854004,-1.3330212396434327,-2.5255723635302942,6.109312045365133,1.015639066696167,-5.460379246865408
1708435822.3863366,-2.141782760620117,-1.333033175473549,-2.5256083647357386,6.10926245430068,1.0156389474868774,-5.460357968007223
1708435822.3883595,-2.1418142318725586,-1.3329919290593644,-2.52562123933901,6.10934733131484,1.0156798362731934,-5.460353497658865
1708435822.3903813,-2.141782760620117,-1.3329721701196213,-2.525578562413351,6.109369981079855,1.0156182050704956,-5.460412029420034
1708435822.3924341,-2.1417958736419678,-1.3330409836820145,-2.5256081263171595,6.109253513603964,1.0156588554382324,-5.46037465730776
1708435822.394463,-2.1418073177337646,-1.333041862850525,-2.525595251713888,6.109283315926351,1.0156663656234741,-5.460370186959402
1708435822.3964517,-2.1418230533599854,-1.3330660176328202,-2.5256038347827356,6.109274375229635,1.0156421661376953,-5.460377637539999
1708435822.3983629,-2.141770362854004,-1.3330735129169007,-2.525550429021017,6.109319436341085,1.015654444694519,-5.460389439259664
1708435822.4003942,-2.1417789459228516,-1.333058462744095,-2.525607172642843,6.109248864441671,1.0156663656234741,-5.4604225794421595
1708435822.4023793,-2.1417579650878906,-1.3330703389695664,-2.525627915059225,6.109298455506124,1.0156736373901367,-5.460380677376882
1708435822.4043407,-2.1417622566223145,-1.333033175473549,-2.525635544453756,6.10927294471816,1.015723466873169,-5.460432712231771
1708435822.406396,-2.141770362854004,-1.33308661103759,-2.525627915059225,6.109274375229635,1.015714406967163,-5.46045828262438
1708435822.4083714,-2.141791343688965,-1.3330212396434327,-2.525660578404562,6.109237062722006,1.0156978368759155,-5.4604538718806666
1708435822.410347,-2.1417622566223145,-1.3330660325339814,-2.525627915059225,6.10928629615859,1.0157264471054077,-5.460482184086935
1708435822.4123955,-2.141749143600464,-1.3330584478429337,-2.525656048451559,6.109272825508871,1.0157264471054077,-5.460522655640737
1708435822.4143713,-2.141749143600464,-1.333033175473549,-2.525675598775045,6.109277236252584,1.0157877206802368,-5.460527245198385
1708435822.416364,-2.1417958736419678,-1.3330497604659577,-2.5256713072406214,6.109298455506124,1.0158286094665527,-5.460525755082266
1708435822.4183495,-2.1417789459228516,-1.3330081415227433,-2.525684420262472,6.109257924347677,1.0157651901245117,-5.460555080567495
1708435822.4203436,-2.1417579650878906,-1.3330660325339814,-2.5256505648242396,6.10930751541213,1.0158225297927856,-5.460576299821035
1708435822.422347,-2.1417534351348877,-1.3330331605723877,-2.5256388823138636,6.109312045365133,1.0158343315124512,-5.460530106221334
1708435822.4243708,-2.1417534351348877,-1.333057240848877,-2.5256925264941614,6.1092907069023035,1.015879511833191,-5.460525755082266
1708435822.4263623,-2.1417250633239746,-1.3330243986896058,-2.5256550947772425,6.109323966294088,1.0158872604370117,-5.4605687896357935
1708435822.4283452,-2.141749143600464,-1.333028720026352,-2.5256882349597376,6.109274375229635,1.0158586502075195,-5.460582260285513
1708435822.4303563,-2.1417534351348877,-1.3330332201770325,-2.5257163683520716,6.109266984253683,1.0158963203430176,-5.460619811211721
1708435822.432356,-2.1417746543884277,-1.3330080968192597,-2.5257206598864954,6.1093283770378015,1.0159111022949219,-5.46063614288439
1708435822.4343543,-2.1417746543884277,-1.3330374968102952,-2.5257325808154505,6.109269845276632,1.0159111022949219,-5.46063465276827
1708435822.436343,-2.1417746543884277,-1.3330453348210831,-2.525707546864645,6.109253513603964,1.0159682035446167,-5.460612360631124
1708435822.4383547,-2.141770362854004,-1.3330243688872834,-2.5256944338427942,6.109326469689169,1.0159636735916138,-5.460641745720999
1708435822.4403644,-2.1418046951293945,-1.3330734980157395,-2.525715176259176,6.109298455506124,1.0159547328948975,-5.460690085087911
1708435822.44234,-2.1417579650878906,-1.3330409538796921,-2.5257890860186976,6.109256493836202,1.015992283821106,-5.460661474858419
1708435822.4443927,-2.1417462825775146,-1.33301696301017,-2.52574330965151,6.109321105271139,1.016007423400879,-5.4606480042087
1708435822.446348,-2.1417667865753174,-1.3330497455647965,-2.5257554689990442,6.109335529595175,1.016052484512329,-5.460751060639517
1708435822.4483845,-2.141741991043091,-1.3329994541457673,-2.5257468859301966,6.109281766205587,1.016023874282837,-5.460713867341177
1708435822.4503596,-2.1417958736419678,-1.333114744429924,-2.5257585684405726,6.109314906388082,1.0160568952560425,-5.460712377225057
1708435822.452357,-2.1417622566223145,-1.3330822747996827,-2.5257957617389124,6.109293925553121,1.0160598754882812,-5.460728768502371
1708435822.4543495,-2.1417622566223145,-1.333024413590767,-2.5257795492755335,6.109319436341085,1.0160508155822754,-5.460752610360281
1708435822.4563544,-2.1417746543884277,-1.3330691319755097,-2.5257914702044886,6.109280574112692,1.0160629749298096,-5.46077669063677
1708435822.4583495,-2.1417789459228516,-1.3330409836820145,-2.5258122126208704,6.109359609871664,1.0160417556762695,-5.460834507142202
1708435822.4603508,-2.1417622566223145,-1.3330243837884446,-2.5258076826678675,6.109338509827413,1.0160781145095825,-5.460829977189199
1708435822.4623446,-2.141741991043091,-1.3330366623452683,-2.5258527437793177,6.109339940338888,1.016164779663086,-5.460821036492483
1708435822.4643817,-2.1417667865753174,-1.3331060123494645,-2.525855843220846,6.109293925553121,1.0161395072937012,-5.4608362952815455
1708435822.4663568,-2.1417622566223145,-1.333069161777832,-2.525811020527975,6.10935519912795,1.0161230564117432,-5.460885767136709
1708435822.4683993,-2.1417341232299805,-1.3330169481090088,-2.525843922291891,6.109335529595175,1.016180157661438,-5.460909549389974
1708435822.4703486,-2.1417789459228516,-1.3330735129169007,-2.525879685078756,6.109346139221945,1.016196608543396,-5.460905079041616
1708435822.472388,-2.1417622566223145,-1.3330767464688797,-2.525916639958517,6.10933397987441,1.0162039995193481,-5.460928920899526
1708435822.474354,-2.1417295932769775,-1.3330442172339936,-2.5258634726153772,6.109317528992452,1.0161995887756348,-5.46091998020281
1708435822.4763584,-2.1417622566223145,-1.333057240848877,-2.5258753935443323,6.109359609871664,1.0161712169647217,-5.460910979901449
1708435822.478367,-2.1417622566223145,-1.3330647957376023,-2.52588397661318,6.1093129990394495,1.016223669052124,-5.4609649817096155
1708435822.4803789,-2.1417579650878906,-1.3330156964114686,-2.525895897542135,6.109305965691366,1.0162358283996582,-5.460993234311239
1708435822.4823625,-2.1417126655578613,-1.3330940467170258,-2.5258873144732874,6.109317528992452,1.0162525177001953,-5.46099174419512
1708435822.4843643,-2.141771078109741,-1.3330648255399247,-2.5259204546557825,6.109341609268942,1.0162479877471924,-5.461036447678701
1708435822.4863534,-2.1417384147644043,-1.3330572557500382,-2.5259116331683558,6.1093580601509,1.016243577003479,-5.461065057908193
1708435822.4883745,-2.1417295932769775,-1.3330409687808533,-2.525919262562887,6.109341609268942,1.016276240348816,-5.4610798994647425
1708435822.4903574,-2.141784191131592,-1.333117888574936,-2.525914971028463,6.1093249199684045,1.0162509679794312,-5.461067978535787
1708435822.4923735,-2.1417508125305176,-1.333097295170166,-2.5259278456317347,6.109349119454183,1.0162718296051025,-5.46108323732485
1708435822.4944153,-2.1417341232299805,-1.3330244433930893,-2.5259559790240687,6.109378921776571,1.0162792205810547,-5.461147193108694
1708435822.4963608,-2.1417596340179443,-1.333057240848877,-2.525914971028463,6.1093835709388635,1.0163171291351318,-5.461159114037649
1708435822.4983654,-2.141730308532715,-1.3330973398736496,-2.525947395955221,6.1093506691749475,1.0163408517837524,-5.461224619542257
1708435822.5003512,-2.141779899597168,-1.333076761370041,-2.5259388128863733,6.1093835709388635,1.0163363218307495,-5.461138192807333
1708435822.5023453,-2.141742706298828,-1.3330854189446946,-2.5259388128863733,6.1093294499214075,1.0163575410842896,-5.461223427449362
1708435822.5043547,-2.141730308532715,-1.3330191534808655,-2.525975529347555,6.1093084690864465,1.0163694620132446,-5.461277131234304
1708435822.5063522,-2.1416945457458496,-1.333052934413292,-2.5259223620044153,6.10940312126235,1.0163440704345703,-5.4613147417651575
1708435822.5083752,-2.1416733264923096,-1.3330615770867844,-2.525975529347555,6.109344470291891,1.0163559913635254,-5.461275879536764
1708435822.5103502,-2.1416988372802734,-1.3330442321351548,-2.525991980229513,6.10940312126235,1.0163967609405518,-5.461306873952047
1708435822.5123577,-2.141742706298828,-1.3330940914205094,-2.5259833971606653,6.109390842705526,1.0164204835891724,-5.461314562951223
1708435822.5143712,-2.1417348384857178,-1.3330157560161133,-2.5259996096240442,6.109377372055807,1.0164085626602173,-5.461421851311819
1708435822.5163486,-2.14168643951416,-1.3330398064902802,-2.5259748140918177,6.109378921776571,1.016416072845459,-5.4613428751574915
1708435822.518388,-2.1416819095611572,-1.3330528897098084,-2.526015106831686,6.109372842102804,1.016411542892456,-5.461370054875509
1708435822.520356,-2.141711950302124,-1.333061621790268,-2.5260282198535364,6.109346139221945,1.0164445638656616,-5.461444441472189
1708435822.5223444,-2.1417348384857178,-1.3331093055060883,-2.5260029474841517,6.109428512841024,1.0164401531219482,-5.461435560380117
1708435822.5243921,-2.1417276859283447,-1.3330854636481781,-2.5260356108294886,6.109341609268942,1.0164282321929932,-5.461442951356069
1708435822.5263548,-2.14166522026062,-1.3330886673978348,-2.5260520617114466,6.109395372658529,1.0164356231689453,-5.4614994565593165
1708435822.5283618,-2.1417102813720703,-1.333069161777832,-2.5260401407824915,6.109351980477133,1.0164388418197632,-5.461495045815603
1708435822.5303628,-2.1417031288146973,-1.3330660921386261,-2.5260356108294886,6.1093400595481775,1.0164732933044434,-5.461523656045095
1708435822.5323617,-2.1417031288146973,-1.3330561530641098,-2.526043478642599,6.109377372055807,1.0164809226989746,-5.461514774953024
1708435822.53435,-2.1417322158813477,-1.3331060272506257,-2.5260685125934046,6.109477746277609,1.0164793729782104,-5.461538557206289
1708435822.5363567,-2.1416995525360107,-1.3331298393062134,-2.526043478642599,6.109335529595175,1.0164867639541626,-5.461583618317739
1708435822.5383644,-2.1416501998901367,-1.333056093459465,-2.5260260740863245,6.109374511032858,1.0165201425552368,-5.461611811314718
1708435822.540371,-2.141666889190674,-1.3330854636481781,-2.5260422865497034,6.10934733131484,1.0165165662765503,-5.4616058508502405
1708435822.5423427,-2.1416711807250977,-1.3330485385707398,-2.526055399571554,6.109377372055807,1.016486644744873,-5.461683694516317
1708435822.5443544,-2.141667604446411,-1.3331342053464432,-2.526055399571554,6.109349119454183,1.016550064086914,-5.461646322404043
1708435822.5463517,-2.1416711807250977,-1.3330799800208588,-2.526055399571554,6.10938190200881,1.0165408849716187,-5.461649302636282
1708435822.5483694,-2.1416711807250977,-1.3330810529044648,-2.5260794798480433,6.109386431961813,1.0165408849716187,-5.461705867444174
1708435822.5503542,-2.1416587829589844,-1.3330518168262024,-2.5261088053332728,6.109386431961813,1.0165573358535767,-5.461705867444174
1708435822.5523586,-2.1416306495666504,-1.3330692064813157,-2.5260990301715296,6.109293448715963,1.016532063484192,-5.461708847676412
1708435822.554364,-2.1416587829589844,-1.3330854189446946,-2.5260708967791956,6.109401452332296,1.0165843963623047,-5.461740497742788
1708435822.5563471,-2.1415812969207764,-1.3330723953298111,-2.5260828177081507,6.109407651215353,1.0166476964950562,-5.4617745915996
1708435822.5583487,-2.1416192054748535,-1.3330886673978348,-2.5261033217059534,6.109410512238302,1.0165557861328125,-5.461747948323385
1708435822.5603578,-2.1415770053863525,-1.3330649149468918,-2.5261314550982874,6.109394061356344,1.0165634155273438,-5.461841944848196
1708435822.5624042,-2.1415812969207764,-1.3330961924842377,-2.5261357466327112,6.109457123070516,1.0165921449661255,-5.461870555077688
1708435822.5643673,-2.1415247917175293,-1.333137423997261,-2.5261314550982874,6.109394061356344,1.016587495803833,-5.461807731782095
1708435822.5663848,-2.14158296585083,-1.3330604893020173,-2.5261152426349085,6.109372842102804,1.0165830850601196,-5.461898509656088
1708435822.5683734,-2.141594409942627,-1.3331222844174881,-2.5261603037463587,6.109428393631735,1.0166488885879517,-5.461897079144613
1708435822.5703778,-2.1415493488311768,-1.3331453514150162,-2.5261271635638636,6.109386312752523,1.0166611671447754,-5.461933139954702
1708435822.5723577,-2.141493082046509,-1.3330930036357422,-2.5261483828174036,6.10938190200881,1.0166369676589966,-5.461896006261007
1708435822.5743651,-2.141530990600586,-1.3331080836108704,-2.526097838078634,6.109390842705526,1.0166987180709839,-5.461976353322164
1708435822.5763502,-2.1414973735809326,-1.3331211817315598,-2.526139561329977,6.1093952534492395,1.016706109046936,-5.462018195782797
1708435822.5783432,-2.1414620876312256,-1.3331496727517624,-2.5261226336108606,6.1093835709388635,1.016652226448059,-5.461951021348135
1708435822.580391,-2.1414794921875,-1.3331287664226075,-2.526163403187887,6.109317648201742,1.0166807174682617,-5.462019745503561
1708435822.5823362,-2.141507863998413,-1.333091826444008,-2.5262089411364954,6.109332668572225,1.0166716575622559,-5.462064389382498
1708435822.584349,-2.141453981399536,-1.333124340777733,-2.526187245045797,6.109338509827413,1.0167301893234253,-5.462093059216635
1708435822.5863674,-2.141451358795166,-1.3331779402545472,-2.5261502901660364,6.109292495041647,1.0166791677474976,-5.46203059354891
1708435822.5883524,-2.1414151191711426,-1.3331778210452576,-2.5261710325824183,6.1092896340186975,1.0167195796966553,-5.462140981351034
1708435822.5903983,-2.1413540840148926,-1.3332107228091736,-2.526175324116842,6.109335410385885,1.0167405605316162,-5.462157074605123
1708435822.5923605,-2.1413180828094482,-1.3330993962338944,-2.5261991659747522,6.109271514206686,1.0167529582977295,-5.462123278771536
1708435822.594487,-2.141380548477173,-1.333132193689682,-2.526236597691671,6.109325516014852,1.016769289970398,-5.462216917668478
1708435822.5964074,-2.1412792205810547,-1.3332048070481797,-2.5261741320239466,6.1092309830482385,1.0168020725250244,-5.46221244732012
1708435822.5984108,-2.141268491744995,-1.333185688858368,-2.5262308756457728,6.109160887985983,1.016800880432129,-5.462239329014913
1708435822.6003988,-2.1412112712860107,-1.333221049313881,-2.5262354055987757,6.109159219055929,1.016812801361084,-5.46224815050234
1708435822.6023667,-2.1412065029144287,-1.333197609787323,-2.526181761418478,6.109150159149923,1.016834020614624,-5.462230328713552
1708435822.6043975,-2.141131639480591,-1.3331845712712784,-2.526259247456686,6.1090887663658044,1.0168204307556152,-5.46224564710726
1708435822.6063643,-2.1410953998565674,-1.333221049313881,-2.526280228291647,6.109075891762533,1.016844630241394,-5.4623189012156885
1708435822.6083612,-2.1410391330718994,-1.333229811196663,-2.5262964407550257,6.109014379769125,1.0168850421905518,-5.462311331425802
1708435822.6103518,-2.141056537628174,-1.3332167875817795,-2.5262869040118616,6.108994710236349,1.0169181823730469,-5.462359015141622
1708435822.6123784,-2.1409621238708496,-1.3331961941770096,-2.526339832936422,6.108914005547323,1.0169451236724854,-5.462408427392141
1708435822.614375,-2.1409356594085693,-1.3332899820855637,-2.526389185582296,6.108849990158834,1.0169570446014404,-5.4624515811549585
1708435822.6163783,-2.140859842300415,-1.3332603734782715,-2.52635103860964,6.10879002788619,1.0169646739959717,-5.46241003671755
1708435822.6183813,-2.1408233642578125,-1.33323526502166,-2.5263925234424036,6.108763086586752,1.0169888734817505,-5.462442700062887
1708435822.6203578,-2.1408119201660156,-1.3332812947085877,-2.5263999144183558,6.108653890877523,1.0170550346374512,-5.462424937878744
1708435822.622385,-2.140727996826172,-1.333263860349991,-2.5264151732074183,6.108607518463888,1.0170655250549316,-5.462511483822958
1708435822.6243725,-2.1406850814819336,-1.3333451610854645,-2.5264599959002894,6.108577596932211,1.017122745513916,-5.462547187005178
1708435822.6263704,-2.140625476837158,-1.3332801175168534,-2.5265210310565394,6.108452069550314,1.0171555280685425,-5.462629262601034
1708435822.62836,-2.1404993534088135,-1.3333734285882493,-2.526503626500265,6.108406054764547,1.0171616077423096,-5.462541405354635
1708435822.6303504,-2.1404287815093994,-1.3333278012326737,-2.52657658258547,6.108231174736776,1.017197608947754,-5.462644223366873
1708435822.6323688,-2.1403844356536865,-1.3333158803037186,-2.5265920797931116,6.108144271164694,1.0172425508499146,-5.462647203599111
1708435822.6343853,-2.1402885913848877,-1.3332983714393158,-2.526583258305685,6.108044135361471,1.0171918869018555,-5.462584857140676
1708435822.6363966,-2.140242099761963,-1.333405078654625,-2.526616160069601,6.107964622765341,1.0172698497772217,-5.462666634713308
1708435822.6383529,-2.1401124000549316,-1.333420069222786,-2.5266757647143763,6.107878076821127,1.0173401832580566,-5.462718907986776
1708435822.6403635,-2.1399803161621094,-1.3334041398814698,-2.526686731969015,6.107751118927755,1.0173133611679077,-5.462689344082968
1708435822.642382,-2.1399495601654053,-1.3334277433208008,-2.526768747960226,6.107559668808737,1.0173866748809814,-5.462710146103994
1708435822.6443646,-2.139814853668213,-1.3334562492421647,-2.5268407503711146,6.107441651612081,1.017427682876587,-5.46270871559252
1708435822.6463654,-2.1396658420562744,-1.3335215610316773,-2.526832167302267,6.107244241028585,1.017423152923584,-5.462762240563528
1708435822.6483636,-2.1395084857940674,-1.333507092004158,-2.526839558278219,6.107166754990377,1.0174545049667358,-5.462777439747946
1708435822.6503475,-2.139394521713257,-1.3335767996362229,-2.526874367390768,6.107005226403036,1.017486333847046,-5.4628175536738794
1708435822.6523783,-2.1392946243286133,-1.333559350376465,-2.5269604364978235,6.106905090599813,1.0175026655197144,-5.462792758141653
1708435822.654347,-2.139111280441284,-1.3336246919683,-2.526975695286886,6.106715428620138,1.0176078081130981,-5.46283591190447
1708435822.6563954,-2.1390154361724854,-1.3336189550212403,-2.5270355383502405,6.106573331146993,1.017611026763916,-5.4629327098475855
1708435822.6583636,-2.138827323913574,-1.3336189550212403,-2.52706748643984,6.1064283726509,1.0176963806152344,-5.46287310520281
1708435822.6603503,-2.1386871337890625,-1.3336843264153977,-2.527095619832174,6.106269824295797,1.0177074670791626,-5.462922040616171
1708435822.6623647,-2.138479471206665,-1.3336877983859559,-2.527139488850729,6.1060231802757166,1.0177748203277588,-5.462982002888815
1708435822.664372,-2.138381004333496,-1.3337635856917878,-2.52724534669985,6.1058705923850916,1.0178933143615723,-5.462965671216146
1708435822.6663916,-2.1380999088287354,-1.3337267202189942,-2.527276579533712,6.105609047203817,1.0179009437561035,-5.462973121796743
1708435822.6683912,-2.1379451751708984,-1.333799661403038,-2.527283493672506,6.105410086899557,1.017971396446228,-5.462988380585806
1708435822.670356,-2.1377182006835938,-1.3338472706130524,-2.5273268858539026,6.105133759766378,1.0181022882461548,-5.463004473839895
1708435822.6724045,-2.1375136375427246,-1.333846167927124,-2.527445141469137,6.10495280006484,1.018136739730835,-5.463040415440695
1708435822.674367,-2.1372737884521484,-1.333846167927124,-2.5275045076953333,6.104722487717428,1.0181519985198975,-5.463106099759237
1708435822.676355,-2.137030601501465,-1.3338952672532578,-2.5274952093707483,6.104425418167867,1.0182900428771973,-5.463113311921255
1708435822.6783566,-2.1368064880371094,-1.3339300912669678,-2.5276203791247767,6.104146945267477,1.0183652639389038,-5.463120702897207
1708435822.6803741,-2.136568307876587,-1.333946020608284,-2.5276346842395228,6.103887188225546,1.0184705257415771,-5.463152293358938
1708435822.6823494,-2.136260747909546,-1.333986372952797,-2.5277894178973597,6.103592502861776,1.0185800790786743,-5.4631646315204065
1708435822.6883583,-2.1354706287384033,-1.3340657514384766,-2.528013054524557,6.102627146034994,1.0188583135604858,-5.463261369858877
1708435822.6903698,-2.135180950164795,-1.3341093969396134,-2.528076235448019,6.102278220444479,1.0189920663833618,-5.463285450135366
1708435822.6923783,-2.1348683834075928,-1.3341854375651856,-2.5281932989703577,6.101996171265402,1.0190626382827759,-5.463292960320608
1708435822.694368,-2.1345090866088867,-1.3342060309699555,-2.5282562414752405,6.101604211121359,1.0191513299942017,-5.463312272225515
1708435822.6963816,-2.134157657623291,-1.33424528062854,-2.5283568541156214,6.101251351624288,1.0193032026290894,-5.4632989207850855
1708435822.6983736,-2.13381028175354,-1.3342886728099366,-2.528480831776754,6.100781786232748,1.0194491147994995,-5.463301901017324
1708435822.7003617,-2.133361339569092,-1.334323675637581,-2.5285397211657923,6.10037528255538,1.0196304321289062,-5.463374857102529
1708435822.7023628,-2.1329023838043213,-1.3344202798656006,-2.5287087599383753,6.099875914841451,1.0197211503982544,-5.463409368191854
1708435822.7043815,-2.132559299468994,-1.334497095351555,-2.5287962595569056,6.099501478462972,1.019906997680664,-5.463424269353048
1708435822.7063484,-2.132122278213501,-1.3345324260047455,-2.5289652983294886,6.099066006928243,1.0200588703155518,-5.463419858609335
1708435822.7083552,-2.1317360401153564,-1.3346451979926606,-2.5291054884540003,6.098593461304464,1.0201987028121948,-5.4634109179126185
1708435822.710359,-2.131317377090454,-1.3346888285926362,-2.529228989277975,6.098110544472494,1.0203295946121216,-5.4634138385402125
1708435822.7123668,-2.130843162536621,-1.3347279292396088,-2.5293241182910364,6.0975626585777185,1.0205321311950684,-5.463483754788534
1708435822.7143526,-2.1303274631500244,-1.3347833913615723,-2.529484573994772,6.097051965981283,1.0206962823867798,-5.463510994111196
1708435822.7163918,-2.12984037399292,-1.3348595362952729,-2.529644552861349,6.096503722458639,1.0208675861358643,-5.463539544736044
1708435822.7183492,-2.1293089389801025,-1.334984229212143,-2.529821221028463,6.095991003304281,1.0211050510406494,-5.463566366826193
1708435822.7203562,-2.128770351409912,-1.3350189489177247,-2.52998930612673,6.095316278725424,1.0213496685028076,-5.463585738335745
1708435822.7223601,-2.1282358169555664,-1.3350910407355805,-2.5301409403430384,6.094718920975485,1.0215303897857666,-5.463621799145834
1708435822.7243881,-2.127664089202881,-1.3350728315166016,-2.5303295294391077,6.094162690430441,1.0217095613479614,-5.463642541562216
1708435822.7263606,-2.127094268798828,-1.3351975244334717,-2.5304275194751185,6.0935484049613855,1.0218898057937622,-5.463682774697439
1708435822.728357,-2.1265320777893066,-1.3353139621070405,-2.5306814352618616,6.092844235688009,1.0221436023712158,-5.463678363953726
1708435822.7303412,-2.1258554458618164,-1.3353572648814698,-2.530832354222433,6.092160928040304,1.0223585367202759,-5.463721815739767
1708435822.7323825,-2.1252551078796387,-1.3355104190162201,-2.5310404936419886,6.091485965042867,1.0226260423660278,-5.46377528110613
1708435822.734356,-2.124565362930298,-1.335613564854004,-2.531224791203634,6.090702640801229,1.0228904485702515,-5.463806990777151
1708435822.736358,-2.1239006519317627,-1.3356854182532807,-2.5314322153674524,6.090038525849142,1.0231667757034302,-5.463862065468923
1708435822.7383583,-2.1231801509857178,-1.3357961934855958,-2.5316644350634974,6.0892523405845544,1.0234148502349854,-5.463862065468923
1708435822.7403524,-2.1225032806396484,-1.3359050762704392,-2.531868282948629,6.088486897736349,1.023712396621704,-5.463853184376852
1708435822.742344,-2.1218090057373047,-1.335996390586235,-2.5321171919452112,6.087701904564657,1.0239845514297485,-5.463901106511251
1708435822.7443492,-2.121001720428467,-1.3361365062049408,-2.5323122183429163,6.086761224060812,1.0242279767990112,-5.463957671319143
1708435822.746349,-2.1202144622802734,-1.3362440329841156,-2.53259784380068,6.085998403816976,1.0245225429534912,-5.4640055934535425
1708435822.7483652,-2.1194207668304443,-1.336318091755249,-2.5328293482409876,6.0851207850273035,1.0248140096664429,-5.463996771966116
1708435822.7503772,-2.1186141967773438,-1.3364507418921967,-2.5330660978900355,6.084227072983541,1.0251808166503906,-5.46404874721636
1708435822.7523873,-2.1178457736968994,-1.3365813952735444,-2.533325735722677,6.083292948990621,1.025446891784668,-5.46409380832781
1708435822.7543676,-2.116924285888672,-1.3367183369449158,-2.5335610548602503,6.082376348763265,1.0257972478866577,-5.464137260113851
1708435822.756356,-2.1160383224487305,-1.336815820341446,-2.5338500181781214,6.081325638085165,1.0261261463165283,-5.464140001927511
1708435822.758352,-2.1151716709136963,-1.337005079989769,-2.5340898672686976,6.080378401070394,1.0264588594436646,-5.464278880749838
1708435822.7603722,-2.1142752170562744,-1.3371334236911316,-2.5343452135669153,6.079370009690084,1.026787281036377,-5.464277450238363
1708435822.76236,-2.113352060317993,-1.3373134297183533,-2.534637753163473,6.07842110374526,1.0271164178848267,-5.464271608983175
