Eg3-git/Classifiers/Data Collection/u3/u3star4_ur3e_joint_states.csv
time,elbow_joint,shoulder_lift_joint,shoulder_pan_joint,wrist_1_joint,wrist_2_joint,wrist_3_joint
1708435788.22423,-2.1556618213653564,-1.3384851229241868,-2.529149595891134,6.14747308471755,1.0223498344421387,-5.258426491414205
1708435788.2261443,-2.1555912494659424,-1.3384327006391068,-2.5291746298419397,6.147182690888204,1.0223464965820312,-5.258371416722433
1708435788.228157,-2.155486822128296,-1.3384499859860917,-2.5291298071490687,6.14697145202712,1.0223510265350342,-5.258296791707174
1708435788.2301552,-2.155364513397217,-1.3384216290763398,-2.5291133562671106,6.146731960564413,1.022326946258545,-5.258147064839498
1708435788.2321599,-2.1552987098693848,-1.3384182763150712,-2.5291102568255823,6.146504270821371,1.022279143333435,-5.258097712193624
1708435788.2341478,-2.1551942825317383,-1.3383454394391556,-2.529106918965475,6.146256673126974,1.0222337245941162,-5.257969681416647
1708435788.2361488,-2.1551194190979004,-1.3383216869882126,-2.5291264692889612,6.1460009692008875,1.022247314453125,-5.257808868085043
1708435788.2382097,-2.1550071239471436,-1.3383105111173172,-2.529041353856222,6.145782100945272,1.0221781730651855,-5.257782761250631
1708435788.2402482,-2.1548945903778076,-1.338213012819626,-2.5290263334857386,6.145566570549764,1.0221827030181885,-5.257602159176962
1708435788.2421718,-2.1548314094543457,-1.338262901907303,-2.5290101210223597,6.145211088448324,1.0221349000930786,-5.257584635411398
1708435788.244162,-2.1547157764434814,-1.3382379573634644,-2.5290144125567835,6.145046341210165,1.0220866203308105,-5.257353369389669
1708435788.2461705,-2.1546313762664795,-1.3381914061358948,-2.5290024916278284,6.144791710167684,1.0220580101013184,-5.257303659115927
1708435788.2481713,-2.154466152191162,-1.338097707634308,-2.528998915349142,6.144489276200094,1.02203369140625,-5.257191602383749
1708435788.2501543,-2.1544127464294434,-1.3381435734084626,-2.528961722050802,6.14420639255599,1.0219992399215698,-5.257080737744467
1708435788.2521684,-2.1543216705322266,-1.3380912107280274,-2.5289674440967005,6.143975722580709,1.0219993591308594,-5.256960097943441
1708435788.2541533,-2.1542141437530518,-1.3380182844451447,-2.5289467016803187,6.143608438759603,1.0219391584396362,-5.256881658230917
1708435788.2561424,-2.15405535697937,-1.3379660111716767,-2.5289347807513636,6.143379795342245,1.0219228267669678,-5.256729904805319
1708435788.2581513,-2.153939962387085,-1.3379021745971222,-2.5289183298694056,6.143134104996481,1.0218939781188965,-5.256637517605917
1708435788.2601414,-2.153886079788208,-1.3379154068282624,-2.5288661162005823,6.142781960755148,1.0218251943588257,-5.256575051938192
1708435788.2621405,-2.1537411212921143,-1.3378954541734238,-2.5288952032672327,6.142606723099508,1.021838665008545,-5.256439391766683
1708435788.2641683,-2.1536331176757812,-1.3378198009780427,-2.528890911732809,6.142256366997518,1.021769642829895,-5.25639254251589
1708435788.2661886,-2.1535134315490723,-1.3377956014922638,-2.5289040247546595,6.142006146698751,1.0217260122299194,-5.256289664899008
1708435788.268169,-2.1534178256988525,-1.337804154758789,-2.5288670698748987,6.141733395844259,1.0216974020004272,-5.256149355565206
1708435788.2701511,-2.153326988220215,-1.3377683919719239,-2.5288177172290247,6.141478764801779,1.0216327905654907,-5.256003801022665
1708435788.2721987,-2.1531875133514404,-1.3377247017673035,-2.528847042714254,6.141108977585592,1.0216177701950073,-5.255888883267538
1708435788.2741468,-2.1530299186706543,-1.3376439374736329,-2.5287938753711146,6.140785205155172,1.0215846300125122,-5.255809251462118
1708435788.276161,-2.1529390811920166,-1.3376163405231019,-2.528806988392965,6.140503871231832,1.0215245485305786,-5.255705420170919
1708435788.2781484,-2.152775764465332,-1.3376010221293946,-2.528839651738302,6.14013563373641,1.0215139389038086,-5.255588952695028
1708435788.2801692,-2.1525943279266357,-1.3375080686858674,-2.52875787416567,6.139823782234945,1.02145254611969,-5.255517784749166
1708435788.2821329,-2.1525237560272217,-1.337476299410202,-2.528815809880392,6.139448034554281,1.0214624404907227,-5.255500380192892
1708435788.2841697,-2.1523525714874268,-1.3374201667359848,-2.528783146535055,6.139170872956075,1.021432638168335,-5.255350772534506
1708435788.2861652,-2.1521995067596436,-1.3374252182296296,-2.52873403230776,6.138752686768331,1.0213892459869385,-5.255316797886984
1708435788.2882009,-2.152053117752075,-1.337405265574791,-2.528677288685934,6.138434159546652,1.0213696956634521,-5.25519580045809
1708435788.2901409,-2.151921272277832,-1.3373219084790726,-2.5287469069110315,6.1381239769752405,1.021312952041626,-5.2551732699023646
1708435788.2921412,-2.151759386062622,-1.337338076238968,-2.5287306944476526,6.137836444168844,1.0213217735290527,-5.255027000104086
1708435788.2941458,-2.15165376663208,-1.3372413677028199,-2.5287590662585657,6.137432324677267,1.0212855339050293,-5.254976693783895
1708435788.296148,-2.1515071392059326,-1.3372179430774231,-2.52873403230776,6.137071120529928,1.0212658643722534,-5.2549209038363855
1708435788.2981436,-2.151350736618042,-1.3371576976827164,-2.5287469069110315,6.136723744660177,1.0212205648422241,-5.254902784024374
1708435788.3001478,-2.1511495113372803,-1.3371058118394394,-2.528693501149313,6.136376487999716,1.0211714506149292,-5.254829947148458
1708435788.3021421,-2.151024103164673,-1.337102473979332,-2.5287187735186976,6.136030781060018,1.0211894512176514,-5.254762593899862
1708435788.3041632,-2.150865316390991,-1.3370867681554337,-2.5287721792804163,6.135633456497946,1.021148681640625,-5.2547131220446985
1708435788.3061562,-2.1506521701812744,-1.3370748323253174,-2.528726402913229,6.135282861977377,1.0211412906646729,-5.254671398793356
1708435788.3081834,-2.1504762172698975,-1.3370430779508133,-2.5287144819842737,6.1349608776863,1.021138072013855,-5.254642788563864
1708435788.310157,-2.1503748893737793,-1.3369630736163636,-2.5286904017077845,6.134517895966329,1.021067500114441,-5.254619065915243
1708435788.3121564,-2.1501598358154297,-1.3369347018054505,-2.5287144819842737,6.134189474373617,1.0210933685302734,-5.254525844250814
1708435788.31415,-2.149994373321533,-1.3369228702834626,-2.5287187735186976,6.133767711907186,1.021098017692566,-5.254530851040975
1708435788.316175,-2.149740219116211,-1.336826429968216,-2.5287066141711634,6.133381116181173,1.0210599899291992,-5.254588786755697
1708435788.3181727,-2.1495938301086426,-1.3368552339128037,-2.528738323842184,6.132949816971578,1.0210853815078735,-5.254494015370504
1708435788.3201919,-2.149451732635498,-1.3368065071156998,-2.5286977926837366,6.1325262663658044,1.0210646390914917,-5.254568401967184
1708435788.3221512,-2.1492648124694824,-1.3367753636888047,-2.528738323842184,6.132072317391195,1.0210943222045898,-5.254571382199423
1708435788.3241951,-2.1490638256073,-1.3367511940053483,-2.5287557283984583,6.131761896401205,1.021069049835205,-5.254632417355673
1708435788.326158,-2.1488564014434814,-1.3367236268571396,-2.5287798086749476,6.131320464401998,1.0211068391799927,-5.25467294851412
1708435788.3282037,-2.1486306190490723,-1.336675525908806,-2.528738323842184,6.1309865591819666,1.0210779905319214,-5.254666868840353
1708435788.330152,-2.148468494415283,-1.3366598051837464,-2.528726402913229,6.130537020951071,1.0210330486297607,-5.254716102276937
1708435788.3321948,-2.148294448852539,-1.3366272014430542,-2.528778855000631,6.130162703781881,1.02105712890625,-5.254726473485128
1708435788.3341746,-2.148099660873413,-1.3366288405707856,-2.528717581425802,6.129662620812216,1.0210527181625366,-5.254848901425497
1708435788.3361776,-2.1478543281555176,-1.3365719777396698,-2.52873403230776,6.129259216576376,1.0210853815078735,-5.2548715511905115
1708435788.3382254,-2.1476471424102783,-1.3365642440370102,-2.528799597417013,6.128840076714315,1.02105712890625,-5.254944388066427
1708435788.3402178,-2.147454023361206,-1.336516336803772,-2.528745953236715,6.128401267319479,1.0210809707641602,-5.254943315182821
1708435788.3421671,-2.1471805572509766,-1.336512104873993,-2.52879506746401,6.12794457653121,1.021121621131897,-5.255014721547262
1708435788.3441792,-2.146939277648926,-1.3364964139512558,-2.52881890932192,6.127550232201376,1.0211187601089478,-5.255062643681661
1708435788.3461514,-2.1467373371124268,-1.3364487004331131,-2.5288265387164515,6.127103078156271,1.0210763216018677,-5.255155388508932
1708435788.3481479,-2.1465272903442383,-1.336432547574379,-2.5289083162890833,6.126680242806234,1.0211052894592285,-5.25515860715975
1708435788.3501465,-2.146282434463501,-1.3363999885371705,-2.528878990803854,6.1262104389961145,1.021138072013855,-5.255188528691427
1708435788.3521457,-2.146073341369629,-1.3363688600114365,-2.528890911732809,6.12583218792037,1.0211412906646729,-5.25533909002413
1708435788.3541515,-2.1457536220550537,-1.3363847446492692,-2.5289061705218714,6.125329959183492,1.0211458206176758,-5.255472127591268
1708435788.3561404,-2.145503044128418,-1.3363244098475953,-2.528976027165548,6.124855267792501,1.0211743116378784,-5.25553805032839
1708435788.358149,-2.1452322006225586,-1.3363659244826813,-2.529019896184103,6.124352204590597,1.021217703819275,-5.255678359662191
1708435788.3601465,-2.144979953765869,-1.3363086891225358,-2.529027287160055,6.12389229515151,1.0212057828903198,-5.255890432988302
1708435788.3621366,-2.1446802616119385,-1.3362483394197007,-2.5290349165545862,6.123355734139242,1.021249532699585,-5.256050411854879
1708435788.364148,-2.144413948059082,-1.3362967681935807,-2.5290544668780726,6.122906791954794,1.0212867259979248,-5.256221000348226
1708435788.3661432,-2.1441268920898438,-1.3362533462098618,-2.5290663878070276,6.122427809029379,1.0212688446044922,-5.256388012562887
1708435788.368151,-2.143871545791626,-1.3363179427436371,-2.529139582310812,6.121960985451498,1.0212733745574951,-5.256632749234335
1708435788.3701427,-2.1436004638671875,-1.336258427505829,-2.5291429201709192,6.121367800026693,1.0213093757629395,-5.25678271452059
1708435788.3721905,-2.1432673931121826,-1.336266041999199,-2.5291627089129847,6.120981919556417,1.0213173627853394,-5.257070843373434
1708435788.3741498,-2.1429824829101562,-1.33617656052623,-2.529154125844137,6.120440470963278,1.0214073657989502,-5.2573023478137415
1708435788.3761773,-2.1426408290863037,-1.3362138879350205,-2.5292845408069056,6.11991440036849,1.0214269161224365,-5.257504169140951
1708435788.378145,-2.1423299312591553,-1.3362498742393036,-2.529267136250631,6.11942075470046,1.0214341878890991,-5.257795635853903
1708435788.3801577,-2.1420679092407227,-1.3362300109914322,-2.5292585531817835,6.1188543913658044,1.0215034484863281,-5.258079234753744
1708435788.3821425,-2.141707420349121,-1.3361968857100983,-2.529339377080099,6.11831675746993,1.021551489830017,-5.258351270352499
1708435788.3841646,-2.1414496898651123,-1.3362300258925934,-2.5293338934527796,6.11778615692214,1.0215948820114136,-5.2586217562304896
1708435788.3861468,-2.141082286834717,-1.3362138879350205,-2.529386345540182,6.1171724674995325,1.02163565158844,-5.258908573781149
1708435788.3881528,-2.140791416168213,-1.3362668615630646,-2.529475752507345,6.116644251137533,1.0217199325561523,-5.259256784115927
1708435788.3901362,-2.140413999557495,-1.3362054240754624,-2.5295596758471888,6.1160833714301965,1.0217769145965576,-5.259549204503195
1708435788.3921413,-2.140058755874634,-1.3362626296332856,-2.529595438634054,6.115435707360067,1.021844506263733,-5.25983173051943
1708435788.394155,-2.139732837677002,-1.336221606736519,-2.5296760241137903,6.1148263094718835,1.0218911170959473,-5.2601497809039515
1708435788.3961608,-2.139348268508911,-1.3362541955760499,-2.529686991368429,6.114225017815389,1.0219436883926392,-5.2605300585376185
1708435788.398148,-2.1390767097473145,-1.3362584573081513,-2.5297144095050257,6.1136664030845544,1.0220160484313965,-5.260810677205221
1708435788.4001505,-2.138639211654663,-1.3362258088639756,-2.5297537485705774,6.113117563515463,1.0221014022827148,-5.261232201253073
1708435788.4021463,-2.1383237838745117,-1.3362703782371064,-2.5298596064196985,6.112507331162252,1.0221692323684692,-5.261549417172567
1708435788.4041812,-2.137876033782959,-1.3362456870130082,-2.5299435297595423,6.111818778305807,1.022281527519226,-5.261908237134115
1708435788.4061527,-2.1375160217285156,-1.336310253744461,-2.530043665562765,6.111207234650411,1.0223661661148071,-5.2622917334186
1708435788.4081812,-2.1371238231658936,-1.3362695288709183,-2.5301156679736536,6.110542046814718,1.0224788188934326,-5.262669150029318
1708435788.4101505,-2.136711597442627,-1.3362491589835663,-2.530196491871969,6.109931814461508,1.0225733518600464,-5.2631123701678675
1708435788.4121752,-2.1363418102264404,-1.336277962928154,-2.5302110354052942,6.109276520996847,1.0226669311523438,-5.263500277196066
1708435788.414158,-2.135944366455078,-1.3362576079419632,-2.5303154627429407,6.108682143479147,1.0227910280227661,-5.263944212590353
1708435788.4161587,-2.135474443435669,-1.3363095086864014,-2.5303590933429163,6.108057844429769,1.0228843688964844,-5.2644715944873255
1708435788.4181523,-2.1350674629211426,-1.3363256466439744,-2.5304680506335657,6.1073516485984705,1.0229462385177612,-5.264868799840109
1708435788.4201622,-2.134612798690796,-1.3363582503846665,-2.5305758158313196,6.106559264450826,1.0230754613876343,-5.265339914952413
1708435788.4221468,-2.134150743484497,-1.3362644773772736,-2.5306034723864954,6.105915415077963,1.0231910943984985,-5.265770260487692
1708435788.4241822,-2.1337690353393555,-1.3363735687783738,-2.5307067076312464,6.105208623200216,1.0233322381973267,-5.266178075467245
1708435788.4261508,-2.1333298683166504,-1.3363574308208008,-2.5308356920825403,6.104510891228475,1.0234979391098022,-5.2667357365237635
1708435788.4281585,-2.1328325271606445,-1.336348907356598,-2.530919615422384,6.1038867113883875,1.0235803127288818,-5.26717192331423
1708435788.4301538,-2.132352352142334,-1.3363650453141709,-2.5310526529895228,6.103085148125448,1.0237408876419067,-5.267671291028158
1708435788.4321568,-2.131845474243164,-1.3364339184812088,-2.5311277548419397,6.102393376618185,1.023877739906311,-5.268196765576498
1708435788.4341493,-2.131439447402954,-1.3364042949727555,-2.5312400499926966,6.101700889855184,1.0239770412445068,-5.26866323152651
1708435788.436167,-2.130887508392334,-1.3363923740438004,-2.5313318411456507,6.101042258530416,1.0240600109100342,-5.269168082867758
1708435788.438215,-2.130392074584961,-1.3364085120013733,-2.531414810811178,6.10026644447402,1.0242745876312256,-5.269667927418844
1708435788.4402056,-2.129857063293457,-1.3364241582206269,-2.531604592000143,6.099499690323629,1.0243993997573853,-5.270209852849142
1708435788.4421933,-2.1294362545013428,-1.336484895353653,-2.531659189854757,6.09881221035079,1.0244938135147095,-5.270718638096945
1708435788.4441605,-2.1289072036743164,-1.3365255457213898,-2.531832520161764,6.098043668061056,1.0246641635894775,-5.2711629311191
1708435788.446146,-2.1284263134002686,-1.3365656000426789,-2.531915251408712,6.097343671112814,1.024803638458252,-5.2718064228640955
1708435788.448188,-2.127880096435547,-1.3365324896625062,-2.532022539769308,6.0965460417564294,1.0249433517456055,-5.272347871457235
1708435788.4501503,-2.127408504486084,-1.3365528595498581,-2.5322240034686487,6.095773327141561,1.0250965356826782,-5.272802058850424
1708435788.4521625,-2.126816511154175,-1.3366534274867554,-2.532360378895895,6.0950026390846155,1.0252108573913574,-5.273340050374166
1708435788.4541488,-2.126290798187256,-1.3366169196418305,-2.532443110142843,6.094308244972982,1.0253387689590454,-5.273852292691366
1708435788.456158,-2.1257877349853516,-1.336588130598404,-2.532551113759176,6.093448388367452,1.0255205631256104,-5.274415914212362
1708435788.4581852,-2.1252658367156982,-1.3366195422462006,-2.5326905886279505,6.092657792359152,1.025655746459961,-5.27501362959017
1708435788.4601526,-2.1246979236602783,-1.3366564077189942,-2.5328107515918177,6.091938602715292,1.0258992910385132,-5.275586191807882
1708435788.4621382,-2.1241111755371094,-1.3367243719151993,-2.5330122152911585,6.091063964157858,1.026025652885437,-5.276110831891195
1708435788.4641776,-2.123537540435791,-1.3367362928441544,-2.5331149736987513,6.090180742531576,1.0262150764465332,-5.276732389126913
1708435788.4661314,-2.1229493618011475,-1.3367842894843598,-2.5332427660571497,6.089370596199789,1.026390790939331,-5.277280513440267
1708435788.4681697,-2.1223549842834473,-1.3367923212102433,-2.5333829561816614,6.088486778527059,1.026546835899353,-5.27785844007601
1708435788.4701552,-2.121781349182129,-1.3368356984904786,-2.533572022114889,6.087645637779989,1.0267242193222046,-5.278455082570211
1708435788.472225,-2.1211230754852295,-1.336880699997284,-2.5336950461017054,6.086747038155355,1.0268715620040894,-5.279030625020162
1708435788.4741402,-2.1205203533172607,-1.3368878376534958,-2.533879343663351,6.085956203728475,1.027039885520935,-5.279624168072836
1708435788.4761581,-2.119932174682617,-1.336899758582451,-2.5339909235583704,6.085079419403829,1.0272818803787231,-5.280221168194906
1708435788.4781866,-2.1192893981933594,-1.3369593781283875,-2.5341423193561,6.084246980934896,1.0274531841278076,-5.2808420101748865
1708435788.4801586,-2.1186230182647705,-1.3369911474040528,-2.534355942402975,6.083281147270956,1.0276455879211426,-5.28143555322756
1708435788.4821582,-2.1179215908050537,-1.3370679479888459,-2.534504238759176,6.082365500717916,1.0278829336166382,-5.28208047548403
1708435788.4841666,-2.117232322692871,-1.337107465868332,-2.5346878210650843,6.081403243332662,1.028066635131836,-5.282714430485861
1708435788.4861538,-2.116542100906372,-1.3371592921069642,-2.5348642508136194,6.080396640091696,1.0282541513442993,-5.283348802720205
1708435788.4881873,-2.115856885910034,-1.337190793161728,-2.535015885029928,6.079489338188925,1.0284510850906372,-5.28396970430483
1708435788.4901564,-2.1151583194732666,-1.3372022223523636,-2.535142485295431,6.078533279686727,1.0286811590194702,-5.284571592007772
1708435788.4921615,-2.1144349575042725,-1.3372541230968018,-2.535318915043966,6.0775842545326135,1.0288596153259277,-5.285123888646261
1708435788.494139,-2.1137003898620605,-1.337298647766449,-2.53548247018923,6.076698410301962,1.0291157960891724,-5.285785261784689
1708435788.4962122,-2.1129746437072754,-1.3374060851386567,-2.535717312489645,6.0756932375724695,1.0292909145355225,-5.286396865044729
1708435788.4981477,-2.112135648727417,-1.3374265891364594,-2.5358262697802942,6.074588882714071,1.0294994115829468,-5.287012461815969
1708435788.5001447,-2.1113362312316895,-1.3374048483422776,-2.5360193888293665,6.073540794640341,1.0297811031341553,-5.287739698086874
1708435788.5022154,-2.110555648803711,-1.337501199250557,-2.5361507574664515,6.072502124100485,1.030000925064087,-5.288283054028646
1708435788.504168,-2.109732151031494,-1.3375684183887024,-2.536431614552633,6.071440326958456,1.03023362159729,-5.288960937653677
1708435788.5061471,-2.108916997909546,-1.3376248639873047,-2.5365710894214075,6.070366489678182,1.030417561531067,-5.289622370396749
1708435788.508261,-2.108160972595215,-1.337648169403412,-2.536767307912008,6.0692810890968225,1.0306826829910278,-5.290278379117147
1708435788.5101876,-2.1072592735290527,-1.3378099364093323,-2.536963764821188,6.068148004799642,1.030877947807312,-5.290926222001211
1708435788.512198,-2.1063849925994873,-1.3378571730903168,-2.537163321171896,6.067122089653768,1.0311311483383179,-5.291517678891317
1708435788.5141706,-2.105506420135498,-1.3379822832397004,-2.5373271147357386,6.0659369108970544,1.0313711166381836,-5.292142514382498
1708435788.516194,-2.104649066925049,-1.3379520040801545,-2.5375919977771204,6.0648289797599695,1.0316517353057861,-5.292824749146597
1708435788.5181777,-2.1037399768829346,-1.3380922389081498,-2.5378080050097864,6.063651311188497,1.031924843788147,-5.293522957955496
1708435788.5201588,-2.102830171585083,-1.3381846410087128,-2.5380151907550257,6.0625038025672815,1.0321725606918335,-5.294130388890402
1708435788.5221364,-2.1018919944763184,-1.3382149797729035,-2.5382395426379603,6.061312901764669,1.0324288606643677,-5.294795219098226
1708435788.52418,-2.100918769836426,-1.3383191239884873,-2.5384185949908655,6.060071456223287,1.032706379890442,-5.295484189187185
1708435788.5261652,-2.100034475326538,-1.3384356957725068,-2.538696829472677,6.058898198395529,1.0329101085662842,-5.296157960091726
1708435788.5281744,-2.099085807800293,-1.33848691106353,-2.538859192525045,6.05770109870986,1.0332199335098267,-5.296776656304495
1708435788.5301597,-2.0981533527374268,-1.3386433732560654,-2.5390825907336634,6.056587087899008,1.0334736108779907,-5.297385636960165
1708435788.5321984,-2.097193479537964,-1.3386824142983933,-2.539295498524801,6.055376994400778,1.033740758895874,-5.297957722340719
1708435788.5341628,-2.0962250232696533,-1.3388313067010422,-2.5395799318896692,6.054153430252828,1.0339843034744263,-5.298599366341726
1708435788.5361545,-2.095181941986084,-1.3388486218503495,-2.539767567311422,6.052860367089071,1.0343142747879028,-5.2993051449405115
1708435788.538171,-2.094170093536377,-1.338944525723793,-2.540027443562643,6.051405060082235,1.0346148014068604,-5.299884263669149
1708435788.5401988,-2.093127965927124,-1.3390931648067017,-2.5402429739581507,6.050083982735433,1.0348873138427734,-5.3005293051349085
1708435788.5421486,-2.0920376777648926,-1.3392052960446854,-2.540499273930685,6.048685657769003,1.0351920127868652,-5.3012123743640345
1708435788.5441747,-2.091010093688965,-1.3392922145179291,-2.540760103856222,6.047365653305807,1.0355534553527832,-5.301778439675466
1708435788.5461466,-2.089907169342041,-1.3394412708333512,-2.5409587065326136,6.046017515450277,1.035797357559204,-5.302411619816915
1708435788.5481672,-2.0888490676879883,-1.3394953471473237,-2.5412235895739954,6.0446663973625085,1.0360981225967407,-5.303065482770101
1708435788.5501451,-2.0877394676208496,-1.339623750453331,-2.5414634386645716,6.04331265667037,1.0363662242889404,-5.303654019032614
1708435788.552156,-2.086543560028076,-1.3397106391242524,-2.541650120412008,6.041761028557577,1.0366871356964111,-5.304273013268606
1708435788.5541437,-2.0853564739227295,-1.3398826581290741,-2.542004410420553,6.0403292057807825,1.036955714225769,-5.304878954087393
1708435788.556141,-2.084235191345215,-1.339982570414879,-2.5421868006335657,6.038792598038473,1.0373716354370117,-5.3055205980884
1708435788.5581481,-2.082998275756836,-1.3401630383780976,-2.5424748102771204,6.037292706757345,1.0377039909362793,-5.306095604096548
1708435788.5601645,-2.0817697048187256,-1.340229646568634,-2.542746130620138,6.035857784539022,1.0379986763000488,-5.306750599537985
1708435788.5621452,-2.0806026458740234,-1.3403436553529282,-2.5430100599872034,6.034327971726217,1.0382916927337646,-5.307301525269644
1708435788.5641582,-2.0793488025665283,-1.340516374712326,-2.5433200041400355,6.032870995789327,1.0386465787887573,-5.307894472275869
1708435788.5661407,-2.078057289123535,-1.3406437051347275,-2.543558661137716,6.03136824348525,1.0389498472213745,-5.30853766599764
1708435788.5681632,-2.076759099960327,-1.3407868605903168,-2.5437853972064417,6.029839145928182,1.0392415523529053,-5.309125606213705
1708435788.570143,-2.0754973888397217,-1.3409470927766343,-2.544140164052145,6.0282949087913416,1.0395585298538208,-5.309755448495046
1708435788.5722044,-2.074143886566162,-1.341122717862465,-2.5444400946246546,6.026670205384054,1.0399118661880493,-5.310350541268484
1708435788.5741374,-2.0728039741516113,-1.3412456673434754,-2.544694964085714,6.0250446675117395,1.0402486324310303,-5.310992721711294
1708435788.5761507,-2.0714032649993896,-1.3414057803205033,-2.544995133076803,6.0234484551246545,1.0405640602111816,-5.311585132275717
1708435788.5781438,-2.0699987411499023,-1.3416499358466645,-2.545258108769552,6.021721112519064,1.040884017944336,-5.3121400515185755
1708435788.5801477,-2.0685489177703857,-1.3418010634234925,-2.5455711523639124,6.020069467812338,1.0413036346435547,-5.312842790280477
1708435788.582148,-2.067115068435669,-1.3419078898480912,-2.5458863417254847,6.018408167153158,1.0416762828826904,-5.313505713139669
1708435788.5841436,-2.065694570541382,-1.342107654815056,-2.546190325413839,6.016667353897848,1.0420249700546265,-5.31412506500353
1708435788.5861547,-2.0642380714416504,-1.3422468614629288,-2.546539370213644,6.014932262688436,1.042336106300354,-5.314701263104574
1708435788.5881867,-2.0628039836883545,-1.3424011927894135,-2.546851460133688,6.013258087425985,1.0427461862564087,-5.31530732313265
1708435788.590153,-2.0612952709198,-1.3425978434136887,-2.547150198613302,6.011509644776144,1.043122410774231,-5.315785888825552
1708435788.592182,-2.0598227977752686,-1.3427850616029282,-2.5474868456469935,6.0096744177635095,1.0434378385543823,-5.316339735184805
1708435788.594174,-2.058257818222046,-1.342943624859192,-2.547818724309103,6.007844555168905,1.0438357591629028,-5.317010049019949
1708435788.5961437,-2.056698799133301,-1.3431157183698197,-2.548084561024801,6.005893575936117,1.044270396232605,-5.317550126706259
1708435788.5981617,-2.0550951957702637,-1.343336046939232,-2.548490111027853,6.003960120468893,1.0446221828460693,-5.318147484456198
1708435788.6001613,-2.053546905517578,-1.3435023737004776,-2.5488513151751917,6.002073037415304,1.0449906587600708,-5.318744126950399
1708435788.6021554,-2.0519425868988037,-1.3437458288720627,-2.5491414705859583,6.000165331154623,1.0453912019729614,-5.319294933472769
1708435788.6042256,-2.050300121307373,-1.3439653825810929,-2.5494981447802942,5.9983065007026575,1.045776605606079,-5.319975678120748
1708435788.6062043,-2.048706531524658,-1.3442085546306153,-2.549850050603048,5.996320712357321,1.0461369752883911,-5.320645574723379
1708435788.6081626,-2.047006607055664,-1.3444209706834336,-2.5501492659198206,5.994352447777548,1.0464272499084473,-5.3212783376323145
1708435788.610153,-2.045267105102539,-1.3445699673942109,-2.550530497227804,5.992445814400472,1.0468418598175049,-5.321870628987448
1708435788.6121662,-2.0436251163482666,-1.3448221248439332,-2.5508742968188685,5.990434396057882,1.047218918800354,-5.322412971650259
1708435788.6141646,-2.041879177093506,-1.345057563190796,-2.5511611143695276,5.9884211895759485,1.0475945472717285,-5.323006633912222
1708435788.6161716,-2.040125608444214,-1.3452762377313157,-2.5514918009387415,5.986322510033407,1.04807448387146,-5.32359886566271
1708435788.6181471,-2.038414478302002,-1.3455034506371994,-2.551922623311178,5.984222161560812,1.0485155582427979,-5.324274782334463
1708435788.6201417,-2.036608934402466,-1.3457187426141282,-2.5522781054126185,5.982194411545553,1.048951506614685,-5.324772063885824
1708435788.6221404,-2.034795045852661,-1.3459712129882355,-2.5525932947741907,5.980056869774618,1.0494204759597778,-5.325338069592611
1708435788.624204,-2.0329253673553467,-1.3462016445449372,-2.5530100504504603,5.9778528092201135,1.0497841835021973,-5.326012496148245
1708435788.6261444,-2.0311431884765625,-1.346456841831543,-2.5533457438098353,5.97566448429183,1.0501972436904907,-5.326616887246267
1708435788.628153,-2.029242515563965,-1.3467132461122056,-2.553708855305807,5.973522531777181,1.050634741783142,-5.32717335620989
1708435788.6301527,-2.027428150177002,-1.3468991977027436,-2.5540977160083216,5.971341717034139,1.0510272979736328,-5.327818338071005
1708435788.6321557,-2.025564670562744,-1.3471625012210389,-2.55439263979067,5.969109999924459,1.0513486862182617,-5.32840466896166
1708435788.6341658,-2.023648977279663,-1.3474788230708619,-2.5547471682177942,5.966906773834982,1.0518203973770142,-5.328886989747183
1708435788.6361597,-2.0217573642730713,-1.3476805847934266,-2.5551891962634485,5.964699613838949,1.0522295236587524,-5.329538706933157
1708435788.638159,-2.01977801322937,-1.3479274970344086,-2.5555082003222864,5.962521421700277,1.052641749382019,-5.330122653638021
1708435788.640238,-2.0177457332611084,-1.3482275021127244,-2.5559244791613978,5.960273134499349,1.0531357526779175,-5.33068693081011
1708435788.6421423,-2.0157058238983154,-1.3484742802432557,-2.556349579487936,5.957972752838888,1.0536229610443115,-5.3311835567103785
1708435788.6441715,-2.013678789138794,-1.3486722272685547,-2.556692186986105,5.955661403923788,1.0540001392364502,-5.331780258809225
1708435788.6461465,-2.0116662979125977,-1.3489387047341843,-2.5570598284350794,5.9533554194267175,1.0544328689575195,-5.332373682652609
1708435788.6481748,-2.0095882415771484,-1.3492681247046967,-2.5574472586261194,5.951017367630758,1.0548838376998901,-5.332946960126058
1708435788.6501653,-2.007497549057007,-1.3494932067445298,-2.557826821004049,5.948611366539755,1.05531644821167,-5.333508435879843
1708435788.6521552,-2.0053634643554688,-1.349785493021347,-2.5582311789142054,5.946231591492452,1.0557360649108887,-5.334023598824636
1708435788.654167,-2.0031943321228027,-1.350032464866974,-2.5585785547839563,5.943838345795431,1.0561898946762085,-5.334649626408712
1708435788.656159,-2.0011026859283447,-1.3503844302943726,-2.558990542088644,5.941339361458578,1.0566390752792358,-5.335109655057089
1708435788.658152,-1.9989044666290283,-1.3506062191775818,-2.5594027678119105,5.938923704415121,1.0570061206817627,-5.3357073108302515
1708435788.6601744,-1.9967193603515625,-1.3509419721416016,-2.5598107020007532,5.93649314621047,1.0574597120285034,-5.336211566125051
1708435788.6621382,-1.9945600032806396,-1.35125286996875,-2.560174290333883,5.9340295670326135,1.0578895807266235,-5.336757723485128
1708435788.664166,-1.9923509359359741,-1.3515280944160004,-2.5606516043292444,5.931598055153646,1.0582609176635742,-5.337347153817312
1708435788.666153,-1.9901021718978882,-1.351874665623047,-2.561002794896261,5.929037558823385,1.0587356090545654,-5.337863330041067
1708435788.6681654,-1.9877886772155762,-1.3521365386298676,-2.5614286104785364,5.926554786949911,1.0591310262680054,-5.338440779839651
1708435788.6701674,-1.9855287075042725,-1.3524802339128037,-2.5618048349963587,5.924009787827291,1.059592366218567,-5.3389132658587855
1708435788.6721692,-1.983322262763977,-1.3528160762837906,-2.5621636549579065,5.921572077065267,1.059979796409607,-5.339450482522146
1708435788.674158,-1.9811177253723145,-1.3530854147723694,-2.562453810368673,5.919123399048605,1.0603556632995605,-5.339968685303823
1708435788.6761723,-1.9789435863494873,-1.3533812326243897,-2.5628955999957483,5.916807758599081,1.0608066320419312,-5.340411249791281
1708435788.6781895,-1.9767829179763794,-1.3537246149829407,-2.563279453908102,5.91427098491744,1.0612064599990845,-5.340961460267202
1708435788.6801734,-1.9745820760726929,-1.3540062320283432,-2.563672129307882,5.911761271744528,1.0616106986999512,-5.34145307937731
1708435788.6821616,-1.97236967086792,-1.3543304961970826,-2.5640679041491907,5.909234869271078,1.0620269775390625,-5.341962222252981
1708435788.6841826,-1.9702012538909912,-1.3546459388783951,-2.5644221941577356,5.906749117165365,1.0624240636825562,-5.342479411755697
1708435788.6861699,-1.9680640697479248,-1.3549554956010361,-2.564847771321432,5.904329645424642,1.0628865957260132,-5.343021814023153
1708435788.688169,-1.9659311771392822,-1.355356292133667,-2.5652151743518274,5.901890623360433,1.0632535219192505,-5.343571190034048
1708435788.6901543,-1.9637609720230103,-1.3555979293635865,-2.565643850957052,5.899457561760702,1.0636954307556152,-5.344027821217672
1708435788.6921618,-1.9615634679794312,-1.3559574496797104,-2.566063467656271,5.8970104334648035,1.064132571220398,-5.344512764607565
1708435788.694146,-1.9593265056610107,-1.3562393498471756,-2.566411558781759,5.894465553551473,1.0645501613616943,-5.345112089310781
1708435788.696155,-1.9571462869644165,-1.3565946829370041,-2.5667529741870325,5.892010557442465,1.0649501085281372,-5.34559274116625
1708435788.6981535,-1.954953908920288,-1.3569085013917466,-2.567191187535421,5.889512288361349,1.0653424263000488,-5.3462029735194605
1708435788.700169,-1.952781081199646,-1.357243464594223,-2.5675175825702112,5.88712357261733,1.0657631158828735,-5.346662704144613
1708435788.702163,-1.9505740404129028,-1.3575378072312851,-2.5679472128497522,5.8846380589301965,1.0661672353744507,-5.347148958836691
1708435788.704176,-1.9484338760375977,-1.357890174990036,-2.568277661000387,5.882124292641439,1.066613793373108,-5.347678367291586
1708435788.7061703,-1.946212887763977,-1.3582248252681275,-2.568669144307272,5.879651057511129,1.06699800491333,-5.348147038613455
1708435788.708214,-1.9439523220062256,-1.3585675072721024,-2.569009606038229,5.877124178200521,1.0673812627792358,-5.348725561295645
1708435788.710158,-1.9417905807495117,-1.3588380229524155,-2.5694707075702112,5.874667513161459,1.0678300857543945,-5.349167291318075
1708435788.7121751,-1.9396010637283325,-1.359152228837349,-2.56982928911318,5.872214305191793,1.068250060081482,-5.349722270165579
1708435788.7141607,-1.937353491783142,-1.3594958198121567,-2.5702503363238733,5.8697558520133875,1.0686581134796143,-5.350239459668295
1708435788.7161767,-1.935207724571228,-1.3598144215396424,-2.570552412663595,5.867391574173727,1.0690306425094604,-5.3507349530803126
1708435788.7181683,-1.9330195188522339,-1.3601210129312058,-2.5709527174579065,5.8649213192756555,1.0694422721862793,-5.351309065018789
1708435788.7201574,-1.9308128356933594,-1.3604684931090851,-2.5713334719287317,5.862432110100546,1.069880485534668,-5.351789657269613
1708435788.7221518,-1.9285813570022583,-1.3607460421374817,-2.571758810673849,5.859963285713949,1.070234775543213,-5.352360014115469
1708435788.7241418,-1.9264131784439087,-1.3611350667527695,-2.572073046361105,5.857477056771078,1.0706809759140015,-5.352912549172537
1708435788.7261465,-1.9242446422576904,-1.361332194214203,-2.572440210972921,5.8550875065620325,1.0710965394973755,-5.353384260331289
1708435788.7281532,-1.922027587890625,-1.3617242735675354,-2.572799269353048,5.852578270226278,1.0715632438659668,-5.3539122382747095
1708435788.7301402,-1.9197838306427002,-1.3620351713946839,-2.573176685963766,5.850067841797628,1.071946620941162,-5.354439143334524
1708435788.7321825,-1.917575716972351,-1.362264559870102,-2.573570791875021,5.847646581917562,1.0723505020141602,-5.354986552392141
1708435788.7341475,-1.9154102802276611,-1.3626331996968766,-2.573973004017965,5.845231878548422,1.072827935218811,-5.3555349747287195
1708435788.7361643,-1.9132049083709717,-1.36293217659507,-2.5742510000811976,5.842734801560201,1.0732107162475586,-5.356008176003591
1708435788.738204,-1.9110158681869507,-1.3632178914598008,-2.5746634642230433,5.840347397118368,1.0736645460128784,-5.356495920811788
1708435788.740247,-1.9088414907455444,-1.3634764564088364,-2.5750439802752894,5.837965953141012,1.0740591287612915,-5.356976811085836
1708435788.7422366,-1.906651496887207,-1.3638418179801484,-2.575419012700216,5.835599171906271,1.074467658996582,-5.357499066983358
1708435788.744159,-1.9044404029846191,-1.3641029012254258,-2.5758031050311487,5.833112227707662,1.0747827291488647,-5.358121995125906
1708435788.746155,-1.9022459983825684,-1.3644109231284638,-2.5762086550342005,5.830571639328756,1.0752047300338745,-5.358606223260061
1708435788.7482042,-1.9000180959701538,-1.3647171717933197,-2.5766003767596644,5.82813976982192,1.075560450553894,-5.359187130128042
1708435788.7501576,-1.8978087902069092,-1.3650125426105042,-2.5769675413714808,5.825725662499227,1.07598078250885,-5.359696094189779
1708435788.7521899,-1.8955674171447754,-1.3653396678021927,-2.5773635546313685,5.823264705925741,1.0763936042785645,-5.360176686440603
1708435788.7541556,-1.893347144126892,-1.3656462591937562,-2.5777390638934534,5.8208199618156335,1.0767898559570312,-5.360635821019308
1708435788.7561464,-1.8910876512527466,-1.365888999109604,-2.5781565348254603,5.818338978081503,1.0771774053573608,-5.361186329518453
1708435788.758148,-1.888867974281311,-1.3661703032306214,-2.5785391966449183,5.8158089993293665,1.0776185989379883,-5.361698273812429
1708435788.760152,-1.8866630792617798,-1.3665064436248322,-2.5789275805102747,5.8133230088050745,1.077991008758545,-5.36224860349764
1708435788.7621903,-1.884421467781067,-1.3667765718749543,-2.5793147722827356,5.810899841576376,1.0783917903900146,-5.362721327935354
1708435788.7641447,-1.882280945777893,-1.3671614539674302,-2.579731527959005,5.808496582299032,1.0788002014160156,-5.363295797501699
1708435788.7661736,-1.8800350427627563,-1.3674387645772477,-2.5801239649402063,5.80609022358016,1.079246163368225,-5.363792542611257
1708435788.768153,-1.8778780698776245,-1.3677424651435395,-2.5804904142962855,5.803637015610494,1.0796529054641724,-5.364272658024923
1708435788.7701552,-1.8756964206695557,-1.3680605602315445,-2.580886189137594,5.8011371968086145,1.0800281763076782,-5.36482006708254
1708435788.7721663,-1.873475193977356,-1.368359626536705,-2.5812459627734583,5.798639881401815,1.0804200172424316,-5.3652706185923975
1708435788.7741432,-1.8713347911834717,-1.3686499756625672,-2.5816622416125696,5.7961838124092,1.0808180570602417,-5.3658297697650355
1708435788.7761405,-1.869119644165039,-1.3689738076976319,-2.5819974581347864,5.793701636582174,1.0812681913375854,-5.366289619599478
1708435788.7781513,-1.8668800592422485,-1.3693172645619889,-2.5823851267444056,5.79126666763381,1.0816303491592407,-5.366795365010397
1708435788.7801552,-1.8646990060806274,-1.369558499460556,-2.582785193120138,5.788743722229757,1.0820266008377075,-5.367361966763632
1708435788.782154,-1.862508773803711,-1.3698621106198807,-2.5831521193133753,5.786214458733358,1.08247971534729,-5.367825988923208
1708435788.7841728,-1.8603123426437378,-1.3702531617930909,-2.583515230809347,5.7837246535118005,1.0829166173934937,-5.368306640778677
1708435788.7861488,-1.8580912351608276,-1.3705402177623291,-2.5839276949511927,5.781295287400045,1.0832995176315308,-5.368840459977285
1708435788.7881732,-1.855940341949463,-1.3708586406758805,-2.58427864709963,5.778853165894308,1.0837697982788086,-5.369264487420217
1708435788.7901442,-1.853763461112976,-1.371215046649315,-2.5846665541278284,5.776522147446432,1.0841686725616455,-5.369810525571005
1708435788.7921574,-1.8516004085540771,-1.371424214248993,-2.5850496927844446,5.77401219585494,1.084610104560852,-5.37027889886965
1708435788.7941597,-1.8493847846984863,-1.3718566012433548,-2.58541709581484,5.771594989090719,1.084981083869934,-5.370845858250753
1708435788.7961795,-1.8472003936767578,-1.3720784795335312,-2.5857701937304896,5.769176232605734,1.0853807926177979,-5.37131899992098
1708435788.7981424,-1.8449844121932983,-1.372409926061966,-2.586188618336813,5.7667016861732385,1.0857725143432617,-5.371815685425894
1708435788.800142,-1.8427517414093018,-1.3727284234813233,-2.58655554453005,5.764285075455465,1.086185336112976,-5.372389737759725
1708435788.802152,-1.840567708015442,-1.3730274003795166,-2.586923662816183,5.7618270991142175,1.0866222381591797,-5.372917775307791
1708435788.804186,-1.838334321975708,-1.3733134430697937,-2.5873191992389124,5.759431946068563,1.0870305299758911,-5.373442355786459
1708435788.8061547,-1.836159348487854,-1.373681755071022,-2.5877352396594446,5.756933080941,1.087427020072937,-5.373971704636709
1708435788.8081782,-1.8339817523956299,-1.3739928913167496,-2.588037077580587,5.7543643591697595,1.0878279209136963,-5.374431614075796
1708435788.8101518,-1.8317054510116577,-1.374280424123146,-2.5884740988360804,5.7518595335777185,1.0882362127304077,-5.3749746719943445
1708435788.8121839,-1.829526662826538,-1.3745799672654648,-2.588815752659933,5.749368297844686,1.0886579751968384,-5.37549323240389
1708435788.814167,-1.8273614645004272,-1.374882624750473,-2.589240614567892,5.746935474663534,1.0890257358551025,-5.37598038116564
1708435788.8161514,-1.8251146078109741,-1.3751780104688187,-2.5896199385272425,5.744538533478536,1.0893999338150024,-5.376554314290182
1708435788.81815,-1.822947382926941,-1.3755460244468232,-2.5900121370898646,5.742163526802816,1.0898500680923462,-5.377058569584982
1708435788.8201737,-1.82073175907135,-1.37583643317733,-2.590358559285299,5.739707100182333,1.0902388095855713,-5.377595726643698
1708435788.822153,-1.8185194730758667,-1.3761156511357804,-2.5907374064074915,5.737227308541097,1.090644359588623,-5.378170077000753
1708435788.8241684,-1.816331148147583,-1.376464844947197,-2.5911293665515345,5.7347121117408655,1.0910229682922363,-5.37851190963854
1708435788.8261333,-1.8141189813613892,-1.3767354053309937,-2.5914762655841272,5.732266413956442,1.0914547443389893,-5.379039529954092
1708435788.8281846,-1.811966061592102,-1.3770498943379899,-2.591856304799215,5.72981225231246,1.0918145179748535,-5.379517141972677
1708435788.8301427,-1.8097530603408813,-1.3774153304151078,-2.5922799746142786,5.727433073311605,1.092275857925415,-5.380046908055441
1708435788.83217,-1.807563304901123,-1.3776891094497223,-2.5926719347583216,5.724896299629965,1.0926953554153442,-5.380548063908712
1708435788.8341517,-1.8053381443023682,-1.378028543000557,-2.5929859320269983,5.72236584404067,1.0930519104003906,-5.381040219460623
1708435788.836151,-1.8031328916549683,-1.3783413183740159,-2.593393389378683,5.719876396446981,1.0934760570526123,-5.381602410470144
1708435788.838156,-1.8009392023086548,-1.3785666239312668,-2.593745533620016,5.717439400940695,1.0939006805419922,-5.382166926060812
1708435788.8402207,-1.7988346815109253,-1.378943459396698,-2.5941315332995813,5.71500180938796,1.094325304031372,-5.382709447537557
1708435788.842161,-1.7966179847717285,-1.3792430025390168,-2.5944915453540247,5.712586748390951,1.094741702079773,-5.3832136432277125
1708435788.8441477,-1.7944031953811646,-1.3795910340598603,-2.5949204603778284,5.710160004883566,1.0951627492904663,-5.383725647126333
1708435788.8461432,-1.7922043800354004,-1.379886509185173,-2.595295492802755,5.707737850933828,1.0955837965011597,-5.384254757558004
1708435788.8481617,-1.78994882106781,-1.3801891964725037,-2.5956550280200403,5.705294656544485,1.0959469079971313,-5.384766463433401
1708435788.8501427,-1.7877748012542725,-1.3804886502078553,-2.5960081259356897,5.702779459744253,1.0963596105575562,-5.385272268448965
1708435788.8521662,-1.7855523824691772,-1.3807636213353653,-2.5964306036578577,5.7003909824188135,1.0967599153518677,-5.385876301919119
1708435788.8541522,-1.783347249031067,-1.3811767411283036,-2.596826140080587,5.697941052704611,1.0972129106521606,-5.386376146470205
1708435788.8561425,-1.7812155485153198,-1.3813741368106385,-2.5971887747394007,5.695495831757345,1.0975843667984009,-5.386902395878927
1708435788.8581612,-1.7790122032165527,-1.381719322209694,-2.59756309190859,5.693037497788229,1.0980137586593628,-5.387366239224569
1708435788.8601952,-1.7768036127090454,-1.3820220691016694,-2.5979796091662806,5.690440106182852,1.0984050035476685,-5.387865249310629
1708435788.8621585,-1.7746334075927734,-1.382267953162529,-2.5983780066119593,5.688028144627371,1.0987849235534668,-5.388403896485464
1708435788.8642292,-1.7724252939224243,-1.3826047492078324,-2.5987096468554896,5.685535120754995,1.0991955995559692,-5.38893294731249
1708435788.8661447,-1.770213007926941,-1.3829402041486283,-2.5991552511798304,5.683060157089987,1.0996294021606445,-5.389439169560568
1708435788.8681562,-1.7680811882019043,-1.3832594466260453,-2.599513355885641,5.680667745857992,1.099985122680664,-5.389954868947164
1708435788.8701375,-1.7658308744430542,-1.3835749340108414,-2.5998807589160364,5.67816452959136,1.1004189252853394,-5.3905455509768885
1708435788.8721588,-1.7636475563049316,-1.3839026254466553,-2.6002758185016077,5.675740587502279,1.1008542776107788,-5.391075436268942
1708435788.8741415,-1.7614030838012695,-1.3841608327678223,-2.600659433995382,5.673213469773092,1.1012297868728638,-5.391579512749807
1708435788.8761544,-1.7591707706451416,-1.384464831357338,-2.6010873953448694,5.670825946121969,1.101635217666626,-5.39205122390856
1708435788.8781416,-1.7569522857666016,-1.3848211628249665,-2.6013858954059046,5.668428528099813,1.1020722389221191,-5.392565790806906
1708435788.8801634,-1.754728078842163,-1.385161818271019,-2.601773802434103,5.665987896710195,1.102468490600586,-5.393086616192953
1708435788.8821423,-1.752605676651001,-1.3854153466275712,-2.602194372807638,5.663514423161306,1.102864384651184,-5.393625084553854
1708435788.884172,-1.7503275871276855,-1.3857473892024537,-2.6025529543506067,5.661024021893301,1.103259801864624,-5.394125703965322
1708435788.8861737,-1.7481040954589844,-1.386058972483017,-2.6029120127307337,5.658555793553152,1.1037147045135498,-5.3946359197246
1708435788.8881855,-1.7459431886672974,-1.3863619577935715,-2.6033042112933558,5.656072842865743,1.1041094064712524,-5.3951613942729395
1708435788.8901587,-1.743784785270691,-1.3866827499917527,-2.603659454976217,5.653708743840017,1.1045595407485962,-5.3956791202174585
1708435788.8921573,-1.7415732145309448,-1.387006701236107,-2.6040104071246546,5.651296245842733,1.1049679517745972,-5.396134738122122
1708435788.8941443,-1.7393896579742432,-1.3873461347869416,-2.604438368474142,5.64885704496459,1.1052864789962769,-5.396685485039846
1708435788.8961437,-1.7371971607208252,-1.3876401644996186,-2.6048546473132532,5.646395432740011,1.105714201927185,-5.397182349358694
1708435788.8981454,-1.7349252700805664,-1.3879559499076386,-2.6052096525775355,5.6439265487487695,1.106131672859192,-5.397676531468527
1708435788.900153,-1.7326871156692505,-1.3882304441979905,-2.605515782033102,5.641405033856191,1.10649836063385,-5.39823949733843
1708435788.902156,-1.7305688858032227,-1.3885138195804139,-2.6058886686908167,5.638981270581045,1.1069408655166626,-5.398736123238699
1708435788.904172,-1.72837233543396,-1.3888705980828782,-2.6062589327441614,5.636607992440023,1.1073747873306274,-5.399191681538717
1708435788.9061456,-1.7261699438095093,-1.389157385831215,-2.606692139302389,5.634120392590322,1.1077247858047485,-5.3997061292277735
1708435788.9081645,-1.7239768505096436,-1.3895383489182969,-2.6070311705218714,5.6315902946288965,1.108101487159729,-5.400182489548818
1708435788.9101548,-1.721732258796692,-1.3898243320039292,-2.607426706944601,5.629023599415579,1.1086030006408691,-5.400721017514364
1708435788.9121718,-1.7195351123809814,-1.390140415435173,-2.6078015009509485,5.626571166306295,1.1090319156646729,-5.401226047669546
1708435788.914156,-1.7174012660980225,-1.390418292289116,-2.608185116444723,5.624138283520498,1.1094081401824951,-5.401772264634268
1708435788.9161747,-1.7152059078216553,-1.3907580238631745,-2.6085684935199183,5.621711480408468,1.109835147857666,-5.402261797581808
1708435788.9181645,-1.7130789756774902,-1.3910823923400422,-2.6089769045459192,5.619266557484426,1.110194444656372,-5.402771059666769
1708435788.9201655,-1.7109051942825317,-1.391426460152008,-2.6093724409686487,5.61685477474288,1.1105951070785522,-5.403255287800924
1708435788.9221528,-1.7086631059646606,-1.3917086136392136,-2.609702173863546,5.614329921990194,1.1109601259231567,-5.403825406228201
1708435788.9241567,-1.706460952758789,-1.3920081120780488,-2.6100977102862757,5.611800479679861,1.1113110780715942,-5.4042789975749415
1708435788.9261408,-1.70427405834198,-1.3923771691373368,-2.610518280659811,5.609300839691915,1.1117043495178223,-5.404804054890768
1708435788.9281483,-1.702073574066162,-1.3926427525332947,-2.610882345830099,5.6068928120429895,1.1120872497558594,-5.405345324669973
1708435788.9301617,-1.6998399496078491,-1.3929658991149445,-2.6112731138812464,5.604501950531759,1.1124721765518188,-5.405806545411245
1708435788.9321632,-1.6976820230484009,-1.393338443045952,-2.6116564909564417,5.601984071522512,1.1129326820373535,-5.406353775654928
1708435788.9341567,-1.6954673528671265,-1.3936656725457688,-2.6120713392840784,5.5995298502738855,1.1133456230163574,-5.406838182603018
1708435788.936182,-1.693170428276062,-1.3939284843257447,-2.6124025026904505,5.596996772080221,1.1137615442276,-5.407409612332479
1708435788.9381673,-1.69097900390625,-1.3942923706820984,-2.6127784887896937,5.594541060715475,1.1141620874404907,-5.407935027276174
1708435788.9402146,-1.6887881755828857,-1.3945557338050385,-2.6131301561938685,5.592142390995779,1.1145977973937988,-5.408467833195822
1708435788.9421678,-1.6866484880447388,-1.3948915165713807,-2.613533322011129,5.589750277787008,1.1150845289230347,-5.408965353165762
1708435788.9441938,-1.6844449043273926,-1.3952151995948334,-2.6139095465289515,5.587388384133138,1.1154836416244507,-5.40945148864855
1708435788.94616,-1.6822916269302368,-1.395444617872574,-2.6142967383014124,5.584890591889181,1.1159449815750122,-5.409965042267935
1708435788.948171,-1.6801265478134155,-1.3957975816777726,-2.614671770726339,5.582438218384542,1.1163603067398071,-5.41049832502474
1708435788.9501612,-1.6778380870819092,-1.3961011332324524,-2.6151252428637903,5.579969036370077,1.1168307065963745,-5.41098785797228
1708435788.952172,-1.6756720542907715,-1.39641988397155,-2.6154874006854456,5.577405798226156,1.1172462701797485,-5.411554996167318
1708435788.9542089,-1.6734483242034912,-1.3967223179391404,-2.6157923380481165,5.575013386994161,1.1176093816757202,-5.412034038697378
1708435788.9561744,-1.6712597608566284,-1.397076116209366,-2.616270128880636,5.572565126210012,1.1180716753005981,-5.412523988877432
1708435788.9582062,-1.6690657138824463,-1.3973419678262253,-2.6166537443744105,5.5701415417488,1.118438482284546,-5.413058523331777
1708435788.9601748,-1.6668846607208252,-1.3976295751384278,-2.616939369832174,5.567619848042288,1.1188420057296753,-5.41355532804598
1708435788.962171,-1.6646226644515991,-1.3979289692691346,-2.6173346678363245,5.565114426403799,1.119223713874817,-5.414100114499227
1708435788.964159,-1.6624560356140137,-1.398236410026886,-2.617722813283102,5.562602329045095,1.1196906566619873,-5.414679352437155
1708435788.966156,-1.660224437713623,-1.3985724461129685,-2.61806565919985,5.560193288117208,1.1200685501098633,-5.415183786545889
1708435788.9681895,-1.6580233573913574,-1.3987992417863389,-2.618469778691427,5.557795154839315,1.120430588722229,-5.4157180229770105
1708435788.970147,-1.6558761596679688,-1.3991594326547165,-2.6188936869250696,5.555355417519369,1.1208645105361938,-5.416239027176992
1708435788.9721558,-1.6536816358566284,-1.3994261485389252,-2.6192684809314173,5.5530069945152185,1.1213173866271973,-5.4166991154300135
1708435788.9741511,-1.6514878273010254,-1.3997497868588944,-2.6196304003344935,5.550479101925649,1.1216436624526978,-5.417233471070425
1708435788.9761407,-1.649296760559082,-1.4000567209771653,-2.6199985186206263,5.548078405648031,1.122053861618042,-5.417763117943899
1708435788.9781492,-1.6470158100128174,-1.4003502589515229,-2.620378319417135,5.545551228314199,1.1224453449249268,-5.418300513421194
1708435788.9801435,-1.6448742151260376,-1.400685192351677,-2.6208177248584192,5.543097841530599,1.1229194402694702,-5.41877651611437
1708435788.9821384,-1.6426525115966797,-1.4010379177382966,-2.6211934725390833,5.5407102582748315,1.1232784986495972,-5.419323150311605
1708435788.9841523,-1.6404269933700562,-1.4013127845576783,-2.621556822453634,5.538233446865835,1.123689889907837,-5.41986203590502
1708435788.9861608,-1.6381467580795288,-1.401647837167122,-2.6219194571124476,5.5357093689735315,1.1241282224655151,-5.420345369969503
1708435788.9881408,-1.6359621286392212,-1.4019072961858292,-2.622310463582174,5.533205199032583,1.1245290040969849,-5.420863453541891
1708435788.9901564,-1.633770227432251,-1.402181552057602,-2.622678343449728,5.530765163689413,1.1249299049377441,-5.421375874673025
1708435788.9921706,-1.6315656900405884,-1.4024692487767716,-2.6230502764331263,5.528337526112356,1.1253081560134888,-5.421938244496481
1708435788.9941463,-1.629388689994812,-1.4027980876019974,-2.623413864766256,5.525968837528982,1.1257168054580688,-5.4224563280688685
1708435788.996227,-1.6272220611572266,-1.4031288635781785,-2.6238554159747522,5.523542809277334,1.1261913776397705,-5.422929708157675
1708435788.998171,-1.6250044107437134,-1.4034481656602402,-2.6241982618915003,5.521071958332815,1.126623272895813,-5.423483494912283
1708435789.0001602,-1.6228069067001343,-1.4036993843368073,-2.624561134968893,5.518597590714254,1.1269807815551758,-5.424001161252157
1708435789.0021634,-1.620603084564209,-1.4041047853282471,-2.624920908604757,5.516137766629019,1.1273653507232666,-5.42448461452593
1708435789.0041413,-1.618367075920105,-1.4043713969043274,-2.625308338795797,5.513627576618948,1.1277943849563599,-5.42504328886141
1708435789.0061889,-1.6161692142486572,-1.4047203075936814,-2.6257243792163294,5.511264967709341,1.1282073259353638,-5.425531510506765
1708435789.008162,-1.614022135734558,-1.4049651485732575,-2.6260905901538294,5.5088029382522485,1.1286009550094604,-5.426030162964956
1708435789.0102124,-1.6117792129516602,-1.405329854493477,-2.6265109221087855,5.506240892201223,1.1290736198425293,-5.426597181950704
1708435789.0122259,-1.6095912456512451,-1.405646265750267,-2.62684137025942,5.503696071892538,1.1294643878936768,-5.427073184643881
1708435789.0141742,-1.6074182987213135,-1.4059447658113022,-2.6272171179400843,5.501201498299398,1.1298574209213257,-5.427570704613821
1708435789.0162463,-1.6051396131515503,-1.4061902624419709,-2.6276584307300013,5.498736965447225,1.1302536725997925,-5.4281163851367396
1708435789.0181515,-1.6030337810516357,-1.4065344792655488,-2.6280339399920862,5.496364581375875,1.1306411027908325,-5.428604606782095
1708435789.0201526,-1.6008176803588867,-1.406850205068924,-2.6284011046039026,5.493913519173422,1.131115436553955,-5.429140571747915
1708435789.0221698,-1.598595380783081,-1.4071973425200959,-2.628791157399313,5.491420197277822,1.1315226554870605,-5.4295557777034205
1708435789.024183,-1.5964455604553223,-1.4075337958386918,-2.629195515309469,5.4890344617660425,1.1319714784622192,-5.430065755044119
1708435789.026148,-1.594190001487732,-1.4078325492194672,-2.6296241919146937,5.486551689892568,1.132351279258728,-5.430588487778799
1708435789.0281515,-1.5919729471206665,-1.4081362199834366,-2.629925314580099,5.484034406929769,1.1327433586120605,-5.43113220134844
1708435789.030149,-1.5898104906082153,-1.4084804368070145,-2.6303425470935267,5.481670129090109,1.1330993175506592,-5.431590382252828
1708435789.0322092,-1.5876113176345825,-1.40883623183284,-2.630681101475851,5.47919790723876,1.133500337600708,-5.432138148938314
1708435789.0341446,-1.5854527950286865,-1.4091139447740098,-2.63110596338381,5.4768186686332605,1.1339091062545776,-5.432654742394583
1708435789.036177,-1.583290934562683,-1.4094909143498917,-2.6313510576831263,5.474541115551748,1.1342120170593262,-5.433191780244009
1708435789.038162,-1.5811183452606201,-1.409813405280449,-2.6316824595080774,5.472167539387502,1.134500503540039,-5.433790151272909
1708435789.0401819,-1.5789512395858765,-1.4101722997478028,-2.63194185892214,5.469873773842611,1.1347017288208008,-5.434346322213308
1708435789.042201,-1.5767886638641357,-1.4105374378016968,-2.632249895726339,5.467707621842184,1.1349464654922485,-5.43492037454714
1708435789.0441961,-1.5746359825134277,-1.4109327358058472,-2.632500712071554,5.46562026718215,1.135134220123291,-5.435505930577413
1708435789.0461442,-1.572396993637085,-1.4113083940795441,-2.632841173802511,5.463438200741567,1.1353263854980469,-5.43612373272051
1708435789.048155,-1.5701663494110107,-1.411667526965477,-2.6330834070788782,5.461357283383169,1.1355425119400024,-5.43676990667452
1708435789.050145,-1.5679163932800293,-1.4120143067887803,-2.6333587805377405,5.459301161556997,1.1357018947601318,-5.437386397515432
1708435789.0521395,-1.5657539367675781,-1.4123801749995728,-2.63365608850588,5.457314300328054,1.1358879804611206,-5.437990907822744
1708435789.0541475,-1.5634851455688477,-1.412792594437935,-2.633930746709005,5.455275523453512,1.1359660625457764,-5.438586656247274
1708435789.056167,-1.5613373517990112,-1.4131882202676316,-2.6341217199908655,5.453292119293966,1.1359634399414062,-5.439270798360006
1708435789.0581627,-1.5591293573379517,-1.4136401873878022,-2.6343253294574183,5.451315808087148,1.1360574960708618,-5.439910475407736
1708435789.060163,-1.5569528341293335,-1.414044366484024,-2.634528938923971,5.449475335865774,1.1361163854599,-5.44059127966036
1708435789.0621548,-1.5547661781311035,-1.4144675147584458,-2.6347535292254847,5.4475629208381555,1.1361944675445557,-5.441160980855123
1708435789.064178,-1.5525028705596924,-1.4148609352162858,-2.6349363962756556,5.445687877922811,1.1361961364746094,-5.441815559064047
1708435789.0661504,-1.550315260887146,-1.4152855438045044,-2.6351640860186976,5.443809079914846,1.1362649202346802,-5.442473534737722
1708435789.0681648,-1.5480915307998657,-1.4157655847123642,-2.6353111902820032,5.441919672280111,1.1362770795822144,-5.4432647863971155
1708435789.0701578,-1.5458296537399292,-1.4161924731782456,-2.6354756991015833,5.440170693188467,1.136185646057129,-5.443869117890493
1708435789.0721564,-1.5435898303985596,-1.416622744207718,-2.6356633345233362,5.438443171768942,1.1361178159713745,-5.444663707409994
1708435789.074158,-1.5414305925369263,-1.4171356868794938,-2.6357372442828577,5.436763989716329,1.1359678506851196,-5.445418779050009
1708435789.0761454,-1.5392287969589233,-1.4175779831460495,-2.635942045842306,5.435137617378988,1.1357876062393188,-5.446172122155325
1708435789.0781486,-1.5370680093765259,-1.4180581134608765,-2.636089865361349,5.433574008732595,1.1357167959213257,-5.446990136300222
1708435789.0801623,-1.5348106622695923,-1.4185611617616196,-2.636193577443258,5.432003307133474,1.135585069656372,-5.4477125445949
1708435789.0821445,-1.5325710773468018,-1.4190490406802674,-2.636263434086935,5.4304770705993555,1.1354196071624756,-5.448481623326437
1708435789.084159,-1.5303947925567627,-1.419518993501999,-2.6364126841174524,5.428957271366873,1.1352605819702148,-5.4493184129344385
1708435789.0861409,-1.5282294750213623,-1.4200220567039032,-2.636517111455099,5.427503156452932,1.1349977254867554,-5.450175885354177
1708435789.0881777,-1.5260590314865112,-1.4205093693784256,-2.636568609868185,5.42609720209197,1.134810447692871,-5.4510120193110865
1708435789.090132,-1.5239392518997192,-1.4210651826909562,-2.6366849581347864,5.424574720650472,1.1345489025115967,-5.451864484940664
1708435789.0921617,-1.5217069387435913,-1.4215224844268342,-2.6367362181292933,5.4231968996818445,1.1342710256576538,-5.452732984219686
1708435789.0941634,-1.5194995403289795,-1.4220495981029053,-2.636836353932516,5.42181687334136,1.13407301902771,-5.453588251267568
1708435789.0961623,-1.517285704612732,-1.4226629596999665,-2.636860195790426,5.420488881855764,1.1337428092956543,-5.454394404088156
1708435789.0981674,-1.515097737312317,-1.4232168954661866,-2.63690692583193,5.419273066311636,1.1334065198898315,-5.455317203198568
1708435789.1001787,-1.512901782989502,-1.4237388384393235,-2.6369639078723353,5.418060350209036,1.1330970525741577,-5.456146601830618
1708435789.1021435,-1.5106797218322754,-1.4243602019599457,-2.6369789282428187,5.416855144291677,1.1327247619628906,-5.4571033159839075
1708435789.1041923,-1.5084604024887085,-1.4249303054860611,-2.636974636708395,5.415628242283621,1.132271409034729,-5.45795458952059
1708435789.1061778,-1.5062485933303833,-1.4254728269628067,-2.636982266102926,5.414557444840231,1.1318209171295166,-5.458850924168722
1708435789.1081572,-1.5040727853775024,-1.4261295360377808,-2.636954132710592,5.41342060545043,1.1314727067947388,-5.4597548882113855
1708435789.1101632,-1.5018672943115234,-1.426768885259964,-2.637019220982687,5.412376212864675,1.1309890747070312,-5.460679535065786
1708435789.1121995,-1.4997313022613525,-1.4273181420615693,-2.636949602757589,5.411377477436819,1.1305687427520752,-5.461547915135519
1708435789.1141646,-1.4975863695144653,-1.4279946696809311,-2.6369550863849085,5.41037534454421,1.1300545930862427,-5.46239006916155
1708435789.116176,-1.4954687356948853,-1.4285405290177842,-2.6368776003467005,5.409335720330038,1.1295832395553589,-5.463348094617025
1708435789.118177,-1.4932984113693237,-1.4291269791177292,-2.6368711630450647,5.408449697285452,1.1290370225906372,-5.46437788406481
1708435789.1201587,-1.4912257194519043,-1.4298025232604523,-2.6367984453784388,5.407582807331838,1.128572702407837,-5.465265278016226
1708435789.1221728,-1.4891347885131836,-1.4303974223187943,-2.636738363896505,5.406704592495718,1.1280280351638794,-5.466157142316
1708435789.1241796,-1.4870245456695557,-1.4310975533774872,-2.636738363896505,5.405925559788503,1.1274831295013428,-5.4671828786479395
1708435789.1261442,-1.4849339723587036,-1.4317519825747986,-2.636691395436422,5.405142056732931,1.1269593238830566,-5.4681658188449305
1708435789.1282094,-1.4827927350997925,-1.432390735750534,-2.636606280003683,5.404455411225118,1.1263911724090576,-5.469186906014578
1708435789.1301558,-1.4806671142578125,-1.4330044251731415,-2.6365705172168177,5.403740334301748,1.125758171081543,-5.470239822064535
1708435789.132216,-1.4785772562026978,-1.4336718183806916,-2.6364854017840784,5.403143512993612,1.1251860857009888,-5.4712669293033045
1708435789.1341538,-1.4765650033950806,-1.434350000028946,-2.6363821665393274,5.4025171277816675,1.1244252920150757,-5.472266260777609
1708435789.1361618,-1.4744514226913452,-1.4350374651006241,-2.636346165333883,5.401928055077352,1.1238185167312622,-5.47329551378359
1708435789.1381488,-1.4722810983657837,-1.435745270257332,-2.63623816171755,5.401426422386923,1.123198390007019,-5.474359099064962
1708435789.1401794,-1.4702649116516113,-1.436463714843132,-2.6361292044269007,5.4009272930915735,1.1225544214248657,-5.4753204027759
1708435789.1421697,-1.4682300090789795,-1.4371430438807984,-2.636106554661886,5.400454330235281,1.1218441724777222,-5.476460401211874
1708435789.1441836,-1.466178059577942,-1.437789962892868,-2.6360226313220423,5.400052237301626,1.121087670326233,-5.477591280137197
1708435789.1461642,-1.4640872478485107,-1.4385409218123932,-2.635968033467428,5.399633514672079,1.1204464435577393,-5.478702668343679
1708435789.1481872,-1.4620473384857178,-1.4392315608314057,-2.635815683995382,5.399325418263235,1.1197575330734253,-5.479842964802877
1708435789.1501532,-1.4600363969802856,-1.4399637591889878,-2.6356661955462855,5.399035084038534,1.1189876794815063,-5.480977479611532
1708435789.1521752,-1.4580146074295044,-1.440682814722397,-2.6355956236468714,5.398683118611135,1.1182353496551514,-5.482081894074575
1708435789.154157,-1.4559714794158936,-1.4413483005813141,-2.635451857243673,5.398420202523031,1.1174994707107544,-5.483312431965963
1708435789.1561627,-1.4539724588394165,-1.4421496850303193,-2.6352818647967737,5.398215400963583,1.1167138814926147,-5.484409515057699
1708435789.1581583,-1.451967716217041,-1.4428522747806092,-2.6351752916919153,5.397986519127645,1.1159323453903198,-5.4856348673449915
1708435789.1601636,-1.4499646425247192,-1.4436009538224717,-2.634986941014425,5.397814321308889,1.115106463432312,-5.486745599900381
1708435789.1621497,-1.4479668140411377,-1.4443396043828507,-2.6348710695849817,5.397742974549093,1.1143724918365479,-5.487929050122396
1708435789.1641724,-1.445937991142273,-1.4450868380120774,-2.6346827189074915,5.3976871249969385,1.1134976148605347,-5.489120666180746
1708435789.1661506,-1.4439197778701782,-1.4458294597319146,-2.6345725695239466,5.3976348517234705,1.1127512454986572,-5.490254525338308
1708435789.168227,-1.4419962167739868,-1.4466861498406907,-2.6344128290759485,5.397665011673727,1.1118969917297363,-5.491504255925314
1708435789.1701503,-1.440011978149414,-1.4473623272827645,-2.6342361609088343,5.3976319310958765,1.111042857170105,-5.492576781903402
1708435789.1721976,-1.438143014907837,-1.4481146422079583,-2.634084765111105,5.397750246315756,1.1102265119552612,-5.493729595338003
1708435789.1741621,-1.4361964464187622,-1.4489307043007393,-2.6338992754565638,5.397860991745748,1.109347939491272,-5.494890574608938
1708435789.1761365,-1.4343454837799072,-1.4496557277492066,-2.63381010690798,5.398106086045065,1.1084927320480347,-5.496131006871359
1708435789.1781378,-1.432438850402832,-1.4504680049470444,-2.63359243074526,5.398287164955892,1.107593059539795,-5.4972761313067835
1708435789.180162,-1.4304895401000977,-1.4512873527458687,-2.633437697087423,5.398516106396475,1.106636881828308,-5.498476330433981
1708435789.1821601,-1.4286153316497803,-1.4520612222007294,-2.633224074040548,5.398710596352377,1.10577392578125,-5.499736014996664
1708435789.1841748,-1.426695704460144,-1.4528689843467255,-2.6330326239215296,5.398987340718069,1.104853630065918,-5.500982765351431
1708435789.1861672,-1.4247643947601318,-1.453656369154789,-2.6328972021686,5.39926968792037,1.103873610496521,-5.502226952706472
1708435789.1881745,-1.4228551387786865,-1.4544457879713555,-2.6326761881457728,5.39964239576415,1.1029787063598633,-5.503425423298971
1708435789.1901684,-1.4210479259490967,-1.4552976724556466,-2.6325629393206995,5.39999811628417,1.102070927619934,-5.504644695912496
1708435789.1921809,-1.4191712141036987,-1.4561274510673066,-2.6323426405536097,5.400458860188284,1.1010804176330566,-5.506002668534414
1708435789.1941626,-1.4173122644424438,-1.4569554564407845,-2.632118527089254,5.400880801468649,1.1001849174499512,-5.507227603589193
1708435789.1961956,-1.4154773950576782,-1.4577667501619835,-2.6319637934314173,5.401392030506887,1.0991826057434082,-5.508597854767935
1708435789.1981637,-1.413642406463623,-1.4585988906076928,-2.6317153612719935,5.401920366078176,1.0982779264450073,-5.509915653859274
1708435789.2001603,-1.4118613004684448,-1.4595112589052697,-2.631547514592306,5.402449238091268,1.0972980260849,-5.511245731507437
1708435789.2021623,-1.409954309463501,-1.4603255701116105,-2.6313558260547083,5.403052258282461,1.0963194370269775,-5.512589160596029
1708435789.204157,-1.4082505702972412,-1.4611479577473183,-2.6311519781695765,5.403725373535909,1.0953584909439087,-5.5140326658831995
1708435789.206156,-1.4064562320709229,-1.4620150414160271,-2.6309807936297815,5.404379951744833,1.0943952798843384,-5.515390698109762
1708435789.208171,-1.404703140258789,-1.4629257929376145,-2.630768601094381,5.4050370929534814,1.0933747291564941,-5.516807798539297
1708435789.2101521,-1.4029821157455444,-1.4637719479254265,-2.630582396184103,5.405777323036947,1.0923415422439575,-5.518152777348654
1708435789.2121866,-1.401197075843811,-1.4646917444518586,-2.6303821245776575,5.406514990120687,1.0914051532745361,-5.519591275845663
1708435789.2141504,-1.399444818496704,-1.4655776482871552,-2.6301618258105677,5.407292651921072,1.09038507938385,-5.520893100892202
1708435789.2162142,-1.3977431058883667,-1.4664818060449143,-2.6299007574664515,5.40818082073287,1.0893561840057373,-5.522325102482931
1708435789.2181814,-1.3960696458816528,-1.4673880872181435,-2.629803244267599,5.409019398480215,1.0883760452270508,-5.523617748414175
1708435789.220174,-1.3943448066711426,-1.468320132499077,-2.6295672098742884,5.409908461361685,1.08737051486969,-5.5250123778926294
1708435789.222155,-1.3926268815994263,-1.469193973844387,-2.629329506550924,5.4108372805412195,1.0863661766052246,-5.5263758341418665
1708435789.2242029,-1.3909610509872437,-1.4701477375677605,-2.629159752522604,5.411794292717733,1.0853527784347534,-5.527750138436453
1708435789.2261522,-1.3893241882324219,-1.4710677427104493,-2.6288862864123743,5.412887918740072,1.0843600034713745,-5.529096488152639
1708435789.2281587,-1.3876863718032837,-1.4720065009645005,-2.628784720097677,5.413846599846639,1.0833227634429932,-5.5304864088641565
1708435789.2301526,-1.3859944343566895,-1.4729732659510155,-2.628557268773214,5.414888548641958,1.082303524017334,-5.531878117715017
1708435789.2322001,-1.3843824863433838,-1.4738318634084244,-2.6283043066607874,5.41603838184432,1.0812249183654785,-5.533311430607931
1708435789.2341828,-1.3827184438705444,-1.4747822520187874,-2.628115955983297,5.417216944485464,1.0802000761032104,-5.534785513077871
1708435789.2361677,-1.3811572790145874,-1.4757669654539605,-2.627876583729879,5.4183047888572595,1.079122543334961,-5.536131445561544
1708435789.2381485,-1.379509687423706,-1.4767213475755234,-2.6276968161212366,5.419529723912039,1.0780625343322754,-5.537627164517538
1708435789.2401702,-1.3779152631759644,-1.4776843723705788,-2.627545181904928,5.4207231281097314,1.0770536661148071,-5.539058987294332
1708435789.2421796,-1.376396656036377,-1.4785979998162766,-2.627390448247091,5.421948778420248,1.0759665966033936,-5.540551070366995
1708435789.2441795,-1.3747923374176025,-1.479630136196949,-2.6272061506854456,5.42324315288619,1.0749045610427856,-5.542106334363119
1708435789.2461572,-1.3732249736785889,-1.4806115713766594,-2.6269894281970423,5.4245425937469385,1.0738976001739502,-5.543566111718313
1708435789.2481542,-1.3717128038406372,-1.4815906894258042,-2.6268392244922083,5.4258513925369165,1.0729113817214966,-5.545126203690664
1708435789.2501543,-1.3702045679092407,-1.4825492736748238,-2.6266911665545862,5.427272665291586,1.0718411207199097,-5.546659711991445
1708435789.252149,-1.3687045574188232,-1.4835765448263665,-2.626519028340475,5.428713190346517,1.07086181640625,-5.548211995755331
1708435789.2541707,-1.367228627204895,-1.4845908296159287,-2.6263838450061243,5.430148827820577,1.0698120594024658,-5.549816850815908
1708435789.2561874,-1.3656829595565796,-1.4856226232698937,-2.6261912027942103,5.431670772820272,1.068791151046753,-5.551346425210134
1708435789.2581625,-1.3642711639404297,-1.4866212841919442,-2.6260233561145228,5.433117139130392,1.0677660703659058,-5.552880708371298
1708435789.2601829,-1.3627902269363403,-1.487575614159443,-2.6259329954730433,5.43464874008254,1.0667399168014526,-5.554401640092031
1708435789.2621698,-1.3612998723983765,-1.4885172185352822,-2.6257641951190394,5.4362109182174585,1.065677285194397,-5.555960659180776
1708435789.2641783,-1.3598896265029907,-1.4895163115910073,-2.6256333033191126,5.437716948776998,1.0646778345108032,-5.557377342377798
1708435789.2661881,-1.3585141897201538,-1.490546853547432,-2.6254239718066614,5.439357566624441,1.063618540763855,-5.558939520512716
1708435789.2682145,-1.357103943824768,-1.4915622857264061,-2.6253696123706263,5.440998124867239,1.0626624822616577,-5.560408357773916
1708435789.2701561,-1.355765461921692,-1.4925818976810952,-2.625218216572897,5.442697334080496,1.0616472959518433,-5.561980251465933
1708435789.2721944,-1.3543506860733032,-1.4935810950449486,-2.6250928084002894,5.444403815060415,1.0606729984283447,-5.563468519841329
1708435789.2741556,-1.3530170917510986,-1.494614803498127,-2.624998156224386,5.4462084648902795,1.0595937967300415,-5.565003101025717
1708435789.2761786,-1.351598858833313,-1.4956511196545144,-2.624918524418966,5.44791071394042,1.0586994886398315,-5.566488389168875
1708435789.2781656,-1.3502999544143677,-1.4966163647225876,-2.6248512903796595,5.449675190239706,1.0576430559158325,-5.5680588523494166
1708435789.280167,-1.3489550352096558,-1.4976635885289689,-2.624701801930563,5.451515543251791,1.0566571950912476,-5.5696449915515345
1708435789.282177,-1.3476006984710693,-1.4987363454750557,-2.624610249196188,5.453320193081655,1.0556718111038208,-5.571165863667623
1708435789.2842026,-1.3463307619094849,-1.4997745615294953,-2.6245549360858362,5.4551278231437585,1.054674744606018,-5.572871450577871
1708435789.2861543,-1.3449946641921997,-1.5007812914303322,-2.6244176069842737,5.4571406719978235,1.0537242889404297,-5.574561123047964
1708435789.288173,-1.3437312841415405,-1.5018974256566544,-2.624420944844381,5.459060597210684,1.0527313947677612,-5.576235477124349
1708435789.2901554,-1.3424381017684937,-1.50294944763694,-2.624335829411642,5.4611686942871,1.0517007112503052,-5.577933077012197
1708435789.2921774,-1.3411037921905518,-1.5040726599148293,-2.6242595354663294,5.463273811131277,1.0507196187973022,-5.57971823612322
1708435789.2941647,-1.3398209810256958,-1.505153552894928,-2.624195400868551,5.465302574425497,1.0496997833251953,-5.581467572842733
1708435789.296197,-1.3385297060012817,-1.5062717658332367,-2.6241517702685755,5.467518138676443,1.048738718032837,-5.583225671445028
1708435789.2981658,-1.337339997291565,-1.507319377069809,-2.624185387288229,5.469682979374685,1.0477286577224731,-5.5849560538875025
1708435789.3001978,-1.3360944986343384,-1.5084933427027245,-2.624120060597555,5.471958625107565,1.046699047088623,-5.586695317422048
1708435789.3021598,-1.3348557949066162,-1.5096742075732728,-2.6240721384631556,5.474172162800588,1.045684576034546,-5.5883798638926905
1708435789.3041673,-1.3335952758789062,-1.510803909306862,-2.6241090933429163,5.476506280689993,1.0447314977645874,-5.590120736752645
1708435789.3061635,-1.3323943614959717,-1.5120057475617905,-2.6240928808795374,5.478894161968984,1.0437322854995728,-5.591860596333639
1708435789.3081722,-1.3311501741409302,-1.513112874036171,-2.6241090933429163,5.481331991940298,1.0427916049957275,-5.593520824109213
1708435789.3101687,-1.3298742771148682,-1.5143427823534985,-2.624185387288229,5.483612346440115,1.041817307472229,-5.595391098652975
1708435789.3121996,-1.3286710977554321,-1.5155582849732419,-2.6242302099811,5.486010181694784,1.040863275527954,-5.5972201267825525
1708435789.3141801,-1.3274410963058472,-1.516807061885931,-2.6242204348193567,5.488578903466024,1.0399307012557983,-5.598972503338949
1708435789.3161724,-1.3262757062911987,-1.5180117946914216,-2.6243096033679407,5.491069543152609,1.0390796661376953,-5.600858930741445
1708435789.3181896,-1.3250631093978882,-1.519202721571066,-2.6244176069842737,5.49366723278121,1.0381072759628296,-5.602717761193411
1708435789.3201864,-1.3239421844482422,-1.5203592006913205,-2.6244893709765833,5.496270227223196,1.037206768989563,-5.604672137890951
1708435789.3221605,-1.3227660655975342,-1.521638998096325,-2.6245906988727015,5.498905408173361,1.0362327098846436,-5.6065866390811365
1708435789.3241847,-1.3215925693511963,-1.522911374723055,-2.6245885531054896,5.501611578255453,1.0353639125823975,-5.608533624802725
1708435789.326162,-1.3204578161239624,-1.5241439503482361,-2.6247616449939173,5.504247355252065,1.0345041751861572,-5.610518161450521
1708435789.3281846,-1.3192917108535767,-1.5253788021257897,-2.624845568333761,5.507044660836019,1.0335522890090942,-5.612517003213064
1708435789.330146,-1.3182309865951538,-1.5267199289849778,-2.62498647371401,5.509885835438528,1.0327187776565552,-5.614484910164968
1708435789.332166,-1.31717050075531,-1.5279877607575436,-2.625146214162008,5.512815820961752,1.031938076019287,-5.616437439118521
1708435789.3341515,-1.3161629438400269,-1.5292939779213448,-2.6252933184253138,5.515604424267568,1.0310434103012085,-5.6184877196895044
1708435789.336169,-1.31503164768219,-1.5305928041091938,-2.625469986592428,5.518523084908285,1.0302141904830933,-5.620339039956228
1708435789.3381853,-1.3140100240707397,-1.5319626790336152,-2.6255767981158655,5.521423327713766,1.0294253826141357,-5.6224000493632715
1708435789.34017,-1.3129775524139404,-1.5333451007357617,-2.625866476689474,5.524364638119497,1.0286500453948975,-5.624383513127462
1708435789.3421662,-1.311946153640747,-1.5346161101809521,-2.6260865370379847,5.527388262539663,1.0277557373046875,-5.626320544873373
1708435789.3441703,-1.3109726905822754,-1.5359966729632397,-2.626317326222555,5.530413734703817,1.0270403623580933,-5.628426019345419
1708435789.346177,-1.3100290298461914,-1.5373403181186696,-2.626557175313131,5.533454763680258,1.026291847229004,-5.630385939274923
1708435789.348224,-1.30899977684021,-1.5387233284166832,-2.626796547566549,5.536682355194845,1.025530219078064,-5.6324923674212855
1708435789.3501642,-1.3081419467926025,-1.5400452365032216,-2.6270766893969935,5.539898741036215,1.024846076965332,-5.634522799645559
1708435789.3521707,-1.3071777820587158,-1.5415088583580037,-2.627418581639425,5.543217944889822,1.0241652727127075,-5.636728529130117
1708435789.3541546,-1.3062918186187744,-1.5429020722261448,-2.6277573744403284,5.546481060772695,1.0234802961349487,-5.638925377522604
1708435789.3561735,-1.305395483970642,-1.544354086076357,-2.6281781832324427,5.549807297974386,1.0227737426757812,-5.641093973313467
1708435789.3581502,-1.304460048675537,-1.5457858511111517,-2.628516737614767,5.553096401482382,1.0221980810165405,-5.643341724072592
1708435789.3602104,-1.303611159324646,-1.5472495325705786,-2.6289809385882776,5.556520569115438,1.021585464477539,-5.645578507577078
1708435789.3621597,-1.3027263879776,-1.5486721855453034,-2.629343573247091,5.5598922846610925,1.0209723711013794,-5.647781018410818
1708435789.3641975,-1.301863193511963,-1.5501474805972357,-2.6298404375659388,5.563269722252645,1.0203677415847778,-5.649923447762625
1708435789.3661575,-1.3009999990463257,-1.5516479977271338,-2.6303165594684046,5.566691982537069,1.019792079925537,-5.652057174836294
1708435789.3681643,-1.3002246618270874,-1.5530848254314442,-2.6307674090014856,5.5702382800872705,1.0192526578903198,-5.654291514550344
1708435789.3701572,-1.2994455099105835,-1.5545324508896847,-2.6312583128558558,5.573780226498403,1.0187551975250244,-5.656499926243917
1708435789.3721733,-1.2986502647399902,-1.556117831995227,-2.6317606608020228,5.577328312187948,1.0182186365127563,-5.658631686364309
1708435789.3741634,-1.2979187965393066,-1.557573328991868,-2.6323779265033167,5.580813574581899,1.0177329778671265,-5.660803083573477
1708435789.3761802,-1.297149658203125,-1.5590268050185223,-2.63287598291506,5.5844130394752405,1.017337679862976,-5.663051728402273
1708435789.3781629,-1.296404242515564,-1.5605534820682188,-2.633455816899435,5.587989318161764,1.0169425010681152,-5.6652342716800135
1708435789.3801658,-1.2956786155700684,-1.5620280534825106,-2.6340678373919886,5.591533350735464,1.0165246725082397,-5.667512540017263
1708435789.3821664,-1.2949696779251099,-1.5635424687391897,-2.634641710911886,5.595122861653127,1.0161274671554565,-5.669812146817343
1708435789.3841896,-1.2942785024642944,-1.565059907068946,-2.6353562513934534,5.598769354611196,1.0157790184020996,-5.672191385422842
1708435789.386163,-1.2935670614242554,-1.566570458268263,-2.635966126118795,5.602518367558279,1.0154513120651245,-5.6745944062816065
1708435789.3881805,-1.2929743528366089,-1.568035847540461,-2.636653010045187,5.606280255108633,1.0151149034500122,-5.676927093659536
1708435789.3901663,-1.292323350906372,-1.5695811114604403,-2.637385908757345,5.609956848412313,1.0148667097091675,-5.679164830838339
1708435789.3921695,-1.291702151298523,-1.5711022816100062,-2.6380191485034388,5.613694357662954,1.014480710029602,-5.681497935448782
1708435789.3941607,-1.2910292148590088,-1.5726210079588832,-2.638754431401388,5.617361712246694,1.0143405199050903,-5.683646086846487
1708435789.39616,-1.290432095527649,-1.5740705929198207,-2.6395426432238978,5.621193933277883,1.014083981513977,-5.685939554368154
1708435789.3981671,-1.2898257970809937,-1.575653692285055,-2.6403220335589808,5.62488334158019,1.0139319896697998,-5.688189391289846
1708435789.4001842,-1.2891759872436523,-1.5771790943541468,-2.6411009470569056,5.628508615284719,1.0137968063354492,-5.690440956746237
1708435789.4021652,-1.2886686325073242,-1.5787025890746058,-2.641972605382101,5.632399546891012,1.0136616230010986,-5.69260019460787
1708435789.4041712,-1.288053035736084,-1.5802699528136195,-2.642766539250509,5.636202740460195,1.0135655403137207,-5.694934848939077
1708435789.40615,-1.2875300645828247,-1.5817424259581507,-2.643649403248922,5.640006112843313,1.0134931802749634,-5.697194162999288
1708435789.4081779,-1.2870404720306396,-1.5832873783507289,-2.6445494333850306,5.643721926003256,1.0133951902389526,-5.699569765721456
1708435789.4101634,-1.2864800691604614,-1.5847560367979945,-2.645412270222799,5.647501277714529,1.0133804082870483,-5.701906267796652
1708435789.4121978,-1.2859994173049927,-1.5863281689085902,-2.64628249803652,5.65128372886733,1.0133579969406128,-5.704368178044454
1708435789.4141583,-1.2854546308517456,-1.587811132470602,-2.6472466627704065,5.654888021736898,1.0133652687072754,-5.706619922314779
1708435789.416183,-1.2849760055541992,-1.5893627605833949,-2.648216787968771,5.658707189350881,1.0134601593017578,-5.708956305180685
1708435789.4181895,-1.284566879272461,-1.5908547840514125,-2.649216953908102,5.662507641106405,1.0136059522628784,-5.711215619240896
1708435789.420178,-1.2841118574142456,-1.5924002132811488,-2.6502037684070032,5.666344690113821,1.013780117034912,-5.713496271763937
1708435789.4221706,-1.2836862802505493,-1.5938850841917933,-2.6512189547168177,5.670140552311697,1.0139557123184204,-5.715668920670645
1708435789.4241743,-1.2832963466644287,-1.5954200230040492,-2.6522231737719935,5.67386947849349,1.0140459537506104,-5.7178977767573755
1708435789.426154,-1.2827699184417725,-1.5969177685179652,-2.6532800833331507,5.67767875173644,1.0141996145248413,-5.720177117978231
1708435789.428183,-1.282400131225586,-1.5984989605345667,-2.65436822572817,5.681391465454855,1.0143887996673584,-5.722352627907888
1708435789.4301689,-1.2820416688919067,-1.5998889408507289,-2.65542179742922,5.685083496361532,1.014609456062317,-5.724640075360433
1708435789.4322116,-1.2815927267074585,-1.6013747654356898,-2.6565030256854456,5.688877749233999,1.0148545503616333,-5.726914648209707
1708435789.43419,-1.2812557220458984,-1.6029426060118617,-2.657731358204977,5.692496287613668,1.0150935649871826,-5.729132537041799
1708435789.4361868,-1.2808843851089478,-1.6044684849181117,-2.658808771763937,5.696304189949789,1.0153639316558838,-5.731485370789663
1708435789.4381573,-1.280574917793274,-1.6059423885741175,-2.660003964100973,5.6999897239501855,1.0157263278961182,-5.733803395424978
1708435789.4402022,-1.2802305221557617,-1.6074234447874964,-2.661210362111227,5.703692483692922,1.0161105394363403,-5.736106459294454
1708435789.4421802,-1.2798784971237183,-1.6089216671385707,-2.662461821232931,5.707283127098837,1.0165073871612549,-5.7384188810931605
1708435789.444208,-1.2795029878616333,-1.6105290851988734,-2.663720671330587,5.71095626333312,1.016994595527649,-5.740685228501455
1708435789.4461753,-1.2792057991027832,-1.611931940118307,-2.6649027506457728,5.714578616410055,1.0175127983093262,-5.742852811013357
1708435789.4481697,-1.2789435386657715,-1.6133977375426234,-2.666176144276754,5.718183028488912,1.017983078956604,-5.745023790990011
1708435789.4501605,-1.2786329984664917,-1.6148115597166957,-2.667452398930685,5.72165464141921,1.0185468196868896,-5.747101608906881
1708435789.4521716,-1.2783830165863037,-1.616321702996725,-2.6687174479113978,5.725281464844503,1.019063949584961,-5.749314729367391
1708435789.4542012,-1.2781201601028442,-1.617809911767477,-2.6700332800494593,5.728963362961569,1.0197067260742188,-5.751413468514578
1708435789.4561713,-1.2778854370117188,-1.61926331142568,-2.6713841597186487,5.732587682991781,1.0203322172164917,-5.753463689480917
1708435789.4581861,-1.2776215076446533,-1.6207620106139125,-2.6726647059070032,5.736001837044515,1.0209572315216064,-5.755571488534109
1708435789.4601946,-1.2773908376693726,-1.6221758327879847,-2.6741085688220423,5.739494550019064,1.0216851234436035,-5.757758919392721
1708435789.4621773,-1.2771399021148682,-1.6237174473204554,-2.6754937807666224,5.7430187342460535,1.0224512815475464,-5.75981724659075
1708435789.4642162,-1.2768893241882324,-1.625174184838766,-2.6768997351275843,5.746386992722311,1.0232540369033813,-5.761969510708944
1708435789.4661946,-1.2767202854156494,-1.6265703640379847,-2.678405825291769,5.74976800659255,1.024018406867981,-5.764131967221395
1708435789.4681818,-1.2764464616775513,-1.6279994450011195,-2.679847065602438,5.7530239699180505,1.0248079299926758,-5.766252164040701
1708435789.4701676,-1.2763099670410156,-1.6294800243773402,-2.681279961262838,5.756389844208517,1.0256270170211792,-5.768454615269796
1708435789.4721763,-1.2761497497558594,-1.6309062443175257,-2.6827524344073694,5.75972198227004,1.0265216827392578,-5.770532552395956
1708435789.4741924,-1.275986909866333,-1.632352968255514,-2.684411350880758,5.763078200608053,1.0274649858474731,-5.772637550030844
1708435789.476163,-1.2758551836013794,-1.6337524853148402,-2.6858931223498743,5.7663060305412195,1.0283458232879639,-5.774663631116049
1708435789.4781609,-1.2756142616271973,-1.6351191006102503,-2.6874237696277063,5.769435751229086,1.0292457342147827,-5.776608053837911
1708435789.4801853,-1.2754180431365967,-1.6364785633482875,-2.6889947096454065,5.772599923401632,1.0302886962890625,-5.778609875832693
1708435789.4821742,-1.2752623558044434,-1.6378990612425746,-2.690603796635763,5.775717603951254,1.031286597251892,-5.7805249134646814
1708435789.4841835,-1.2751820087432861,-1.6392437420287074,-2.692314926777975,5.778742778092184,1.0323693752288818,-5.78243196407427
1708435789.4861562,-1.2750169038772583,-1.640665670434469,-2.6939850489245813,5.781844603806295,1.0334315299987793,-5.7843709031688135
1708435789.4881492,-1.2748206853866577,-1.6420537434019984,-2.69564658800234,5.7849172232444666,1.0345375537872314,-5.786283765231268
1708435789.4901667,-1.2747266292572021,-1.643440385858053,-2.697304073964254,5.788018333702841,1.0356656312942505,-5.7881910542594355
1708435789.4921794,-1.2745651006698608,-1.6447473965086878,-2.698966089879171,5.791037308960714,1.036858320236206,-5.790136669074194
1708435789.4942405,-1.2744661569595337,-1.6460911236205042,-2.7006645838366907,5.793993580132284,1.038057565689087,-5.791968111191885
1708435789.4962068,-1.2744030952453613,-1.6474114857115687,-2.7023404280291956,5.796870934754171,1.0392476320266724,-5.793992106114523
1708435789.4981802,-1.2742999792099,-1.6486932239928187,-2.704052750264303,5.7997145531471155,1.0404151678085327,-5.7958193759070795
1708435789.500187,-1.274134874343872,-1.650032182733053,-2.7058187166797083,5.802490699082174,1.0417219400405884,-5.797689471636907
1708435789.5021899,-1.2740243673324585,-1.651313921014303,-2.7074576059924524,5.80523036697463,1.0430384874343872,-5.799484584723608
1708435789.504183,-1.2739201784133911,-1.6524635754027308,-2.709186379109518,5.80792402008132,1.0443611145019531,-5.8013459781752985
1708435789.5061631,-1.2737579345703125,-1.6538235149779261,-2.7109766642199915,5.810666548996725,1.0457196235656738,-5.803212289010183
1708435789.5081882,-1.2736517190933228,-1.6550899944701136,-2.7127893606769007,5.813320743828573,1.0470331907272339,-5.804917279873983
1708435789.5101674,-1.2735487222671509,-1.6563922367491664,-2.71460992494692,5.81584249713973,1.048412799835205,-5.8066332081900995
1708435789.512215,-1.2734646797180176,-1.6576243839659632,-2.71647292772402,5.81837164142684,1.049828052520752,-5.8082584778415125
1708435789.514174,-1.2733733654022217,-1.6588436565794886,-2.7182541529284876,5.820981609612264,1.0511895418167114,-5.809922609721319
1708435789.5161698,-1.2732945680618286,-1.6600376568236292,-2.720132652913229,5.823509561806478,1.0525493621826172,-5.811561022196905
1708435789.518209,-1.2731940746307373,-1.6612845859923304,-2.7219770590411585,5.825869548111715,1.0539615154266357,-5.81311741868128
1708435789.520191,-1.2731175422668457,-1.6624208889403285,-2.723875109349386,5.8282883045967,1.055469274520874,-5.814749483262197
1708435789.5221655,-1.273054599761963,-1.663588663140768,-2.725733820592062,5.830599176674642,1.0569980144500732,-5.816307489071981
1708435789.5241992,-1.2729167938232422,-1.6647759876646937,-2.7276621500598353,5.833010780602255,1.058554768562317,-5.817894283925192
1708435789.526177,-1.2728300094604492,-1.665922304193014,-2.7296131292926233,5.835335361748495,1.0601321458816528,-5.8194670418845575
1708435789.528228,-1.2727506160736084,-1.6670900783934535,-2.7314563433276575,5.837539422302999,1.0617716312408447,-5.821029577647344
1708435789.5301802,-1.2726101875305176,-1.6682445011534632,-2.73340088525881,5.8397936699684045,1.0634037256240845,-5.8226244191275995
1708435789.5321786,-1.2725423574447632,-1.6693817577757777,-2.735244099293844,5.841985690384664,1.0649827718734741,-5.824147973452703
1708435789.5341702,-1.272413730621338,-1.670457502404684,-2.7372165361987513,5.8441423056419275,1.066654920578003,-5.8257640341864985
1708435789.5361698,-1.2723671197891235,-1.6716381512083949,-2.739192549382345,5.846179234772482,1.068338394165039,-5.827220086251394
1708435789.538173,-1.2722548246383667,-1.6727138958373011,-2.741152588521139,5.848240840225973,1.0699759721755981,-5.828754011784689
1708435789.5401592,-1.2721872329711914,-1.6738788090147914,-2.743143145238058,5.850309836655416,1.0716469287872314,-5.830220107232229
1708435789.5421863,-1.272051215171814,-1.6749798260130824,-2.745101277028219,5.852329361229696,1.0733096599578857,-5.831684682761328
1708435789.5442026,-1.2719783782958984,-1.6759921512999476,-2.7470830122577112,5.854311573296346,1.0750224590301514,-5.8331714312182825
1708435789.5461643,-1.2718074321746826,-1.6771050892271937,-2.7490673700915735,5.856242167740621,1.0767580270767212,-5.834582481776373
1708435789.5481658,-1.2716951370239258,-1.6781798801817835,-2.751153532658712,5.858131277352133,1.0784653425216675,-5.8358821908580225
1708435789.5501626,-1.2715634107589722,-1.6791893444456996,-2.753111187611715,5.859991061478414,1.080304741859436,-5.837288413439886
1708435789.552202,-1.2714478969573975,-1.680251260797018,-2.7551329771624964,5.861741530686178,1.0821094512939453,-5.838570479546682
1708435789.5541573,-1.2712886333465576,-1.681284566918844,-2.7571280638324183,5.863414156227865,1.0839118957519531,-5.83973011771311
1708435789.5561783,-1.2711890935897827,-1.6823398075499476,-2.7591727415667933,5.8651805994804285,1.08566415309906,-5.841125879679815
1708435789.5581603,-1.2710574865341187,-1.6833282909789027,-2.7611447016345423,5.866893875389852,1.0875632762908936,-5.842284593974249
1708435789.5601776,-1.2709333896636963,-1.6843959293761195,-2.7632177511798304,5.868522512703695,1.0894336700439453,-5.843612645064489
1708435789.5621643,-1.2707489728927612,-1.6853682003416957,-2.7651525179492396,5.870032179146566,1.0911747217178345,-5.8448426763163965
1708435789.564164,-1.2705774307250977,-1.6864119968810023,-2.767265860234396,5.871617305069723,1.0929921865463257,-5.845969472323553
1708435789.5661545,-1.270430326461792,-1.6874076328673304,-2.7693334261523646,5.873070943146505,1.0949206352233887,-5.847116384898321
1708435789.5681863,-1.2702951431274414,-1.6883679829039515,-2.771294895802633,5.874583351403036,1.0968507528305054,-5.848369125519888
1708435789.5701644,-1.2701233625411987,-1.6892768345274867,-2.7734606901751917,5.875984656601705,1.0986616611480713,-5.849461023007528
1708435789.5722058,-1.2699427604675293,-1.6902862987914027,-2.775503937398092,5.877367007523336,1.1005829572677612,-5.850543532763616
1708435789.5741768,-1.2697330713272095,-1.6912442646422328,-2.7776315847979944,5.87867437580184,1.1024994850158691,-5.8517262677298945
1708435789.576167,-1.2695950269699097,-1.692179342309469,-2.779747549687521,5.880000340729513,1.1044234037399292,-5.85280824104418
1708435789.5781727,-1.2694272994995117,-1.6932059727110804,-2.7818058172809046,5.881331193238058,1.1064304113388062,-5.8539020160781305
1708435789.580167,-1.2692079544067383,-1.694094797173971,-2.783973995839254,5.882570731430807,1.1083720922470093,-5.854936573897497
1708435789.582148,-1.2689992189407349,-1.6950074634947718,-2.786088768635885,5.88370834568099,1.1103492975234985,-5.856072400008337
1708435789.5841804,-1.2687939405441284,-1.6958891354002894,-2.788243834172384,5.884901273041525,1.1123201847076416,-5.857079480086462
1708435789.5861435,-1.2686418294906616,-1.696787019769186,-2.790318314229147,5.886045086174764,1.1142125129699707,-5.858083818350927
1708435789.5881782,-1.2684454917907715,-1.6976400814452113,-2.792377773915426,5.887055980950155,1.1161974668502808,-5.859063748513357
1708435789.5901527,-1.2681846618652344,-1.698550363580221,-2.7944393793689173,5.888076054840841,1.1181520223617554,-5.860015992318289
1708435789.5921571,-1.267971396446228,-1.6994763813414515,-2.7965474764453333,5.889128315239706,1.1202168464660645,-5.860955868159429
1708435789.5941536,-1.2676570415496826,-1.7003337345519007,-2.7987070719348353,5.890067446022787,1.1222262382507324,-5.861976418887274
1708435789.5961852,-1.2673524618148804,-1.7012559376158656,-2.8009515444384974,5.890977608948507,1.124348759651184,-5.862876091395513
1708435789.5981596,-1.2671315670013428,-1.7021180591978968,-2.8030837217914026,5.891920435219564,1.126448631286621,-5.863744680081503
1708435789.6001596,-1.266843318939209,-1.7029792271056117,-2.8052097002612513,5.89266716220931,1.1285635232925415,-5.864634040986196
1708435789.602188,-1.2665431499481201,-1.7038079700865687,-2.807377878819601,5.893554556160726,1.1306580305099487,-5.865389798079626
1708435789.6042278,-1.2662628889083862,-1.7046829662718714,-2.809547011052267,5.894241916924276,1.1327314376831055,-5.8662667016135615
1708435789.6061654,-1.2659640312194824,-1.7054439983763636,-2.811713759099142,5.89500521400527,1.1348134279251099,-5.86699161330332
1708435789.6081855,-1.265684723854065,-1.7063790760436,-2.813878838215963,5.8957488415534876,1.1369072198867798,-5.867739472781317
1708435789.6101649,-1.2653818130493164,-1.7071815929808558,-2.816068712865011,5.896433222084799,1.139050841331482,-5.868460837994711
1708435789.6121728,-1.2650140523910522,-1.7079807720580042,-2.8182807604419153,5.89700328090743,1.14118492603302,-5.869156603013174
1708435789.6141672,-1.2646949291229248,-1.708782812158102,-2.820411507283346,5.8975341198738,1.1433215141296387,-5.869822625313894
1708435789.616167,-1.2643805742263794,-1.7095638714232386,-2.822686020527975,5.89810727813796,1.1455246210098267,-5.870466713105337
1708435789.6181862,-1.2639802694320679,-1.7103296718993128,-2.8248327414142054,5.898585426598348,1.1476447582244873,-5.871087644492285
1708435789.620172,-1.2636561393737793,-1.7111650906004847,-2.8270159403430384,5.898972737580099,1.1497585773468018,-5.871751997862951
1708435789.6221666,-1.2632616758346558,-1.7118860683836878,-2.829144064580099,5.89941560009078,1.1518369913101196,-5.8723300139056605
1708435789.6242166,-1.2628812789916992,-1.7126385174193324,-2.8311880270587366,5.8998156664665125,1.1538934707641602,-5.872892383729116
1708435789.626159,-1.2625073194503784,-1.7134019337096156,-2.8333926836596888,5.900130021363058,1.1560008525848389,-5.873486522828237
1708435789.6281686,-1.262144923210144,-1.7141438923277796,-2.835565153752462,5.9005141136939905,1.1582117080688477,-5.874005858098165
1708435789.6301575,-1.2616820335388184,-1.7148505649962367,-2.8377376238452356,5.9007229683692834,1.160369873046875,-5.874507013951437
1708435789.632166,-1.261246681213379,-1.7155515156187953,-2.8399322668658655,5.900987732201376,1.1625272035598755,-5.874932322894232
1708435789.6341774,-1.2608001232147217,-1.7162867985167445,-2.842112127934591,5.901135670929708,1.1646184921264648,-5.87546027103533
1708435789.6361835,-1.2603201866149902,-1.7170449695982875,-2.844214979802267,5.901216375618734,1.1667218208312988,-5.8758850435363215
1708435789.6381655,-1.2598531246185303,-1.7176906071104945,-2.8464670817004603,5.90137659290389,1.1688591241836548,-5.876291070376531
1708435789.640169,-1.2593775987625122,-1.7183972797789515,-2.848551098500387,5.90149341800765,1.1709480285644531,-5.876735244189398
1708435789.6421707,-1.2588990926742554,-1.7191277943053187,-2.850699488316671,5.901581394463339,1.1729753017425537,-5.877084110175268
1708435789.6442518,-1.2584322690963745,-1.7197419605650843,-2.8528063933001917,5.901563513069906,1.1750324964523315,-5.877407524977819
1708435789.646174,-1.2579004764556885,-1.7204681835570277,-2.8548854033099573,5.901559102326193,1.1771267652511597,-5.877817217503683
1708435789.6481674,-1.2574045658111572,-1.7211796245970667,-2.8568998018847864,5.901500570565023,1.1792422533035278,-5.878073338662283
1708435789.6501713,-1.2568739652633667,-1.7217894993224085,-2.8590176741229456,5.901457536011495,1.181358814239502,-5.878405366336004
1708435789.6521776,-1.25627601146698,-1.7224513492979945,-2.861162249241964,5.9013287899787805,1.183496356010437,-5.878647689019338
1708435789.6541586,-1.2557510137557983,-1.7231017551817835,-2.8632774988757532,5.9012091038520715,1.185625433921814,-5.878984097634451
1708435789.6561692,-1.255171775817871,-1.723727365533346,-2.8653321901904505,5.9010846493537805,1.1878362894058228,-5.879282061253683
1708435789.6581893,-1.2545888423919678,-1.7244512043394984,-2.8674824873553675,5.900940882950582,1.1899497509002686,-5.879579875861303
1708435789.6601875,-1.2540264129638672,-1.7250038586058558,-2.8695576826678675,5.9008452771003626,1.192016839981079,-5.879731331263677
1708435789.6621606,-1.2535163164138794,-1.72570862392568,-2.8715882937060755,5.900767433434286,1.194092035293579,-5.879984233771459
1708435789.6641843,-1.252861738204956,-1.7262565098204554,-2.8736887613879603,5.900572883873739,1.1961560249328613,-5.880169812832968
1708435789.6661527,-1.252246618270874,-1.7269121609129847,-2.875692669545309,5.900388705521383,1.1981827020645142,-5.8804689089404505
1708435789.6681862,-1.251636028289795,-1.7275835476317347,-2.8778329531299036,5.900239336281576,1.2002681493759155,-5.880531672631399
1708435789.6701567,-1.251045823097229,-1.728180547753805,-2.879963461552755,5.899983274727621,1.2023890018463135,-5.8807231227504175
1708435789.6721685,-1.2503894567489624,-1.7288524113097132,-2.8820744196521204,5.899740922241964,1.2044720649719238,-5.880928430949346
1708435789.6741674,-1.2497209310531616,-1.7294250927367152,-2.8840811888324183,5.899515020638265,1.2066348791122437,-5.881103310977117
1708435789.6761715,-1.2490614652633667,-1.7301041088499964,-2.886167828236715,5.8993170140083215,1.2086613178253174,-5.881233368312017
1708435789.6781602,-1.2484596967697144,-1.7307592831053675,-2.8881266752826136,5.898979174881735,1.2105919122695923,-5.881395492945806
1708435789.6801722,-1.2477827072143555,-1.7313152752318324,-2.8901189009295862,5.898748385697164,1.212573766708374,-5.881538842116491
1708435789.682156,-1.247070550918579,-1.732000013391012,-2.8921332995044153,5.898437368660726,1.214512586593628,-5.881683890019552
1708435789.6841688,-1.2464245557785034,-1.7326423130431117,-2.894209686909811,5.898084270745077,1.216400384902954,-5.88171232143511
1708435789.6861603,-1.2457157373428345,-1.733321329156393,-2.896302048360006,5.897811519890585,1.2184336185455322,-5.881836418305532
1708435789.6881623,-1.2450087070465088,-1.7339426479735316,-2.8983338514911097,5.897491204529562,1.2204874753952026,-5.881981704627172
1708435789.690162,-1.2443222999572754,-1.7346064052977503,-2.900419298802511,5.897141086846151,1.2225297689437866,-5.882047537957327
1708435789.6921737,-1.243635654449463,-1.735283990899557,-2.902480189000265,5.896892654686727,1.2244646549224854,-5.882176254187719
1708435789.6941562,-1.242910623550415,-1.735911031762594,-2.9044655005084437,5.896564709931173,1.2263323068618774,-5.882185343896047
1708435789.6961675,-1.2422237396240234,-1.736565729180807,-2.9063804785357874,5.896183240204611,1.2281712293624878,-5.8823241035090845
1708435789.6981645,-1.241511583328247,-1.7372085056700648,-2.9083483854876917,5.895844805031576,1.2299762964248657,-5.882333342229025
1708435789.700199,-1.2407832145690918,-1.7378493748106898,-2.9103243986712855,5.895504820137777,1.2318706512451172,-5.882455919181005
1708435789.7021594,-1.2401421070098877,-1.7385131321349085,-2.912300411854879,5.895126449852743,1.2338368892669678,-5.882483039294378
1708435789.7041836,-1.2394357919692993,-1.7392198048033656,-2.9143529574023646,5.894816386490621,1.2357583045959473,-5.88251439133753
1708435789.7061687,-1.238696575164795,-1.7398578129210414,-2.9164305369006556,5.894448148995199,1.2377115488052368,-5.882529262696401
1708435789.7081687,-1.2379761934280396,-1.740556379357809,-2.9183035532580774,5.89407109001235,1.2395356893539429,-5.8825488726245325
1708435789.710171,-1.2372369766235352,-1.7411524258055628,-2.920302693043844,5.89380310752944,1.241370439529419,-5.882667068635122
1708435789.7121809,-1.2364721298217773,-1.7418695888915003,-2.922157351170675,5.893409597664633,1.243172526359558,-5.882637296115057
1708435789.7141762,-1.2357288599014282,-1.7425066433348597,-2.9240997473346155,5.8930938122566126,1.2450275421142578,-5.882656637822286
1708435789.7161865,-1.2349659204483032,-1.743176599542135,-2.9260390440570276,5.892774569779196,1.2468916177749634,-5.882680718098776
1708435789.7181692,-1.2342305183410645,-1.7439452610411585,-2.927944008504049,5.892538296967306,1.2487609386444092,-5.882723931466238
