Eg3-git/Classifiers/Data Collection/u3/u3star1_ur3e_joint_states.csv
time,elbow_joint,shoulder_lift_joint,shoulder_pan_joint,wrist_1_joint,wrist_2_joint,wrist_3_joint
1708435708.6697323,-2.141791582107544,-1.3331561249545594,-2.526083771382467,6.109832155495443,1.0165483951568604,-5.333970669900076
1708435708.6717749,-2.1417534351348877,-1.3331931096366425,-2.52608830133547,6.109800565033712,1.0165321826934814,-5.333989922200338
1708435708.6737611,-2.1418190002441406,-1.3332090091756363,-2.526100222264425,6.109796154289999,1.0165441036224365,-5.333957139645712
1708435708.6757529,-2.1418232917785645,-1.333241732125618,-2.526067558919088,6.109850036888876,1.0165470838546753,-5.33403450647463
1708435708.677758,-2.1417782306671143,-1.3332047176412125,-2.526034657155172,6.1097872135932825,1.0165159702301025,-5.33402127424349
1708435708.6797147,-2.1417489051818848,-1.3332209301045914,-2.526100222264425,6.109850036888876,1.016555905342102,-5.334055427704946
1708435708.6816971,-2.141794204711914,-1.3331846606782456,-2.526076380406515,6.109796035080709,1.0165321826934814,-5.333972040806906
1708435708.6837275,-2.141798496246338,-1.3332374107888718,-2.526153628026144,6.109841096192159,1.0165603160858154,-5.333984140549795
1708435708.685699,-2.1418099403381348,-1.3331962686828156,-2.5260632673846644,6.1098378775413416,1.0165441036224365,-5.334025625382559
1708435708.68771,-2.141787052154541,-1.333228976731636,-2.526039187108175,6.109850036888876,1.0165526866912842,-5.334050897751943
1708435708.6897135,-2.1417489051818848,-1.3331760478070755,-2.526055399571554,6.109842288285055,1.0165854692459106,-5.334013764058248
1708435708.6917143,-2.141765832901001,-1.3332047176412125,-2.5260465780841272,6.109833347588339,1.0165483951568604,-5.33404648700823
1708435708.6936946,-2.141803026199341,-1.3331519228271027,-2.5260465780841272,6.109775054245748,1.0165395736694336,-5.3340376059161585
1708435708.695716,-2.1417746543884277,-1.3331561249545594,-2.526072088872091,6.109841096192159,1.0165483951568604,-5.334042076264517
1708435708.6977055,-2.1417791843414307,-1.333246038561203,-2.5260465780841272,6.109869348793783,1.0165233612060547,-5.334054295216696
1708435708.6997008,-2.141852617263794,-1.333208979373314,-2.526100222264425,6.109833347588339,1.0165321826934814,-5.334054295216696
1708435708.7016912,-2.1418073177337646,-1.3331846606782456,-2.5260544458972376,6.109819876938619,1.0165932178497314,-5.3340821901904505
1708435708.7037258,-2.141793966293335,-1.3332295280746003,-2.5260794798480433,6.109845506935873,1.0165321826934814,-5.334052507077352
1708435708.705721,-2.141765832901001,-1.3331846606782456,-2.5260632673846644,6.1097826836402795,1.0165159702301025,-5.33409417072405
1708435708.7077017,-2.141732692718506,-1.3331962686828156,-2.52608830133547,6.109819876938619,1.0165733098983765,-5.334040943776266
1708435708.709697,-2.141803026199341,-1.3332209301045914,-2.526055399571554,6.1098153469856165,1.016527771949768,-5.334052507077352
1708435708.7117321,-2.141798496246338,-1.333200530414917,-2.5260914007769983,6.109803426056661,1.0165603160858154,-5.334122840558187
1708435708.7137094,-2.141787052154541,-1.3331962537816544,-2.526116434727804,6.109808075218954,1.0165646076202393,-5.334122840558187
1708435708.7156992,-2.141761302947998,-1.3331519675305863,-2.5260587374316614,6.109866487770834,1.0165646076202393,-5.334106449280874
1708435708.7177038,-2.141765594482422,-1.333188847904541,-2.526067558919088,6.109861838608541,1.0165570974349976,-5.334092978631155
1708435708.719752,-2.141782522201538,-1.3332295727780838,-2.5260587374316614,6.109841096192159,1.0165690183639526,-5.334137443696157
1708435708.7216907,-2.141787052154541,-1.3331919026425858,-2.5260825792895716,6.109848487168112,1.0165528059005737,-5.334101978932516
1708435708.7237132,-2.1417782306671143,-1.3331726503423234,-2.5260959307300013,6.1098365662391565,1.0165812969207764,-5.334088627492086
1708435708.725691,-2.141761302947998,-1.3331846606782456,-2.5260544458972376,6.109832155495443,1.0165724754333496,-5.334113840256826
1708435708.727721,-2.141744375228882,-1.3331726652434845,-2.526034657155172,6.109850036888876,1.0165812969207764,-5.334137443696157
1708435708.729705,-2.141770124435425,-1.3332133752158661,-2.526116434727804,6.109808075218954,1.0165441036224365,-5.334096018468038
1708435708.731712,-2.1417489051818848,-1.3331726503423234,-2.5260642210589808,6.109857547074117,1.0165724754333496,-5.3341273109065455
1708435708.7336977,-2.1418728828430176,-1.3332081002048035,-2.52611214319338,6.109824406891622,1.016555905342102,-5.334170524274008
1708435708.7357032,-2.1418099403381348,-1.333225206737854,-2.5260706583606165,6.109861957817831,1.0166140794754028,-5.3341273109065455
1708435708.7377164,-2.141791582107544,-1.3332124513438721,-2.526083771382467,6.109857547074117,1.0165472030639648,-5.334136191998617
1708435708.7396994,-2.141803026199341,-1.333176003103592,-2.5260749498950403,6.109824406891622,1.0165603160858154,-5.334218088780538
1708435708.7416954,-2.1417782306671143,-1.3331399720958252,-2.5260544458972376,6.109882700234213,1.016576886177063,-5.334197286759512
1708435708.7437215,-2.141761302947998,-1.3332047176412125,-2.52608830133547,6.109852897911825,1.0165886878967285,-5.3341689745532435
1708435708.7457304,-2.141787052154541,-1.3332124513438721,-2.526100222264425,6.109763014107504,1.0165724754333496,-5.33421373764147
1708435708.7477093,-2.141770124435425,-1.333151937728264,-2.5260959307300013,6.109832155495443,1.0166040658950806,-5.3341761271106165
1708435708.7496998,-2.141787052154541,-1.3331812781146546,-2.5260632673846644,6.109832155495443,1.0165427923202515,-5.334180657063619
1708435708.7516901,-2.1417737007141113,-1.3332047176412125,-2.5260499159442347,6.109844076424398,1.0166096687316895,-5.334221128617422
1708435708.7537472,-2.14180064201355,-1.3331759882024308,-2.5260706583606165,6.109824406891622,1.0166009664535522,-5.334195737038748
1708435708.755718,-2.141803026199341,-1.3332416874221344,-2.52608830133547,6.109812485962667,1.016608476638794,-5.334213678036825
1708435708.7577376,-2.1418232917785645,-1.3332167279771348,-2.5260959307300013,6.109824406891622,1.0165514945983887,-5.334183875714437
1708435708.7597046,-2.141787052154541,-1.3332167130759736,-2.5260749498950403,6.109857547074117,1.0165352821350098,-5.334216658269064
1708435708.7617319,-2.141770124435425,-1.333139957194664,-2.5260914007769983,6.1098365662391565,1.0165799856185913,-5.334174994622366
1708435708.7637308,-2.141770124435425,-1.333188847904541,-2.52611214319338,6.109774935036459,1.0165886878967285,-5.334242228661672
1708435708.7657444,-2.1417746543884277,-1.333188847904541,-2.5260632673846644,6.109878289490499,1.0166206359863281,-5.334237817917959
1708435708.767736,-2.141782522201538,-1.3331519675305863,-2.5260706583606165,6.109857427864828,1.0165711641311646,-5.334221128617422
1708435708.769715,-2.141761302947998,-1.3331898164800187,-2.526104513798849,6.109803545265951,1.0166172981262207,-5.334253851567404
1708435708.7717037,-2.141770124435425,-1.3332124513438721,-2.526100222264425,6.109870898514547,1.0165681838989258,-5.334186915551321
1708435708.773747,-2.1417577266693115,-1.3331846606782456,-2.5260914007769983,6.109815466194906,1.0165681838989258,-5.3342448512660425
1708435708.775723,-2.1418187618255615,-1.3331812930158158,-2.5260377565967005,6.109779464989462,1.0166053771972656,-5.33421373764147
1708435708.777721,-2.141765832901001,-1.3332124513438721,-2.5260794798480433,6.109791743546285,1.0165681838989258,-5.334290091191427
1708435708.7796972,-2.141770124435425,-1.3331519675305863,-2.5260871092425745,6.109803545265951,1.016638159751892,-5.334261242543356
1708435708.781705,-2.141740083694458,-1.3332295280746003,-2.5261033217059534,6.109824406891622,1.0166127681732178,-5.334240440522329
1708435708.783747,-2.141777992248535,-1.3331519675305863,-2.5260794798480433,6.109828817635336,1.016588807106018,-5.334239069615499
1708435708.785717,-2.1418118476867676,-1.3332416874221344,-2.5260825792895716,6.109815466194906,1.0166250467300415,-5.334240440522329
1708435708.7877343,-2.141787052154541,-1.333200530414917,-2.526116434727804,6.109774935036459,1.016608476638794,-5.334224466477529
1708435708.7897074,-2.141791582107544,-1.333200530414917,-2.5260959307300013,6.109796154289999,1.016608476638794,-5.334256891404287
1708435708.7917075,-2.1417577266693115,-1.3331846606782456,-2.526104513798849,6.109815466194906,1.0166127681732178,-5.334243361149923
1708435708.793734,-2.141765832901001,-1.3332133305123826,-2.5261240641223353,6.109796154289999,1.0166206359863281,-5.3342270890818995
1708435708.7957013,-2.1417782306671143,-1.333176926975586,-2.5260914007769983,6.109828817635336,1.0165965557098389,-5.334236029778616
1708435708.7977293,-2.1418356895446777,-1.3331432801536103,-2.5260542074786585,6.109787094383993,1.0166282653808594,-5.334231619034902
1708435708.799736,-2.1417791843414307,-1.3331803989461442,-2.52611214319338,6.109828817635336,1.0166040658950806,-5.334206704293386
1708435708.8017051,-2.1417782306671143,-1.333180384044983,-2.526116434727804,6.109845506935873,1.0166206359863281,-5.3342270890818995
1708435708.8037071,-2.141782522201538,-1.3331919026425858,-2.5261033217059534,6.109848487168112,1.0165834426879883,-5.334285442029135
1708435708.8057244,-2.1417782306671143,-1.3331962537816544,-2.526116434727804,6.109779464989462,1.01664137840271,-5.334281090890066
1708435708.8077595,-2.141798496246338,-1.3332047176412125,-2.52611214319338,6.109828817635336,1.0166250467300415,-5.334255401288168
1708435708.809704,-2.141744375228882,-1.333200530414917,-2.5260749498950403,6.109778272896566,1.0166206359863281,-5.334297064934866
1708435708.8117158,-2.141765832901001,-1.3331846606782456,-2.526128355656759,6.109812485962667,1.0166206359863281,-5.334279302750723
1708435708.8137188,-2.141782522201538,-1.3332167130759736,-2.5261359850512903,6.109828817635336,1.0166325569152832,-5.334308866654531
1708435708.8157096,-2.141761302947998,-1.3332167130759736,-2.5260706583606165,6.109852897911825,1.0166444778442383,-5.3343164960490626
1708435708.8177207,-2.141803026199341,-1.3332251620343705,-2.526132885609762,6.109915601998129,1.0166325569152832,-5.334267620240347
1708435708.8197057,-2.1417534351348877,-1.3331931096366425,-2.5260782877551478,6.109816896706381,1.0166773796081543,-5.334308985863821
1708435708.8217192,-2.1417746543884277,-1.3332167130759736,-2.5261152426349085,6.10981701591567,1.0166075229644775,-5.334292534981863
1708435708.823717,-2.1417534351348877,-1.3332047176412125,-2.5260959307300013,6.109803545265951,1.0166237354278564,-5.3343074957477015
1708435708.825702,-2.1418278217315674,-1.333200530414917,-2.5261152426349085,6.109871017723837,1.0166773796081543,-5.334324185048239
1708435708.8277302,-2.1417489051818848,-1.3331876409104844,-2.5260749498950403,6.109828817635336,1.0166772603988647,-5.3343287150012415
1708435708.8297195,-2.141765832901001,-1.3331962686828156,-2.5260825792895716,6.109860408097067,1.0166444778442383,-5.334389630948202
1708435708.8317058,-2.1417737007141113,-1.3331846606782456,-2.5260914007769983,6.109852897911825,1.0166566371917725,-5.33428663412203
1708435708.8337111,-2.141782522201538,-1.333188847904541,-2.5261197725879114,6.109774935036459,1.0166488885879517,-5.3343074957477015
1708435708.8356986,-2.1417622566223145,-1.3332622212222596,-2.5261076132403772,6.109857427864828,1.0166313648223877,-5.3343433181392115
1708435708.8376858,-2.141803026199341,-1.3332133305123826,-2.5260782877551478,6.109812485962667,1.0166478157043457,-5.334394160901205
1708435708.8396854,-2.1418356895446777,-1.333200530414917,-2.526128355656759,6.109824406891622,1.0166816711425781,-5.33431971469988
1708435708.8416803,-2.1418073177337646,-1.3332203489593049,-2.5261197725879114,6.1098365662391565,1.016648769378662,-5.334328774605886
1708435708.8436975,-2.1417791843414307,-1.3331846606782456,-2.5260959307300013,6.109841096192159,1.0166523456573486,-5.334315363560812
1708435708.8457015,-2.1418073177337646,-1.33314764619384,-2.5261572043048304,6.109845626145162,1.0166641473770142,-5.3342942039119166
1708435708.8477213,-2.141770124435425,-1.333200530414917,-2.5261197725879114,6.109824406891622,1.0167057514190674,-5.334300164376394
1708435708.8497055,-2.1417534351348877,-1.3331846606782456,-2.5261359850512903,6.109824406891622,1.0166641473770142,-5.334336105977194
1708435708.8517182,-2.1417782306671143,-1.333220900302269,-2.5260959307300013,6.109857547074117,1.0166566371917725,-5.33434778848757
1708435708.8536906,-2.141787052154541,-1.333188847904541,-2.5260706583606165,6.109810936241903,1.0166436433792114,-5.334340516720907
1708435708.8557038,-2.1417534351348877,-1.3331803542426606,-2.5261197725879114,6.1098365662391565,1.0166728496551514,-5.33433181444277
1708435708.8577223,-2.141744375228882,-1.333176926975586,-2.5261359850512903,6.109873878746786,1.0166970491409302,-5.334340516720907
1708435708.859744,-2.141765832901001,-1.3331931096366425,-2.526140276585714,6.109824406891622,1.0166523456573486,-5.334345106278555
1708435708.8617184,-2.141770124435425,-1.3331357699683686,-2.5260987917529505,6.109841096192159,1.0166773796081543,-5.334331754838125
1708435708.8637679,-2.141791582107544,-1.3331684482148667,-2.5261152426349085,6.109803426056661,1.0167136192321777,-5.334282342587606
1708435708.8657029,-2.1417577266693115,-1.3332295280746003,-2.5260959307300013,6.109803426056661,1.0166807174682617,-5.334381941949026
1708435708.8677058,-2.1417791843414307,-1.3332017374089737,-2.5261240641223353,6.109778272896566,1.0166598558425903,-5.33431971469988
1708435708.8697424,-2.1417489051818848,-1.3332047176412125,-2.5260871092425745,6.109791624336996,1.0166685581207275,-5.334286693726675
1708435708.8717608,-2.141765832901001,-1.3331962537816544,-2.5261033217059534,6.10986481884078,1.0166523456573486,-5.334361139927999
1708435708.8737438,-2.1418118476867676,-1.3332090091756363,-2.526128594075338,6.10986481884078,1.016676425933838,-5.334347728882925
1708435708.8756955,-2.1418118476867676,-1.3332047176412125,-2.5261152426349085,6.109758484154501,1.0166641473770142,-5.334291104470388
1708435708.8777354,-2.1417958736419678,-1.3332374107888718,-2.5260987917529505,6.1098365662391565,1.0166926383972168,-5.334352139626638
1708435708.879727,-2.1418232917785645,-1.3331716817668458,-2.5260782877551478,6.109882819443502,1.0166641473770142,-5.334336105977194
1708435708.8817008,-2.1417958736419678,-1.3331647676280518,-2.5261240641223353,6.109794604569235,1.0167136192321777,-5.33440608183016
1708435708.8837304,-2.1417791843414307,-1.333200530414917,-2.5261033217059534,6.109791743546285,1.0166685581207275,-5.33431971469988
1708435708.885707,-2.1417791843414307,-1.3331603866866608,-2.526073757802145,6.109873878746786,1.0166435241699219,-5.334303025399343
1708435708.8877337,-2.141798496246338,-1.3331962537816544,-2.5261109511004847,6.109812485962667,1.0166641473770142,-5.33431971469988
1708435708.8897495,-2.1417958736419678,-1.333164171581604,-2.5261240641223353,6.10982774475173,1.016676425933838,-5.3343064228640955
1708435708.8917003,-2.1417958736419678,-1.333200530414917,-2.5261271635638636,6.109807956009664,1.0167210102081299,-5.334289733563558
1708435708.8937228,-2.141782522201538,-1.333225206737854,-2.5261359850512903,6.109819876938619,1.0166882276535034,-5.33431971469988
1708435708.8957205,-2.141770124435425,-1.3332124513438721,-2.5260825792895716,6.109878289490499,1.016704797744751,-5.334324185048239
1708435708.897734,-2.1418073177337646,-1.3331690293601532,-2.526118342076437,6.109803545265951,1.0166926383972168,-5.33437300125231
1708435708.8997226,-2.141791582107544,-1.3332176071456452,-2.5261314550982874,6.109848487168112,1.0167298316955566,-5.334352139626638
1708435708.9016972,-2.1417782306671143,-1.333188847904541,-2.5261152426349085,6.109791743546285,1.016704797744751,-5.334340576325552
1708435708.903724,-2.141803026199341,-1.3331962686828156,-2.5260856787311,6.109812485962667,1.0166807174682617,-5.334345106278555
1708435708.9057791,-2.1418187618255615,-1.333176926975586,-2.5261359850512903,6.109833347588339,1.0166926383972168,-5.33434778848757
1708435708.908047,-2.1417791843414307,-1.3331919026425858,-2.5261314550982874,6.10981701591567,1.016655445098877,-5.3342942039119166
1708435708.9097795,-2.1417489051818848,-1.3332296025804062,-2.5260899702655237,6.109833347588339,1.0167254209518433,-5.3343685309039515
1708435708.9116971,-2.1417746543884277,-1.3331803691438218,-2.5260782877551478,6.109803545265951,1.016676425933838,-5.334352139626638
1708435708.913712,-2.141782522201538,-1.333208979373314,-2.5261109511004847,6.109841096192159,1.0166598558425903,-5.3342732826816
1708435708.9157002,-2.141782522201538,-1.3331888628057023,-2.5260899702655237,6.109845506935873,1.0166685581207275,-5.334298674260275
1708435708.9177094,-2.1417958736419678,-1.3332047176412125,-2.526139561329977,6.1098259566123865,1.016676425933838,-5.3343074957477015
1708435708.9197276,-2.141770124435425,-1.3331726503423234,-2.5261271635638636,6.109791624336996,1.0166882276535034,-5.33434778848757
1708435708.9217203,-2.141791582107544,-1.3331918877414246,-2.5260987917529505,6.109899151116171,1.0166926383972168,-5.334331754838125
1708435708.923755,-2.1417622566223145,-1.3331962537816544,-2.5261314550982874,6.109791624336996,1.016671895980835,-5.3343074957477015
1708435708.9256988,-2.1417534351348877,-1.3332338494113465,-2.5260825792895716,6.109807956009664,1.0166720151901245,-5.33434778848757
1708435708.9277036,-2.1417534351348877,-1.3331519675305863,-2.5261197725879114,6.109824406891622,1.0167210102081299,-5.334382001553671
1708435708.9297223,-2.141787052154541,-1.3331962686828156,-2.5261529127704065,6.109857427864828,1.0167579650878906,-5.33437300125231
1708435708.9317045,-2.141791582107544,-1.3331974756768723,-2.5261152426349085,6.109800565033712,1.0166598558425903,-5.33434778848757
1708435708.933709,-2.141770124435425,-1.3332081002048035,-2.5261359850512903,6.109857427864828,1.0166720151901245,-5.334310893212454
1708435708.9357345,-2.1418118476867676,-1.3331846606782456,-2.526118342076437,6.109816896706381,1.0167092084884644,-5.334300104771749
1708435708.9377465,-2.141770124435425,-1.333200530414917,-2.5261557737933558,6.109852897911825,1.0166926383972168,-5.334364179764883
1708435708.9397173,-2.1417791843414307,-1.333233819609024,-2.5261314550982874,6.109800565033712,1.0167179107666016,-5.334324185048239
1708435708.9417434,-2.1417958736419678,-1.3331270825913926,-2.526139561329977,6.109833228379049,1.0166839361190796,-5.3342822829829615
1708435708.9437072,-2.141765832901001,-1.3332133305123826,-2.52614409128298,6.109812485962667,1.0166553258895874,-5.334340576325552
1708435708.9457257,-2.141770124435425,-1.3332176518491288,-2.526113812123434,6.109808075218954,1.0166969299316406,-5.334336105977194
1708435708.9477139,-2.1417417526245117,-1.3331726652434845,-2.5261226336108606,6.109857547074117,1.016701340675354,-5.3343287150012415
1708435708.9497006,-2.1417622566223145,-1.3332047176412125,-2.5261767546283167,6.109783875733175,1.0166839361190796,-5.33431971469988
1708435708.9517236,-2.141765832901001,-1.3332090091756363,-2.5260899702655237,6.109866368561544,1.0166435241699219,-5.334300104771749
1708435708.953705,-2.141770124435425,-1.333200530414917,-2.526140276585714,6.109796035080709,1.0166926383972168,-5.33431971469988
1708435708.9557345,-2.1417534351348877,-1.333188847904541,-2.5261064211474817,6.109808075218954,1.016655445098877,-5.334364179764883
1708435708.9577096,-2.1417622566223145,-1.3332374107888718,-2.5261109511004847,6.109841096192159,1.0167254209518433,-5.334282223378317
1708435708.959692,-2.1418190002441406,-1.3331726652434845,-2.526151482258932,6.1098378775413416,1.0166969299316406,-5.3343656102763575
1708435708.9617143,-2.141791582107544,-1.333188847904541,-2.5261064211474817,6.109767424851217,1.0166882276535034,-5.334356609974996
1708435708.9636958,-2.141791582107544,-1.333200530414917,-2.5261271635638636,6.109832155495443,1.016676425933838,-5.3342881242381495
1708435708.9657273,-2.1417791843414307,-1.3332374554923554,-2.52613073984255,6.109816896706381,1.0166926383972168,-5.3343331853496
1708435708.9677136,-2.141791582107544,-1.333249421124794,-2.526102129613058,6.109833347588339,1.0166795253753662,-5.334279243146078
1708435708.9697127,-2.141791582107544,-1.3331726354411622,-2.526139561329977,6.10989927032546,1.0167005062103271,-5.334324185048239
1708435708.971743,-2.141791582107544,-1.3331604164889832,-2.5261226336108606,6.1097991345222376,1.0166926383972168,-5.334337655697958
1708435708.973703,-2.1417791843414307,-1.333188847904541,-2.526102129613058,6.109808075218954,1.0166882276535034,-5.334324185048239
1708435708.9757023,-2.141803026199341,-1.333188847904541,-2.5261064211474817,6.109866368561544,1.0166467428207397,-5.334333125744955
1708435708.9777105,-2.141791582107544,-1.3331684482148667,-2.526151482258932,6.109812485962667,1.0167373418807983,-5.334254268799917
1708435708.9797196,-2.141791582107544,-1.3332047176412125,-2.5261603037463587,6.109812485962667,1.0166882276535034,-5.334349576626913
1708435708.9816988,-2.1417531967163086,-1.3332081002048035,-2.5261314550982874,6.109832155495443,1.016704797744751,-5.334276501332418
1708435708.9837353,-2.1417746543884277,-1.333253653054573,-2.526146952305929,6.109775054245748,1.0167210102081299,-5.334300104771749
1708435708.9857073,-2.1417577266693115,-1.3332005453160782,-2.526113812123434,6.109828817635336,1.016716718673706,-5.334300104771749
1708435708.9877021,-2.1417577266693115,-1.3332252216390152,-2.5261264483081263,6.109845626145162,1.0167092084884644,-5.334270242844717
1708435708.9897032,-2.141770124435425,-1.3331846606782456,-2.52614409128298,6.109852897911825,1.0167003870010376,-5.3343045751201075
1708435708.9916983,-2.1417534351348877,-1.3331726801446457,-2.5261226336108606,6.109824406891622,1.0167124271392822,-5.334263149891989
1708435708.9936986,-2.1417577266693115,-1.3332296025804062,-2.5261483828174036,6.109783875733175,1.0166882276535034,-5.33427215019335
1708435708.9956875,-2.1418232917785645,-1.3331803691438218,-2.52610952058901,6.109794604569235,1.016704797744751,-5.334288183842794
1708435708.9977298,-2.1417577266693115,-1.3331803691438218,-2.5261359850512903,6.109870898514547,1.0166926383972168,-5.334324185048239
1708435708.9996936,-2.1417622566223145,-1.3331846606782456,-2.526151482258932,6.109809624939718,1.0167254209518433,-5.3342676798449915
1708435709.0016944,-2.1417462825775146,-1.333187611108162,-2.52614409128298,6.109848487168112,1.016704797744751,-5.3343045751201075
1708435709.0037236,-2.1417534351348877,-1.333168478017189,-2.5261226336108606,6.109788405686178,1.016704797744751,-5.3342971245395105
1708435709.005692,-2.141770124435425,-1.3331769418767472,-2.5261972586261194,6.109808075218954,1.0166839361190796,-5.33427215019335
1708435709.0077186,-2.1418073177337646,-1.3331931245378037,-2.5261645952807825,6.109869348793783,1.016732931137085,-5.334300104771749
1708435709.0097253,-2.1417622566223145,-1.333180384044983,-2.5261603037463587,6.109815466194906,1.0166839361190796,-5.3343045751201075
1708435709.0116992,-2.141787052154541,-1.3331813228181382,-2.5261603037463587,6.109812485962667,1.0167254209518433,-5.334276501332418
1708435709.0137248,-2.1417531967163086,-1.3331803691438218,-2.52613073984255,6.109824406891622,1.0166839361190796,-5.334276501332418
1708435709.0157,-2.1417622566223145,-1.3331812930158158,-2.526151482258932,6.109808075218954,1.0167286396026611,-5.334285501633779
1708435709.0177112,-2.1417489051818848,-1.3332133752158661,-2.5261722246753138,6.109815466194906,1.016704797744751,-5.334227029477255
1708435709.0197334,-2.14180064201355,-1.3331642162850876,-2.5261064211474817,6.10980652549819,1.0167417526245117,-5.3342899719821375
1708435709.0217047,-2.141770124435425,-1.3331561249545594,-2.526146952305929,6.109869348793783,1.016716718673706,-5.334264341984884
1708435709.0237167,-2.1417791843414307,-1.333172695045807,-2.526113812123434,6.109808075218954,1.016716718673706,-5.334240500126974
1708435709.0257254,-2.1417746543884277,-1.333200530414917,-2.52616793314089,6.109796035080709,1.0167492628097534,-5.334179345761434
1708435709.0277054,-2.141787052154541,-1.3332047176412125,-2.526163403187887,6.109800565033712,1.0167210102081299,-5.334270302449362
1708435709.0297167,-2.141791582107544,-1.3332373213819046,-2.526142660771505,6.109805094986715,1.0167080163955688,-5.334219936524526
1708435709.0317135,-2.1417958736419678,-1.333176003103592,-2.5261226336108606,6.109857427864828,1.0167005062103271,-5.334277633820669
1708435709.0336983,-2.141787052154541,-1.3331846606782456,-2.526179615651266,6.109828817635336,1.0167124271392822,-5.334182445202963
1708435709.0357819,-2.1418073177337646,-1.3331726503423234,-2.5261219183551233,6.109824406891622,1.0167210102081299,-5.3342002669917505
1708435709.037701,-2.141787052154541,-1.3332246106914063,-2.526170794163839,6.109816896706381,1.0166795253753662,-5.334221128617422
1708435709.0397367,-2.1417667865753174,-1.3331931245378037,-2.526184145604269,6.109800565033712,1.0167210102081299,-5.334195737038748
1708435709.0417182,-2.141770124435425,-1.3331832599690934,-2.5261502901660364,6.1098259566123865,1.0167492628097534,-5.334225539361135
1708435709.0437655,-2.1417746543884277,-1.3332494360259552,-2.5261383692370813,6.109828817635336,1.0167210102081299,-5.334212128316061
1708435709.0457027,-2.141796112060547,-1.333220900302269,-2.526179615651266,6.109803545265951,1.0166795253753662,-5.334228817616598
1708435709.0477114,-2.1417791843414307,-1.333228976731636,-2.526224676762716,6.1098095057304285,1.0167080163955688,-5.334228817616598
1708435709.0497172,-2.1417384147644043,-1.3331918877414246,-2.526175324116842,6.109841096192159,1.016732931137085,-5.334233347569601
1708435709.0517294,-2.1417622566223145,-1.3331684482148667,-2.5261917749988,6.109857427864828,1.0167617797851562,-5.334237817917959
1708435709.0537295,-2.1417489051818848,-1.333212436442711,-2.5261829535113733,6.109816896706381,1.0167005062103271,-5.334212128316061
1708435709.0557268,-2.1417460441589355,-1.3332090091756363,-2.526175324116842,6.109854566841879,1.0167535543441772,-5.334191385899679
1708435709.0576975,-2.1417622566223145,-1.3331962537816544,-2.526224676762716,6.109765994339742,1.0167360305786133,-5.334200326596395
1708435709.0597186,-2.141796112060547,-1.3332209301045914,-2.526187245045797,6.109816896706381,1.0167198181152344,-5.334237817917959
1708435709.0616927,-2.141770124435425,-1.3332005155137558,-2.5261545817004603,6.109808075218954,1.016732931137085,-5.334227029477255
1708435709.0637197,-2.1417746543884277,-1.3331962388804932,-2.526179615651266,6.109763014107504,1.01674485206604,-5.334228817616598
1708435709.0657048,-2.1417577266693115,-1.3332090091756363,-2.526207987462179,6.109791624336996,1.0167492628097534,-5.334224466477529
1708435709.0677195,-2.1417791843414307,-1.3332331788590928,-2.526207987462179,6.109824406891622,1.0167360305786133,-5.334236029778616
1708435709.0697143,-2.1417791843414307,-1.3331918877414246,-2.5261622110949915,6.109841096192159,1.0167617797851562,-5.334219996129171
1708435709.071751,-2.1417577266693115,-1.3331812930158158,-2.5261784235583704,6.109857427864828,1.0167737007141113,-5.334281031285421
1708435709.0737326,-2.1417622566223145,-1.3331519228271027,-2.5261829535113733,6.109824406891622,1.0167198181152344,-5.334285501633779
1708435709.0757306,-2.1417791843414307,-1.3331684482148667,-2.5261991659747522,6.109863388329305,1.0167691707611084,-5.334342006837026
1708435709.0777082,-2.1417622566223145,-1.3331759882024308,-2.526203457509176,6.109787094383993,1.0167691707611084,-5.334316436444418
1708435709.0797029,-2.1417577266693115,-1.3331918877414246,-2.526241127644674,6.109788405686178,1.0167691707611084,-5.334352199231283
1708435709.0817022,-2.1417958736419678,-1.3331846308759232,-2.5261917749988,6.109858977585592,1.0167691707611084,-5.334371868764059
1708435709.083722,-2.1417622566223145,-1.3331803691438218,-2.526142660771505,6.109854566841879,1.0167360305786133,-5.334416512642996
1708435709.085723,-2.1417791843414307,-1.3332046878388901,-2.526203457509176,6.109775054245748,1.016797423362732,-5.334404651318685
1708435709.0877182,-2.141782522201538,-1.3332209152034302,-2.5261784235583704,6.109866368561544,1.0167887210845947,-5.334431473408834
1708435709.0897014,-2.1417338848114014,-1.3331603717854996,-2.5261622110949915,6.10986481884078,1.0168054103851318,-5.334434453641073
1708435709.0917144,-2.1417670249938965,-1.3331962537816544,-2.526175324116842,6.109816896706381,1.0168139934539795,-5.334516648446218
1708435709.0937285,-2.1417534351348877,-1.333200530414917,-2.5261784235583704,6.109819876938619,1.0167561769485474,-5.334540192280905
1708435709.095707,-2.1417622566223145,-1.3332124215415497,-2.5261829535113733,6.109879600792684,1.0168097019195557,-5.334592346345083
1708435709.097713,-2.1417622566223145,-1.3332407784513016,-2.526170794163839,6.109808075218954,1.0167843103408813,-5.3345986048327845
1708435709.0997095,-2.1417622566223145,-1.333253653054573,-2.5261903444873255,6.109783875733175,1.016800880432129,-5.334646288548605
1708435709.1017184,-2.1417293548583984,-1.333204747443535,-2.5262113253222864,6.109816896706381,1.0168215036392212,-5.3346779386149805
1708435709.1037474,-2.1417713165283203,-1.3332697463086625,-2.5262234846698206,6.109812485962667,1.0168293714523315,-5.3348000089274805
1708435709.105702,-2.1417417526245117,-1.3332203191569825,-2.526220146809713,6.109849917679586,1.0167921781539917,-5.334822360669271
1708435709.1077483,-2.1417837142944336,-1.3332167130759736,-2.5262606779681605,6.109812485962667,1.016812801361084,-5.334881965314047
1708435709.1097054,-2.1417713165283203,-1.3332005453160782,-2.5262025038348597,6.109852897911825,1.0167995691299438,-5.3349313775645655
1708435709.1117024,-2.1417462825775146,-1.3331974756768723,-2.5262113253222864,6.109828817635336,1.0168083906173706,-5.3349701205836695
1708435709.1137388,-2.1417384147644043,-1.3332037788680573,-2.5262308756457728,6.109797227173605,1.0168652534484863,-5.335013393555776
1708435709.1157165,-2.1417622566223145,-1.333224580889084,-2.5261946360217493,6.109833228379049,1.016890287399292,-5.335113112126486
1708435709.1177213,-2.1417791843414307,-1.3332047325423737,-2.5261979738818567,6.109747040062704,1.016812801361084,-5.335123602543966
1708435709.1197119,-2.1417791843414307,-1.3331919026425858,-2.526243034993307,6.109800565033712,1.0168490409851074,-5.335237030182974
1708435709.1217086,-2.1417293548583984,-1.3331476610950013,-2.526269261037008,6.109841096192159,1.016874074935913,-5.335313026105062
1708435709.1237328,-2.1417622566223145,-1.3332374107888718,-2.5262442270862024,6.109783875733175,1.016819715499878,-5.335411612187521
1708435709.125702,-2.1417667865753174,-1.333200530414917,-2.526226584111349,6.1098378775413416,1.0168284177780151,-5.335454885159628
1708435709.1277595,-2.141710042953491,-1.3332374107888718,-2.526243034993307,6.109859096794882,1.0168815851211548,-5.335576955472128
1708435709.1297202,-2.141721487045288,-1.333208979373314,-2.526280228291647,6.109845626145162,1.0168858766555786,-5.33563065925707
1708435709.1317177,-2.1417713165283203,-1.3331918877414246,-2.526254717503683,6.109765994339742,1.0168771743774414,-5.335738186036245
1708435709.1337278,-2.141726016998291,-1.3331803989461442,-2.526275698338644,6.1098378775413416,1.0168684720993042,-5.335826400910513
1708435709.135803,-2.1417384147644043,-1.3332089942744751,-2.5262635389911097,6.109763014107504,1.0168850421905518,-5.335909549389974
1708435709.137733,-2.1416728496551514,-1.3332080704024811,-2.526278797780172,6.109800565033712,1.0168806314468384,-5.3360453883754175
1708435709.139706,-2.141730546951294,-1.3331962686828156,-2.52623421350588,6.109800565033712,1.016897201538086,-5.336115781460897
1708435709.14169,-2.141751766204834,-1.333257870083191,-2.526325050984518,6.109792816429891,1.0168684720993042,-5.336232189332144
1708435709.143705,-2.1416773796081543,-1.3332613420537491,-2.526316229497091,6.109742510109701,1.0168684720993042,-5.336301867161886
1708435709.1456869,-2.1416985988616943,-1.3332081002048035,-2.5263028780566614,6.1097603915031335,1.0168850421905518,-5.336491409932272
1708435709.1477184,-2.141669511795044,-1.3332167279771348,-2.5263238588916224,6.109816896706381,1.0169048309326172,-5.336582545434133
1708435709.1497319,-2.141686201095581,-1.3331919026425858,-2.5263238588916224,6.109776484757223,1.016859769821167,-5.336688701306478
1708435709.151709,-2.141711950302124,-1.3331995618394394,-2.5263238588916224,6.109715330391683,1.0168840885162354,-5.3368781248675745
1708435709.1537278,-2.1416783332824707,-1.333228961830475,-2.5262911955462855,6.109752881317892,1.0169376134872437,-5.336955551301138
1708435709.1557426,-2.141601324081421,-1.333216057424881,-2.5263105074511927,6.109707939415731,1.0169451236724854,-5.337107543145315
1708435709.1577127,-2.1416218280792236,-1.3332038235715409,-2.5263193289386194,6.109766351967611,1.0169494152069092,-5.337217930947439
1708435709.1597207,-2.1415765285491943,-1.3332570058158417,-2.5262942949878138,6.109688269882955,1.0169364213943481,-5.337426606808798
1708435709.1617038,-2.1415481567382812,-1.3332484376481553,-2.5263224283801478,6.1096852896507166,1.0169451236724854,-5.337568406258718
1708435709.1637473,-2.14158296585083,-1.3332441759160538,-2.5263267199145716,6.109673487931051,1.0169901847839355,-5.337692324315206
1708435709.165705,-2.141570568084717,-1.333276928668358,-2.526306215916769,6.1096123335655115,1.01698899269104,-5.33785051504244
1708435709.1677237,-2.1415352821350098,-1.3331909489682694,-2.5263477007495325,6.10960482338027,1.0169726610183716,-5.338068429623739
1708435709.1697083,-2.1415016651153564,-1.333273173575737,-2.5263519922839563,6.1095197079475305,1.01698899269104,-5.338184479867117
1708435709.1717448,-2.1414358615875244,-1.3332811904004593,-2.5263224283801478,6.109544861107626,1.0170217752456665,-5.3383445779429834
1708435709.1737595,-2.141462802886963,-1.3332725179246445,-2.526416603718893,6.109497058182516,1.0170546770095825,-5.338594381009237
1708435709.1757712,-2.141451358795166,-1.3332474541715165,-2.526367489491598,6.109489667206564,1.0170292854309082,-5.338727478181021
1708435709.1777887,-2.1413586139678955,-1.333284468655922,-2.526386801396505,6.109458195954122,1.0171269178390503,-5.338922862206594
1708435709.1797144,-2.141339063644409,-1.3333330613425751,-2.5263825098620813,6.10938190200881,1.0170979499816895,-5.339139167462484
1708435709.1816983,-2.141245126724243,-1.3333321672729035,-2.526436154042379,6.1094268439109705,1.0170817375183105,-5.3392438928233545
1708435709.1837404,-2.1412880420684814,-1.3333767813495179,-2.526407782231466,6.10938190200881,1.017129898071289,-5.339442078267233
1708435709.185712,-2.141242742538452,-1.3333278757384797,-2.5264151732074183,6.109342801361837,1.017096757888794,-5.339695398007528
1708435709.1876988,-2.141157865524292,-1.3333725196174164,-2.5264304319964808,6.109305965691366,1.017166018486023,-5.339856747780935
1708435709.1897008,-2.1410772800445557,-1.333360255961754,-2.526463333760397,6.109201061516561,1.0171778202056885,-5.340075914059774
1708435709.1916873,-2.141099691390991,-1.3334200096181412,-2.526508156453268,6.109147417336263,1.0171856880187988,-5.340365413819448
1708435709.193689,-2.141040563583374,-1.3334329438260575,-2.526511255894796,6.1091219065483,1.0172054767608643,-5.340517882500784
1708435709.1957169,-2.1409707069396973,-1.3334396493485947,-2.5265634695636194,6.109083163529196,1.0172423124313354,-5.340789202843801
1708435709.1977127,-2.140927314758301,-1.3334842187217255,-2.5265219847308558,6.109035241394796,1.0172905921936035,-5.341031674538748
1708435709.199726,-2.1408932209014893,-1.33345082521949,-2.5266130606280726,6.108959066658773,1.0173308849334717,-5.341233197842733
1708435709.201697,-2.1408498287200928,-1.3335523468307038,-2.526628080998556,6.108890163689413,1.0173426866531372,-5.341492478047506
1708435709.2037072,-2.1407480239868164,-1.3335603487542649,-2.5266597906695765,6.1088307974632166,1.0174074172973633,-5.341751758252279
1708435709.2057276,-2.140652656555176,-1.333584190612175,-2.526651922856466,6.1087379334266565,1.0174193382263184,-5.342042628918783
1708435709.2077034,-2.140580177307129,-1.333587796693184,-2.526646439229147,6.108646499901571,1.0174227952957153,-5.342289272938864
1708435709.209709,-2.1405088901519775,-1.3336849969676514,-2.5267043749438685,6.108583795815267,1.0174676179885864,-5.34259277979006
1708435709.2117038,-2.140383243560791,-1.333691955809929,-2.5267601648913782,6.108468520432272,1.0174994468688965,-5.342805270348684
1708435709.2137012,-2.140324115753174,-1.3336996001056214,-2.5267184416400355,6.1084046242530725,1.0175114870071411,-5.34315395752062
1708435709.215716,-2.1402199268341064,-1.3337071549943467,-2.526811424885885,6.108280408173361,1.0174939632415771,-5.343342248593466
1708435709.2176986,-2.1401448249816895,-1.3336737614921113,-2.5268145243274134,6.108177411347189,1.0175591707229614,-5.343648318444387
1708435709.2197082,-2.140033483505249,-1.3337309819510956,-2.5268591086017054,6.108109700470724,1.0175670385360718,-5.343907479439871
1708435709.2216983,-2.139871835708618,-1.333790884619095,-2.5269411245929163,6.107891785889425,1.0175986289978027,-5.344186727200643
1708435709.2237391,-2.139796495437622,-1.3338312667659302,-2.526919190083639,6.1077555296714685,1.017622709274292,-5.344452385102407
1708435709.2257342,-2.1396889686584473,-1.33391127110038,-2.527013365422384,6.107673394470968,1.0176349878311157,-5.344770137463705
1708435709.2276983,-2.139557123184204,-1.333886445765831,-2.5270164648639124,6.107517826348104,1.0176665782928467,-5.3451096455203455
1708435709.2297106,-2.139385223388672,-1.3338897091201325,-2.527043883000509,6.107346284180441,1.017730951309204,-5.3454663197146814
1708435709.2316983,-2.139302968978882,-1.3339787435582657,-2.5270915667163294,6.107268440514364,1.0177836418151855,-5.345821444188253
1708435709.2337008,-2.1391308307647705,-1.334031657581665,-2.5271602312671106,6.107103812485494,1.0177826881408691,-5.346073333417074
1708435709.2356987,-2.138975143432617,-1.334066466694214,-2.5271664301501673,6.106933343201437,1.0178676843643188,-5.3464165965663355
1708435709.2377107,-2.1387746334075928,-1.3340495389750977,-2.5272725264178675,6.106731402664938,1.0179200172424316,-5.346714977418081
1708435709.2397206,-2.1385996341705322,-1.334093229179718,-2.527250353490011,6.106490838318624,1.0179669857025146,-5.3470399419413965
1708435709.241698,-2.138427495956421,-1.3341094118407746,-2.5273030439959925,6.106365549355306,1.0180273056030273,-5.3473714033709925
1708435709.2437258,-2.1382527351379395,-1.334201530819275,-2.527367655430929,6.106104004174032,1.01811683177948,-5.347660843526022
1708435709.2456915,-2.1379854679107666,-1.3342529100230713,-2.5274394194232386,6.105937945633688,1.0182175636291504,-5.3480141202556055
1708435709.2477071,-2.137808322906494,-1.3343298447183152,-2.5274952093707483,6.105764615326681,1.0182569026947021,-5.348352972661154
1708435709.249713,-2.1375410556793213,-1.3343573075583954,-2.5276086966144007,6.105450618058004,1.0183169841766357,-5.348689858113424
1708435709.2517064,-2.1373116970062256,-1.3344083589366456,-2.527619187031881,6.105190861016073,1.0184011459350586,-5.349105898533956
1708435709.2537007,-2.1371264457702637,-1.3344690662673493,-2.5276556650744837,6.104964840203085,1.0184775590896606,-5.349468592797415
1708435709.2556915,-2.1368982791900635,-1.3345243495753785,-2.527748409901754,6.104681002884664,1.0185378789901733,-5.349798146878378
1708435709.257691,-2.1366262435913086,-1.3346045327237626,-2.527820412312643,6.1044672606285,1.0186251401901245,-5.350119058285848
1708435709.2597036,-2.1363301277160645,-1.3346236509135743,-2.5278471151935022,6.104235636978903,1.018722414970398,-5.350502435361044
1708435709.261731,-2.136152505874634,-1.334602491264679,-2.5279386679278772,6.103942620545187,1.0187935829162598,-5.3509067932712
1708435709.2637267,-2.1359095573425293,-1.3347523373416443,-2.5280209223376673,6.103660094528951,1.0189030170440674,-5.351227585469381
1708435709.2657168,-2.135596752166748,-1.3348072630218049,-2.5280795733081263,6.103317606240072,1.0189783573150635,-5.351621631775991
1708435709.267714,-2.1352524757385254,-1.3348585677197953,-2.528172318135397,6.103056061058798,1.0191112756729126,-5.351977829133169
1708435709.2697215,-2.1350066661834717,-1.3349668246558686,-2.528226677571432,6.102676498680868,1.0191748142242432,-5.352393988762991
1708435709.2717159,-2.134705066680908,-1.335022212272026,-2.5283687750445765,6.102332460671224,1.0193202495574951,-5.352776114140646
1708435709.2737205,-2.1343841552734375,-1.3351273995688935,-2.5284648577319544,6.101936447411337,1.0193825960159302,-5.353116218243734
1708435709.2757034,-2.1340184211730957,-1.3351660680821915,-2.5284953753100794,6.101560580521383,1.0194833278656006,-5.353547696267263
1708435709.2777088,-2.133725166320801,-1.335310922270157,-2.528607432042257,6.101242649346151,1.0195868015289307,-5.35389626422991
1708435709.2797143,-2.1333465576171875,-1.3353330355933686,-2.5287497679339808,6.1008150456245325,1.019674301147461,-5.354307953511373
1708435709.2817035,-2.1329824924468994,-1.335493580704071,-2.528848711644308,6.100372898369589,1.0198359489440918,-5.354664627705709
1708435709.283706,-2.1326189041137695,-1.3356301051429291,-2.5289490858661097,6.099843132286825,1.0199848413467407,-5.355053726826803
1708435709.2856946,-2.132185697555542,-1.335701273088791,-2.529027525578634,6.099426138191976,1.020145297050476,-5.355464283620016
1708435709.2877011,-2.1317453384399414,-1.3357806366733094,-2.529184881840841,6.099021184235372,1.0202646255493164,-5.3558372298823755
1708435709.289713,-2.1313369274139404,-1.3358961802772065,-2.5293331781970423,6.098524796753683,1.0204380750656128,-5.356259528790609
1708435709.2917004,-2.1309444904327393,-1.33598746479068,-2.529400650654928,6.098096000939169,1.020509123802185,-5.356657985840933
1708435709.2937098,-2.130495309829712,-1.3361310821822663,-2.5295656363116663,6.097599732666769,1.0206621885299683,-5.357048694287435
1708435709.2957015,-2.13004732131958,-1.3362105053714295,-2.5296974817859095,6.097118246346273,1.0208066701889038,-5.357461933289663
1708435709.2977128,-2.129549741744995,-1.3363625270179291,-2.5298128763781946,6.096584665566244,1.02099609375,-5.357837800179617
1708435709.2997274,-2.1290392875671387,-1.336469517355301,-2.529980723057882,6.0960391638572595,1.0211596488952637,-5.3582627216922205
1708435709.3017,-2.1284921169281006,-1.3366662722877045,-2.5301697889911097,6.095439541130819,1.0213531255722046,-5.35869419971575
1708435709.3037233,-2.1279234886169434,-1.3368012470057984,-2.530271832142965,6.094786274224081,1.0214753150939941,-5.3591283599482935
1708435709.3056986,-2.1274514198303223,-1.3368679744056244,-2.5304527918445032,6.094192969589987,1.0216690301895142,-5.35948479572405
1708435709.3077056,-2.126913070678711,-1.3370480698398133,-2.530576292668478,6.093575823097982,1.0218448638916016,-5.359996561204092
1708435709.3097079,-2.126333713531494,-1.337175415163376,-2.530785862599508,6.092978107720175,1.022046446800232,-5.360331896935598
1708435709.3117027,-2.1257925033569336,-1.337310553794243,-2.530933205281393,6.092278110771932,1.02219820022583,-5.360767845307485
1708435709.313713,-2.1251349449157715,-1.3374982190183182,-2.531134907399313,6.091621625214376,1.0223785638809204,-5.36117655435671
1708435709.315719,-2.124528646469116,-1.3376828891089936,-2.5312076250659388,6.090891229897299,1.0225991010665894,-5.361577574406759
1708435709.3177133,-2.1238601207733154,-1.3377943646958848,-2.5314248243915003,6.090087163239279,1.0227903127670288,-5.362028185521261
1708435709.3197167,-2.1232221126556396,-1.3380032938769837,-2.5316363016711634,6.089331257134237,1.023089051246643,-5.36242396036257
1708435709.3217266,-2.1225411891937256,-1.3381333959153672,-2.531820599232809,6.088557350426473,1.0233086347579956,-5.362803939973013
1708435709.3237252,-2.1218197345733643,-1.338336468940117,-2.5320497194873255,6.08773552158431,1.0235130786895752,-5.3632381598102015
1708435709.3256977,-2.1211435794830322,-1.3384965670159836,-2.5322092215167444,6.0868496773536584,1.0237503051757812,-5.363599125538961
1708435709.3277206,-2.120387315750122,-1.3386672151139756,-2.5324247519122522,6.086068737297811,1.0239461660385132,-5.364028398190634
1708435709.3297076,-2.11965274810791,-1.3388183575919648,-2.532604996358053,6.085187542229452,1.0241787433624268,-5.364429895077841
1708435709.3317285,-2.118860960006714,-1.339026154284813,-2.532804552708761,6.084321367531576,1.0243864059448242,-5.3648369948016565
1708435709.3337307,-2.1181256771087646,-1.339254469876625,-2.532999579106466,6.083379494934835,1.024680733680725,-5.365242664013998
1708435709.3357098,-2.117239236831665,-1.339392141704895,-2.533281151448385,6.0823813555534265,1.0249359607696533,-5.36566943327059
1708435709.3377154,-2.116492509841919,-1.339636654858925,-2.533473316823141,6.0814599869544885,1.025188684463501,-5.366009596978323
1708435709.3396945,-2.1156210899353027,-1.3398000609925766,-2.533729616795675,6.08041404464797,1.0255101919174194,-5.366412405167715
1708435709.3417273,-2.1147477626800537,-1.3400110614350815,-2.533941094075338,6.079421984940328,1.0257402658462524,-5.366801563893453
1708435709.343699,-2.11387038230896,-1.340233953004219,-2.534140412007467,6.078466760903158,1.026031255722046,-5.367235724125997
1708435709.3457026,-2.112974166870117,-1.3404781085303803,-2.5343804995166224,6.077358591347494,1.026320219039917,-5.3676385323153895
1708435709.3477414,-2.112027406692505,-1.3406162422946473,-2.534705940877096,6.076417195587911,1.0265517234802246,-5.368044380341665
1708435709.3497088,-2.111044406890869,-1.3409011673978348,-2.534966532384054,6.075265157013693,1.0268206596374512,-5.36845034757723
1708435709.3516996,-2.110086679458618,-1.341176064019539,-2.535201613103048,6.07414327838973,1.0270837545394897,-5.368879977856771
1708435709.353711,-2.1090891361236572,-1.3413913559964676,-2.5354374090777796,6.072963702469625,1.0274053812026978,-5.369257394467489
1708435709.3557045,-2.108078956604004,-1.3415893030217667,-2.535734240208761,6.071819770127096,1.027681589126587,-5.369712535534994
1708435709.3577092,-2.107053518295288,-1.341893733744957,-2.5359399954425257,6.07066427448348,1.0280033349990845,-5.370101455842153
1708435709.3596976,-2.106046438217163,-1.3421087575009842,-2.5362771193133753,6.069476592331686,1.0283247232437134,-5.370526973401205
1708435709.361706,-2.104994535446167,-1.342331663971283,-2.5365217367755335,6.068180191307821,1.0286073684692383,-5.370935444031851
1708435709.3636973,-2.1039655208587646,-1.3425545555404206,-2.536821428929464,6.066987621575155,1.0288872718811035,-5.371359054242269
1708435709.3657072,-2.1027979850769043,-1.3427935999682923,-2.537126127873556,6.065720903664388,1.0292807817459106,-5.371685926114218
1708435709.3677216,-2.1017005443573,-1.34308576703582,-2.537415091191427,6.064435350685873,1.0296169519424438,-5.372088376675741
1708435709.3696992,-2.10054612159729,-1.3432957094958802,-2.537628475819723,6.06313573101119,1.0299453735351562,-5.372515384350912
1708435709.3717067,-2.099369525909424,-1.3436481219581147,-2.537948195134298,6.06182228305892,1.0303471088409424,-5.372880939637319
1708435709.3737593,-2.0982604026794434,-1.3438914728215714,-2.5382610003100794,6.060515630036154,1.0307161808013916,-5.373265568410055
1708435709.3757608,-2.0970022678375244,-1.3441173446229477,-2.5386057535754603,6.059126364975729,1.0310449600219727,-5.373700026665823
1708435709.3777452,-2.095837354660034,-1.3444136542132874,-2.538893763219015,6.057759749680319,1.0313605070114136,-5.374096814786093
1708435709.379729,-2.0946171283721924,-1.3446100366166611,-2.5391936937915247,6.056301343231954,1.031680941581726,-5.374508563672201
1708435709.3817487,-2.093325138092041,-1.3449717921069642,-2.5395455996142786,6.054825651436605,1.032070279121399,-5.374885801468984
1708435709.384059,-2.09208607673645,-1.345210225587227,-2.539816204701559,6.053321110993185,1.0324143171310425,-5.375218514596121
1708435709.3858404,-2.0908203125,-1.345452682381012,-2.5401535669909876,6.051920759468832,1.0328162908554077,-5.375600222741262
1708435709.388167,-2.089526653289795,-1.345760167842247,-2.540501658116476,6.050292479782858,1.033140778541565,-5.376019362603323
1708435709.3897145,-2.0881590843200684,-1.3460754615119477,-2.5408011118518274,6.048703896790304,1.0335593223571777,-5.376417879258291
1708435709.3916976,-2.0868167877197266,-1.3463545900634308,-2.5411084334002894,6.047092544823446,1.0338985919952393,-5.376823608075277
1708435709.3937542,-2.085469961166382,-1.34666861713443,-2.541435782109396,6.045543539315023,1.0342826843261719,-5.377151612435476
1708435709.3956943,-2.084111452102661,-1.3469190460494538,-2.5418134371386927,6.043984877854147,1.034688115119934,-5.377509955559866
1708435709.3977187,-2.0826480388641357,-1.3472144913724442,-2.542189423237936,6.042217242508688,1.035097360610962,-5.377900723611013
1708435709.3997343,-2.0812222957611084,-1.3475905817798157,-2.5425530115710657,6.040601599007406,1.0354862213134766,-5.378277782593862
1708435709.4017072,-2.079761505126953,-1.347855733042099,-2.5427947680102747,6.038945185929098,1.035829782485962,-5.37854499021639
1708435709.4037187,-2.078381299972534,-1.3482048523477097,-2.5431633631335657,6.037240373879232,1.036218523979187,-5.378894273434774
1708435709.4056966,-2.076876401901245,-1.3485482198050995,-2.543544117604391,6.035609113961019,1.0366445779800415,-5.3792524377452295
1708435709.4077826,-2.0753064155578613,-1.3488298517516633,-2.543920342122213,6.033834087639608,1.0370495319366455,-5.379558328782217
1708435709.4098122,-2.073836088180542,-1.3491559636643906,-2.544330660496847,6.032098638802328,1.0374542474746704,-5.379956428204672
1708435709.411709,-2.0722742080688477,-1.3495028626969834,-2.5446444193469446,6.030424105912008,1.0379279851913452,-5.380248490964071
1708435709.4137414,-2.0707764625549316,-1.3498584789088746,-2.5450199286090296,6.028542625695028,1.03834068775177,-5.380579773579733
1708435709.4157054,-2.0692036151885986,-1.3502047222903748,-2.5453930536853235,6.026835071831503,1.0387613773345947,-5.380922977124349
1708435709.417711,-2.0676052570343018,-1.3505834800056,-2.545788828526632,6.025033700257101,1.0392060279846191,-5.3812941948520105
1708435709.4197261,-2.0659520626068115,-1.35088566065345,-2.546152178441183,6.023108589440145,1.0396268367767334,-5.381607655678884
1708435709.4217296,-2.0642831325531006,-1.3512659084847947,-2.5465620199786585,6.02114366272048,1.0400272607803345,-5.381908897553579
1708435709.423698,-2.062675714492798,-1.35166850805793,-2.5469449202166956,6.019175159722128,1.0404936075210571,-5.38227624097933
1708435709.4256995,-2.0609519481658936,-1.3520102065852662,-2.547385279332296,6.017309295922079,1.0409013032913208,-5.3826173583613794
1708435709.427753,-2.0592458248138428,-1.352373407488205,-2.547769371663229,6.015297996788778,1.041322112083435,-5.382930819188253
1708435709.4297214,-2.057561159133911,-1.3527800005725403,-2.5481069723712366,6.013387429505148,1.0417879819869995,-5.383305374776022
1708435709.4316971,-2.055812120437622,-1.3531106573394318,-2.5485315958606165,6.011438834458151,1.042211890220642,-5.38358718553652
1708435709.4337552,-2.0540361404418945,-1.3535257887891312,-2.54902154604067,6.0092965243156335,1.0426567792892456,-5.38394928375353
1708435709.4357598,-2.052298069000244,-1.3539813321879883,-2.549403969441549,6.007272469788351,1.0430889129638672,-5.384238902722494
1708435709.43776,-2.0505077838897705,-1.3543954354575654,-2.5497918764697474,6.00512050369338,1.0435553789138794,-5.384561304246084
1708435709.4397304,-2.048675060272217,-1.3547423344901581,-2.5501673857318323,6.003060090332784,1.0439999103546143,-5.3848923484431666
1708435709.441732,-2.046870470046997,-1.3551445317319413,-2.550620142613546,6.000977027207174,1.0444692373275757,-5.3852232734309595
1708435709.4437594,-2.0450501441955566,-1.3556032639792939,-2.551060740147726,5.9989590523536584,1.0449016094207764,-5.385509912167684
1708435709.445735,-2.043215274810791,-1.3560465586236496,-2.5514474550830286,5.9967923043067834,1.0453345775604248,-5.38580817381014
1708435709.447731,-2.041330337524414,-1.3564404112151642,-2.5518601576434534,5.99464892128066,1.0458111763000488,-5.386057321225302
1708435709.4497256,-2.0393567085266113,-1.3568346959403534,-2.5522666613208216,5.992383944779196,1.0462920665740967,-5.386326078568594
1708435709.4517376,-2.0374298095703125,-1.3572726857713242,-2.5527852217303675,5.990133869438925,1.0467578172683716,-5.386636141930715
1708435709.4537342,-2.035551071166992,-1.3577238035253067,-2.553117338811056,5.987878429680624,1.0472432374954224,-5.386875156556265
1708435709.4557128,-2.0335400104522705,-1.3581610035947342,-2.553607765828268,5.985640990525045,1.0476793050765991,-5.387181882058279
1708435709.457745,-2.031543016433716,-1.3586128664067765,-2.5540602842914026,5.983320939331808,1.048111915588379,-5.3874481360064905
1708435709.4597588,-2.029571294784546,-1.3590475183776398,-2.5544713179217737,5.981017458229818,1.0484834909439087,-5.387820903454916
1708435709.4617207,-2.0275723934173584,-1.3594519656947632,-2.554866615925924,5.978679644852438,1.0490025281906128,-5.387984756623403
1708435709.4637234,-2.0256059169769287,-1.3599564594081421,-2.555305782948629,5.976313459664144,1.0494788885116577,-5.388320628796713
1708435709.46571,-2.0236124992370605,-1.3603859704783936,-2.5557661692248743,5.97396086433486,1.0499852895736694,-5.388590757046835
1708435709.467743,-2.021477460861206,-1.3609338414720078,-2.55620247522463,5.971552240639486,1.0504447221755981,-5.38881749311556
1708435709.4697187,-2.0194265842437744,-1.3613719058087845,-2.556671444569723,5.969260680466451,1.0509088039398193,-5.389063302670614
1708435709.471745,-2.017322301864624,-1.3617971402457734,-2.55709416071047,5.96685956695632,1.0514918565750122,-5.389328781758444
1708435709.4737375,-2.0151724815368652,-1.362320916061737,-2.557500425969259,5.964471447258749,1.051971197128296,-5.389590088521139
1708435709.4757178,-2.012969970703125,-1.3627871733954926,-2.5579410235034388,5.962110030442037,1.052399754524231,-5.389737848435537
1708435709.4777114,-2.010775566101074,-1.3633252841285248,-2.5583766142474573,5.959607350617208,1.0529062747955322,-5.3900302092181605
1708435709.479759,-2.0085325241088867,-1.3637147706798096,-2.558800760899679,5.957090723305502,1.0532405376434326,-5.3902761975871485
1708435709.4817,-2.006333351135254,-1.3642179828933259,-2.559305731450216,5.954499590187826,1.0537314414978027,-5.390470151101248
1708435709.4837074,-2.004077672958374,-1.3647449624589463,-2.5596960226642054,5.952013599663534,1.0541588068008423,-5.3907434980021876
1708435709.4857035,-2.001880407333374,-1.365173415546753,-2.5601475874530237,5.94948040226058,1.0546233654022217,-5.390937153493063
1708435709.4877048,-1.9996801614761353,-1.3657202434590836,-2.5606284777270716,5.9470077631767175,1.0551706552505493,-5.391131405030386
1708435709.489712,-1.9974793195724487,-1.3661385786584397,-2.561120096837179,5.94454442241744,1.0556144714355469,-5.391330901776449
1708435709.4917192,-1.9953038692474365,-1.3666405987790604,-2.561545435582296,5.942134725838461,1.0560625791549683,-5.391508464013235
1708435709.4937468,-1.9931602478027344,-1.3671073627522965,-2.561927858983175,5.93969081619338,1.0564955472946167,-5.39171284834017
1708435709.4957204,-1.9909504652023315,-1.3675282907537003,-2.5623441378222864,5.937182891159811,1.0569483041763306,-5.391906801854269
1708435709.4977252,-1.9887062311172485,-1.3680844467929383,-2.5628255049334925,5.934746730118551,1.057396411895752,-5.392076973115103
1708435709.4997294,-1.986487865447998,-1.3685057175210495,-2.56323749223818,5.932288515358724,1.0579153299331665,-5.392276887093679
1708435709.501731,-1.984262228012085,-1.3690368992141266,-2.5636518637286585,5.9298040745551965,1.0583840608596802,-5.392475251351492
1708435709.5037282,-1.9820220470428467,-1.3695347023061295,-2.564101521168844,5.92736970165328,1.0588574409484863,-5.392628733311788
1708435709.505721,-1.97977614402771,-1.37001288056884,-2.5645158926593226,5.924853789597311,1.0592849254608154,-5.392890040074484
1708435709.5077739,-1.9775590896606445,-1.370544583802559,-2.5649564901935022,5.922307240753927,1.0597209930419922,-5.393101874982015
1708435709.5097418,-1.975394606590271,-1.3709784609130402,-2.565414015446798,5.919787633209982,1.060174584388733,-5.393251363431112
1708435709.5117192,-1.9731700420379639,-1.3715172720006485,-2.5657861868487757,5.917329418450155,1.060659646987915,-5.3934319655047815
1708435709.513703,-1.9709995985031128,-1.3719944220832367,-2.5662804285632532,5.914887654572286,1.0611088275909424,-5.393630270157949
1708435709.5157177,-1.968878149986267,-1.3724726897529145,-2.5667079130755823,5.912265050202169,1.06149160861969,-5.393842403088705
1708435709.517725,-1.966651201248169,-1.3729827266982575,-2.5671680609332483,5.909847605019369,1.062018632888794,-5.394009534512655
1708435709.5197003,-1.9644618034362793,-1.373545379643776,-2.567625109349386,5.907424795418539,1.0624752044677734,-5.394166175519125
1708435709.521704,-1.962348222732544,-1.3739908051541825,-2.5679906050311487,5.905016529351034,1.062936544418335,-5.394408110772268
1708435709.523711,-1.96012544631958,-1.374482737188675,-2.5684967676745813,5.902577149658956,1.0633933544158936,-5.394545797501699
1708435709.5257328,-1.9580165147781372,-1.3749941748431702,-2.5689037481891077,5.900087582855978,1.063813328742981,-5.394772414361135
1708435709.5277133,-1.9557831287384033,-1.3754923951676865,-2.5693426767932337,5.897511827736654,1.0642871856689453,-5.394955937062399
1708435709.5297027,-1.9535402059555054,-1.3759997648051758,-2.5697868506061,5.895025241165914,1.0646743774414062,-5.395142738019125
1708435709.5317159,-1.9513450860977173,-1.37648660064254,-2.570202175770895,5.892557966500082,1.0651310682296753,-5.395341102276937
1708435709.5337267,-1.949139952659607,-1.3770210158875962,-2.5706594626056116,5.890028226166525,1.0655934810638428,-5.3955369035350245
1708435709.5357053,-1.9469140768051147,-1.3774960202029725,-2.5710838476764124,5.887669551163473,1.0659657716751099,-5.395687286053793
1708435709.5377123,-1.944727897644043,-1.3780152213624497,-2.5714734236346644,5.885117280274191,1.066459059715271,-5.395854596291677
1708435709.5397255,-1.9425301551818848,-1.3784728360227128,-2.5719500223742884,5.882678019791403,1.0669320821762085,-5.396075312291281
1708435709.5416958,-1.9403339624404907,-1.3790213477662583,-2.572395626698629,5.880164372711935,1.0674012899398804,-5.396281544362203
1708435709.5436995,-1.938082218170166,-1.379542039041855,-2.572761837636129,5.877720105438986,1.06782865524292,-5.396431867276327
1708435709.5457036,-1.935906171798706,-1.379986659889557,-2.5731850306140345,5.875176417618551,1.0682467222213745,-5.396626297627584
1708435709.5476987,-1.9337626695632935,-1.3805113297751923,-2.5736218134509485,5.872771727829733,1.068777322769165,-5.396812979375021
1708435709.5497043,-1.9315931797027588,-1.3810474437526246,-2.5740249792682093,5.870353567391195,1.0692424774169922,-5.396984581147329
1708435709.5517125,-1.9293875694274902,-1.381562427883484,-2.574498478566305,5.867811190872946,1.069669246673584,-5.397179965172903
1708435709.5536952,-1.9272160530090332,-1.3819763672402878,-2.5749064127551478,5.865329611092367,1.0701508522033691,-5.397378627453939
1708435709.5557196,-1.925004482269287,-1.3825079214623948,-2.5753424803363245,5.862772810250082,1.070618987083435,-5.3975741306888025
1708435709.5577533,-1.9228203296661377,-1.3829704982093354,-2.57571250597109,5.860281216889181,1.0710713863372803,-5.3977623025523584
1708435709.5597036,-1.9205735921859741,-1.3835028272918244,-2.5761736075030726,5.857851016312399,1.0714908838272095,-5.397907141839163
1708435709.5617409,-1.9184556007385254,-1.3839527827552338,-2.5766053835498255,5.8553411839301965,1.0719529390335083,-5.398142997418539
1708435709.563713,-1.9162355661392212,-1.3844764840653916,-2.5770495573626917,5.852844702988424,1.0724501609802246,-5.398318711911337
1708435709.5657084,-1.9139786958694458,-1.3849589091590424,-2.577510658894674,5.85036467292861,1.072916865348816,-5.398562614117758
1708435709.5677102,-1.9117603302001953,-1.3855109971812745,-2.5779011885272425,5.8479089615638635,1.0733495950698853,-5.398720208798544
1708435709.5697112,-1.9095771312713623,-1.3860140603831788,-2.5783284346209925,5.845472204476156,1.0738047361373901,-5.398901108895437
1708435709.5717356,-1.9073761701583862,-1.3864609015038987,-2.5788186232196253,5.843160378723898,1.0743026733398438,-5.39904755750765
1708435709.5737119,-1.9051865339279175,-1.3869761240533371,-2.5792654196368616,5.840735780983724,1.0746893882751465,-5.399241212998525
1708435709.5757186,-1.9029932022094727,-1.3874626171639939,-2.579688851033346,5.838276731758871,1.075150966644287,-5.399490598832266
1708435709.5777009,-1.9008009433746338,-1.387978957300522,-2.580153528844015,5.8357876417930505,1.0755950212478638,-5.399681393300192
1708435709.579705,-1.8985869884490967,-1.3884208363345643,-2.5805721918689173,5.833346116333761,1.075994849205017,-5.399875525628225
1708435709.5817368,-1.8962899446487427,-1.388984815483429,-2.580999199544088,5.830817210465231,1.076385736465454,-5.400062088166372
1708435709.583718,-1.8940776586532593,-1.3894149524024506,-2.581419054661886,5.8283342001731775,1.076872706413269,-5.400257889424459
1708435709.5857084,-1.8918955326080322,-1.3899547767690201,-2.581867281590597,5.82586299160079,1.0772517919540405,-5.400440160428182
1708435709.587732,-1.8896288871765137,-1.3904538613608857,-2.5822582880603235,5.823331820755758,1.0777292251586914,-5.400651935731069
1708435709.5897,-1.88746976852417,-1.3909655225327988,-2.5827627817737024,5.820902693062582,1.0781288146972656,-5.400875572358267
1708435709.5917022,-1.885240912437439,-1.3913990718177338,-2.583186690007345,5.8184029934699915,1.0785771608352661,-5.401073996220724
1708435709.593748,-1.8830491304397583,-1.3919432920268555,-2.5835519472705286,5.815922486573019,1.0790338516235352,-5.401211802159445
1708435709.5956953,-1.880820393562317,-1.3923888814500351,-2.584040943776266,5.813485371857443,1.0795259475708008,-5.401423458253042
1708435709.597719,-1.8786942958831787,-1.392867774968483,-2.5844767729388636,5.81099413612441,1.0799825191497803,-5.401631061230795
1708435709.5997097,-1.8764773607254028,-1.3934164953282853,-2.5848997274981897,5.8085306761558435,1.0804224014282227,-5.4018354455577295
1708435709.601709,-1.8743005990982056,-1.3939109158566971,-2.5853222052203577,5.8060293076331995,1.080866813659668,-5.401993934308187
1708435709.6037264,-1.8721274137496948,-1.394418255691864,-2.585712973271505,5.803573238640585,1.0813024044036865,-5.4021804372416895
1708435709.605716,-1.8699208498001099,-1.394891918902733,-2.5861743132220667,5.801037180214681,1.081771969795227,-5.40232086578478
1708435709.6077392,-1.8677594661712646,-1.3953225773623963,-2.5866127649890345,5.798513161927023,1.0822296142578125,-5.402576033269064
1708435709.6097753,-1.8655552864074707,-1.395863564019539,-2.5870683828936976,5.7959725735481165,1.0826321840286255,-5.40270442167391
1708435709.6117043,-1.8633244037628174,-1.3964221489480515,-2.58752948442568,5.793577658921041,1.083069086074829,-5.4030028621303
1708435709.6137233,-1.8611247539520264,-1.3969293397716065,-2.587951962147848,5.791034447937765,1.0835627317428589,-5.403107468281881
1708435709.6157155,-1.8589400053024292,-1.39735563219104,-2.588407103215353,5.788533794670858,1.0840585231781006,-5.403334085141317
1708435709.6177063,-1.856755018234253,-1.397871033554413,-2.5888059774981897,5.786100733071127,1.0845075845718384,-5.403529409562246
1708435709.6197217,-1.8545500040054321,-1.3983332824758072,-2.589222017918722,5.783605086594381,1.0848979949951172,-5.40373266140093
1708435709.621724,-1.8523590564727783,-1.398869828586914,-2.589640442525045,5.781137931137838,1.0854090452194214,-5.403969351445333
1708435709.623753,-1.8501793146133423,-1.3993324500373383,-2.590050760899679,5.778766262322225,1.08584463596344,-5.404090706502096
1708435709.6257184,-1.8479918241500854,-1.3998317283442994,-2.59053618112673,5.776361930161276,1.086311936378479,-5.404277567063467
1708435709.6277096,-1.8458333015441895,-1.400350199346878,-2.5909550825702112,5.773954856186666,1.0867947340011597,-5.404475931321279
1708435709.6297278,-1.843535304069519,-1.400860772734024,-2.591353956853048,5.771441447525778,1.087177038192749,-5.4047158400165
1708435709.63171,-1.8413431644439697,-1.4012691986611863,-2.5917685667621058,5.768918144493856,1.0876673460006714,-5.404870156441824
1708435709.6337035,-1.839129090309143,-1.4017493289760132,-2.5922370592700403,5.7664465782936,1.0880537033081055,-5.40507418314089
1708435709.635728,-1.8369213342666626,-1.402268798356392,-2.592640225087301,5.7639891979988,1.088506817817688,-5.4051958362208765
1708435709.6377287,-1.8346720933914185,-1.402760849600174,-2.593109194432394,5.761543738632955,1.0889915227890015,-5.405444566403524
1708435709.6397054,-1.8324872255325317,-1.4032270026258011,-2.5935521761523646,5.759033906250753,1.0894110202789307,-5.405615154896871
1708435709.6416986,-1.8302803039550781,-1.4037384551814576,-2.5940211454974573,5.75654815414504,1.0898597240447998,-5.4058104793178
1708435709.6437547,-1.828081727027893,-1.4042705458453675,-2.594419542943136,5.75399278381423,1.0903323888778687,-5.406013254319326
1708435709.6457121,-1.825925350189209,-1.40479031324897,-2.594846312199728,5.751515137940206,1.0907810926437378,-5.406208876763479
1708435709.6477442,-1.8236923217773438,-1.405248225932457,-2.5952158609973353,5.7491506216819666,1.0912036895751953,-5.406366948281423
1708435709.649726,-1.8215041160583496,-1.40576787412677,-2.5956645647632044,5.746722209244528,1.0916597843170166,-5.406558577214376
1708435709.6517522,-1.8193151950836182,-1.4062543523362656,-2.596133057271139,5.744218218117513,1.0920963287353516,-5.406733218823568
1708435709.6537173,-1.8171216249465942,-1.4067740005305787,-2.59654409090151,5.741783606797018,1.09253990650177,-5.406940404568807
1708435709.655757,-1.814886212348938,-1.4072608065656205,-2.596975390111105,5.7392839072044275,1.092973232269287,-5.407145742570059
1708435709.6577528,-1.8126921653747559,-1.4077227127603074,-2.5974305311786097,5.736776578217306,1.0934371948242188,-5.4073442856418055
1708435709.6597257,-1.810450792312622,-1.408271000986435,-2.5978410879718226,5.734259474068441,1.093942642211914,-5.407547120247976
1708435709.6617126,-1.8082720041275024,-1.4087173354676743,-2.598330322896139,5.731746303826132,1.0943742990493774,-5.4077622334109705
1708435709.6637487,-1.8061479330062866,-1.4092618238976975,-2.598745409642355,5.729287850647726,1.094863772392273,-5.407953147088186
1708435709.6657174,-1.803958535194397,-1.4097150725177308,-2.5991607348071497,5.726873385697164,1.0952397584915161,-5.408095184956686
1708435709.6677265,-1.8017321825027466,-1.4102149319699784,-2.599578920994894,5.724251019745626,1.095689296722412,-5.4083396832095545
1708435709.6697364,-1.7995517253875732,-1.41067327678714,-2.600006882344381,5.721815573960104,1.0961326360702515,-5.408517185841696
1708435709.671717,-1.797360897064209,-1.4112092119506379,-2.6004870573626917,5.71933804729537,1.0966130495071411,-5.408722106610433
1708435709.6737387,-1.7951704263687134,-1.4116970759681244,-2.600884739552633,5.716927397042074,1.097102403640747,-5.408866647874014
1708435709.6757815,-1.7929872274398804,-1.412216917877533,-2.601279083882467,5.714491236000814,1.0975303649902344,-5.409038488064901
1708435709.6777797,-1.7907694578170776,-1.412706972365715,-2.6017468611346644,5.7120181796844385,1.0979746580123901,-5.409290556107656
1708435709.6797361,-1.7885661125183105,-1.4131815445474167,-2.602220598851339,5.709556209831991,1.098402976989746,-5.409502748643057
1708435709.6817458,-1.78643000125885,-1.4137173306993027,-2.602602783833639,5.707066762238302,1.0988222360610962,-5.409586075936453
1708435709.683737,-1.784160852432251,-1.4142248195460816,-2.6030290762530726,5.704571711808004,1.0992769002914429,-5.409801129494802
1708435709.6857047,-1.7819148302078247,-1.414695293908455,-2.603457514439718,5.702140795975485,1.099663257598877,-5.410016004239218
1708435709.687741,-1.7797688245773315,-1.4152102780393143,-2.603917423878805,5.699643838196554,1.1001315116882324,-5.410168532525198
1708435709.6897104,-1.7775804996490479,-1.415700064306595,-2.6043322722064417,5.6972237704093835,1.1006085872650146,-5.410425011311666
1708435709.6917274,-1.7754321098327637,-1.4161870938590546,-2.604792658482687,5.694755244046011,1.1010206937789917,-5.410547439252035
1708435709.6937234,-1.7732280492782593,-1.4166833770326157,-2.6051703135119837,5.692220735340872,1.1014975309371948,-5.410792175923483
1708435709.6957257,-1.771005630493164,-1.4172270906022568,-2.6056392828570765,5.689740466862478,1.1019132137298584,-5.410908643399374
1708435709.6977477,-1.7688140869140625,-1.4177016627839585,-2.6060257593738,5.6872189519699,1.1024024486541748,-5.4111326972590845
1708435709.6997182,-1.766618013381958,-1.4182584148696442,-2.606406037007467,5.684837686806478,1.1029038429260254,-5.411336008702413
1708435709.701719,-1.7644182443618774,-1.418716774587967,-2.606913391743795,5.682363796025076,1.103331208229065,-5.411510471497671
1708435709.7037346,-1.7622051239013672,-1.419240729217865,-2.607299868260519,5.679874706059255,1.1037925481796265,-5.411705855523245
1708435709.7057292,-1.7599965333938599,-1.4197304856828232,-2.6077492872821253,5.67736833074645,1.104216456413269,-5.411884848271505
1708435709.7077472,-1.7577811479568481,-1.4201935839704056,-2.6081624666797083,5.674873459130087,1.1046521663665771,-5.4120880405055445
1708435709.7097273,-1.7555419206619263,-1.4206726563027878,-2.608553949986593,5.672388124256887,1.1051336526870728,-5.412299875413076
1708435709.71171,-1.7533800601959229,-1.42118854940448,-2.608980957661764,5.66989545801238,1.1055856943130493,-5.4124494830714625
1708435709.7137442,-1.7511117458343506,-1.4216745358756562,-2.609441343938009,5.667495834618368,1.1060541868209839,-5.4126779476748865
1708435709.7157335,-1.7489283084869385,-1.4221820545247574,-2.609835688267843,5.665011691838064,1.1064538955688477,-5.412868920956747
1708435709.717742,-1.746745228767395,-1.4226817798665543,-2.610283438359396,5.662533747940817,1.1069682836532593,-5.4130523840533655
1708435709.7197368,-1.74455726146698,-1.42313568413768,-2.61069900194277,5.660042094975271,1.1073787212371826,-5.413222376500265
1708435709.7217073,-1.742392659187317,-1.4235779804042359,-2.6111822764026087,5.6576411602790735,1.107848048210144,-5.413367156182424
1708435709.7237487,-1.740109920501709,-1.4241551023772736,-2.6116183439837855,5.655202197819509,1.1082794666290283,-5.413625661526815
1708435709.7257085,-1.7379075288772583,-1.4246183198741456,-2.612065378819601,5.652697551041403,1.1087520122528076,-5.413819674645559
1708435709.7277448,-1.7357795238494873,-1.425124318604805,-2.612471882496969,5.650220858841696,1.1091474294662476,-5.413970057164327
1708435709.72971,-1.7335529327392578,-1.4256079655936738,-2.612903420125143,5.647792506008901,1.1095688343048096,-5.414180699978964
1708435709.7317355,-1.7313109636306763,-1.4261229050210495,-2.613281313573019,5.645253050118246,1.109997034072876,-5.414371852074758
1708435709.7337456,-1.7291556596755981,-1.426578552728035,-2.613775078450338,5.642815577774801,1.110368013381958,-5.414621476327078
1708435709.7357473,-1.726961612701416,-1.4270369124463578,-2.614190403615133,5.640295791416921,1.1107969284057617,-5.4147836605655115
1708435709.7377331,-1.7247346639633179,-1.427625910644867,-2.6146257559405726,5.637852895050802,1.1113075017929077,-5.415032092724935
1708435709.7397022,-1.722590684890747,-1.4281112414649506,-2.6150484720813196,5.635402011662283,1.1117678880691528,-5.415157202874319
1708435709.7417378,-1.7204160690307617,-1.4285503935864945,-2.6155408064471644,5.632864880352773,1.1122034788131714,-5.415360156689779
1708435709.743738,-1.7182114124298096,-1.4290772092393418,-2.6159380117999476,5.630442368775167,1.1126552820205688,-5.41557485262026
1708435709.745727,-1.7160078287124634,-1.4295652520707627,-2.616373602543966,5.627827811032095,1.1130963563919067,-5.415758852158682
1708435709.7477384,-1.7138566970825195,-1.4300923955491562,-2.6168628374682825,5.625392186432638,1.1135200262069702,-5.415970746670858
1708435709.749771,-1.7116191387176514,-1.4305748057416459,-2.6172407309161585,5.623005199223318,1.113961100578308,-5.416173640881674
1708435709.7517185,-1.7094683647155762,-1.4310419273427506,-2.6176636854754847,5.62054609039382,1.114392638206482,-5.416360024605886
1708435709.753736,-1.707295298576355,-1.4315256935409089,-2.6181393305407923,5.618013191014089,1.1148618459701538,-5.41651571193804
1708435709.7557416,-1.7050433158874512,-1.4320645344308396,-2.6186276117907923,5.615475702076711,1.1153669357299805,-5.4166768232928675
1708435709.7577498,-1.702795147895813,-1.4326126736453553,-2.6190512816058558,5.6130443690116785,1.115876317024231,-5.416897479687826
1708435709.7597277,-1.70065176486969,-1.4330436152270813,-2.6194782892810267,5.610523748188772,1.1163679361343384,-5.417091731225149
1708435709.7617142,-1.6984025239944458,-1.433530018930771,-2.6198719183551233,5.608054506569662,1.1168233156204224,-5.417258564625875
1708435709.763722,-1.696233868598938,-1.4340049636415024,-2.620302979146139,5.605592536717214,1.1172798871994019,-5.417424444352285
1708435709.7657127,-1.6939973831176758,-1.43447561681781,-2.6206901709186,5.603139269142904,1.1177568435668945,-5.417669181023733
1708435709.7677526,-1.691772699356079,-1.4349789184382935,-2.621167008076803,5.600651371269979,1.1182087659835815,-5.417872194443838
1708435709.7697084,-1.6896142959594727,-1.4355262976935883,-2.6215811411487024,5.598216402321615,1.1187142133712769,-5.418021861706869
1708435709.7717052,-1.6873806715011597,-1.436030165558197,-2.6220698992358606,5.595678972988882,1.1191298961639404,-5.4182544390307825
1708435709.773771,-1.685192346572876,-1.4365254950574418,-2.622472349797384,5.593292820244589,1.1195898056030273,-5.418403629456655
1708435709.775723,-1.682979702949524,-1.4369794589332123,-2.6229079405414026,5.590863096504965,1.1200146675109863,-5.418645564709799
1708435709.7777355,-1.6808404922485352,-1.4375451517156144,-2.6233554522143763,5.588416027813711,1.1203941106796265,-5.418839995061056
1708435709.779739,-1.6786422729492188,-1.437982739215233,-2.623812500630514,5.586015569954672,1.120814561843872,-5.419060711060659
1708435709.7817118,-1.676430583000183,-1.4385069918683548,-2.6242156664477747,5.583516943245687,1.1212555170059204,-5.419209901486532
1708435709.7837415,-1.6742641925811768,-1.4389445793679734,-2.6246753374682825,5.580957281380453,1.1217162609100342,-5.419400815163748
1708435709.7857146,-1.6719951629638672,-1.4394689065269013,-2.625087086354391,5.578419673233785,1.122127890586853,-5.419603709374563
1708435709.7877557,-1.6697838306427002,-1.4400005799582978,-2.625542942677633,5.5760236261184595,1.1225918531417847,-5.419806842003958
1708435709.789742,-1.667548656463623,-1.4404625010541459,-2.6259902159320276,5.573536264687338,1.1230567693710327,-5.419990662728445
1708435709.7917056,-1.6654095649719238,-1.440982998614647,-2.626409355794088,5.5710739372070215,1.123542070388794,-5.420175913964407
1708435709.793738,-1.6631816625595093,-1.441421316271164,-2.62685734430422,5.56859968879775,1.12403404712677,-5.420335237179891
1708435709.7957084,-1.6609822511672974,-1.4419791263392945,-2.627194945012228,5.5660602925117395,1.1244828701019287,-5.420578722153799
1708435709.797741,-1.6588342189788818,-1.4424245220473786,-2.6276355425464075,5.563549804478445,1.124943494796753,-5.4207457343684595
1708435709.7997031,-1.6566022634506226,-1.442892314200737,-2.628087107335226,5.561146366387167,1.1253881454467773,-5.42094868818392
1708435709.8017297,-1.6544724702835083,-1.443424255853035,-2.628591601048605,5.558728205948629,1.125815510749817,-5.421095256005422
1708435709.8037112,-1.6522712707519531,-1.4439234745553513,-2.628981653844015,5.556202339916982,1.1263245344161987,-5.421331171189443
1708435709.8057077,-1.6500428915023804,-1.4444235873273392,-2.6294248739825647,5.553736912995138,1.126777172088623,-5.421547774468557
1708435709.8077085,-1.6477861404418945,-1.4449355465224762,-2.629831377659933,5.551266658097067,1.1272094249725342,-5.421696726475851
1708435709.809737,-1.6455994844436646,-1.445455090408661,-2.6302505175219935,5.548763084202566,1.127620816230774,-5.421967093144552
1708435709.8117094,-1.6433814764022827,-1.4459302213839074,-2.630714480076925,5.546260046749868,1.1280369758605957,-5.422110442315237
1708435709.8137264,-1.6411755084991455,-1.446383313541748,-2.6310728232013147,5.543770897179403,1.128517985343933,-5.422265652810232
1708435709.815696,-1.639004111289978,-1.4468988639167328,-2.631578509007589,5.54130773523406,1.1289587020874023,-5.4225221315967005
1708435709.8177378,-1.636780858039856,-1.4474195477417489,-2.6320093313800257,5.538820969849386,1.129406213760376,-5.422722462807791
1708435709.8197498,-1.6345690488815308,-1.447985240524151,-2.6323702971087855,5.536307799607076,1.1298753023147583,-5.422899786625997
1708435709.8217034,-1.632398247718811,-1.448446975355484,-2.6328967253314417,5.533866929798879,1.1303069591522217,-5.423046056424276
1708435709.8237379,-1.6301828622817993,-1.4489090380123635,-2.6333277861224573,5.5313806412513635,1.1307969093322754,-5.423220638428823
1708435709.8256958,-1.6279919147491455,-1.4493849960020562,-2.6337342897998255,5.52903043010787,1.1312288045883179,-5.423428241406576
1708435709.8277228,-1.625866174697876,-1.4498392951539536,-2.6341615358935755,5.526552963047781,1.13164484500885,-5.423677746449606
1708435709.8296962,-1.623628854751587,-1.4504156795195122,-2.634629789982931,5.5241026161010645,1.1320770978927612,-5.423892919217245
1708435709.831702,-1.6213715076446533,-1.4509187278202553,-2.6350255648242396,5.521653699665823,1.1325137615203857,-5.423980538045065
1708435709.8337176,-1.6192071437835693,-1.4513730120709916,-2.6354718844043177,5.519255327969351,1.132982850074768,-5.4242300430880945
1708435709.8356886,-1.6169915199279785,-1.4518329587629815,-2.6359320322619837,5.51670657375411,1.1333822011947632,-5.424440268670217
1708435709.8377109,-1.6147931814193726,-1.4523200330189248,-2.636343304310934,5.514150726586141,1.1338146924972534,-5.424573008214132
1708435709.8397162,-1.6125590801239014,-1.452893206184246,-2.6367128531085413,5.511728691845693,1.1343128681182861,-5.424818221722738
1708435709.8416984,-1.6103607416152954,-1.4533792671612282,-2.6371691862689417,5.509245383530416,1.1347651481628418,-5.424957100545065
1708435709.843688,-1.6082103252410889,-1.453858697121479,-2.6376290957080286,5.506790506630697,1.1351845264434814,-5.425152544175283
1708435709.8457055,-1.6059786081314087,-1.4543414425900956,-2.6380766073810022,5.504229056626119,1.135669231414795,-5.425319496785299
1708435709.8476999,-1.6037949323654175,-1.4548939403942605,-2.63845140138735,5.501684295922079,1.1361421346664429,-5.425508920346395
1708435709.84971,-1.6015828847885132,-1.4553246808103104,-2.6388796011554163,5.499218869000234,1.1365865468978882,-5.425680998955862
1708435709.85169,-1.5993940830230713,-1.4558311712792893,-2.639331642781393,5.496773528843679,1.1370222568511963,-5.425912086163656
1708435709.853689,-1.5972812175750732,-1.4563595664552231,-2.639705244694845,5.4943193075950525,1.1375725269317627,-5.4261139074908655
1708435709.855692,-1.5950323343276978,-1.4568346676281472,-2.6401856581317347,5.491857933789053,1.1380531787872314,-5.426254097615377
1708435709.8577008,-1.5927541255950928,-1.4573456582478066,-2.6406260172473353,5.489374029427328,1.138508677482605,-5.426400307809011
1708435709.8596952,-1.5906184911727905,-1.4578252148679276,-2.6410067717181605,5.4868841646011255,1.1389573812484741,-5.426656726990835
1708435709.8616931,-1.588401436805725,-1.4583336052349587,-2.641427818928854,5.484362411289968,1.1394096612930298,-5.426824096833364
1708435709.8637514,-1.5862388610839844,-1.4587827038815995,-2.6418917814837855,5.481940674572744,1.13981294631958,-5.4270105997668665
1708435709.8656995,-1.5840950012207031,-1.4593552213958283,-2.6423307100879114,5.479508626251974,1.140232801437378,-5.427177969609396
1708435709.867698,-1.5818876028060913,-1.459826485519745,-2.642762009297506,5.477037179261007,1.1407546997070312,-5.427409116421835
1708435709.8696928,-1.5797159671783447,-1.4603336614421387,-2.643212620412008,5.474507498532095,1.141211748123169,-5.427567664776937
1708435709.871738,-1.5775612592697144,-1.4608081218651314,-2.643620316182272,5.472030746727743,1.141615629196167,-5.427833024655477
1708435709.873717,-1.5753138065338135,-1.4613559034517785,-2.6440675894366663,5.469549584179678,1.1420114040374756,-5.427970770989553
1708435709.8757281,-1.5731217861175537,-1.461798572247364,-2.644500795994894,5.467138993531027,1.1424236297607422,-5.428125921879904
1708435709.8777447,-1.5709517002105713,-1.4622946468046685,-2.644869629536764,5.464685964375295,1.142892599105835,-5.428336207066671
1708435709.87973,-1.568697214126587,-1.4628158596209069,-2.6453128496753138,5.462275492935934,1.1433579921722412,-5.428561572228567
1708435709.881713,-1.566472053527832,-1.4633230951479455,-2.645744864140646,5.459676909237661,1.1437653303146362,-5.428711120282308
1708435709.8837192,-1.5642579793930054,-1.4638473254493256,-2.6461802164660853,5.457324433117666,1.1442177295684814,-5.428892974053518
1708435709.8857355,-1.5620313882827759,-1.4643178519657631,-2.646640125905172,5.454781043320455,1.1446737051010132,-5.429109577332632
1708435709.8877285,-1.5598286390304565,-1.4647933033159752,-2.647116486226217,5.452302920609274,1.1451308727264404,-5.4292723576175135
1708435709.8897364,-1.557711124420166,-1.465297409599163,-2.647486988698141,5.449844705849447,1.1455748081207275,-5.429450098668234
1708435709.8917346,-1.5554715394973755,-1.4658528801849862,-2.6479466597186487,5.447455394058981,1.1460239887237549,-5.429669324551718
1708435709.8937242,-1.553252935409546,-1.4662794035724183,-2.6483407656299036,5.444990026741781,1.1464730501174927,-5.429857556019918
1708435709.8957407,-1.5510817766189575,-1.4667899099043389,-2.6488125959979456,5.442470538407125,1.1469333171844482,-5.430048529301779
1708435709.8977137,-1.5488874912261963,-1.4673197579434891,-2.649266068135397,5.439883756428518,1.1473579406738281,-5.430243853722708
1708435709.8997207,-1.546629786491394,-1.4677860003760834,-2.649651590977804,5.437426912575521,1.1478267908096313,-5.43043947616686
1708435709.9017158,-1.5444318056106567,-1.4683175918510933,-2.650139633809225,5.435010421067037,1.1482408046722412,-5.4306098262416285
1708435709.9037197,-1.5422794818878174,-1.4687548962286492,-2.650550429021017,5.432546901493826,1.148730993270874,-5.430789117013113
1708435709.905733,-1.5399928092956543,-1.4692503300360222,-2.6510022322284144,5.430025386601248,1.1492518186569214,-5.431024436150686
1708435709.907727,-1.5378226041793823,-1.4697503310493012,-2.651475254689352,5.427646207600393,1.149631142616272,-5.431171003972189
1708435709.9097176,-1.5356320142745972,-1.4702742633274575,-2.651869599019186,5.425077605038442,1.1501214504241943,-5.431399528180258
1708435709.911748,-1.533467411994934,-1.470696010892727,-2.6522935072528284,5.4226053831870935,1.1504756212234497,-5.431565229092733
1708435709.9137344,-1.5312696695327759,-1.4712823641351243,-2.6527653376208704,5.420126783638754,1.1509977579116821,-5.431777064000265
1708435709.915724,-1.5290873050689697,-1.4717767921141167,-2.6531267801867884,5.417716133385458,1.1514594554901123,-5.431963268910543
1708435709.9177053,-1.526849389076233,-1.4722851526788254,-2.653602902089254,5.415254044323721,1.1518696546554565,-5.432129267846243
1708435709.9197047,-1.5247108936309814,-1.4727151703885575,-2.654013220463888,5.412778901844778,1.1523308753967285,-5.4323694745646876
1708435709.9217372,-1.5225121974945068,-1.4732359659722825,-2.654456917439596,5.410252558975973,1.1527553796768188,-5.432514433060781
1708435709.9237068,-1.5203120708465576,-1.473723755483963,-2.6548805872546595,5.407809781819143,1.1531713008880615,-5.432759408150808
1708435709.925713,-1.518061876296997,-1.4741946023753663,-2.655349318181173,5.405319678574362,1.1536145210266113,-5.432941381131307
1708435709.9277244,-1.515931248664856,-1.474653699701168,-2.655743185673849,5.402786242752828,1.1540509462356567,-5.433158103619711
1708435709.929705,-1.513745903968811,-1.4751761567643662,-2.656186882649557,5.400374460011282,1.1545196771621704,-5.433314506207601
1708435709.9317117,-1.5114892721176147,-1.4757004839232941,-2.6566060225116175,5.397902178555288,1.1549839973449707,-5.4335204402553
1708435709.9337265,-1.5092684030532837,-1.476175495689251,-2.6570335070239466,5.39540051200942,1.155371904373169,-5.433705512677328
1708435709.9357083,-1.5070960521697998,-1.4766748186996956,-2.657522741948263,5.3929311511810205,1.1558568477630615,-5.4338982740985315
1708435709.9377375,-1.5048922300338745,-1.477100857799389,-2.6579137484179896,5.390482651978292,1.1563094854354858,-5.4340896050082605
1708435709.9397123,-1.5026676654815674,-1.4776420456222077,-2.6583483854876917,5.387903380184927,1.1568020582199097,-5.4342848102199
1708435709.9417167,-1.5004372596740723,-1.4781041902354737,-2.6587842146502894,5.385554241925039,1.1572260856628418,-5.434426609669821
1708435709.9437318,-1.4982725381851196,-1.478635275071003,-2.6592288653003138,5.383125531464376,1.1577246189117432,-5.434568468724386
1708435709.9457037,-1.4960272312164307,-1.4791598704508324,-2.659621779118673,5.380640852242269,1.158107042312622,-5.434787635003225
1708435709.9477148,-1.493850827217102,-1.4796425116113205,-2.66008168855776,5.378129350930013,1.158621072769165,-5.435056332741873
1708435709.94971,-1.4916603565216064,-1.4801129710725327,-2.6605752150165003,5.375666546612539,1.159044861793518,-5.435244564210073
1708435709.9517238,-1.4894051551818848,-1.480653354232647,-2.6609202067004603,5.373213219433584,1.1595503091812134,-5.435496572648184
1708435709.9537728,-1.4871997833251953,-1.481123836045601,-2.66140062013735,5.370825993805685,1.1600191593170166,-5.435547713433401
1708435709.9557135,-1.4850430488586426,-1.4816724371961136,-2.6617537180529993,5.368309962540426,1.1603866815567017,-5.4358495513545435
1708435709.9577408,-1.4828615188598633,-1.4821794492057343,-2.6622679869281214,5.3658525226409814,1.1608260869979858,-5.435999814664022
1708435709.959714,-1.4806302785873413,-1.4826751139811059,-2.6626132170306605,5.3632505414779565,1.1612915992736816,-5.436174575482504
1708435709.9617116,-1.478444218635559,-1.4831209269217034,-2.663074318562643,5.360833811550894,1.1617481708526611,-5.436455253754751
1708435709.963725,-1.476189374923706,-1.4836788561991234,-2.6634605566607874,5.358311164170065,1.1621758937835693,-5.436571780835287
1708435709.9657032,-1.4740281105041504,-1.4841734406403084,-2.663924757634298,5.355870830803671,1.1626818180084229,-5.436755363141195
1708435709.9677217,-1.4718610048294067,-1.4846634355238457,-2.664352003728048,5.353306042938986,1.1631457805633545,-5.437057916318075
1708435709.969729,-1.469661831855774,-1.4851134356907387,-2.6647923628436487,5.350899803429403,1.1636348962783813,-5.437109176312582
1708435709.971728,-1.4674808979034424,-1.485650548045971,-2.6651907602893274,5.348428892880239,1.1640675067901611,-5.437352184449331
1708435709.97375,-1.46531081199646,-1.4861707773855706,-2.6656013170825403,5.345944511681356,1.1644420623779297,-5.437535587941305
1708435709.975737,-1.4630966186523438,-1.4866086405566712,-2.666008774434225,5.343683826714315,1.1648346185684204,-5.437750641499655
1708435709.9777832,-1.4609516859054565,-1.4871449780515213,-2.6663151423083704,5.341327595501699,1.1651543378829956,-5.437946085129873
1708435709.979727,-1.4587970972061157,-1.4876523551395913,-2.6666999498950403,5.339043903141775,1.165398120880127,-5.4381659666644495
1708435709.981725,-1.4565848112106323,-1.4881678980639954,-2.6670144240008753,5.336722421437063,1.1657028198242188,-5.438413445149557
1708435709.9837368,-1.4544389247894287,-1.4887155976942559,-2.6673782507525843,5.334506380348959,1.1659626960754395,-5.438555483018057
1708435709.9857156,-1.4522171020507812,-1.489209310417511,-2.6677258650409144,5.332267987519064,1.1662098169326782,-5.438744846974508
1708435709.9877172,-1.4499098062515259,-1.489746281211712,-2.66807467142214,5.330108928471365,1.1665358543395996,-5.439022604619161
1708435709.9897084,-1.4477301836013794,-1.490245097582676,-2.6683433691607874,5.327893900662222,1.1667424440383911,-5.43926436105837
1708435709.991718,-1.4454985857009888,-1.4907273662141343,-2.6686516443835657,5.325791525631704,1.1669098138809204,-5.439415160809652
1708435709.993717,-1.4433447122573853,-1.4912843492678185,-2.6689308325396937,5.323694216995992,1.1671509742736816,-5.439645055924551
1708435709.9957101,-1.4411451816558838,-1.4918110084584733,-2.669201676045553,5.321629392891683,1.1672894954681396,-5.439864579831259
1708435709.9977064,-1.4389543533325195,-1.4923875045827408,-2.6695192495929163,5.319598543434896,1.1675037145614624,-5.440066401158468
1708435709.9997325,-1.4367173910140991,-1.492931106393673,-2.6697824637042444,5.317579376488485,1.1676061153411865,-5.440310899411337
1708435710.0017462,-1.4345587491989136,-1.493437611763813,-2.669980827962057,5.3154770014579675,1.167705774307251,-5.4405468742000025
1708435710.0037243,-1.4323649406433105,-1.493948021238186,-2.670248810444967,5.313590335636892,1.1678749322891235,-5.440788273011343
1708435710.0057354,-1.4301514625549316,-1.4944957730225106,-2.670443836842672,5.311670172005453,1.1679176092147827,-5.441024426613943
1708435710.00771,-1.427952527999878,-1.494957485502102,-2.6706298033343714,5.309851276665487,1.1680183410644531,-5.441276435052053
1708435710.0097272,-1.425766110420227,-1.495649018590786,-2.670891586934225,5.307933378010549,1.1680737733840942,-5.441445116196768
1708435710.0117502,-1.4234950542449951,-1.4960972753218194,-2.6710551420794886,5.306130873947897,1.167992353439331,-5.441721264516012
1708435710.013738,-1.4213347434997559,-1.4966206413558503,-2.6712215582477015,5.304340350418844,1.1680488586425781,-5.44197649160494
1708435710.0157323,-1.4191045761108398,-1.4972675454667588,-2.6713817755328577,5.302507388382711,1.1680042743682861,-5.442193214093344
1708435710.01778,-1.4168696403503418,-1.4978002992323418,-2.671537224446432,5.300821292191305,1.1679397821426392,-5.442481223736898
1708435710.0197492,-1.414686679840088,-1.4984248590520401,-2.671734635029928,5.299070703774252,1.1678433418273926,-5.442740623150961
1708435710.0217128,-1.41249680519104,-1.498918892150261,-2.6717997233020228,5.297409760742941,1.1676981449127197,-5.4430588523494166
1708435710.02379,-1.4102765321731567,-1.499508449142315,-2.6719122568713587,5.295750367432394,1.1675752401351929,-5.443236772214071
1708435710.0257165,-1.4080827236175537,-1.5000444662621994,-2.6720691362964075,5.294209110527792,1.1674460172653198,-5.443581346665518
1708435710.0277412,-1.4058873653411865,-1.5006245386651536,-2.6721070448504847,5.29262130239562,1.1672680377960205,-5.44389915863146
1708435710.0297356,-1.4037208557128906,-1.5012666520527382,-2.6722431818591517,5.2911507962043665,1.1671411991119385,-5.44412470260729
1708435710.031719,-1.4015378952026367,-1.501780980532505,-2.672324005757467,5.289650308876791,1.1669648885726929,-5.444465164338247
1708435710.0337393,-1.3992643356323242,-1.5024143618396302,-2.672403637562887,5.288121688156881,1.1667485237121582,-5.44474429288973
1708435710.0357053,-1.3970611095428467,-1.5030680161765595,-2.6724098364459437,5.286693501263418,1.1664947271347046,-5.445050243531362
1708435710.0378032,-1.3948842287063599,-1.5036438790014763,-2.672499481831686,5.2853009579475305,1.1662876605987549,-5.445388857518331
1708435710.0397134,-1.392696499824524,-1.504190632408001,-2.6725428740130823,5.283952820092001,1.1660592555999756,-5.4457279483424585
1708435710.0417151,-1.390465497970581,-1.5048193645528336,-2.6725176016436976,5.282624053746023,1.1657501459121704,-5.4459919969188135
1708435710.0437355,-1.3882575035095215,-1.5054277715137978,-2.672537390385763,5.281273352890768,1.1654380559921265,-5.44633520046343
1708435710.0457041,-1.3861162662506104,-1.5061034572175522,-2.672525469456808,5.280012178211965,1.165051817893982,-5.446672741566793
1708435710.0477602,-1.3839277029037476,-1.5066884768060227,-2.6725013891803187,5.2788359997566126,1.1647443771362305,-5.447020653878347
1708435710.0497196,-1.38167142868042,-1.5073684018901368,-2.6724656263934534,5.277699875622549,1.1643481254577637,-5.447387282048361
1708435710.0517476,-1.3795101642608643,-1.508000799720623,-2.6723650137530726,5.2765172002609155,1.1639115810394287,-5.447724823151724
1708435710.0537457,-1.3772728443145752,-1.5086743396571656,-2.672305170689718,5.275349426060476,1.1634538173675537,-5.4481128493892115
1708435710.0557444,-1.3750855922698975,-1.509237391208746,-2.6721800009356897,5.274251389294424,1.1630257368087769,-5.448374156151907
1708435710.057762,-1.3729150295257568,-1.509933390920498,-2.672096077595846,5.273219156056204,1.1625245809555054,-5.448817435895101
1708435710.0597355,-1.3707597255706787,-1.5106468994966527,-2.6720731894122522,5.272152352124014,1.1620476245880127,-5.449175779019491
1708435710.0617192,-1.3685003519058228,-1.5113072295537968,-2.6719487349139612,5.271186637669363,1.1615475416183472,-5.449569884930746
1708435710.063758,-1.3663653135299683,-1.511913438593485,-2.67185622850527,5.2702035186584375,1.161022424697876,-5.449943069611685
1708435710.065728,-1.3641513586044312,-1.512650155728199,-2.6717351118670862,5.269221710949697,1.1604818105697632,-5.450300339852468
1708435710.0677497,-1.362019419670105,-1.513256960814335,-2.6716776529895228,5.2683899877365015,1.1598565578460693,-5.450724188481466
1708435710.069718,-1.3598073720932007,-1.513961837892868,-2.6715131441699427,5.267536508827963,1.15926194190979,-5.4511136452304285
1708435710.0717394,-1.35763680934906,-1.5146825474551697,-2.6714215914355677,5.266641843109884,1.158706784248352,-5.451499942933218
1708435710.0737712,-1.355430006980896,-1.5153086383691807,-2.6712854544269007,5.265843915730276,1.1580531597137451,-5.451955739651815
1708435710.0757892,-1.3532192707061768,-1.5160167527249833,-2.671117607747213,5.265064942627706,1.1574212312698364,-5.452397112046377
1708435710.0777671,-1.35097336769104,-1.5167583909681817,-2.6709817091571253,5.2643713829811,1.156765103340149,-5.452838782464163
1708435710.0797307,-1.3487955331802368,-1.5174524945071717,-2.6707895437823694,5.263751554280081,1.1561216115951538,-5.453196171914236
1708435710.0817344,-1.3466224670410156,-1.518002526169159,-2.670650307332174,5.263058113842764,1.1553876399993896,-5.45367813507189
1708435710.0837326,-1.3443964719772339,-1.518734635119774,-2.6704497973071497,5.262570369034567,1.1547231674194336,-5.454070750867025
1708435710.0857184,-1.342198133468628,-1.5194500063410779,-2.6702731291400355,5.262025820999899,1.153949499130249,-5.454558614884512
1708435710.0877361,-1.3400309085845947,-1.5201671731523057,-2.6700215975390833,5.261564302235403,1.153219223022461,-5.455033783112661
1708435710.0897148,-1.337852954864502,-1.5208887879601498,-2.669792715703146,5.261089014797964,1.1524485349655151,-5.455511991177694
1708435710.0917187,-1.3356517553329468,-1.5216650639525433,-2.6696513334857386,5.260586368828573,1.1516352891921997,-5.455948475991384
1708435710.0937343,-1.333465814590454,-1.5223649156144639,-2.6693711916552942,5.26018767335967,1.150821328163147,-5.4564218560801905
1708435710.0957007,-1.331292748451233,-1.5230753172985096,-2.6691017786609095,5.259804534703054,1.1500297784805298,-5.4568639437304896
1708435710.097726,-1.3290308713912964,-1.52382397026334,-2.6688700358020228,5.2594013688857935,1.1492050886154175,-5.457364384328024
1708435710.099704,-1.32679283618927,-1.5245908063701172,-2.6685944239245813,5.259078609734335,1.14828622341156,-5.45782590309252
1708435710.1017327,-1.3245720863342285,-1.5253415343216439,-2.668309990559713,5.258792030602255,1.1474425792694092,-5.458323780690328
1708435710.1037223,-1.3224079608917236,-1.5261059936932106,-2.6680014769183558,5.258533882885732,1.146533489227295,-5.458830002938406
1708435710.1057463,-1.3201026916503906,-1.5268187534860154,-2.667739216481344,5.258321630745687,1.1456313133239746,-5.459348801766531
1708435710.1077268,-1.3179928064346313,-1.5276522499373932,-2.6674512068377894,5.258178579598226,1.1446787118911743,-5.459830228482382
1708435710.1097653,-1.3157496452331543,-1.5283833530596276,-2.6671739260302942,5.257981765061178,1.143815279006958,-5.460351351891653
1708435710.111732,-1.3135507106781006,-1.52908547342334,-2.6668131987201136,5.25796006897048,1.1428004503250122,-5.460904304181234
1708435710.113701,-1.3113782405853271,-1.5298880499652405,-2.66643196741213,5.257912444859304,1.1418296098709106,-5.461416844521658
1708435710.1157057,-1.3091795444488525,-1.530733310883381,-2.6660843531238,5.257896828442373,1.14089834690094,-5.461954538022177
1708435710.1177065,-1.306988000869751,-1.5315677014044304,-2.665765110646383,5.257892596512594,1.1398921012878418,-5.462480727826254
1708435710.119726,-1.304771900177002,-1.532359742825367,-2.665438477193014,5.2579301474388025,1.1388678550720215,-5.463123802338735
1708435710.1217043,-1.3026357889175415,-1.5331634146026154,-2.665074173604147,5.257945108204641,1.1378703117370605,-5.463645641003744
1708435710.123743,-1.3004353046417236,-1.5340105046382924,-2.664645258580343,5.258161890297689,1.1368279457092285,-5.464230124150411
1708435710.1257045,-1.2982454299926758,-1.5348136138967057,-2.664367739354269,5.258289921074667,1.1357355117797852,-5.464791719113485
1708435710.1277168,-1.2960443496704102,-1.535566834067442,-2.6639798323260706,5.258425462036886,1.134673833847046,-5.465364102517263
1708435710.1297176,-1.2938861846923828,-1.5364153248122712,-2.6636248270617884,5.25856505611495,1.1336133480072021,-5.466023329888479
1708435710.1317089,-1.2917349338531494,-1.5372868117741127,-2.6632614771472376,5.258772718697347,1.1325727701187134,-5.466674272214071
1708435710.1337144,-1.2896124124526978,-1.5380359676531334,-2.6628459135638636,5.259070086270132,1.1314417123794556,-5.467189077530996
1708435710.1357312,-1.2874244451522827,-1.5389317137053986,-2.66244084039797,5.259317266732015,1.1302927732467651,-5.46781969467272
1708435710.1377156,-1.285247802734375,-1.5397542782923956,-2.6620338598834437,5.259685444622793,1.1291793584823608,-5.4684365431415
1708435710.1397154,-1.2831512689590454,-1.5406668552062293,-2.661577049885885,5.260041105538168,1.1280550956726074,-5.469083372746603
1708435710.1417081,-1.2809536457061768,-1.5414803934148331,-2.6611982027636927,5.2605745671089075,1.1268569231033325,-5.469751958047048
1708435710.1437182,-1.2788552045822144,-1.5423510123840352,-2.660848919545309,5.261005568295278,1.1257236003875732,-5.470430676137106
1708435710.1457183,-1.2767395973205566,-1.543234234010317,-2.6603460947619837,5.261512625008383,1.1245671510696411,-5.4711114207850855
1708435710.147722,-1.2745548486709595,-1.5441289705089112,-2.660008494053976,5.262068378716268,1.1233738660812378,-5.471757237111227
1708435710.149697,-1.2724517583847046,-1.544994420637824,-2.659532610570089,5.262675869255819,1.1222164630889893,-5.472443107758657
1708435710.1517265,-1.270358920097351,-1.5458731570145865,-2.659060303364889,5.263276982098379,1.121064305305481,-5.473068479691641
1708435710.1537166,-1.2682472467422485,-1.5467768472484131,-2.6586158911334437,5.263886618405142,1.1198556423187256,-5.4737330118762415
1708435710.155738,-1.266121745109558,-1.5476766408285876,-2.6581860224353235,5.264657246857443,1.118628740310669,-5.474421803151266
1708435710.1577094,-1.2640217542648315,-1.5486378774842997,-2.657748047505514,5.265331136971273,1.1174207925796509,-5.475145403538839
1708435710.1597302,-1.2618852853775024,-1.549551547770836,-2.657266441975729,5.266030061035909,1.1161937713623047,-5.475850228463308
1708435710.1617103,-1.2598284482955933,-1.550473627900221,-2.656778399144308,5.2668330548103235,1.1149945259094238,-5.47657680908312
1708435710.1637409,-1.2577219009399414,-1.5514205762049933,-2.6563029924975794,5.267665016442098,1.113688349723816,-5.477288846169607
1708435710.1657093,-1.2556366920471191,-1.5523066402277728,-2.6558597723590296,5.268545853882589,1.1124229431152344,-5.478067521248953
