Eg3-git/Classifiers/Data Collection/u3/u3www5_ur3e_joint_states.csv
time,elbow_joint,shoulder_lift_joint,shoulder_pan_joint,wrist_1_joint,wrist_2_joint,wrist_3_joint
1708435989.2313633,-2.141566038131714,-1.3332374107888718,-2.526391331349508,6.109337198525228,1.0171183347702026,-5.1554933230029505
1708435989.233371,-2.141592025756836,-1.3332365316203614,-2.526423994694845,6.109313118248739,1.0171256065368652,-5.15551740327944
1708435989.2353628,-2.141570568084717,-1.333187611108162,-2.526407782231466,6.109305965691366,1.0171136856079102,-5.155452911053793
1708435989.2373662,-2.1415839195251465,-1.3332246106914063,-2.526362959538595,6.1092896340186975,1.017092227935791,-5.155534211789266
1708435989.2393498,-2.1414926052093506,-1.3332407933524628,-2.52637488046755,6.109293925553121,1.017134666442871,-5.155490104352133
1708435989.2413447,-2.1415467262268066,-1.3332332384637375,-2.526386801396505,6.1092742560203455,1.0171525478363037,-5.155505959187643
1708435989.2433577,-2.141509532928467,-1.3331803989461442,-2.5263329187976282,6.109323847084799,1.0170507431030273,-5.155457560216085
1708435989.2453835,-2.14152193069458,-1.3331918877414246,-2.526362959538595,6.109312045365133,1.0171092748641968,-5.155441466961996
1708435989.2474017,-2.1415512561798096,-1.3332570058158417,-2.526346508656637,6.10921739318923,1.017092227935791,-5.155458275471823
1708435989.2493672,-2.141570568084717,-1.3331876409104844,-2.526350800191061,6.109246003418722,1.0170966386795044,-5.155478302632467
1708435989.251383,-2.1415228843688965,-1.3332081002048035,-2.5263267199145716,6.109224903374471,1.0171101093292236,-5.155441466961996
1708435989.2533882,-2.1415669918060303,-1.3332451593926926,-2.5263105074511927,6.109242784767904,1.0170400142669678,-5.1554498116122645
1708435989.2553918,-2.1415627002716064,-1.3332047176412125,-2.5263074080096644,6.109222042351522,1.0170611143112183,-5.155454103146688
1708435989.2573695,-2.1415398120880127,-1.3332081002048035,-2.5263400713550013,6.109233844071188,1.0170488357543945,-5.155433718358175
1708435989.2593648,-2.141530752182007,-1.3332209301045914,-2.5263355414019983,6.109205591469564,1.0170533657073975,-5.155446235333578
1708435989.261393,-2.1415352821350098,-1.3331598055413743,-2.5263400713550013,6.109210121422567,1.017032504081726,-5.155409876500265
1708435989.263369,-2.1415228843688965,-1.3332133752158661,-2.5263059774981897,6.109186279564657,1.0170488357543945,-5.155430261288778
1708435989.265382,-2.1415317058563232,-1.3332818013480683,-2.5262821356402796,6.10919069030837,1.0170129537582397,-5.155357305203573
1708435989.2673633,-2.1415352821350098,-1.3332246106914063,-2.526300017033712,6.109202611237325,1.0170549154281616,-5.155337635670797
1708435989.2693677,-2.1415274143218994,-1.3331846606782456,-2.5262699762927454,6.1091158268745325,1.017037034034729,-5.15539795557131
1708435989.2713754,-2.1414902210235596,-1.333200530414917,-2.5262745062457483,6.109186279564657,1.0169962644577026,-5.1553537289248865
1708435989.273372,-2.141536235809326,-1.333200530414917,-2.526337210332052,6.109220492630758,1.0170084238052368,-5.155406419430868
1708435989.275376,-2.141510486602783,-1.333200530414917,-2.5262866655932825,6.109159099846639,1.017005205154419,-5.155362192784445
1708435989.2773628,-2.141528367996216,-1.3332038086703797,-2.526278797780172,6.1091757891471765,1.016972541809082,-5.155386749898092
1708435989.2793534,-2.1414706707000732,-1.3332133305123826,-2.526328150426046,6.109130966454305,1.0170185565948486,-5.155378286038534
1708435989.2813659,-2.1415319442749023,-1.3332047176412125,-2.5262866655932825,6.1091534970100305,1.0170382261276245,-5.155354444180624
1708435989.2833698,-2.141519546508789,-1.3331642162850876,-2.5262654463397425,6.109130847245016,1.0169435739517212,-5.1553502718554896
1708435989.2853537,-2.141536235809326,-1.3331684482148667,-2.5262745062457483,6.1091264365013025,1.0170111656188965,-5.155317727719442
1708435989.287354,-2.1414618492126465,-1.3331962686828156,-2.526332680379049,6.1091803191001794,1.0169904232025146,-5.155346814786093
1708435989.2893627,-2.1414990425109863,-1.3331760478070755,-2.5262909571277063,6.109114515572347,1.0169692039489746,-5.1553219000445765
1708435989.291349,-2.1414830684661865,-1.333208979373314,-2.5263193289386194,6.109096514969625,1.0169540643692017,-5.1553067604648035
1708435989.2933612,-2.1414787769317627,-1.333168478017189,-2.5262625853167933,6.109130847245016,1.0169316530227661,-5.15528649488558
1708435989.2953684,-2.1414830684661865,-1.3331519675305863,-2.526332680379049,6.109130847245016,1.0169525146484375,-5.155294243489401
1708435989.297373,-2.141453742980957,-1.3332047176412125,-2.526287857686178,6.109118926316061,1.0169737339019775,-5.1553067604648035
1708435989.2993643,-2.14151930809021,-1.3331962686828156,-2.526250425969259,6.109069812088766,1.0169495344161987,-5.155282560979025
1708435989.3013933,-2.141536235809326,-1.3332047176412125,-2.526332680379049,6.109069812088766,1.016928791999817,-5.155299011860983
1708435989.303395,-2.1414875984191895,-1.3331561398557206,-2.526283327733175,6.109086143761434,1.0169165134429932,-5.155294958745138
1708435989.305355,-2.141475200653076,-1.3331726652434845,-2.5262625853167933,6.10911117771224,1.0169165134429932,-5.155250612889425
1708435989.3073983,-2.141488552093506,-1.3331726503423234,-2.526278797780172,6.109119999199667,1.0169121026992798,-5.155266825352804
1708435989.3093696,-2.1414787769317627,-1.3332176518491288,-2.5262625853167933,6.109127867012777,1.0169377326965332,-5.15526265302767
1708435989.3113663,-2.141462802886963,-1.333148570065834,-2.5262699762927454,6.109130847245016,1.0169451236724854,-5.15524655977358
1708435989.3134167,-2.1414310932159424,-1.3331684482148667,-2.526283327733175,6.109123456269064,1.0169254541397095,-5.155250732098715
1708435989.31536,-2.141451358795166,-1.333188847904541,-2.52627140680422,6.1091264365013025,1.0169298648834229,-5.155226651822225
1708435989.3174286,-2.141462802886963,-1.3332133752158661,-2.526217524205343,6.109114515572347,1.0168927907943726,-5.155251208935873
1708435989.3193638,-2.141475200653076,-1.3331476908973237,-2.5262680689441126,6.109130847245016,1.0168850421905518,-5.155255262051718
1708435989.321362,-2.141467332839966,-1.333164171581604,-2.526292149220602,6.109102237015524,1.0169343948364258,-5.155251089726583
1708435989.323353,-2.141467332839966,-1.333188847904541,-2.526304308568136,6.10909782627181,1.0168761014938354,-5.155231539403097
1708435989.3253744,-2.1414875984191895,-1.3331812781146546,-2.526254717503683,6.109069812088766,1.0168761014938354,-5.155178968106405
1708435989.3273797,-2.141479730606079,-1.3332046580365677,-2.526217762623922,6.109097707062521,1.016893982887268,-5.15519887605776
1708435989.3293707,-2.1414761543273926,-1.3331485849669953,-2.5262637774096888,6.109083163529196,1.016897201538086,-5.155190769826071
1708435989.3313608,-2.1414310932159424,-1.3331485849669953,-2.526283327733175,6.109093296318807,1.0168520212173462,-5.155207220708029
1708435989.3333797,-2.141446828842163,-1.3331855696490784,-2.5262354055987757,6.1091322777564905,1.0168638229370117,-5.155211512242452
1708435989.335368,-2.1414265632629395,-1.3331941676190873,-2.5262683073626917,6.109066831856527,1.0168683528900146,-5.155186597500936
1708435989.3373928,-2.141435384750366,-1.3331399273923417,-2.526259247456686,6.1091099856193445,1.016844630241394,-5.155138675366537
1708435989.3393633,-2.1414265632629395,-1.3331812930158158,-2.526238505040304,6.109095084458151,1.0168565511703491,-5.155162874852316
1708435989.341351,-2.1414265632629395,-1.3331931245378037,-2.5262892881976526,6.1090712426002405,1.0168609619140625,-5.155134622250692
1708435989.3433864,-2.141462802886963,-1.3331195277026673,-2.526238505040304,6.109099495201864,1.0168728828430176,-5.155187312756674
1708435989.345363,-2.141414165496826,-1.3331647676280518,-2.5262025038348597,6.109041201859274,1.0168402194976807,-5.155168000851766
1708435989.347373,-2.14145827293396,-1.3331409257701416,-2.5262189547168177,6.109074342041769,1.016844630241394,-5.155183140431539
1708435989.349351,-2.1414380073547363,-1.333157093530037,-2.526254717503683,6.109139787941732,1.016844630241394,-5.155162755643026
1708435989.3513658,-2.141439914703369,-1.3331647676280518,-2.5262847582446497,6.109139787941732,1.0168609619140625,-5.155187312756674
1708435989.3533964,-2.141414165496826,-1.3330789667418976,-2.526214663182394,6.109062301903524,1.016832709312439,-5.15515119234194
1708435989.355393,-2.1414096355438232,-1.3331287664226075,-2.5262487570392054,6.1090580103691,1.016844630241394,-5.155162874852316
1708435989.3574615,-2.141484022140503,-1.333148570065834,-2.5262442270862024,6.109119999199667,1.0168416500091553,-5.155146900807516
1708435989.3593721,-2.141448736190796,-1.333136649136879,-2.5262354055987757,6.10911117771224,1.0168609619140625,-5.15516704717745
1708435989.3613727,-2.141439914703369,-1.3331580770066758,-2.5261991659747522,6.1090444205100916,1.016829490661621,-5.1552199761020105
1708435989.363392,-2.141418695449829,-1.3331287813237687,-2.5262025038348597,6.109066831856527,1.016795039176941,-5.155159536992208
1708435989.3653598,-2.141444444656372,-1.3331168454936524,-2.5261784235583704,6.109106766968527,1.0168282985687256,-5.155211869870321
1708435989.3673632,-2.141462802886963,-1.33313304305587,-2.5262234846698206,6.109086143761434,1.0168534517288208,-5.155179683362142
1708435989.3693523,-2.141446828842163,-1.3331373047879715,-2.5262308756457728,6.109127867012777,1.016812801361084,-5.155122820531027
1708435989.3713536,-2.141444444656372,-1.3331168454936524,-2.5262399355517786,6.109115588455953,1.016808271408081,-5.155134741459982
1708435989.373378,-2.141460418701172,-1.3331581366113205,-2.5261901060687464,6.109087574272909,1.0168461799621582,-5.155171219502584
1708435989.375356,-2.141467332839966,-1.333112583761551,-2.526187245045797,6.109083163529196,1.0167752504348755,-5.155175391827719
1708435989.377357,-2.141467332839966,-1.3330639612725754,-2.5262413660632532,6.109181391983785,1.0167919397354126,-5.155115071927206
1708435989.3793542,-2.141488552093506,-1.3331287664226075,-2.5261693636523646,6.109078752785482,1.016800880432129,-5.155159536992208
1708435989.3813934,-2.1414425373077393,-1.3331409257701416,-2.5262442270862024,6.109066831856527,1.0167797803878784,-5.155151549969808
1708435989.3833766,-2.141418695449829,-1.3330810827067872,-2.5261829535113733,6.109032261162557,1.0168172121047974,-5.155135456715719
1708435989.385346,-2.141435384750366,-1.3331049245646973,-2.5261648336993616,6.1090712426002405,1.0168505907058716,-5.15511936346163
1708435989.3873515,-2.141455888748169,-1.3330930036357422,-2.5261738936053675,6.109127867012777,1.0167797803878784,-5.155188028012411
1708435989.3893642,-2.1414806842803955,-1.3331177693656464,-2.526203457509176,6.109062301903524,1.016808271408081,-5.155155364667074
1708435989.3913696,-2.1414310932159424,-1.3331296902946015,-2.5262025038348597,6.10910855510787,1.0168261528015137,-5.15517229238619
1708435989.3933434,-2.141444444656372,-1.3331287664226075,-2.5262280146228235,6.10908471324996,1.016793131828308,-5.155188028012411
1708435989.3953443,-2.141444444656372,-1.3330963861993332,-2.5262532869922083,6.109078752785482,1.0168261528015137,-5.155118648205892
1708435989.3973584,-2.141439914703369,-1.33310820282016,-2.5261991659747522,6.109078633576193,1.0167964696884155,-5.15517229238619
1708435989.399365,-2.1414647102355957,-1.3331134629300614,-2.5261696020709437,6.109099495201864,1.0167975425720215,-5.155118648205892
1708435989.4013717,-2.1414310932159424,-1.3331049245646973,-2.5262234846698206,6.109083163529196,1.0167723894119263,-5.155102554951803
1708435989.403362,-2.141455888748169,-1.3330887419036408,-2.526187245045797,6.109124648361959,1.0168551206588745,-5.155168000851766
1708435989.4053538,-2.141418695449829,-1.3330801588347931,-2.5262113253222864,6.109062301903524,1.0168054103851318,-5.155131284390585
1708435989.4073615,-2.141439914703369,-1.3331006479314347,-2.526220146809713,6.109090673714437,1.0168172121047974,-5.155168000851766
1708435989.4093554,-2.1414716243743896,-1.3330887270024796,-2.5262113253222864,6.109104025154867,1.016800880432129,-5.15514308611025
1708435989.4113662,-2.141406297683716,-1.3331339222243805,-2.5261784235583704,6.109078752785482,1.0168142318725586,-5.155138913785116
1708435989.413371,-2.141418695449829,-1.3331006479314347,-2.5261903444873255,6.1090667126472376,1.0168054103851318,-5.155155841504232
1708435989.4153633,-2.141414165496826,-1.3330930036357422,-2.526170794163839,6.109032380371847,1.016781210899353,-5.155126992856161
1708435989.4174123,-2.141448736190796,-1.3330887270024796,-2.5262280146228235,6.109059083252706,1.0168019533157349,-5.155138913785116
1708435989.4193652,-2.141406297683716,-1.3331253987601777,-2.5261827150927942,6.10910843589858,1.0167797803878784,-5.155179683362142
1708435989.4213922,-2.1414060592651367,-1.3331134629300614,-2.5261917749988,6.109127867012777,1.0167560577392578,-5.155179683362142
1708435989.4233909,-2.141453266143799,-1.333072544341423,-2.526224676762716,6.109078752785482,1.016793131828308,-5.1551916042910975
1708435989.4253569,-2.141418695449829,-1.3331082177213212,-2.5262234846698206,6.109054553299703,1.0167841911315918,-5.155163828526632
1708435989.427395,-2.141451358795166,-1.3330972802690049,-2.5262325445758265,6.109078633576193,1.016793131828308,-5.155163828526632
1708435989.4293787,-2.1414308547973633,-1.3331091862967988,-2.526187245045797,6.109159099846639,1.016830563545227,-5.155216042195455
1708435989.4313762,-2.141439914703369,-1.3331125688603898,-2.5261696020709437,6.10908471324996,1.0167887210845947,-5.155171219502584
1708435989.433388,-2.1414761543273926,-1.333149568443634,-2.5262113253222864,6.10905014255599,1.016793131828308,-5.155159536992208
1708435989.4353797,-2.141451358795166,-1.3331015569022675,-2.5261784235583704,6.109119999199667,1.0167887210845947,-5.155122820531027
1708435989.4373944,-2.141451358795166,-1.3330810827067872,-2.5261619726764124,6.109078752785482,1.0168217420578003,-5.155183855687277
1708435989.439398,-2.141451358795166,-1.3330844652703782,-2.5261991659747522,6.109054553299703,1.016812801361084,-5.155159536992208
1708435989.441506,-2.141444444656372,-1.333084450369217,-2.5262234846698206,6.109092104225912,1.0167768001556396,-5.155155364667074
1708435989.443434,-2.141439914703369,-1.3331177693656464,-2.5261991659747522,6.109078633576193,1.0168261528015137,-5.1552035252200525
1708435989.4454777,-2.141444444656372,-1.3331296902946015,-2.5262189547168177,6.109099614411154,1.0168054103851318,-5.155171219502584
1708435989.44737,-2.141500949859619,-1.333055318599083,-2.5262189547168177,6.109059083252706,1.0167723894119263,-5.155187312756674
1708435989.449382,-2.141439914703369,-1.333084450369217,-2.5262532869922083,6.10908471324996,1.016793131828308,-5.155102554951803
1708435989.4513443,-2.141451358795166,-1.3331006628325959,-2.5261946360217493,6.109080302506246,1.0168142318725586,-5.155179564152853
1708435989.4533627,-2.141453266143799,-1.3330725294402619,-2.5262234846698206,6.1090218899543665,1.0167887210845947,-5.155175391827719
1708435989.4553416,-2.141448736190796,-1.333121122126915,-2.5262561480151575,6.109047162323751,1.0168217420578003,-5.155220333729879
1708435989.4573808,-2.1414060592651367,-1.3331458878568192,-2.5261946360217493,6.109087574272909,1.0167648792266846,-5.1552199761020105
1708435989.459352,-2.1414105892181396,-1.333085374241211,-2.5262158552752894,6.109075772553243,1.0168098211288452,-5.155183140431539
1708435989.4613576,-2.141451358795166,-1.3331501644900818,-2.5262025038348597,6.109075772553243,1.0168054103851318,-5.155163828526632
1708435989.4633665,-2.141453266143799,-1.3330853593400498,-2.5261784235583704,6.109014498978414,1.016800880432129,-5.155191485081808
1708435989.4653587,-2.141401767730713,-1.3330605787089844,-2.5262442270862024,6.109023320465841,1.016800880432129,-5.155191485081808
1708435989.467363,-2.141435384750366,-1.3331006479314347,-2.5262234846698206,6.109075772553243,1.0168217420578003,-5.155183140431539
1708435989.4693773,-2.141444444656372,-1.3331015569022675,-2.5261829535113733,6.109027850418844,1.0168261528015137,-5.155195061360494
1708435989.4713643,-2.141435384750366,-1.3331015420011063,-2.5262113253222864,6.1090606329734705,1.0168142318725586,-5.155251804982321
1708435989.4733553,-2.1414411067962646,-1.3331373196891327,-2.526214663182394,6.109014379769125,1.016808271408081,-5.155171219502584
1708435989.4753451,-2.14139461517334,-1.3331134778312226,-2.5262067953692835,6.1090561030204675,1.0168339014053345,-5.155183140431539
1708435989.4774065,-2.141422986984253,-1.3331015569022675,-2.5262234846698206,6.108985769539633,1.0168339014053345,-5.1551342646228235
1708435989.479349,-2.141427516937256,-1.3331416112235566,-2.5262396971331995,6.108994710236349,1.0167797803878784,-5.15516704717745
1708435989.4813538,-2.1414411067962646,-1.3331253987601777,-2.5262308756457728,6.109044301300802,1.0168217420578003,-5.155162755643026
1708435989.483349,-2.141390323638916,-1.33310920119796,-2.5261979738818567,6.1090173600013635,1.016829490661621,-5.155199233685629
1708435989.485382,-2.14139461517334,-1.3331134778312226,-2.5262308756457728,6.109032380371847,1.0168384313583374,-5.155162755643026
1708435989.4873722,-2.141427516937256,-1.333068237905838,-2.5262473265277308,6.109027850418844,1.016808271408081,-5.15516704717745
1708435989.4893613,-2.1414287090301514,-1.3331134778312226,-2.5261979738818567,6.109044301300802,1.016812801361084,-5.155211512242452
1708435989.4913428,-2.1413991451263428,-1.3331416112235566,-2.5262113253222864,6.109006631165304,1.016812801361084,-5.155199233685629
1708435989.4933548,-2.1414082050323486,-1.3330810976079484,-2.5262067953692835,6.1090290425117395,1.0168172121047974,-5.155186597500936
1708435989.4953787,-2.141394853591919,-1.3331168454936524,-2.5261991659747522,6.10901557186202,1.0168339014053345,-5.155207220708029
1708435989.4973934,-2.1414453983306885,-1.3331006479314347,-2.5262725988971155,6.109008180886068,1.016808271408081,-5.155234996472494
1708435989.4993544,-2.1413867473602295,-1.3330767911723633,-2.526193443928854,6.108963477402487,1.016808271408081,-5.155226532612936
1708435989.5013459,-2.1413991451263428,-1.333092988734581,-2.5262280146228235,6.108926284104147,1.0168249607086182,-5.155190769826071
1708435989.5033784,-2.141374349594116,-1.333068237905838,-2.526220146809713,6.108970868378439,1.0168535709381104,-5.155263368283407
1708435989.5053928,-2.1413867473602295,-1.3331015569022675,-2.5261829535113733,6.1089515564735315,1.0168249607086182,-5.155251208935873
1708435989.5073578,-2.1413698196411133,-1.3330757927945633,-2.5262158552752894,6.108944165497579,1.0168160200119019,-5.155270997677938
1708435989.5093875,-2.141383409500122,-1.333072544341423,-2.5261827150927942,6.108963477402487,1.0167919397354126,-5.155266825352804
1708435989.5114255,-2.141400098800659,-1.3330887270024796,-2.5262442270862024,6.108956086426534,1.0168204307556152,-5.155274216328756
1708435989.5133657,-2.1413257122039795,-1.333110125069954,-2.5262606779681605,6.108906495362081,1.0168653726577759,-5.155282680188314
1708435989.5153635,-2.141378879547119,-1.333056316976883,-2.5262725988971155,6.108922946244039,1.0168625116348267,-5.155269924794332
1708435989.5173779,-2.1413426399230957,-1.3330768060735245,-2.5262606779681605,6.108929025917806,1.0168534517288208,-5.155270044003622
1708435989.519348,-2.1413514614105225,-1.3330887270024796,-2.526219193135397,6.108906495362081,1.016800880432129,-5.155318681393759
1708435989.521353,-2.1413605213165283,-1.3330887419036408,-2.5262606779681605,6.108911144524374,1.0168238878250122,-5.155245844517843
1708435989.5233617,-2.1413514614105225,-1.333068237905838,-2.5262399355517786,6.10887240150527,1.016832709312439,-5.155327145253317
1708435989.525357,-2.1413514614105225,-1.3331015569022675,-2.5262637774096888,6.108882772713461,1.016844630241394,-5.155269924794332
1708435989.5273554,-2.141400098800659,-1.333072544341423,-2.5262308756457728,6.108838069229879,1.0168193578720093,-5.155282203351156
1708435989.5293677,-2.141387701034546,-1.333096371298172,-2.5261979738818567,6.108842599182882,1.0168609619140625,-5.1553341786014
1708435989.5313559,-2.1413347721099854,-1.3330887270024796,-2.526176993046896,6.108851539879598,1.0169028043746948,-5.155350987111227
1708435989.5333538,-2.1413018703460693,-1.3330401641181489,-2.5262725988971155,6.108860480576315,1.016844630241394,-5.15531033674349
1708435989.5353532,-2.141352415084839,-1.3331339818290253,-2.526205841694967,6.108860361367025,1.0168683528900146,-5.155298415814535
1708435989.537419,-2.141322374343872,-1.3331253987601777,-2.526238505040304,6.108855950623312,1.016877293586731,-5.155362908040182
1708435989.5393581,-2.1413345336914062,-1.3330725294402619,-2.526238505040304,6.108865010529318,1.016897201538086,-5.155306045209066
1708435989.541366,-2.141364812850952,-1.3331177693656464,-2.5262354055987757,6.108847129135885,1.0169150829315186,-5.155346099530355
1708435989.5434017,-2.141319751739502,-1.3330930036357422,-2.5262234846698206,6.108876812248983,1.0169062614440918,-5.155330363904135
1708435989.5453434,-2.1413118839263916,-1.3330810976079484,-2.52622634569277,6.108876812248983,1.016871690750122,-5.1553341786014
1708435989.547381,-2.1413357257843018,-1.3331253838590165,-2.5262442270862024,6.108852970391073,1.0168761014938354,-5.155350987111227
1708435989.54935,-2.141331195831299,-1.3330486875823517,-2.526210133229391,6.1088857529456995,1.016897201538086,-5.155321542416708
1708435989.5513413,-2.1413073539733887,-1.333178610806801,-2.5262518564807337,6.108794557839193,1.016897201538086,-5.155325714741842
1708435989.553372,-2.141261100769043,-1.3331058484366913,-2.526243034993307,6.108795869141378,1.0169377326965332,-5.1553341786014
1708435989.5553682,-2.1413490772247314,-1.3331457835486908,-2.526243034993307,6.108829009323873,1.0169001817703247,-5.155321542416708
1708435989.5573697,-2.1413118839263916,-1.3331329834512253,-2.526259247456686,6.108833420067587,1.0169540643692017,-5.155346099530355
1708435989.5593514,-2.1412904262542725,-1.333056316976883,-2.526254717503683,6.108809101372518,1.0169421434402466,-5.155362192784445
1708435989.5613778,-2.1413118839263916,-1.3330477637103577,-2.526296679173605,6.108774888306417,1.0169332027435303,-5.155362192784445
1708435989.563387,-2.1412949562072754,-1.3331381541541596,-2.5262637774096888,6.108795869141378,1.0169451236724854,-5.155386034642355
1708435989.565362,-2.141308307647705,-1.3331049096635361,-2.526259247456686,6.108786928444662,1.0169495344161987,-5.155370656644003
1708435989.567371,-2.1413028240203857,-1.33313304305587,-2.52627140680422,6.1087883589561365,1.0169047117233276,-5.155369941388265
1708435989.5693562,-2.1412880420684814,-1.333117739563324,-2.526283327733175,6.108760344773092,1.016936182975769,-5.155410591756002
1708435989.5713592,-2.1412904262542725,-1.3331006479314347,-2.526292149220602,6.108754026680746,1.0169451236724854,-5.1553654114352625
1708435989.5733974,-2.1412675380706787,-1.3330972802690049,-2.52627140680422,6.108758556633749,1.0169570446014404,-5.1554099957095545
1708435989.5753646,-2.1413025856018066,-1.333084450369217,-2.526325289403097,6.108725774079122,1.016940712928772,-5.155349556599752
1708435989.5773857,-2.1413207054138184,-1.3331253391555329,-2.526275936757223,6.108818161278524,1.0169658660888672,-5.15539795557131
1708435989.579357,-2.1413118839263916,-1.3331168454936524,-2.5262954870807093,6.108764874726095,1.0169703960418701,-5.155410591756002
1708435989.58137,-2.1412596702575684,-1.3330930036357422,-2.526316229497091,6.108760344773092,1.0169570446014404,-5.15539795557131
1708435989.5836306,-2.1412720680236816,-1.3330734384110947,-2.5262745062457483,6.108772027283468,1.016994833946228,-5.155345384274618
1708435989.5854151,-2.1412765979766846,-1.333129645591118,-2.52627140680422,6.108743655472555,1.016978144645691,-5.155373398457662
1708435989.587482,-2.1412835121154785,-1.3331339669278641,-2.526320759450094,6.108757006912985,1.0170111656188965,-5.155414048825399
1708435989.589435,-2.1413252353668213,-1.3330810827067872,-2.5262699762927454,6.108785378723898,1.0169858932495117,-5.155381027852194
1708435989.5913615,-2.1412675380706787,-1.3330920350602646,-2.5263400713550013,6.108780967980184,1.0170140266418457,-5.155414048825399
1708435989.593438,-2.141242742538452,-1.333149568443634,-2.5262985865222376,6.108773696213522,1.0169692039489746,-5.1553853193866175
1708435989.5953746,-2.1412923336029053,-1.333121122126915,-2.526328150426046,6.108743655472555,1.0169737339019775,-5.155406419430868
1708435989.597398,-2.1412880420684814,-1.3330930036357422,-2.5263074080096644,6.1087392447288416,1.0169646739959717,-5.1553818623172205
1708435989.599387,-2.1412596702575684,-1.3331006479314347,-2.526328150426046,6.108797299652853,1.0169602632522583,-5.155369226132528
1708435989.6013663,-2.1412854194641113,-1.333129645591118,-2.5263074080096644,6.108715402870931,1.0169813632965088,-5.155418340359823
1708435989.6034217,-2.1412551403045654,-1.333122045998909,-2.5263119379626673,6.108682381897726,1.0169813632965088,-5.155430142079489
1708435989.6053689,-2.1412508487701416,-1.3330358427814026,-2.5263028780566614,6.108722913056173,1.0169813632965088,-5.155417625104086
1708435989.6074328,-2.1412551403045654,-1.3330887419036408,-2.5262778441058558,6.108728754311361,1.0169932842254639,-5.15539795557131
1708435989.6093564,-2.1412270069122314,-1.3331168454936524,-2.5262985865222376,6.108737695008077,1.017021894454956,-5.1554498116122645
1708435989.6113913,-2.141247272491455,-1.3331134629300614,-2.5263312498675745,6.108724343567648,1.0170096158981323,-5.155389491711752
1708435989.6134133,-2.141247272491455,-1.3331296902946015,-2.5263400713550013,6.108715402870931,1.017005205154419,-5.15542179742922
1708435989.6153774,-2.14127779006958,-1.33310920119796,-2.526344601308004,6.1087002632911584,1.0169843435287476,-5.155414048825399
1708435989.6174123,-2.141268491744995,-1.333121122126915,-2.5263193289386194,6.108712422638693,1.017000675201416,-5.155442182217733
1708435989.6193745,-2.141197443008423,-1.333141566520073,-2.5262656847583216,6.108733284264364,1.017005205154419,-5.155486766492025
1708435989.6213713,-2.141235828399658,-1.3330777150443573,-2.5263641516314905,6.108682381897726,1.0169962644577026,-5.155453268681661
1708435989.623399,-2.1412854194641113,-1.333088756804802,-2.5263477007495325,6.108719932823934,1.017000675201416,-5.155429546033041
1708435989.625378,-2.1412596702575684,-1.3330844652703782,-2.5263059774981897,6.108691322594442,1.017000675201416,-5.155405704175131
1708435989.6274025,-2.1412224769592285,-1.3330972802690049,-2.526348892842428,6.108719932823934,1.017021894454956,-5.155417625104086
1708435989.629369,-2.1412312984466553,-1.3331253987601777,-2.5263312498675745,6.108728754311361,1.0170173645019531,-5.15542179742922
1708435989.6313713,-2.1412110328674316,-1.3330844652703782,-2.5263150374041956,6.108716952591696,1.0170503854751587,-5.1554498116122645
1708435989.6334138,-2.14119291305542,-1.333138183956482,-2.5263105074511927,6.108716952591696,1.017037034034729,-5.15544563928713
1708435989.6353698,-2.141201972961426,-1.3331049543670197,-2.5263238588916224,6.108724343567648,1.0170247554779053,-5.155397240315573
1708435989.637413,-2.141251802444458,-1.3330810827067872,-2.5263519922839563,6.108740794449606,1.0170382261276245,-5.15544563928713
1708435989.6393783,-2.1412289142608643,-1.3330563616803666,-2.526382033024923,6.108728873520651,1.0170084238052368,-5.155474368725912
1708435989.6413786,-2.1412312984466553,-1.3331253987601777,-2.5263312498675745,6.108733284264364,1.0170040130615234,-5.155433718358175
1708435989.643417,-2.1412596702575684,-1.3331134778312226,-2.5262940565692347,6.108716952591696,1.0170459747314453,-5.155437890683309
1708435989.6453502,-2.1412155628204346,-1.3331168305924912,-2.5263431707965296,6.108709203987875,1.0170623064041138,-5.155450526868002
1708435989.6473718,-2.141247272491455,-1.3330853593400498,-2.5263147989856165,6.108709203987875,1.01707124710083,-5.155413333569662
1708435989.6493738,-2.141197443008423,-1.3330767911723633,-2.5262821356402796,6.108704674034872,1.0170414447784424,-5.155437890683309
1708435989.6513584,-2.1412065029144287,-1.3331339669278641,-2.5263400713550013,6.108691322594442,1.017074465751648,-5.1553935448275965
1708435989.6533763,-2.1412198543548584,-1.333052085047104,-2.5263477007495325,6.108700144081869,1.0170488357543945,-5.15542179742922
1708435989.6553564,-2.1412224769592285,-1.333068237905838,-2.526376549397604,6.108662950783529,1.0170655250549316,-5.1554498116122645
1708435989.6573808,-2.1412642002105713,-1.3330477339080353,-2.5263477007495325,6.1087002632911584,1.0170700550079346,-5.155433718358175
1708435989.6593378,-2.1412551403045654,-1.3330520403436203,-2.5263477007495325,6.1086511490638635,1.0170247554779053,-5.155401412640707
1708435989.6613638,-2.141195058822632,-1.3331168454936524,-2.5263150374041956,6.1086957333381555,1.017074465751648,-5.155397240315573
1708435989.6633859,-2.141201972961426,-1.3331134778312226,-2.5263553301440638,6.1086734412010095,1.0170488357543945,-5.1554381291018885
1708435989.665361,-2.1412270069122314,-1.333141566520073,-2.5263598600970667,6.108688342362203,1.0170655250549316,-5.15544563928713
1708435989.6673622,-2.141235828399658,-1.3330972802690049,-2.5263224283801478,6.108674871712484,1.0171360969543457,-5.155429307614462
1708435989.6693528,-2.1412153244018555,-1.3331666004708786,-2.5263312498675745,6.1087002632911584,1.0170774459838867,-5.155454103146688
1708435989.6713543,-2.141240358352661,-1.3331416112235566,-2.5263355414019983,6.108704674034872,1.0170444250106812,-5.155425969754354
1708435989.6734087,-2.141201972961426,-1.3330768060735245,-2.5263553301440638,6.1087002632911584,1.0170937776565552,-5.155385200177328
1708435989.6753445,-2.141251802444458,-1.3331373643926163,-2.5263553301440638,6.108674871712484,1.0171056985855103,-5.155413095151083
1708435989.6773593,-2.141235828399658,-1.3331539046815415,-2.5262985865222376,6.1086556790168665,1.0170774459838867,-5.1553935448275965
1708435989.6793382,-2.141197443008423,-1.3330930185369034,-2.5263312498675745,6.108737814217367,1.0171056985855103,-5.155425254498617
1708435989.6813493,-2.1412899494171143,-1.3331296902946015,-2.5263477007495325,6.108667480736532,1.0170774459838867,-5.155414048825399
1708435989.6833546,-2.141247272491455,-1.3330529642156144,-2.5263224283801478,6.108667480736532,1.0171101093292236,-5.155430261288778
1708435989.6853383,-2.141201972961426,-1.333056316976883,-2.52638823190798,6.108704793244161,1.0170981884002686,-5.15544563928713
1708435989.6873455,-2.1412270069122314,-1.3330596548369904,-2.5263105074511927,6.10868393161849,1.0170849561691284,-5.155442182217733
1708435989.6893392,-2.1412155628204346,-1.3331538152745743,-2.5263312498675745,6.1087615368659876,1.0171136856079102,-5.155479375516073
1708435989.6913333,-2.141181468963623,-1.333057240848877,-2.5263643900500696,6.108745205193319,1.0170730352401733,-5.1554498116122645
1708435989.6933594,-2.141247272491455,-1.3331253838590165,-2.5263598600970667,6.108746635704794,1.017032504081726,-5.155397240315573
1708435989.6953743,-2.1412642002105713,-1.3330853593400498,-2.526372019444601,6.1086957333381555,1.0170937776565552,-5.155433718358175
1708435989.6974154,-2.141249418258667,-1.3330725592425843,-2.5263553301440638,6.1087214825446985,1.0170893669128418,-5.155467454587118
1708435989.6993415,-2.141247272491455,-1.3331581366113205,-2.5263059774981897,6.108704793244161,1.0170893669128418,-5.1553805510150355
1708435989.7013335,-2.1412155628204346,-1.3330682230046769,-2.5263808409320276,6.1087660668189905,1.0171183347702026,-5.155396763478414
1708435989.7033734,-2.141244888305664,-1.333121196632721,-2.5263431707965296,6.108712422638693,1.01706862449646,-5.155409876500265
1708435989.7053864,-2.1412065029144287,-1.3330682826093216,-2.5262985865222376,6.108686792641439,1.0170966386795044,-5.15536863008608
1708435989.7074,-2.1412155628204346,-1.3331015420011063,-2.5263267199145716,6.108691322594442,1.0171300172805786,-5.155417386685507
1708435989.7093577,-2.141235828399658,-1.3330648851445694,-2.5263150374041956,6.1087002632911584,1.0171390771865845,-5.155414287243978
1708435989.7113507,-2.1412243843078613,-1.33310920119796,-2.5263477007495325,6.108670460968771,1.0171434879302979,-5.155384842549459
1708435989.7133837,-2.141197443008423,-1.3331168454936524,-2.5263431707965296,6.108667480736532,1.0171300172805786,-5.1553935448275965
1708435989.7153814,-2.141256093978882,-1.333129660492279,-2.526301447545187,6.108749735146322,1.0170639753341675,-5.155381623898641
1708435989.717376,-2.141251802444458,-1.3330605936101456,-2.526285235081808,6.108658420830526,1.01706862449646,-5.155402366315023
1708435989.71942,-2.14127779006958,-1.333060623412468,-2.526313368474142,6.108716952591696,1.0171092748641968,-5.155381623898641
1708435989.721357,-2.141273021697998,-1.3331458878568192,-2.5263598600970667,6.108691322594442,1.0170893669128418,-5.155418578778402
1708435989.7233763,-2.141197443008423,-1.3330682677081604,-2.5262985865222376,6.108728754311361,1.0171136856079102,-5.155475083981649
1708435989.725375,-2.141256093978882,-1.3331091862967988,-2.5263312498675745,6.108749735146322,1.0171211957931519,-5.1553359667407435
1708435989.727356,-2.1412110328674316,-1.33310920119796,-2.5263519922839563,6.108654010086813,1.0171345472335815,-5.155417386685507
1708435989.7293556,-2.1412198543548584,-1.3330281686833878,-2.5263763109790247,6.108691322594442,1.0170966386795044,-5.155402247105734
1708435989.7313495,-2.141235828399658,-1.3330281984857102,-2.5263763109790247,6.108716952591696,1.0171136856079102,-5.155361000691549
1708435989.7333648,-2.141235828399658,-1.333068237905838,-2.5263355414019983,6.1087214825446985,1.0170849561691284,-5.155377332364218
1708435989.7353623,-2.141244888305664,-1.333084450369217,-2.526350800191061,6.108691203385153,1.0171136856079102,-5.155414287243978
1708435989.7373967,-2.141244888305664,-1.3330887270024796,-2.5263059774981897,6.108745205193319,1.0170893669128418,-5.155357782040731
1708435989.7393775,-2.141256093978882,-1.333096371298172,-2.5263477007495325,6.108688342362203,1.0171226263046265,-5.155377213154928
1708435989.7413795,-2.141240358352661,-1.3330358129790802,-2.526334349309103,6.108704674034872,1.0170879364013672,-5.1553654114352625
1708435989.743363,-2.1412270069122314,-1.3331006479314347,-2.5263431707965296,6.1087496159370325,1.0171101093292236,-5.155349079762594
1708435989.7453685,-2.141240358352661,-1.3331330132535477,-2.5263641516314905,6.108704674034872,1.0171136856079102,-5.155414287243978
1708435989.747417,-2.1412198543548584,-1.3331414771131058,-2.5263267199145716,6.108629691391744,1.0170730352401733,-5.155344669018881
1708435989.7493563,-2.1412110328674316,-1.3330606085113068,-2.5263641516314905,6.108716952591696,1.0171300172805786,-5.155430499707357
1708435989.7513635,-2.141249418258667,-1.333084450369217,-2.5263267199145716,6.108721363335409,1.0170804262161255,-5.155424181615011
1708435989.7533627,-2.141256093978882,-1.333085374241211,-2.5263147989856165,6.108733284264364,1.0171183347702026,-5.155349079762594
1708435989.755348,-2.141235828399658,-1.3330682230046769,-2.5263267199145716,6.108758556633749,1.0170849561691284,-5.155329648648397
1708435989.757403,-2.141244888305664,-1.3330929738334198,-2.5263808409320276,6.108662950783529,1.0170893669128418,-5.155341569577352
1708435989.7593718,-2.1412289142608643,-1.3331296902946015,-2.526367489491598,6.108713614731588,1.0171390771865845,-5.1553664843188685
1708435989.7613745,-2.141244888305664,-1.3330887270024796,-2.5263386408435267,6.1086957333381555,1.0171092748641968,-5.155357782040731
1708435989.7633555,-2.141240358352661,-1.3330401194146653,-2.5263431707965296,6.1086957333381555,1.0171136856079102,-5.155354563389913
1708435989.7653503,-2.1412198543548584,-1.3331091862967988,-2.526367489491598,6.108725893288412,1.0171136856079102,-5.15538722673525
1708435989.7674265,-2.141268491744995,-1.3330972802690049,-2.5263105074511927,6.108691322594442,1.0171136856079102,-5.155326191579
1708435989.769355,-2.141251802444458,-1.333068237905838,-2.5263686815844935,6.10869728305892,1.0171256065368652,-5.155333940182821
1708435989.771414,-2.141181468963623,-1.3331168454936524,-2.5263431707965296,6.108728873520651,1.0170966386795044,-5.15536338487734
1708435989.773362,-2.1412243843078613,-1.3331125539592286,-2.5263598600970667,6.108745205193319,1.0171256065368652,-5.1553102175342005
1708435989.7753563,-2.1412110328674316,-1.3331134629300614,-2.526367489491598,6.10874222496108,1.0171136856079102,-5.155334059392111
1708435989.7773633,-2.1412198543548584,-1.3331253987601777,-2.5263927618609827,6.108712422638693,1.0171092748641968,-5.155298296605245
1708435989.7793527,-2.1412198543548584,-1.33310820282016,-2.5263105074511927,6.1087615368659876,1.0171433687210083,-5.155326191579
1708435989.7813928,-2.1412243843078613,-1.333104969268181,-2.5263927618609827,6.108704674034872,1.0171226263046265,-5.155285064374105
1708435989.7833755,-2.1412155628204346,-1.3330606383136292,-2.5263641516314905,6.108686792641439,1.0170389413833618,-5.155306998883383
1708435989.785356,-2.141201972961426,-1.3331049245646973,-2.526358668004171,6.108708011894979,1.0171183347702026,-5.1553232113467615
1708435989.787435,-2.1412155628204346,-1.333162323837616,-2.526400152836935,6.108757126122274,1.0171056985855103,-5.155294005070822
1708435989.7893555,-2.141235828399658,-1.33311681569133,-2.5263565222369593,6.108677732735433,1.017118215560913,-5.1552950779544275
1708435989.7913496,-2.1412243843078613,-1.3331015718034287,-2.526367489491598,6.108737814217367,1.0170758962631226,-5.155367676411764
1708435989.7933667,-2.141233444213867,-1.333121122126915,-2.5263267199145716,6.108704674034872,1.0170849561691284,-5.1553277412997645
1708435989.795351,-2.141240358352661,-1.3331253838590165,-2.5263641516314905,6.108658540039816,1.0170596837997437,-5.1552121082889
1708435989.7973602,-2.1412642002105713,-1.333084450369217,-2.5263553301440638,6.1087002632911584,1.017146348953247,-5.15524942079653
1708435989.7993546,-2.141273021697998,-1.3331581366113205,-2.5263553301440638,6.108724343567648,1.0171092748641968,-5.155281964932577
1708435989.801359,-2.141256093978882,-1.3330563616803666,-2.5263224283801478,6.108713614731588,1.0171300172805786,-5.155258123074667
1708435989.8033607,-2.141265392303467,-1.3331168305924912,-2.526317898427145,6.108685362129965,1.0170758962631226,-5.155246321355001
1708435989.805352,-2.141282081604004,-1.3330682230046769,-2.5263641516314905,6.108758795052328,1.0171183347702026,-5.1552374998675745
1708435989.807367,-2.1412596702575684,-1.3331082177213212,-2.5263763109790247,6.108733284264364,1.017096757888794,-5.1552950779544275
1708435989.8093631,-2.141286611557007,-1.3330972802690049,-2.5262985865222376,6.108692872315206,1.0171345472335815,-5.15527850786318
1708435989.8113623,-2.1412110328674316,-1.3330564063838501,-2.526372019444601,6.108686792641439,1.0170596837997437,-5.155282799397604
1708435989.8134043,-2.141251802444458,-1.3330648702434083,-2.526362959538595,6.108676421433248,1.0171101093292236,-5.155306998883383
1708435989.8153749,-2.141240358352661,-1.3330811125091095,-2.5263598600970667,6.108676421433248,1.017138957977295,-5.155229632054464
1708435989.8174028,-2.1412155628204346,-1.3330401194146653,-2.5263386408435267,6.1087214825446985,1.0171136856079102,-5.155271236096517
1708435989.8193934,-2.141240358352661,-1.3331006479314347,-2.5263598600970667,6.108708011894979,1.0170804262161255,-5.155229632054464
1708435989.8213654,-2.141256332397461,-1.333068237905838,-2.5263431707965296,6.108686792641439,1.0171136856079102,-5.1552504936801355
1708435989.8233948,-2.141235828399658,-1.3331049245646973,-2.5263763109790247,6.108713614731588,1.017096757888794,-5.155291620885031
1708435989.8253543,-2.1412243843078613,-1.3331372749856492,-2.5263598600970667,6.108688342362203,1.017096757888794,-5.155259315167562
1708435989.82738,-2.1412198543548584,-1.3330853593400498,-2.5263224283801478,6.108691322594442,1.0170966386795044,-5.155213419591085
1708435989.8293512,-2.1412642002105713,-1.333121122126915,-2.5263477007495325,6.108686792641439,1.0170522928237915,-5.155254904423849
1708435989.8313563,-2.141260862350464,-1.3331296902946015,-2.5263598600970667,6.1087002632911584,1.0171256065368652,-5.155213419591085
1708435989.8333755,-2.141251802444458,-1.3330972504666825,-2.5263641516314905,6.108778226166525,1.0170966386795044,-5.1552056709872645
1708435989.835357,-2.141235828399658,-1.3330887121013184,-2.5263312498675745,6.1086792824561975,1.0171300172805786,-5.155198518429891
1708435989.8373754,-2.141235828399658,-1.333092988734581,-2.5263972918139856,6.108733284264364,1.0170758962631226,-5.155242745076315
1708435989.8393912,-2.1412270069122314,-1.3331125241569062,-2.5263431707965296,6.108757126122274,1.0171270370483398,-5.155214492474691
1708435989.8413796,-2.141240358352661,-1.3331373047879715,-2.526317898427145,6.108733284264364,1.0171056985855103,-5.155238334332601
1708435989.8434193,-2.141190528869629,-1.333133877520897,-2.5263553301440638,6.1087002632911584,1.017118215560913,-5.155165616665975
1708435989.8454266,-2.1412312984466553,-1.3330886972001572,-2.526350800191061,6.108670460968771,1.0171136856079102,-5.155251447354452
1708435989.8473978,-2.141256093978882,-1.3330853593400498,-2.5263598600970667,6.108709203987875,1.0170567035675049,-5.155121151600973
1708435989.8493745,-2.141265392303467,-1.3331168454936524,-2.526334349309103,6.1086792824561975,1.01711905002594,-5.155214611683981
1708435989.8513744,-2.141265392303467,-1.3331135225347062,-2.5263598600970667,6.1086957333381555,1.0170567035675049,-5.155133430157797
1708435989.8533728,-2.141256093978882,-1.3331134778312226,-2.5263431707965296,6.10866008976058,1.0171136856079102,-5.155211631451742
1708435989.8553896,-2.141233444213867,-1.333121122126915,-2.52638823190798,6.108740675240316,1.0171101093292236,-5.155146423970358
1708435989.8573923,-2.141188621520996,-1.33313304305587,-2.5263553301440638,6.108704674034872,1.0171226263046265,-5.155178729687826
1708435989.8593738,-2.141197443008423,-1.3331177693656464,-2.5263431707965296,6.108688342362203,1.0171256065368652,-5.155118052159445
1708435989.8613563,-2.141256093978882,-1.3331125688603898,-2.5263519922839563,6.108667480736532,1.017096757888794,-5.155216042195455
1708435989.863391,-2.141268491744995,-1.3331006330302735,-2.5263553301440638,6.108637797623434,1.0171101093292236,-5.155118052159445
1708435989.865374,-2.141197443008423,-1.3330844652703782,-2.5263312498675745,6.108703481941976,1.0170893669128418,-5.155184332524435
1708435989.8673763,-2.1412243843078613,-1.333113507633545,-2.5263519922839563,6.108712422638693,1.0171012878417969,-5.1551552454577845
1708435989.8693724,-2.141251802444458,-1.3331296157887955,-2.5263312498675745,6.108704674034872,1.0170774459838867,-5.155162517224447
1708435989.8713653,-2.1412854194641113,-1.3331168752959748,-2.5263105074511927,6.108736264496603,1.0170477628707886,-5.155191723500387
1708435989.873372,-2.1412198543548584,-1.3331134778312226,-2.5263641516314905,6.108685481339254,1.0170444250106812,-5.155150953923361
1708435989.8753638,-2.141244888305664,-1.3330930036357422,-2.5263598600970667,6.1086957333381555,1.0170937776565552,-5.155138675366537
1708435989.8773546,-2.141201972961426,-1.3331211519292374,-2.5263357798205774,6.108704674034872,1.0170356035232544,-5.155215922986166
1708435989.8793473,-2.1412312984466553,-1.3331049245646973,-2.5263105074511927,6.108728754311361,1.0170937776565552,-5.155171219502584
1708435989.8813457,-2.1412270069122314,-1.333068237905838,-2.5263643900500696,6.108691322594442,1.0170700550079346,-5.1551342646228235
1708435989.883399,-2.141242742538452,-1.3330682230046769,-2.5263312498675745,6.108686792641439,1.017074465751648,-5.155158106480734
1708435989.8853755,-2.1412270069122314,-1.3331091713956376,-2.5263519922839563,6.108728754311361,1.0170981884002686,-5.155163947735922
1708435989.8873594,-2.1412110328674316,-1.333122045998909,-2.526273314152853,6.108716952591696,1.0170700550079346,-5.155187551175253
1708435989.8893847,-2.141247272491455,-1.3331049394658585,-2.5263224283801478,6.108728754311361,1.0170818567276,-5.1551061312304896
1708435989.8913743,-2.1412596702575684,-1.3331373196891327,-2.5263927618609827,6.108728754311361,1.0170730352401733,-5.1551552454577845
1708435989.8933523,-2.1412155628204346,-1.3331254434636612,-2.52638823190798,6.108670460968771,1.0170459747314453,-5.155131045972006
1708435989.8953607,-2.141201972961426,-1.3331049245646973,-2.5263477007495325,6.108719813614645,1.0170400142669678,-5.1551799217807215
1708435989.8973584,-2.1412198543548584,-1.3331501942924042,-2.5263641516314905,6.1087002632911584,1.017086386680603,-5.155184332524435
1708435989.8993452,-2.141244888305664,-1.3331049096635361,-2.5263732115374964,6.108749735146322,1.017032504081726,-5.1551223436938685
1708435989.901348,-2.1412642002105713,-1.3331211817315598,-2.5263477007495325,6.108658540039816,1.017015814781189,-5.1551799217807215
1708435989.9033551,-2.1412312984466553,-1.333104894762375,-2.5263400713550013,6.108752596169271,1.0170623064041138,-5.155118052159445
1708435989.9053743,-2.141251802444458,-1.333084450369217,-2.5263312498675745,6.1087002632911584,1.017032504081726,-5.155146543179647
1708435989.9073567,-2.141247272491455,-1.3331330728581925,-2.5263105074511927,6.108710992127218,1.0170700550079346,-5.155168358479635
1708435989.9093428,-2.1412065029144287,-1.3330639016679307,-2.5263312498675745,6.108785378723898,1.0170084238052368,-5.1551799217807215
1708435989.9113731,-2.1412270069122314,-1.3330606085113068,-2.5263598600970667,6.108724343567648,1.017020344734192,-5.155175511037008
1708435989.91336,-2.141235828399658,-1.33313304305587,-2.5263732115374964,6.108739363938131,1.0170292854309082,-5.155117932950155
1708435989.9153671,-2.1412596702575684,-1.333072544341423,-2.5262985865222376,6.108703601151266,1.0169874429702759,-5.155166808758871
1708435989.9173746,-2.141235828399658,-1.33310920119796,-2.5263808409320276,6.108748185425558,1.0169962644577026,-5.155135456715719
1708435989.9194021,-2.1412384510040283,-1.333113433127739,-2.5263565222369593,6.1087108729179285,1.0170549154281616,-5.155184332524435
1708435989.9213972,-2.141256332397461,-1.3331339818290253,-2.5263808409320276,6.108691203385153,1.0170084238052368,-5.155126635228292
1708435989.923392,-2.141256093978882,-1.3330563020757218,-2.526350800191061,6.108712422638693,1.017000675201416,-5.155168358479635
1708435989.9253733,-2.1412642002105713,-1.3330887419036408,-2.5263312498675745,6.108769404679098,1.017005205154419,-5.155163947735922
1708435989.9273794,-2.1412642002105713,-1.333133028154709,-2.5263431707965296,6.108755934029379,1.0169888734817505,-5.155131165181295
1708435989.9293864,-2.1412198543548584,-1.3331253987601777,-2.526301447545187,6.108780967980184,1.0169843435287476,-5.155138675366537
1708435989.9313624,-2.1412110328674316,-1.3330801737359543,-2.5263267199145716,6.108730304032125,1.0169932842254639,-5.1551342646228235
1708435989.9333806,-2.1412110328674316,-1.33313304305587,-2.5263598600970667,6.108809220581808,1.0170140266418457,-5.155151669179098
1708435989.9354,-2.1412642002105713,-1.3331373196891327,-2.5263519922839563,6.108747112541952,1.0169888734817505,-5.155131045972006
1708435989.937395,-2.1412642002105713,-1.3331049245646973,-2.526365343724386,6.1087108729179285,1.0170185565948486,-5.155114833508627
1708435989.9393618,-2.1412596702575684,-1.3330887419036408,-2.5262985865222376,6.108731853752889,1.016990303993225,-5.155135456715719
1708435989.9413788,-2.141201972961426,-1.3331330579570313,-2.5263150374041956,6.108809220581808,1.017005205154419,-5.1551552454577845
1708435989.9434042,-2.1412065029144287,-1.3331211072257538,-2.5263238588916224,6.108713853150167,1.0169737339019775,-5.155122462903158
1708435989.9453495,-2.1412312984466553,-1.3331177693656464,-2.5263147989856165,6.108776438027181,1.0170140266418457,-5.155113641415731
1708435989.9473698,-2.141247272491455,-1.3331006330302735,-2.5262699762927454,6.10877953746871,1.016968011856079,-5.155109230672018
1708435989.9493647,-2.1412596702575684,-1.33310820282016,-2.5263312498675745,6.108809220581808,1.0169813632965088,-5.155117932950155
1708435989.951367,-2.141247272491455,-1.3331373494914551,-2.5263312498675745,6.108849751740255,1.0169813632965088,-5.155147377644674
1708435989.9534066,-2.141242742538452,-1.3331049245646973,-2.5263477007495325,6.1088002798850916,1.0169602632522583,-5.1551517883883875
1708435989.9554,-2.141296863555908,-1.3331296902946015,-2.5263028780566614,6.108786809235372,1.0169858932495117,-5.15524393716921
1708435989.9574044,-2.1412642002105713,-1.3330887419036408,-2.5262985865222376,6.108803617745199,1.0169646739959717,-5.155164066945211
1708435989.9593692,-2.1412339210510254,-1.3330973100713273,-2.5263400713550013,6.108864891320028,1.016940712928772,-5.1551669279681605
1708435989.9613647,-2.1412923336029053,-1.333121122126915,-2.5262866655932825,6.1088154194648645,1.0169614553451538,-5.155205074940817
1708435989.9633696,-2.141256093978882,-1.3330606085113068,-2.5263238588916224,6.108840811043539,1.0169692039489746,-5.1551799217807215
1708435989.965356,-2.1412808895111084,-1.333125354056694,-2.5263355414019983,6.108852970391073,1.0169570446014404,-5.155126635228292
1708435989.9673827,-2.1412642002105713,-1.33313304305587,-2.5263193289386194,6.1088307974632166,1.016973614692688,-5.155190650616781
1708435989.969369,-2.141238212585449,-1.333149568443634,-2.5263519922839563,6.108867871552267,1.0169165134429932,-5.155119125043051
1708435989.9713519,-2.141242742538452,-1.333076850777008,-2.5263028780566614,6.108867871552267,1.0169737339019775,-5.1551669279681605
1708435989.9733756,-2.141242742538452,-1.3331006479314347,-2.5263028780566614,6.108812916069784,1.0168794393539429,-5.155150953923361
1708435989.9753482,-2.1412765979766846,-1.3331253987601777,-2.5262954870807093,6.108851539879598,1.0168660879135132,-5.155200544987814
1708435989.9773588,-2.1412267684936523,-1.3330887270024796,-2.5263028780566614,6.10888837555007,1.0169165134429932,-5.155126635228292
1708435989.9793499,-2.1412720680236816,-1.3330930036357422,-2.5263074080096644,6.108865010529318,1.0169243812561035,-5.15519625345339
1708435989.9813473,-2.1413252353668213,-1.3330606532147904,-2.5262909571277063,6.108867871552267,1.016940712928772,-5.155144158993856
1708435989.9833655,-2.1412854194641113,-1.3331623536399384,-2.526328150426046,6.108905064850607,1.016928791999817,-5.155118052159445
1708435989.9853525,-2.141268491744995,-1.3330930036357422,-2.5263193289386194,6.108855950623312,1.0169451236724854,-5.155126635228292
1708435989.987381,-2.141247272491455,-1.3330888015082856,-2.5262985865222376,6.108867752342977,1.016928791999817,-5.155135456715719
1708435989.9893653,-2.1412765979766846,-1.3331049245646973,-2.5263355414019983,6.108878361969747,1.0169495344161987,-5.1551799217807215
1708435989.9913568,-2.1412675380706787,-1.3330887419036408,-2.5263119379626673,6.108851539879598,1.0169451236724854,-5.1551223436938685
1708435989.993418,-2.141242742538452,-1.3331091564944764,-2.526311699544088,6.108879554062643,1.0169332027435303,-5.1551552454577845
1708435989.9953601,-2.1412384510040283,-1.3331373196891327,-2.5263074080096644,6.108821737557211,1.0169421434402466,-5.155138675366537
1708435989.9973853,-2.1412994861602783,-1.33311681569133,-2.5263400713550013,6.108891713410177,1.0169135332107544,-5.1551223436938685
1708435989.999446,-2.1412293910980225,-1.333133028154709,-2.5263312498675745,6.108879554062643,1.016909122467041,-5.15519625345339
1708435990.0013704,-2.1412463188171387,-1.3330930036357422,-2.5263028780566614,6.108908164292135,1.0169047117233276,-5.155200544987814
1708435990.0034003,-2.1412765979766846,-1.333141566520073,-2.5263028780566614,6.108906495362081,1.0168883800506592,-5.1551517883883875
1708435990.0053566,-2.141263246536255,-1.3331243705800553,-2.5262985865222376,6.1089199660118005,1.016928791999817,-5.155204955731527
1708435990.0073652,-2.1412949562072754,-1.333088756804802,-2.5263193289386194,6.1089364168937585,1.0169254541397095,-5.155159536992208
1708435990.009388,-2.141263246536255,-1.333141566520073,-2.5263312498675745,6.108940827637472,1.0169254541397095,-5.155101601277487
1708435990.0113761,-2.1412835121154785,-1.3331253838590165,-2.526360813771383,6.108911144524374,1.0169421434402466,-5.155171219502584
1708435990.0134127,-2.1412463188171387,-1.3331168454936524,-2.526300017033712,6.108931886940756,1.0169421434402466,-5.155171219502584
1708435990.015393,-2.1412463188171387,-1.3331006479314347,-2.5263074080096644,6.1089199660118005,1.0168883800506592,-5.1551552454577845
1708435990.0173845,-2.1412675380706787,-1.333084450369217,-2.5263193289386194,6.108988868981161,1.0169421434402466,-5.155184332524435
1708435990.0193615,-2.1413118839263916,-1.333137334590294,-2.5262954870807093,6.108953106194296,1.0169017314910889,-5.155175511037008
1708435990.0213678,-2.141258716583252,-1.3331168305924912,-2.5263238588916224,6.108878242760458,1.0169047117233276,-5.1551342646228235
1708435990.023359,-2.1412746906280518,-1.333128811126091,-2.5263074080096644,6.108938205033102,1.0169298648834229,-5.1551799217807215
1708435990.0253563,-2.1412904262542725,-1.3330897402814408,-2.526344601308004,6.1089680073554895,1.0169135332107544,-5.1551552454577845
1708435990.0274181,-2.1412789821624756,-1.3330919605544587,-2.5263119379626673,6.109026062279501,1.0168805122375488,-5.155113641415731
1708435990.029376,-2.141237258911133,-1.3330801886371155,-2.526300017033712,6.10895453670577,1.0169165134429932,-5.155102912579672
1708435990.0313497,-2.1412994861602783,-1.333133028154709,-2.526311699544088,6.108933675080099,1.0168761014938354,-5.155187551175253
1708435990.0333548,-2.1413357257843018,-1.3330887270024796,-2.526348892842428,6.109054553299703,1.0168927907943726,-5.155183140431539
1708435990.035345,-2.1413073539733887,-1.3331373047879715,-2.5263312498675745,6.10899173000411,1.016871690750122,-5.155175511037008
1708435990.0373554,-2.1413161754608154,-1.3331049245646973,-2.526283327733175,6.108963477402487,1.0169135332107544,-5.1551061312304896
1708435990.0393653,-2.1413028240203857,-1.3331125986627121,-2.526308838521139,6.108970987587728,1.0169047117233276,-5.155166808758871
1708435990.0413957,-2.141303777694702,-1.333153874879219,-2.5263238588916224,6.108984339028158,1.0168850421905518,-5.155229155217306
1708435990.0434387,-2.14129376411438,-1.3331614893725892,-2.5262954870807093,6.108994829445638,1.016909122467041,-5.155171219502584
1708435990.0453873,-2.1413402557373047,-1.3330195856145401,-2.5263074080096644,6.109045731812277,1.0168672800064087,-5.155142847691671
1708435990.0473886,-2.1413989067077637,-1.3330887419036408,-2.5263357798205774,6.108999240189352,1.0169017314910889,-5.155175511037008
1708435990.0493703,-2.141328811645508,-1.3331168454936524,-2.5262911955462855,6.108990180283346,1.016909122467041,-5.155168358479635
1708435990.0513506,-2.141319751739502,-1.3331006479314347,-2.526278797780172,6.108996379166403,1.0169061422348022,-5.155183140431539
1708435990.0533485,-2.1413402557373047,-1.3330887419036408,-2.526320759450094,6.108962046891012,1.0169254541397095,-5.155159536992208
1708435990.0553577,-2.141369342803955,-1.3331296902946015,-2.5263150374041956,6.109035241394796,1.0169135332107544,-5.1552080551730555
1708435990.0573628,-2.141315221786499,-1.33311681569133,-2.526320759450094,6.109032261162557,1.0168850421905518,-5.155162517224447
1708435990.059378,-2.141315221786499,-1.3331049245646973,-2.5262866655932825,6.108990180283346,1.0169017314910889,-5.155191842709677
1708435990.061369,-2.1412858963012695,-1.3331210923245926,-2.5263147989856165,6.109018790512838,1.0169298648834229,-5.155224625264303
1708435990.0633607,-2.141339063644409,-1.3331092160991211,-2.526311699544088,6.1090561030204675,1.0168805122375488,-5.155187551175253
1708435990.0653589,-2.141317844390869,-1.3331168454936524,-2.5262821356402796,6.109065043717184,1.0169135332107544,-5.155187551175253
1708435990.0673692,-2.141389846801758,-1.3330520403436203,-2.526266876851217,6.109023320465841,1.016897201538086,-5.1551788488971155
1708435990.0693722,-2.1413018703460693,-1.3331168454936524,-2.526287619267599,6.109047162323751,1.0168883800506592,-5.155211631451742
1708435990.0713496,-2.1413302421569824,-1.3331253838590165,-2.526278797780172,6.109051573067465,1.0169180631637573,-5.1551552454577845
1708435990.0733676,-2.141376256942749,-1.3331006330302735,-2.526325050984518,6.109072434693136,1.0168728828430176,-5.155183140431539
1708435990.075352,-2.1413347721099854,-1.3330844801715394,-2.5262866655932825,6.109011041909017,1.0169061422348022,-5.155146423970358
1708435990.077361,-2.141326665878296,-1.3331211072257538,-2.526287619267599,6.109096634178915,1.0169254541397095,-5.1551494042025965
1708435990.0793533,-2.1413357257843018,-1.3331253838590165,-2.526316229497091,6.109092104225912,1.0168761014938354,-5.155211631451742
1708435990.081357,-2.1413559913635254,-1.333133028154709,-2.526266876851217,6.10902630069808,1.016897201538086,-5.155247036610739
1708435990.0833752,-2.141313314437866,-1.3331244152835389,-2.526278797780172,6.1090876934821985,1.0168850421905518,-5.155142132435934
1708435990.0853524,-2.1413302421569824,-1.3331373196891327,-2.526287857686178,6.10906349399642,1.0169298648834229,-5.155174318944113
1708435990.0873706,-2.141317844390869,-1.3330963861993332,-2.526278797780172,6.1090712426002405,1.0169061422348022,-5.155207220708029
1708435990.0893793,-2.1413064002990723,-1.3331253987601777,-2.5262745062457483,6.109041321068563,1.0169377326965332,-5.155293051396505
1708435990.0913622,-2.141383409500122,-1.3331006628325959,-2.526304308568136,6.10910855510787,1.016897201538086,-5.155239407216207
1708435990.0933833,-2.1413426399230957,-1.3331049394658585,-2.526292149220602,6.109054553299703,1.016859531402588,-5.155218903218405
1708435990.095376,-2.141339063644409,-1.3331373047879715,-2.526287619267599,6.109069812088766,1.016859531402588,-5.1552221218692225
1708435990.0973845,-2.1413302421569824,-1.3331006628325959,-2.526283327733175,6.109045612602987,1.0168850421905518,-5.155266825352804
1708435990.0993528,-2.1413347721099854,-1.3331125241569062,-2.526311699544088,6.109106766968527,1.0169121026992798,-5.155290667210714
1708435990.101383,-2.141339063644409,-1.333141566520073,-2.526292149220602,6.109087574272909,1.0168805122375488,-5.155367676411764
1708435990.103361,-2.1413674354553223,-1.3331168454936524,-2.526316229497091,6.109118926316061,1.016897201538086,-5.155347172413961
1708435990.105392,-2.141383409500122,-1.3331006330302735,-2.5263074080096644,6.109127867012777,1.0169047117233276,-5.155372087155477
1708435990.107373,-2.141322374343872,-1.333064005976059,-2.526300017033712,6.109097707062521,1.0169254541397095,-5.155314509068624
1708435990.1093717,-2.1413302421569824,-1.3331330579570313,-2.526267115269796,6.1091487286384485,1.0168927907943726,-5.1553502718554896
1708435990.1113794,-2.1413559913635254,-1.3331006330302735,-2.526320521031515,6.109130847245016,1.0169628858566284,-5.155370895062582
1708435990.113365,-2.1413674354553223,-1.3331416112235566,-2.5262745062457483,6.109165060311117,1.0168805122375488,-5.155342761670248
1708435990.115364,-2.141387701034546,-1.3331244152835389,-2.52627140680422,6.109163629799642,1.016909122467041,-5.155333940182821
1708435990.1174035,-2.1413967609405518,-1.3331049990705033,-2.526332680379049,6.109135257988729,1.0168850421905518,-5.155337158833639
1708435990.119355,-2.1414082050323486,-1.333064005976059,-2.526344601308004,6.109168040543356,1.0169047117233276,-5.155419770871298
1708435990.121351,-2.1413378715515137,-1.3331211072257538,-2.5262954870807093,6.10920129993514,1.0168927907943726,-5.1553359667407435
1708435990.1233728,-2.141378879547119,-1.333112583761551,-2.5262909571277063,6.109187829285421,1.0168628692626953,-5.155377332364218
1708435990.125378,-2.141374349594116,-1.3331776571324845,-2.526300017033712,6.109163629799642,1.0169377326965332,-5.155393664036886
1708435990.1273854,-2.141378879547119,-1.333121122126915,-2.526300017033712,6.109171378403463,1.0168838500976562,-5.155377213154928
1708435990.1294043,-2.141371965408325,-1.3331244152835389,-2.526344601308004,6.109160887985983,1.0168883800506592,-5.155470673237936
1708435990.131389,-2.1414127349853516,-1.3331339818290253,-2.5262954870807093,6.109213101654806,1.016871690750122,-5.155429426823751
1708435990.133408,-2.1413912773132324,-1.3331776571324845,-2.5262954870807093,6.10916684845046,1.0169377326965332,-5.155428234730856
1708435990.1353655,-2.1413586139678955,-1.3331091862967988,-2.5263400713550013,6.109215962677755,1.016921043395996,-5.1554933230029505
1708435990.137407,-2.141378879547119,-1.3331253838590165,-2.526328150426046,6.1091757891471765,1.016921043395996,-5.155505243931906
1708435990.1393912,-2.1414151191711426,-1.3331700575402756,-2.526300017033712,6.109150159149923,1.0169451236724854,-5.155496422444479
1708435990.1414216,-2.141400098800659,-1.3331614893725892,-2.526344601308004,6.109199631005087,1.016958475112915,-5.155569497738973
1708435990.1434157,-2.1413991451263428,-1.3331244003823777,-2.526328150426046,6.109210121422567,1.0169377326965332,-5.155556384717123
1708435990.1453888,-2.1414151191711426,-1.3331168454936524,-2.5262954870807093,6.109162318497457,1.0169332027435303,-5.155600611363546
1708435990.147412,-2.1414287090301514,-1.3331733059934159,-2.526300017033712,6.109226453095236,1.016940712928772,-5.155604068432943
1708435990.1493886,-2.1413867473602295,-1.3331538152745743,-2.5262866655932825,6.10927294471816,1.016958475112915,-5.155688707028524
1708435990.1513677,-2.1414127349853516,-1.333084450369217,-2.526336971913473,6.109264123230734,1.0168957710266113,-5.155705038701193
1708435990.1534028,-2.1414287090301514,-1.3331244003823777,-2.5263074080096644,6.109226453095236,1.0169614553451538,-5.155777637158529
1708435990.1553764,-2.1413564682006836,-1.3331168454936524,-2.5262745062457483,6.1092145321662805,1.0169451236724854,-5.155731980000631
1708435990.157392,-2.1414036750793457,-1.3331168603948136,-2.526344362889425,6.109253513603964,1.0169692039489746,-5.155763332043783
1708435990.1593733,-2.1414151191711426,-1.3331571233323594,-2.5262699762927454,6.109255063324728,1.016940712928772,-5.155815426503317
1708435990.161365,-2.1413776874542236,-1.3331330579570313,-2.5262954870807093,6.10932086685256,1.0169737339019775,-5.155855838452474
1708435990.1633909,-2.141378879547119,-1.3331287664226075,-2.526316229497091,6.109271514206686,1.0169570446014404,-5.155932490025656
1708435990.165373,-2.1414127349853516,-1.3331373047879715,-2.5262954870807093,6.1092461226280115,1.0169658660888672,-5.155901972447531
1708435990.1673913,-2.1414151191711426,-1.3331657362035294,-2.5263150374041956,6.109260904579916,1.0169976949691772,-5.156004373227255
1708435990.1693585,-2.141453266143799,-1.3331049245646973,-2.5262699762927454,6.1092415926750085,1.0169858932495117,-5.155975047742025
1708435990.1713562,-2.141432046890259,-1.3330877435258408,-2.5263193289386194,6.10928629615859,1.0170140266418457,-5.15599757829775
1708435990.1733851,-2.1413991451263428,-1.3331495535424729,-2.526304308568136,6.109277236252584,1.0169888734817505,-5.156029049550192
1708435990.1753578,-2.1414151191711426,-1.3331287664226075,-2.526311699544088,6.109294044762411,1.0170096158981323,-5.156118337308065
1708435990.1774516,-2.141448736190796,-1.3331452769092103,-2.526328150426046,6.109301554947653,1.0170173645019531,-5.156137530003683
1708435990.179413,-2.141444444656372,-1.3331373196891327,-2.5262985865222376,6.109314787178793,1.017021894454956,-5.1561893860446375
1708435990.1813781,-2.1414151191711426,-1.3331201386502762,-2.5263074080096644,6.109280693321981,1.0169962644577026,-5.156220022832052
1708435990.183412,-2.141439914703369,-1.333182008271553,-2.5263238588916224,6.1093506691749475,1.0169918537139893,-5.156382862721578
1708435990.185352,-2.1414151191711426,-1.3331372898868104,-2.5263312498675745,6.109330880432882,1.0170503854751587,-5.1563772598849695
1708435990.187392,-2.1414716243743896,-1.3331415218165894,-2.5263074080096644,6.10933397987441,1.0170085430145264,-5.15641969839205
1708435990.1893604,-2.1414647102355957,-1.333112583761551,-2.5262940565692347,6.109378921776571,1.0170711278915405,-5.156520668660299
1708435990.19136,-2.141427516937256,-1.3331158769181748,-2.5263074080096644,6.109346139221945,1.017086386680603,-5.156596604977743
1708435990.1933913,-2.141427516937256,-1.3331366640380402,-2.5263236204730433,6.109386312752523,1.017086386680603,-5.156699721013204
1708435990.195365,-2.1414196491241455,-1.3331495535424729,-2.5263028780566614,6.109407532006063,1.0170533657073975,-5.156698528920309
1708435990.1974,-2.1414601802825928,-1.3331039261868973,-2.5263150374041956,6.1093580601509,1.0170488357543945,-5.156850401555197
1708435990.1993897,-2.141455888748169,-1.3331570488265534,-2.5262823740588587,6.109412061959066,1.0170849561691284,-5.156963054333822
1708435990.201373,-2.1414380073547363,-1.3331287664226075,-2.5263224283801478,6.109377372055807,1.0170893669128418,-5.157038156186239
1708435990.2033768,-2.1414310932159424,-1.333176926975586,-2.5263565222369593,6.109360921173849,1.0170774459838867,-5.157117191945211
1708435990.205374,-2.141414165496826,-1.3331366193345566,-2.5263519922839563,6.109398591309347,1.0171092748641968,-5.157254282628195
1708435990.2073808,-2.141444444656372,-1.3331287664226075,-2.5263193289386194,6.109351980477133,1.0171256065368652,-5.1573689619647425
1708435990.2093763,-2.1414053440093994,-1.3331604164889832,-2.5263355414019983,6.10940312126235,1.0171167850494385,-5.157485429440634
1708435990.211363,-2.141493082046509,-1.3331941974214097,-2.5263312498675745,6.109410512238302,1.0171419382095337,-5.1576120297061365
1708435990.21338,-2.141446828842163,-1.3331942123225708,-2.5263312498675745,6.1094268439109705,1.0171300172805786,-5.157706085835592
1708435990.2153797,-2.141467332839966,-1.3331862551024933,-2.5263267199145716,6.1094268439109705,1.0171582698822021,-5.15784198442568
1708435990.2173963,-2.1414921283721924,-1.3331452918103714,-2.5263105074511927,6.1094223139579675,1.0171945095062256,-5.157968584691183
1708435990.219375,-2.141435384750366,-1.3331452769092103,-2.5262985865222376,6.1094446060951135,1.0171616077423096,-5.158119265233175
1708435990.2213736,-2.141479730606079,-1.333161474471428,-2.5263147989856165,6.109430062561788,1.017177939414978,-5.1583126227008265
1708435990.2233686,-2.141475200653076,-1.3331528466990967,-2.5263074080096644,6.109408962517538,1.0172065496444702,-5.1584476868258875
1708435990.2253592,-2.141467332839966,-1.3331366044333954,-2.5263477007495325,6.109462487488546,1.0172187089920044,-5.158586565648214
1708435990.227368,-2.141455888748169,-1.3331604164889832,-2.5263147989856165,6.109483468323507,1.017214298248291,-5.158838693295614
1708435990.229369,-2.1414706707000732,-1.3331571233323594,-2.5263193289386194,6.109437334328451,1.017214298248291,-5.159005467091696
1708435990.2313516,-2.1414663791656494,-1.3331528466990967,-2.5263150374041956,6.109435784607687,1.0172053575515747,-5.159200970326559
1708435990.2333865,-2.141453981399536,-1.333140955572464,-2.5262940565692347,6.109456527024069,1.0172710418701172,-5.1594218651400965
1708435990.2353678,-2.141453981399536,-1.333128036265709,-2.5263312498675745,6.109456527024069,1.0172172784805298,-5.159552756940023
1708435990.23739,-2.1414787769317627,-1.3331812781146546,-2.5263477007495325,6.109539139061727,1.0172127485275269,-5.159724418316976
1708435990.2394218,-2.141446828842163,-1.3331647676280518,-2.5263357798205774,6.109501588135519,1.0172621011734009,-5.159976784382955
1708435990.2414029,-2.141507863998413,-1.3332103502801438,-2.5263357798205774,6.1094597456748865,1.0172754526138306,-5.160146538411276
1708435990.2433963,-2.1414875984191895,-1.333176926975586,-2.526317898427145,6.10948525646285,1.0172290802001953,-5.160307470952169
1708435990.245408,-2.1414706707000732,-1.33320605874572,-2.5264089743243616,6.1095465300376794,1.0172531604766846,-5.160564366971151
1708435990.2473896,-2.1414787769317627,-1.3331647974303742,-2.526383940373556,6.109501588135519,1.0172861814498901,-5.160840217267172
1708435990.2494657,-2.141510486602783,-1.333135725264885,-2.526358668004171,6.109513509064474,1.0172576904296875,-5.161046210919515
1708435990.2514076,-2.141479730606079,-1.333184690480568,-2.5263298193561,6.109562623291769,1.0173355340957642,-5.161336604748861
1708435990.2534041,-2.1414875984191895,-1.3332417470267792,-2.526341978703634,6.109542119293966,1.0172772407531738,-5.16157848039736
1708435990.2554026,-2.1414618492126465,-1.3331604611924668,-2.52637488046755,6.109544741898336,1.017293930053711,-5.1618868748294275
1708435990.257397,-2.1414787769317627,-1.333151937728264,-2.526358668004171,6.109589683800497,1.017293930053711,-5.162123982106344
1708435990.2593822,-2.141469717025757,-1.3332209301045914,-2.526436154042379,6.1095701334770105,1.0172550678253174,-5.162441674862997
1708435990.2613761,-2.1414945125579834,-1.3332203340581437,-2.5263987223254603,6.1095242379005334,1.0172761678695679,-5.16275662580599
1708435990.2633772,-2.1414573192596436,-1.3332408678582688,-2.526419703160421,6.109516846924581,1.0173466205596924,-5.163124505673544
1708435990.265359,-2.1414990425109863,-1.3332408231547852,-2.526423994694845,6.109544741898336,1.0173836946487427,-5.163454357777731
1708435990.2673616,-2.1414618492126465,-1.333281860952713,-2.5264318625079554,6.109586703568258,1.0173163414001465,-5.163788143788473
1708435990.269403,-2.1414706707000732,-1.3332124513438721,-2.5264602343188685,6.109589683800497,1.0173466205596924,-5.1641626993762415
1708435990.2713501,-2.141507863998413,-1.3332407933524628,-2.5264602343188685,6.109573352127828,1.0173540115356445,-5.1645464340793055
1708435990.2733853,-2.1414787769317627,-1.3332732182792206,-2.5264392534839075,6.109544861107626,1.0173510313034058,-5.164833847676412
1708435990.2753768,-2.1414990425109863,-1.3332038086703797,-2.5264437834369105,6.109544861107626,1.0173496007919312,-5.165257517491476
1708435990.277371,-2.1415016651153564,-1.3332896840623398,-2.5264514128314417,6.109486686974325,1.0173466205596924,-5.165679518376486
1708435990.279393,-2.1414742469787598,-1.3332689118436356,-2.5264139811145228,6.109537589340963,1.0173163414001465,-5.166060868893759
1708435990.2813988,-2.1414742469787598,-1.333252729182579,-2.526463333760397,6.109544861107626,1.017358422279358,-5.16646641889681
1708435990.2833784,-2.1414618492126465,-1.3332484525493165,-2.526463333760397,6.109589683800497,1.0173496007919312,-5.166860405598776
1708435990.2853537,-2.1415059566497803,-1.333252729182579,-2.5264959971057337,6.109565603524008,1.017403244972229,-5.167298976575033
1708435990.2873623,-2.1414706707000732,-1.3332365316203614,-2.526438061391012,6.109591114311971,1.0173496007919312,-5.167698446904318
1708435990.289359,-2.1414945125579834,-1.333227978353836,-2.526458803807394,6.1096075651939294,1.0173866748809814,-5.168084923421041
1708435990.291369,-2.1414573192596436,-1.333244190817215,-2.526466433201925,6.109561192780294,1.017382264137268,-5.168530885373251
1708435990.2933536,-2.1414856910705566,-1.3332279932549973,-2.526470963154928,6.109627353935995,1.0173975229263306,-5.168948475514547
1708435990.2953541,-2.1414573192596436,-1.3332689267447968,-2.52647835413088,6.109556662827291,1.0174318552017212,-5.169409100209371
1708435990.2973807,-2.1414787769317627,-1.3332940352014084,-2.526487175618307,6.1095313904579065,1.0173856019973755,-5.169886414204733
1708435990.2993724,-2.1414742469787598,-1.333264635210373,-2.526475254689352,6.109561192780294,1.0174095630645752,-5.170336906109945
1708435990.3013647,-2.1414527893066406,-1.3332768988660355,-2.526499334965841,6.109528767853536,1.0174633264541626,-5.170816842709677
1708435990.3033829,-2.141507863998413,-1.333244190817215,-2.526470963154928,6.109543192177572,1.017421841621399,-5.171360556279318
1708435990.30537,-2.141540765762329,-1.333239809875824,-2.526553217564718,6.109549271851339,1.017466425895691,-5.171840016041891
1708435990.307372,-2.141510486602783,-1.3332484525493165,-2.5265279451953333,6.109574544220724,1.0174412727355957,-5.172350231801168
1708435990.3093524,-2.1414663791656494,-1.3332768988660355,-2.52651554742922,6.109516846924581,1.0174293518066406,-5.1728485266314905
1708435990.311359,-2.1414875984191895,-1.333281160598137,-2.526503864918844,6.10963927486495,1.0174486637115479,-5.173300091420309
1708435990.3133812,-2.141510486602783,-1.3332279932549973,-2.526524607335226,6.109570014267721,1.0174293518066406,-5.173756543789999
1708435990.315351,-2.1415035724639893,-1.3332365316203614,-2.5265517870532435,6.109544861107626,1.0174741744995117,-5.174332443867819
1708435990.3173752,-2.14151930809021,-1.3332646501115342,-2.526515785847799,6.109549271851339,1.017478585243225,-5.174864832554952
1708435990.3193603,-2.1414663791656494,-1.3332768988660355,-2.5265517870532435,6.109498965531149,1.0174819231033325,-5.17543870607485
1708435990.3213701,-2.1414945125579834,-1.3332725328258057,-2.5265637079821985,6.109546649246969,1.0175026655197144,-5.175943199788229
1708435990.3233645,-2.141475200653076,-1.3332639795592804,-2.5265844503985804,6.109525668412008,1.0175474882125854,-5.17647105852236
1708435990.325362,-2.1414663791656494,-1.3332560074380417,-2.5265265146838587,6.109540331154623,1.0175013542175293,-5.1770692507373255
1708435990.3274214,-2.141500949859619,-1.3332963746837159,-2.526566807423727,6.109555470734396,1.0175223350524902,-5.177608791981832
1708435990.3293705,-2.14145827293396,-1.3332930964282532,-2.5265679995166224,6.109459864884176,1.0175628662109375,-5.17818266550173
1708435990.33137,-2.141401767730713,-1.333227978353836,-2.5265756289111536,6.109497177391805,1.0175461769104004,-5.178738896046774
1708435990.3333824,-2.141493082046509,-1.3332844537547608,-2.526620690022604,6.109435784607687,1.0175660848617554,-5.179304544125692
1708435990.335361,-2.141448736190796,-1.333251730804779,-2.526595417653219,6.109430062561788,1.0175780057907104,-5.179896179829733
1708435990.3373826,-2.1414241790771484,-1.3332759749940415,-2.5266223589526575,6.109443533211508,1.0175987482070923,-5.180485312138693
1708435990.3393638,-2.1413776874542236,-1.3332844537547608,-2.526640001927511,6.109394061356344,1.017626166343689,-5.181120459233419
1708435990.3413756,-2.1413378715515137,-1.3333278608373185,-2.5266626516925257,6.109349119454183,1.017626166343689,-5.181830588971273
1708435990.343395,-2.1413559913635254,-1.3333049279502411,-2.5266342798816126,6.109338509827413,1.0176502466201782,-5.182409588490621
1708435990.3453784,-2.1413674354553223,-1.3332844537547608,-2.5266507307635706,6.109305965691366,1.0176459550857544,-5.183025066052572
1708435990.3474243,-2.141339063644409,-1.3332468581250687,-2.5266671816455286,6.109256493836202,1.017703652381897,-5.183674875889913
1708435990.3493686,-2.1413028240203857,-1.3332835298827668,-2.526694361363546,6.109208571701803,1.0176904201507568,-5.184365216885702
1708435990.3513877,-2.1412699222564697,-1.3333483350327988,-2.526768986378805,6.109222042351522,1.017755150794983,-5.1850460211383265
1708435990.3533745,-2.1412642002105713,-1.3333245825818558,-2.5267840067492884,6.109148967057028,1.0177252292633057,-5.185737077389852
1708435990.3553813,-2.1412198543548584,-1.3333526116660614,-2.5267751852618616,6.10916684845046,1.0178033113479614,-5.186383549367086
1708435990.3573616,-2.141249418258667,-1.3333364141038437,-2.5267751852618616,6.10915623882369,1.017798900604248,-5.1870755592929285
1708435990.3593528,-2.1411712169647217,-1.3332779270461579,-2.526832167302267,6.109106766968527,1.0178422927856445,-5.187751356755392
1708435990.3613935,-2.141108989715576,-1.3333397668651124,-2.526844088231222,6.109041201859274,1.0178589820861816,-5.188471738492147
1708435990.3633752,-2.14105486869812,-1.333388702278473,-2.5268636385547083,6.109068023949423,1.0178545713424683,-5.189171258603231
1708435990.3653991,-2.1410725116729736,-1.3334048998406907,-2.5268965403186243,6.108932244568624,1.0178993940353394,-5.189895693455831
1708435990.367357,-2.1410317420959473,-1.333318294291832,-2.526914660130636,6.108906495362081,1.017926812171936,-5.190639678631918
1708435990.3693748,-2.140984058380127,-1.3334373098662873,-2.52690297762026,6.108855950623312,1.017971396446228,-5.191335145627157
1708435990.3713808,-2.1408913135528564,-1.3333919954350968,-2.526975933705465,6.108769047051229,1.0179791450500488,-5.192066971455709
1708435990.3733869,-2.140843391418457,-1.3333962571671982,-2.5270076433764856,6.108699071198263,1.0180153846740723,-5.192780319844381
1708435990.375378,-2.140725612640381,-1.3334361922791977,-2.52698523203005,6.108674871712484,1.018072247505188,-5.193467680607931
1708435990.3773947,-2.1406915187835693,-1.3334647429040452,-2.5270796457873743,6.108603226929464,1.018054485321045,-5.194239799176351
1708435990.379363,-2.1406235694885254,-1.3334885847619553,-2.5271199385272425,6.108494031220236,1.0180962085723877,-5.195061508809225
1708435990.3813639,-2.140530586242676,-1.3334267449430008,-2.5271111170398157,6.108381974488058,1.0181474685668945,-5.195807401333944
1708435990.3833904,-2.1405088901519775,-1.3335047972253342,-2.527151409779684,6.108368384629049,1.018185019493103,-5.196667973195211
1708435990.3853548,-2.140420436859131,-1.3334875863841553,-2.5272041002856653,6.1081862328346155,1.0182207822799683,-5.197377626095907
1708435990.387366,-2.14031720161438,-1.333543823366501,-2.527247492467062,6.1081323502357385,1.018277883529663,-5.198242727910177
1708435990.3893595,-2.140195846557617,-1.3335233491710206,-2.527238432561056,6.108075487404623,1.0182676315307617,-5.199040238057272
1708435990.3913577,-2.1400907039642334,-1.33358849704776,-2.5273447672473353,6.1079081175620935,1.018369436264038,-5.19983679453005
1708435990.3933825,-2.1399998664855957,-1.3335636270097275,-2.527289692555563,6.107805001526632,1.0183924436569214,-5.200671974812643
1708435990.395348,-2.139899969100952,-1.3335550737432023,-2.527379576359884,6.10773931720809,1.0184314250946045,-5.201495830212728
1708435990.3974135,-2.1398587226867676,-1.3336568933776398,-2.527445379887716,6.107565986901083,1.0184885263442993,-5.202269736920492
1708435990.3993475,-2.139700412750244,-1.3336072278073807,-2.5274277369128626,6.107458102494039,1.018560528755188,-5.203097168599264
1708435990.4014068,-2.13962984085083,-1.3336473119309922,-2.527482811604635,6.107350694924154,1.0186623334884644,-5.203860823308126
1708435990.403414,-2.1394619941711426,-1.3336582344821473,-2.5275235811816614,6.1072308895881555,1.0186645984649658,-5.204711858426229
1708435990.4053652,-2.139366388320923,-1.3336866807988663,-2.5276132265674036,6.107103693276205,1.0187366008758545,-5.205478970204489
1708435990.4073832,-2.1392059326171875,-1.3336866807988663,-2.527623716984884,6.10695110538558,1.0188297033309937,-5.206296388302938
1708435990.409374,-2.139091968536377,-1.3337309968522568,-2.5276523272143763,6.10676001289443,1.0188730955123901,-5.2070491949664515
1708435990.4114125,-2.138975143432617,-1.3338113290122529,-2.5277329126941126,6.106628405838766,1.018975019454956,-5.20790416399111
1708435990.4134076,-2.138761520385742,-1.333778904085495,-2.527785603200094,6.106485235482015,1.019092321395874,-5.208740297948019
1708435990.4153607,-2.1386682987213135,-1.333835483794548,-2.527820412312643,6.106317627220907,1.019097089767456,-5.209440294896261
1708435990.4173977,-2.138540744781494,-1.3338669848493119,-2.527856175099508,6.106215822487631,1.0191980600357056,-5.210242334996359
1708435990.4193523,-2.138359546661377,-1.3338299554637452,-2.52789551416506,6.106011378556051,1.019267201423645,-5.211047832165853
1708435990.4213579,-2.138209342956543,-1.3338821691325684,-2.527985159550802,6.10585247257308,1.0193556547164917,-5.211759034787313
1708435990.4233906,-2.1379945278167725,-1.33391489208255,-2.5280242601977747,6.10565065124587,1.0194398164749146,-5.212658468876974
1708435990.42536,-2.137817144393921,-1.3339062494090577,-2.5280588308917444,6.105405795365133,1.0195074081420898,-5.213439408932821
1708435990.4273748,-2.1376333236694336,-1.3339459312013169,-2.528156105672018,6.105204331665792,1.0195945501327515,-5.21422261396517
1708435990.4293778,-2.137416124343872,-1.3339856576970597,-2.5282400290118616,6.104963648110189,1.0197415351867676,-5.215039674435751
1708435990.4313657,-2.137270450592041,-1.3340027195266266,-2.5282955805407923,6.104815590172567,1.0198451280593872,-5.2158806959735315
1708435990.4333813,-2.1370468139648438,-1.3340052229217072,-2.528400484715597,6.104508745461263,1.0199326276779175,-5.216641132031576
1708435990.4353566,-2.1368215084075928,-1.3340580028346558,-2.5284276644336146,6.104359614640035,1.0200735330581665,-5.217519227658407
1708435990.4373887,-2.136615753173828,-1.3340648275664826,-2.5285521189319056,6.10412477233962,1.0201575756072998,-5.218332235013143
1708435990.4393785,-2.1364264488220215,-1.334085540180542,-2.5286408106433313,6.103905308037557,1.020281195640564,-5.219075147305624
1708435990.4414,-2.1361851692199707,-1.334085540180542,-2.52871543565859,6.1036449549491785,1.0203895568847656,-5.219979230557577
1708435990.4434223,-2.1358895301818848,-1.3341334623149415,-2.528799597417013,6.10332082489089,1.0205384492874146,-5.220791522656576
1708435990.4453967,-2.1356287002563477,-1.3342014861157914,-2.528944794331686,6.10311113575057,1.0207078456878662,-5.22159189382662
1708435990.4473655,-2.135324001312256,-1.3341769141009827,-2.5290499369250696,6.102779733925619,1.0208717584609985,-5.222428504620687
1708435990.4493454,-2.135127067565918,-1.334208683376648,-2.5291696230517786,6.102495300560751,1.0210130214691162,-5.223256293927328
1708435990.4513404,-2.13482666015625,-1.3342606288245697,-2.529252354298727,6.102217662125387,1.021140694618225,-5.223996464406149
1708435990.4533584,-2.134542226791382,-1.3343132150224228,-2.5293853918658655,6.101848232537069,1.0212717056274414,-5.224888865147726
1708435990.455347,-2.1342265605926514,-1.3343280416778107,-2.529496733342306,6.101586448937216,1.02144455909729,-5.225724641476766
1708435990.457347,-2.1339728832244873,-1.3343649071506043,-2.5296364466296595,6.101199495583334,1.021638035774231,-5.226550165806906
1708435990.4593444,-2.1336405277252197,-1.33445759237323,-2.5297980944262903,6.100822436600485,1.021781086921692,-5.227467481289999
1708435990.4613733,-2.1333086490631104,-1.334448681478836,-2.5299089590655726,6.10045205333785,1.0219943523406982,-5.22834283510317
1708435990.4633503,-2.132965564727783,-1.3345165860703965,-2.530069176350729,6.100142466812887,1.0221987962722778,-5.229158941899435
1708435990.465375,-2.132617235183716,-1.3345243495753785,-2.530206028615133,6.099728810578146,1.0224062204360962,-5.230057422314779
1708435990.4673657,-2.132291555404663,-1.3346282851747056,-2.5303528944598597,6.099336850434103,1.0226452350616455,-5.230880324040548
1708435990.4693954,-2.1319656372070312,-1.3345868003419419,-2.530529801045553,6.098958956986227,1.022790789604187,-5.231806222592489
1708435990.471349,-2.131584644317627,-1.334707872276642,-2.5306528250323694,6.098541724472799,1.0230042934417725,-5.232634369526998
1708435990.473357,-2.131165027618408,-1.3346832555583497,-2.5308085123645228,6.09812747219161,1.0232534408569336,-5.2335116306888025
1708435990.4753678,-2.1307454109191895,-1.3347596240094681,-2.5309558550464075,6.097610580712118,1.0234700441360474,-5.23442250887026
1708435990.4773662,-2.1302847862243652,-1.3348598641208191,-2.53115684190859,6.097223150521078,1.023685097694397,-5.235235993062155
1708435990.479375,-2.129899024963379,-1.334851400261261,-2.5313246885882776,6.09672366359786,1.0240124464035034,-5.236186806355612
1708435990.481347,-2.129448413848877,-1.3350000244430085,-2.531558338795797,6.096188652306356,1.024247169494629,-5.236976925526754
1708435990.4833603,-2.1289889812469482,-1.3349659752896805,-2.5317745844470423,6.09576569774703,1.024558186531067,-5.237789575253622
1708435990.4853413,-2.1284806728363037,-1.3350470227054139,-2.531917158757345,6.09517668464736,1.0248044729232788,-5.2386667172061365
1708435990.487361,-2.1280181407928467,-1.335082398062088,-2.532153908406393,6.094741928368368,1.025052785873413,-5.2394835392581385
1708435990.4893582,-2.127563238143921,-1.335113839512207,-2.5323620478259485,6.094208228379049,1.0253665447235107,-5.24027127424349
1708435990.4913588,-2.127060651779175,-1.33519400775943,-2.5325780550586146,6.093641507416525,1.0256277322769165,-5.2411208788501185
1708435990.4933653,-2.1265273094177246,-1.3351970624974747,-2.5327850023852747,6.093025672226705,1.0259737968444824,-5.242015544568197
1708435990.4953482,-2.1259536743164062,-1.3352973622134705,-2.5330832640277308,6.092369663506307,1.0262892246246338,-5.242790524159567
1708435990.4973924,-2.1254000663757324,-1.3353937578252335,-2.533285919819967,6.0917240259941,1.0265854597091675,-5.243582312260763
1708435990.499352,-2.124826192855835,-1.335473195915558,-2.5335784594165247,6.091131794243612,1.0269547700881958,-5.244587246571676
1708435990.501345,-2.1242339611053467,-1.3355652701905747,-2.5338316599475306,6.090543019562521,1.0273245573043823,-5.245398823414938
1708435990.503352,-2.123673677444458,-1.3356294196895142,-2.534058157597677,6.08990906456069,1.0275863409042358,-5.246224824582235
1708435990.5053453,-2.1230356693267822,-1.33568927765403,-2.534341637288229,6.08925877788619,1.0278990268707275,-5.247074548398153
1708435990.507372,-2.1224212646484375,-1.3357246232083817,-2.534642998372213,6.08862470367507,1.0283558368682861,-5.247950379048483
1708435990.5093672,-2.1217668056488037,-1.3358040314963837,-2.5349350611316126,6.0878955004508875,1.0287805795669556,-5.248804036770956
1708435990.51136,-2.1210579872131348,-1.335907907491066,-2.5352187792407435,6.087107765465536,1.0291827917099,-5.249706570302145
1708435990.5133574,-2.120392322540283,-1.3360206347754975,-2.5355594793902796,6.086354601174154,1.0296175479888916,-5.250598613415853
1708435990.5153499,-2.1197030544281006,-1.336071954374649,-2.5358381907092493,6.085478293686666,1.029979944229126,-5.2515520493136805
1708435990.5173578,-2.1189093589782715,-1.3361797493747254,-2.536150042210714,6.0847840187843225,1.0304497480392456,-5.252435509358541
1708435990.519368,-2.1182656288146973,-1.3362300258925934,-2.5364533106433313,6.083954322129049,1.0309038162231445,-5.253282133732931
1708435990.5213518,-2.1174776554107666,-1.336358980541565,-2.536811176930563,6.083172189980306,1.0312668085098267,-5.254189197217123
1708435990.5233777,-2.1167445182800293,-1.3363735687783738,-2.5371275583850306,6.082295167237081,1.0317069292068481,-5.255085531865255
1708435990.5253615,-2.11604905128479,-1.336497501736023,-2.537445847188131,6.081479656487264,1.03217613697052,-5.255921785031454
1708435990.527387,-2.1152117252349854,-1.3365651232055207,-2.537823502217428,6.080661046295919,1.0326669216156006,-5.256740395222799
1708435990.529384,-2.1144661903381348,-1.3367179197124024,-2.5381904284106653,6.079753982811727,1.0331721305847168,-5.257691804562704
1708435990.5314176,-2.1136646270751953,-1.3367767196944733,-2.5385189692126673,6.078925478249349,1.0336041450500488,-5.258603397999899
1708435990.5333786,-2.1128227710723877,-1.3369253289750596,-2.5388577620135706,6.0780690787132166,1.0341378450393677,-5.259621802960531
1708435990.5353749,-2.1119420528411865,-1.337032825951912,-2.539267603551046,6.07715533950881,1.0346795320510864,-5.260475937520162
1708435990.5374062,-2.111084222793579,-1.337091864352562,-2.539617125188009,6.076145279198446,1.0351883172988892,-5.261391822491781
1708435990.5393577,-2.1102142333984375,-1.33721578240905,-2.540051047001974,6.075205552368917,1.0357706546783447,-5.262348953877584
1708435990.5414033,-2.109278678894043,-1.337335155611374,-2.5404627958880823,6.074157345085897,1.036347508430481,-5.263350788746969
1708435990.5434136,-2.1083569526672363,-1.3374229234508057,-2.5409041086779993,6.073231804161825,1.0368938446044922,-5.2642709652530115
1708435990.5454204,-2.1074016094207764,-1.3375988465598603,-2.5412452856646937,6.072178470879354,1.037471055984497,-5.265266720448629
1708435990.5473819,-2.1065099239349365,-1.3376863312772294,-2.5417097250567835,6.071191417961874,1.0380734205245972,-5.266189281140463
1708435990.5493765,-2.1054911613464355,-1.3378176403096695,-2.542178217564718,6.07009910324172,1.0386449098587036,-5.267196718846456
1708435990.5513456,-2.10445237159729,-1.3379050952247162,-2.5426140467273157,6.0690170405204675,1.0392614603042603,-5.268155757580892
1708435990.5533748,-2.103426933288574,-1.337999702697136,-2.543144766484396,6.067868578224935,1.0399084091186523,-5.269074026738302
1708435990.555351,-2.1024105548858643,-1.33812469363723,-2.5435171763049524,6.066825973778524,1.040534257888794,-5.270045582448141
1708435990.5573864,-2.10140061378479,-1.3383206290057679,-2.5440223852740687,6.0656378147895715,1.0411635637283325,-5.270961944256918
1708435990.5593414,-2.100292444229126,-1.3383837205222626,-2.5445478598224085,6.0645930645759485,1.0418250560760498,-5.271921817456381
1708435990.5613785,-2.099234104156494,-1.3385420602611084,-2.544990841542379,6.063436615258016,1.0424654483795166,-5.272827092801229
1708435990.5633533,-2.0981857776641846,-1.3386997443488617,-2.545506779347555,6.062371241837301,1.043171763420105,-5.273743454610006
1708435990.565362,-2.097062826156616,-1.338830516939499,-2.545997206364767,6.061130869179525,1.0438040494918823,-5.2746209541903895
1708435990.567374,-2.0959396362304688,-1.3389175248197098,-2.5465267340289515,6.059972274094381,1.0445464849472046,-5.275634233151571
1708435990.5693495,-2.0947329998016357,-1.3390933138183136,-2.5471277872668665,6.058784234314718,1.0452648401260376,-5.276640597973959
1708435990.5713756,-2.093580722808838,-1.3392501783422013,-2.547642771397726,6.057441818505087,1.0460155010223389,-5.277638975773947
1708435990.5733972,-2.0923919677734375,-1.3393575710109253,-2.5482028166400355,6.056218611985006,1.0468138456344604,-5.278606239949362
1708435990.5753472,-2.091111660003662,-1.3394794774106522,-2.5488536993609827,6.054941642075338,1.0475093126296997,-5.279607597981588
1708435990.5773654,-2.0898900032043457,-1.3397008639625092,-2.549403969441549,6.05356656292037,1.0483194589614868,-5.280568663273947
1708435990.5793593,-2.0886733531951904,-1.3398359727910538,-2.5499795118915003,6.0523156998451135,1.049129605293274,-5.281572286282675
1708435990.5813472,-2.0874409675598145,-1.3399955195239563,-2.550530020390646,6.050882565766134,1.0498037338256836,-5.282556239758627
1708435990.5833538,-2.0862085819244385,-1.340122790341713,-2.551131788884298,6.049568044930258,1.0504977703094482,-5.283596460019247
1708435990.585341,-2.0848658084869385,-1.340234027510025,-2.5517519156085413,6.0481088040168665,1.0512237548828125,-5.284554783497946
1708435990.587362,-2.083557367324829,-1.3404132735780259,-2.5523625055896204,6.046776044159689,1.052038311958313,-5.285642270241873
1708435990.5893598,-2.082223653793335,-1.340601311331131,-2.553061548863546,6.045352446823873,1.0529381036758423,-5.2866366545306605
1708435990.5913632,-2.0808215141296387,-1.3407850873521348,-2.5536871592151087,6.0438809273536584,1.0539062023162842,-5.287639860306875
1708435990.5933642,-2.0794646739959717,-1.3409196746400376,-2.554399553929464,6.042431819229879,1.05473792552948,-5.288719121609823
1708435990.5953467,-2.078057050704956,-1.3411107969335099,-2.555063549672262,6.040964829712667,1.0556360483169556,-5.289801661168234
1708435990.597345,-2.0766611099243164,-1.3412699413350602,-2.5556817690478724,6.03948341587142,1.056492805480957,-5.290871206914083
1708435990.599348,-2.0752930641174316,-1.3414859783700486,-2.5563536326037806,6.037995207100668,1.057403326034546,-5.291982237492697
1708435990.6014895,-2.073777675628662,-1.3416925829700013,-2.5571075121508997,6.036457764893331,1.058346152305603,-5.29307854572405
1708435990.6033478,-2.0723209381103516,-1.3418806207231064,-2.5577858130084437,6.034941422730245,1.0592501163482666,-5.294152502213613
1708435990.6057796,-2.0708088874816895,-1.34208798528228,-2.5584803263293665,6.033359873085775,1.0602585077285767,-5.295295540486471
1708435990.6073828,-2.0693178176879883,-1.342308671479561,-2.5592008272754114,6.031818616181173,1.0612125396728516,-5.296444539223806
1708435990.6093628,-2.067814826965332,-1.3424871426871796,-2.5599446932422083,6.0302127478416345,1.0621823072433472,-5.297473017369406
1708435990.6113956,-2.0662930011749268,-1.3427069050124665,-2.560693089162008,6.028599250107565,1.0631604194641113,-5.29864621559252
1708435990.6133926,-2.0647194385528564,-1.3428972375443955,-2.5614565054522913,6.0270153162773035,1.064133644104004,-5.2997473518001
1708435990.61537,-2.063065528869629,-1.3431245547584076,-2.562199656163351,6.0253417370613,1.0651066303253174,-5.300842765961782
1708435990.6173522,-2.061439275741577,-1.343364269738533,-2.5629926363574427,6.023676502495565,1.0661094188690186,-5.301936928425924
1708435990.6194036,-2.059835433959961,-1.3435878169587632,-2.563751761113302,6.021996485977926,1.0670936107635498,-5.302981559430258
1708435990.6213632,-2.0581886768341064,-1.3438150894692917,-2.5645061174975794,6.0203131316001794,1.0681884288787842,-5.304140929375784
1708435990.6233733,-2.056565284729004,-1.3439883154681702,-2.5653727690326136,6.018521415978231,1.069238543510437,-5.305247966443197
1708435990.6253507,-2.0548501014709473,-1.3442241859487076,-2.566122357045309,6.016723859101095,1.0702980756759644,-5.306331578885214
1708435990.6273663,-2.0531275272369385,-1.3444557201913376,-2.56703764597048,6.014948713570394,1.0714116096496582,-5.307483200226919
1708435990.629368,-2.0514307022094727,-1.3446709674647828,-2.5677900950061243,6.013245332032003,1.0725926160812378,-5.308620933686392
1708435990.6313548,-2.0497422218322754,-1.3449502450278779,-2.568597380314962,6.011434185295858,1.0737237930297852,-5.309758905564443
1708435990.6333683,-2.0479443073272705,-1.3451503080180665,-2.5695493857013147,6.00964783409194,1.0747958421707153,-5.310892705117361
1708435990.635364,-2.046182155609131,-1.3454121363214036,-2.570387903844015,6.00783537605361,1.0758895874023438,-5.31204200187792
1708435990.6373818,-2.0444083213806152,-1.3456111264279862,-2.5712154547320765,6.005945312767782,1.0769476890563965,-5.313250307236807
1708435990.6393661,-2.042548418045044,-1.3459055435708542,-2.572066847478048,6.00408040264205,1.0781031847000122,-5.314480427895681
1708435990.6413507,-2.0406904220581055,-1.3461252462914963,-2.5729671160327356,6.00217221954421,1.0792124271392822,-5.31562585035433
1708435990.6433697,-2.038872718811035,-1.3464255642941971,-2.573887650166647,6.000239240914144,1.080278992652893,-5.316746417676107
1708435990.6453726,-2.0370476245880127,-1.3467134100249787,-2.574737612401144,5.998329269676962,1.0814778804779053,-5.317979399357931
1708435990.647362,-2.0350992679595947,-1.346935124402382,-2.575671974812643,5.996430623322286,1.0825835466384888,-5.319221381341116
1708435990.6493616,-2.033247232437134,-1.3472068023732682,-2.5765538851367396,5.994519579201498,1.0837085247039795,-5.320419553910391
1708435990.651362,-2.03131365776062,-1.3475103390267869,-2.577515188847677,5.99248634555892,1.084877610206604,-5.321692113076345
1708435990.653389,-2.029351234436035,-1.3478016418269654,-2.5783866087542933,5.990481364517965,1.086076259613037,-5.322891716157095
1708435990.6553726,-2.027430534362793,-1.3480566901019593,-2.579416577016012,5.988559949188986,1.0872974395751953,-5.324223999177114
1708435990.6574144,-2.0255157947540283,-1.3483309906772156,-2.580355230961935,5.986502873688497,1.0884970426559448,-5.325427476559774
1708435990.659358,-2.023491621017456,-1.3486506950906296,-2.581355158482687,5.984438526421346,1.0897879600524902,-5.326768640671865
1708435990.661369,-2.021432876586914,-1.3489612203887482,-2.582301918660299,5.9823540327842615,1.0910210609436035,-5.328117374573843
1708435990.663403,-2.0194687843322754,-1.3493221712163468,-2.5832441488849085,5.980302321701803,1.0922532081604004,-5.3293572703944605
1708435990.6653597,-2.017374038696289,-1.349542037849762,-2.584271494542257,5.978188383370199,1.0935475826263428,-5.330619160329
1708435990.6673934,-2.015317440032959,-1.34988226116214,-2.5852578322040003,5.976061212807455,1.0947766304016113,-5.331895474587576
1708435990.66936,-2.0131802558898926,-1.3502124857953568,-2.586259905491964,5.97396086433486,1.0960242748260498,-5.33311111131777
1708435990.671374,-2.0111587047576904,-1.3505441111377259,-2.58730394044985,5.971882688790121,1.097338080406189,-5.334393624459402
1708435990.6733932,-2.0089855194091797,-1.3508788508227845,-2.588330094014303,5.9697550413902185,1.0985503196716309,-5.335601214562551
1708435990.6753871,-2.0068235397338867,-1.3512129348567505,-2.5893450419055384,5.967643606453695,1.0997743606567383,-5.336862925683157
1708435990.6773887,-2.0047035217285156,-1.3516084265759964,-2.5904138723956507,5.965438353806295,1.1011464595794678,-5.338145319615499
1708435990.6793814,-2.0024805068969727,-1.3520055425218125,-2.59143311182131,5.963366615563192,1.1024267673492432,-5.3393694202052515
1708435990.6813722,-2.000312089920044,-1.3522852671197434,-2.5925121943103235,5.96121226528243,1.103721022605896,-5.340682868157522
1708435990.6833885,-1.9981017112731934,-1.3526727122119446,-2.593607727681295,5.958932387619772,1.104956030845642,-5.3419756929027
1708435990.6853728,-1.9958693981170654,-1.3529781562140961,-2.594625775014059,5.956628548889913,1.1062947511672974,-5.343313995991842
1708435990.6873972,-1.9936310052871704,-1.3533381086638947,-2.5956838766681116,5.954413282662191,1.1075559854507446,-5.34458572069277
1708435990.6893659,-1.9913766384124756,-1.3537648034146805,-2.5967419783221644,5.95218704917983,1.1088378429412842,-5.345820252095358
1708435990.6913881,-1.9892652034759521,-1.354088009600975,-2.597825352345602,5.950111257820883,1.1100486516952515,-5.3471285740481775
1708435990.6934175,-1.9870519638061523,-1.354486660366394,-2.598867718373434,5.947917568474569,1.1113300323486328,-5.348307971154348
1708435990.695388,-1.9848244190216064,-1.3548336786082764,-2.599903170262472,5.945767032891073,1.1125056743621826,-5.349626068268911
1708435990.697416,-1.9826040267944336,-1.3552403312972565,-2.6010096708880823,5.943572151451864,1.1137025356292725,-5.350919846688406
1708435990.6993866,-1.9803838729858398,-1.35553032279525,-2.6020148436175745,5.941340553551473,1.1150388717651367,-5.352204445992605
1708435990.70138,-1.9781807661056519,-1.3559216868928452,-2.60304838815798,5.939168679505148,1.1163851022720337,-5.353480819855825
1708435990.7034209,-1.9760171175003052,-1.3562922489694138,-2.6041649023639124,5.936977493553915,1.1177271604537964,-5.354862872754232
1708435990.7053766,-1.9737892150878906,-1.3567397606423874,-2.605170790349142,5.934871184616842,1.1190496683120728,-5.356152180825369
1708435990.7073982,-1.9716345071792603,-1.3570651722005387,-2.6062102953540247,5.932636606484213,1.1203023195266724,-5.35745889345278
1708435990.709376,-1.9694627523422241,-1.3574229043773194,-2.607170883809225,5.930493581085958,1.121629238128662,-5.358816746865408
1708435990.71138,-1.9672290086746216,-1.3577573609403153,-2.608257834111349,5.928206193238058,1.1229723691940308,-5.360080603753225
1708435990.7134159,-1.9650555849075317,-1.358185814028122,-2.6092920939074915,5.926011192589559,1.1242674589157104,-5.361399714146749
1708435990.7153764,-1.9628245830535889,-1.3584913176349183,-2.610312048588888,5.923836219101705,1.1255407333374023,-5.362646345292227
1708435990.7174041,-1.9606642723083496,-1.3589551758817215,-2.6113699118243616,5.921634065895834,1.1268571615219116,-5.3638991753207605
1708435990.7193885,-1.9584580659866333,-1.3593457502177735,-2.6123839060412806,5.919472443848409,1.1281826496124268,-5.3651315609561365
1708435990.7213666,-1.9563078880310059,-1.3597489458373566,-2.6134379545794886,5.9172472832496545,1.1295007467269897,-5.366369668637411
1708435990.7233799,-1.9540742635726929,-1.3601358991912385,-2.6144729296313685,5.915047037392416,1.1307603120803833,-5.367685381566183
1708435990.725357,-1.9519016742706299,-1.3604400616935273,-2.615514103566305,5.912851917534628,1.1319711208343506,-5.36884040037264
1708435990.727389,-1.9497463703155518,-1.3608848464540024,-2.616638247166769,5.910688864975729,1.1332534551620483,-5.370008114968435
