Eg3-git/Classifiers/Data Collection/u3/u3www2_ur3e_joint_states.csv
time,elbow_joint,shoulder_lift_joint,shoulder_pan_joint,wrist_1_joint,wrist_2_joint,wrist_3_joint
1708435952.463146,-2.140704870223999,-1.3329084825566788,-2.526250425969259,6.107488381653585,1.0168684720993042,-5.465390984212057
1708435952.4651499,-2.140672445297241,-1.332946093087532,-2.5262699762927454,6.107493626862325,1.0168814659118652,-5.46541148820986
1708435952.467141,-2.1407580375671387,-1.3329622757485886,-2.526316229497091,6.107459890633383,1.0168566703796387,-5.465415064488546
1708435952.4691312,-2.1406590938568115,-1.332925633793213,-2.526300017033712,6.107455599098959,1.0168696641921997,-5.465402845536367
1708435952.4711382,-2.140700578689575,-1.3329289865544816,-2.526275936757223,6.107548939972677,1.0168566703796387,-5.4653823415385645
1708435952.4731784,-2.1407296657562256,-1.3328966063312073,-2.526262346898214,6.107508885651388,1.0168205499649048,-5.465373818074362
1708435952.4752035,-2.1406936645507812,-1.3329058152488251,-2.526304546986715,6.107492673188009,1.0168695449829102,-5.465390984212057
1708435952.477157,-2.1407296657562256,-1.3329137128642579,-2.5262625853167933,6.10750030258254,1.0168577432632446,-5.465398554001943
1708435952.4791348,-2.1407253742218018,-1.3329580140164872,-2.52627140680422,6.107517707138815,1.0168118476867676,-5.465386633072988
1708435952.4811494,-2.140720844268799,-1.3329051446965714,-2.526238505040304,6.107475387841024,1.0168577432632446,-5.4653499762164515
1708435952.4831297,-2.1407623291015625,-1.332925633793213,-2.5263012091266077,6.107471811562338,1.0168814659118652,-5.4654279986964625
1708435952.4851096,-2.140704870223999,-1.3329137128642579,-2.5262954870807093,6.107520806580343,1.0168328285217285,-5.465435568486349
1708435952.4871542,-2.140712022781372,-1.3329375696233292,-2.526259247456686,6.107525217324056,1.0168814659118652,-5.465423707162039
1708435952.4891083,-2.1407535076141357,-1.332949475651123,-2.52627140680422,6.107516515045919,1.0168415307998657,-5.465395275746481
1708435952.4911108,-2.140716314315796,-1.3329299253276368,-2.5262954870807093,6.107497083931722,1.0168609619140625,-5.4654399196254175
1708435952.4931097,-2.1407277584075928,-1.332892284994461,-2.526238505040304,6.107504594116964,1.0168205499649048,-5.465390984212057
1708435952.495121,-2.1407535076141357,-1.3329299253276368,-2.52627140680422,6.107479679375448,1.0168205499649048,-5.465444211159841
1708435952.497157,-2.140716314315796,-1.3329702627709885,-2.526254717503683,6.10752950885848,1.0167791843414307,-5.465415064488546
1708435952.499154,-2.140716314315796,-1.3329622757485886,-2.526296679173605,6.1074761030967615,1.0168371200561523,-5.465402845536367
1708435952.5011525,-2.140777587890625,-1.3329332929900666,-2.526275936757223,6.10750030258254,1.0168293714523315,-5.465456132088796
1708435952.5031438,-2.1407525539398193,-1.3329418164542695,-2.526245896016256,6.107504594116964,1.0168415307998657,-5.465448502694265
1708435952.5051322,-2.140768527984619,-1.3328682047179718,-2.5262308756457728,6.1075371382530115,1.0168415307998657,-5.465378050004141
1708435952.5071566,-2.1407535076141357,-1.3329213720611115,-2.526266876851217,6.107520806580343,1.016845941543579,-5.46541148820986
1708435952.5092053,-2.140749216079712,-1.332937554722168,-2.526210133229391,6.107541429787435,1.016816258430481,-5.465378050004141
1708435952.5111308,-2.1406960487365723,-1.3329051744988938,-2.52622634569277,6.107520806580343,1.0168533325195312,-5.465390984212057
1708435952.5131824,-2.140700578689575,-1.3329127442887803,-2.526287857686178,6.107512223511495,1.0168249607086182,-5.465390984212057
1708435952.5151253,-2.140782117843628,-1.3329537373832245,-2.526254717503683,6.107525217324056,1.0167800188064575,-5.465426985417501
1708435952.517145,-2.140712022781372,-1.3329418164542695,-2.526238505040304,6.107540356903829,1.0167996883392334,-5.465423707162039
1708435952.5191293,-2.140744686126709,-1.332888664012291,-2.52622634569277,6.107532727509298,1.0168205499649048,-5.46541935602297
1708435952.521131,-2.140782117843628,-1.3329504442266007,-2.526242796574728,6.107525217324056,1.016812801361084,-5.465467993413107
1708435952.5231426,-2.140773057937622,-1.332937554722168,-2.5262518564807337,6.107451188355245,1.016862154006958,-5.465456132088796
1708435952.525132,-2.1407322883605957,-1.3328965616277237,-2.526242796574728,6.107540356903829,1.016812801361084,-5.465451780949728
1708435952.5271285,-2.140744686126709,-1.3329051744988938,-2.526259247456686,6.1074710963066,1.0168328285217285,-5.465444211159841
1708435952.5291445,-2.140768527984619,-1.332950474028923,-2.5262308756457728,6.1075771925743005,1.0168205499649048,-5.46541935602297
1708435952.5311227,-2.140773057937622,-1.332937554722168,-2.5262144247638147,6.107528435974874,1.0168205499649048,-5.465435568486349
1708435952.5331423,-2.1407480239868164,-1.332925633793213,-2.5261901060687464,6.107525217324056,1.0168293714523315,-5.465426985417501
1708435952.535157,-2.1407570838928223,-1.332922340636589,-2.5262563864337366,6.107503521233358,1.0168205499649048,-5.465378050004141
1708435952.537155,-2.1407535076141357,-1.3329137128642579,-2.5262487570392054,6.1074631092842,1.0167953968048096,-5.4653823415385645
1708435952.5391583,-2.140723466873169,-1.332925633793213,-2.526170794163839,6.107557642250814,1.0168249607086182,-5.465463701878683
1708435952.5411565,-2.1407899856567383,-1.3329213720611115,-2.5261827150927942,6.107491600304403,1.0167996883392334,-5.46544319788088
1708435952.5431335,-2.140744686126709,-1.3329504442266007,-2.526187245045797,6.1074631092842,1.016812801361084,-5.465451721345083
1708435952.545159,-2.140768527984619,-1.3329051744988938,-2.5261665026294153,6.107495891838827,1.0168293714523315,-5.465435508881704
1708435952.5471282,-2.1408112049102783,-1.3329385232976456,-2.526187245045797,6.10752414444045,1.0168328285217285,-5.465398554001943
1708435952.5491614,-2.140735626220703,-1.3329213720611115,-2.526142660771505,6.107528435974874,1.0168205499649048,-5.465463642274038
1708435952.5511303,-2.1407480239868164,-1.3329342615655442,-2.526196066533224,6.107458817749777,1.0168249607086182,-5.465407196675436
1708435952.5531712,-2.140735626220703,-1.3329127442887803,-2.526212517415182,6.107532727509298,1.0168293714523315,-5.46541935602297
1708435952.5551708,-2.1407809257507324,-1.332937554722168,-2.5261455217944544,6.10750030258254,1.0168739557266235,-5.465447549019949
1708435952.5571623,-2.1407525539398193,-1.332986445432045,-2.5261216799365442,6.107495891838827,1.0168577432632446,-5.465472344552175
1708435952.559112,-2.1407570838928223,-1.3329537373832245,-2.526203695927755,6.107544648438253,1.016812801361084,-5.465438906346456
1708435952.5611324,-2.140773057937622,-1.3329702627709885,-2.526179854069845,6.107544648438253,1.016845941543579,-5.465463582669393
1708435952.5631275,-2.1407525539398193,-1.3329015535167237,-2.526175324116842,6.107483970909872,1.016812801361084,-5.465463642274038
1708435952.565167,-2.140773057937622,-1.3329504442266007,-2.526158873234884,6.107544648438253,1.016862154006958,-5.465394322072164
1708435952.5671327,-2.1407763957977295,-1.3329298955253144,-2.526175324116842,6.10752414444045,1.0168739557266235,-5.465435568486349
1708435952.569123,-2.1407310962677,-1.332946093087532,-2.526170794163839,6.107512223511495,1.0168415307998657,-5.465415064488546
1708435952.571128,-2.140761375427246,-1.3329787862351914,-2.5261827150927942,6.1074960110481165,1.0168170928955078,-5.465455118809835
1708435952.573151,-2.1407523155212402,-1.33297452450309,-2.5261545817004603,6.107532727509298,1.0168249607086182,-5.465406541024343
1708435952.5752048,-2.1407551765441895,-1.3329702627709885,-2.52620512643923,6.1075490591819666,1.0168039798736572,-5.465463701878683
1708435952.5772917,-2.1407525539398193,-1.3329298955253144,-2.526154343281881,6.10752414444045,1.0168249607086182,-5.465484086667196
1708435952.579162,-2.140777587890625,-1.3329622757485886,-2.5261665026294153,6.1074960110481165,1.0168293714523315,-5.465459410344259
1708435952.5811455,-2.1408112049102783,-1.3329213720611115,-2.526229206715719,6.107528435974874,1.016862154006958,-5.465475622807638
1708435952.5831501,-2.1408157348632812,-1.3329451245120545,-2.526187245045797,6.107519733696737,1.0168328285217285,-5.465426985417501
1708435952.5851426,-2.1407268047332764,-1.3329461079886933,-2.526170794163839,6.107556569367208,1.0168039798736572,-5.465475622807638
1708435952.5871572,-2.1407551765441895,-1.3329256039908906,-2.526170794163839,6.107519733696737,1.0168533325195312,-5.4654399196254175
1708435952.5891333,-2.140735626220703,-1.332957999115326,-2.52616793314089,6.107503521233358,1.0168293714523315,-5.465479854737417
1708435952.5911205,-2.1407523155212402,-1.3329787862351914,-2.526196066533224,6.107519733696737,1.016878366470337,-5.465503696595327
1708435952.5931768,-2.1407809257507324,-1.3329332929900666,-2.526163403187887,6.107467400818624,1.0168285369873047,-5.465475622807638
1708435952.5951102,-2.1407434940338135,-1.3329170954278489,-2.5261827150927942,6.107508885651388,1.016850233078003,-5.465487543736593
1708435952.5971458,-2.140773057937622,-1.332912803893425,-2.5261781851397913,6.107488381653585,1.0168415307998657,-5.465463701878683
1708435952.5991154,-2.1407310962677,-1.3329622757485886,-2.5261500517474573,6.107556569367208,1.0168249607086182,-5.465426985417501
1708435952.601116,-2.140768527984619,-1.3329298955253144,-2.526158873234884,6.107512223511495,1.0168083906173706,-5.465455118809835
1708435952.6031375,-2.140768527984619,-1.3329537373832245,-2.526203695927755,6.107520806580343,1.0168328285217285,-5.465438906346456
1708435952.605115,-2.1407809257507324,-1.332888664012291,-2.526170794163839,6.107540356903829,1.0168371200561523,-5.465483252202169
1708435952.6071515,-2.140763998031616,-1.3328929257443924,-2.5261619726764124,6.107556569367208,1.0168695449829102,-5.465471331273214
1708435952.6091278,-2.1407597064971924,-1.332949475651123,-2.526196066533224,6.107556569367208,1.0168249607086182,-5.465478960667745
1708435952.6111143,-2.1407434940338135,-1.332957999115326,-2.5261991659747522,6.107544648438253,1.0168577432632446,-5.465478960667745
1708435952.613158,-2.1407978534698486,-1.332925633793213,-2.5261662642108362,6.107495891838827,1.0168415307998657,-5.465471331273214
1708435952.6151094,-2.1407480239868164,-1.3329213720611115,-2.526187245045797,6.107528435974874,1.0168533325195312,-5.465458456669943
1708435952.617153,-2.1407978534698486,-1.3329622757485886,-2.5261901060687464,6.107479679375448,1.0168533325195312,-5.465478960667745
1708435952.6191247,-2.140827178955078,-1.3329256486943741,-2.5261619726764124,6.1075079319770715,1.0168415307998657,-5.465495173131124
1708435952.621111,-2.1407809257507324,-1.3329137128642579,-2.5262158552752894,6.107528435974874,1.0168490409851074,-5.465478960667745
1708435952.6231496,-2.1407434940338135,-1.3329451245120545,-2.526187245045797,6.107573854714193,1.0168371200561523,-5.465486530457632
1708435952.6251144,-2.1407854557037354,-1.3329622757485886,-2.5262158552752894,6.107532965927877,1.0168533325195312,-5.465527896081106
1708435952.6271856,-2.140735626220703,-1.3328800064376374,-2.526233498250143,6.107504594116964,1.0168522596359253,-5.465503040944235
1708435952.629113,-2.1407854557037354,-1.3329015535167237,-2.526229206715719,6.107531654625692,1.0168447494506836,-5.4655354658709925
1708435952.6311388,-2.1407597064971924,-1.3329787862351914,-2.526170794163839,6.1074668047721765,1.0168285369873047,-5.465519193802969
1708435952.6331773,-2.1407392024993896,-1.3329256486943741,-2.526203695927755,6.10750030258254,1.0168609619140625,-5.465518359337942
1708435952.635121,-2.1407268047332764,-1.3329418164542695,-2.5262158552752894,6.107585775643148,1.0168371200561523,-5.4655388037311
1708435952.6371408,-2.14070987701416,-1.3329659861377259,-2.5261784235583704,6.107484090119161,1.01680326461792,-5.465555314217703
1708435952.639116,-2.1407809257507324,-1.3328923296979447,-2.5261784235583704,6.107516515045919,1.0168285369873047,-5.465579573308126
1708435952.6411297,-2.1407310962677,-1.3329709035209198,-2.526187245045797,6.107495891838827,1.0168652534484863,-5.465550963078634
1708435952.6431327,-2.140773057937622,-1.3329094511321564,-2.5261991659747522,6.1075490591819666,1.0168490409851074,-5.465559486542837
1708435952.6451292,-2.1407525539398193,-1.3329009425691147,-2.5262280146228235,6.10747920253829,1.0168652534484863,-5.465566817914144
1708435952.647135,-2.1407523155212402,-1.3329461079886933,-2.5261991659747522,6.107501375466146,1.0168566703796387,-5.465510729943411
1708435952.6491344,-2.1408112049102783,-1.3329418760589142,-2.526187245045797,6.107443558960714,1.0168198347091675,-5.465574566517965
1708435952.6511476,-2.1407570838928223,-1.3329787862351914,-2.526175324116842,6.107491719513693,1.016885757446289,-5.46556264558901
1708435952.6531723,-2.1407854557037354,-1.3329084825566788,-2.526187245045797,6.107525217324056,1.0168198347091675,-5.4655261675464075
1708435952.6551223,-2.1407809257507324,-1.3328809601119538,-2.5261784235583704,6.107519852906027,1.0168850421905518,-5.4655388037311
1708435952.657132,-2.1407854557037354,-1.3328844022801896,-2.5261574427234095,6.107504594116964,1.016885757446289,-5.465566817914144
1708435952.65912,-2.1407570838928223,-1.3328511875918885,-2.5261827150927942,6.107534515648641,1.0168814659118652,-5.465575281773702
1708435952.6611247,-2.140768527984619,-1.3329213720611115,-2.5261827150927942,6.107483970909872,1.0168198347091675,-5.465550963078634
1708435952.6631627,-2.1407597064971924,-1.3329298955253144,-2.5261781851397913,6.10750030258254,1.0168850421905518,-5.4655467907535
1708435952.6651192,-2.1407978534698486,-1.3329580140164872,-2.526187245045797,6.107516515045919,1.0168695449829102,-5.465579573308126
1708435952.66714,-2.140761375427246,-1.3329418313554307,-2.526220146809713,6.107484805374899,1.0168814659118652,-5.4655467907535
1708435952.6691356,-2.1407570838928223,-1.3329213720611115,-2.5261946360217493,6.1075219986732385,1.0168490409851074,-5.465526107941763
1708435952.6711593,-2.140740156173706,-1.3329333078912278,-2.5262532869922083,6.107550012856283,1.0168447494506836,-5.465538744126455
1708435952.6731346,-2.1407899856567383,-1.3328965616277237,-2.5262113253222864,6.1075782654579065,1.016847848892212,-5.465530399476187
1708435952.6751852,-2.1408112049102783,-1.3329822582057496,-2.526220146809713,6.107421862870016,1.0168360471725464,-5.4655388037311
1708435952.6771955,-2.140763998031616,-1.3329171699336548,-2.5262025038348597,6.10746859291152,1.0168609619140625,-5.465571109448568
1708435952.679124,-2.140794277191162,-1.3329180789044877,-2.5262368361102503,6.1075079319770715,1.0168850421905518,-5.4655667583095
1708435952.6811378,-2.140718698501587,-1.332897127871849,-2.5262325445758265,6.10743938663558,1.0169222354888916,-5.465571049843923
1708435952.68313,-2.1407978534698486,-1.332925633793213,-2.526285950337545,6.107480513840475,1.0168728828430176,-5.465530399476187
1708435952.6851113,-2.140770435333252,-1.3329342317632218,-2.5262067953692835,6.1074761030967615,1.0169146060943604,-5.465530339871542
1708435952.687113,-2.140735626220703,-1.3329180938056489,-2.5262113253222864,6.107504594116964,1.0168684720993042,-5.465498093758718
1708435952.6891127,-2.1407899856567383,-1.3329213720611115,-2.5261603037463587,6.107510196953573,1.0168850421905518,-5.465574566517965
1708435952.6911213,-2.1407809257507324,-1.3329375249198456,-2.526242796574728,6.107513296395101,1.0168806314468384,-5.4655667583095
1708435952.6931357,-2.1407899856567383,-1.332966611986496,-2.5262308756457728,6.107497918396749,1.0168806314468384,-5.465526107941763
1708435952.6951034,-2.1408112049102783,-1.3329170954278489,-2.5262280146228235,6.107480513840475,1.0169016122817993,-5.4655261675464075
1708435952.6971226,-2.140794515609741,-1.3328725856593628,-2.526242796574728,6.107501375466146,1.0168360471725464,-5.465558413659231
1708435952.6991198,-2.1407525539398193,-1.3329418164542695,-2.5261977354632776,6.107459890633383,1.0169178247451782,-5.465582911168234
1708435952.7011185,-2.1407480239868164,-1.332922325735428,-2.5261722246753138,6.107440101891317,1.0168850421905518,-5.4655667583095
1708435952.7031462,-2.140794277191162,-1.332978830938675,-2.5262308756457728,6.107448088913717,1.0169016122817993,-5.46556264558901
1708435952.7051024,-2.140744686126709,-1.3329418462565918,-2.526242796574728,6.107465374260702,1.016909122467041,-5.46556264558901
1708435952.707121,-2.1408157348632812,-1.3329136979630967,-2.526250425969259,6.107456671982565,1.016909122467041,-5.46556264558901
1708435952.709109,-2.1407570838928223,-1.3329537373832245,-2.5262745062457483,6.107452142029562,1.0168806314468384,-5.465530339871542
1708435952.7111216,-2.1407310962677,-1.3329504144242783,-2.5262745062457483,6.107498514443197,1.016921043395996,-5.465514187012808
1708435952.7131338,-2.140735626220703,-1.3329616797021409,-2.5262954870807093,6.107395636826315,1.016909122467041,-5.465555254613058
1708435952.7151113,-2.140735626220703,-1.3329418164542695,-2.526304308568136,6.107435810356893,1.016897201538086,-5.465526107941763
1708435952.7171142,-2.1407222747802734,-1.3329622757485886,-2.526320759450094,6.107387649803915,1.016892910003662,-5.465571109448568
1708435952.7191107,-2.140761613845825,-1.3328886491111298,-2.5263119379626673,6.107408988266744,1.0169296264648438,-5.465542558823721
1708435952.7211306,-2.140777587890625,-1.332945169215538,-2.5262745062457483,6.107454168587484,1.016921043395996,-5.465571109448568
1708435952.7231283,-2.140749216079712,-1.3329703372767945,-2.5263028780566614,6.107404696732321,1.0168720483779907,-5.465575341378347
1708435952.7251108,-2.140735626220703,-1.3329831522754212,-2.5263147989856165,6.107388126641073,1.01692533493042,-5.465591494237081
1708435952.7271109,-2.1407570838928223,-1.3329009723714371,-2.5262909571277063,6.107368695526876,1.0168763399124146,-5.465602938328878
1708435952.7291312,-2.140761613845825,-1.3329666268876572,-2.5262954870807093,6.107310998230734,1.0169340372085571,-5.46556264558901
1708435952.7311282,-2.1407310962677,-1.3329256188920517,-2.5263565222369593,6.107307779579916,1.016892910003662,-5.465549890195028
1708435952.7331145,-2.140718698501587,-1.3329246950200577,-2.5262654463397425,6.107398021012106,1.0169004201889038,-5.465594951306478
1708435952.735143,-2.140744686126709,-1.332897202377655,-2.5262654463397425,6.107320773392477,1.0169004201889038,-5.4655829707728785
1708435952.7371273,-2.140718698501587,-1.3329616648009797,-2.5263477007495325,6.107409703522482,1.0169166326522827,-5.465631727372305
1708435952.7391086,-2.140763998031616,-1.3329622757485886,-2.5262909571277063,6.107254731446066,1.0169494152069092,-5.46556264558901
1708435952.7411194,-2.140763998031616,-1.3328886193088074,-2.526328150426046,6.1073729870613,1.0169364213943481,-5.4655829707728785
1708435952.7431173,-2.140735626220703,-1.3329504442266007,-2.5262954870807093,6.107336985855856,1.0170105695724487,-5.465578798447744
1708435952.7451398,-2.1407277584075928,-1.3329702776721497,-2.5263355414019983,6.107308733254232,1.0169451236724854,-5.465534512196676
1708435952.747116,-2.140777587890625,-1.3329660308412095,-2.5262866655932825,6.107365476876058,1.016973614692688,-5.4655467907535
1708435952.7491322,-2.140765905380249,-1.3329874140075226,-2.5262954870807093,6.107317435532369,1.0169647932052612,-5.46556264558901
1708435952.7511537,-2.140777587890625,-1.3329580587199708,-2.526278797780172,6.107325064926901,1.0169779062271118,-5.465554181729452
1708435952.7531776,-2.1407570838928223,-1.3329180491021653,-2.5263238588916224,6.107348906784811,1.0169692039489746,-5.465559486542837
1708435952.7551124,-2.1407310962677,-1.3329375696233292,-2.526332680379049,6.1073412773902795,1.0169647932052612,-5.465578798447744
1708435952.7571645,-2.140773057937622,-1.332946093087532,-2.5263074080096644,6.107357847481527,1.016952633857727,-5.4655829707728785
1708435952.7592013,-2.1407310962677,-1.3329256486943741,-2.5262954870807093,6.107325064926901,1.0169570446014404,-5.465591494237081
1708435952.76125,-2.140777587890625,-1.3329375398210068,-2.5263238588916224,6.107325064926901,1.0169821977615356,-5.465566817914144
1708435952.7631695,-2.1407535076141357,-1.3329256635955353,-2.526344601308004,6.107357609062948,1.0169692039489746,-5.465558413659231
1708435952.7651181,-2.140773296356201,-1.3329256486943741,-2.526365582142965,6.107341515808859,1.0169692039489746,-5.465558413659231
1708435952.7671528,-2.140723466873169,-1.33291711032901,-2.5263028780566614,6.1073293564613245,1.016952633857727,-5.465550963078634
1708435952.7691412,-2.140740156173706,-1.3329375696233292,-2.5262985865222376,6.107345926552572,1.016952633857727,-5.465571109448568
1708435952.7711494,-2.140707492828369,-1.3329504442266007,-2.5262940565692347,6.107264387398519,1.016990065574646,-5.465566817914144
1708435952.773123,-2.140723466873169,-1.332921342258789,-2.5263238588916224,6.107268798142233,1.0169364213943481,-5.4655667583095
1708435952.775152,-2.14072322845459,-1.332949460749962,-2.526304308568136,6.1073423502738855,1.0169944763183594,-5.465578798447744
1708435952.7771478,-2.140718936920166,-1.3329622459462662,-2.5262866655932825,6.107273804932394,1.0169692039489746,-5.465566817914144
1708435952.7791178,-2.140735626220703,-1.3329580289176484,-2.5263357798205774,6.107326018601217,1.016973614692688,-5.465587262307302
1708435952.781132,-2.140740156173706,-1.332946093087532,-2.5263074080096644,6.107256519585409,1.016952633857727,-5.465514187012808
1708435952.7831619,-2.140744686126709,-1.332994983797409,-2.526278797780172,6.107321846276083,1.0169944763183594,-5.465542558823721
1708435952.7851517,-2.140707492828369,-1.332897202377655,-2.526332680379049,6.107265221863546,1.01698899269104,-5.465571109448568
1708435952.787194,-2.140740156173706,-1.332929865722992,-2.5263028780566614,6.107314336090841,1.0169975757598877,-5.465599123631613
1708435952.7891412,-2.140702962875366,-1.3329504442266007,-2.5263028780566614,6.107290375023641,1.0169647932052612,-5.4655829707728785
1708435952.7911136,-2.1407570838928223,-1.3329127740911026,-2.5263477007495325,6.107232677727499,1.0169932842254639,-5.465534512196676
1708435952.793136,-2.140723466873169,-1.3329623204520722,-2.5263193289386194,6.107326137810507,1.0169647932052612,-5.46556264558901
1708435952.7951152,-2.1407480239868164,-1.3328852814487,-2.5263028780566614,6.107302415161886,1.0170137882232666,-5.465558413659231
1708435952.7971427,-2.1407322883605957,-1.3329495054534455,-2.5263119379626673,6.107281911164083,1.0169562101364136,-5.465607170258657
1708435952.7991319,-2.140723466873169,-1.3329831075719376,-2.5262985865222376,6.107265221863546,1.0170224905014038,-5.4655388037311
1708435952.8011322,-2.1407525539398193,-1.3329256188920517,-2.526349131261007,6.107249009400167,1.0169562101364136,-5.465559426938192
1708435952.8031335,-2.140744686126709,-1.332946093087532,-2.5262821356402796,6.107256519585409,1.016952633857727,-5.465566817914144
1708435952.805122,-2.140700340270996,-1.3329213571599503,-2.5263147989856165,6.107260572701254,1.0169605016708374,-5.465591494237081
1708435952.8071449,-2.140744686126709,-1.332949475651123,-2.5263028780566614,6.107228266983785,1.0169692039489746,-5.465534512196676
1708435952.8091354,-2.140723466873169,-1.332913727765419,-2.5262954870807093,6.107241380005636,1.0169647932052612,-5.465554241334097
1708435952.8111298,-2.1407368183135986,-1.3329460483840485,-2.5263193289386194,6.107265221863546,1.0169482231140137,-5.465571109448568
1708435952.8131473,-2.140765905380249,-1.3328724813512345,-2.5263147989856165,6.107244479447164,1.0169605016708374,-5.465559486542837
1708435952.8151515,-2.1407411098480225,-1.3329008382609864,-2.5263074080096644,6.107256519585409,1.0169483423233032,-5.46558648744692
1708435952.8171487,-2.1406960487365723,-1.3329213869622727,-2.5263732115374964,6.107225167542257,1.0169857740402222,-5.465530399476187
1708435952.8191252,-2.140723466873169,-1.3329137128642579,-2.5263193289386194,6.107273924141683,1.0169647932052612,-5.465578798447744
1708435952.8211823,-2.140700578689575,-1.3329580438188096,-2.526332680379049,6.107257592469015,1.0169857740402222,-5.46556264558901
1708435952.8231454,-2.140712022781372,-1.3329171252301713,-2.526341501866476,6.107281791954794,1.0169813632965088,-5.465599064026968
1708435952.8251517,-2.1406960487365723,-1.3329460334828873,-2.5262745062457483,6.10721646526412,1.0169692039489746,-5.46556264558901
1708435952.8271523,-2.1407268047332764,-1.3329299104264756,-2.526349131261007,6.107232796936788,1.0169562101364136,-5.465550963078634
1708435952.8291414,-2.140723466873169,-1.3329180491021653,-2.5262866655932825,6.107204186707296,1.0169605016708374,-5.465611402188436
1708435952.8311403,-2.1406869888305664,-1.332900957470276,-2.526353422795431,6.10726951339797,1.0170094966888428,-5.4655388037311
1708435952.8331609,-2.1406848430633545,-1.3329702627709885,-2.5263357798205774,6.107260811119833,1.0169692039489746,-5.46561181942095
1708435952.835125,-2.140723466873169,-1.332950474028923,-2.5262954870807093,6.10730658748702,1.0169202089309692,-5.4655906597720545
1708435952.8371408,-2.1407322883605957,-1.3329547208598633,-2.526365343724386,6.107262003212728,1.0169857740402222,-5.465550963078634
1708435952.8391368,-2.140716314315796,-1.3329579842141648,-2.5263074080096644,6.10724567154006,1.0169562101364136,-5.46556264558901
1708435952.841154,-2.140716314315796,-1.3329461228898545,-2.5263357798205774,6.107191192894735,1.0169692039489746,-5.465558413659231
1708435952.8431425,-2.140716314315796,-1.3329504889300843,-2.5263238588916224,6.107265221863546,1.0169692039489746,-5.465578798447744
1708435952.8451242,-2.1406960487365723,-1.3329537522843857,-2.526365582142965,6.107254493027487,1.0169813632965088,-5.465575281773702
1708435952.8471465,-2.1407322883605957,-1.3329256039908906,-2.5262954870807093,6.10726951339797,1.0169932842254639,-5.4655467907535
1708435952.8491552,-2.1407535076141357,-1.3329460632852097,-2.5263400713550013,6.107244598656454,1.0169439315795898,-5.465530339871542
1708435952.8511393,-2.1407322883605957,-1.3329008978656312,-2.5262699762927454,6.107220756798544,1.0169692039489746,-5.4655388037311
1708435952.8531795,-2.1406960487365723,-1.332949460749962,-2.526278797780172,6.1072860834892175,1.0169857740402222,-5.4654980341540735
1708435952.8551073,-2.140749216079712,-1.3329778921655198,-2.526337210332052,6.107207762985983,1.016939640045166,-5.46556264558901
1708435952.857141,-2.140744686126709,-1.3329051595977326,-2.5262654463397425,6.107183682709493,1.0169475078582764,-5.4655872027026575
1708435952.8591328,-2.1406590938568115,-1.332912729387619,-2.526316229497091,6.107225167542257,1.0169975757598877,-5.465546850358145
1708435952.8611484,-2.140723466873169,-1.3329580587199708,-2.5263312498675745,6.107253300934591,1.0169932842254639,-5.465534512196676
1708435952.8631434,-2.140702962875366,-1.332945169215538,-2.5262656847583216,6.10721646526412,1.0169727802276611,-5.465554181729452
1708435952.8651156,-2.140723466873169,-1.3329213571599503,-2.5262866655932825,6.107167708664694,1.0169932842254639,-5.465530399476187
1708435952.8671343,-2.140718936920166,-1.3329418164542695,-2.5262699762927454,6.10724567154006,1.0169727802276611,-5.46556264558901
1708435952.8691149,-2.140723466873169,-1.3329298508218308,-2.5263074080096644,6.107225167542257,1.0169605016708374,-5.465578798447744
1708435952.8711414,-2.1407277584075928,-1.3328964871219178,-2.5262625853167933,6.107265221863546,1.0169605016708374,-5.465546850358145
1708435952.8731203,-2.140777587890625,-1.3329051595977326,-2.526316229497091,6.107290375023641,1.0169779062271118,-5.4654972592936915
1708435952.8751514,-2.140782117843628,-1.332921342258789,-2.5262954870807093,6.107257592469015,1.0169932842254639,-5.465555254613058
1708435952.8772025,-2.140744686126709,-1.332863764171936,-2.5263400713550013,6.107282626419821,1.0170018672943115,-5.465555254613058
1708435952.8792548,-2.140765905380249,-1.3329579842141648,-2.526300017033712,6.107262003212728,1.0169944763183594,-5.46556264558901
1708435952.8811638,-2.1407835483551025,-1.3329495054534455,-2.526311699544088,6.107265221863546,1.0169932842254639,-5.465582911168234
1708435952.8831916,-2.140794515609741,-1.332928941850998,-2.5262909571277063,6.107310998230734,1.0169692039489746,-5.465543035660879
1708435952.8851347,-2.140716314315796,-1.332933322792389,-2.5262654463397425,6.107265221863546,1.0169856548309326,-5.465555254613058
1708435952.8871534,-2.1406960487365723,-1.3329333078912278,-2.5263028780566614,6.107273924141683,1.016977071762085,-5.465575281773702
1708435952.8891418,-2.140712022781372,-1.3329495203546067,-2.526311699544088,6.107229459076681,1.016990065574646,-5.465587262307302
1708435952.8911054,-2.140774965286255,-1.3329288971475144,-2.526349131261007,6.107204186707296,1.0169408321380615,-5.46556264558901
1708435952.893146,-2.1407368183135986,-1.3329623204520722,-2.5263267199145716,6.107229459076681,1.01701819896698,-5.465514187012808
1708435952.8951106,-2.1407277584075928,-1.3329623204520722,-2.5262985865222376,6.107260811119833,1.0169647932052612,-5.465510014687673
1708435952.8971095,-2.1407365798950195,-1.3329136830619355,-2.5263028780566614,6.107290494232931,1.0169570446014404,-5.465554181729452
1708435952.8991086,-2.1407411098480225,-1.332925633793213,-2.5263119379626673,6.107220518379965,1.016973614692688,-5.465542558823721
1708435952.9011376,-2.140707492828369,-1.332966686492302,-2.526344601308004,6.10727738121108,1.0169692039489746,-5.465575341378347
1708435952.9031188,-2.140744686126709,-1.3329094511321564,-2.5263238588916224,6.107253300934591,1.0169483423233032,-5.465530339871542
1708435952.905129,-2.140749216079712,-1.332925633793213,-2.5263193289386194,6.10725616195754,1.017001986503601,-5.4655467907535
1708435952.907135,-2.140749216079712,-1.3329580140164872,-2.5262954870807093,6.107228386193075,1.0169605016708374,-5.465530339871542
1708435952.9091256,-2.140700578689575,-1.33291711032901,-2.5262654463397425,6.107249009400167,1.0169813632965088,-5.4655467907535
1708435952.911108,-2.140740156173706,-1.3329298955253144,-2.526349131261007,6.107244598656454,1.0169440507888794,-5.465542558823721
1708435952.9131472,-2.140744686126709,-1.3329418164542695,-2.5262985865222376,6.1072696326072595,1.0169364213943481,-5.465522650872366
1708435952.9151416,-2.1407277584075928,-1.3329332929900666,-2.526344601308004,6.107244598656454,1.0170137882232666,-5.465578798447744
1708435952.917147,-2.1407277584075928,-1.3329622459462662,-2.5262866655932825,6.107265221863546,1.0169813632965088,-5.465575341378347
1708435952.9191358,-2.140707492828369,-1.3330189299634476,-2.5262745062457483,6.107257592469015,1.0169570446014404,-5.465526107941763
1708435952.9211278,-2.140707492828369,-1.3329617095044632,-2.5262985865222376,6.107302295952596,1.016990065574646,-5.46556264558901
1708435952.9231358,-2.140707492828369,-1.3329831671765824,-2.5262954870807093,6.107261884003439,1.016990065574646,-5.4655388037311
1708435952.9251213,-2.140749216079712,-1.332937554722168,-2.5262909571277063,6.10721110084609,1.0169570446014404,-5.465566817914144
1708435952.9271436,-2.140761613845825,-1.3329333078912278,-2.5262909571277063,6.1073293564613245,1.017006278038025,-5.465578798447744
1708435952.9291344,-2.140716314315796,-1.3329616349986573,-2.5263074080096644,6.10721122005538,1.0169692039489746,-5.465582911168234
1708435952.9311364,-2.1406960487365723,-1.3329504144242783,-2.5262909571277063,6.1072401879127405,1.0169451236724854,-5.465571109448568
1708435952.933165,-2.140770435333252,-1.3329665821841736,-2.5263119379626673,6.107294785767355,1.0169692039489746,-5.46556264558901
1708435952.935118,-2.140712022781372,-1.3329666268876572,-2.5262909571277063,6.10725616195754,1.0170137882232666,-5.465571109448568
1708435952.937158,-2.140744686126709,-1.3329136830619355,-2.526341740285055,6.10730670669631,1.017006278038025,-5.465522650872366
1708435952.9391325,-2.140740156173706,-1.3329289716533204,-2.526278797780172,6.1072730896766565,1.0169451236724854,-5.465514187012808
1708435952.94112,-2.1406936645507812,-1.33290088296447,-2.526283327733175,6.107305514603414,1.0169692039489746,-5.465526107941763
1708435952.9431825,-2.1407277584075928,-1.3329702776721497,-2.526283327733175,6.1073012230689905,1.0169813632965088,-5.465538326893942
1708435952.9451275,-2.1407253742218018,-1.3328929108432312,-2.5262492338763636,6.1072847721870325,1.0169563293457031,-5.465603415166036
1708435952.9471474,-2.140707492828369,-1.3329298955253144,-2.5263400713550013,6.107313143997946,1.0169943571090698,-5.465558413659231
1708435952.9491444,-2.1407277584075928,-1.3329256486943741,-2.5262537638293665,6.1072966931159876,1.0169779062271118,-5.465578798447744
1708435952.9511182,-2.1407277584075928,-1.332994968896248,-2.5263119379626673,6.107346761017599,1.0169483423233032,-5.465591494237081
1708435952.9531598,-2.140720844268799,-1.3329864752343674,-2.5262954870807093,6.107289302140035,1.0169987678527832,-5.4655829707728785
1708435952.9551265,-2.1407368183135986,-1.33291711032901,-2.526300017033712,6.107317435532369,1.0169647932052612,-5.465542558823721
1708435952.9571462,-2.1407322883605957,-1.3329170954278489,-2.5262909571277063,6.107275831490316,1.016977071762085,-5.465566817914144
1708435952.9591217,-2.140723466873169,-1.3329622757485886,-2.5262909571277063,6.107366192131796,1.016952633857727,-5.465530339871542
1708435952.9611633,-2.140744686126709,-1.3329137128642579,-2.526299778615133,6.107336985855856,1.0169202089309692,-5.465590719376699
1708435952.9631827,-2.140744686126709,-1.3329288822463532,-2.526250425969259,6.107339846878805,1.016952633857727,-5.4655467907535
1708435952.9651322,-2.1407322883605957,-1.332925633793213,-2.526266876851217,6.107452380448141,1.0169613361358643,-5.465558413659231
1708435952.967145,-2.140765905380249,-1.33297452450309,-2.526320759450094,6.107371437340536,1.0169364213943481,-5.465574566517965
1708435952.96912,-2.140770435333252,-1.332957999115326,-2.5262625853167933,6.107429611473837,1.0169613361358643,-5.465530339871542
1708435952.9711225,-2.1407368183135986,-1.3329137426665802,-2.526357952748434,6.107384788780966,1.0169779062271118,-5.465555314217703
1708435952.9731474,-2.1407580375671387,-1.3329094660333176,-2.5263074080096644,6.10736762264327,1.0169451236724854,-5.465558413659231
1708435952.9751327,-2.140740156173706,-1.3329451096108933,-2.526304308568136,6.1074209091956995,1.0169364213943481,-5.465514246617452
1708435952.9772165,-2.1406590938568115,-1.3329537522843857,-2.526287857686178,6.107437002449789,1.0169857740402222,-5.465571109448568
1708435952.9791574,-2.140735626220703,-1.3329137128642579,-2.526304308568136,6.107456671982565,1.0169613361358643,-5.4655829707728785
1708435952.9811265,-2.140719175338745,-1.3329246950200577,-2.526337210332052,6.107485878258505,1.0169289112091064,-5.4655829707728785
1708435952.983141,-2.140744686126709,-1.3329460632852097,-2.5263074080096644,6.107473122864523,1.0169494152069092,-5.465566817914144
1708435952.9851315,-2.1407570838928223,-1.3329127442887803,-2.526320759450094,6.107443678170004,1.0169613361358643,-5.465599064026968
1708435952.9871538,-2.1408112049102783,-1.3330065619996567,-2.526283327733175,6.107456671982565,1.0169408321380615,-5.465558413659231
1708435952.989133,-2.140735626220703,-1.3329375696233292,-2.526278797780172,6.107484924584188,1.0169613361358643,-5.465534512196676
1708435952.9911196,-2.140782117843628,-1.3329137128642579,-2.526292149220602,6.107508885651388,1.0169570446014404,-5.465570334588186
1708435952.9931695,-2.1407864093780518,-1.3329660159400483,-2.5262909571277063,6.10747920253829,1.0169048309326172,-5.46558648744692
1708435952.9951148,-2.1407411098480225,-1.3329418462565918,-2.526353422795431,6.107504594116964,1.0169036388397217,-5.4655467907535
1708435952.9971414,-2.140712022781372,-1.3329665970853348,-2.5262954870807093,6.107516515045919,1.0169613361358643,-5.4655426184283655
1708435952.9991403,-2.140720844268799,-1.3329461377910157,-2.5263074080096644,6.107565629273214,1.016973614692688,-5.465530339871542
1708435953.0011404,-2.140707492828369,-1.3329051595977326,-2.5262699762927454,6.107520806580343,1.0168992280960083,-5.465603415166036
1708435953.0031624,-2.1407525539398193,-1.3329623353532334,-2.526278797780172,6.1075641987617395,1.0169613361358643,-5.465611402188436
1708435953.0051508,-2.1407310962677,-1.332962231045105,-2.526254717503683,6.107540356903829,1.0169289112091064,-5.465554181729452
1708435953.0071442,-2.140768527984619,-1.3329702627709885,-2.526300017033712,6.107531773834982,1.0169246196746826,-5.465582195912496
1708435953.0091553,-2.140749216079712,-1.332921342258789,-2.5262413660632532,6.107556569367208,1.0169743299484253,-5.465578798447744
1708435953.0111225,-2.140765905380249,-1.3329831224730988,-2.526292149220602,6.107568490296163,1.01689612865448,-5.465566043053762
1708435953.0131333,-2.140740156173706,-1.3329580140164872,-2.526316229497091,6.107589113503256,1.0169943571090698,-5.465602938328878
1708435953.0151377,-2.140749216079712,-1.3329288971475144,-2.526245896016256,6.107592928200521,1.0169408321380615,-5.465542558823721
1708435953.017138,-2.1407277584075928,-1.3329537522843857,-2.526328150426046,6.107591616898336,1.0169451236724854,-5.465582195912496
1708435953.0191479,-2.140765905380249,-1.3329907071641465,-2.526292149220602,6.107669460564413,1.0169613361358643,-5.465587262307302
1708435953.0211663,-2.140761613845825,-1.3329418164542695,-2.52635366121401,6.107637512474813,1.016973614692688,-5.465570334588186
1708435953.02315,-2.140727996826172,-1.332966075544693,-2.526304308568136,6.1076406119163416,1.0169451236724854,-5.46558648744692
1708435953.0251334,-2.1407570838928223,-1.3329659861377259,-2.526278797780172,6.107587206154623,1.0169538259506226,-5.4656105677234095
1708435953.027133,-2.140777587890625,-1.3329332780889054,-2.52627140680422,6.107646810799398,1.0169864892959595,-5.465602938328878
1708435953.0291378,-2.1408157348632812,-1.3329288971475144,-2.5262954870807093,6.10764359214858,1.0169570446014404,-5.46565562883486
1708435953.0311298,-2.140794277191162,-1.3329093915275116,-2.526287619267599,6.107655274658956,1.0169123411178589,-5.465638641511099
1708435953.0331652,-2.140773057937622,-1.3329256486943741,-2.526304308568136,6.107688295632162,1.0169332027435303,-5.465613965188162
1708435953.0351255,-2.1407268047332764,-1.332966001038887,-2.5262492338763636,6.107716429024496,1.0169538259506226,-5.465630118046896
1708435953.0371377,-2.1407480239868164,-1.332913727765419,-2.5262580553637903,6.107703316002645,1.0169613361358643,-5.465666715298788
1708435953.039127,-2.140714406967163,-1.3329051595977326,-2.526349131261007,6.107761132508077,1.0169624090194702,-5.465698484574453
1708435953.0411217,-2.1407480239868164,-1.332949475651123,-2.5262625853167933,6.107709395676412,1.0169289112091064,-5.465682331715719
1708435953.0431108,-2.1406984329223633,-1.3329788458398362,-2.526275936757223,6.1076838848884485,1.0169166326522827,-5.465722326432363
1708435953.0451276,-2.1407265663146973,-1.3329213571599503,-2.5262580553637903,6.107694732933798,1.0169494152069092,-5.465636972581045
1708435953.0471516,-2.140707492828369,-1.3329418462565918,-2.5263193289386194,6.107724296837606,1.0170074701309204,-5.46570194164385
1708435953.0491414,-2.1407809257507324,-1.332896502023079,-2.5263074080096644,6.107780563622274,1.0169451236724854,-5.465734545384542
1708435953.0511336,-2.1407899856567383,-1.3328886342099686,-2.5262909571277063,6.107723104744711,1.0169451236724854,-5.465714637433187
1708435953.0531447,-2.1407570838928223,-1.3328922998956223,-2.526300017033712,6.107789265900411,1.0169944763183594,-5.465718154107229
1708435953.0551305,-2.1407268047332764,-1.3329288971475144,-2.5262413660632532,6.107731807022848,1.0169048309326172,-5.4657392541514795
1708435953.0571392,-2.1407525539398193,-1.3328843426755448,-2.526304308568136,6.107780444412985,1.0169332027435303,-5.465702776108877
1708435953.059137,-2.1408112049102783,-1.3329408478787919,-2.5262745062457483,6.107734071999349,1.016908049583435,-5.4657430092441
1708435953.0611427,-2.140765905380249,-1.332966001038887,-2.526320759450094,6.107743727951803,1.0169332027435303,-5.465706113968984
1708435953.0631301,-2.1407597064971924,-1.33298313737426,-2.5262745062457483,6.107767569809713,1.0169332027435303,-5.465681497250692
1708435953.065123,-2.1407597064971924,-1.3329623204520722,-2.5262745062457483,6.10780035236434,1.0169123411178589,-5.465750698243276
1708435953.0671208,-2.1407480239868164,-1.3329418462565918,-2.526337210332052,6.107783901482382,1.016921043395996,-5.465673927460806
1708435953.069152,-2.1407899856567383,-1.3329623204520722,-2.526344601308004,6.107767569809713,1.0169408321380615,-5.465747300778524
1708435953.071147,-2.1408021450042725,-1.3329745543054123,-2.526329580937521,6.107788193016805,1.0169538259506226,-5.465738717709677
1708435953.0731602,-2.1407978534698486,-1.3329616051963349,-2.526292149220602,6.107770907669821,1.0169123411178589,-5.465697650109426
1708435953.075154,-2.1408181190490723,-1.3329375398210068,-2.526300017033712,6.107852446823873,1.0169332027435303,-5.465746406708853
1708435953.07716,-2.1407854557037354,-1.332977832560875,-2.5263119379626673,6.107860910683431,1.0169004201889038,-5.465665344391958
1708435953.0791328,-2.1407809257507324,-1.3329408478787919,-2.526245896016256,6.107788073807516,1.0169538259506226,-5.465710405503408
1708435953.0811234,-2.1407978534698486,-1.3330274385264893,-2.526278797780172,6.107841002732076,1.0169613361358643,-5.465759221707479
1708435953.0831556,-2.1407887935638428,-1.3329418313554307,-2.5262413660632532,6.1077825901801965,1.0169376134872437,-5.46570194164385
1708435953.0851357,-2.1407978534698486,-1.3329461079886933,-2.5262699762927454,6.107791292458334,1.0169570446014404,-5.4656975905047815
1708435953.087169,-2.1408374309539795,-1.332932324414589,-2.5262866655932825,6.107824551850118,1.0169570446014404,-5.465714637433187
1708435953.0891297,-2.140784502029419,-1.3329042357257386,-2.526320759450094,6.107806789665975,1.016965627670288,-5.4657138029681605
1708435953.0911276,-2.1408047676086426,-1.332937554722168,-2.5262368361102503,6.10784791687087,1.0169494152069092,-5.465693477784292
1708435953.0931435,-2.140784502029419,-1.3329042357257386,-2.5262625853167933,6.107836115151205,1.0169166326522827,-5.465726558362142
1708435953.095123,-2.1408021450042725,-1.3329126995852967,-2.5262909571277063,6.107806789665975,1.0169494152069092,-5.465718094502584
1708435953.0971289,-2.140825033187866,-1.3329375696233292,-2.526283327733175,6.10788511016921,1.0169451236724854,-5.465718094502584
1708435953.0991392,-2.140795946121216,-1.332961620097496,-2.526308838521139,6.10784803608016,1.0169743299484253,-5.465722326432363
1708435953.1011038,-2.140789031982422,-1.3328800809434433,-2.5263193289386194,6.107801425247946,1.0169779062271118,-5.465669695531027
1708435953.1031322,-2.1408002376556396,-1.3329788458398362,-2.5262745062457483,6.107863414078512,1.0169613361358643,-5.465673867856161
1708435953.1051466,-2.1408207416534424,-1.3329299253276368,-2.526278797780172,6.107892977982321,1.0169538259506226,-5.465726558362142
1708435953.1071486,-2.1408116817474365,-1.3329127591899415,-2.5263074080096644,6.107859241753378,1.0169901847839355,-5.465726021920339
1708435953.1091237,-2.140845537185669,-1.3329094362309952,-2.526245896016256,6.107878196030416,1.0169289112091064,-5.465734545384542
1708435953.1111426,-2.1408331394195557,-1.3329616349986573,-2.5262909571277063,6.107867824822225,1.0169364213943481,-5.465726498757498
1708435953.1131616,-2.1408462524414062,-1.3329126995852967,-2.5262954870807093,6.107866275101461,1.0169202089309692,-5.4657430092441
1708435953.1151283,-2.140775442123413,-1.3329702329686661,-2.52627140680422,6.107895600586691,1.0169289112091064,-5.465726498757498
1708435953.1171496,-2.140784502029419,-1.332978830938675,-2.526287619267599,6.107855546265402,1.016921043395996,-5.465706173573629
1708435953.1191273,-2.1408331394195557,-1.3329051595977326,-2.5263119379626673,6.107801306038656,1.01689612865448,-5.465718094502584
1708435953.121181,-2.1408207416534424,-1.3329659861377259,-2.526275936757223,6.107846247940817,1.0169494152069092,-5.465730730687277
1708435953.1231408,-2.1408331394195557,-1.3329332780889054,-2.5262821356402796,6.107887017517843,1.0169246196746826,-5.465791110192434
1708435953.125133,-2.1408162117004395,-1.3329289269498368,-2.52627140680422,6.107866394310751,1.016921043395996,-5.46567809978594
1708435953.1271567,-2.1408116817474365,-1.3329778176597138,-2.5263119379626673,6.107915389328756,1.0169289112091064,-5.4657749573337
1708435953.1291287,-2.1408286094665527,-1.3329256188920517,-2.5262911955462855,6.107866394310751,1.01692533493042,-5.465738777314321
1708435953.131141,-2.140782356262207,-1.332957313661911,-2.5262911955462855,6.107886183052816,1.0169613361358643,-5.465697650109426
1708435953.1331663,-2.140782356262207,-1.332924635415413,-2.526283327733175,6.107911097794332,1.0169538259506226,-5.465734545384542
1708435953.1351516,-2.1408543586730957,-1.3329127740911026,-2.5262909571277063,6.107886183052816,1.0169123411178589,-5.4657472411738794
1708435953.1371498,-2.1408374309539795,-1.3329332929900666,-2.5263193289386194,6.10788260677413,1.0169779062271118,-5.465681497250692
1708435953.1391203,-2.140878438949585,-1.3329616349986573,-2.526332680379049,6.10788260677413,1.0169613361358643,-5.465754870568411
1708435953.1411693,-2.140836477279663,-1.332945079808571,-2.526337210332052,6.10788260677413,1.0169364213943481,-5.465722266827719
1708435953.143158,-2.140845537185669,-1.3329289269498368,-2.526278797780172,6.107887017517843,1.0169289112091064,-5.465726498757498
1708435953.1451187,-2.1408073902130127,-1.3329333078912278,-2.5263193289386194,6.107859122544088,1.0169613361358643,-5.4657514731036585
1708435953.1471505,-2.140836477279663,-1.3329322648099442,-2.526254717503683,6.10791968086318,1.0169408321380615,-5.4657430092441
1708435953.1491404,-2.140836477279663,-1.3329821836999436,-2.526242796574728,6.1079198000724695,1.0169494152069092,-5.465669695531027
1708435953.151152,-2.140836477279663,-1.332977832560875,-2.5262625853167933,6.1078576920326135,1.0169289112091064,-5.465726498757498
1708435953.1531904,-2.140841007232666,-1.3329937320998688,-2.5262911955462855,6.107863414078512,1.0169202089309692,-5.465694252644674
1708435953.155128,-2.140836477279663,-1.3329864752343674,-2.526278797780172,6.107859241753378,1.0169202089309692,-5.465694312249319
1708435953.1571517,-2.140841007232666,-1.3329788458398362,-2.5262954870807093,6.107854831009664,1.0169451236724854,-5.465714637433187
1708435953.159131,-2.14083194732666,-1.332949475651123,-2.526304546986715,6.107878315239706,1.0169943571090698,-5.465698484574453
1708435953.161123,-2.1408073902130127,-1.33298213899646,-2.5262954870807093,6.107928383141317,1.0169157981872559,-5.465706173573629
1708435953.163126,-2.14082407951355,-1.332949475651123,-2.5263119379626673,6.107894646912374,1.0169451236724854,-5.465710405503408
1708435953.1651263,-2.1408028602600098,-1.3329289716533204,-2.5262821356402796,6.107981788903036,1.0169123411178589,-5.465706173573629
1708435953.1671438,-2.1408612728118896,-1.3329573583653946,-2.5263238588916224,6.107899176865377,1.0169494152069092,-5.4657430092441
1708435953.1691215,-2.140873908996582,-1.3330145341208954,-2.5262821356402796,6.107870805054464,1.0169700384140015,-5.465722326432363
1708435953.1711187,-2.1408028602600098,-1.332941861157753,-2.5263119379626673,6.107866394310751,1.0169494152069092,-5.465710405503408
1708435953.1731522,-2.1408116817474365,-1.3329787713340302,-2.526337210332052,6.107879268914022,1.0169246196746826,-5.465681497250692
1708435953.1751204,-2.1408028602600098,-1.332957388167717,-2.526283327733175,6.107883679657736,1.0169320106506348,-5.465661648903982
1708435953.1771832,-2.140815019607544,-1.3329418313554307,-2.5263283888446253,6.107870805054464,1.0169570446014404,-5.465706173573629
1708435953.1791255,-2.140836477279663,-1.3330023002675553,-2.5262954870807093,6.1078998921211145,1.0169036388397217,-5.465707008038656
1708435953.1811678,-2.140869379043579,-1.3329205226949234,-2.5263283888446253,6.107940423279562,1.016940712928772,-5.465735081826345
1708435953.1831675,-2.140864849090576,-1.332966001038887,-2.526328150426046,6.107895600586691,1.0169494152069092,-5.4657350222217005
1708435953.1851351,-2.14084529876709,-1.3329375696233292,-2.526328150426046,6.107899176865377,1.0169779062271118,-5.465654019509451
1708435953.187172,-2.140791416168213,-1.332928941850998,-2.5262625853167933,6.107903587609091,1.0169692039489746,-5.46567809978594
1708435953.1891236,-2.1408498287200928,-1.3329573583653946,-2.52627140680422,6.107878076821127,1.0169364213943481,-5.465649727975027
1708435953.191112,-2.1408498287200928,-1.33297352612529,-2.526254717503683,6.107883679657736,1.0169647932052612,-5.465674404297964
1708435953.1931386,-2.140895128250122,-1.3329289120486756,-2.5262699762927454,6.107888090401449,1.0169779062271118,-5.465727214013235
1708435953.1951194,-2.14082407951355,-1.3329573583653946,-2.526316229497091,6.107876407891073,1.0169570446014404,-5.465638224278585
1708435953.197135,-2.1408028602600098,-1.332945079808571,-2.5263238588916224,6.107859122544088,1.0169408321380615,-5.465686623250143
1708435953.199135,-2.140815019607544,-1.332966001038887,-2.526328150426046,6.107846843987264,1.0169901847839355,-5.465686623250143
1708435953.2011364,-2.1408286094665527,-1.3329289120486756,-2.5263119379626673,6.107907879143514,1.0169904232025146,-5.465650860463278
1708435953.2031486,-2.1408274173736572,-1.332969294195511,-2.526325289403097,6.107870805054464,1.016973614692688,-5.465678517018453
1708435953.2051153,-2.1408612728118896,-1.3329894256642838,-2.5262954870807093,6.107920872956075,1.0169779062271118,-5.465678517018453
1708435953.2071466,-2.1408331394195557,-1.3329375249198456,-2.5262954870807093,6.107883798867025,1.0169692039489746,-5.465650860463278
1708435953.2091427,-2.140873908996582,-1.3329042208245774,-2.5263193289386194,6.107810127526083,1.0169901847839355,-5.465630177651541
1708435953.2111356,-2.140856981277466,-1.332933322792389,-2.526328150426046,6.107855546265402,1.0169857740402222,-5.465646568928854
1708435953.213139,-2.1408286094665527,-1.3329821986011048,-2.5262580553637903,6.107777464180746,1.0169944763183594,-5.465638224278585
1708435953.2151396,-2.140852451324463,-1.332949460749962,-2.5262909571277063,6.1078306315238855,1.0169570446014404,-5.4656182567225855
1708435953.217174,-2.140856981277466,-1.3329735708287735,-2.5263119379626673,6.107851254730978,1.0169451236724854,-5.465602163468496
1708435953.2191517,-2.140819787979126,-1.3329289567521592,-2.5263119379626673,6.107881414681234,1.0169647932052612,-5.4656105677234095
1708435953.2211251,-2.140836477279663,-1.33290849745784,-2.5263074080096644,6.107846843987264,1.017001986503601,-5.465602938328878
1708435953.2231312,-2.14082407951355,-1.3329366010478516,-2.526300017033712,6.107814299851217,1.016947627067566,-5.465561870728628
1708435953.2251332,-2.1408543586730957,-1.332928941850998,-2.526328150426046,6.1078200218971155,1.0169944763183594,-5.4655426184283655
1708435953.2271402,-2.140878438949585,-1.3329580140164872,-2.5262656847583216,6.107798206597128,1.01698899269104,-5.465555254613058
1708435953.2291155,-2.140873908996582,-1.3329616051963349,-2.5262954870807093,6.107802140503683,1.0169932842254639,-5.465506557618276
1708435953.2311316,-2.140841007232666,-1.3329451245120545,-2.5263238588916224,6.107807624131002,1.0170094966888428,-5.465510670338766
1708435953.2331555,-2.140841007232666,-1.332925633793213,-2.5263238588916224,6.107816684037008,1.016977071762085,-5.4655467907535
1708435953.2351196,-2.140815019607544,-1.3329127740911026,-2.5263193289386194,6.107828604965963,1.0169932842254639,-5.465506438408987
1708435953.237155,-2.140795946121216,-1.332928941850998,-2.5262909571277063,6.107765900879659,1.0169975757598877,-5.465575460587637
1708435953.239122,-2.140782356262207,-1.3329538118890305,-2.5262866655932825,6.107755648880758,1.0170303583145142,-5.465531174336569
1708435953.2411563,-2.140856981277466,-1.3329616051963349,-2.5263238588916224,6.107743727951803,1.0169439315795898,-5.465503040944235
1708435953.2431533,-2.14083194732666,-1.3329494905522843,-2.526328150426046,6.107748257904806,1.0169975757598877,-5.465547386799948
1708435953.2451284,-2.140798330307007,-1.3329702776721497,-2.52635366121401,6.107735025673666,1.0169975757598877,-5.465445701275961
1708435953.247157,-2.1408286094665527,-1.3329778176597138,-2.5262954870807093,6.107733475952902,1.0170094966888428,-5.465445582066671
1708435953.2491398,-2.1408073902130127,-1.3329289716533204,-2.5262909571277063,6.107736336975851,1.0169975757598877,-5.465526882802145
1708435953.251127,-2.140815019607544,-1.332966001038887,-2.5263238588916224,6.107658970146932,1.0169932842254639,-5.465526882802145
1708435953.253154,-2.1408612728118896,-1.3329616349986573,-2.5262911955462855,6.107679593354025,1.017005205154419,-5.465519193802969
1708435953.255124,-2.140787124633789,-1.3329702329686661,-2.526337210332052,6.1076838848884485,1.0170137882232666,-5.465482298527853
1708435953.2571514,-2.1408028602600098,-1.332945079808571,-2.526344601308004,6.107740509300985,1.017005205154419,-5.465482298527853
1708435953.2592452,-2.14082407951355,-1.332945094709732,-2.526316229497091,6.107707726746359,1.0169813632965088,-5.46543795267214
1708435953.261168,-2.14082407951355,-1.3329821538976212,-2.5262866655932825,6.107670414238729,1.017005205154419,-5.4655277768718165
1708435953.2631385,-2.140819787979126,-1.3329537373832245,-2.5263193289386194,6.107663380890646,1.0169888734817505,-5.465515855942861
1708435953.2651184,-2.140852451324463,-1.3329084378531952,-2.5262866655932825,6.107692587166586,1.01698899269104,-5.465446595345632
1708435953.2671225,-2.14082407951355,-1.3329659861377259,-2.526328150426046,6.107692706375875,1.01698899269104,-5.465418521557943
1708435953.2691288,-2.140819787979126,-1.3329745543054123,-2.5263238588916224,6.10764359214858,1.0170371532440186,-5.465476457272665
1708435953.2711291,-2.140873908996582,-1.3329616498998185,-2.5263193289386194,6.107638942986288,1.017005205154419,-5.465447489415304
1708435953.273171,-2.1408028602600098,-1.3329936575940629,-2.5263074080096644,6.107615458756246,1.0170217752456665,-5.465456072484152
1708435953.2751303,-2.14083194732666,-1.3329408478787919,-2.526300017033712,6.107610690384664,1.017038345336914,-5.465456012879507
1708435953.277178,-2.14082407951355,-1.3329980385354538,-2.5263267199145716,6.107624041825094,1.0170292854309082,-5.46541935602297
1708435953.2791367,-2.14082407951355,-1.3329778474620362,-2.526361052189962,6.107647883683004,1.0170663595199585,-5.465415064488546
1708435953.2812054,-2.140819787979126,-1.3329660308412095,-2.5263119379626673,6.107600199967184,1.0170279741287231,-5.465407196675436
1708435953.2832544,-2.140845537185669,-1.3329616349986573,-2.5262909571277063,6.107628571778097,1.0170038938522339,-5.465439860020773
1708435953.2851508,-2.140845537185669,-1.3329615902951737,-2.5263028780566614,6.107628571778097,1.017069935798645,-5.465456072484152
1708435953.2871737,-2.140775680541992,-1.3329778772643586,-2.5263357798205774,6.107571589737692,1.0170327425003052,-5.465439860020773
1708435953.2891371,-2.140798330307007,-1.3329093915275116,-2.5263400713550013,6.107527363091268,1.0170488357543945,-5.465362910424368
1708435953.2911913,-2.1408286094665527,-1.3329852682403107,-2.5263147989856165,6.107538807183065,1.0170700550079346,-5.465386633072988
1708435953.293161,-2.1408543586730957,-1.3329332780889054,-2.526328150426046,6.107589590340414,1.0170308351516724,-5.465383354817526
1708435953.2951276,-2.1408205032348633,-1.3329660159400483,-2.5263312498675745,6.107547986298361,1.0170904397964478,-5.46535432735552
1708435953.297184,-2.1408419609069824,-1.3329659861377259,-2.5262699762927454,6.10752414444045,1.017020583152771,-5.465326313172476
1708435953.29913,-2.140845537185669,-1.3329573583653946,-2.5263119379626673,6.107528435974874,1.0170533657073975,-5.465396229420797
1708435953.3011417,-2.1408002376556396,-1.3329745543054123,-2.5263400713550013,6.107512104302206,1.0170893669128418,-5.4653595129596155
1708435953.3031437,-2.1408073902130127,-1.3330102127841492,-2.5263074080096644,6.107512223511495,1.0170533657073975,-5.465358678494589
1708435953.3051488,-2.1408162117004395,-1.3329084825566788,-2.5263400713550013,6.107504594116964,1.017032504081726,-5.465383354817526
1708435953.3071525,-2.1408207416534424,-1.332953156237938,-2.526300017033712,6.10750030258254,1.0170612335205078,-5.465350989495413
1708435953.309133,-2.140775442123413,-1.332977832560875,-2.526328150426046,6.107471453934469,1.0170488357543945,-5.465391878281729
1708435953.311142,-2.1408498287200928,-1.332949475651123,-2.5263193289386194,6.107459533005514,1.0170623064041138,-5.465408031140463
1708435953.3131447,-2.1408658027648926,-1.3329288375428696,-2.526328150426046,6.107477295189657,1.0170612335205078,-5.4653876463519495
1708435953.3151493,-2.1408917903900146,-1.332970292573311,-2.5262909571277063,6.107456671982565,1.0170700550079346,-5.465355221425192
1708435953.317127,-2.1408135890960693,-1.3329043102315445,-2.5263267199145716,6.107440101891317,1.0170443058013916,-5.465310994778768
1708435953.3193088,-2.1408464908599854,-1.3329616349986573,-2.5263028780566614,6.107441174774923,1.0170565843582153,-5.4653186241733
1708435953.321144,-2.140791416168213,-1.3329980385354538,-2.526278797780172,6.107461797982015,1.017086148262024,-5.465322915707723
1708435953.3231413,-2.1408588886260986,-1.3329616498998185,-2.5263150374041956,6.107408988266744,1.0170446634292603,-5.465355221425192
1708435953.325154,-2.1407675743103027,-1.332933322792389,-2.5262821356402796,6.107376205712118,1.0170904397964478,-5.465298716221945
1708435953.327117,-2.1407763957977295,-1.3329937320998688,-2.5263357798205774,6.107393491059103,1.017069935798645,-5.46532375017275
1708435953.3291485,-2.1407809257507324,-1.3329702776721497,-2.5263312498675745,6.107380378037252,1.0170444250106812,-5.4653067032443445
1708435953.331121,-2.140763282775879,-1.3329937171987076,-2.5263028780566614,6.107356774597921,1.0170235633850098,-5.465294424687521
1708435953.333125,-2.1408464908599854,-1.3329288971475144,-2.5263312498675745,6.1073729870613,1.017037034034729,-5.46532375017275
1708435953.3351169,-2.1407763957977295,-1.3329616349986573,-2.5262985865222376,6.107368695526876,1.0170818567276,-5.465278271828787
1708435953.3371465,-2.1407978534698486,-1.3329745841077347,-2.5263193289386194,6.107381808548727,1.0170785188674927,-5.465311590825216
1708435953.3391702,-2.1407551765441895,-1.3330469292453309,-2.5262909571277063,6.107361066132345,1.017080307006836,-5.4652584234820765
1708435953.3411372,-2.1407854557037354,-1.333002270465233,-2.5263028780566614,6.107377517014303,1.0170620679855347,-5.465299669896261
1708435953.3431218,-2.1407852172851562,-1.332986445432045,-2.5263267199145716,6.107307660370626,1.017073154449463,-5.465294424687521
1708435953.3451455,-2.1407525539398193,-1.3329537373832245,-2.5262745062457483,6.107353317528524,1.017048954963684,-5.465332392846243
1708435953.3471491,-2.1407525539398193,-1.3329451245120545,-2.526328150426046,6.107332694321432,1.0170819759368896,-5.4652627150165
1708435953.3491573,-2.1407392024993896,-1.332977832560875,-2.5262866655932825,6.107292282372274,1.0170323848724365,-5.465328101311819
1708435953.3511186,-2.1407222747802734,-1.3329537373832245,-2.5263400713550013,6.10727738121108,1.0170354843139648,-5.465348545704977
1708435953.3531444,-2.1407480239868164,-1.332961620097496,-2.5262985865222376,6.107326614647665,1.017032504081726,-5.465311590825216
1708435953.3551414,-2.1407480239868164,-1.3329289269498368,-2.5263028780566614,6.107235300331869,1.0170533657073975,-5.4652584234820765
1708435953.3571417,-2.1407551765441895,-1.3329408478787919,-2.5262821356402796,6.107227909355917,1.0170700550079346,-5.4652308265315455
1708435953.359129,-2.140773057937622,-1.3329375845244904,-2.5262940565692347,6.107248770981588,1.017069935798645,-5.465320114289419
1708435953.3611393,-2.1407809257507324,-1.3329333078912278,-2.5263119379626673,6.107299196511068,1.0170369148254395,-5.4652627150165
1708435953.3631482,-2.140794515609741,-1.3329616349986573,-2.526283327733175,6.107225167542257,1.0170577764511108,-5.465311590825216
1708435953.3651228,-2.1407570838928223,-1.3329936873963852,-2.5263519922839563,6.107237088471212,1.0170577764511108,-5.465279225503103
1708435953.3671505,-2.1407597064971924,-1.3329366457513352,-2.5263147989856165,6.107237088471212,1.0170818567276,-5.465283517037527
1708435953.3691566,-2.1407933235168457,-1.3329408776811142,-2.526344601308004,6.107183682709493,1.0170533657073975,-5.465295378361837
1708435953.37118,-2.1407480239868164,-1.332957999115326,-2.5262821356402796,6.107229459076681,1.0170893669128418,-5.465324405823843
1708435953.3731668,-2.140782117843628,-1.3329574030688782,-2.5263312498675745,6.107229459076681,1.0170609951019287,-5.465303961430685
1708435953.3751256,-2.140768527984619,-1.3329332929900666,-2.526328150426046,6.107168900757589,1.017102837562561,-5.465303961430685
1708435953.3771725,-2.1407899856567383,-1.3329451245120545,-2.526328150426046,6.107180702477255,1.0170655250549316,-5.465324465428488
1708435953.3791416,-2.140777587890625,-1.332937554722168,-2.5262909571277063,6.107200848847189,1.017037034034729,-5.465299669896261
1708435953.3811603,-2.140749216079712,-1.3329289567521592,-2.526278797780172,6.107136118202963,1.0170323848724365,-5.465214494858877
1708435953.383142,-2.1407570838928223,-1.3329333078912278,-2.5263028780566614,6.107180344849386,1.017037034034729,-5.465274933968679
1708435953.3851347,-2.1407570838928223,-1.3329778474620362,-2.526332680379049,6.107177483826437,1.0170234441757202,-5.465275589619772
1708435953.387135,-2.1407535076141357,-1.3329161268523713,-2.5263238588916224,6.107190477638998,1.0170533657073975,-5.465231482182638
1708435953.3891196,-2.140744686126709,-1.3329531860402604,-2.5263238588916224,6.107145654946127,1.0170577764511108,-5.465296212826864
1708435953.3911195,-2.1407310962677,-1.3329702776721497,-2.5262821356402796,6.1071979878242395,1.0170038938522339,-5.465279761944906
1708435953.3931355,-2.140718698501587,-1.3329246652177353,-2.5263477007495325,6.107169616013326,1.017020583152771,-5.46523499885668
1708435953.3951254,-2.140740156173706,-1.3329375398210068,-2.5263028780566614,6.107205378800192,1.0170369148254395,-5.465271298085348
1708435953.3971515,-2.1407570838928223,-1.3329581034234543,-2.5263119379626673,6.107169616013326,1.0170083045959473,-5.465287748967306
1708435953.3991163,-2.140744686126709,-1.3329170954278489,-2.5263028780566614,6.107104289322653,1.0170083045959473,-5.465247694646017
1708435953.4011445,-2.1407322883605957,-1.3329246503165741,-2.5263147989856165,6.107206690102377,1.0170533657073975,-5.465255443249838
1708435953.4031582,-2.140744686126709,-1.332946093087532,-2.5262821356402796,6.107141482620992,1.0170577764511108,-5.465268139039175
1708435953.4051418,-2.1406917572021484,-1.332933248286583,-2.5262745062457483,6.107112633972921,1.0170129537582397,-5.465275589619772
1708435953.4071388,-2.1407277584075928,-1.332966001038887,-2.5263400713550013,6.107087361603536,1.0170247554779053,-5.465296272431509
1708435953.4091141,-2.140720844268799,-1.3329580140164872,-2.5263193289386194,6.1071208594139,1.0170414447784424,-5.465316776429312
1708435953.4111476,-2.1406869888305664,-1.3330023151687165,-2.526328150426046,6.107133853226461,1.0169917345046997,-5.465268139039175
1708435953.4131281,-2.140744686126709,-1.3329418164542695,-2.5262625853167933,6.107121693878927,1.0170623064041138,-5.465296272431509
1708435953.4151192,-2.140707492828369,-1.3329735559276124,-2.5262909571277063,6.107089268952169,1.0170578956604004,-5.465316716824667
1708435953.417128,-2.1407322883605957,-1.3329375398210068,-2.5263357798205774,6.107097852021017,1.017033576965332,-5.46528405347933
1708435953.4191163,-2.1407368183135986,-1.3328844022801896,-2.5262821356402796,6.107134687691488,1.0169917345046997,-5.465283993874685
1708435953.4211233,-2.1407368183135986,-1.332912729387619,-2.5262654463397425,6.107138263970175,1.017000675201416,-5.4652597347842615
1708435953.4231353,-2.140700578689575,-1.3329289567521592,-2.5263312498675745,6.107049095421591,1.0170414447784424,-5.465287748967306
1708435953.4251463,-2.140716314315796,-1.3329298955253144,-2.5262821356402796,6.107093560486593,1.0170129537582397,-5.4653090874301355
1708435953.427157,-2.140700578689575,-1.3329288971475144,-2.5263267199145716,6.107118475228109,1.016996145248413,-5.465275530015127
1708435953.4291322,-2.1406760215759277,-1.3328758043101807,-2.526287857686178,6.107114064484396,1.0169633626937866,-5.465276781712667
1708435953.4311268,-2.1407322883605957,-1.3329745543054123,-2.5263074080096644,6.107084738999166,1.017038345336914,-5.465279761944906
1708435953.4331465,-2.140754461288452,-1.3329213720611115,-2.5262492338763636,6.107109772949972,1.0169888734817505,-5.465279761944906
1708435953.4351165,-2.1407368183135986,-1.3329332929900666,-2.5263074080096644,6.107085931092062,1.016988754272461,-5.46526819864382
1708435953.4371257,-2.1407253742218018,-1.3329537373832245,-2.5263686815844935,6.107068645745077,1.0170097351074219,-5.4652597347842615
1708435953.4391394,-2.140716314315796,-1.332986445432045,-2.5263193289386194,6.107065427094259,1.016931414604187,-5.465276781712667
1708435953.4411497,-2.1407666206359863,-1.332986445432045,-2.526287619267599,6.107093560486593,1.0169602632522583,-5.46526819864382
1708435953.4431443,-2.1406848430633545,-1.3329289269498368,-2.5262909571277063,6.107097852021017,1.0170022249221802,-5.465316716824667
1708435953.4451106,-2.140676975250244,-1.3328844022801896,-2.526300017033712,6.107085931092062,1.0169858932495117,-5.465251986180441
1708435953.4471643,-2.1407182216644287,-1.3329659861377259,-2.5263357798205774,6.1071064350898645,1.0170141458511353,-5.465231541787283
1708435953.4491158,-2.1406893730163574,-1.332937554722168,-2.526278797780172,6.107089268952169,1.0169479846954346,-5.465268139039175
1708435953.451114,-2.1406893730163574,-1.3329127144864579,-2.5262699762927454,6.107138979225912,1.0169737339019775,-5.465296272431509
1708435953.4531426,-2.140681028366089,-1.3329246652177353,-2.5262954870807093,6.107077348023214,1.0170096158981323,-5.465219322835104
1708435953.4551344,-2.1406590938568115,-1.332966686492302,-2.5262821356402796,6.107142555504598,1.016978144645691,-5.46528405347933
1708435953.4571588,-2.140681028366089,-1.3329408031753083,-2.5263193289386194,6.107109772949972,1.0169570446014404,-5.4652273694621485
1708435953.4591234,-2.140704870223999,-1.3329332780889054,-2.5262625853167933,6.1071345684821985,1.016936182975769,-5.465243581925527
1708435953.4611573,-2.1407182216644287,-1.3329451245120545,-2.526316229497091,6.107142555504598,1.0169570446014404,-5.465279761944906
1708435953.463165,-2.1407253742218018,-1.3329342615655442,-2.5262656847583216,6.107085931092062,1.0169614553451538,-5.465263907109396
1708435953.4651265,-2.140676975250244,-1.3328844022801896,-2.5263074080096644,6.107097852021017,1.0169570446014404,-5.465235833321707
1708435953.4671147,-2.1407227516174316,-1.3329332929900666,-2.526320759450094,6.107077228813925,1.0169451236724854,-5.465218786393301
1708435953.46911,-2.140676975250244,-1.3329332929900666,-2.5262699762927454,6.107061016350546,1.0169614553451538,-5.465247754250662
1708435953.471126,-2.1406946182250977,-1.3329702627709885,-2.5263238588916224,6.107077348023214,1.0169614553451538,-5.465279761944906
1708435953.47312,-2.140676975250244,-1.3329702776721497,-2.5262654463397425,6.107114064484396,1.0169451236724854,-5.465251986180441
1708435953.475134,-2.140685558319092,-1.3329289269498368,-2.5262413660632532,6.107171880989828,1.016924262046814,-5.465263907109396
1708435953.4771442,-2.1406900882720947,-1.332925633793213,-2.5262745062457483,6.107133853226461,1.016921043395996,-5.465251986180441
1708435953.4791675,-2.1406641006469727,-1.3329051744988938,-2.526254717503683,6.107068526535787,1.0169377326965332,-5.4652279059039515
1708435953.481115,-2.140685558319092,-1.3329289269498368,-2.526300017033712,6.107093560486593,1.0169614553451538,-5.465279761944906
1708435953.4831347,-2.140749931335449,-1.3329256188920517,-2.5262911955462855,6.107069718628683,1.0169165134429932,-5.465251986180441
1708435953.485134,-2.1407294273376465,-1.3329009127667923,-2.526283327733175,6.107163178711691,1.0169075727462769,-5.46530390182604
1708435953.487156,-2.140681028366089,-1.3329213720611115,-2.5262625853167933,6.107061016350546,1.0169119834899902,-5.465231541787283
1708435953.489131,-2.140676975250244,-1.3329622757485886,-2.5262745062457483,6.107127058296957,1.0169047117233276,-5.465263907109396
1708435953.491122,-2.1406686305999756,-1.3329332929900666,-2.526316229497091,6.107114064484396,1.0169540643692017,-5.465231541787283
1708435953.493179,-2.140676975250244,-1.3329289269498368,-2.5262866655932825,6.107056724816122,1.0168715715408325,-5.465231541787283
1708435953.495141,-2.140639543533325,-1.3329170954278489,-2.526304308568136,6.107115137368002,1.0168805122375488,-5.465263907109396
1708435953.497162,-2.140720844268799,-1.3329058301499863,-2.5263193289386194,6.107068645745077,1.0169299840927124,-5.465276781712667
1708435953.499139,-2.140655517578125,-1.332925633793213,-2.526283327733175,6.1071064350898645,1.0169017314910889,-5.465240065251486
1708435953.5011184,-2.140676975250244,-1.3329702627709885,-2.526320759450094,6.107138263970175,1.0168715715408325,-5.4652273694621485
1708435953.5031693,-2.140685558319092,-1.3329127442887803,-2.5262580553637903,6.107118475228109,1.016921043395996,-5.465268139039175
1708435953.5051422,-2.140749931335449,-1.3329332929900666,-2.526320759450094,6.107081639557638,1.0169017314910889,-5.465247754250662
1708435953.5071473,-2.140676975250244,-1.3329127442887803,-2.526304308568136,6.10711835601882,1.0168503522872925,-5.4652597347842615
1708435953.509164,-2.1407227516174316,-1.3329332929900666,-2.5262909571277063,6.1071345684821985,1.0169047117233276,-5.465279761944906
1708435953.5111558,-2.140639543533325,-1.3329008680633088,-2.52627140680422,6.107102143555441,1.0169001817703247,-5.4652926365481775
1708435953.5131476,-2.1407387256622314,-1.3329127442887803,-2.5262954870807093,6.107134687691488,1.0169390439987183,-5.465247754250662
1708435953.5151153,-2.140702486038208,-1.3329213720611115,-2.526304308568136,6.107109772949972,1.016897201538086,-5.465300504361288
1708435953.5171404,-2.1407227516174316,-1.3329451245120545,-2.526304308568136,6.107133853226461,1.016897201538086,-5.465320948754446
1708435953.519142,-2.140713691711426,-1.3329504442266007,-2.526292149220602,6.1070783016975305,1.0168728828430176,-5.465251092110769
1708435953.5211577,-2.140676975250244,-1.3328810048154374,-2.526292149220602,6.10707305648879,1.016897201538086,-5.465247754250662
1708435953.5231712,-2.140676975250244,-1.3329580140164872,-2.5262654463397425,6.107061016350546,1.0169062614440918,-5.465275589619772
1708435953.5251725,-2.140685558319092,-1.3329213720611115,-2.526259247456686,6.107130276947775,1.0168805122375488,-5.465263966714041
1708435953.527165,-2.1407430171966553,-1.3329094511321564,-2.526283327733175,6.107080447464742,1.016893744468689,-5.465255383645193
1708435953.529166,-2.1406893730163574,-1.3328476709178467,-2.5262416044818323,6.107097852021017,1.0169225931167603,-5.465266946946279
1708435953.5311391,-2.1407339572906494,-1.3329289269498368,-2.526292149220602,6.10711835601882,1.0168728828430176,-5.4652520457850855
1708435953.5331526,-2.140685558319092,-1.3329332929900666,-2.52627140680422,6.107142555504598,1.0168805122375488,-5.465231541787283
1708435953.5351658,-2.140702486038208,-1.3329009127667923,-2.526278797780172,6.107101070671835,1.0168850421905518,-5.465271238480703
1708435953.537137,-2.1406641006469727,-1.3329289269498368,-2.5262413660632532,6.107089268952169,1.0168728828430176,-5.46522301832308
1708435953.5391324,-2.140659809112549,-1.332937554722168,-2.526308838521139,6.1071345684821985,1.016877293586731,-5.465251986180441
1708435953.54116,-2.140659809112549,-1.3329537373832245,-2.526266876851217,6.107109772949972,1.0168805122375488,-5.465328697358267
1708435953.5431528,-2.140697956085205,-1.332946093087532,-2.5262954870807093,6.107101070671835,1.0168683528900146,-5.465240065251486
1708435953.545135,-2.140676975250244,-1.3329342615655442,-2.526337210332052,6.107077348023214,1.0169062614440918,-5.465300563965933
1708435953.5471578,-2.140702486038208,-1.3329702627709885,-2.526292149220602,6.107085931092062,1.0168520212173462,-5.465275589619772
1708435953.5491211,-2.1406900882720947,-1.3329702627709885,-2.526259247456686,6.10715018489913,1.0168728828430176,-5.465300504361288
1708435953.5511432,-2.1407179832458496,-1.3328682047179718,-2.526254717503683,6.107125985413351,1.0168519020080566,-5.465223077927725
1708435953.5531511,-2.140685558319092,-1.3328929257443924,-2.526278797780172,6.107096779137411,1.0168683528900146,-5.465214554463522
1708435953.5551338,-2.1407227516174316,-1.3329298955253144,-2.5263028780566614,6.107134687691488,1.0168774127960205,-5.465239230786459
1708435953.5571382,-2.1407227516174316,-1.3329170954278489,-2.5263119379626673,6.107133853226461,1.0168895721435547,-5.465255324040548
1708435953.5591254,-2.140681028366089,-1.332937554722168,-2.526245896016256,6.107158767967977,1.0168895721435547,-5.465296272431509
1708435953.5611334,-2.140681028366089,-1.3329051595977326,-2.526287857686178,6.107068526535787,1.0169062614440918,-5.465321008359091
1708435953.5631707,-2.140702486038208,-1.3329298955253144,-2.526266876851217,6.107121693878927,1.016893744468689,-5.465243522320883
1708435953.5651262,-2.140697956085205,-1.3329051595977326,-2.5262699762927454,6.1071544764335535,1.0169017314910889,-5.465222958718435
1708435953.5671525,-2.140713691711426,-1.3329332929900666,-2.526278797780172,6.107157695084371,1.016915202140808,-5.465198043976919
1708435953.5691292,-2.1406946182250977,-1.3329451096108933,-2.5263119379626673,6.107134687691488,1.0169017314910889,-5.465292100106375
1708435953.571117,-2.140747547149658,-1.3329547059587021,-2.52627140680422,6.107167589455404,1.0168850421905518,-5.465287748967306
1708435953.5731664,-2.140707015991211,-1.3329537522843857,-2.5262625853167933,6.107163059502401,1.016877293586731,-5.465271238480703
1708435953.575145,-2.140659809112549,-1.33297452450309,-2.5263119379626673,6.107130396157064,1.0168683528900146,-5.465299669896261
1708435953.5771484,-2.140702486038208,-1.3329137128642579,-2.526245896016256,6.107109772949972,1.0169017314910889,-5.465275589619772
1708435953.5791585,-2.140707015991211,-1.332925633793213,-2.5262954870807093,6.107130396157064,1.0168818235397339,-5.465296272431509
1708435953.5811543,-2.1406641006469727,-1.3329137128642579,-2.52627140680422,6.107121693878927,1.0169180631637573,-5.465292100106375
1708435953.5831647,-2.1407368183135986,-1.3329385232976456,-2.52627140680422,6.107117283135214,1.0168640613555908,-5.465271298085348
1708435953.585145,-2.1406731605529785,-1.332925633793213,-2.526275936757223,6.107186901360311,1.0169062614440918,-5.465320114289419
1708435953.587145,-2.140652656555176,-1.3329418313554307,-2.526283327733175,6.107187020569601,1.0168401002883911,-5.4652597347842615
1708435953.589121,-2.1406075954437256,-1.3328767132810135,-2.526316229497091,6.107093560486593,1.0169181823730469,-5.465283517037527
1708435953.591116,-2.1406819820404053,-1.3329058450511475,-2.526254717503683,6.107108580857076,1.0169017314910889,-5.465268258248464
1708435953.593138,-2.1406357288360596,-1.3328929257443924,-2.526250425969259,6.107121693878927,1.0168927907943726,-5.465255383645193
1708435953.5951288,-2.1406776905059814,-1.3329051744988938,-2.5262580553637903,6.107163059502401,1.016909122467041,-5.465299669896261
1708435953.5971432,-2.1406190395355225,-1.3329787862351914,-2.5263119379626673,6.107138263970175,1.016875982284546,-5.465299669896261
1708435953.599121,-2.1406900882720947,-1.3329298955253144,-2.526357952748434,6.107093560486593,1.0169512033462524,-5.465267006550924
1708435953.6011426,-2.1406731605529785,-1.332925633793213,-2.526300017033712,6.107108580857076,1.0169466733932495,-5.465262774621145
1708435953.603138,-2.1406900882720947,-1.3329332780889054,-2.526275936757223,6.107093560486593,1.0169254541397095,-5.465287808571951
1708435953.6051102,-2.1406404972076416,-1.3329213571599503,-2.5263074080096644,6.107138263970175,1.016909122467041,-5.46530390182604
1708435953.6071482,-2.1406571865081787,-1.3328965616277237,-2.5262909571277063,6.107121693878927,1.016909122467041,-5.4652584234820765
1708435953.609127,-2.1406447887420654,-1.3329580140164872,-2.526316229497091,6.107138979225912,1.0168670415878296,-5.465311590825216
1708435953.61112,-2.1406006813049316,-1.3329180789044877,-2.526245896016256,6.107130396157064,1.0169165134429932,-5.465328101311819
1708435953.6131604,-2.1405625343322754,-1.3329015535167237,-2.526320759450094,6.107096659928121,1.0169615745544434,-5.465283457432882
1708435953.615137,-2.1406166553497314,-1.3329547059587021,-2.526328150426046,6.107096779137411,1.0169332027435303,-5.465324465428488
1708435953.617147,-2.1406166553497314,-1.3329298955253144,-2.5262699762927454,6.10711835601882,1.016940712928772,-5.4653072396861475
1708435953.6191373,-2.1405928134918213,-1.3329580289176484,-2.5262821356402796,6.107130276947775,1.0169479846954346,-5.465295437966482
1708435953.621151,-2.140622854232788,-1.332966686492302,-2.5263028780566614,6.107109772949972,1.0169659852981567,-5.465328101311819
1708435953.623158,-2.140641450881958,-1.3329298955253144,-2.5263238588916224,6.107175099640646,1.0169570446014404,-5.465335671101705
1708435953.6251423,-2.140630006790161,-1.332938553099968,-2.526278797780172,6.107102143555441,1.0169932842254639,-5.46532375017275
1708435953.62712,-2.140610694885254,-1.3329709631255646,-2.526344601308004,6.107142555504598,1.0170022249221802,-5.465356115494863
1708435953.6291254,-2.140634298324585,-1.3329137128642579,-2.5263565222369593,6.107151257782736,1.017005205154419,-5.465360466633932
1708435953.6311293,-2.1405928134918213,-1.332897202377655,-2.5263238588916224,6.107130634575643,1.017026424407959,-5.465351883565084
1708435953.6331286,-2.1405351161956787,-1.3329418164542695,-2.5263312498675745,6.107143270760336,1.0170505046844482,-5.465315226708547
1708435953.635142,-2.1405563354492188,-1.3329622757485886,-2.5263477007495325,6.107090461045065,1.017038345336914,-5.465339903031484
1708435953.6371222,-2.1405653953552246,-1.3329015535167237,-2.526349131261007,6.107041466027059,1.0170323848724365,-5.465350989495413
1708435953.6391237,-2.1405327320098877,-1.332937554722168,-2.5263357798205774,6.107074010163107,1.0170624256134033,-5.465371433888571
1708435953.6411345,-2.1405372619628906,-1.3329180789044877,-2.5263238588916224,6.107106792717733,1.017102837562561,-5.465379122887747
1708435953.6431563,-2.1405744552612305,-1.3329299104264756,-2.526344601308004,6.107057797699728,1.0170611143112183,-5.465402845536367
1708435953.6451125,-2.1405255794525146,-1.3329556745341797,-2.5263267199145716,6.107025015145101,1.0171136856079102,-5.465382401143209
1708435953.647139,-2.1405177116394043,-1.332938553099968,-2.5263312498675745,6.107057797699728,1.017134666442871,-5.465374831353323
1708435953.6491241,-2.1405088901519775,-1.3329299104264756,-2.526372019444601,6.107051002770223,1.0171047449111938,-5.465431276951925
1708435953.6511388,-2.140559434890747,-1.3329058301499863,-2.5263267199145716,6.107033598213949,1.0171419382095337,-5.465435508881704
1708435953.6531854,-2.140472412109375,-1.3329537522843857,-2.5263643900500696,6.107030379563131,1.017133116722107,-5.465362016354696
1708435953.6551278,-2.140514373779297,-1.332938553099968,-2.526362959538595,6.106968271523275,1.0171571969985962,-5.465439860020773
1708435953.6571255,-2.140509843826294,-1.332938553099968,-2.526317898427145,6.1070124981696985,1.017214298248291,-5.465459350739614
1708435953.6591249,-2.140493869781494,-1.3329137128642579,-2.526400152836935,6.106963622360983,1.0172053575515747,-5.465463642274038
1708435953.661126,-2.1404645442962646,-1.3328691583922883,-2.526367489491598,6.106893169670858,1.0172516107559204,-5.465415064488546
1708435953.663118,-2.140411615371704,-1.3329709631255646,-2.526433054600851,6.106922852783956,1.0172592401504517,-5.465471271668569
1708435953.665126,-2.1404621601104736,-1.332942785029747,-2.526419703160421,6.106878268509664,1.0172621011734009,-5.465398554001943
1708435953.6671166,-2.1404576301574707,-1.3329142940095444,-2.526436154042379,6.106837856560507,1.0172908306121826,-5.465394322072164
1708435953.6691365,-2.1404011249542236,-1.3329015535167237,-2.5264228026019495,6.106776344567098,1.017317771911621,-5.465386633072988
1708435953.671129,-2.140420913696289,-1.332885355954506,-2.5264273325549524,6.1067999480064294,1.017392873764038,-5.465475563202993
1708435953.6731172,-2.140369415283203,-1.332946093087532,-2.5264678637133997,6.106697904854574,1.0173133611679077,-5.46541935602297
1708435953.6751106,-2.1403651237487793,-1.3328896325877686,-2.526425902043478,6.1067107794578455,1.017386794090271,-5.465475563202993
1708435953.6771224,-2.140373706817627,-1.3329180789044877,-2.526433531438009,6.106724130898275,1.017382264137268,-5.465459350739614
1708435953.6791708,-2.1403088569641113,-1.332926632171013,-2.526466433201925,6.106658208161154,1.0173734426498413,-5.465418521557943
1708435953.6812246,-2.140373706817627,-1.332873435025551,-2.5265279451953333,6.106618511467733,1.0174140930175781,-5.465438906346456
1708435953.6831698,-2.1403369903564453,-1.3329342764667054,-2.526515785847799,6.106615054398336,1.0174798965454102,-5.465483252202169
1708435953.6852183,-2.1403627395629883,-1.332885355954506,-2.5265067259417933,6.106595742493429,1.017483115196228,-5.465491716061727
1708435953.687129,-2.140305995941162,-1.332898111348488,-2.526499334965841,6.1065252898033044,1.0174787044525146,-5.465515915547506
1708435953.6891148,-2.1403303146362305,-1.3328647923520585,-2.5265560785876673,6.106580602913656,1.0174893140792847,-5.465478960667745
1708435953.6911485,-2.140265464782715,-1.3328939092210312,-2.5265725294696253,6.106522547989645,1.0175056457519531,-5.465498749409811
1708435953.693133,-2.140289783477783,-1.3329143089107056,-2.526533905659811,6.106503474503317,1.0175504684448242,-5.465531174336569
1708435953.6951175,-2.1402783393859863,-1.332926632171013,-2.5265546480761927,6.106467473297872,1.0175461769104004,-5.465543035660879
1708435953.6971242,-2.1402463912963867,-1.3328777116588135,-2.5265546480761927,6.106483685761251,1.0175868272781372,-5.465563718472616
1708435953.6991642,-2.1402134895324707,-1.3329180789044877,-2.5265546480761927,6.106459843903341,1.0175493955612183,-5.465518359337942
1708435953.701149,-2.1402220726013184,-1.332910106783249,-2.5265546480761927,6.1064432738120935,1.0175853967666626,-5.465498153363363
1708435953.7031603,-2.14021372795105,-1.3328605008176346,-2.526611868535177,6.1064151404197595,1.0176726579666138,-5.465546909962789
1708435953.705115,-2.1402182579040527,-1.332885355954506,-2.526665512715475,6.106358992844381,1.0176467895507812,-5.4655467907535
1708435953.707126,-2.1401944160461426,-1.3329180789044877,-2.5266147295581263,6.106363165169515,1.0176546573638916,-5.465559486542837
1708435953.709121,-2.1401495933532715,-1.332845391040184,-2.5266030470477503,6.1063804505165,1.0176740884780884,-5.465546850358145
1708435953.711129,-2.1401495933532715,-1.332898111348488,-2.5266640822040003,6.106286752014913,1.0176857709884644,-5.46561980644335
1708435953.7131388,-2.1401748657226562,-1.3328734201243897,-2.5266431013690394,6.10631953456954,1.0177266597747803,-5.46556264558901
1708435953.7151217,-2.140129804611206,-1.3328819286874314,-2.5266717115985315,6.106288182526388,1.0177761316299438,-5.4655219356166285
1708435953.717135,-2.1401467323303223,-1.3328862798265,-2.526679340993063,6.106259691506185,1.0177626609802246,-5.465574566517965
1708435953.7191207,-2.1400694847106934,-1.332881898885109,-2.526679340993063,6.1062283394630334,1.0177793502807617,-5.465574566517965
1708435953.7211764,-2.1400530338287354,-1.3329067540219803,-2.5267120043383997,6.10621606090621,1.0177825689315796,-5.465558354054586
1708435953.723129,-2.1400699615478516,-1.3329058301499863,-2.526707712803976,6.106248843460836,1.0177944898605347,-5.465591434632437
1708435953.7251372,-2.1400952339172363,-1.3329024773887177,-2.526670281087057,6.106254207878866,1.0178227424621582,-5.465546850358145
1708435953.7271335,-2.140078544616699,-1.3329067540219803,-2.526710573826925,6.106111156731405,1.0178378820419312,-5.465631012116567
1708435953.7291155,-2.1400671005249023,-1.3329024773887177,-2.5266733805285853,6.106107342034139,1.0178545713424683,-5.465659801159994
1708435953.7311325,-2.139997959136963,-1.332911030655243,-2.5267391840564173,6.106202232628622,1.0178574323654175,-5.465610627328054
1708435953.7331293,-2.140038013458252,-1.3328905564597626,-2.5267766157733362,6.106198656349935,1.0179277658462524,-5.465630892907278
1708435953.7351172,-2.139998435974121,-1.332825781112053,-2.5267258326159876,6.106161939888754,1.017935872077942,-5.465663437043325
1708435953.7371426,-2.1400551795959473,-1.33287467182193,-2.5267542044269007,6.106101023941793,1.0179849863052368,-5.465654019509451
1708435953.7391293,-2.1400508880615234,-1.3328939092210312,-2.5267513434039515,6.106121527939596,1.0179431438446045,-5.465666715298788
1708435953.741129,-2.1400279998779297,-1.332890586262085,-2.5267751852618616,6.106044757157125,1.0180000066757202,-5.465654019509451
1708435953.7431343,-2.139986038208008,-1.3328862649253388,-2.5268247763263147,6.106093156128683,1.0180333852767944,-5.465657416974203
1708435953.7451193,-2.139998435974121,-1.3328905564597626,-2.526820246373312,6.106150615006246,1.0179775953292847,-5.4657472411738794
1708435953.7471182,-2.1399989128112793,-1.332881898885109,-2.526815954838888,6.106122481613912,1.0180392265319824,-5.4657145778285425
1708435953.7491195,-2.1399946212768555,-1.332845316534378,-2.5268026033984583,6.1060043452079675,1.0180811882019043,-5.465710405503408
1708435953.7511177,-2.1399588584899902,-1.332817093735077,-2.526835266743795,6.105992305069723,1.018076777458191,-5.465693477784292
1708435953.753128,-2.1399946212768555,-1.3328538698009034,-2.5267935434924524,6.106029259949484,1.0180633068084717,-5.465738777314321
1708435953.7551336,-2.1399495601654053,-1.3328939092210312,-2.5268219153033655,6.106053340225973,1.0180543661117554,-5.465705458317892
1708435953.7571785,-2.1399383544921875,-1.3328624230674286,-2.52682334581484,6.106042253762045,1.018087387084961,-5.4657138029681605
1708435953.7591743,-2.1399426460266113,-1.332873435025551,-2.5269206205951136,6.106017339020529,1.0181233882904053,-5.465733830128805
1708435953.7611434,-2.1399312019348145,-1.332861841922142,-2.5268996397601526,6.1060454724128626,1.0181277990341187,-5.4657496253596705
1708435953.7631378,-2.139946937561035,-1.3328703951886673,-2.5268664995776575,6.106079327851095,1.0181233882904053,-5.465770725403921
1708435953.7651634,-2.139943838119507,-1.3328691285899659,-2.526886288319723,6.106021630554952,1.018173098564148,-5.465778295193807
1708435953.7671602,-2.13995099067688,-1.332861841922142,-2.526869837437765,6.10606204250411,1.0181552171707153,-5.465745393429891
1708435953.769145,-2.139894962310791,-1.3328333061984559,-2.5268729368792933,6.106062876969137,1.0181339979171753,-5.465789858494894
1708435953.7711573,-2.1398990154266357,-1.3327967089465638,-2.52696401277651,6.106071460037985,1.0181506872177124,-5.4657573143588465
1708435953.7731624,-2.1399240493774414,-1.3328453314355393,-2.526943031941549,6.106042134552755,1.0181671380996704,-5.465794090424673
1708435953.7751257,-2.139935255050659,-1.3328291040709992,-2.526947323475973,6.106082546501913,1.0181715488433838,-5.46580940881838
1708435953.7771337,-2.1398749351501465,-1.3328581613353272,-2.526910368596212,6.1060794470603845,1.0181654691696167,-5.46578568616976
1708435953.7791514,-2.139890670776367,-1.3328495037606736,-2.526938501988546,6.106066334038534,1.0182242393493652,-5.465850536023275
1708435953.781184,-2.139883518218994,-1.3328291040709992,-2.526947561894552,6.105988848000326,1.0181866884231567,-5.465837780629293
1708435953.7831879,-2.1399073600769043,-1.3328703951886673,-2.526947561894552,6.106037843018331,1.0182483196258545,-5.465866331254141
1708435953.785157,-2.139894962310791,-1.3328939092210312,-2.5269880930529993,6.106118905335226,1.018264651298523,-5.465870026742117
1708435953.7871199,-2.1399283409118652,-1.332861841922142,-2.5269792715655726,6.1060335514839075,1.018281102180481,-5.465849463139669
1708435953.789115,-2.1399288177490234,-1.3329153072885056,-2.5270045439349573,6.106009709625997,1.018264651298523,-5.465853575860159
1708435953.7911193,-2.1399030685424805,-1.3328703951886673,-2.5269373098956507,6.106042134552755,1.0182512998580933,-5.465898160134451
1708435953.793135,-2.139890670776367,-1.3328789484551926,-2.5269957224475306,6.106066334038534,1.0182839632034302,-5.465882066880361
1708435953.7951226,-2.139845848083496,-1.332898111348488,-2.5270076433764856,6.106049763947286,1.0183082818984985,-5.4658982197390955
1708435953.7971227,-2.1398749351501465,-1.3328419488719483,-2.526944939290182,6.105980145722189,1.0182994604110718,-5.4658982197390955
1708435953.7991135,-2.1398634910583496,-1.3328704249909897,-2.526986900960104,6.10600112655715,1.0183457136154175,-5.4658812324153345
1708435953.8011122,-2.139911651611328,-1.332862452869751,-2.527043883000509,6.10605405548171,1.0183082818984985,-5.465909544621603
1708435953.8031237,-2.1399073600769043,-1.3328129065087815,-2.5270357767688196,6.106046664505758,1.0183277130126953,-5.465905312691824
1708435953.8051116,-2.139899253845215,-1.3328703951886673,-2.5270031134234827,6.106021630554952,1.0182950496673584,-5.4659704009639185
1708435953.8071678,-2.139883518218994,-1.3328862649253388,-2.5270076433764856,6.105988132744589,1.0183321237564087,-5.46596193710436
1708435953.8091273,-2.1399035453796387,-1.3328495484641572,-2.526994291936056,6.106008636742391,1.018377423286438,-5.465908769761221
1708435953.8111563,-2.1399035453796387,-1.3328776818564911,-2.527026955281393,6.1060454724128626,1.0183560848236084,-5.465940777455465
1708435953.8131511,-2.1399035453796387,-1.332845316534378,-2.527069155369894,6.106103169709005,1.018318772315979,-5.4659534136401575
1708435953.8151348,-2.139890670776367,-1.3328734052232285,-2.5270572344409388,6.106066334038534,1.0183684825897217,-5.465961519871847
1708435953.8171246,-2.1398634910583496,-1.3328777116588135,-2.52698523203005,6.106049763947286,1.0183489322662354,-5.465969149266378
1708435953.819142,-2.139899253845215,-1.3329100918820878,-2.5270031134234827,6.106066334038534,1.0183354616165161,-5.465916160737173
1708435953.8211145,-2.139894962310791,-1.3329024773887177,-2.527043883000509,6.106036770134725,1.0183517932891846,-5.4660014549838465
1708435953.8231304,-2.139915943145752,-1.3328086298755188,-2.5270357767688196,6.106095659523763,1.0183604955673218,-5.465936485921041
1708435953.8251083,-2.139899253845215,-1.3329058301499863,-2.527076546345846,6.106021511345663,1.018376111984253,-5.465964917336599
1708435953.8271177,-2.139887809753418,-1.3329143089107056,-2.527072016392843,6.106028306275167,1.0183517932891846,-5.466009442006246
1708435953.829118,-2.1398792266845703,-1.3328905564597626,-2.527060333882467,6.10606204250411,1.0183594226837158,-5.466034058724539
1708435953.8311305,-2.139943838119507,-1.3329142493060608,-2.5270214716540735,6.106041061669149,1.018388032913208,-5.466032866631643
1708435953.8331394,-2.1398749351501465,-1.3328939241221924,-2.527060333882467,6.10602484920577,1.0183594226837158,-5.4660213629352015
1708435953.835153,-2.1399078369140625,-1.3328971874764939,-2.5270870367633265,6.106057631760397,1.0184088945388794,-5.465997223054067
1708435953.8371956,-2.1398630142211914,-1.3328532737544556,-2.5270586649524134,6.106029259949484,1.018388032913208,-5.466017071400778
1708435953.8391147,-2.139842987060547,-1.3328368377736588,-2.5270662943469446,6.106040346413412,1.0183550119400024,-5.466053251420156
1708435953.841161,-2.139827251434326,-1.332913727765419,-2.5271034876452845,6.106044757157125,1.0183675289154053,-5.466053251420156
1708435953.84314,-2.1398892402648926,-1.3328810346177598,-2.5270586649524134,6.106066334038534,1.0184251070022583,-5.466049019490377
1708435953.8451383,-2.1398720741271973,-1.3329180938056489,-2.5270662943469446,6.106094467430868,1.0183415412902832,-5.466110054646627
1708435953.8471372,-2.139838457107544,-1.3329666715911408,-2.5270915667163294,6.106057631760397,1.0184162855148315,-5.465996805821554
1708435953.849145,-2.1398024559020996,-1.3329874885133286,-2.5270662943469446,6.106097328453817,1.0183790922164917,-5.466081563626425
1708435953.8511517,-2.1398558616638184,-1.3328682494214554,-2.5270989576922815,6.106041061669149,1.0184284448623657,-5.466057125722067
1708435953.8531637,-2.139815330505371,-1.3329332929900666,-2.5271244684802454,6.106004225998678,1.0183955430984497,-5.466024581586019
1708435953.8551235,-2.139765977859497,-1.3329170805266877,-2.5271156469928187,6.106005298882284,1.0184118747711182,-5.466040078793661
1708435953.8571653,-2.1397476196289062,-1.3329332780889054,-2.527118508015768,6.106070625572958,1.0184149742126465,-5.466068927441732
1708435953.8591287,-2.139711380004883,-1.332966001038887,-2.527155939732687,6.106029259949484,1.018457055091858,-5.465991739426748
1708435953.861148,-2.1397271156311035,-1.3329693538001557,-2.527118508015768,6.106053340225973,1.018419623374939,-5.46608937183489
1708435953.8631525,-2.1396665573120117,-1.3329288971475144,-2.5271440188037317,6.105988848000326,1.0184437036514282,-5.466080907975332
1708435953.8651412,-2.139616012573242,-1.332957388167717,-2.5271843115436,6.106013047486105,1.0184811353683472,-5.466080907975332
1708435953.86718,-2.1395626068115234,-1.3329650175622483,-2.527130667363302,6.106001841812887,1.018484115600586,-5.466060523186819
1708435953.8691418,-2.139512300491333,-1.3329931062510987,-2.527159039174215,6.105932581215658,1.0185338258743286,-5.466093126927511
1708435953.871126,-2.139484405517578,-1.3329402071288605,-2.52717096010317,6.1059303162391565,1.018496036529541,-5.46606815258135
1708435953.8731372,-2.139432430267334,-1.3330374372056504,-2.5271664301501673,6.105861532479086,1.018593668937683,-5.466063920651571
1708435953.8751202,-2.139371395111084,-1.3330906492522736,-2.5271907488452356,6.1058010933692834,1.018565058708191,-5.466093126927511
1708435953.877148,-2.139291286468506,-1.333032490020134,-2.5271831194507044,6.1058095572288416,1.0185728073120117,-5.466084603463308
1708435953.8791456,-2.1392478942871094,-1.3330486726811905,-2.5271907488452356,6.105786907463827,1.0186090469360352,-5.466088835393087
1708435953.8811262,-2.1392414569854736,-1.3330725741437455,-2.527254883443014,6.105702149658956,1.0186657905578613,-5.466096524392263
1708435953.8831515,-2.1391243934631348,-1.33317422986541,-2.527242962514059,6.105654108315267,1.0186691284179688,-5.466092411671774
1708435953.8851285,-2.13901948928833,-1.3331211072257538,-2.5273075739489954,6.105632412224569,1.0186928510665894,-5.466080371533529
1708435953.8871744,-2.13893985748291,-1.3332103502801438,-2.5273569265948694,6.105563986092367,1.0187546014785767,-5.466100815926687
1708435953.889136,-2.138856887817383,-1.3332089644721528,-2.527334753667013,6.105442154198446,1.0187815427780151,-5.466092411671774
1708435953.8911273,-2.138808250427246,-1.3331555438092728,-2.5274036566363733,6.1053141234214685,1.0188509225845337,-5.466096524392263
1708435953.8931613,-2.1387174129486084,-1.3332246404937287,-2.5273903051959437,6.105302917748251,1.0188865661621094,-5.466157678757803
1708435953.8951159,-2.1386375427246094,-1.3333048683455964,-2.527454439793722,6.105195390969076,1.0188885927200317,-5.4661731163608
1708435953.8971379,-2.1385536193847656,-1.333320752983429,-2.527525011693136,6.105111706047811,1.018925666809082,-5.466152671967642
1708435953.8991244,-2.1384010314941406,-1.333300681119301,-2.5274983088122767,6.104967105179586,1.018924593925476,-5.466140035782949
1708435953.9011233,-2.1382734775543213,-1.3333278608373185,-2.5275636355029505,6.104900705605306,1.018965244293213,-5.466173056756155
1708435953.9031594,-2.1381545066833496,-1.333372489815094,-2.527623955403463,6.104679214745321,1.0190552473068237,-5.466172281895773
1708435953.9051545,-2.1379973888397217,-1.3334213954261322,-2.5276103655444544,6.104584920197286,1.0190507173538208,-5.466123882924215
1708435953.9071372,-2.1378746032714844,-1.3334406030229111,-2.527654234563009,6.104384410172262,1.0190569162368774,-5.466164592896597
1708435953.9091434,-2.137735605239868,-1.3334723871997376,-2.5277395884143274,6.104233491211691,1.0191421508789062,-5.4661442081080835
1708435953.9111283,-2.1375315189361572,-1.3334876012853165,-2.527766291295187,6.104057299881735,1.0191377401351929,-5.466188732777731
1708435953.913158,-2.137355327606201,-1.3335723143867035,-2.527827803288595,6.103919374733724,1.0192146301269531,-5.466167990361349
1708435953.9151268,-2.1371519565582275,-1.3335352850011368,-2.5278893152820032,6.103686678200521,1.0192338228225708,-5.466188732777731
1708435953.9171405,-2.136955738067627,-1.3335707050612946,-2.527935806904928,6.103495228081503,1.0192415714263916,-5.466200594102041
1708435953.9191165,-2.1367573738098145,-1.3336840730956574,-2.5279555956469935,6.103291857033529,1.0193469524383545,-5.46616763273348
1708435953.921136,-2.1364858150482178,-1.3336387437633057,-2.528015438710348,6.103040921479025,1.0194189548492432,-5.466208283101217
1708435953.9231496,-2.136286973953247,-1.3337437820485611,-2.528109614049093,6.102773773461141,1.0195598602294922,-5.466268722211019
1708435953.9251673,-2.1359429359436035,-1.333787502055504,-2.528135363255636,6.102517711907186,1.0195990800857544,-5.466219965611593
1708435953.9271448,-2.135694742202759,-1.3337703806212922,-2.5282073656665247,6.102273809700765,1.019782543182373,-5.4662601987468165
1708435953.9291205,-2.1354598999023438,-1.333842710857727,-2.528255287800924,6.101942050247946,1.0198485851287842,-5.4662638942347925
1708435953.931119,-2.135129451751709,-1.333858312373497,-2.5283647219287317,6.101659762650289,1.0199778079986572,-5.4662766496287745
1708435953.9331806,-2.1347992420196533,-1.3339097660830994,-2.5284202734576624,6.101364838867941,1.0200618505477905,-5.4662885705577295
1708435953.9351373,-2.1344845294952393,-1.3339820218137284,-2.528504196797506,6.100987303047933,1.020153522491455,-5.4662432710277
1708435953.9371524,-2.1341934204101562,-1.3339862686446686,-2.528571669255392,6.100603210717001,1.0203022956848145,-5.466328505669729
1708435953.9391332,-2.1337788105010986,-1.3340257120183487,-2.5287213961230677,6.100249993592062,1.020451307296753,-5.466339651738302
1708435953.9411418,-2.1334359645843506,-1.3340690743974228,-2.5288248697863978,6.099822509079733,1.020579218864441,-5.4663472215281885
1708435953.9431672,-2.1329848766326904,-1.3342023205808182,-2.5289045015918177,6.0993724940116785,1.020747184753418,-5.466359559689657
1708435953.9451182,-2.132572650909424,-1.3342376363328476,-2.5290334860431116,6.098964440613546,1.020917296409607,-5.466371421013967
1708435953.9471464,-2.1321768760681152,-1.3343578589013596,-2.529161039982931,6.098489033966818,1.0210057497024536,-5.46634686390032
1708435953.9491467,-2.1317460536956787,-1.3343734753182908,-2.5292447249041956,6.098058330803671,1.0211845636367798,-5.466436032448904
1708435953.9511356,-2.1313400268554688,-1.334433065061905,-2.529396359120504,6.097592460900106,1.0213408470153809,-5.466480497513906
1708435953.95318,-2.13077974319458,-1.3345004928163071,-2.5295658747302454,6.0970085737998865,1.0215498208999634,-5.466512326394216
1708435953.955139,-2.130321502685547,-1.3346291941455384,-2.529721800480978,6.096524345665731,1.0217258930206299,-5.466551963482992
1708435953.9571822,-2.129761219024658,-1.3346602779677887,-2.5299058596240442,6.095940696984091,1.021963357925415,-5.466535035763876
1708435953.9591296,-2.129225730895996,-1.3347320419600983,-2.5300381819354456,6.095305907517233,1.0221965312957764,-5.466575268899099
1708435953.961126,-2.1286473274230957,-1.334851400261261,-2.5301805178271692,6.094755637436666,1.022420048713684,-5.46658301750292
