Eg3-git/Classifiers/Data Collection/u3/u3www1_ur3e_joint_states.csv
time,elbow_joint,shoulder_lift_joint,shoulder_pan_joint,wrist_1_joint,wrist_2_joint,wrist_3_joint
1708435939.729085,-2.141690254211426,-1.3332020205310364,-2.5261991659747522,6.109809267311849,1.0167648792266846,-5.465554181729452
1708435939.7310436,-2.141707420349121,-1.3332079958966752,-2.5261917749988,6.109772193222799,1.0167648792266846,-5.465587262307302
1708435939.733072,-2.1417346000671387,-1.3331603121808548,-2.526203695927755,6.109785067826071,1.0168020725250244,-5.465566817914144
1708435939.7350485,-2.1417384147644043,-1.3331888330033799,-2.526196304951803,6.109727728157797,1.0167768001556396,-5.465578798447744
1708435939.737064,-2.1416945457458496,-1.333216817384102,-2.5261662642108362,6.109788405686178,1.0167484283447266,-5.465627495442526
1708435939.7390382,-2.141681432723999,-1.333172546034195,-2.5261545817004603,6.109748589783468,1.0167359113693237,-5.4655467907535
1708435939.7410822,-2.141721725463867,-1.333216817384102,-2.526179854069845,6.109775292664327,1.016781210899353,-5.465534512196676
1708435939.7430634,-2.1417031288146973,-1.333229885702469,-2.526170794163839,6.109748589783468,1.016781210899353,-5.465594951306478
1708435939.7450387,-2.1417059898376465,-1.3332047921470185,-2.5262203852282923,6.109767782479086,1.0167603492736816,-5.465574566517965
1708435939.7471015,-2.141742706298828,-1.333176926975586,-2.5261545817004603,6.109796988755026,1.0167559385299683,-5.46556264558901
1708435939.7490551,-2.1416735649108887,-1.333213598733284,-2.526170794163839,6.109776484757223,1.0167440176010132,-5.465538326893942
1708435939.7510538,-2.1417031288146973,-1.3332179945758362,-2.5261827150927942,6.109735595970907,1.016781210899353,-5.465578798447744
1708435939.7530835,-2.141690254211426,-1.3331802052310486,-2.526187245045797,6.109769093781271,1.016769289970398,-5.465574566517965
1708435939.7550423,-2.141742706298828,-1.3331961643746872,-2.526142422352926,6.109805691033163,1.0167529582977295,-5.465578798447744
1708435939.757069,-2.1417555809020996,-1.3331683290055771,-2.526170794163839,6.109773504524984,1.0167887210845947,-5.46556264558901
1708435939.7590518,-2.1416821479797363,-1.333237738614418,-2.5261336008654993,6.109776484757223,1.0167768001556396,-5.465534512196676
1708435939.761042,-2.141751289367676,-1.3332124215415497,-2.526154343281881,6.109776484757223,1.0167440176010132,-5.465594951306478
1708435939.763078,-2.1417346000671387,-1.3332377088120957,-2.5261827150927942,6.109760510712423,1.0167694091796875,-5.465550963078634
1708435939.7650404,-2.1417031288146973,-1.3332091730884095,-2.5261917749988,6.1098012802894495,1.0167394876480103,-5.465570334588186
1708435939.7670734,-2.1417174339294434,-1.3331845563701172,-2.526187245045797,6.109780776291647,1.016785740852356,-5.465554181729452
1708435939.7691073,-2.141751289367676,-1.3332136285356064,-2.5261827150927942,6.109760510712423,1.0167529582977295,-5.46556264558901
1708435939.7710469,-2.141718864440918,-1.3331277531436463,-2.526229206715719,6.109756219177999,1.016781210899353,-5.46556264558901
1708435939.7730603,-2.1416988372802734,-1.33316823959861,-2.5261917749988,6.109788405686178,1.0167648792266846,-5.465505782757894
1708435939.7750525,-2.1416988372802734,-1.3331845712712784,-2.526146952305929,6.109780776291647,1.0167529582977295,-5.465554241334097
1708435939.7770677,-2.141718864440918,-1.3332047772458573,-2.526203695927755,6.109744298249044,1.0167694091796875,-5.465594951306478
1708435939.7790499,-2.1417031288146973,-1.3332091730884095,-2.526179854069845,6.109776484757223,1.0167179107666016,-5.465554181729452
1708435939.7810473,-2.1416821479797363,-1.3332005006125947,-2.526212517415182,6.109800565033712,1.0168143510818481,-5.46563166776766
1708435939.7830553,-2.141718864440918,-1.3331559163383027,-2.526170794163839,6.109780657082357,1.0167559385299683,-5.4655667583095
1708435939.785039,-2.1417031288146973,-1.3331814122251053,-2.5261917749988,6.109776484757223,1.016797661781311,-5.465558413659231
1708435939.7870655,-2.141746997833252,-1.3332136136344452,-2.526184384022848,6.109695303231039,1.016769289970398,-5.4655948917018335
1708435939.7890515,-2.1416971683502197,-1.3332005006125947,-2.526154343281881,6.10982226112441,1.016785740852356,-5.465595010911123
1708435939.7910593,-2.1417346000671387,-1.3331559163383027,-2.5261827150927942,6.109719025879659,1.0167603492736816,-5.4655948917018335
1708435939.7931035,-2.1417388916015625,-1.3332180392793198,-2.5262158552752894,6.109816777497091,1.016781210899353,-5.465526882802145
1708435939.7950556,-2.141723155975342,-1.3332091879895707,-2.5261619726764124,6.109776484757223,1.016769289970398,-5.465574566517965
1708435939.797084,-2.1416988372802734,-1.3331888330033799,-2.526179854069845,6.109817850380697,1.0167768001556396,-5.465579573308126
1708435939.7990692,-2.141746997833252,-1.3332005453160782,-2.5262203852282923,6.109817850380697,1.0167677402496338,-5.465587321911947
1708435939.8010483,-2.141726016998291,-1.3331845861724396,-2.526187245045797,6.109780657082357,1.0168054103851318,-5.4655426184283655
1708435939.8030703,-2.141718864440918,-1.3332036447576066,-2.5261455217944544,6.109780657082357,1.016797661781311,-5.465555254613058
1708435939.8050532,-2.1417431831359863,-1.3331639629653473,-2.526229206715719,6.109788405686178,1.016817331314087,-5.465514246617452
1708435939.8070805,-2.1417593955993652,-1.3331961792758484,-2.526170794163839,6.109796273499288,1.0167723894119263,-5.465514187012808
1708435939.8090858,-2.141751289367676,-1.3332124513438721,-2.526179854069845,6.109763371735372,1.0167887210845947,-5.46556264558901
1708435939.8110473,-2.14168643951416,-1.3331595224193116,-2.526142422352926,6.1097320196922205,1.0168352127075195,-5.465530399476187
1708435939.81308,-2.1417031288146973,-1.3332048070481797,-2.5261662642108362,6.109792697220602,1.0167784690856934,-5.465563718472616
1708435939.8150403,-2.141690731048584,-1.3332136136344452,-2.5262203852282923,6.109796988755026,1.0167677402496338,-5.465518359337942
1708435939.8170853,-2.141730308532715,-1.3331725758365174,-2.5262234846698206,6.109760629921713,1.016781210899353,-5.4655107895480555
1708435939.819088,-2.141730308532715,-1.3331725609353562,-2.526158873234884,6.109792697220602,1.0167887210845947,-5.4654980341540735
1708435939.821115,-2.1417384147644043,-1.3331725758365174,-2.526187245045797,6.109841811447897,1.016800880432129,-5.465534452592031
1708435939.8230665,-2.1417346000671387,-1.3331353974393387,-2.526158873234884,6.109813558846273,1.0167514085769653,-5.465551439915792
1708435939.8250613,-2.141726016998291,-1.3331932139447709,-2.526203695927755,6.109760510712423,1.0167603492736816,-5.465506498013632
1708435939.8270693,-2.1417346000671387,-1.3331725758365174,-2.5261781851397913,6.109780657082357,1.0167722702026367,-5.465571109448568
1708435939.8290453,-2.141681432723999,-1.333200530414917,-2.526187245045797,6.109838592797079,1.0167677402496338,-5.465555791054861
1708435939.8310418,-2.1417031288146973,-1.3332091730884095,-2.526170794163839,6.109808194428243,1.0167813301086426,-5.4655388037311
1708435939.8330734,-2.1417102813720703,-1.3331976544908066,-2.526187245045797,6.109767782479086,1.0167932510375977,-5.465503040944235
1708435939.835049,-2.1417102813720703,-1.3332048070481797,-2.526187245045797,6.109780776291647,1.0167242288589478,-5.465522650872366
1708435939.8370788,-2.141746997833252,-1.333188847904541,-2.5261827150927942,6.109748589783468,1.016818881034851,-5.465523604546682
1708435939.8390796,-2.141714572906494,-1.3332497042468567,-2.5261662642108362,6.109751808434286,1.0168262720108032,-5.465510670338766
1708435939.841057,-2.141723155975342,-1.333200530414917,-2.5262532869922083,6.1098211882408044,1.0167796611785889,-5.465470317994253
1708435939.8430588,-2.141718864440918,-1.3331397038749238,-2.5261917749988,6.109785067826071,1.0167604684829712,-5.465466026459829
1708435939.8450482,-2.14168643951416,-1.333217979674675,-2.5262203852282923,6.109727728157797,1.0167514085769653,-5.465503040944235
1708435939.847067,-2.141714572906494,-1.333217979674675,-2.5261991659747522,6.109796988755026,1.0167559385299683,-5.465490225945608
1708435939.84906,-2.1416821479797363,-1.3332210642150422,-2.5261500517474573,6.109772193222799,1.016793131828308,-5.46553218761553
1708435939.8510613,-2.1417102813720703,-1.3331639629653473,-2.5261662642108362,6.109723436623373,1.0168143510818481,-5.4655354658709925
1708435939.8530674,-2.141690254211426,-1.333188847904541,-2.5261827150927942,6.109813558846273,1.0167559385299683,-5.465478960667745
1708435939.85505,-2.1416988372802734,-1.333200530414917,-2.5261662642108362,6.109751808434286,1.0167768001556396,-5.465454165135519
1708435939.85708,-2.1417384147644043,-1.3331802052310486,-2.5261455217944544,6.109776484757223,1.0168054103851318,-5.465511624013082
1708435939.859054,-2.1417384147644043,-1.3331725609353562,-2.5262158552752894,6.109764802246847,1.0167677402496338,-5.465438965951101
1708435939.861037,-2.1416945457458496,-1.3332135838321229,-2.526208225880758,6.109783994942465,1.0167723894119263,-5.465435568486349
1708435939.8630567,-2.1416988372802734,-1.333176926975586,-2.526187245045797,6.109793770104208,1.016800880432129,-5.465446595345632
1708435939.8650477,-2.141707420349121,-1.3331647676280518,-2.526170794163839,6.109813558846273,1.016800880432129,-5.465450827275411
1708435939.8670886,-2.141730308532715,-1.3331845861724396,-2.526207987462179,6.109776484757223,1.0168099403381348,-5.4654022494899195
1708435939.8690593,-2.1417384147644043,-1.333200530414917,-2.526187245045797,6.1097320196922205,1.0167841911315918,-5.465406541024343
1708435939.8710542,-2.141742706298828,-1.3331845712712784,-2.526196066533224,6.109772193222799,1.0167648792266846,-5.465410832558767
1708435939.8731015,-2.1417059898376465,-1.3332254600575943,-2.5262067953692835,6.109800565033712,1.0167440176010132,-5.465451721345083
1708435939.8750544,-2.1417102813720703,-1.3332124513438721,-2.5261665026294153,6.109776484757223,1.0167723894119263,-5.465386633072988
1708435939.8770547,-2.141746997833252,-1.3331725609353562,-2.526179615651266,6.109783994942465,1.016781210899353,-5.465402845536367
1708435939.879046,-2.1417102813720703,-1.3332386326840897,-2.5261662642108362,6.109772193222799,1.016793131828308,-5.46541148820986
1708435939.8810716,-2.1417102813720703,-1.3331845861724396,-2.5261827150927942,6.109727728157797,1.016812801361084,-5.465435568486349
1708435939.8830678,-2.141690254211426,-1.333151714210846,-2.526170794163839,6.1097038862998865,1.0167514085769653,-5.4654399196254175
1708435939.8850632,-2.1417031288146973,-1.3331639629653473,-2.5261827150927942,6.10972689369277,1.0167677402496338,-5.465451780949728
1708435939.8870654,-2.1417384147644043,-1.3331725609353562,-2.526196304951803,6.109760629921713,1.0168054103851318,-5.465390984212057
1708435939.8891158,-2.141730308532715,-1.333176926975586,-2.526163403187887,6.109773504524984,1.0167723894119263,-5.465362910424368
1708435939.8910441,-2.1417059898376465,-1.3332254153541108,-2.526154343281881,6.109748589783468,1.0167768001556396,-5.465395275746481
1708435939.8930454,-2.1417346000671387,-1.3332299006036301,-2.5261245409594935,6.109769093781271,1.0167604684829712,-5.465399567280905
1708435939.8950558,-2.1417558193206787,-1.3332091730884095,-2.5261781851397913,6.109809267311849,1.016800880432129,-5.465371433888571
1708435939.897067,-2.1416988372802734,-1.333216817384102,-2.526207987462179,6.109776484757223,1.0167559385299683,-5.4653876463519495
1708435939.89906,-2.141714572906494,-1.3332091730884095,-2.5261991659747522,6.109719025879659,1.0167633295059204,-5.465383354817526
1708435939.9010415,-2.1417031288146973,-1.333250806932785,-2.526196304951803,6.1097320196922205,1.0167932510375977,-5.465391878281729
1708435939.9030552,-2.141711711883545,-1.3331845712712784,-2.526221577321188,6.109780776291647,1.0167887210845947,-5.465363804494039
1708435939.9050496,-2.141730308532715,-1.3331639927676697,-2.5261917749988,6.10974000671462,1.0167723894119263,-5.465350929890768
1708435939.9070528,-2.141730308532715,-1.3332210940173645,-2.526203695927755,6.109744298249044,1.0167677402496338,-5.465339068566458
1708435939.9090803,-2.14168643951416,-1.333151714210846,-2.526203695927755,6.109760510712423,1.0167723894119263,-5.465363804494039
1708435939.9110515,-2.141707420349121,-1.3332048070481797,-2.526187245045797,6.109776484757223,1.0168054103851318,-5.465314273034231
1708435939.9130816,-2.1417102813720703,-1.333200530414917,-2.5261545817004603,6.109776484757223,1.0167559385299683,-5.465355221425192
1708435939.9150817,-2.141726016998291,-1.3331682843020936,-2.526229206715719,6.109776484757223,1.0167768001556396,-5.465403858815328
1708435939.9170544,-2.1417274475097656,-1.3332091730884095,-2.5262203852282923,6.109760510712423,1.0167768001556396,-5.465351883565084
1708435939.9190707,-2.1416611671447754,-1.3331473183682938,-2.5262158552752894,6.109744298249044,1.0167768001556396,-5.465380016957418
1708435939.9210632,-2.1416778564453125,-1.333188847904541,-2.5261545817004603,6.109769093781271,1.016793131828308,-5.4653722683535975
1708435939.9230735,-2.1417102813720703,-1.333200530414917,-2.526170794163839,6.109752881317892,1.0167723894119263,-5.4653194586383265
1708435939.9250546,-2.1416945457458496,-1.3331647676280518,-2.526196304951803,6.109764802246847,1.0168429613113403,-5.465384248887197
1708435939.9270518,-2.1417388916015625,-1.3331976395896454,-2.5261662642108362,6.109773504524984,1.0168099403381348,-5.465380016957418
1708435939.9290514,-2.141723155975342,-1.3331397038749238,-2.526187245045797,6.10970817783431,1.0167932510375977,-5.465363804494039
1708435939.9310462,-2.1416945457458496,-1.3331516844085236,-2.5261917749988,6.109764802246847,1.016800880432129,-5.465310935174124
1708435939.9330964,-2.141718864440918,-1.3332223457149048,-2.5261917749988,6.109736311226644,1.0167633295059204,-5.465302948151724
1708435939.935033,-2.1417384147644043,-1.3331961792758484,-2.526187245045797,6.109770285874166,1.0167135000228882,-5.4653271476375025
1708435939.9370499,-2.141775369644165,-1.3331976395896454,-2.526220146809713,6.109748589783468,1.0168308019638062,-5.4653194586383265
1708435939.939053,-2.141746997833252,-1.3332179349711915,-2.5261455217944544,6.109780776291647,1.0168262720108032,-5.465315226708547
1708435939.9410489,-2.1417031288146973,-1.3331516844085236,-2.526196066533224,6.109724509506979,1.016797661781311,-5.4653799573527735
1708435939.9430778,-2.141718864440918,-1.3331757646850129,-2.526200596486227,6.109789478569784,1.0168187618255615,-5.465339903031484
1708435939.94503,-2.141718864440918,-1.3332048070481797,-2.526224676762716,6.109780776291647,1.0168143510818481,-5.465372327958242
1708435939.947053,-2.141723155975342,-1.333176926975586,-2.5261500517474573,6.109748589783468,1.0167768001556396,-5.465344373379843
1708435939.9490426,-2.14168643951416,-1.333209143286087,-2.526233736668722,6.109752881317892,1.016793131828308,-5.46532375017275
1708435939.9510536,-2.1416494846343994,-1.333200530414917,-2.52620512643923,6.109769093781271,1.0167396068572998,-5.4653072396861475
1708435939.9530702,-2.1416778564453125,-1.3331725609353562,-2.526187245045797,6.109798061638632,1.0168143510818481,-5.465357247983114
1708435939.9550552,-2.14168643951416,-1.3331900996020813,-2.5261827150927942,6.109695184021749,1.0167604684829712,-5.465323809777395
1708435939.957075,-2.141751289367676,-1.333200530414917,-2.526179854069845,6.109792697220602,1.0167559385299683,-5.465295378361837
1708435939.959052,-2.1417031288146973,-1.3332135838321229,-2.5261619726764124,6.109715688019552,1.0168143510818481,-5.465275589619772
1708435939.9610546,-2.1417346000671387,-1.3331559610417862,-2.5261619726764124,6.109761583596029,1.016781210899353,-5.4653083125697535
1708435939.9630609,-2.1416778564453125,-1.333176926975586,-2.526154343281881,6.1097909090812585,1.016800880432129,-5.465259675179617
1708435939.965046,-2.14168643951416,-1.333188847904541,-2.526187245045797,6.109672176628866,1.0168054103851318,-5.465255324040548
1708435939.967075,-2.141718864440918,-1.3332091730884095,-2.526126209889547,6.109764802246847,1.0168143510818481,-5.465243462716238
1708435939.969065,-2.141695022583008,-1.3331559610417862,-2.5261991659747522,6.109752881317892,1.0168352127075195,-5.465227309857504
1708435939.9710522,-2.141723155975342,-1.3331845861724396,-2.526187245045797,6.109789478569784,1.016781210899353,-5.46523487964739
1708435939.9731166,-2.1416988372802734,-1.3332124513438721,-2.5261455217944544,6.109699475556173,1.0168143510818481,-5.465243522320883
1708435939.9750302,-2.141690731048584,-1.3331725609353562,-2.526158873234884,6.109724509506979,1.0167559385299683,-5.465243522320883
1708435939.9770737,-2.141751289367676,-1.3331976395896454,-2.526187245045797,6.109752881317892,1.016797661781311,-5.4652273694621485
1708435939.9790876,-2.141714572906494,-1.3332254600575943,-2.5261917749988,6.109770285874166,1.0167604684829712,-5.465246800576345
1708435939.9810727,-2.1417346000671387,-1.3332136136344452,-2.5261781851397913,6.1097168801124475,1.0167648792266846,-5.465219263230459
1708435939.9830947,-2.141726016998291,-1.333168314104416,-2.5261917749988,6.109721171646871,1.0167512893676758,-5.4653048555003565
1708435939.985032,-2.141674041748047,-1.333200530414917,-2.526212517415182,6.109626638680258,1.0167359113693237,-5.46526819864382
1708435939.987079,-2.1417722702026367,-1.3331961792758484,-2.5261662642108362,6.109741794853964,1.0167484283447266,-5.465251986180441
1708435939.9890687,-2.14168643951416,-1.3331931990436097,-2.526187245045797,6.109709369927206,1.0167440176010132,-5.465251986180441
1708435939.9910598,-2.1416988372802734,-1.3332168024829407,-2.5261665026294153,6.109733092575826,1.0167768001556396,-5.4652562777148646
1708435939.9930675,-2.1416821479797363,-1.3331873577884217,-2.526175324116842,6.109696256905355,1.016797661781311,-5.465247694646017
1708435939.9950588,-2.141746997833252,-1.333151714210846,-2.5261917749988,6.109688389092245,1.016802191734314,-5.465288345013754
1708435939.9971051,-2.1416778564453125,-1.3331813675216218,-2.526187245045797,6.109738576203146,1.016781210899353,-5.465235773717062
1708435939.9990826,-2.1416988372802734,-1.333176926975586,-2.526220146809713,6.109692799835958,1.0167932510375977,-5.465247694646017
1708435940.0010555,-2.141669750213623,-1.3332420152476807,-2.5261781851397913,6.109664666443624,1.0167813301086426,-5.465292696152822
1708435940.003093,-2.1417102813720703,-1.333237664108612,-2.5261381308185022,6.109718072205343,1.016793131828308,-5.4652724901782435
1708435940.005037,-2.141707420349121,-1.333176926975586,-2.5261827150927942,6.109676587372579,1.0167813301086426,-5.465248707924978
1708435940.0070744,-2.1417274475097656,-1.3331931990436097,-2.5261991659747522,6.109672176628866,1.0167485475540161,-5.4652562777148646
1708435940.0090804,-2.141714572906494,-1.333148480658867,-2.5261917749988,6.109750497132101,1.016797661781311,-5.465275589619772
1708435940.011046,-2.14168643951416,-1.3331551116755982,-2.5261827150927942,6.109692799835958,1.0167529582977295,-5.4652724901782435
1708435940.013061,-2.1416568756103516,-1.3331932139447709,-2.5261917749988,6.109705793648519,1.0167529582977295,-5.4652724901782435
1708435940.0150278,-2.14168643951416,-1.33323426664386,-2.526154343281881,6.109664666443624,1.0167648792266846,-5.4652562777148646
1708435940.0170634,-2.141714572906494,-1.3331647676280518,-2.5261917749988,6.109726655274191,1.016785740852356,-5.4652724901782435
1708435940.0190566,-2.141714572906494,-1.3332020205310364,-2.5261917749988,6.109676587372579,1.016802191734314,-5.46528405347933
1708435940.0211766,-2.141723155975342,-1.3332168024829407,-2.5261917749988,6.109661328583517,1.0167768001556396,-5.465219263230459
1708435940.0230665,-2.1417031288146973,-1.3331516844085236,-2.526208225880758,6.109648334770956,1.0167813301086426,-5.465292696152822
1708435940.025048,-2.1417031288146973,-1.3332048070481797,-2.5261991659747522,6.109603988915243,1.0167269706726074,-5.4652724901782435
1708435940.0270557,-2.1416783332824707,-1.333250806932785,-2.5261545817004603,6.109640824585714,1.016785740852356,-5.4652724901782435
1708435940.0290475,-2.1416537761688232,-1.3331845712712784,-2.526203695927755,6.109658109932699,1.0167529582977295,-5.46526819864382
1708435940.0310316,-2.1416988372802734,-1.333188847904541,-2.526176993046896,6.109683143883505,1.0167903900146484,-5.4652562777148646
1708435940.0330534,-2.1416778564453125,-1.3332299006036301,-2.526187245045797,6.109609353333273,1.0167440176010132,-5.465244416390554
1708435940.0350437,-2.1417031288146973,-1.333200530414917,-2.526187245045797,6.1096463082130334,1.0167529582977295,-5.4652724901782435
1708435940.037059,-2.141669750213623,-1.3332063418677826,-2.526170794163839,6.109577762871542,1.016781210899353,-5.465251986180441
1708435940.0390742,-2.141665458679199,-1.3332210940173645,-2.526203695927755,6.1095690605934045,1.0167768001556396,-5.465231482182638
1708435940.0410547,-2.1417031288146973,-1.333151714210846,-2.526203695927755,6.1096593020255945,1.016793131828308,-5.465243522320883
1708435940.0430427,-2.1417031288146973,-1.333160327082016,-2.5261991659747522,6.109556782036581,1.0167440176010132,-5.465247694646017
1708435940.0450592,-2.1416494846343994,-1.3332063865712662,-2.526187245045797,6.1095971939857385,1.016793131828308,-5.465263907109396
1708435940.047071,-2.141674041748047,-1.333176926975586,-2.526187245045797,6.109533417015829,1.0167359113693237,-5.465219263230459
1708435940.0490396,-2.1416988372802734,-1.333200530414917,-2.5261827150927942,6.109544980316915,1.016769289970398,-5.465227309857504
1708435940.0510278,-2.14168643951416,-1.3332048070481797,-2.526179854069845,6.109565484314718,1.0167440176010132,-5.46525621811022
1708435940.0530412,-2.14168643951416,-1.3331802052310486,-2.52616793314089,6.109577762871542,1.0167887210845947,-5.46528405347933
1708435940.05504,-2.14168643951416,-1.333160327082016,-2.526224676762716,6.109573352127828,1.0168054103851318,-5.46526819864382
1708435940.057062,-2.141690731048584,-1.3332254153541108,-2.526187245045797,6.109536278038778,1.0167887210845947,-5.4653048555003565
1708435940.0590367,-2.141674041748047,-1.3331639629653473,-2.526187245045797,6.109577762871542,1.0168099403381348,-5.465288345013754
1708435940.0610404,-2.1416501998901367,-1.3331440550139924,-2.526208225880758,6.109536278038778,1.016800880432129,-5.465251986180441
1708435940.0630462,-2.1416537761688232,-1.3332091730884095,-2.526208225880758,6.109521376877584,1.0168054103851318,-5.465198818837301
1708435940.0650475,-2.141637086868286,-1.333176926975586,-2.5261617342578333,6.1095290062721155,1.0167603492736816,-5.46521503130068
1708435940.0670564,-2.141624689102173,-1.3331639629653473,-2.526154343281881,6.109544980316915,1.0167723894119263,-5.465279821549551
1708435940.0690649,-2.141669750213623,-1.3331757944873353,-2.5261736551867884,6.109492885857382,1.016812801361084,-5.465285364781515
1708435940.0710351,-2.1416828632354736,-1.3331931990436097,-2.5262113253222864,6.109553444176473,1.016791820526123,-5.465251986180441
1708435940.0730534,-2.141645669937134,-1.3331845861724396,-2.5261946360217493,6.109550702362814,1.0168262720108032,-5.465260628853933
1708435940.0750382,-2.14164137840271,-1.3331682843020936,-2.5261810461627405,6.1095090983207605,1.0168296098709106,-5.465251986180441
1708435940.0770571,-2.1416501998901367,-1.333200530414917,-2.5261810461627405,6.109521376877584,1.016791820526123,-5.465279761944906
1708435940.079049,-2.1416544914245605,-1.333168314104416,-2.5262370745288294,6.109525668412008,1.0168036222457886,-5.465292100106375
1708435940.081052,-2.1416501998901367,-1.333151714210846,-2.5262234846698206,6.109460341721334,1.0168653726577759,-5.465279821549551
1708435940.0830426,-2.141606330871582,-1.3331802052310486,-2.526242796574728,6.109501588135519,1.0168789625167847,-5.465287748967306
1708435940.0850456,-2.141617774963379,-1.333190069799759,-2.526242796574728,6.109472262650289,1.0168609619140625,-5.465283457432882
1708435940.087067,-2.1416306495666504,-1.3332298559001465,-2.52625018755068,6.109507071762838,1.0169107913970947,-5.465266946946279
1708435940.089087,-2.1416220664978027,-1.333188847904541,-2.526238266621725,6.109473454743185,1.0169299840927124,-5.465299729500906
1708435940.0910518,-2.141610622406006,-1.3331857335618515,-2.526300017033712,6.109452473908224,1.0169795751571655,-5.465344313775198
1708435940.0930734,-2.141610622406006,-1.3331484955600281,-2.526300017033712,6.109420048981466,1.0169541835784912,-5.465315167103903
1708435940.095035,-2.141634941101074,-1.3331976544908066,-2.526358429585592,6.109469878464498,1.0169692039489746,-5.4653475920306605
1708435940.0970619,-2.141594409942627,-1.333200530414917,-2.5262742678271692,6.109376776009359,1.0170472860336304,-5.465403858815328
1708435940.099071,-2.141627788543701,-1.3331961643746872,-2.5263221899615687,6.1094504473503015,1.0170668363571167,-5.465358559285299
1708435940.1010385,-2.1416025161743164,-1.3331725758365174,-2.526376549397604,6.109373199730673,1.0170818567276,-5.465402845536367
1708435940.1030514,-2.141545057296753,-1.3331682843020936,-2.526341740285055,6.109344947129049,1.0171228647232056,-5.465438906346456
1708435940.10508,-2.1415786743164062,-1.3331559759429474,-2.526362959538595,6.109374391823568,1.0171210765838623,-5.465463642274038
1708435940.1070495,-2.141587495803833,-1.3331277829459687,-2.526428763066427,6.109350549965658,1.0171284675598145,-5.465450827275411
1708435940.109067,-2.141571044921875,-1.3332210940173645,-2.5264318625079554,6.10925708988265,1.0171825885772705,-5.465471331273214
1708435940.111027,-2.141514301300049,-1.3331961792758484,-2.526463333760397,6.109274375229635,1.017214298248291,-5.465478960667745
1708435940.1130528,-2.1415467262268066,-1.3331961792758484,-2.5264843145953577,6.1093190787132166,1.0172756910324097,-5.465486530457632
1708435940.1150508,-2.1415352821350098,-1.3331682843020936,-2.526508394871847,6.109204757004537,1.017299771308899,-5.465506498013632
1708435940.1170435,-2.141514301300049,-1.3331976395896454,-2.526537005101339,6.109246957093038,1.0173312425613403,-5.46559572616686
1708435940.119052,-2.1415395736694336,-1.3332047921470185,-2.526511255894796,6.109158146172323,1.0173839330673218,-5.465602938328878
1708435940.1210825,-2.1414794921875,-1.333188847904541,-2.5265262762652796,6.109153854637899,1.0173524618148804,-5.465594414864675
1708435940.1230903,-2.141458511352539,-1.3331931990436097,-2.5265846888171595,6.10916684845046,1.017423152923584,-5.4656352440463465
1708435940.1250556,-2.1414794921875,-1.333200530414917,-2.5265846888171595,6.109142768173971,1.0174665451049805,-5.465650920067922
1708435940.1270697,-2.1414713859558105,-1.3332179349711915,-2.526590887700216,6.109154689102926,1.0175312757492065,-5.465682331715719
1708435940.1290822,-2.141418933868408,-1.3331647676280518,-2.526574198399679,6.109110939293661,1.017531394958496,-5.465739313756124
1708435940.1310525,-2.1413614749908447,-1.3332047921470185,-2.5266643206225794,6.109053957253256,1.0175538063049316,-5.465750698243276
1708435940.133093,-2.1413955688476562,-1.333163933163025,-2.5266671816455286,6.109075653343954,1.017594337463379,-5.465827171002523
1708435940.1350706,-2.1413474082946777,-1.3331813675216218,-2.5267332235919397,6.108968722611227,1.0176559686660767,-5.465794090424673
1708435940.1370788,-2.1413350105285645,-1.3331845712712784,-2.526719633732931,6.109011161118307,1.0177119970321655,-5.465842012559072
1708435940.1390786,-2.1413609981536865,-1.333180235033371,-2.5267227331744593,6.108962404518881,1.017681360244751,-5.465853575860159
1708435940.1410842,-2.1413354873657227,-1.3331845712712784,-2.5267677942859095,6.1089666960533044,1.0177507400512695,-5.4658982197390955
1708435940.143065,-2.1412546634674072,-1.3332376939109345,-2.5267496744738978,6.10890685298995,1.0177961587905884,-5.4658735434161585
1708435940.1450617,-2.1412806510925293,-1.333201990728714,-2.52675706544985,6.1089361784751794,1.0178316831588745,-5.465945843850271
1708435940.1470509,-2.1412558555603027,-1.333209143286087,-2.526872698460714,6.108883130341329,1.017901062965393,-5.4659733215915125
1708435940.1490574,-2.141244649887085,-1.3331961792758484,-2.5268471876727503,6.108894932060995,1.0179040431976318,-5.465981070195333
1708435940.1510472,-2.1412289142608643,-1.333176926975586,-2.526912037526266,6.108851659088888,1.0179522037506104,-5.465968314801351
1708435940.1530948,-2.1411757469177246,-1.3332047921470185,-2.5268741289721888,6.108806836396017,1.0179954767227173,-5.466024521981375
1708435940.1550682,-2.141167640686035,-1.3332246106914063,-2.526910130177633,6.108819949417867,1.018045425415039,-5.466101590787069
1708435940.1570706,-2.141104221343994,-1.333200530414917,-2.526914660130636,6.108794915467062,1.018105387687683,-5.466088835393087
1708435940.159073,-2.1410956382751465,-1.333176926975586,-2.526968781148092,6.108767735749044,1.0181159973144531,-5.4661211411105555
1708435940.1610348,-2.141063690185547,-1.333209143286087,-2.5269957224475306,6.108769047051229,1.0181565284729004,-5.466095749531881
1708435940.1630404,-2.141080379486084,-1.333200530414917,-2.5270076433764856,6.108749377518453,1.018216609954834,-5.466156129037039
1708435940.16505,-2.1410317420959473,-1.3331647676280518,-2.527057472859518,6.108765589981832,1.018264651298523,-5.466200594102041
1708435940.1670597,-2.141021728515625,-1.3332299006036301,-2.5270467440234583,6.108663308411398,1.018317461013794,-5.466224137936727
1708435940.1690583,-2.14096999168396,-1.3331559759429474,-2.5271454493152063,6.108704554825582,1.0183321237564087,-5.4662638942347925
1708435940.1710505,-2.14094877243042,-1.3331639629653473,-2.5270825068103235,6.108660208969869,1.0184016227722168,-5.466271583233969
1708435940.1730554,-2.1409082412719727,-1.3331725609353562,-2.52710205713381,6.108637439995565,1.0184706449508667,-5.466364268456594
1708435940.1750824,-2.1409130096435547,-1.3332210642150422,-2.527165238057272,6.1086089489753626,1.0184767246246338,-5.466368440781729
1708435940.1770535,-2.140864849090576,-1.3331802052310486,-2.5271876494037073,6.10855125167922,1.018587589263916,-5.466379884873525
1708435940.1790547,-2.140836715698242,-1.3331603121808548,-2.5272207895862024,6.1085524437721155,1.0185801982879639,-5.466415647660391
1708435940.1810648,-2.1408865451812744,-1.3331639182618638,-2.5272355715381067,6.108533131867208,1.0186536312103271,-5.466423336659567
1708435940.1830478,-2.140735387802124,-1.333188847904541,-2.5272775332080286,6.108497130661764,1.0187140703201294,-5.466488246117727
1708435940.1850848,-2.1408064365386963,-1.3332290661386033,-2.5272672812091272,6.108452427178182,1.0187532901763916,-5.466507021580831
1708435940.187055,-2.140794038772583,-1.333242030148842,-2.5273030439959925,6.108494746475973,1.018789291381836,-5.466491226349966
1708435940.189085,-2.1406772136688232,-1.3331845265677948,-2.5273481051074427,6.108441340714254,1.0188285112380981,-5.466575328503744
1708435940.191051,-2.1407177448272705,-1.3332048070481797,-2.527313295994894,6.1084221480186365,1.0189093351364136,-5.466574494038717
1708435940.1930614,-2.1406450271606445,-1.333200530414917,-2.527337376271383,6.108393656998434,1.018957257270813,-5.466598395501272
1708435940.1950495,-2.1406168937683105,-1.3332210940173645,-2.5274246374713343,6.108350145607748,1.0189800262451172,-5.466663304959432
1708435940.1970787,-2.1405677795410156,-1.3331845712712784,-2.5274322668658655,6.108261215477743,1.0190626382827759,-5.466654721890585
1708435940.1990898,-2.140568971633911,-1.333175779586174,-2.5274515787707728,6.108233916550436,1.0190807580947876,-5.466621641312734
1708435940.2010827,-2.1405653953552246,-1.333249719148018,-2.527466360722677,6.108221995621481,1.0191500186920166,-5.466710154210226
1708435940.203077,-2.140500545501709,-1.333204762344696,-2.527473751698629,6.108183014183798,1.0192099809646606,-5.466766480599539
1708435940.2050765,-2.1404640674591064,-1.3332408976605912,-2.5275850931750696,6.108117806702413,1.0192673206329346,-5.466774586831228
1708435940.20706,-2.140451669692993,-1.3332528185895463,-2.527609173451559,6.108082043915548,1.019277572631836,-5.46677798429598
1708435940.2090497,-2.14044189453125,-1.3332036596587677,-2.527600113545553,6.108016717224874,1.0193722248077393,-5.466838363801138
1708435940.2110503,-2.140397071838379,-1.3332527887872239,-2.527665917073385,6.108051526337423,1.0194536447525024,-5.466858212147848
1708435940.213067,-2.140423059463501,-1.3332769733718415,-2.5276480356799524,6.1079739210899255,1.0194430351257324,-5.466902081166403
1708435940.2150364,-2.1403374671936035,-1.3332527887872239,-2.5276885668383997,6.10799120643691,1.019491195678711,-5.466877762471334
1708435940.2170835,-2.1403260231018066,-1.3332647395185013,-2.527707878743307,6.107909905701437,1.0195226669311523,-5.466925505791799
1708435940.2190711,-2.140289306640625,-1.3332277846387406,-2.5277531782733362,6.107866394310751,1.0196126699447632,-5.4669092933284205
1708435940.2210796,-2.1402134895324707,-1.3332682114890595,-2.5277140776263636,6.107823121338644,1.0196517705917358,-5.46693736711611
1708435940.2230668,-2.140192747116089,-1.3332670640996476,-2.52779204050173,6.107798802643575,1.0196787118911743,-5.4670098463641565
1708435940.2250457,-2.1401662826538086,-1.3333409142545243,-2.527807060872213,6.107723104744711,1.019686222076416,-5.4670536557780665
1708435940.2270434,-2.140106201171875,-1.3333483350327988,-2.527844492589132,6.1077154753501794,1.0198246240615845,-5.467020515595571
1708435940.229048,-2.1400656700134277,-1.3333409291556855,-2.5278850237475794,6.107636201172628,1.0198274850845337,-5.4670167605029505
1708435940.2310526,-2.140026569366455,-1.3333189946464081,-2.5278459231006067,6.107620823174276,1.0198413133621216,-5.467085127030508
1708435940.2330713,-2.139974594116211,-1.3333233904889603,-2.527890984212057,6.107584821968832,1.0199569463729858,-5.467116657887594
1708435940.235052,-2.1399295330047607,-1.3333769154599686,-2.52794319788088,6.107516515045919,1.0199840068817139,-5.467120889817373
1708435940.237068,-2.139845609664917,-1.3333593767932435,-2.527926746998922,6.107403623848715,1.0200275182724,-5.467124585305349
1708435940.23908,-2.1398017406463623,-1.3333383214524765,-2.5279420057879847,6.107388126641073,1.020096778869629,-5.467136506234304
1708435940.241071,-2.139741897583008,-1.3333756190589447,-2.528027359639303,6.10731195190505,1.0201163291931152,-5.4671558181392115
1708435940.2430606,-2.1397054195404053,-1.3334484708360215,-2.528027359639303,6.107228266983785,1.0201882123947144,-5.467175666485922
1708435940.2450469,-2.139617443084717,-1.3334200841239472,-2.5280543009387415,6.107207762985983,1.0202033519744873,-5.467220191155569
1708435940.2470386,-2.1396074295043945,-1.3334277135184784,-2.5281038920031946,6.107145774155416,1.0202678442001343,-5.467195634041921
1708435940.2490697,-2.139523506164551,-1.3334888231805344,-2.528168265019552,6.107045876770773,1.0203777551651,-5.467264417801992
1708435940.2510407,-2.139463186264038,-1.333463729625084,-2.5281336943255823,6.106972801476278,1.020392894744873,-5.467267874871389
1708435940.2530463,-2.1393442153930664,-1.333463729625084,-2.5282073656665247,6.106902348786154,1.0204455852508545,-5.467308644448416
1708435940.2550495,-2.1393120288848877,-1.3334506017020722,-2.528247896824972,6.106760847359457,1.020477056503296,-5.467271272336141
1708435940.257048,-2.139224052429199,-1.3334779304317017,-2.5283048788653772,6.106693494110861,1.0205161571502686,-5.467336122189657
1708435940.259087,-2.13916015625,-1.3335887652686615,-2.5282731691943567,6.106618511467733,1.020552158355713,-5.467320028935568
1708435940.2610526,-2.1389999389648438,-1.3335352700999756,-2.5283318201648157,6.106579172402181,1.0206331014633179,-5.467359964047567
1708435940.263085,-2.1389482021331787,-1.3336363297751923,-2.5284250418292444,6.106405484467306,1.0206975936889648,-5.467331949864523
1708435940.2650528,-2.138878345489502,-1.3336561185172577,-2.5284443537341517,6.106322753220358,1.0207337141036987,-5.467327717934744
1708435940.2670722,-2.138749599456787,-1.3336101484349747,-2.528496567402975,6.106182443886556,1.020789623260498,-5.467376176510946
1708435940.2690723,-2.1386208534240723,-1.333666892056801,-2.5285311380969446,6.106082665711202,1.0208468437194824,-5.467367712651388
1708435940.2710516,-2.1385297775268555,-1.3336952787688752,-2.528621260319845,6.105992305069723,1.0208481550216675,-5.46733540693392
1708435940.2730834,-2.1383605003356934,-1.333735392694809,-2.528628651295797,6.105893242150106,1.020965576171875,-5.467404250298635
1708435940.2750347,-2.1382691860198975,-1.3337802600911637,-2.5286768118487757,6.105732309609213,1.0210466384887695,-5.467408005391256
1708435940.2782295,-2.138057231903076,-1.3337460917285462,-2.528682533894674,6.105560767441549,1.0211069583892822,-5.467461053525106
1708435940.27925,-2.137929916381836,-1.3338517260602494,-2.5287728945361536,6.10541723945693,1.0211879014968872,-5.46742415824999
1708435940.2810442,-2.1378138065338135,-1.3338714104941864,-2.5288026968585413,6.105201947480001,1.0212795734405518,-5.467408005391256
1708435940.2830608,-2.1376590728759766,-1.3338790249875565,-2.528900210057394,6.104953038483419,1.0213308334350586,-5.4674440065967005
1708435940.2850502,-2.1374754905700684,-1.3338242334178467,-2.5289812723742884,6.1047860262687585,1.0213860273361206,-5.4674317876445215
1708435940.2870607,-2.1373114585876465,-1.3339344722083588,-2.528949562703268,6.104638922005453,1.021479606628418,-5.4674440065967005
1708435940.2890618,-2.13716197013855,-1.333937333231308,-2.5290561358081263,6.104403245240011,1.0215846300125122,-5.467419091855184
1708435940.2910435,-2.13698148727417,-1.3340106469443818,-2.529120747243063,6.104235636978903,1.0216357707977295,-5.467451397572653
1708435940.2930424,-2.136727809906006,-1.334042252307274,-2.5291956106769007,6.104048478394308,1.0217530727386475,-5.46740293899645
1708435940.2950451,-2.1365573406219482,-1.334102751021721,-2.5292885939227503,6.103732335358419,1.0217753648757935,-5.46739095846285
1708435940.2970693,-2.136322498321533,-1.3340495389750977,-2.529365126286642,6.10351716259078,1.0219165086746216,-5.467455569897787
1708435940.2990658,-2.136090040206909,-1.3341583770564576,-2.5294371286975306,6.103253948479452,1.021967887878418,-5.467471722756521
1708435940.3010375,-2.135859966278076,-1.3341570508531113,-2.5295329729663294,6.103061306267538,1.0221182107925415,-5.46746409336199
1708435940.3030708,-2.135632038116455,-1.3342420619777222,-2.529551092778341,6.102773535042562,1.022151231765747,-5.467463318501608
1708435940.3050616,-2.1353166103363037,-1.3342161637595673,-2.529680077229635,6.1024982807929895,1.0222806930541992,-5.467447165642874
1708435940.3070784,-2.1350576877593994,-1.3342886579087754,-2.529785219823019,6.102287280350485,1.0224021673202515,-5.467438642178671
1708435940.3091068,-2.134782314300537,-1.3343617481044312,-2.529872004185812,6.101875412255087,1.0225344896316528,-5.467438642178671
1708435940.311054,-2.13444185256958,-1.3343680512956162,-2.5299976507769983,6.101576077729025,1.0226305723190308,-5.467479471360342
1708435940.3130846,-2.1341018676757812,-1.33446058750663,-2.5300353209124964,6.10117660739974,1.0228124856948853,-5.467479471360342
1708435940.315045,-2.133763074874878,-1.3345820915750046,-2.5301972071277063,6.100774037628927,1.022895336151123,-5.467487398778097
1708435940.3170705,-2.133394956588745,-1.33458764970813,-2.5302963892566126,6.100411045342245,1.0230317115783691,-5.467503551636831
1708435940.319071,-2.133096933364868,-1.33461149156604,-2.5303548018084925,6.100089657097616,1.0231972932815552,-5.46746671596636
1708435940.3211625,-2.1327009201049805,-1.3347080808928986,-2.5304837862597864,6.099702107697286,1.0233203172683716,-5.467427078877584
1708435940.3230834,-2.1323201656341553,-1.3347552579692383,-2.530606810246603,6.099303352623739,1.023431658744812,-5.467475239430563
1708435940.3251143,-2.131937026977539,-1.3347993058017273,-2.5307403246508997,6.098860609322347,1.0235923528671265,-5.467516307030813
1708435940.3271706,-2.1315295696258545,-1.3348595809987565,-2.5308976809131067,6.0984054682548425,1.023736596107483,-5.467500154172079
1708435940.329068,-2.131066083908081,-1.3349714291146775,-2.531025234852926,6.097897994309225,1.023909330368042,-5.467459086571829
1708435940.3310478,-2.1306235790252686,-1.3350722801736374,-2.5311556498156946,6.097359525948324,1.0241153240203857,-5.467519704495565
1708435940.3330808,-2.1301369667053223,-1.335138739352562,-2.5313413778888147,6.096775519638815,1.0243436098098755,-5.4674959222423
1708435940.3350618,-2.1296370029449463,-1.3352071952870865,-2.5315139929400843,6.096274244576254,1.0244821310043335,-5.467451397572653
1708435940.3370612,-2.1292049884796143,-1.3353104901364823,-2.531673256550924,6.0957491276557825,1.0247403383255005,-5.4674959222423
1708435940.3390512,-2.1286346912384033,-1.335374580030777,-2.5318167845355433,6.095202553063192,1.0248955488204956,-5.467507843171255
1708435940.3410647,-2.128181219100952,-1.3354452711394806,-2.5319984594928187,6.0946481106574915,1.0250729322433472,-5.467500154172079
1708435940.3430653,-2.1276137828826904,-1.3355585199645539,-2.5321527163134974,6.094139325409689,1.0252934694290161,-5.467467550431387
1708435940.3450427,-2.1271352767944336,-1.335665987139084,-2.532280508671896,6.093577372818746,1.025481939315796,-5.467454795037405
1708435940.3470678,-2.126617670059204,-1.3357529205134888,-2.5324600378619593,6.092957365303793,1.0256649255752563,-5.467500154172079
1708435940.3490634,-2.126009702682495,-1.3358160865357895,-2.532673422490255,6.092278945236959,1.0258903503417969,-5.467463318501608
1708435940.3510737,-2.1253859996795654,-1.3359606128982087,-2.5328696409808558,6.0916329500968835,1.0261774063110352,-5.467487398778097
1708435940.3530939,-2.1247761249542236,-1.3360810440829773,-2.533064667378561,6.0909026739890955,1.0264179706573486,-5.4674429337130945
1708435940.3550503,-2.1241703033447266,-1.336143211727478,-2.533330027257101,6.090197551041403,1.0266163349151611,-5.467499319707052
1708435940.3571107,-2.1235437393188477,-1.3362672340920945,-2.5335190931903284,6.089417803078451,1.0269198417663574,-5.467491749917166
1708435940.3590786,-2.1228885650634766,-1.336423398261406,-2.5336762110339563,6.088757860451498,1.0271092653274536,-5.467487398778097
1708435940.3610632,-2.122238874435425,-1.336502031689026,-2.5339086691485804,6.088040458946981,1.0273994207382202,-5.467471722756521
1708435940.3631086,-2.121546983718872,-1.3365726929954072,-2.5341337362872522,6.087239610939779,1.0276517868041992,-5.467516307030813
1708435940.3650486,-2.1208040714263916,-1.3367260259440918,-2.5343528429614466,6.086527573853292,1.0279161930084229,-5.467463318501608
1708435940.3670733,-2.120134115219116,-1.3369387102178116,-2.534617010747091,6.085697400360861,1.028228998184204,-5.467515472565786
1708435940.36905,-2.1193907260894775,-1.3369767379811783,-2.534858290349142,6.084794509201803,1.028555154800415,-5.467487398778097
1708435940.3710446,-2.118628740310669,-1.3371248853257676,-2.535110060368673,6.08390890338973,1.0288372039794922,-5.467402104531423
1708435940.3731592,-2.1178297996520996,-1.337247909312584,-2.5353577772723597,6.082946169167318,1.0291939973831177,-5.467491690312521
1708435940.3750448,-2.1170358657836914,-1.3374440980008622,-2.5356231371508997,6.0821112273033044,1.0295485258102417,-5.467503551636831
1708435940.3770604,-2.1162095069885254,-1.3375758093646546,-2.535886828099386,6.081089603691854,1.0298223495483398,-5.467499319707052
1708435940.3790393,-2.1153550148010254,-1.3377193373492737,-2.5361602942096155,6.080168831139364,1.0301557779312134,-5.467543844376699
1708435940.3810446,-2.1145129203796387,-1.3378995817950745,-2.536464516316549,6.079208719521322,1.0304807424545288,-5.467515472565786
1708435940.3830576,-2.1136057376861572,-1.3380350184491654,-2.5366862455951136,6.0782625553901575,1.0308128595352173,-5.467507008706228
1708435940.3850656,-2.112741470336914,-1.338144601588585,-2.5369861761676233,6.07729064205245,1.0312196016311646,-5.467544380818502
1708435940.3870537,-2.1118152141571045,-1.3383256954005738,-2.537290636693136,6.0762497065360925,1.0315639972686768,-5.46748656431307
1708435940.3890486,-2.110877275466919,-1.3384422671845932,-2.537602488194601,6.075172292977133,1.031968116760254,-5.4675673882113855
1708435940.3910677,-2.1099119186401367,-1.3386081022075196,-2.5379608313189905,6.074104654579916,1.032287359237671,-5.467558924351827
1708435940.393073,-2.1088924407958984,-1.3388201606324692,-2.5382066408740442,6.072967994004049,1.03273344039917,-5.46749854484667
1708435940.3950462,-2.107947587966919,-1.338999481206276,-2.538532082234518,6.0718679306800745,1.0331766605377197,-5.467628065739767
1708435940.3970618,-2.106823682785034,-1.3391877126744767,-2.538813892995016,6.070669042855062,1.0335980653762817,-5.467550400887625
1708435940.3990602,-2.1058599948883057,-1.3392969232848664,-2.53917104402651,6.069511401444235,1.0340185165405273,-5.467566017304556
1708435940.4010453,-2.104785919189453,-1.339399130349495,-2.5395639578448694,6.068365084915914,1.0344129800796509,-5.467639450226919
1708435940.4030645,-2.103686809539795,-1.339694232945778,-2.5398429075824183,6.067176568299093,1.0348964929580688,-5.467687908803121
1708435940.40504,-2.102642297744751,-1.339828909640648,-2.5402358214007776,6.065894591599264,1.0353413820266724,-5.467666689549581
1708435940.4070709,-2.101541757583618,-1.3399874728969117,-2.540562454854147,6.064619648247518,1.035808801651001,-5.467666689549581
1708435940.409042,-2.1003880500793457,-1.3401919913342972,-2.540947977696554,6.063382375031271,1.036259412765503,-5.467689756547109
1708435940.41104,-2.099205732345581,-1.3403834265521546,-2.5412734190570276,6.062101709633627,1.036749243736267,-5.467754367982046
1708435940.413092,-2.098027229309082,-1.340586469774582,-2.541682783757345,6.060822713166036,1.0372216701507568,-5.467733983193533
1708435940.415051,-2.09686279296875,-1.3407299381545563,-2.542105023060934,6.059486138611593,1.0376864671707153,-5.467794601117269
1708435940.4170582,-2.09561824798584,-1.3408784133246918,-2.5425122419940394,6.058113443642416,1.0382155179977417,-5.467867199574606
1708435940.4190404,-2.0944249629974365,-1.3411322099021454,-2.542875353490011,6.056789624481954,1.0387667417526245,-5.467837576066152
1708435940.4210858,-2.0931642055511475,-1.3413297098926087,-2.5432873407946985,6.0553709147270105,1.0392582416534424,-5.467910889779226
1708435940.4231062,-2.091844081878662,-1.341529757981636,-2.5437777678119105,6.053915250092306,1.0397679805755615,-5.467906717454092
1708435940.4251132,-2.090580940246582,-1.3417437982610245,-2.5441275278674524,6.052477824478903,1.0402851104736328,-5.467921976243154
1708435940.4270582,-2.0892715454101562,-1.3419559609941025,-2.5445640722857874,6.050960051804342,1.040834665298462,-5.467933122311727
1708435940.429095,-2.08795428276062,-1.3422293376973649,-2.545016590748922,6.049412357598104,1.041359782218933,-5.468002263699667
1708435940.4310462,-2.0865724086761475,-1.3423832219890137,-2.5454381147967737,6.047991621285238,1.0419243574142456,-5.468042258416311
1708435940.4330587,-2.085218667984009,-1.3426509064487,-2.5459237734424036,6.04643868187026,1.042497158050537,-5.468004886304037
1708435940.4350574,-2.083817958831787,-1.3428780448487778,-2.546354118977682,6.044899332314291,1.0431451797485352,-5.468032960091726
1708435940.437065,-2.082462787628174,-1.3431366396001359,-2.54686409631838,6.043311345368185,1.0437661409378052,-5.468089346085684
1708435940.4390655,-2.0809249877929688,-1.3433594119599839,-2.5473485628711146,6.041684138565817,1.0443413257598877,-5.468153182660238
1708435940.441085,-2.079545497894287,-1.343628079896309,-2.54781943956484,6.03998481014327,1.0449309349060059,-5.468169335518972
1708435940.4430456,-2.0780885219573975,-1.3439108294299622,-2.5483294169055384,6.038433897286215,1.0455946922302246,-5.4682011047946375
1708435940.4450638,-2.0765929222106934,-1.344191924934723,-2.5488243738757532,6.036786544113912,1.0462106466293335,-5.468257252370016
1708435940.4470763,-2.0750954151153564,-1.344450206761696,-2.549361054097311,6.03511010387496,1.0468393564224243,-5.4682403246509
1708435940.449058,-2.0735554695129395,-1.3446475577405472,-2.549826685582296,6.033386337548055,1.0474852323532104,-5.468316260968344
1708435940.4510477,-2.072047472000122,-1.3449196827462693,-2.550351683293478,6.031545150070944,1.0481598377227783,-5.46839684644808
1708435940.4530728,-2.0704524517059326,-1.3451825690320511,-2.5508835951434534,6.029891955643453,1.0487339496612549,-5.4684768358813685
1708435940.455045,-2.068955898284912,-1.3454624128392716,-2.5513952414142054,6.028206097870626,1.0493396520614624,-5.468501035367147
1708435940.4570618,-2.0673396587371826,-1.3457490068725129,-2.5519591013537806,6.026325571327963,1.0499893426895142,-5.468523685132162
1708435940.4590693,-2.065711498260498,-1.3459795874408265,-2.5525620619403284,6.024555671006002,1.0507055521011353,-5.4685996810542505
1708435940.4610646,-2.0640952587127686,-1.3462231171182175,-2.5530176798449915,6.022742259293356,1.051365613937378,-5.468675140534536
1708435940.4630442,-2.062410593032837,-1.3465636682561417,-2.5535932222949427,6.020853030472555,1.052053689956665,-5.468735520039694
1708435940.4650633,-2.060694456100464,-1.3467360597899933,-2.5542154947863978,6.019026982575216,1.0528624057769775,-5.468750361596243
1708435940.4670389,-2.0590291023254395,-1.3470361244729538,-2.5547941366778772,6.017108189850607,1.0536233186721802,-5.46883458295931
1708435940.4690764,-2.05731463432312,-1.3473438930562516,-2.5554030577289026,6.015241491585531,1.0543447732925415,-5.468881730233328
1708435940.471042,-2.0556013584136963,-1.3475937855294724,-2.5559831301318567,6.013347613602438,1.055151104927063,-5.469021860753195
1708435940.4730914,-2.0538206100463867,-1.3479413253119965,-2.556559149418966,6.011458742409506,1.0558955669403076,-5.469073716794149
1708435940.4750469,-2.0519704818725586,-1.3482453239015122,-2.557195250188009,6.009389507561483,1.0567265748977661,-5.469193939362661
1708435940.4770656,-2.0501930713653564,-1.348507971768715,-2.557797972355978,6.007414924889364,1.057532548904419,-5.469285313283102
1708435940.4790678,-2.0483834743499756,-1.34885926664386,-2.558368508015768,6.005436169892111,1.058321237564087,-5.46938676038851
1708435940.4810607,-2.0465073585510254,-1.349141926770546,-2.5590136686908167,6.003315198212423,1.0591191053390503,-5.469429318104879
1708435940.4830618,-2.0446536540985107,-1.349457399254181,-2.559681002293722,6.001333224564352,1.059929370880127,-5.469513003026144
1708435940.4850442,-2.0428032875061035,-1.3497192424586792,-2.5603142420398157,5.999336945801534,1.0607296228408813,-5.469649736081259
1708435940.487049,-2.040897846221924,-1.350115181212761,-2.560924832020895,5.997214782028951,1.0615267753601074,-5.46969980398287
1708435940.489039,-2.039008378982544,-1.3504497718862076,-2.561575476323263,5.995115864067831,1.0623127222061157,-5.469839815293447
1708435940.4910367,-2.0369815826416016,-1.3507736039212723,-2.562226120625631,5.992940771370687,1.0631449222564697,-5.469922963772909
1708435940.4931211,-2.0350842475891113,-1.3510821920684357,-2.562874142323629,5.990805375366964,1.0640336275100708,-5.469994429741995
1708435940.4950562,-2.0331058502197266,-1.3514291805079957,-2.5636044184314173,5.988674032479086,1.0648585557937622,-5.470199767743246
1708435940.4970887,-2.0310964584350586,-1.3517308694175263,-2.5643089453326624,5.986512291222372,1.0657780170440674,-5.470259372388021
1708435940.4990487,-2.0290777683258057,-1.3521180760911484,-2.5650036970721644,5.984278666764059,1.0666232109069824,-5.470381502305166
1708435940.5010417,-2.0270469188690186,-1.3525553953698655,-2.5656829516040247,5.982009875565328,1.067509651184082,-5.4705334345446985
1708435940.5030642,-2.0250205993652344,-1.3528769475272675,-2.566386047993795,5.979858982353964,1.068449854850769,-5.470665935670034
1708435940.5050414,-2.0229625701904297,-1.35328063488517,-2.567159954701559,5.977567899018087,1.0693575143814087,-5.470719341431753
1708435940.507083,-2.0208842754364014,-1.3536303055337449,-2.5678754488574427,5.975239622383871,1.0702664852142334,-5.470948640500204
1708435940.5091372,-2.018763780593872,-1.3541067701629181,-2.5686283747302454,5.973004090576925,1.071150779724121,-5.471047524605886
1708435940.511063,-2.0166501998901367,-1.3544564706138154,-2.5693510214435022,5.970688569336691,1.0720711946487427,-5.471175078545706
1708435940.513086,-2.0144870281219482,-1.354867697959282,-2.570132080708639,5.9683722136314294,1.0729814767837524,-5.471332136784689
1708435940.5150766,-2.0123488903045654,-1.3552949738553544,-2.570878807698385,5.966024029045858,1.0739465951919556,-5.471466366444723
1708435940.5170786,-2.010157346725464,-1.3556804668954392,-2.5716360251056116,5.963736760407247,1.0748956203460693,-5.471610252057211
1708435940.5190675,-2.0079147815704346,-1.356075034742691,-2.5723918120013636,5.96135305145339,1.0758726596832275,-5.471734229718344
1708435940.5210676,-2.005688190460205,-1.356449381714203,-2.573129955922262,5.958963262825765,1.076918601989746,-5.471920434628622
1708435940.523088,-2.003509521484375,-1.3568959546140213,-2.5739646593676966,5.956533062248983,1.0779001712799072,-5.472092870865957
1708435940.5252316,-2.0012333393096924,-1.3573354345611115,-2.574700180684225,5.954180705338278,1.078859567642212,-5.472186569367544
1708435940.5271297,-1.9991191625595093,-1.3577041041902085,-2.5754602591144007,5.951819288521566,1.0797665119171143,-5.472391907368795
1708435940.529083,-1.996950626373291,-1.3581318420222779,-2.5761423746692103,5.949582445412435,1.0807255506515503,-5.472578708325521
1708435940.5310502,-1.9948152303695679,-1.3585054290345688,-2.5769272486316126,5.947300660401144,1.0815554857254028,-5.472780172024862
1708435940.533069,-1.99262273311615,-1.358923928146698,-2.5776620546924036,5.944917428284445,1.082500696182251,-5.472900931035177
1708435940.535043,-1.990288496017456,-1.3593297463706513,-2.5784431139575403,5.9424898503120325,1.083479404449463,-5.473079446946279
1708435940.5370805,-1.9880931377410889,-1.359835298066475,-2.5792537371264856,5.940163004189291,1.0844628810882568,-5.473304633294241
1708435940.539035,-1.9858769178390503,-1.3601266306689759,-2.58002216020693,5.937763917237081,1.0854378938674927,-5.473450187836782
1708435940.5410404,-1.983636498451233,-1.3606204849532624,-2.5808303991900843,5.935417043953695,1.086382269859314,-5.473637048398153
1708435940.5430663,-1.981463074684143,-1.3609804076007386,-2.5815771261798304,5.933156597405233,1.0873820781707764,-5.4738163391696375
1708435940.545058,-1.9792966842651367,-1.3613982659629364,-2.5823729673968714,5.930862891464987,1.0882797241210938,-5.474017683659689
1708435940.547065,-1.9770362377166748,-1.3618299078992386,-2.5830920378314417,5.928450453072347,1.0891355276107788,-5.474210206662313
1708435940.5490553,-1.9748730659484863,-1.3622201693109055,-2.5838590304004114,5.9260703203971765,1.090085744857788,-5.47436756292452
1708435940.551059,-1.9727439880371094,-1.3626432579806824,-2.5846379438983362,5.923684346466818,1.0910663604736328,-5.474554304276602
1708435940.5530667,-1.9705036878585815,-1.363087148671486,-2.585391108189718,5.921324836998739,1.0920231342315674,-5.474730316792623
1708435940.555042,-1.968357801437378,-1.3634356421283265,-2.586182181035177,5.918986904412069,1.0930454730987549,-5.474909786378042
1708435940.5570736,-1.9661598205566406,-1.3638551396182557,-2.586961094533102,5.916666018753805,1.0939847230911255,-5.475090328847067
1708435940.559051,-1.9640171527862549,-1.3642902833274384,-2.587778155003683,5.914361822396078,1.0948649644851685,-5.47523153225054
1708435940.5610564,-1.9618278741836548,-1.364696742301323,-2.5885565916644495,5.911922800331869,1.095791220664978,-5.475488607083456
1708435940.5630577,-1.9595891237258911,-1.3650857222131272,-2.589376989995138,5.9096553204353235,1.0967463254928589,-5.4756431619273584
1708435940.5650597,-1.9573793411254883,-1.3654999148896714,-2.5901222864734095,5.9072757838066,1.097687005996704,-5.475828472767965
1708435940.5670834,-1.9551609754562378,-1.365910754804947,-2.590912405644552,5.904976713448324,1.0986518859863281,-5.475916568432943
1708435940.569047,-1.9529719352722168,-1.3664079320481797,-2.59169584909548,5.902589785843649,1.099502682685852,-5.476152781640188
1708435940.5710661,-1.9508082866668701,-1.3667675268701096,-2.5924373308764856,5.9003417370613,1.1004847288131714,-5.47634077468981
1708435940.5730536,-1.9485790729522705,-1.3672152769616623,-2.5931876341449183,5.897963392525472,1.1013762950897217,-5.476511303578512
1708435940.5750513,-1.946390151977539,-1.3676097852042695,-2.594008747731344,5.895698058396139,1.1023552417755127,-5.476694170628683
1708435940.5770893,-1.944116234779358,-1.368013159637787,-2.594732109700338,5.893285977631368,1.1033661365509033,-5.476865593587057
1708435940.5790977,-1.9418957233428955,-1.3684472006610413,-2.59546143213381,5.8909634230430505,1.1042729616165161,-5.477102522050039
1708435940.581062,-1.9396637678146362,-1.3687881392291565,-2.5962820688830774,5.888619768410482,1.1053131818771362,-5.477241758500234
1708435940.5830767,-1.937470555305481,-1.3691949260285874,-2.5970495382892054,5.886331784516134,1.1062393188476562,-5.4773756305324
1708435940.5850322,-1.935315489768982,-1.3696460139802475,-2.59780723253359,5.883997785836019,1.107232928276062,-5.477559212838308
1708435940.5870938,-1.9330772161483765,-1.3700329226306458,-2.5985785166369837,5.881626355438986,1.1081360578536987,-5.477759007607595
1708435940.5890605,-1.9309574365615845,-1.3704378616860886,-2.599344078694479,5.879261481552877,1.109048843383789,-5.477913979684011
1708435940.5910525,-1.9287490844726562,-1.3708163064769288,-2.6000798384295862,5.87693880775527,1.109965205192566,-5.478060309086935
1708435940.5930853,-1.9265406131744385,-1.3712850672057648,-2.6008897463427942,5.874539005547323,1.1108715534210205,-5.478280846272604
1708435940.5950463,-1.9243122339248657,-1.371703864341118,-2.6016700903521937,5.872211205750265,1.1117583513259888,-5.478419903908865
1708435940.5970647,-1.9221763610839844,-1.3720655006221314,-2.6023696104632776,5.869870173722067,1.1126874685287476,-5.478619579468862
1708435940.5990593,-1.9200478792190552,-1.3724721831134339,-2.6031692663775843,5.867524969368734,1.113576889038086,-5.478775028382437
1708435940.6010456,-1.9177873134613037,-1.3728344303420563,-2.603940788899557,5.865146505623617,1.1145014762878418,-5.479014460240499
1708435940.6030705,-1.9156494140625,-1.3732363742640992,-2.6047402063952845,5.862905013352194,1.1154519319534302,-5.479141358529226
1708435940.6050482,-1.9133864641189575,-1.3736647826484223,-2.6054912249194544,5.860458242684164,1.1165058612823486,-5.479276184235708
1708435940.607123,-1.91114342212677,-1.3740304422429581,-2.606245819722311,5.858157622605123,1.1174907684326172,-5.479492370282308
1708435940.6090863,-1.9089760780334473,-1.3744750034860154,-2.6070311705218714,5.855847942620077,1.118434190750122,-5.479643527661459
1708435940.6110609,-1.9068142175674438,-1.3748900902322312,-2.607764784489767,5.8535205004508875,1.1194186210632324,-5.479766372834341
1708435940.6130745,-1.904541254043579,-1.375240222816803,-2.608518664036886,5.851179468422689,1.1203463077545166,-5.479969505463735
1708435940.6150556,-1.9023995399475098,-1.3756354463151474,-2.6092820803271692,5.8488200781639,1.1213912963867188,-5.480194155369894
1708435940.6170506,-1.9001892805099487,-1.376075343494751,-2.610040251408712,5.846477615624227,1.1223292350769043,-5.480295542870657
1708435940.6190414,-1.8979755640029907,-1.3764365029386063,-2.610828224812643,5.844185697823324,1.12326180934906,-5.480536464844839
1708435940.6210566,-1.89577317237854,-1.3769299995950242,-2.6115906874286097,5.841780054360189,1.1242793798446655,-5.480720106755392
1708435940.6230962,-1.8935316801071167,-1.3773616415313263,-2.6123974959002894,5.839476811676779,1.1252713203430176,-5.480821613465444
1708435940.625105,-1.8913229703903198,-1.3777675193599244,-2.6131232420550745,5.83718358257369,1.1260743141174316,-5.4809922019587916
1708435940.6271706,-1.8890753984451294,-1.3781910103610535,-2.6139023939715784,5.83481119850234,1.1270854473114014,-5.481216494237081
1708435940.6290753,-1.886897087097168,-1.3786232632449646,-2.6147149244891565,5.832484471588888,1.1280646324157715,-5.481416646634237
1708435940.6310391,-1.8846958875656128,-1.3789728742888947,-2.6154168287860315,5.830105173378744,1.1289477348327637,-5.481588844452993
1708435940.6330664,-1.8824331760406494,-1.379450337295868,-2.61613637605776,5.827754723816671,1.1298946142196655,-5.481723074113027
1708435940.6350832,-1.8802505731582642,-1.379918710594513,-2.6169450918780726,5.825439440995016,1.1309260129928589,-5.481923524533407
1708435940.6370707,-1.8780992031097412,-1.3803006422570725,-2.6177406946765345,5.823146569519796,1.1318732500076294,-5.48204088607897
1708435940.6390913,-1.875873327255249,-1.3807611477426072,-2.618535582219259,5.820789921074667,1.1329078674316406,-5.482229653988973
1708435940.6410527,-1.87370765209198,-1.3811469239047547,-2.6193473974811,5.818475234299459,1.1337865591049194,-5.482416812573568
1708435940.643058,-1.8715568780899048,-1.381431670194008,-2.620038096104757,5.816135871201315,1.1347780227661133,-5.482624415551321
1708435940.6450853,-1.8693293333053589,-1.3819420647672196,-2.6208627859698694,5.8137037632759,1.135703682899475,-5.482803587113516
1708435940.647074,-1.8670878410339355,-1.3823042821935196,-2.6216378847705286,5.811379778176107,1.1366236209869385,-5.4829140345202845
1708435940.6491008,-1.8649060726165771,-1.3827637893012543,-2.6224327723132532,5.8090553162391565,1.1375203132629395,-5.4831089417087
1708435940.651053,-1.8627277612686157,-1.3831921827844162,-2.6232360045062464,5.806686270027914,1.1384235620498657,-5.4832810203181666
1708435940.6530879,-1.8605446815490723,-1.3835728925517579,-2.6240068117724817,5.804313885956564,1.1394200325012207,-5.48348850408663
1708435940.6550462,-1.8583438396453857,-1.3840455573848267,-2.624793593083517,5.801990735321798,1.1403757333755493,-5.4836024085627955
1708435940.657069,-1.856144905090332,-1.3844320339015503,-2.6255794207202356,5.799639808922567,1.1413121223449707,-5.483786050473348
1708435940.6590526,-1.8539180755615234,-1.3848082733205338,-2.6263580957995813,5.797249901085653,1.1422722339630127,-5.483970407639639
1708435940.6611106,-1.8517303466796875,-1.3853134524873276,-2.6271382013904017,5.794924723892965,1.1432512998580933,-5.484175089989797
1708435940.6630774,-1.8495067358016968,-1.3856628847173234,-2.627875630055563,5.79262791851119,1.1441974639892578,-5.484389189873831
1708435940.6650436,-1.8473763465881348,-1.3860893559506913,-2.6286516825305384,5.790306794434347,1.1451236009597778,-5.484562281762258
1708435940.667057,-1.8451935052871704,-1.3865220111659546,-2.629449431096212,5.787980067520895,1.1460808515548706,-5.484662238751547
1708435940.6690938,-1.842958688735962,-1.3869533401778718,-2.630214516316549,5.785617935448446,1.1470741033554077,-5.48486709991564
1708435940.6710498,-1.8406792879104614,-1.387305648331978,-2.63100773492922,5.783208954125204,1.1479588747024536,-5.485075120125906
1708435940.6730409,-1.8385586738586426,-1.3877414029887696,-2.6317134539233606,5.7809533951576135,1.1489123106002808,-5.485300604497091
1708435940.675055,-1.8363333940505981,-1.3882391911796113,-2.63249642053713,5.778585064202108,1.1498236656188965,-5.485451583062307
1708435940.677063,-1.8341425657272339,-1.388659031396248,-2.6333089510547083,5.77632902839736,1.1507866382598877,-5.4855510036097925
1708435940.6790438,-1.831968903541565,-1.3890499037555237,-2.6341124216662806,5.773935067444601,1.1517081260681152,-5.48578775325884
1708435940.68105,-1.8297518491744995,-1.38944764555011,-2.6348450819598597,5.771623718529501,1.1526659727096558,-5.485911611710684
1708435940.6830802,-1.8275200128555298,-1.3898408126882096,-2.635629479085104,5.769241082459249,1.1535897254943848,-5.486119572316305
1708435940.6850705,-1.825334072113037,-1.3902895611575623,-2.636392418538229,5.766914355545797,1.1545466184616089,-5.486318234597341
1708435940.687085,-1.8230900764465332,-1.3907146763852616,-2.6370859781848353,5.764576422959127,1.1555005311965942,-5.48648709455599
1708435940.6890762,-1.8209400177001953,-1.3910967272571106,-2.637878481541769,5.762278902321615,1.1564399003982544,-5.486689869557516
1708435940.6910691,-1.8187310695648193,-1.3914743971875687,-2.638653818761007,5.759991752892294,1.157421588897705,-5.48684931198229
1708435940.6930602,-1.816571593284607,-1.3919644367745896,-2.6393430868731897,5.757560598641195,1.158307671546936,-5.486982349549429
1708435940.6950924,-1.8143447637557983,-1.392323152428009,-2.6401217619525355,5.755299436836996,1.1593180894851685,-5.487183396016256
1708435940.6970553,-1.81215500831604,-1.3927328002503891,-2.640852753316061,5.752922403603353,1.1602835655212402,-5.487365726624624
1708435940.699111,-1.8099678754806519,-1.3931121093085785,-2.6415918509112757,5.750510442047872,1.1612129211425781,-5.487570170556204
1708435940.7011015,-1.807726502418518,-1.3935308915427704,-2.6423895994769495,5.748166548996725,1.1621737480163574,-5.487728718911306
1708435940.7030501,-1.8055988550186157,-1.3938939583352585,-2.6431732813464563,5.745918381005087,1.1631511449813843,-5.487864379082815
1708435940.705082,-1.8034615516662598,-1.3944078397801896,-2.6439901033984583,5.743562090187826,1.1641106605529785,-5.488058988248007
1708435940.7070563,-1.801169991493225,-1.3948063564351578,-2.644723717366354,5.741213190346517,1.165065050125122,-5.488238457833425
1708435940.709055,-1.7989466190338135,-1.3952090752175828,-2.6454246679889124,5.738807904511251,1.1659568548202515,-5.488414410744802
1708435940.71105,-1.7967829704284668,-1.3956134629300614,-2.646278683339254,5.736437189369955,1.1669025421142578,-5.488583449517385
1708435940.7130537,-1.7945523262023926,-1.3959183555892487,-2.646996561680929,5.734024870186605,1.1678646802902222,-5.488734308873312
1708435940.7150583,-1.7923229932785034,-1.3963812601617356,-2.647782627736227,5.731738316803732,1.1688262224197388,-5.48891115585436
1708435940.7170646,-1.790146827697754,-1.3968376380256196,-2.6485586802112024,5.729416358261862,1.1698200702667236,-5.489098910485403
1708435940.7190518,-1.7879326343536377,-1.3972126853517075,-2.6494033972369593,5.727099287300863,1.1707255840301514,-5.489242557679312
1708435940.7210531,-1.7856892347335815,-1.397636131649353,-2.6501289049731653,5.724768507271566,1.1716344356536865,-5.489408854638235
1708435940.7230856,-1.7835396528244019,-1.398067222242691,-2.6508787314044397,5.722436535149374,1.172527551651001,-5.489596728478567
1708435940.7251518,-1.781340479850769,-1.398433969621994,-2.6516545454608362,5.720083105355062,1.1734118461608887,-5.489789013062612
1708435940.7271013,-1.7791377305984497,-1.3988489669612427,-2.652417008076803,5.717757212906637,1.174281358718872,-5.489968244229452
1708435940.7290554,-1.7770066261291504,-1.3992370677045365,-2.65322453180422,5.715442168503561,1.1751563549041748,-5.490090254937307
1708435940.731053,-1.7748186588287354,-1.3996649247458954,-2.654008213673727,5.713147270470419,1.1761728525161743,-5.490319673215048
1708435940.7330744,-1.7725692987442017,-1.4001358461431046,-2.654832426701681,5.710876691132345,1.1771148443222046,-5.49048233429064
1708435940.7350411,-1.7703460454940796,-1.400553659801819,-2.6555827299701136,5.708442675858297,1.1780338287353516,-5.490636889134542
1708435940.737108,-1.768161654472351,-1.400969148879387,-2.6563904921161097,5.706033038883962,1.1790066957473755,-5.490803066884176
1708435940.7390485,-1.7659060955047607,-1.4013389211944123,-2.6570821444140833,5.703700589924612,1.1800460815429688,-5.491040114556448
1708435940.7410526,-1.7637622356414795,-1.401750625377037,-2.657844368611471,5.701366710453787,1.1809736490249634,-5.491150621567861
1708435940.7430747,-1.7615634202957153,-1.4021414381316681,-2.6586247126208704,5.699148583203115,1.1819379329681396,-5.4913257400142115
1708435940.745045,-1.75938880443573,-1.4025204193643113,-2.659395996724264,5.696775185852804,1.1829440593719482,-5.491504971181051
1708435940.7470686,-1.7571485042572021,-1.402894989853241,-2.6601956526385706,5.69443957784728,1.1839380264282227,-5.491721455250875
1708435940.7490535,-1.754960536956787,-1.4033392530730744,-2.6609256903277796,5.69205521324233,1.1848900318145752,-5.4919244090663355
1708435940.7510436,-1.7527272701263428,-1.4037153285792847,-2.6617122332202356,5.68973325470046,1.1858057975769043,-5.49207985797991
1708435940.753065,-1.7505239248275757,-1.404182718401291,-2.6625211874591272,5.687314200192251,1.1867456436157227,-5.4921942988978785
1708435940.7550461,-1.7484041452407837,-1.4045821887305756,-2.6632781664477747,5.6850358722503564,1.1876875162124634,-5.492417935525076
1708435940.757085,-1.7461862564086914,-1.4050132495215912,-2.6640289465533655,5.682693588524618,1.1886122226715088,-5.492569152508871
1708435940.7590878,-1.7440006732940674,-1.4054356676391144,-2.6648157278644007,5.680357026844778,1.1895537376403809,-5.492736462746755
1708435940.7610512,-1.7417713403701782,-1.405827597980835,-2.6656246821032923,5.678033935814657,1.19049072265625,-5.4929049650775355
1708435940.7630708,-1.7395821809768677,-1.4062636357596894,-2.6664004961596888,5.675667273789205,1.1914398670196533,-5.493097666894094
1708435940.7650604,-1.7373220920562744,-1.4066664439490815,-2.6670969168292444,5.67326449134902,1.192403793334961,-5.493272070084707
1708435940.7670567,-1.7351384162902832,-1.4070899051478882,-2.66783053079714,5.670912253647604,1.1933817863464355,-5.493394736443655
1708435940.7690396,-1.7329660654067993,-1.407476396565773,-2.6685691515551966,5.6685916660125635,1.1943631172180176,-5.493635598813192
1708435940.7710388,-1.7307835817337036,-1.4079169046929856,-2.669387165700094,5.666287588864126,1.1953132152557373,-5.49373692670931
1708435940.7730777,-1.728613257408142,-1.4083140653422852,-2.670083824788229,5.663946556835928,1.1962568759918213,-5.4939298073398035
1708435940.775042,-1.7263903617858887,-1.408696935778,-2.67082649866213,5.6616142866905115,1.1971931457519531,-5.4941062966929834
1708435940.7770638,-1.7241624593734741,-1.4091082972339173,-2.6716323534594935,5.659162032395162,1.1982042789459229,-5.494255725537435
1708435940.7790546,-1.7219353914260864,-1.409549043779709,-2.6724029223071497,5.6568970558936975,1.1991188526153564,-5.494439188634054
1708435940.7810597,-1.7198063135147095,-1.4099311244538804,-2.6731653849231165,5.654614853649893,1.200061559677124,-5.4946351687060755
1708435940.783104,-1.7176153659820557,-1.4103875023177643,-2.673927609120504,5.65232543924407,1.2011117935180664,-5.494809989129202
1708435940.78506,-1.7154268026351929,-1.4107661706260224,-2.6747265497790735,5.650010990887441,1.2021257877349854,-5.494949165974752
1708435940.7870657,-1.7132489681243896,-1.4112464946559449,-2.6754794756518763,5.647678303509512,1.2031205892562866,-5.495156411324636
1708435940.7890596,-1.7110048532485962,-1.4116006058505555,-2.6762927214251917,5.6453049061592,1.2039698362350464,-5.495376114045278
1708435940.7910542,-1.7088254690170288,-1.4120405328324814,-2.6769970099078577,5.642961549549856,1.204964518547058,-5.495543543492452
1708435940.7930691,-1.7066785097122192,-1.412450985317566,-2.677772823964254,5.640522408276357,1.2058783769607544,-5.495777968560354
1708435940.79506,-1.7044554948806763,-1.4128759366324921,-2.6785605589496058,5.638170289784231,1.2068183422088623,-5.495852891598837
1708435940.797089,-1.7022048234939575,-1.4132909041694184,-2.6793673674212855,5.635870086937704,1.2078378200531006,-5.496068302785055
1708435940.7990642,-1.7000524997711182,-1.413710044031479,-2.680138651524679,5.633596050530233,1.2087068557739258,-5.496272865925924
1708435940.8010466,-1.6978589296340942,-1.4141177994063874,-2.6808927694903772,5.631154525070944,1.209709644317627,-5.496375624333517
1708435940.803103,-1.695586919784546,-1.4145407241633912,-2.6816468874560755,5.6287651536758325,1.2105644941329956,-5.49661356607546
1708435940.8050575,-1.6933236122131348,-1.414946900015213,-2.6824901739703577,5.626368927746572,1.2114640474319458,-5.496783677731649
1708435940.8070762,-1.6911298036575317,-1.4153795403293152,-2.6832407156573694,5.624119925289907,1.2123624086380005,-5.4969170729266565
1708435940.8090498,-1.6889961957931519,-1.4157319527915497,-2.6840184370623987,5.621881234436788,1.2133464813232422,-5.497034970914022
1708435940.8110583,-1.6868246793746948,-1.416218416099884,-2.6847696940051478,5.619541096478262,1.214272379875183,-5.497252945099966
1708435940.8130736,-1.684613823890686,-1.4165790540030976,-2.6855719725238245,5.6171448705490015,1.2152087688446045,-5.497411791478292
1708435940.8150542,-1.6824208498001099,-1.4170238685658951,-2.6863587538348597,5.614834713726797,1.2160842418670654,-5.497632388268606
1708435940.8170936,-1.6802722215652466,-1.4173569840243836,-2.6870952288257044,5.612418103009023,1.2170535326004028,-5.497823540364401
1708435940.8190737,-1.6780551671981812,-1.4178383958390732,-2.6879144350634974,5.610140371113577,1.2180509567260742,-5.497937325631277
1708435940.8210495,-1.6758333444595337,-1.4181993764689942,-2.688751284276144,5.607752847462454,1.2190110683441162,-5.49812883535494
1708435940.8230765,-1.673689842224121,-1.4186321955970307,-2.689486805592672,5.6054038284118555,1.219940423965454,-5.498337988053457
1708435940.8251026,-1.6714296340942383,-1.4190613341382523,-2.6902549902545374,5.603089737683096,1.220915675163269,-5.4984633962260645
1708435940.8271382,-1.669209599494934,-1.4194138211062928,-2.6910296122180384,5.600811469345846,1.2218527793884277,-5.498663369809286
1708435940.8291368,-1.6670236587524414,-1.4198774856380005,-2.691766325627462,5.598410296231069,1.2227805852890015,-5.498831156884329
1708435940.8310573,-1.6647658348083496,-1.4202659142068406,-2.692557160054342,5.596111285477438,1.223679780960083,-5.499035779629843
1708435940.833099,-1.662557601928711,-1.420705498462059,-2.69334322610964,5.593758392124929,1.224682331085205,-5.499177817498342
1708435940.835075,-1.6603999137878418,-1.4211236399463196,-2.694092098866598,5.5914087174232385,1.225635051727295,-5.499364558850424
1708435940.8370826,-1.658231496810913,-1.4215272975018998,-2.6948705355273646,5.589153277664938,1.2265574932098389,-5.499498788510458
1708435940.8390634,-1.6560604572296143,-1.4219674629024048,-2.6956587473498743,5.58676295259551,1.2275152206420898,-5.499703351651327
1708435940.8410892,-1.653803825378418,-1.4223457139781495,-2.696418110524313,5.584455477982321,1.2284679412841797,-5.4998831192599695
1708435940.843071,-1.6516531705856323,-1.4227288526347657,-2.6971848646747034,5.582076537400045,1.229366660118103,-5.500012818967001
1708435940.8450603,-1.6494026184082031,-1.423086405997612,-2.697940174733297,5.579726505070486,1.230311632156372,-5.500229541455404
1708435940.8470912,-1.6472492218017578,-1.4235448104194184,-2.698711935673849,5.577354955464163,1.2312687635421753,-5.500375811253683
1708435940.8490565,-1.6450163125991821,-1.423989401464798,-2.6994367281543177,5.575097071915426,1.2321722507476807,-5.500534240399496
1708435940.8511045,-1.642810344696045,-1.424379215841629,-2.7002247015582483,5.57273148277358,1.2331080436706543,-5.500758651887075
1708435940.853104,-1.6405882835388184,-1.4248143148473282,-2.7009297052966517,5.570441531925955,1.2340190410614014,-5.500979487095968
1708435940.8550582,-1.6383545398712158,-1.4251307112029572,-2.70171028772463,5.568050730019369,1.2349110841751099,-5.501142386590139
1708435940.8571215,-1.636203408241272,-1.4256576311639328,-2.702449146901266,5.565590190678396,1.235860824584961,-5.5013378898250025
1708435940.8590581,-1.63400137424469,-1.4260277164033432,-2.7032368818866175,5.5632298467452905,1.236824631690979,-5.501501027737753
1708435940.8610468,-1.6317635774612427,-1.4264434438994904,-2.703982178364889,5.56089739778594,1.237748146057129,-5.5016717354403895
1708435940.8630807,-1.6295866966247559,-1.4268416625312348,-2.7047134081469935,5.558623182564535,1.2388100624084473,-5.501883570347921
1708435940.8650587,-1.6273449659347534,-1.4272941511920472,-2.7055071035968226,5.556323098927297,1.2397408485412598,-5.502030257378713
1708435940.8670936,-1.6252390146255493,-1.4277132165483017,-2.7062717119800013,5.553955065995016,1.2406772375106812,-5.502173427735464
1708435940.8690586,-1.6230041980743408,-1.4280952525189896,-2.7070708910571497,5.551620471268453,1.2417317628860474,-5.502390329037802
1708435940.8710608,-1.6208314895629883,-1.4285144817880173,-2.70776874223818,5.549334156304159,1.2426528930664062,-5.50252348581423
1708435940.8730865,-1.6185877323150635,-1.428888977771141,-2.7085562388049524,5.546924578934469,1.2436511516571045,-5.50267738500704
1708435940.8750455,-1.6163921356201172,-1.4293294858983536,-2.709313456212179,5.54455195644454,1.244586706161499,-5.502916101609365
1708435940.877082,-1.6142019033432007,-1.4297767740539093,-2.710118118916647,5.542312490731039,1.2456071376800537,-5.5030909220324915
1708435940.8790636,-1.6119979619979858,-1.4302244794419785,-2.7108798662768763,5.539959418564596,1.246571660041809,-5.503230277691976
1708435940.8810604,-1.6097972393035889,-1.4306390446475525,-2.7116325537311,5.537598597794332,1.2474822998046875,-5.503437701855795
1708435940.883138,-1.6076384782791138,-1.430964858537056,-2.7124245802508753,5.535255360394277,1.2484395503997803,-5.503548626099722
1708435940.885051,-1.6053788661956787,-1.4314255726388474,-2.713170591984884,5.532846200257101,1.2493665218353271,-5.503699187432424
1708435940.8870816,-1.6031708717346191,-1.431893990640976,-2.7139673868762415,5.530468332558431,1.2502758502960205,-5.503907028828756
1708435940.8890767,-1.6009793281555176,-1.432321847682335,-2.7147277037249964,5.5282418606574915,1.251236081123352,-5.504078690205709
1708435940.8910613,-1.5987839698791504,-1.4326501798680802,-2.715506140385763,5.525913822441854,1.2521108388900757,-5.5042370597468775
1708435940.8930557,-1.5966181755065918,-1.4331491154483338,-2.7162895838366907,5.523565697460928,1.2530665397644043,-5.504364196454183
1708435940.895054,-1.594411849975586,-1.433523104791977,-2.7170844713794153,5.521220493107595,1.2539676427841187,-5.5045733491527
1708435940.8970697,-1.592204213142395,-1.4338558328202744,-2.717841688786642,5.518962549954214,1.2549399137496948,-5.5047481695758265
1708435940.899091,-1.5900001525878906,-1.4342688185027619,-2.7186086813556116,5.516513395100393,1.255893588066101,-5.504930678998129
1708435940.9010565,-1.5878525972366333,-1.4346915644458313,-2.719445530568258,5.514230239182272,1.2569091320037842,-5.505099538956777
1708435940.9030845,-1.585715651512146,-1.435058371429779,-2.7201579252826136,5.511918175011434,1.2578624486923218,-5.50528604189028
1708435940.905056,-1.5835407972335815,-1.4355090719512482,-2.7209768931018274,5.509567248612203,1.2588437795639038,-5.5054402391063135
1708435940.907089,-1.5813231468200684,-1.435978726749756,-2.721752468739645,5.507270741253652,1.2597339153289795,-5.505632940922872
1708435940.9090636,-1.579120397567749,-1.4363501232913514,-2.7225337664233606,5.504781472473898,1.260697364807129,-5.505804840718405
1708435940.9110887,-1.5768626928329468,-1.436726765041687,-2.7232914606677454,5.502413558750906,1.2616463899612427,-5.506045464669363
1708435940.9130888,-1.5746902227401733,-1.4371719670346756,-2.7241478602038782,5.500067877560415,1.262558102607727,-5.506244126950399
1708435940.9150503,-1.5725088119506836,-1.4376028937152405,-2.7248223463641565,5.497937488346853,1.2634925842285156,-5.506466511880056
1708435940.917079,-1.570300817489624,-1.4380375158837815,-2.725589100514547,5.4957841513450525,1.264394760131836,-5.5067071358310145
1708435940.9190664,-1.5681297779083252,-1.4385512483171006,-2.726408068333761,5.493639576226034,1.2652199268341064,-5.5070552865611475
1708435940.9210556,-1.5659105777740479,-1.4390110236457367,-2.7271719614612024,5.491575765400686,1.2661105394363403,-5.507227126752035
1708435940.9230764,-1.5637171268463135,-1.4395021808198472,-2.727950398121969,5.489452767163076,1.2668778896331787,-5.507584635411398
1708435940.9253025,-1.5614912509918213,-1.439929099088051,-2.7287021319018763,5.487415361195364,1.2677090167999268,-5.507857624684469
1708435940.9271202,-1.559283971786499,-1.4404173207334061,-2.729427162800924,5.485423791199484,1.2684391736984253,-5.508190874253408
1708435940.929101,-1.5570467710494995,-1.4408999395421525,-2.730190102254049,5.483466672688284,1.2691916227340698,-5.50856197277178
1708435940.9310465,-1.5549217462539673,-1.4413959246924897,-2.730997864400045,5.48148130157546,1.2700023651123047,-5.50895327726473
1708435940.933075,-1.5526554584503174,-1.4419033837369462,-2.731715265904562,5.479603636055746,1.2707215547561646,-5.509328130875723
1708435940.9350572,-1.5504951477050781,-1.4423903834870835,-2.7324612776385706,5.477657842427053,1.2714263200759888,-5.509747568761007
1708435940.9370897,-1.5483176708221436,-1.4429105532220383,-2.7332049051867884,5.475703167706289,1.272144079208374,-5.510143760834829
1708435940.9390645,-1.5460035800933838,-1.4434586626342316,-2.7339354197131556,5.47388772943572,1.2727795839309692,-5.510612789784567
1708435940.9410746,-1.5438348054885864,-1.4440099012902756,-2.734701935444967,5.472000229149618,1.2735950946807861,-5.510959748421804
1708435940.9430783,-1.5416252613067627,-1.4445373576930542,-2.735495154057638,5.470247196942129,1.2742997407913208,-5.511493984852926
1708435940.945082,-1.5393775701522827,-1.4450806987336655,-2.736227337514059,5.4685101983840845,1.2749593257904053,-5.5118982831584376
1708435940.9470859,-1.537170171737671,-1.4456518751433869,-2.7369421164142054,5.4667959091956995,1.2756109237670898,-5.512433413659231
1708435940.9490578,-1.5350053310394287,-1.4462598127177735,-2.73771840730776,5.465170967369833,1.2763125896453857,-5.512941066418783
1708435940.9510493,-1.5327826738357544,-1.4468199250153084,-2.7384892145739954,5.46343361118392,1.2768754959106445,-5.513417843972341
1708435940.9530954,-1.5306397676467896,-1.4474312302521248,-2.739248339329855,5.461805152684011,1.277444839477539,-5.513968054448263
1708435940.9550598,-1.528393030166626,-1.447967806165554,-2.739970032368795,5.460237669735708,1.2780466079711914,-5.514519278203146
1708435940.957154,-1.526188611984253,-1.4485804748586197,-2.740817371998922,5.458634543209829,1.2785903215408325,-5.515076462422506
1708435940.9590638,-1.5240281820297241,-1.4492560190013428,-2.7415557543383997,5.457219111710348,1.2791759967803955,-5.515666786824362
1708435940.9610627,-1.5218905210494995,-1.4498466116240998,-2.7422919909106653,5.45571659782485,1.2797095775604248,-5.516273085271017
1708435940.9631011,-1.5197415351867676,-1.450457678442337,-2.7430718580829065,5.454200970917501,1.2801873683929443,-5.516869608555929
1708435940.9650576,-1.51759672164917,-1.4511421111277123,-2.7438390890704554,5.45278416851119,1.2807132005691528,-5.517532829438345
1708435940.9670825,-1.5154486894607544,-1.4517527905157586,-2.744546715413229,5.4514760849769495,1.2811936140060425,-5.518100861703054
1708435940.969052,-1.5133695602416992,-1.4524134334972878,-2.7453177610980433,5.4501147148902795,1.281716227531433,-5.518823985253469
1708435940.971056,-1.5112115144729614,-1.4530725714615365,-2.746112648640768,5.44885008314208,1.282188892364502,-5.519399050866262
1708435940.9730697,-1.5090773105621338,-1.453792968099453,-2.7468016783343714,5.447684156685629,1.2826112508773804,-5.520086173211233
1708435940.9750483,-1.506986379623413,-1.4543778610280533,-2.747584644948141,5.446418273239889,1.2830315828323364,-5.520764295254843
1708435940.9771235,-1.504858136177063,-1.4550568994930764,-2.7482948938952845,5.445169734745779,1.283456563949585,-5.521469716225759
1708435940.97906,-1.5027759075164795,-1.4557533872178574,-2.749028984700338,5.443999576359548,1.2838280200958252,-5.522116784249441
1708435940.9810634,-1.5007386207580566,-1.456387275164463,-2.7498391310321253,5.442906009941854,1.2842499017715454,-5.522868100796835
1708435940.9830508,-1.4986056089401245,-1.4570571717670937,-2.7505438963519495,5.4417229173477075,1.2845803499221802,-5.523556415234701
1708435940.9850676,-1.496559500694275,-1.4578028333238144,-2.751273218785421,5.440736460476675,1.2849200963974,-5.524284664784567
1708435940.9870548,-1.4944978952407837,-1.4585129407099267,-2.751991573964254,5.4397427318389795,1.2853015661239624,-5.525038425122396
1708435940.9890685,-1.4924436807632446,-1.4591339466026803,-2.7527547518359583,5.438784050732412,1.2856621742248535,-5.525776211415426
1708435940.9910436,-1.4904603958129883,-1.459946685736515,-2.7534738222705286,5.437809633999624,1.2859163284301758,-5.526565198098318
1708435940.993055,-1.4884824752807617,-1.460629754965641,-2.7541971842395228,5.436986493855276,1.2862088680267334,-5.527313772832052
1708435940.995058,-1.486484169960022,-1.4613694635084649,-2.75493032137026,5.436079668789663,1.2864975929260254,-5.528105382119314
1708435940.997049,-1.4844567775726318,-1.4620419454625626,-2.7556777636157435,5.435292827873983,1.286777138710022,-5.528926555310385
1708435940.9990935,-1.482506275177002,-1.462838002746441,-2.7563746611224573,5.434454369335928,1.2870861291885376,-5.529711608086721
1708435941.0010605,-1.4805294275283813,-1.4635408458164711,-2.757134977971212,5.433733868389883,1.2873384952545166,-5.530593279992239
1708435941.003058,-1.4785655736923218,-1.4643296387842675,-2.7578569094287317,5.433024453907766,1.2875908613204956,-5.5313847104655665
1708435941.0050666,-1.4766149520874023,-1.4650142949870606,-2.7584615389453333,5.43233476856307,1.2877591848373413,-5.532271389161245
1708435941.0070436,-1.4746679067611694,-1.4658050400069733,-2.7591727415667933,5.431729543000021,1.2879425287246704,-5.533120278512136
1708435941.0093122,-1.4727345705032349,-1.4665337440422554,-2.7599247137652796,5.431067096977987,1.288109302520752,-5.534063402806417
1708435941.011086,-1.4708157777786255,-1.4673375946334382,-2.7605939547168177,5.430508243828573,1.2883151769638062,-5.534917239342825
1708435941.0131388,-1.4689178466796875,-1.4681328249028702,-2.7613094488727015,5.430022942810812,1.2884485721588135,-5.535761539136068
1708435941.0150785,-1.4670641422271729,-1.4688090097955246,-2.7620299498187464,5.4295487878616235,1.2886377573013306,-5.536636356507437
1708435941.017052,-1.4651689529418945,-1.4696208846620102,-2.7626164595233362,5.4291231510932825,1.2887775897979736,-5.537630144749777
1708435941.0190697,-1.463316798210144,-1.4704289969852944,-2.763367239628927,5.428737330227651,1.2889143228530884,-5.538560156022207
1708435941.021089,-1.4614651203155518,-1.4712003779462357,-2.7639878431903284,5.428284871369161,1.289039134979248,-5.539541665707723
1708435941.023095,-1.4595911502838135,-1.4719908323935051,-2.7646544615374964,5.427963304310598,1.2890733480453491,-5.540524605904714
1708435941.0250895,-1.4577745199203491,-1.4727667805603524,-2.765358273183004,5.427648889809408,1.289169430732727,-5.541505877171652
1708435941.0272417,-1.4559475183486938,-1.4735451278141518,-2.7659793535815638,5.427358853607931,1.2893035411834717,-5.542484466229574
1708435941.0291095,-1.4541329145431519,-1.474308044915535,-2.7666502634631556,5.42711632230834,1.2893407344818115,-5.543514672909872
1708435941.0310795,-1.452311396598816,-1.4751930472305794,-2.767367188130514,5.426900493889608,1.2894041538238525,-5.544530455266134
1708435941.0331154,-1.4505327939987183,-1.4759545189193268,-2.7680004278766077,5.426664638310232,1.2894805669784546,-5.545464698468344
1708435941.035069,-1.4487556219100952,-1.476748713558056,-2.7686918417560022,5.426574754505911,1.2895410060882568,-5.546547714863912
1708435941.0370975,-1.4469451904296875,-1.4775934901884575,-2.76929480234255,5.426536190300741,1.2895946502685547,-5.547623459492819
1708435941.039086,-1.4452378749847412,-1.4784247067621727,-2.7699835936175745,5.426444160729208,1.2895586490631104,-5.548588220273153
1708435941.0410604,-1.4434850215911865,-1.4792504173568268,-2.770670000706808,5.426376330643453,1.2894898653030396,-5.5496795813189905
1708435941.0430667,-1.4417093992233276,-1.4800190788558503,-2.7713504473315638,5.426405715733328,1.2894628047943115,-5.55072516599764
1708435941.045063,-1.440004825592041,-1.4809074488333245,-2.7719877401935022,5.426425444870748,1.2894192934036255,-5.551805917416708
1708435941.0471103,-1.4383503198623657,-1.48176675409589,-2.7726085821734827,5.426526415138998,1.2892931699752808,-5.552910927926199
1708435941.0491014,-1.4366729259490967,-1.4826392170837899,-2.77334171930422,5.426719057350912,1.2892088890075684,-5.553958181534902
1708435941.0510516,-1.4350286722183228,-1.4834517177990456,-2.774036709462301,5.4269072888191126,1.2891011238098145,-5.555033210908071
1708435941.0530765,-1.4333398342132568,-1.4843196359327813,-2.7746241728412073,5.427057254105367,1.2890454530715942,-5.556099836026327
1708435941.0550637,-1.4317224025726318,-1.4852448415807267,-2.775316301976339,5.427314090519705,1.288893699645996,-5.557089034711019
1708435941.057081,-1.4300987720489502,-1.4860295888832589,-2.7759414354907435,5.427505540638723,1.2888022661209106,-5.558172706757681
1708435941.0590632,-1.4285293817520142,-1.4868846622160454,-2.7766616980182093,5.427760708123007,1.2887179851531982,-5.559290532265798
1708435941.0610578,-1.4269250631332397,-1.4877810415676613,-2.7772508303271692,5.428125488549032,1.2885570526123047,-5.560354177151815
1708435941.0630965,-1.425333857536316,-1.4886312124184151,-2.777914349232809,5.428378629475393,1.2884594202041626,-5.561444942151205
1708435941.065077,-1.423753261566162,-1.4894254443100472,-2.7785235087024134,5.428763735085287,1.2883321046829224,-5.562614623700277
1708435941.067099,-1.4221807718276978,-1.4903332603028794,-2.7791627089129847,5.429195570736685,1.2881875038146973,-5.5637089053737085
1708435941.0690658,-1.4206922054290771,-1.4912258100560685,-2.7798059622394007,5.4296185849006555,1.2880359888076782,-5.564842645321981
1708435941.0710747,-1.4191532135009766,-1.4920995694449921,-2.780353371297018,5.430092680245199,1.2878421545028687,-5.5659189263926905
1708435941.07309,-1.4176466464996338,-1.492990569477417,-2.780984942113058,5.430612969189443,1.2876546382904053,-5.56713313261141
1708435941.075063,-1.4161505699157715,-1.4938861814192315,-2.781668726597921,5.431176233082571,1.2874575853347778,-5.568251017724172
1708435941.077075,-1.4146672487258911,-1.4947883498719712,-2.7822681109057825,5.431747424393453,1.2872248888015747,-5.569490853940145
1708435941.0791059,-1.4131938219070435,-1.4956961584142228,-2.7828226725207728,5.432385492115774,1.2869728803634644,-5.570727411900656
1708435941.0810683,-1.4117375612258911,-1.4966146734407921,-2.783496681843893,5.432995903282919,1.2866665124893188,-5.571902040635244
1708435941.083074,-1.4102977514266968,-1.4975747999599953,-2.7840831915484827,5.433673846512594,1.2864023447036743,-5.573153857384817
1708435941.0850737,-1.4089155197143555,-1.4985045579126854,-2.7846441904651087,5.434466171055593,1.286122441291809,-5.574377183114187
1708435941.087096,-1.4074853658676147,-1.4993735563806077,-2.7852965036975306,5.435239898949423,1.2858253717422485,-5.575601402913229
1708435941.0890536,-1.4061049222946167,-1.5003316488913079,-2.7858508268939417,5.4359609363372705,1.285562515258789,-5.576888505612509
1708435941.0910842,-1.404720425605774,-1.501254418199398,-2.7864914576159876,5.436849105149069,1.2853143215179443,-5.578093473111288
1708435941.0931141,-1.403386116027832,-1.5021822315505524,-2.787083689366476,5.437641072064199,1.2850099802017212,-5.579454843197958
1708435941.0950747,-1.402059555053711,-1.5031458300403138,-2.787675921116964,5.438575494080343,1.2847052812576294,-5.580665413533346
1708435941.0970879,-1.400649905204773,-1.5040994373014946,-2.7881837526904505,5.4394951341445825,1.284359335899353,-5.581976119671957
1708435941.0990524,-1.3993713855743408,-1.505026289527752,-2.7887795607196253,5.440454590111532,1.2840564250946045,-5.5832399169551294
1708435941.1010873,-1.3981215953826904,-1.5059446778944512,-2.789335076008932,5.441424953728475,1.283649206161499,-5.584465984498159
1708435941.103109,-1.3968095779418945,-1.5069198247841378,-2.7898672262774866,5.442399728089132,1.2833094596862793,-5.585676614438192
1708435941.1050644,-1.3956323862075806,-1.507926606839039,-2.790406052266256,5.44346837976531,1.282896637916565,-5.586968783532278
1708435941.1070797,-1.3943626880645752,-1.5089291495135804,-2.791027371083395,5.444583701878347,1.2825353145599365,-5.588166658078329
1708435941.109073,-1.3930848836898804,-1.509893899118044,-2.7915478388415735,5.445610153466024,1.282138466835022,-5.589435521756307
1708435941.1110795,-1.3918706178665161,-1.5108838316849251,-2.792074743901388,5.446798789292135,1.2817500829696655,-5.590723697339193
1708435941.1130993,-1.3906514644622803,-1.5118737269989033,-2.7925804297076624,5.44799833276824,1.2813833951950073,-5.591979924832479
1708435941.1150544,-1.3894578218460083,-1.5128429171494027,-2.7931583563434046,5.44914065578536,1.280916690826416,-5.593226734791891
1708435941.1170871,-1.388310432434082,-1.5138385643116017,-2.7936132589923304,5.450405466347494,1.2804970741271973,-5.594519261513845
1708435941.1190455,-1.387179970741272,-1.5148368899575253,-2.7941489855395716,5.451681422978201,1.2800965309143066,-5.595781747494833
1708435941.121067,-1.386020541191101,-1.5158835251680394,-2.794684712086813,5.452919769078054,1.2796800136566162,-5.597121123467581
1708435941.1231186,-1.384872317314148,-1.5168264594725152,-2.7952149550067347,5.454203116684713,1.2791790962219238,-5.598395053540365
1708435941.1251123,-1.3837738037109375,-1.5178273630193253,-2.7956860701190394,5.455592024117269,1.2787550687789917,-5.599744919930593
1708435941.127126,-1.3827153444290161,-1.5188670580140133,-2.796208445225851,5.4569482682044885,1.2782326936721802,-5.601118389760153
1708435941.1290643,-1.381625771522522,-1.5198322024992486,-2.796739641820089,5.4583831308181665,1.2778208255767822,-5.602426294480459
1708435941.13106,-1.3805335760116577,-1.5208239008537312,-2.7972636858569544,5.459815370827474,1.2772622108459473,-5.603750411664144
1708435941.1330888,-1.3795368671417236,-1.5218505312553425,-2.7976508776294153,5.4613698599632166,1.2767484188079834,-5.605148498211996
1708435941.135051,-1.378441333770752,-1.522889171992876,-2.7981911341296595,5.462791609555044,1.2762601375579834,-5.606500987206594
1708435941.1370862,-1.377488136291504,-1.5238496971181412,-2.7987313906299036,5.4644120810325525,1.275719404220581,-5.607872311268942
1708435941.1390557,-1.376466155052185,-1.5249116954258461,-2.7991979757892054,5.4659127471740625,1.2751456499099731,-5.609197680150167
1708435941.1410642,-1.375501275062561,-1.5258362044445057,-2.799708429967062,5.467503475933828,1.2746111154556274,-5.61060464779009
1708435941.1431036,-1.374563455581665,-1.5268868592432518,-2.800208393727438,5.469130325108328,1.2739874124526978,-5.611993376408712
1708435941.145086,-1.3735570907592773,-1.5279084642282506,-2.8006275335894983,5.470760690956869,1.2733852863311768,-5.613367799912588
1708435941.147107,-1.3726387023925781,-1.5289307211390515,-2.8011329809771937,5.472488570004263,1.2728389501571655,-5.614745382462637
1708435941.1490903,-1.3717373609542847,-1.52992798507724,-2.801603380833761,5.474242675095358,1.2722504138946533,-5.616108600293295
1708435941.1510503,-1.3708808422088623,-1.5309296187809487,-2.8020387331592005,5.475903498917379,1.271571159362793,-5.617476824914114
1708435941.1530876,-1.3699113130569458,-1.5319887188128014,-2.802500311528341,5.477774965554037,1.2709057331085205,-5.618798796330587
1708435941.1550496,-1.3690710067749023,-1.5331074272147198,-2.803004566823141,5.479625570565023,1.2703020572662354,-5.6201311389552515
1708435941.1570926,-1.3681601285934448,-1.5341262531331559,-2.803422276173727,5.481430518418112,1.26963210105896,-5.621500913296835
1708435941.1590998,-1.3672819137573242,-1.5352542896619816,-2.80389649072756,5.483275937825002,1.2689430713653564,-5.6228957811938685
1708435941.1610677,-1.3664158582687378,-1.5362410855344315,-2.8044260183917444,5.485270547657766,1.2682167291641235,-5.624315265809194
1708435941.1630783,-1.3655939102172852,-1.537382287239172,-2.804765049611227,5.487186300545492,1.2675082683563232,-5.625804130231039
1708435941.1650903,-1.3647565841674805,-1.5384225969067593,-2.8052941004382532,5.489294874459066,1.2667876482009888,-5.627192799245016
1708435941.16707,-1.3639172315597534,-1.5395477053574105,-2.8056629339801233,5.491272794991293,1.2660046815872192,-5.6286866704570215
1708435941.169051,-1.3630958795547485,-1.540620721211173,-2.8061237970935267,5.493498194008627,1.265236258506775,-5.63013202348818
1708435941.1710484,-1.3622404336929321,-1.5417792976698657,-2.8065674940692347,5.495603310852804,1.2644917964935303,-5.631627086793081
1708435941.1731,-1.3614192008972168,-1.5429393791458388,-2.8069446722613733,5.497840630799093,1.2637356519699097,-5.633206550274984
1708435941.175067,-1.3606407642364502,-1.5440747954747458,-2.8073766867267054,5.500056552677908,1.2629002332687378,-5.634691599999563
1708435941.177072,-1.3598381280899048,-1.5452895809761067,-2.8077543417560022,5.502311277180471,1.2620997428894043,-5.636257115994589
1708435941.1790946,-1.3589985370635986,-1.546467936863639,-2.808174435292379,5.504632103234091,1.2613228559494019,-5.637806836758749
1708435941.1810553,-1.358232855796814,-1.547657800172903,-2.8084965387927454,5.50700198391036,1.2604752779006958,-5.639370683823721
1708435941.1830878,-1.357463002204895,-1.5488517389497538,-2.808863703404562,5.50942878702239,1.259589433670044,-5.640973631535665
1708435941.1850512,-1.3567496538162231,-1.5500521038523694,-2.8092179934131067,5.511865007668295,1.2587053775787354,-5.6426191369639795
1708435941.18708,-1.3559738397598267,-1.5512898315540333,-2.8096142450915735,5.514308500080862,1.257873773574829,-5.644214336072103
1708435941.189125,-1.3552290201187134,-1.552493294035532,-2.809903923665182,5.516732620983877,1.256942629814148,-5.64586574236025
1708435941.1910784,-1.354528546333313,-1.553722859626152,-2.8102241198169153,5.519260573178091,1.2559802532196045,-5.647514406834738
1708435941.193126,-1.3537660837173462,-1.5550594136914988,-2.810497824345724,5.521820771485128,1.255002498626709,-5.649037722741262
1708435941.1950614,-1.3530958890914917,-1.5563354299268504,-2.810885731373922,5.52439974525527,1.254015564918518,-5.650699083005087
1708435941.1971593,-1.3524229526519775,-1.5576160357198496,-2.8110979239093226,5.526954877167501,1.2530326843261719,-5.652240578328268
1708435941.1990573,-1.3517335653305054,-1.558973216717579,-2.81140643755068,5.529631662159719,1.2519373893737793,-5.6538636724101465
1708435941.201084,-1.3511089086532593,-1.5602591915852209,-2.8116772810565394,5.5324012515838525,1.2509644031524658,-5.655403141175405
1708435941.2030814,-1.3504095077514648,-1.5615598627230902,-2.8119481245623987,5.535147893219747,1.249942660331726,-5.65706301132311
1708435941.2050626,-1.3497835397720337,-1.5628709758496662,-2.812218968068258,5.537940728455343,1.2488538026809692,-5.658717159424917
1708435941.2070744,-1.349223017692566,-1.564247650825866,-2.812437359486715,5.540830719261923,1.2477689981460571,-5.660365108643667
1708435941.2090828,-1.3486037254333496,-1.5656124574928363,-2.8127384821521204,5.543806063919821,1.2466535568237305,-5.66198164621462
1708435941.2110682,-1.34798002243042,-1.5670164255755772,-2.8129733244525355,5.5466834781463525,1.2454962730407715,-5.663712207471029
1708435941.2130866,-1.3473538160324097,-1.5683017685408522,-2.8131380716906946,5.54961250999526,1.2442989349365234,-5.665450457726614
1708435941.215068,-1.3467793464660645,-1.5697549032377829,-2.813226286564962,5.5525585291679285,1.243091344833374,-5.667236987744467
1708435941.2170827,-1.3462084531784058,-1.5711404285826625,-2.8133531252490442,5.555594670563497,1.2418012619018555,-5.668916467820303
1708435941.2190807,-1.3456634283065796,-1.5725065670409144,-2.8134685198413294,5.55864571312026,1.2405275106430054,-5.670684997235433
1708435941.221055,-1.3450350761413574,-1.5739957294859828,-2.8135717550860804,5.561736213951864,1.2393016815185547,-5.672440771256582
1708435941.2230995,-1.3444151878356934,-1.5754238567748011,-2.813684050236837,5.564873385220327,1.2380090951919556,-5.674259666596548
1708435941.225124,-1.343874216079712,-1.5768634281554164,-2.813796106969015,5.568004357605734,1.2367562055587769,-5.676071886216299
