Eg3-git/Classifiers/Data Collection/u3/u3www4_ur3e_joint_states.csv
time,elbow_joint,shoulder_lift_joint,shoulder_pan_joint,wrist_1_joint,wrist_2_joint,wrist_3_joint
1708435976.8532982,-2.1405928134918213,-1.3330256056836625,-2.5266762415515345,6.107274043350973,1.0175986289978027,-5.465642456208364
1708435976.8552961,-2.1406140327453613,-1.3330061745694657,-2.5267019907580774,6.1071441052253626,1.0175496339797974,-5.465605739747183
1708435976.8573163,-2.1406140327453613,-1.3329647791436692,-2.5266552607165735,6.107292043953695,1.0175824165344238,-5.465633932744161
1708435976.8593118,-2.140622854232788,-1.3329886210015793,-2.5266385714160364,6.107212769776144,1.0175824165344238,-5.465665880833761
1708435976.8613005,-2.140580415725708,-1.3329647791436692,-2.5266552607165735,6.107233989029684,1.0175704956054688,-5.465662364159719
1708435976.863296,-2.1405892372131348,-1.333034486775734,-2.5266101996051233,6.107189285546102,1.0175824165344238,-5.46569931903948
1708435976.8652964,-2.1406185626983643,-1.333018110399582,-2.5266507307635706,6.10720835903243,1.017579197883606,-5.465626720582144
1708435976.8672843,-2.140573263168335,-1.3329735410264512,-2.526652161275045,6.107193696289816,1.0175704956054688,-5.465638224278585
1708435976.8692935,-2.140584707260132,-1.3330018681338807,-2.5266431013690394,6.107209789543905,1.0176442861557007,-5.465589467679159
1708435976.8712857,-2.14062762260437,-1.3329719615033646,-2.5266929308520716,6.1071486351783655,1.0175824165344238,-5.465613965188162
1708435976.8732822,-2.140584707260132,-1.3329572540572663,-2.5266884008990687,6.10714732387618,1.0175824165344238,-5.465650860463278
1708435976.8752763,-2.140615224838257,-1.3329529476216813,-2.5266431013690394,6.107144343643942,1.0175539255142212,-5.465638224278585
1708435976.877308,-2.140615224838257,-1.3330431592515488,-2.5266101996051233,6.107233989029684,1.0175539255142212,-5.465630892907278
1708435976.8792782,-2.1405982971191406,-1.3329676401666184,-2.5266431013690394,6.1071685431297205,1.0176116228103638,-5.465642813836233
1708435976.8812907,-2.140519142150879,-1.333006204371788,-2.5266221205340784,6.10723506191329,1.0175331830978394,-5.465638641511099
1708435976.8833025,-2.140584707260132,-1.3329973977855225,-2.5266462008105677,6.107127773552694,1.0175749063491821,-5.46563440958132
1708435976.8852928,-2.140573263168335,-1.3329692494920273,-2.5266717115985315,6.107169616013326,1.0175539255142212,-5.465598646794454
1708435976.8872948,-2.140573263168335,-1.3329763871482392,-2.5267139116870325,6.1071908352668665,1.0175583362579346,-5.4656224886523646
1708435976.8893054,-2.140573263168335,-1.3330018681338807,-2.5266671816455286,6.10716067531661,1.017562747001648,-5.465630892907278
1708435976.8912835,-2.1405982971191406,-1.3330049377730866,-2.5266762415515345,6.1071650860603235,1.0175373554229736,-5.465590242539541
1708435976.8933036,-2.1405937671661377,-1.3329886210015793,-2.5266974608050745,6.1071650860603235,1.0175834894180298,-5.465561811123983
1708435976.8952994,-2.1405441761016846,-1.3329939258149643,-2.5266056696521204,6.107141244202413,1.0175704956054688,-5.465582195912496
1708435976.8973067,-2.140547275543213,-1.3330430847457428,-2.526635710393087,6.107139813690939,1.0175704956054688,-5.465582195912496
1708435976.899295,-2.140580415725708,-1.3329973828843613,-2.5266762415515345,6.107232081681051,1.017545461654663,-5.465557638798849
1708435976.9012742,-2.1405868530273438,-1.3329939556172867,-2.5266597906695765,6.107227670937338,1.0175126791000366,-5.465582911168234
1708435976.9032896,-2.1405484676361084,-1.3329894554666062,-2.5266597906695765,6.1072261212165735,1.0175330638885498,-5.465518359337942
1708435976.90527,-2.1405742168426514,-1.3329930168441315,-2.5266476313220423,6.1071863053138635,1.0175747871398926,-5.465534512196676
1708435976.9072983,-2.1405563354492188,-1.33301496625457,-2.5266221205340784,6.107268082886495,1.0175330638885498,-5.465559486542837
1708435976.909273,-2.1405529975891113,-1.332960383301117,-2.5266552607165735,6.107198107033529,1.017562747001648,-5.465534333382742
1708435976.911273,-2.1405575275421143,-1.3329705011895676,-2.5266101996051233,6.107202636986532,1.0175583362579346,-5.465531293545858
1708435976.9133286,-2.1405699253082275,-1.3329939556172867,-2.5266011396991175,6.107223260193624,1.017562747001648,-5.46554667154421
1708435976.9153035,-2.1405699253082275,-1.3329572540572663,-2.5266431013690394,6.1071486351783655,1.017566204071045,-5.465542260800497
1708435976.9172938,-2.140516757965088,-1.3329779219678421,-2.5266762415515345,6.1072027561958215,1.0175496339797974,-5.465523842965261
1708435976.9192808,-2.1405484676361084,-1.3329572540572663,-2.5266385714160364,6.107200968056478,1.0175704956054688,-5.465583328400747
1708435976.9212782,-2.1406028270721436,-1.332980753188469,-2.5266266504870813,6.107211577683248,1.0175704956054688,-5.465550963078634
1708435976.923294,-2.1405742168426514,-1.333010585313179,-2.5266507307635706,6.107205378800192,1.0175496339797974,-5.465510551129476
1708435976.9252841,-2.140566349029541,-1.33295293272052,-2.5266431013690394,6.107145774155416,1.0175997018814087,-5.465506140385763
1708435976.9272854,-2.1405484676361084,-1.332998351459839,-2.5266688505755823,6.107141244202413,1.0175246000289917,-5.465547684823171
1708435976.9292722,-2.1405742168426514,-1.3329615902951737,-2.5266717115985315,6.107193696289816,1.017566204071045,-5.465552095566885
1708435976.931268,-2.1405742168426514,-1.333004967575409,-2.5266762415515345,6.1071486351783655,1.017566204071045,-5.4655553738223475
1708435976.933285,-2.1405460834503174,-1.3329735559276124,-2.5266597906695765,6.1072484133537195,1.0175824165344238,-5.465559844170706
1708435976.9352806,-2.1405436992645264,-1.3329807829907914,-2.5265892187701624,6.107260811119833,1.0175539255142212,-5.465528253708975
1708435976.9372873,-2.1405982971191406,-1.3330018532327195,-2.526656452809469,6.107190716057577,1.01760733127594,-5.4655224720584314
1708435976.9392796,-2.1405484676361084,-1.3330181700042267,-2.5266056696521204,6.107160556107321,1.0175670385360718,-5.46555203596224
1708435976.941277,-2.140521287918091,-1.3329692494920273,-2.5266266504870813,6.107157695084371,1.0175834894180298,-5.465494219456808
1708435976.9432824,-2.1405370235443115,-1.3329647791436692,-2.5266056696521204,6.107177364617147,1.0175867080688477,-5.4655179421054285
1708435976.9452846,-2.1405301094055176,-1.332988665705063,-2.5266385714160364,6.107160556107321,1.0175998210906982,-5.465535704289572
1708435976.947284,-2.1405911445617676,-1.3329930168441315,-2.5267091433154505,6.107211696892538,1.0175626277923584,-5.465486411248342
1708435976.9493232,-2.1405370235443115,-1.3329852235368271,-2.5266688505755823,6.107107031136312,1.0175539255142212,-5.465477589760916
1708435976.9512758,-2.1405484676361084,-1.3330018830350419,-2.5266717115985315,6.107162105828085,1.017591118812561,-5.465531293545858
1708435976.9532847,-2.140521287918091,-1.333006204371788,-2.5266311804400843,6.107124912529745,1.0175583362579346,-5.465573195611135
1708435976.955269,-2.1405415534973145,-1.3329720360091706,-2.5266643206225794,6.107111561089315,1.0175909996032715,-5.465486351643698
1708435976.9572835,-2.1405787467956543,-1.3329572689584275,-2.5266643206225794,6.107178556710043,1.0175867080688477,-5.465478960667745
1708435976.9593215,-2.1405255794525146,-1.3330018681338807,-2.5266266504870813,6.1071908352668665,1.017579197883606,-5.465458218251364
1708435976.9612904,-2.1405327320098877,-1.333018184905388,-2.5266147295581263,6.107202636986532,1.0175749063491821,-5.465470019971029
1708435976.963279,-2.1405787467956543,-1.3329560619643708,-2.526656691228048,6.107160556107321,1.0175867080688477,-5.465523842965261
1708435976.9652936,-2.1405131816864014,-1.3330061745694657,-2.526635710393087,6.107127892761984,1.0175747871398926,-5.465470019971029
1708435976.9672937,-2.140570878982544,-1.3330300611308594,-2.5266101996051233,6.107177364617147,1.017562747001648,-5.465482000504629
1708435976.9692957,-2.1405460834503174,-1.3329529774240036,-2.5266311804400843,6.1071650860603235,1.0175496339797974,-5.465503040944235
1708435976.971294,-2.140521287918091,-1.3329984110644837,-2.5266340414630335,6.107169616013326,1.0175749063491821,-5.465470079575674
1708435976.9733207,-2.1405255794525146,-1.3329661053470154,-2.5266311804400843,6.107141244202413,1.0175867080688477,-5.465486411248342
1708435976.9752824,-2.1405415534973145,-1.3329616349986573,-2.5266597906695765,6.107169616013326,1.0175793170928955,-5.4655388037311
1708435976.977343,-2.140500783920288,-1.3329938811114808,-2.5266101996051233,6.107227670937338,1.017566204071045,-5.465498630200521
1708435976.9792974,-2.140554904937744,-1.332961620097496,-2.5266733805285853,6.1071908352668665,1.0175331830978394,-5.4654656688319605
1708435976.9812932,-2.1405787467956543,-1.3329779219678421,-2.5266221205340784,6.107181775360861,1.017591118812561,-5.465528253708975
1708435976.9833694,-2.1405415534973145,-1.3330181402019043,-2.5266059080706995,6.107153284340658,1.017525553703308,-5.465495292340414
1708435976.9853008,-2.1405832767486572,-1.3330105555108567,-2.5266175905810755,6.107162225037374,1.017566204071045,-5.465475861226217
1708435976.9873352,-2.140550374984741,-1.3330268871835251,-2.5266476313220423,6.107186424523153,1.0176194906234741,-5.465507570897238
1708435976.9892983,-2.1405222415924072,-1.3329868477633973,-2.5266266504870813,6.107166635781088,1.0175496339797974,-5.465458218251364
1708435976.9912875,-2.1405389308929443,-1.3330432039550324,-2.5266643206225794,6.107148754387655,1.017525553703308,-5.465449337159292
1708435976.9933226,-2.1405742168426514,-1.332948477273323,-2.5266552607165735,6.107162105828085,1.0175374746322632,-5.465478960667745
1708435976.9952984,-2.1405575275421143,-1.3329495352557679,-2.5266056696521204,6.107121693878927,1.0175374746322632,-5.465478960667745
1708435976.997325,-2.140550374984741,-1.333022416835167,-2.526652161275045,6.10719524601058,1.017561912536621,-5.465470079575674
1708435976.999326,-2.1405787467956543,-1.3329735410264512,-2.5266597906695765,6.107112633972921,1.017566204071045,-5.465470079575674
1708435977.0013053,-2.1405460834503174,-1.3329895299724122,-2.5266431013690394,6.107157695084371,1.017566204071045,-5.4654908815967005
1708435977.0033793,-2.1404669284820557,-1.3329572540572663,-2.5266643206225794,6.10715018489913,1.0175834894180298,-5.465446356927053
1708435977.005321,-2.1405415534973145,-1.3329530221274872,-2.5266762415515345,6.107145774155416,1.0175583362579346,-5.465470079575674
1708435977.007321,-2.14058780670166,-1.3329895448735734,-2.526635710393087,6.10719524601058,1.0175126791000366,-5.465519372616903
1708435977.0093057,-2.1405460834503174,-1.3329529625228425,-2.5266476313220423,6.107153284340658,1.017591118812561,-5.4654656688319605
1708435977.0113153,-2.140550374984741,-1.3330105257085343,-2.526635710393087,6.107153284340658,1.0175867080688477,-5.465462628995077
1708435977.0133007,-2.1405389308929443,-1.3329692643931885,-2.5266431013690394,6.107182967453756,1.017562747001648,-5.4654656688319605
1708435977.015274,-2.140566349029541,-1.3330595207265397,-2.5266130606280726,6.1071369526679895,1.0175583362579346,-5.465528313313619
1708435977.0173242,-2.1405346393585205,-1.3329318028739472,-2.5266431013690394,6.107120382576742,1.0176072120666504,-5.465523842965261
1708435977.019336,-2.1405131816864014,-1.3329735559276124,-2.5266340414630335,6.107207166939535,1.0175461769104004,-5.465495292340414
1708435977.0213525,-2.1405370235443115,-1.3329572540572663,-2.5266850630389612,6.107153284340658,1.0175583362579346,-5.465462628995077
1708435977.0233748,-2.140550374984741,-1.3329529476216813,-2.5266266504870813,6.107218730240621,1.0175670385360718,-5.465495292340414
1708435977.0252957,-2.140554904937744,-1.3329572689584275,-2.5266688505755823,6.1071486351783655,1.0175867080688477,-5.465519372616903
1708435977.027291,-2.1405131816864014,-1.3329691898873826,-2.5266643206225794,6.107199656754293,1.0175583362579346,-5.465498630200521
1708435977.029281,-2.140521287918091,-1.3329692643931885,-2.5266266504870813,6.107177364617147,1.0175670385360718,-5.465462628995077
1708435977.0312848,-2.1405346393585205,-1.3329735559276124,-2.5266597906695765,6.1071650860603235,1.0175704956054688,-5.465520683919088
1708435977.0333402,-2.1405460834503174,-1.332953841691353,-2.5266056696521204,6.107162105828085,1.0175169706344604,-5.465495292340414
1708435977.0352924,-2.1405131816864014,-1.333002747302391,-2.5266597906695765,6.107214200287618,1.0175997018814087,-5.465532664452688
1708435977.0372975,-2.1405346393585205,-1.3330344569734116,-2.5266431013690394,6.107150304108419,1.0175867080688477,-5.4654908815967005
1708435977.0392997,-2.140489339828491,-1.332986743455269,-2.5266643206225794,6.1071650860603235,1.0175824165344238,-5.465498630200521
1708435977.0413046,-2.140500783920288,-1.332948462372162,-2.5266476313220423,6.107181775360861,1.0175867080688477,-5.4654908815967005
1708435977.0433047,-2.1405346393585205,-1.333006114964821,-2.5266385714160364,6.107162105828085,1.017541766166687,-5.4654656688319605
1708435977.0452788,-2.1405346393585205,-1.3330018532327195,-2.5266431013690394,6.107202636986532,1.0175331830978394,-5.465441886578695
1708435977.047312,-2.1405131816864014,-1.3329852384379883,-2.5266476313220423,6.1071205017860315,1.017566204071045,-5.465449277554647
1708435977.049293,-2.1405436992645264,-1.3329895299724122,-2.5266311804400843,6.107124912529745,1.0175539255142212,-5.465453688298361
1708435977.0512867,-2.140566349029541,-1.3329704713872452,-2.5266101996051233,6.107198107033529,1.0175749063491821,-5.465508524571554
1708435977.0532928,-2.1405301094055176,-1.3329939258149643,-2.5266311804400843,6.1071908352668665,1.0176029205322266,-5.465449337159292
1708435977.0552862,-2.1405415534973145,-1.3329779368690033,-2.5266311804400843,6.107160556107321,1.0175461769104004,-5.465453688298361
1708435977.057323,-2.1404919624328613,-1.332937554722168,-2.5266101996051233,6.1071650860603235,1.0175496339797974,-5.465494219456808
1708435977.0593407,-2.1405131816864014,-1.333010495906212,-2.5266056696521204,6.10717402675704,1.0175836086273193,-5.46552819410433
1708435977.0612757,-2.140514373779297,-1.3329396557858963,-2.52664024034609,6.1071369526679895,1.0175749063491821,-5.465470079575674
1708435977.0632992,-2.1405832767486572,-1.3329572689584275,-2.526635710393087,6.107162105828085,1.0175749063491821,-5.465523902569906
1708435977.0652833,-2.1405460834503174,-1.3329807978919526,-2.5265820662127894,6.107160556107321,1.0175583362579346,-5.465458218251364
1708435977.0672994,-2.1405460834503174,-1.33301496625457,-2.5266884008990687,6.107169616013326,1.0175704956054688,-5.465519372616903
1708435977.069348,-2.140554904937744,-1.3329155904105683,-2.5266101996051233,6.107162225037374,1.0175867080688477,-5.465458277856008
1708435977.0712996,-2.1405222415924072,-1.3329807978919526,-2.526635710393087,6.107174145966329,1.017541766166687,-5.465503040944235
1708435977.073313,-2.1405346393585205,-1.3330061745694657,-2.5266385714160364,6.1071486351783655,1.0175749063491821,-5.465478960667745
1708435977.075328,-2.1404919624328613,-1.3329572540572663,-2.526652161275045,6.107141363411703,1.017525553703308,-5.465516392384664
1708435977.0773046,-2.1405177116394043,-1.332998351459839,-2.5266266504870813,6.107157695084371,1.0175496339797974,-5.465498630200521
1708435977.079307,-2.140498399734497,-1.333019347195961,-2.526652161275045,6.107175576477804,1.017566204071045,-5.465495351945059
1708435977.0812755,-2.1405575275421143,-1.3329616498998185,-2.5266101996051233,6.107160556107321,1.017561912536621,-5.465474549924032
1708435977.0833,-2.1404714584350586,-1.3329449755004426,-2.526635710393087,6.107153284340658,1.0175539255142212,-5.465481940899984
1708435977.0852938,-2.1404964923858643,-1.3329155904105683,-2.5266552607165735,6.107157695084371,1.0175539255142212,-5.46551496187319
1708435977.0873055,-2.1405086517333984,-1.3329331290772934,-2.5265982786761683,6.107141363411703,1.0175539255142212,-5.465483371411459
1708435977.0892947,-2.1404964923858643,-1.3329616051963349,-2.5266476313220423,6.107202636986532,1.0176029205322266,-5.465537075196401
1708435977.0912995,-2.1405460834503174,-1.3330312830260773,-2.5266431013690394,6.107108223229208,1.0175867080688477,-5.465499703084127
1708435977.0932975,-2.140500783920288,-1.3329938811114808,-2.52664024034609,6.1071863053138635,1.0175749063491821,-5.465490821992056
1708435977.0953107,-2.1405177116394043,-1.3329406392625351,-2.526635710393087,6.107145893364706,1.0175824165344238,-5.465498630200521
1708435977.097323,-2.1404919624328613,-1.3329318922809144,-2.5266101996051233,6.107162225037374,1.017591118812561,-5.465478960667745
1708435977.099297,-2.1405436992645264,-1.3329895299724122,-2.5266385714160364,6.107141363411703,1.0175496339797974,-5.465483371411459
1708435977.1012816,-2.140509843826294,-1.3329364371350785,-2.5266147295581263,6.10717402675704,1.0175704956054688,-5.4654908815967005
1708435977.1033168,-2.1405389308929443,-1.3329930317452927,-2.526694122944967,6.1071863053138635,1.0175986289978027,-5.465535704289572
1708435977.1053162,-2.140493869781494,-1.332961620097496,-2.5266431013690394,6.107164966851034,1.0175704956054688,-5.465495292340414
1708435977.107314,-2.1405088901519775,-1.3329660904458542,-2.5266311804400843,6.107157695084371,1.0175331830978394,-5.465478960667745
1708435977.1093578,-2.1404848098754883,-1.3330018681338807,-2.5266221205340784,6.107129442482748,1.0175496339797974,-5.465486411248342
1708435977.1112952,-2.1405222415924072,-1.3329485070756455,-2.5266221205340784,6.1071368334587,1.0175824165344238,-5.465478960667745
1708435977.11329,-2.1405255794525146,-1.3329616349986573,-2.5266266504870813,6.107129442482748,1.0175793170928955,-5.465483371411459
1708435977.1152868,-2.140489339828491,-1.3330225211432953,-2.5266597906695765,6.107178556710043,1.0175867080688477,-5.465511922036306
1708435977.117322,-2.1405177116394043,-1.3329735559276124,-2.5266101996051233,6.107180106430807,1.0175704956054688,-5.465486411248342
1708435977.119285,-2.14052677154541,-1.3329660308412095,-2.5266178289996546,6.107121693878927,1.017545461654663,-5.465511922036306
1708435977.1214387,-2.140550374984741,-1.3329824072173615,-2.5266431013690394,6.107162105828085,1.0175986289978027,-5.46554017463793
1708435977.1232977,-2.140463352203369,-1.332923026090004,-2.5266385714160364,6.107132303505697,1.0176109075546265,-5.465498630200521
1708435977.125284,-2.1405460834503174,-1.3329529774240036,-2.5265982786761683,6.107112753182211,1.0176029205322266,-5.465494219456808
1708435977.1273239,-2.1405346393585205,-1.332953856592514,-2.5266717115985315,6.107187616616049,1.0176392793655396,-5.465478960667745
1708435977.1293123,-2.1405131816864014,-1.3329692643931885,-2.5266056696521204,6.107141363411703,1.0175824165344238,-5.465453688298361
1708435977.131289,-2.140498399734497,-1.3329616498998185,-2.5266221205340784,6.107178556710043,1.0175867080688477,-5.465511922036306
1708435977.133295,-2.140550374984741,-1.3329441410354157,-2.5266221205340784,6.1071592448051355,1.017566204071045,-5.465511922036306
1708435977.13531,-2.140493869781494,-1.3330388081124802,-2.526656452809469,6.107145774155416,1.017591118812561,-5.465499703084127
1708435977.1373177,-2.140493869781494,-1.3329363030246277,-2.5266476313220423,6.107109772949972,1.0175868272781372,-5.465461258088247
1708435977.1392896,-2.1405222415924072,-1.332989515071251,-2.5266266504870813,6.107108223229208,1.017566204071045,-5.465531293545858
1708435977.1412847,-2.140509843826294,-1.332989515071251,-2.5266431013690394,6.107187497406759,1.0176109075546265,-5.465489868317739
1708435977.1433187,-2.140514373779297,-1.3329983961633225,-2.526623789464132,6.10709177234725,1.0175824165344238,-5.465510551129476
1708435977.145278,-2.1405029296875,-1.3329692643931885,-2.5266385714160364,6.107138383179464,1.01760733127594,-5.465514902268545
1708435977.1473014,-2.140450954437256,-1.3329449904016037,-2.5266597906695765,6.107108223229208,1.0176151990890503,-5.465482000504629
1708435977.1492975,-2.140439510345459,-1.3329572540572663,-2.5266476313220423,6.107171165734091,1.0176151990890503,-5.465478960667745
1708435977.151279,-2.14052677154541,-1.3329747927239914,-2.5266853014575403,6.107175576477804,1.017566204071045,-5.4654908815967005
1708435977.1532888,-2.1405189037323,-1.3329572540572663,-2.5266056696521204,6.107100713043966,1.0176193714141846,-5.465535704289572
1708435977.1552856,-2.140476942062378,-1.332991139297821,-2.5266762415515345,6.107153284340658,1.0175824165344238,-5.465526882802145
1708435977.1572893,-2.140498399734497,-1.3329779368690033,-2.5266056696521204,6.107141244202413,1.0175824165344238,-5.465535704289572
1708435977.1593122,-2.1404848098754883,-1.3329572540572663,-2.5266266504870813,6.10715018489913,1.0176109075546265,-5.465507511292593
1708435977.161282,-2.140460252761841,-1.332936317925789,-2.5266385714160364,6.107145774155416,1.0176314115524292,-5.465519372616903
1708435977.1633043,-2.140444278717041,-1.3329616498998185,-2.5266552607165735,6.107159125595846,1.0175986289978027,-5.46555203596224
1708435977.1653395,-2.140514373779297,-1.3329243671945115,-2.5266462008105677,6.107091891556539,1.017606496810913,-5.4654908815967005
1708435977.167286,-2.140552520751953,-1.3330268275788804,-2.52664024034609,6.107142913132467,1.0176314115524292,-5.4654908815967005
1708435977.1692789,-2.140502691268921,-1.3329823923162003,-2.526651922856466,6.107100713043966,1.0176020860671997,-5.465482000504629
1708435977.1712854,-2.140441656112671,-1.3330238175443192,-2.5266688505755823,6.107068049698629,1.017565131187439,-5.465510551129476
1708435977.1733143,-2.140455484390259,-1.3329572540572663,-2.5266431013690394,6.1071756956870935,1.0175977945327759,-5.465519372616903
1708435977.1752973,-2.140448808670044,-1.3329748523286362,-2.5266221205340784,6.107125031739034,1.0176305770874023,-5.465510551129476
1708435977.1773062,-2.140460252761841,-1.332900495534279,-2.526623789464132,6.107056128769674,1.0176349878311157,-5.465551022683279
1708435977.1792972,-2.140476942062378,-1.3329823923162003,-2.526635710393087,6.10708903053359,1.0176184177398682,-5.465559844170706
1708435977.1812706,-2.140486001968384,-1.3329779666713257,-2.5265937487231653,6.1070889113243005,1.0176262855529785,-5.46551496187319
1708435977.1833138,-2.1404690742492676,-1.3329449904016037,-2.5266221205340784,6.107059109001913,1.0175856351852417,-5.465543214474813
1708435977.1852884,-2.1404600143432617,-1.3330061447671433,-2.5265892187701624,6.107171046524801,1.0176305770874023,-5.465506140385763
1708435977.1872888,-2.140502691268921,-1.3329705011895676,-2.5266643206225794,6.107121693878927,1.0176098346710205,-5.465486351643698
1708435977.189291,-2.1404645442962646,-1.3329735410264512,-2.5266552607165735,6.107130634575643,1.0176140069961548,-5.465556506310598
1708435977.1913056,-2.140420436859131,-1.3329867881587525,-2.5266762415515345,6.107154834061422,1.0176305770874023,-5.465481881295339
1708435977.193323,-2.1404690742492676,-1.332998366361,-2.5266643206225794,6.107085931092062,1.0176467895507812,-5.465494219456808
1708435977.195302,-2.140476942062378,-1.33292871833358,-2.5266385714160364,6.107109772949972,1.017609715461731,-5.4655224720584314
1708435977.1973023,-2.1404690742492676,-1.3329956096461792,-2.5266221205340784,6.107084381371298,1.0175734758377075,-5.4655643741237085
1708435977.1992946,-2.1404902935028076,-1.333038793211319,-2.5266266504870813,6.10715018489913,1.0176467895507812,-5.465494219456808
1708435977.2013142,-2.140514373779297,-1.3329331290772934,-2.5266011396991175,6.10710238197402,1.017609715461731,-5.46554017463793
1708435977.2033167,-2.1404531002044678,-1.3329419505647202,-2.5266385714160364,6.107109772949972,1.0176054239273071,-5.46550298133959
1708435977.2052937,-2.140444278717041,-1.33295293272052,-2.5266147295581263,6.107069599419393,1.017659068107605,-5.46550161043276
1708435977.207319,-2.1404778957366943,-1.332970456486084,-2.5266385714160364,6.107106792717733,1.017606496810913,-5.46551496187319
1708435977.2092927,-2.1404531002044678,-1.3329939556172867,-2.5266597906695765,6.107074010163107,1.0176546573638916,-5.465568665658132
1708435977.21129,-2.140481472015381,-1.332940624361374,-2.5266476313220423,6.107084500580587,1.0176514387130737,-5.465494219456808
1708435977.2133183,-2.1404531002044678,-1.3329704713872452,-2.526673142110006,6.1070605395133875,1.0176752805709839,-5.465544644986288
1708435977.2153041,-2.140486001968384,-1.3329450202039261,-2.5266385714160364,6.107069599419393,1.017659068107605,-5.465473119412557
1708435977.2173233,-2.1404621601104736,-1.332912416463234,-2.5266507307635706,6.107106792717733,1.017680048942566,-5.465543274079458
1708435977.2192934,-2.1404664516448975,-1.3329616349986573,-2.5266717115985315,6.107060658722677,1.0175977945327759,-5.465531233941213
1708435977.221299,-2.140448808670044,-1.3329616051963349,-2.5266221205340784,6.107097852021017,1.0176218748092651,-5.465513650571005
1708435977.223323,-2.140481472015381,-1.3329779368690033,-2.5266385714160364,6.1070934412773035,1.017659068107605,-5.465547565613882
1708435977.225294,-2.140486001968384,-1.3329779368690033,-2.5266175905810755,6.107151734619894,1.0176546573638916,-5.465501670037405
1708435977.2273135,-2.1404778957366943,-1.332993896012642,-2.5266431013690394,6.107118713646688,1.0176502466201782,-5.465509239827291
1708435977.2293148,-2.1404621601104736,-1.332958237533905,-2.526652161275045,6.10704122760848,1.0176140069961548,-5.465497318898336
1708435977.2312844,-2.1405117511749268,-1.3328794103911896,-2.5266476313220423,6.107057678490438,1.0176633596420288,-5.4655466119395655
1708435977.2333264,-2.140444278717041,-1.3329449755004426,-2.5266101996051233,6.107062089234152,1.0176546573638916,-5.465526882802145
1708435977.2352972,-2.1405036449432373,-1.332961620097496,-2.5266597906695765,6.107138263970175,1.0176467895507812,-5.4655224720584314
1708435977.237314,-2.1405036449432373,-1.3329939556172867,-2.5266266504870813,6.107044207840719,1.0176503658294678,-5.465551976357595
1708435977.2392986,-2.140420436859131,-1.3330044609359284,-2.5266266504870813,6.107062089234152,1.0176546573638916,-5.465518001710073
1708435977.2412815,-2.1404247283935547,-1.3329199862531205,-2.5266507307635706,6.10707842090682,1.017687439918518,-5.465529982243673
1708435977.243309,-2.1404778957366943,-1.332940624361374,-2.5266853014575403,6.10702000835494,1.0176546573638916,-5.4655388037311
1708435977.245282,-2.1404621601104736,-1.3329286736300965,-2.5266056696521204,6.107094871788778,1.0176829099655151,-5.465556506310598
1708435977.2472868,-2.1405038833618164,-1.332924247985222,-2.5266597906695765,6.10707842090682,1.0176175832748413,-5.465566996728079
1708435977.249301,-2.1404902935028076,-1.3329450202039261,-2.5266597906695765,6.107087480812826,1.0176914930343628,-5.465543214474813
1708435977.251283,-2.1404035091400146,-1.332953841691353,-2.5266717115985315,6.107090461045065,1.0176784992218018,-5.465530041848318
1708435977.2533169,-2.140437364578247,-1.332924337392189,-2.5266266504870813,6.107029068260946,1.0176469087600708,-5.4655667583095
1708435977.2552922,-2.1404824256896973,-1.332936317925789,-2.5266597906695765,6.107063638954916,1.0176947116851807,-5.465550963078634
1708435977.257293,-2.140446186065674,-1.3329779219678421,-2.5266717115985315,6.107057678490438,1.0176546573638916,-5.465550963078634
1708435977.2593367,-2.1404292583465576,-1.3329243671945115,-2.5266552607165735,6.1070289490516565,1.0176054239273071,-5.465543035660879
1708435977.2612827,-2.1404531002044678,-1.3329200607589264,-2.5266476313220423,6.107045638352194,1.017657995223999,-5.465550963078634
1708435977.26329,-2.140446186065674,-1.332985283141472,-2.5266266504870813,6.107029068260946,1.0176827907562256,-5.4655872027026575
1708435977.265287,-2.1404664516448975,-1.3329581928304215,-2.5266311804400843,6.107066499977865,1.017646074295044,-5.4655667583095
1708435977.2673008,-2.1404576301574707,-1.3329450351050873,-2.5266884008990687,6.107000696450033,1.0176708698272705,-5.465619746838705
1708435977.2693071,-2.140446186065674,-1.332964838748314,-2.5266552607165735,6.10699616649703,1.017659068107605,-5.4655872027026575
1708435977.271275,-2.140507221221924,-1.332953841691353,-2.5266597906695765,6.106964695244589,1.0176947116851807,-5.465514246617452
1708435977.2732944,-2.1404292583465576,-1.332949460749962,-2.5266597906695765,6.10698555687026,1.017669439315796,-5.465489689503805
1708435977.2752829,-2.1404292583465576,-1.3329661053470154,-2.5266597906695765,6.10698555687026,1.0176252126693726,-5.4655467907535
1708435977.2772944,-2.1403965950012207,-1.3329332184842606,-2.5266266504870813,6.10698555687026,1.0176621675491333,-5.465538446103231
1708435977.279291,-2.1404337882995605,-1.3329080504230042,-2.5266340414630335,6.107014167099752,1.0176622867584229,-5.465571049843923
1708435977.2813063,-2.140420436859131,-1.3330019128373642,-2.5266805330859583,6.106997835427084,1.0176990032196045,-5.465550963078634
1708435977.2833023,-2.140448570251465,-1.332912416463234,-2.5266552607165735,6.106981026917257,1.017646074295044,-5.465582911168234
1708435977.2853036,-2.1404292583465576,-1.3329661053470154,-2.5266507307635706,6.106993305474081,1.017657995223999,-5.465558413659231
1708435977.2873225,-2.1404664516448975,-1.3329660904458542,-2.5266717115985315,6.107011186867513,1.0176622867584229,-5.465546850358145
1708435977.289312,-2.1404690742492676,-1.3329538118890305,-2.5266385714160364,6.106948721199789,1.0177032947540283,-5.465599004422323
1708435977.2913535,-2.1404709815979004,-1.3329748523286362,-2.5266266504870813,6.106978165894308,1.01765775680542,-5.465578798447744
1708435977.2933307,-2.1404292583465576,-1.3329616349986573,-2.5266717115985315,6.107035028725424,1.0176591873168945,-5.465627495442526
1708435977.2952838,-2.1404869556427,-1.3329939258149643,-2.5266056696521204,6.106969105988302,1.0176373720169067,-5.465615514908926
1708435977.297329,-2.1404011249542236,-1.3329616349986573,-2.5266507307635706,6.106969105988302,1.017659068107605,-5.46556264558901
1708435977.29928,-2.1404507160186768,-1.332896114592888,-2.5266056696521204,6.106994497566976,1.0176546573638916,-5.46558648744692
1708435977.301291,-2.140446186065674,-1.3329779368690033,-2.5266717115985315,6.106962191849508,1.0176827907562256,-5.465598646794454
1708435977.3033168,-2.1404824256896973,-1.33292871833358,-2.5266717115985315,6.10694574096755,1.0176827907562256,-5.465594414864675
1708435977.3053055,-2.1404168605804443,-1.3329661202481766,-2.5266385714160364,6.106957661896505,1.0176827907562256,-5.465635184441702
1708435977.3073359,-2.1404168605804443,-1.3329572540572663,-2.5266552607165735,6.107035028725424,1.0176622867584229,-5.465561811123983
1708435977.3092844,-2.1404531002044678,-1.332941935663559,-2.5266552607165735,6.106990086823263,1.017657995223999,-5.465594414864675
1708435977.3113081,-2.140424966812134,-1.332953841691353,-2.5266597906695765,6.107027518540182,1.0176417827606201,-5.465682808552877
1708435977.313308,-2.1404080390930176,-1.3329616349986573,-2.5266597906695765,6.106997835427084,1.0177032947540283,-5.465619091187612
1708435977.3153377,-2.140424966812134,-1.3329200607589264,-2.5266929308520716,6.1069081900413416,1.0177158117294312,-5.465642456208364
1708435977.3173068,-2.1404824256896973,-1.3329450202039261,-2.5266643206225794,6.106970894127645,1.0176621675491333,-5.465638224278585
1708435977.3192842,-2.1404507160186768,-1.3329582226327439,-2.5266130606280726,6.106978165894308,1.0176373720169067,-5.465702776108877
1708435977.3213003,-2.140434980392456,-1.3329824221185227,-2.5266762415515345,6.107040989189901,1.0177037715911865,-5.465699259434835
1708435977.3233027,-2.140424966812134,-1.3329704415849228,-2.5266838709460657,6.1069620726402185,1.0177202224731445,-5.465626005326406
1708435977.3253164,-2.1404035091400146,-1.3329450202039261,-2.5266385714160364,6.10691117027358,1.0176829099655151,-5.465649727975027
1708435977.3274057,-2.140424966812134,-1.332949475651123,-2.5266175905810755,6.106978165894308,1.0176665782928467,-5.465646568928854
1708435977.3293076,-2.1404035091400146,-1.3329037737897416,-2.5266597906695765,6.106994497566976,1.017674207687378,-5.465646568928854
1708435977.3312802,-2.1404576301574707,-1.332912416463234,-2.5266385714160364,6.10699890831069,1.0176948308944702,-5.465655032788412
1708435977.3332975,-2.1404709815979004,-1.3329823923162003,-2.5266552607165735,6.1069737551505945,1.017629623413086,-5.465654019509451
1708435977.335321,-2.1405036449432373,-1.3329704862884064,-2.5266552607165735,6.106950032501974,1.0177072286605835,-5.465629700814382
1708435977.337301,-2.1404595375061035,-1.332924337392189,-2.5266643206225794,6.10694574096755,1.0177158117294312,-5.465617481862203
1708435977.339285,-2.1404011249542236,-1.3329138320735474,-2.5266838709460657,6.106990086823263,1.0176947116851807,-5.465597871934072
1708435977.341275,-2.1404595375061035,-1.332958237533905,-2.5266552607165735,6.106975543289938,1.0176784992218018,-5.465654019509451
1708435977.3432894,-2.1404531002044678,-1.3329705160907288,-2.5266597906695765,6.106966483383932,1.0176904201507568,-5.465650860463278
1708435977.345273,-2.1404170989990234,-1.3329286885312577,-2.5266717115985315,6.106978165894308,1.0176708698272705,-5.465678517018453
1708435977.347298,-2.1404550075531006,-1.3329572689584275,-2.5266929308520716,6.107027637749471,1.0176870822906494,-5.465625468884603
1708435977.3492846,-2.1404168605804443,-1.3328794997981568,-2.5266476313220423,6.106978165894308,1.0176870822906494,-5.465638581906454
1708435977.351311,-2.1404292583465576,-1.3329005253366013,-2.5266385714160364,6.1069620726402185,1.0176784992218018,-5.465702776108877
1708435977.3533008,-2.1404383182525635,-1.3330105257085343,-2.5266385714160364,6.106986987381735,1.0176665782928467,-5.465642456208364
1708435977.355291,-2.140393018722534,-1.332949460749962,-2.5265937487231653,6.10694574096755,1.017675518989563,-5.465638224278585
1708435977.3572779,-2.1404054164886475,-1.3329704862884064,-2.5266266504870813,6.107002246170797,1.017646074295044,-5.465662364159719
1708435977.3593144,-2.1404125690460205,-1.3329852384379883,-2.5266130606280726,6.106966483383932,1.0176993608474731,-5.465642456208364
1708435977.3612938,-2.1404125690460205,-1.332953856592514,-2.5266385714160364,6.1069737551505945,1.0176457166671753,-5.465665880833761
1708435977.3633049,-2.140387535095215,-1.3329450351050873,-2.5266476313220423,6.106978165894308,1.0176708698272705,-5.465650860463278
1708435977.3652887,-2.1404168605804443,-1.3329625588706513,-2.5266717115985315,6.106986987381735,1.0176827907562256,-5.465629700814382
1708435977.3672752,-2.14042592048645,-1.3329256188920517,-2.5266597906695765,6.106959211617269,1.01767098903656,-5.465665880833761
1708435977.369284,-2.1404337882995605,-1.3329661053470154,-2.526679340993063,6.106957661896505,1.0176947116851807,-5.465626005326406
1708435977.3712838,-2.1404080390930176,-1.3329779666713257,-2.5266838709460657,6.10704396942214,1.017613410949707,-5.465642456208364
1708435977.3732991,-2.1404054164886475,-1.332953856592514,-2.5266507307635706,6.10702000835494,1.0176830291748047,-5.465653900300161
1708435977.3752732,-2.1403839588165283,-1.3329660904458542,-2.5266762415515345,6.106982576638021,1.0176708698272705,-5.465633873139517
1708435977.3773308,-2.1404011249542236,-1.332949460749962,-2.5266385714160364,6.106957661896505,1.0176857709884644,-5.465690795575277
1708435977.3792944,-2.1404507160186768,-1.3329080057195206,-2.5266507307635706,6.1069620726402185,1.0176503658294678,-5.465694967900411
1708435977.3813355,-2.1404428482055664,-1.3329093319228669,-2.5266221205340784,6.10692452171401,1.0176665782928467,-5.465653900300161
1708435977.3833544,-2.1404595375061035,-1.332933173780777,-2.5266717115985315,6.106986987381735,1.0176948308944702,-5.465633992348806
1708435977.385332,-2.1404383182525635,-1.332953856592514,-2.5266717115985315,6.106954562454977,1.0176665782928467,-5.465690855179922
1708435977.387405,-2.1403920650482178,-1.3329824370196839,-2.5266597906695765,6.107011306076803,1.017657995223999,-5.465642456208364
1708435977.38934,-2.1404099464416504,-1.33292871833358,-2.5266385714160364,6.106994497566976,1.0176827907562256,-5.465683225785391
1708435977.3913083,-2.1404550075531006,-1.3329286885312577,-2.526656452809469,6.10694574096755,1.0176948308944702,-5.465674404297964
1708435977.3932943,-2.1404595375061035,-1.3329661202481766,-2.5266462008105677,6.107029068260946,1.0176457166671753,-5.465661350880758
1708435977.3952818,-2.1404426097869873,-1.332974911933281,-2.5266733805285853,6.10702012756423,1.0177032947540283,-5.465695027505056
1708435977.3973029,-2.140491485595703,-1.3329463613084336,-2.5266552607165735,6.106919991761007,1.0176665782928467,-5.4656745235072535
1708435977.3992844,-2.1404125690460205,-1.332953856592514,-2.5266462008105677,6.106976616173544,1.017646074295044,-5.465621773396627
1708435977.4013278,-2.1403965950012207,-1.3329538714936753,-2.5266717115985315,6.106929051667013,1.0176622867584229,-5.465654019509451
1708435977.4033124,-2.140446186065674,-1.33292871833358,-2.5266013781176966,6.1069737551505945,1.0176914930343628,-5.465653900300161
1708435977.4052932,-2.1404099464416504,-1.332941935663559,-2.5266340414630335,6.106966483383932,1.0176904201507568,-5.465727988873617
1708435977.4073215,-2.1404664516448975,-1.3329954904368897,-2.5266266504870813,6.106957661896505,1.017646074295044,-5.465645555649893
1708435977.409304,-2.1404213905334473,-1.3329256933978577,-2.5266597906695765,6.107003319054403,1.0176752805709839,-5.465653900300161
1708435977.4113195,-2.1404337882995605,-1.3329155904105683,-2.5266385714160364,6.1069737551505945,1.0176829099655151,-5.465674404297964
1708435977.413296,-2.14042592048645,-1.3329168272069474,-2.5266552607165735,6.10692452171401,1.017687439918518,-5.465714875851766
1708435977.4153106,-2.1404337882995605,-1.332953856592514,-2.5266221205340784,6.1069915173347376,1.0176126956939697,-5.465612534676687
1708435977.4172797,-2.1404550075531006,-1.332924337392189,-2.5266507307635706,6.106954562454977,1.0176546573638916,-5.465670172368185
1708435977.4192898,-2.140446186065674,-1.3329463464072724,-2.5266056696521204,6.106950151711263,1.0176784992218018,-5.465670172368185
1708435977.4213018,-2.140424966812134,-1.3329419505647202,-2.5266838709460657,6.106946813851156,1.0176424980163574,-5.465650860463278
1708435977.4232917,-2.1404426097869873,-1.3329419207623978,-2.5266552607165735,6.1069620726402185,1.01767098903656,-5.465662423764364
1708435977.4253004,-2.1404213905334473,-1.33292871833358,-2.5266552607165735,6.106966483383932,1.0176546573638916,-5.465686802064077
1708435977.4273179,-2.1404213905334473,-1.3328708422235032,-2.5266340414630335,6.106954562454977,1.0176379680633545,-5.465662542973654
1708435977.4292893,-2.1404125690460205,-1.332974911933281,-2.5266431013690394,6.107012378960409,1.0176419019699097,-5.465719346200125
1708435977.4312809,-2.1404337882995605,-1.332979218368866,-2.5266266504870813,6.10694574096755,1.0176379680633545,-5.465649727975027
1708435977.4332924,-2.1404383182525635,-1.3329050552896042,-2.5266507307635706,6.106990086823263,1.017703652381897,-5.465698603783743
1708435977.435311,-2.1404292583465576,-1.332933173780777,-2.5266929308520716,6.106986987381735,1.0176053047180176,-5.465661648903982
1708435977.437288,-2.1404426097869873,-1.3329704713872452,-2.5266266504870813,6.106982457428732,1.017659068107605,-5.465633455907003
1708435977.4392898,-2.1404426097869873,-1.333023728137352,-2.5266311804400843,6.106970894127645,1.017604947090149,-5.465735618268148
1708435977.4412732,-2.1404685974121094,-1.3329705011895676,-2.5266884008990687,6.106978046685018,1.0176503658294678,-5.465698603783743
1708435977.4432917,-2.1404337882995605,-1.332921252851822,-2.5266476313220423,6.106978165894308,1.0176665782928467,-5.465640727673666
1708435977.4452832,-2.1404383182525635,-1.332949460749962,-2.5266431013690394,6.106942403107443,1.0176502466201782,-5.465698603783743
1708435977.4473133,-2.1404213905334473,-1.3329331588796158,-2.5266552607165735,6.106966483383932,1.017663598060608,-5.465686802064077
1708435977.4492984,-2.1404099464416504,-1.332921252851822,-2.5266311804400843,6.106912600785055,1.01767098903656,-5.4657267967807215
1708435977.4512877,-2.1404824256896973,-1.332937554722168,-2.5266762415515345,6.106942403107443,1.0176708698272705,-5.46564501920809
1708435977.45334,-2.1404213905334473,-1.3329286885312577,-2.5266884008990687,6.1070067761238,1.0176794528961182,-5.465661350880758
1708435977.455287,-2.14042592048645,-1.332937554722168,-2.5266552607165735,6.1069915173347376,1.0176467895507812,-5.465703074132101
1708435977.457317,-2.1403965950012207,-1.3328883361867447,-2.5267046133624476,6.106921541481771,1.0176957845687866,-5.465665702019827
1708435977.459285,-2.1404011249542236,-1.332945005302765,-2.5266462008105677,6.106986987381735,1.0176054239273071,-5.465620342885153
1708435977.4613073,-2.1403839588165283,-1.3329005253366013,-2.5266671816455286,6.1069915173347376,1.0176708698272705,-5.465673629437582
1708435977.4633086,-2.140397548675537,-1.332941935663559,-2.5266597906695765,6.1069127199943445,1.017663598060608,-5.465747777615682
1708435977.4652972,-2.1404473781585693,-1.3329200607589264,-2.5266130606280726,6.106990086823263,1.0176682472229004,-5.465694252644674
1708435977.4673002,-2.1403920650482178,-1.3329670590213318,-2.5266807715045374,6.1068917391593835,1.017609715461731,-5.465698603783743
1708435977.4692914,-2.1404054164886475,-1.332937554722168,-2.5266643206225794,6.106930601387777,1.017663598060608,-5.465718094502584
1708435977.4712865,-2.1403839588165283,-1.33292871833358,-2.5266671816455286,6.106946933060446,1.0176469087600708,-5.4656381646739405
1708435977.4733465,-2.1404011249542236,-1.3329463017037888,-2.5266266504870813,6.107060420304098,1.0176424980163574,-5.465673569832937
1708435977.4752865,-2.1404147148132324,-1.3329450202039261,-2.5266597906695765,6.106991636544027,1.0176218748092651,-5.46567011276354
1708435977.4773293,-2.1404595375061035,-1.33295393109832,-2.5266929308520716,6.106970894127645,1.0176467895507812,-5.465694252644674
1708435977.4792933,-2.1404383182525635,-1.332867519264557,-2.5266340414630335,6.1069737551505945,1.0176467895507812,-5.465631906186239
1708435977.4813135,-2.14042592048645,-1.3329080504230042,-2.5266311804400843,6.106905090599813,1.0176469087600708,-5.465652648602621
1708435977.4833143,-2.1404011249542236,-1.3329080206206818,-2.5266929308520716,6.106942403107443,1.0176228284835815,-5.4656569997416895
1708435977.4853306,-2.1404011249542236,-1.332949475651123,-2.5266643206225794,6.106921422272482,1.017621636390686,-5.465772871171133
1708435977.487338,-2.1403794288635254,-1.3329299849322815,-2.5266056696521204,6.1069620726402185,1.0176228284835815,-5.4656692186938685
1708435977.4892993,-2.1404054164886475,-1.3329463017037888,-2.5266431013690394,6.106999027519979,1.0176351070404053,-5.465645078812734
1708435977.4912856,-2.14042592048645,-1.3329539012959977,-2.5266597906695765,6.106917011528768,1.0176681280136108,-5.465714875851766
1708435977.4933147,-2.14042592048645,-1.3329168868115921,-2.5266805330859583,6.106921422272482,1.0176305770874023,-5.4656692186938685
1708435977.495284,-2.14042592048645,-1.3329256486943741,-2.5266643206225794,6.106951343804159,1.0176094770431519,-5.4656745235072535
1708435977.4973137,-2.1404213905334473,-1.3329093319228669,-2.5266221205340784,6.106972563057699,1.0176048278808594,-5.465652529393331
1708435977.499291,-2.1403884887695312,-1.332967073922493,-2.5266597906695765,6.106914150505819,1.0176591873168945,-5.465706173573629
1708435977.5013356,-2.140367031097412,-1.332941935663559,-2.526652161275045,6.106946813851156,1.0176559686660767,-5.465714875851766
1708435977.5033207,-2.1403794288635254,-1.3329582226327439,-2.526635710393087,6.106951343804159,1.0176228284835815,-5.4656899015056055
1708435977.505289,-2.140441656112671,-1.332900584941246,-2.5266552607165735,6.10693787315444,1.0176351070404053,-5.465694252644674
1708435977.5073187,-2.1403443813323975,-1.3329331886819382,-2.5266597906695765,6.1068962691123865,1.0176305770874023,-5.465735618268148
1708435977.5093124,-2.14042592048645,-1.3329463017037888,-2.5266688505755823,6.106942403107443,1.0176184177398682,-5.465685490761892
1708435977.5112972,-2.1404550075531006,-1.3328764748624344,-2.5266552607165735,6.106963503151693,1.0176020860671997,-5.4656899015056055
1708435977.5133383,-2.1403965950012207,-1.332988054757454,-2.5266717115985315,6.10702000835494,1.0176424980163574,-5.465652588997976
1708435977.5152824,-2.1404125690460205,-1.3329705011895676,-2.5266671816455286,6.106942403107443,1.0176094770431519,-5.465701822434561
1708435977.5173688,-2.1404168605804443,-1.332912416463234,-2.5266340414630335,6.106934892922201,1.017622709274292,-5.465661350880758
1708435977.519293,-2.140397548675537,-1.3329136830619355,-2.5266671816455286,6.106939422875204,1.0176351070404053,-5.46573114791979
1708435977.5213015,-2.1404383182525635,-1.3329136830619355,-2.5266507307635706,6.106977093010702,1.017606496810913,-5.465656940137045
1708435977.523344,-2.14042592048645,-1.3329551380923768,-2.5266431013690394,6.106979954033651,1.0176228284835815,-5.465719346200125
1708435977.5252783,-2.1403884887695312,-1.3329168421081086,-2.5266552607165735,6.106954562454977,1.017611026763916,-5.465640668069021
1708435977.5273108,-2.140367031097412,-1.332925633793213,-2.5266643206225794,6.106942403107443,1.0176228284835815,-5.465694252644674
1708435977.5292885,-2.140367031097412,-1.332949475651123,-2.5266597906695765,6.1069304821784876,1.0176512002944946,-5.465743426476614
1708435977.531286,-2.140376091003418,-1.3329836440137406,-2.5266884008990687,6.10695909240798,1.0176138877868652,-5.465706173573629
1708435977.533387,-2.140376091003418,-1.3329049509814759,-2.5266552607165735,6.10695909240798,1.0175853967666626,-5.465706173573629
1708435977.5353096,-2.1403884887695312,-1.3329093170217057,-2.5266838709460657,6.106926071434774,1.0176395177841187,-5.465682331715719
1708435977.5373151,-2.14042592048645,-1.332941935663559,-2.5266552607165735,6.10693787315444,1.017611026763916,-5.4657390157329
1708435977.5392976,-2.1403794288635254,-1.3329582226327439,-2.5266476313220423,6.10695909240798,1.01766037940979,-5.465636376534597
1708435977.5412972,-2.140430450439453,-1.3329616349986573,-2.5266476313220423,6.106897699623861,1.0176440477371216,-5.465694252644674
1708435977.5433428,-2.1404144763946533,-1.332921252851822,-2.5266507307635706,6.106929051667013,1.017594337463379,-5.465706173573629
1708435977.5453155,-2.14042592048645,-1.3329660904458542,-2.5266385714160364,6.106922971993246,1.0175975561141968,-5.465719346200125
1708435977.5472898,-2.1403512954711914,-1.3328644943288346,-2.526652161275045,6.106917011528768,1.0175764560699463,-5.465723697339193
1708435977.5492887,-2.140397548675537,-1.3329463017037888,-2.5266221205340784,6.106946813851156,1.0175988674163818,-5.465652648602621
1708435977.551272,-2.1404664516448975,-1.3329671186259766,-2.5266552607165735,6.1069304821784876,1.017611026763916,-5.4656569997416895
1708435977.553296,-2.1404473781585693,-1.3329582226327439,-2.5265892187701624,6.10693787315444,1.017594337463379,-5.4657267967807215
1708435977.5552807,-2.1404054164886475,-1.3328720492175599,-2.5266311804400843,6.106942403107443,1.0175987482070923,-5.4656899015056055
1708435977.557289,-2.1404054164886475,-1.3329049360803147,-2.5266385714160364,6.106954562454977,1.0175987482070923,-5.465710524712698
1708435977.5592906,-2.1404054164886475,-1.332904965882637,-2.5266266504870813,6.106914150505819,1.0175689458847046,-5.4656899015056055
1708435977.5612922,-2.1404383182525635,-1.3329538863948365,-2.5266733805285853,6.106951343804159,1.0175734758377075,-5.465682331715719
1708435977.5633276,-2.1404099464416504,-1.3329344254783173,-2.5266688505755823,6.106927501946249,1.0175734758377075,-5.465718094502584
1708435977.5653036,-2.1404213905334473,-1.3329168570092698,-2.5266266504870813,6.106946813851156,1.0175780057907104,-5.465697411690847
1708435977.5673132,-2.1404147148132324,-1.3329625886729737,-2.5266838709460657,6.10688995102004,1.0176184177398682,-5.465706173573629
1708435977.5692763,-2.1404099464416504,-1.3329287034324189,-2.5266385714160364,6.106867658882894,1.0175449848175049,-5.4656899015056055
1708435977.571285,-2.140424966812134,-1.332974911933281,-2.5266597906695765,6.106914150505819,1.017594337463379,-5.465722445641653
1708435977.5732958,-2.1404099464416504,-1.332953856592514,-2.5266011396991175,6.1069304821784876,1.017594337463379,-5.465710524712698
1708435977.5752885,-2.140434980392456,-1.332949475651123,-2.5266385714160364,6.1069304821784876,1.0176154375076294,-5.465714935456411
1708435977.5772872,-2.1404383182525635,-1.3329255890897294,-2.526607338582174,6.106943952828207,1.0175690650939941,-5.465722445641653
1708435977.5792825,-2.140393018722534,-1.3329748523286362,-2.5266597906695765,6.106893288880148,1.017540454864502,-5.465685550366537
1708435977.581317,-2.1404213905334473,-1.3329463017037888,-2.5266266504870813,6.1069185612495325,1.0175660848617554,-5.465706173573629
1708435977.5833087,-2.1404011249542236,-1.3328601729920884,-2.5266643206225794,6.1068811295326135,1.0175448656082153,-5.465718094502584
1708435977.5853374,-2.140430450439453,-1.3329287481359025,-2.5266552607165735,6.106939422875204,1.0175780057907104,-5.4656692186938685
1708435977.5873122,-2.1404426097869873,-1.3329079759171982,-2.5266762415515345,6.106932031899252,1.017594337463379,-5.465706173573629
1708435977.5893242,-2.140430450439453,-1.3329123568585892,-2.526652161275045,6.106955754547872,1.017561674118042,-5.465764049683706
1708435977.5913215,-2.1403839588165283,-1.3328720492175599,-2.5266431013690394,6.106951343804159,1.0175987482070923,-5.465701822434561
1708435977.593305,-2.140430450439453,-1.332896114592888,-2.5266311804400843,6.106894480973043,1.017540454864502,-5.465694252644674
1708435977.5953128,-2.1404213905334473,-1.3329703670791169,-2.526635710393087,6.106963503151693,1.0175824165344238,-5.465685550366537
1708435977.597332,-2.1404213905334473,-1.3329748523286362,-2.5266853014575403,6.1069185612495325,1.0175660848617554,-5.465706173573629
1708435977.5992951,-2.1404056549072266,-1.3329582226327439,-2.5266929308520716,6.106944072037496,1.0175780057907104,-5.465661350880758
1708435977.6012878,-2.1404426097869873,-1.332937554722168,-2.5266175905810755,6.106923091202535,1.0175660848617554,-5.465710524712698
1708435977.6033077,-2.1404550075531006,-1.332875133757927,-2.5266431013690394,6.10693787315444,1.0175824165344238,-5.465706173573629
1708435977.605279,-2.1404426097869873,-1.332933173780777,-2.5266221205340784,6.106884348183431,1.0175987482070923,-5.465743426476614
1708435977.6073256,-2.1403839588165283,-1.3329616349986573,-2.5266311804400843,6.106888639717855,1.0175342559814453,-5.465714875851766
1708435977.6092994,-2.1404011249542236,-1.3329093319228669,-2.5266340414630335,6.106943952828207,1.0175987482070923,-5.465681080018179
1708435977.611329,-2.140367031097412,-1.3329748523286362,-2.5266385714160364,6.106917011528768,1.0175660848617554,-5.46560371318926
1708435977.6133032,-2.1404147148132324,-1.332979218368866,-2.5266476313220423,6.106922971993246,1.0175538063049316,-5.4656692186938685
1708435977.6152961,-2.1404011249542236,-1.332934470181801,-2.5266476313220423,6.106981384545126,1.017561674118042,-5.465694252644674
1708435977.6173136,-2.1404144763946533,-1.332941935663559,-2.5266643206225794,6.106926071434774,1.0175987482070923,-5.4656899015056055
1708435977.6193225,-2.140393018722534,-1.3329735708287735,-2.5266431013690394,6.106897699623861,1.0175660848617554,-5.4657267967807215
1708435977.621289,-2.1404054164886475,-1.3329049807837983,-2.5266431013690394,6.106909620552816,1.0175780057907104,-5.465731207524435
1708435977.6233413,-2.1403884887695312,-1.332930014734604,-2.5266385714160364,6.106955754547872,1.017561674118042,-5.465710524712698
1708435977.6253111,-2.140371561050415,-1.332900584941246,-2.5266476313220423,6.106942403107443,1.0175913572311401,-5.465719405804769
1708435977.6273038,-2.140397548675537,-1.332904965882637,-2.5266431013690394,6.106954562454977,1.0175824165344238,-5.465691153203146
1708435977.629306,-2.1404213905334473,-1.332925633793213,-2.5266221205340784,6.106902229576864,1.0175824165344238,-5.465652648602621
1708435977.631288,-2.140376091003418,-1.332933173780777,-2.5266807715045374,6.106909620552816,1.0175824165344238,-5.4656986633883875
1708435977.633309,-2.140376091003418,-1.332941935663559,-2.5266552607165735,6.106881010323324,1.0175660848617554,-5.465640668069021
1708435977.635276,-2.14040207862854,-1.3329463017037888,-2.5266431013690394,6.10691117027358,1.0175987482070923,-5.465652588997976
1708435977.6373074,-2.1404099464416504,-1.3329582226327439,-2.526635710393087,6.106921422272482,1.0175780057907104,-5.465714875851766
1708435977.639291,-2.1404011249542236,-1.332900584941246,-2.5266597906695765,6.1069304821784876,1.0175795555114746,-5.46569544473757
1708435977.64131,-2.140371561050415,-1.3329626035741349,-2.5266147295581263,6.106894480973043,1.017540454864502,-5.465703014527456
1708435977.6432912,-2.1404504776000977,-1.3329582226327439,-2.5266221205340784,6.10694836357192,1.0175163745880127,-5.4657074252711695
1708435977.6452699,-2.1404011249542236,-1.332930014734604,-2.526619259511129,6.106934892922201,1.0175628662109375,-5.46567798057665
1708435977.647296,-2.1404099464416504,-1.332953856592514,-2.5266221205340784,6.106939422875204,1.0175840854644775,-5.465703074132101
1708435977.6492715,-2.140360116958618,-1.332953856592514,-2.5266266504870813,6.106943952828207,1.0175628662109375,-5.4656745235072535
1708435977.6512918,-2.140393018722534,-1.3329212677529831,-2.5266101996051233,6.1069527743156335,1.0175660848617554,-5.46567798057665
1708435977.653271,-2.140373706817627,-1.332934470181801,-2.5266147295581263,6.106927501946249,1.0175704956054688,-5.465670172368185
1708435977.6553102,-2.140434980392456,-1.332950772052147,-2.5266597906695765,6.106897699623861,1.0175780057907104,-5.465698603783743
1708435977.657282,-2.1404099464416504,-1.3329093319228669,-2.5266507307635706,6.1069304821784876,1.0175824165344238,-5.465691153203146
1708435977.6592886,-2.140430450439453,-1.332995520239212,-2.526635710393087,6.106881010323324,1.0175704956054688,-5.4656745235072535
1708435977.6613004,-2.140397548675537,-1.332937554722168,-2.526590887700216,6.106943952828207,1.0175868272781372,-5.465646509324209
1708435977.663313,-2.140397548675537,-1.3329463017037888,-2.5266552607165735,6.1069185612495325,1.0175493955612183,-5.465629104767935
1708435977.6652904,-2.1404099464416504,-1.3329626035741349,-2.5266056696521204,6.1069304821784876,1.0175615549087524,-5.465703074132101
1708435977.6673257,-2.1403555870056152,-1.332998366361,-2.5266311804400843,6.106915700226583,1.0175628662109375,-5.465658191834585
1708435977.6692917,-2.1403839588165283,-1.3329660904458542,-2.5266221205340784,6.106932031899252,1.0175704956054688,-5.465691153203146
1708435977.6713119,-2.1404190063476562,-1.3329836887172242,-2.526602808629171,6.106894600182333,1.0175704956054688,-5.465678815041677
1708435977.6732793,-2.140371561050415,-1.3329626035741349,-2.526656691228048,6.106885540276327,1.0175660848617554,-5.4656333963023584
1708435977.675278,-2.14040207862854,-1.3328883361867447,-2.5266266504870813,6.106955873757162,1.0176031589508057,-5.465637985860006
1708435977.677314,-2.140434980392456,-1.3329137128642579,-2.5266266504870813,6.106873500138082,1.0175824165344238,-5.465625707303182
1708435977.6793206,-2.1404054164886475,-1.3329463017037888,-2.526602808629171,6.106915581017294,1.0175538063049316,-5.465613726769583
1708435977.6812847,-2.1404144763946533,-1.3329616349986573,-2.526635710393087,6.106927501946249,1.017612338066101,-5.465678815041677
1708435977.6832743,-2.140456438064575,-1.332904965882637,-2.5266717115985315,6.10694836357192,1.0175538063049316,-5.465662542973654
1708435977.685311,-2.1404144763946533,-1.332949475651123,-2.526652161275045,6.1068482277686975,1.0175628662109375,-5.465605024491445
1708435977.6873634,-2.140434980392456,-1.332941935663559,-2.5266507307635706,6.106894480973043,1.0175795555114746,-5.465662542973654
1708435977.6893096,-2.1403555870056152,-1.332941935663559,-2.5266431013690394,6.106885540276327,1.0175327062606812,-5.465642336999075
1708435977.6913238,-2.140393018722534,-1.3329137128642579,-2.526602808629171,6.106894480973043,1.0175538063049316,-5.465588752423422
1708435977.6933439,-2.140385150909424,-1.3329388511231919,-2.5266101996051233,6.106932031899252,1.0175583362579346,-5.465606216584341
1708435977.6952987,-2.1404099464416504,-1.3329137128642579,-2.526602808629171,6.106943952828207,1.0175672769546509,-5.465581063424246
1708435977.6973288,-2.14042329788208,-1.3328852516463776,-2.5266101996051233,6.106922971993246,1.017583966255188,-5.465651933346884
1708435977.6992896,-2.1404213905334473,-1.332904965882637,-2.5265982786761683,6.106873500138082,1.017520785331726,-5.46564752260317
1708435977.7013063,-2.14042329788208,-1.3329463017037888,-2.5266733805285853,6.106907832413473,1.0175913572311401,-5.4656105677234095
1708435977.7033074,-2.1404213905334473,-1.332925633793213,-2.5266147295581263,6.106881010323324,1.0175583362579346,-5.4656105677234095
1708435977.705307,-2.1403558254241943,-1.3329748523286362,-2.5266385714160364,6.106952893524923,1.017612338066101,-5.465614918862478
1708435977.7073042,-2.1404213905334473,-1.3329137128642579,-2.5266221205340784,6.10694836357192,1.0175538063049316,-5.465578917657034
1708435977.7093453,-2.14043927192688,-1.332937554722168,-2.5266643206225794,6.106878149300375,1.017583966255188,-5.465594236050741
1708435977.711311,-2.140393018722534,-1.332900584941246,-2.5266597906695765,6.106852638512411,1.0175883769989014,-5.465590838585989
1708435977.7133453,-2.140393018722534,-1.3329137128642579,-2.5266147295581263,6.106854307442465,1.017504334449768,-5.465518120919363
1708435977.7152884,-2.1403558254241943,-1.332925633793213,-2.5266552607165735,6.106915700226583,1.017520785331726,-5.46556264558901
1708435977.7173295,-2.140397548675537,-1.332904965882637,-2.5266147295581263,6.106885421067037,1.017529845237732,-5.465546731148855
1708435977.7192993,-2.1403603553771973,-1.3329137128642579,-2.5266476313220423,6.10682903507308,1.017529845237732,-5.4655179421054285
1708435977.721293,-2.140423536300659,-1.332921252851822,-2.5266147295581263,6.106851327210226,1.0175461769104004,-5.465480987225668
1708435977.7233136,-2.140397548675537,-1.332925633793213,-2.5266476313220423,6.106875049858846,1.0175583362579346,-5.4654972592936915
1708435977.7253504,-2.1403896808624268,-1.332934470181801,-2.526689592991964,6.1068915007408044,1.017529845237732,-5.465503040944235
1708435977.7273242,-2.140406370162964,-1.3329137128642579,-2.526652161275045,6.106870639115133,1.0175505876541138,-5.4655268231975
1708435977.729297,-2.14043927192688,-1.332925633793213,-2.5266221205340784,6.106899010926046,1.0175461769104004,-5.465503040944235
1708435977.7312894,-2.1403558254241943,-1.332925633793213,-2.5266311804400843,6.106858718186178,1.0175416469573975,-5.465494219456808
1708435977.7332938,-2.14042592048645,-1.3329287034324189,-2.526644770299093,6.10693787315444,1.0175342559814453,-5.465531233941213
1708435977.7352874,-2.140376091003418,-1.3328970980695267,-2.526656452809469,6.106920110970297,1.0175461769104004,-5.465519372616903
1708435977.737325,-2.140369176864624,-1.3329136979630967,-2.5265892187701624,6.106779563217916,1.017513394355774,-5.465514902268545
1708435977.739293,-2.14042329788208,-1.3328676682761689,-2.5266266504870813,6.106822955399313,1.0174967050552368,-5.4654908815967005
1708435977.7413123,-2.1403534412384033,-1.332950697546341,-2.5266643206225794,6.106872069626608,1.0175223350524902,-5.4654908815967005
1708435977.743291,-2.1404190063476562,-1.332941935663559,-2.5266311804400843,6.10681842544631,1.0175596475601196,-5.46546703973879
1708435977.74528,-2.1404190063476562,-1.3329181683114548,-2.5266733805285853,6.106757032662191,1.0174847841262817,-5.465449337159292
1708435977.7473283,-2.140401840209961,-1.3329093319228669,-2.5266221205340784,6.106824147492208,1.0175763368606567,-5.4654462973224085
1708435977.7492821,-2.140360116958618,-1.3329625886729737,-2.526619259511129,6.106810796051779,1.0175145864486694,-5.465478960667745
1708435977.7512736,-2.1404197216033936,-1.3329495352557679,-2.52664024034609,6.106742250710287,1.017510175704956,-5.465462628995077
1708435977.7533057,-2.140373706817627,-1.3328807961991807,-2.5266101996051233,6.106718408852377,1.017486333847046,-5.465499703084127
1708435977.7553113,-2.1404099464416504,-1.3328764152577897,-2.526619259511129,6.106751191407003,1.0174728631973267,-5.4654462973224085
1708435977.7573383,-2.140369176864624,-1.3328807961991807,-2.526619259511129,6.106758343964376,1.0175145864486694,-5.465487782155172
1708435977.7593205,-2.140376091003418,-1.332876445060112,-2.526652161275045,6.106771695404806,1.017486333847046,-5.465484742318289
1708435977.7613277,-2.140397548675537,-1.3328689646771927,-2.526619259511129,6.106771695404806,1.017510175704956,-5.46546841064562
1708435977.763341,-2.1404144763946533,-1.332925633793213,-2.526590887700216,6.106706130295553,1.0174819231033325,-5.465480331574575
1708435977.7653358,-2.140376091003418,-1.3329344999841233,-2.526611868535177,6.1066778776939294,1.0175026655197144,-5.465452019368307
1708435977.7673094,-2.140434980392456,-1.3329015535167237,-2.526586357747213,6.106718408852377,1.0174620151519775,-5.4654609004603785
1708435977.7692945,-2.140371561050415,-1.332941935663559,-2.526682440434591,6.1067601321037195,1.017486333847046,-5.465455118809835
1708435977.771322,-2.140410900115967,-1.3329463017037888,-2.526607338582174,6.106757151871481,1.017486333847046,-5.465463940297262
1708435977.773323,-2.140357732772827,-1.3329551380923768,-2.5265982786761683,6.106731879502096,1.0174574851989746,-5.4654773513423365
1708435977.7752666,-2.14042329788208,-1.3329388064197083,-2.5266147295581263,6.10669885852889,1.0174953937530518,-5.46541935602297
1708435977.7773163,-2.1403825283050537,-1.3329375696233292,-2.526607338582174,6.106682526856222,1.0174620151519775,-5.465353731309072
1708435977.7792735,-2.140406370162964,-1.3328733307174225,-2.526586357747213,6.106703269272604,1.017466425895691,-5.465407196675436
1708435977.7812843,-2.140406370162964,-1.332905964260437,-2.526590887700216,6.106706130295553,1.017445683479309,-5.465374533330099
1708435977.78333,-2.140357732772827,-1.33290150881324,-2.526599947606222,6.106710660248556,1.0174620151519775,-5.465386394654409
1708435977.7852979,-2.140315294265747,-1.3329582226327439,-2.5265665690051478,6.106686937599935,1.017466425895691,-5.465350631867544
1708435977.7873232,-2.140369176864624,-1.3329375249198456,-2.5265710989581507,6.106719600945272,1.0173676013946533,-5.465416018162863
1708435977.7893627,-2.140406370162964,-1.3328601282886048,-2.5265262762652796,6.106752741127767,1.0173795223236084,-5.465346221123831
1708435977.7913036,-2.1403896808624268,-1.3328939390233536,-2.5265563170062464,6.106703269272604,1.017466425895691,-5.465338770543234
1708435977.7932806,-2.14040207862854,-1.3329269301942368,-2.5264723936664026,6.106715190201559,1.0174095630645752,-5.465363983307974
1708435977.7952752,-2.140397548675537,-1.3328777116588135,-2.5265353361712855,6.106748330384054,1.0174471139907837,-5.465338710938589
1708435977.79731,-2.140369176864624,-1.3328970980695267,-2.526494805012838,6.1067436812217615,1.017397403717041,-5.465338710938589
1708435977.7993019,-2.140373706817627,-1.3328896325877686,-2.526503864918844,6.106752741127767,1.0174174308776855,-5.465328280125753
1708435977.8013246,-2.140385150909424,-1.3329059344581147,-2.526511255894796,6.106721269875326,1.0174425840377808,-5.46536094347109
1708435977.8033273,-2.1403985023498535,-1.3328852367452164,-2.526454273854391,6.106736409455099,1.0174262523651123,-5.465307120476858
1708435977.8052824,-2.140357732772827,-1.3328529608300705,-2.526466194783346,6.106694209366598,1.0174545049667358,-5.465286378060476
1708435977.8073316,-2.140410900115967,-1.3329225194505234,-2.526517454777853,6.106715190201559,1.017421841621399,-5.465295199547903
1708435977.8092933,-2.1403896808624268,-1.3328895729831238,-2.526466194783346,6.106748330384054,1.0174262523651123,-5.465341571961538
1708435977.8112855,-2.14034104347229,-1.332955152993538,-2.526466194783346,6.106682407646932,1.0174140930175781,-5.465290729199545
1708435977.813345,-2.1403896808624268,-1.3329102855971833,-2.526499334965841,6.106728660851278,1.017421841621399,-5.465369824563162
1708435977.8152895,-2.1403579711914062,-1.3329181683114548,-2.526503864918844,6.106707680016317,1.0174095630645752,-5.46532375017275
1708435977.817307,-2.1403870582580566,-1.3329269301942368,-2.5264301935779017,6.106707680016317,1.0174353122711182,-5.465296570454733
1708435977.8193078,-2.1403543949127197,-1.3329059344581147,-2.52649170557131,6.106685387879171,1.0174063444137573,-5.465295259152548
1708435977.8212829,-2.1403286457061768,-1.3328733307174225,-2.526458803807394,6.106731879502096,1.0173687934875488,-5.465307060872213
1708435977.8233178,-2.140345335006714,-1.332873360519745,-2.526487175618307,6.106769072800436,1.0174140930175781,-5.465278927479879
1708435977.8252814,-2.14034104347229,-1.332857371573784,-2.526503864918844,6.10672293880538,1.0173568725585938,-5.465248827134268
1708435977.827286,-2.140373706817627,-1.332893968825676,-2.526466194783346,6.106703269272604,1.0173778533935547,-5.465311531220571
1708435977.829282,-2.140336513519287,-1.3329845827868958,-2.526470724736349,6.106694209366598,1.0173161029815674,-5.4652666489230555
1708435977.831279,-2.1403825283050537,-1.3329269301942368,-2.526508394871847,6.1067062495048425,1.0173496007919312,-5.4652507344829
1708435977.8332937,-2.140373706817627,-1.3329388511231919,-2.526482645665304,6.1066897986228845,1.0173496007919312,-5.465283278618948
1708435977.8353136,-2.140366554260254,-1.3328896325877686,-2.52649170557131,6.106727349549093,1.0172849893569946,-5.465271119271414
1708435977.8372955,-2.140377998352051,-1.3328982454589386,-2.526479784642355,6.106773602753439,1.0173206329345703,-5.465284351502554
1708435977.839291,-2.1403825283050537,-1.332934470181801,-2.5265007654773157,6.106719600945272,1.01737642288208,-5.4653160015689295
1708435977.8413055,-2.1403489112854004,-1.3329027903131028,-2.526470724736349,6.106780636101522,1.0173341035842896,-5.465255026017324
1708435977.8432844,-2.14037823677063,-1.3329103004983445,-2.52651292482485,6.106719600945272,1.017346739768982,-5.465275589619772
1708435977.8452747,-2.14036226272583,-1.332921252851822,-2.5264678637133997,6.10669885852889,1.0173839330673218,-5.465284351502554
1708435977.847298,-2.1403374671936035,-1.3329225492528458,-2.526458803807394,6.106670129090109,1.0173630714416504,-5.465263847504751
1708435977.8493385,-2.1403329372406006,-1.3328733009151001,-2.526458803807394,6.106686937599935,1.0173296928405762,-5.465243224297659
1708435977.851324,-2.1403145790100098,-1.3328319948962708,-2.5264514128314417,6.106745469361105,1.0173041820526123,-5.465255026017324
1708435977.853294,-2.1403305530548096,-1.332938776617386,-2.5265007654773157,6.106637465744772,1.0173511505126953,-5.465193871651785
1708435977.855293,-2.1402809619903564,-1.3329059344581147,-2.526517454777853,6.106703269272604,1.017317771911621,-5.465279881154196
1708435977.857292,-2.1402535438537598,-1.3328720939210434,-2.5264843145953577,6.106662857323446,1.0172849893569946,-5.465255026017324
1708435977.8593197,-2.1402852535247803,-1.332857371573784,-2.526470724736349,6.106683599739828,1.017293930053711,-5.465223435555593
1708435977.8612764,-2.140289783477783,-1.3328733307174225,-2.526499334965841,6.106643426209249,1.0173087120056152,-5.4651981631862085
1708435977.863298,-2.1402411460876465,-1.3329103004983445,-2.526482645665304,6.106671678810873,1.0173133611679077,-5.46521890560259
1708435977.8652782,-2.140254497528076,-1.3328644943288346,-2.526487175618307,6.1066239950950525,1.0172849893569946,-5.465198103581564
1708435977.867288,-2.140226125717163,-1.332934470181801,-2.526541296635763,6.106628525048055,1.017317771911621,-5.465207103882925
1708435977.8693004,-2.14016056060791,-1.3328689646771927,-2.526475254689352,6.106562602310934,1.0172849893569946,-5.4652520457850855
1708435977.871286,-2.1401989459991455,-1.3329093617251893,-2.526515785847799,6.106489765435018,1.0173028707504272,-5.46520704427828
1708435977.8732932,-2.1401944160461426,-1.332904965882637,-2.526454273854391,6.106531131058492,1.0173267126083374,-5.465236786996023
1708435977.875317,-2.140162706375122,-1.3329059344581147,-2.526515785847799,6.106495368271627,1.017293930053711,-5.465192143117086
1708435977.8773117,-2.140101671218872,-1.3329269599965592,-2.526478115712301,6.106437313347616,1.017293930053711,-5.465241257344381
1708435977.8792858,-2.1400911808013916,-1.332930014734604,-2.526487175618307,6.106407630234518,1.0173312425613403,-5.4652204553233545
1708435977.8812869,-2.1399848461151123,-1.3329093319228669,-2.526475254689352,6.106387960701742,1.017317771911621,-5.465175453816549
1708435977.883284,-2.139976978302002,-1.3329463315061112,-2.526499334965841,6.106294977455892,1.0173341035842896,-5.465208474789755
1708435977.8853457,-2.1399176120758057,-1.3328764152577897,-2.526461903248922,6.106276023178854,1.0173341035842896,-5.465187732373373
1708435977.8872921,-2.1399354934692383,-1.3329670590213318,-2.5265653769122522,6.10627709606246,1.0172984600067139,-5.465169910584585
1708435977.889293,-2.139940023422241,-1.332953841691353,-2.526499334965841,6.106217252999105,1.0173133611679077,-5.465192143117086
1708435977.891292,-2.1398587226867676,-1.33292871833358,-2.526515785847799,6.106156217842855,1.0173087120056152,-5.465196673070089
1708435977.8933165,-2.1398022174835205,-1.332953841691353,-2.526520315800802,6.1061532376106165,1.0173585414886475,-5.465229276810781
1708435977.8953128,-2.139770269393921,-1.3330105555108567,-2.5265188852893274,6.106019961624899,1.017374873161316,-5.465204064046041
1708435977.8972998,-2.139734983444214,-1.3329807680896302,-2.5264676252948206,6.106012689858236,1.0173540115356445,-5.465236727391378
1708435977.8993046,-2.139620780944824,-1.3330462884953995,-2.5265188852893274,6.105944263726034,1.017370343208313,-5.465199653302328
1708435977.9013042,-2.139599084854126,-1.333034486775734,-2.5265217463122767,6.1059138653571985,1.0173945426940918,-5.46519518295397
1708435977.903292,-2.1395344734191895,-1.3330093187144776,-2.5265968481646937,6.1058480618293665,1.0174230337142944,-5.4651533404933375
1708435977.9052923,-2.13946270942688,-1.3330212396434327,-2.526620928441183,6.105830418854513,1.0174230337142944,-5.4652337471591395
1708435977.9073062,-2.1394028663635254,-1.3330419224551697,-2.5266147295581263,6.105773556023397,1.0174635648727417,-5.465236727391378
1708435977.909296,-2.1392648220062256,-1.332967610364296,-2.5266688505755823,6.105640399246969,1.0175132751464844,-5.465187732373373
1708435977.9112844,-2.139235019683838,-1.333089829688408,-2.5267003218280237,6.105609285622396,1.0174529552459717,-5.465192143117086
1708435977.9133296,-2.1391193866729736,-1.3331194084933777,-2.526686731969015,6.1055419323738,1.017510175704956,-5.465117875729696
1708435977.9153366,-2.139085054397583,-1.333114967947342,-2.526727263127462,6.105389463692465,1.0175268650054932,-5.465205434952871
1708435977.9173083,-2.13899302482605,-1.333134339456894,-2.5267797152148646,6.105309831887045,1.0175461769104004,-5.465213004742758
1708435977.9193122,-2.138810873031616,-1.3331256222775956,-2.5268080870257776,6.105223166733541,1.0175795555114746,-5.465193156396047
1708435977.921308,-2.1387269496917725,-1.3331005436233063,-2.526815954838888,6.105174171715536,1.0175824165344238,-5.465208474789755
1708435977.9233248,-2.1385953426361084,-1.3331734997085114,-2.526835266743795,6.104999291687765,1.017606496810913,-5.465211574231283
1708435977.9253078,-2.1385338306427,-1.3332223308137436,-2.5269208590136927,6.104896056443014,1.0175689458847046,-5.465192143117086
1708435977.927304,-2.138385057449341,-1.333193228845932,-2.526944700871603,6.104681122093954,1.0176726579666138,-5.465163890515463
1708435977.9293082,-2.138221025466919,-1.3332091879895707,-2.5270002524005335,6.1045583365257166,1.0177446603775024,-5.465199653302328
1708435977.9312892,-2.1380574703216553,-1.3332290810397645,-2.5269866625415247,6.104440080910482,1.0177401304244995,-5.4651920835124415
1708435977.9333165,-2.1379146575927734,-1.3332813692143937,-2.5270631949054163,6.104289042740621,1.0177552700042725,-5.465171043072836
1708435977.9352956,-2.137709379196167,-1.3332976710847397,-2.5271156469928187,6.104039656906881,1.017798900604248,-5.465155009423391
1708435977.9373007,-2.1375582218170166,-1.333336518411972,-2.527163569127218,6.103892910271444,1.0178635120391846,-5.465192143117086
1708435977.9393005,-2.137349843978882,-1.3333691370538254,-2.5271876494037073,6.103709089546957,1.017958164215088,-5.465221826230184
1708435977.941288,-2.1371264457702637,-1.3333396774581452,-2.5272355715381067,6.1035029766853235,1.017959475517273,-5.465187672768728
1708435977.9433024,-2.1369707584381104,-1.3333594065955658,-2.5272627512561243,6.103315937310018,1.018003225326538,-5.465175453816549
1708435977.9452903,-2.136747360229492,-1.3334693771651764,-2.5273781458484095,6.103133666306295,1.0181204080581665,-5.4652337471591395
1708435977.9473002,-2.1365277767181396,-1.333444045191147,-2.527379576359884,6.102892982750692,1.0181641578674316,-5.465224866067068
1708435977.949309,-2.1363093852996826,-1.333447442655899,-2.5274351278888147,6.102640735894003,1.0182900428771973,-5.4652085343943995
1708435977.9512858,-2.136096954345703,-1.3335277301124115,-2.527525250111715,6.102384674340048,1.018362283706665,-5.465184334908621
1708435977.9533336,-2.135824680328369,-1.3335649234107514,-2.5275638739215296,6.102114307671346,1.0184342861175537,-5.465217355881826
1708435977.9552982,-2.1355650424957275,-1.333584488635399,-2.5276361147509974,6.101782429009237,1.0185095071792603,-5.465138558541433
1708435977.9573462,-2.1353249549865723,-1.3336144846728821,-2.527703348790304,6.101478564530172,1.0186625719070435,-5.465151969586508
1708435977.9592936,-2.1350550651550293,-1.333663673405983,-2.5277889410602015,6.101151573448934,1.0187379121780396,-5.465147618447439
1708435977.961285,-2.1348049640655518,-1.3336593967727204,-2.5278804937945765,6.100815403252401,1.0188027620315552,-5.465159479771749
1708435977.963343,-2.1345038414001465,-1.3337561947158356,-2.527890984212057,6.100516068726339,1.018906593322754,-5.465188745652334
1708435977.9653082,-2.1342129707336426,-1.3337505620769043,-2.5280213991748255,6.100213873177328,1.0190188884735107,-5.465188745652334
1708435977.9673114,-2.1338846683502197,-1.3338561815074463,-2.528081480656759,6.099895703583517,1.0190867185592651,-5.46512341896166
1708435977.9692922,-2.133533239364624,-1.3338429194739838,-2.528163735066549,6.099516379624166,1.0192279815673828,-5.465148989354269
1708435977.9712906,-2.133145809173584,-1.3339401942542572,-2.528306309376852,6.099097716599264,1.0193828344345093,-5.465155009423391
1708435977.9733222,-2.132843017578125,-1.3339460802129288,-2.5283811728106897,6.098677980690756,1.0194309949874878,-5.465151909981863
1708435977.9753015,-2.132457971572876,-1.3340149533799668,-2.528468195592062,6.098275768547811,1.0196051597595215,-5.465107027684347
1708435977.9773016,-2.132059097290039,-1.3340624880841752,-2.528564516698019,6.097876536637106,1.0196714401245117,-5.465148989354269
1708435977.9792922,-2.131659507751465,-1.334068940286972,-2.5287140051471155,6.097382175713339,1.0198246240615845,-5.465118948613302
1708435977.981306,-2.13122820854187,-1.3341255646995087,-2.528796974812643,6.0969732878501794,1.0199569463729858,-5.4651400486575525
1708435977.9833333,-2.130850315093994,-1.3342388731292267,-2.528904740010397,6.09655927398757,1.020114541053772,-5.465115968381063
1708435977.9853098,-2.1303772926330566,-1.3343265515616913,-2.529032293950216,6.095969188004293,1.0202858448028564,-5.4651159087764185
1708435977.9873283,-2.129899263381958,-1.3343452674201508,-2.529173199330465,6.0954311964805505,1.0204678773880005,-5.465057496224539
1708435977.9892905,-2.1293795108795166,-1.334441826944687,-2.5293293634997767,6.094840037613668,1.0206316709518433,-5.465120379124777
1708435977.9913204,-2.128868579864502,-1.3344682169011612,-2.52946120897402,6.094281661301412,1.0208042860031128,-5.465101067219869
1708435977.993333,-2.1283135414123535,-1.3345574152520676,-2.5296950976001185,6.093744742661276,1.0209308862686157,-5.46511292854418
1708435977.9952848,-2.1278021335601807,-1.3346082133105774,-2.529776159917013,6.0931306956108,1.0211604833602905,-5.465072695408956
1708435977.9973178,-2.1272387504577637,-1.3347070825150986,-2.529917065297262,6.092487799912252,1.0212867259979248,-5.465063814316885
1708435977.9993396,-2.126702308654785,-1.3347889345935364,-2.5301180521594446,6.091901767044821,1.021567940711975,-5.465060774480001
1708435978.0013058,-2.1260857582092285,-1.3348440837911149,-2.530311171208517,6.091225850373068,1.02176034450531,-5.465027753506796
1708435978.0033205,-2.1255245208740234,-1.3349353832057496,-2.530466143284933,6.090516435890951,1.0219181776046753,-5.465065304433004
1708435978.0052905,-2.124875783920288,-1.3350031238845368,-2.530609909688131,6.089829790383138,1.0221270322799683,-5.465069774781362
1708435978.0073128,-2.124175548553467,-1.3351312589696427,-2.530834976826803,6.089078175812521,1.0224006175994873,-5.4650113622294825
1708435978.009299,-2.1235311031341553,-1.3352116358331223,-2.5310147444354456,6.088302719383993,1.0226378440856934,-5.46502918401827
1708435978.0112817,-2.122891902923584,-1.335278035407402,-2.5312565008746546,6.087508189469137,1.022848129272461,-5.465017382298605
1708435978.0133018,-2.122176170349121,-1.3354027432254334,-2.53136116663088,6.086726176529684,1.0231068134307861,-5.465024773274557
1708435978.0152996,-2.1214821338653564,-1.3354658645442505,-2.5316432158099573,6.0858895657356165,1.0233893394470215,-5.464979831372396
1708435978.0173311,-2.1207025051116943,-1.3355380159667511,-2.531834904347555,6.085077631264486,1.0236119031906128,-5.464972738419668
1708435978.0193062,-2.1199681758880615,-1.335648701792099,-2.532079521809713,6.084195005684652,1.0238553285598755,-5.464988712464468
1708435978.0213108,-2.1191623210906982,-1.3357723963311692,-2.5323029200183313,6.083273637085714,1.0241646766662598,-5.464948479329244
1708435978.0233517,-2.118338108062744,-1.3359041523984452,-2.5325191656695765,6.082426059037008,1.024396300315857,-5.464993123208181
1708435978.0252986,-2.11757755279541,-1.3360683035901566,-2.5327377955066126,6.081455814629354,1.0247435569763184,-5.4649397174464625
1708435978.0273383,-2.116678237915039,-1.3362169575742264,-2.533015314732687,6.080540048867025,1.0250513553619385,-5.4649397174464625
1708435978.0293174,-2.115828275680542,-1.3363442730954667,-2.5332627932177942,6.079553234368124,1.0253596305847168,-5.464948479329244
1708435978.0313077,-2.1149520874023438,-1.3364759099534531,-2.5335145632373255,6.078532087593832,1.025613784790039,-5.464879755173818
1708435978.033314,-2.114056348800659,-1.3365987998298188,-2.533787552510397,6.077563750534811,1.0260180234909058,-5.46497089067568
1708435978.035364,-2.113121509552002,-1.3367711317590256,-2.534039560948507,6.076556432038107,1.026309847831726,-5.464886073266165
1708435978.0373604,-2.1121504306793213,-1.3368898940137406,-2.5342987219439905,6.075481641083517,1.0266101360321045,-5.464879755173818
1708435978.0392935,-2.111215829849243,-1.3370376986316224,-2.53457481065859,6.074333655625143,1.0269496440887451,-5.464905087147848
1708435978.0413022,-2.1102404594421387,-1.3372007769397278,-2.5348506609546106,6.073228108673849,1.027344822883606,-5.46487266222109
1708435978.043342,-2.1092164516448975,-1.3373770725778122,-2.5351222197162073,6.072103726654806,1.0276936292648315,-5.464856032525198
1708435978.0453165,-2.1082112789154053,-1.3374942702106019,-2.535442892705099,6.071017014771261,1.0280243158340454,-5.464890424405233
1708435978.047321,-2.1071927547454834,-1.337675080900528,-2.535750691090719,6.069874274521627,1.0284479856491089,-5.464856032525198
1708435978.0493135,-2.10616397857666,-1.3378592890552063,-2.5360549131976526,6.068582880287924,1.0287907123565674,-5.464841071759359
1708435978.0513117,-2.105041980743408,-1.3380790811828156,-2.5363834539996546,6.067366349488058,1.0292047262191772,-5.464836661015646
1708435978.053314,-2.1039352416992188,-1.3382014495185395,-2.53669244447817,6.06608675697402,1.0295732021331787,-5.464836601411001
1708435978.0552912,-2.1028411388397217,-1.3384511929801484,-2.537011686955587,6.064895617752828,1.0299899578094482,-5.46483809152712
1708435978.0573182,-2.1016669273376465,-1.338585616355278,-2.5373433271991175,6.063623058586874,1.0304350852966309,-5.464861814175741
1708435978.0593224,-2.1005585193634033,-1.338821680550911,-2.5376582781421106,6.0623241541679285,1.0308514833450317,-5.464849893246786
1708435978.0612848,-2.0994083881378174,-1.3389549267343064,-2.5380120913134974,6.060975301056661,1.03130042552948,-5.464821402226583
1708435978.06333,-2.0982649326324463,-1.339167134170868,-2.5383718649493616,6.0596622107322595,1.0317296981811523,-5.464812461529867
1708435978.0652893,-2.097001075744629,-1.3393910986236115,-2.5387137571917933,6.058275449066915,1.0322270393371582,-5.464824680482046
1708435978.0673177,-2.095787286758423,-1.3395317655852814,-2.5391200224505823,6.0569339869316,1.0326635837554932,-5.46483809152712
1708435978.069331,-2.094500780105591,-1.3397485178760071,-2.5394893328296106,6.05549036243514,1.033142328262329,-5.46483809152712
1708435978.0713105,-2.093273401260376,-1.339952827697136,-2.539839569722311,6.054028498917379,1.0336064100265503,-5.4647796789752405
1708435978.0733156,-2.092021942138672,-1.3401668530753632,-2.5402775446521204,6.052537309914388,1.0340837240219116,-5.464841071759359
1708435978.0752897,-2.090679883956909,-1.340402991776802,-2.540640894566671,6.0510326502616785,1.0345969200134277,-5.4648335615741175
1708435978.0773096,-2.089357614517212,-1.3405707192472,-2.5410032908069056,6.04949318149642,1.0351015329360962,-5.4648335615741175
1708435978.0793006,-2.087946891784668,-1.340822772388794,-2.5414117018329065,6.0479400036628626,1.035590648651123,-5.46481687227358
1708435978.081292,-2.0866098403930664,-1.340972588663437,-2.541800085698263,6.046434747963705,1.0361279249191284,-5.464791719113485
1708435978.0833156,-2.0851969718933105,-1.3412312430194397,-2.542231623326437,6.044845449715414,1.0366491079330444,-5.464830283318655
1708435978.0853066,-2.083843231201172,-1.3414583069137116,-2.54264742532839,6.043240773468771,1.0372227430343628,-5.464824680482046
1708435978.0873392,-2.08235239982605,-1.3417304468205948,-2.5431211630450647,6.041589128762045,1.0377590656280518,-5.464858893548147
1708435978.0893114,-2.080892324447632,-1.3419291389039536,-2.543506447468893,6.039988863259115,1.038354754447937,-5.4648335615741175
1708435978.0912929,-2.0794975757598877,-1.342266858821251,-2.5439639727221888,6.038367974549093,1.0388585329055786,-5.464841071759359
1708435978.0933576,-2.0779430866241455,-1.3424386543086548,-2.5444496313678187,6.0367634175117395,1.0394774675369263,-5.464829150830404
1708435978.095341,-2.07647705078125,-1.3427641105702897,-2.544856135045187,6.03509675243453,1.0400077104568481,-5.4648335615741175
1708435978.0972974,-2.0749566555023193,-1.3430529844811936,-2.5453477541552942,6.033394086151876,1.0405939817428589,-5.464820210133688
1708435978.099305,-2.073408603668213,-1.3432698857835312,-2.5458207766162317,6.031677949219503,1.0411747694015503,-5.46481687227358
1708435978.101293,-2.0717992782592773,-1.3436312985471268,-2.546291176472799,6.029979812889852,1.0418295860290527,-5.464824680482046
1708435978.1033044,-2.0702507495880127,-1.3437988472035904,-2.5468011538134974,6.02817069271163,1.042433261871338,-5.46488601366152
1708435978.1053224,-2.0686094760894775,-1.3441352558187027,-2.54729134241213,6.0264251110847376,1.0430997610092163,-5.464906517659323
1708435978.1073065,-2.0670218467712402,-1.3444356185248871,-2.547823492680685,6.024589049607076,1.0437172651290894,-5.464890424405233
1708435978.109325,-2.0653159618377686,-1.3447463375381012,-2.5483365694629114,6.022776353150167,1.0443590879440308,-5.464893166218893
1708435978.111285,-2.0636768341064453,-1.3449262541583558,-2.5488439241992396,6.020903694420614,1.0450078248977661,-5.464905087147848
1708435978.113295,-2.0619759559631348,-1.3452756267837067,-2.54946738878359,6.01890658119277,1.0456737279891968,-5.464953009282247
1708435978.115277,-2.0602853298187256,-1.3455786866000672,-2.549936119710104,6.0170514462287805,1.0463346242904663,-5.46500397125353
1708435978.1172729,-2.0585896968841553,-1.3458688271096726,-2.550492588673727,6.0151394484336755,1.0469918251037598,-5.465030614529745
1708435978.1193101,-2.056830406188965,-1.3461960715106507,-2.551011625920431,6.013154256134786,1.0476171970367432,-5.465005163346426
1708435978.1213276,-2.0550754070281982,-1.3465115290931244,-2.5515406767474573,6.011233794480123,1.048302412033081,-5.465020302926199
1708435978.1233423,-2.0532782077789307,-1.3467897486737748,-2.552095953618185,6.0092670796211145,1.0489753484725952,-5.465074185525076
1708435978.1253066,-2.0515146255493164,-1.3471662116101761,-2.5526581446277063,6.007280933647909,1.0497511625289917,-5.4651634136783045
1708435978.1272922,-2.049659490585327,-1.347484902744629,-2.5532806555377405,6.005149948387899,1.0504916906356812,-5.465071026478903
1708435978.129321,-2.047849416732788,-1.3477566850236435,-2.553875748311178,6.003239500313558,1.0512582063674927,-5.465095047150747
1708435978.1313121,-2.045958995819092,-1.3480720084956666,-2.554479424153463,6.001112329750814,1.0520069599151611,-5.465172771607534
1708435978.133308,-2.0441226959228516,-1.3484931153110047,-2.5550671259509485,5.999068605690756,1.0528062582015991,-5.465196673070089
1708435978.13529,-2.04225492477417,-1.348805622463562,-2.555674139653341,5.996982919960775,1.0535547733306885,-5.465278867875234
1708435978.1372895,-2.0403239727020264,-1.3492061656764527,-2.5562947432147425,5.9948617098625085,1.054364800453186,-5.46529329219927
1708435978.1392956,-2.038430690765381,-1.3495814514211197,-2.5569189230548304,5.992712962418356,1.0552160739898682,-5.4653417507754725
1708435978.1413114,-2.036468505859375,-1.3498905313066025,-2.5575624147998255,5.990523087769308,1.056040644645691,-5.465392295514242
1708435978.143321,-2.034435987472534,-1.3503196847489853,-2.5582149664508265,5.9883532402809045,1.0568335056304932,-5.465449039136068
1708435978.1452792,-2.032501459121704,-1.3506773126176377,-2.5588412920581263,5.986069905548849,1.0576831102371216,-5.465459529553549
1708435978.1473055,-2.0304925441741943,-1.3510731023601075,-2.5595017115222376,5.983823287277975,1.0585352182388306,-5.465544406567709
1708435978.1493297,-2.0284206867218018,-1.3515257996371766,-2.56010872522463,5.981600272446432,1.059330940246582,-5.46558648744692
1708435978.151284,-2.0264062881469727,-1.3518324953368683,-2.560801092778341,5.979369270592489,1.0602622032165527,-5.465606216584341
1708435978.1532822,-2.0243520736694336,-1.3522972476533432,-2.561476771031515,5.977114069252767,1.061123251914978,-5.465698603783743
1708435978.1553054,-2.0222463607788086,-1.3527158212712784,-2.5622084776507776,5.974824893265524,1.0619776248931885,-5.4658236543284815
1708435978.1573083,-2.0201148986816406,-1.3530805718949814,-2.562866512929098,5.972516524582662,1.062888264656067,-5.465899888669149
1708435978.1593332,-2.0180304050445557,-1.3534900111011048,-2.563580338154928,5.970196234970846,1.0637788772583008,-5.465962592755453
1708435978.1612835,-2.0157604217529297,-1.3540485215238114,-2.564312521611349,5.967869627266683,1.0646414756774902,-5.4660550395595
1708435978.1633165,-2.013704776763916,-1.354481728082039,-2.5650535265551966,5.965556967049398,1.0655958652496338,-5.466131333504812
1708435978.1653113,-2.0114800930023193,-1.3549412500909348,-2.565802876149313,5.963286149292745,1.0665348768234253,-5.466209594403402
1708435978.1673224,-2.0092368125915527,-1.3552999061397095,-2.566497866307394,5.960905539780416,1.0674901008605957,-5.466318492089407
1708435978.1693344,-2.0070369243621826,-1.3558332485011597,-2.567260805760519,5.958383071213522,1.0683951377868652,-5.4663963357554834
1708435978.1712976,-2.0047383308410645,-1.3562950652888794,-2.5680256525622767,5.955912101059713,1.0693811178207397,-5.466460649167196
1708435978.17332,-2.0025088787078857,-1.3566637945226212,-2.5687125364886683,5.953503119736471,1.0703167915344238,-5.4666174689876
1708435978.1753256,-2.0003507137298584,-1.3571639072946091,-2.5694432894336146,5.951078164368429,1.0712908506393433,-5.46668661037554
1708435978.1772964,-1.9981660842895508,-1.357687534098961,-2.5701409021960657,5.948811161309042,1.0722250938415527,-5.466823224221365
1708435978.1792872,-1.9960068464279175,-1.3580677819303055,-2.570944611226217,5.946468221932211,1.073171854019165,-5.466935400162832
1708435978.1812806,-1.9938647747039795,-1.358543114071228,-2.571655337010519,5.944105493813314,1.0740710496902466,-5.467047218476431
1708435978.183287,-1.9916086196899414,-1.358972118501999,-2.572423283253805,5.941732156067648,1.075006365776062,-5.467215899621145
1708435978.185327,-1.9894089698791504,-1.3594708901694794,-2.573175017033712,5.939220177918234,1.0759923458099365,-5.467293981705801
1708435978.187319,-1.9871734380722046,-1.359973670249321,-2.573939625416891,5.936908948212423,1.0770130157470703,-5.467389647160665
1708435978.189309,-1.9849716424942017,-1.3604366493276139,-2.574655357991354,5.9345000860984705,1.0780023336410522,-5.467516903077261
1708435978.1913009,-1.9827488660812378,-1.3608942043832322,-2.57546574274172,5.932213532715597,1.0789380073547363,-5.467620019112722
1708435978.1933389,-1.980587124824524,-1.3613777470639725,-2.5760844389544886,5.929802405625143,1.079904556274414,-5.467719916497366
1708435978.1953251,-1.9783987998962402,-1.3618147832206269,-2.5768044630633753,5.927420961647787,1.0807708501815796,-5.4678309003459376
1708435978.1973107,-1.9762098789215088,-1.3622696262649079,-2.5775495211230677,5.92496536949233,1.0816681385040283,-5.467950288449423
1708435978.1992912,-1.973955750465393,-1.362719641332962,-2.5783446470843714,5.922538745194235,1.082707166671753,-5.468057874833242
1708435978.2013085,-1.971824288368225,-1.3632261616042634,-2.579050366078512,5.920227873116293,1.0836950540542603,-5.468211416398184
1708435978.2033238,-1.9696470499038696,-1.3636969190886994,-2.5798593203174036,5.917776930123129,1.0846219062805176,-5.4683576861964625
1708435978.2052915,-1.9674640893936157,-1.36411868155513,-2.580569330845968,5.915479886322775,1.0856215953826904,-5.46843403974642
1708435978.207318,-1.9653174877166748,-1.364662529235222,-2.581332270299093,5.913053977280416,1.0865049362182617,-5.468511943017141
1708435978.20929,-1.9631264209747314,-1.3650783163360138,-2.582047764454977,5.910657274513998,1.0874799489974976,-5.468689803277151
1708435978.2113113,-1.9609241485595703,-1.3656024795821686,-2.5828068892108362,5.9082761881645105,1.0883053541183472,-5.468813244496481
1708435978.2133374,-1.9587516784667969,-1.3660122019103547,-2.583583656941549,5.905913579254904,1.089235544204712,-5.468888525162832
1708435978.2153227,-1.9565914869308472,-1.3665231627276917,-2.5843663851367396,5.903569447785177,1.0901401042938232,-5.469036106263296
1708435978.2173133,-1.9543579816818237,-1.366994099026062,-2.585076872502462,5.9012807486350916,1.0911387205123901,-5.469090286885397
1708435978.2192924,-1.9521342515945435,-1.3674232822707673,-2.5858402887927454,5.898921000748434,1.0920816659927368,-5.4692187944995325
1708435978.2213078,-1.9498929977416992,-1.3678525549224396,-2.5865848700152796,5.896574723511495,1.0929689407348633,-5.469346229230062
1708435978.2233183,-1.9476624727249146,-1.3683648866466065,-2.5873404184924524,5.894169080048361,1.0939383506774902,-5.469425384198324
1708435978.2252839,-1.9455022811889648,-1.3688093286803742,-2.5880842844592493,5.891797053604879,1.094810128211975,-5.4696242848979395
1708435978.2272942,-1.9432072639465332,-1.3692689102939148,-2.588822905217306,5.88941119888381,1.095808744430542,-5.469709221516744
1708435978.229284,-1.9410210847854614,-1.3697219502976914,-2.5895734469043177,5.887096273690023,1.0968354940414429,-5.469809655343191
1708435978.2313337,-1.9388575553894043,-1.3701451432755967,-2.590353790913717,5.884779321938314,1.0977519750595093,-5.469921652470724
1708435978.233283,-1.9366474151611328,-1.370582954292633,-2.5910876433001917,5.882340776711263,1.0986758470535278,-5.470048550759451
1708435978.2352889,-1.9344632625579834,-1.3710705649903794,-2.5918100515948694,5.879978883057394,1.0995792150497437,-5.470175687466757
1708435978.2373152,-1.932302474975586,-1.3715337377837677,-2.592580858861105,5.877578842430868,1.1005326509475708,-5.470263783131735
1708435978.2392917,-1.93008291721344,-1.3719596427730103,-2.5933831373797815,5.875241863518514,1.1014857292175293,-5.470407549534933
1708435978.2413256,-1.9278537034988403,-1.3723721665195008,-2.594107214604513,5.8728768704231165,1.1024465560913086,-5.470535878335134
1708435978.2433286,-1.9256703853607178,-1.3728265923312684,-2.5948429743396204,5.870517360955038,1.1034168004989624,-5.470613364373342
1708435978.24528,-1.9234906435012817,-1.3733497721007843,-2.595614735280172,5.86815499046401,1.1043730974197388,-5.4707704226123255
1708435978.2473187,-1.9213017225265503,-1.3737755578807374,-2.596311155949728,5.865670907288351,1.1053035259246826,-5.470782164727346
1708435978.2492943,-1.919081449508667,-1.3741935354522248,-2.597050491963522,5.8633694527442834,1.1062301397323608,-5.47097355524172
1708435978.2512925,-1.916839361190796,-1.3747323912433167,-2.5978339354144495,5.860904800682821,1.1071642637252808,-5.471064690743582
1708435978.2533584,-1.914614200592041,-1.3751670879176636,-2.59857684770693,5.858616101532736,1.1081202030181885,-5.471172217522756
1708435978.2552962,-1.9124116897583008,-1.3756295603564759,-2.599342409764425,5.856208193093099,1.109000563621521,-5.4712963739978235
1708435978.2573178,-1.9102047681808472,-1.376052902345993,-2.6000800768481653,5.8538551209266565,1.1100152730941772,-5.471406761799948
1708435978.259326,-1.9079936742782593,-1.3765395444682618,-2.6008430163012903,5.851506459503927,1.1108555793762207,-5.471436444913046
1708435978.2612946,-1.9058408737182617,-1.3770440530828019,-2.601614300404684,5.849115359574117,1.111737608909607,-5.471643094216482
1708435978.263311,-1.9036328792572021,-1.3774573516896744,-2.6022899786578577,5.846778380661764,1.1126646995544434,-5.471734229718344
1708435978.2653055,-1.9014861583709717,-1.3779631418040772,-2.6030388514148157,5.8444095728691,1.1135692596435547,-5.471849028264181
1708435978.2673192,-1.899214744567871,-1.3783884358457108,-2.6037607828723353,5.842078196793356,1.1144890785217285,-5.4719417730914515
1708435978.269315,-1.8970909118652344,-1.3788560640862961,-2.604546133671896,5.8397326348121545,1.115402102470398,-5.472038690243856
1708435978.27129,-1.8948876857757568,-1.3793363285115738,-2.6052828470813196,5.837378370552816,1.1164122819900513,-5.472185496483938
1708435978.2733293,-1.8926345109939575,-1.379798637037613,-2.606035057698385,5.835001933365621,1.1174473762512207,-5.472253982220785
1708435978.275288,-1.8904122114181519,-1.3803200733712693,-2.6067541281329554,5.8325596926505945,1.1183849573135376,-5.47239184776415
1708435978.2773247,-1.8881984949111938,-1.380704165702202,-2.6074684301959437,5.830172765045919,1.119386076927185,-5.472539488469259
1708435978.2793257,-1.8859530687332153,-1.3812051278403779,-2.608199421559469,5.827787387162008,1.1203560829162598,-5.472567621861593
1708435978.2812936,-1.8837419748306274,-1.3816186648658295,-2.6088808218585413,5.825433718949117,1.121325135231018,-5.472712699566976
1708435978.2833016,-1.8815821409225464,-1.382098065023758,-2.6096983591662806,5.823097932129659,1.1223303079605103,-5.472886149083273
1708435978.285303,-1.879418134689331,-1.3825787168792267,-2.610415760670797,5.820734369545736,1.1232575178146362,-5.472977284585134
1708435978.2873616,-1.8772152662277222,-1.3830982756665726,-2.6111682097064417,5.818352329521932,1.1242631673812866,-5.4730523268329065
1708435978.2893488,-1.8750133514404297,-1.383572907452919,-2.611959997807638,5.815942394524374,1.1251822710037231,-5.473183516656057
1708435978.2912993,-1.8728426694869995,-1.3840396863273163,-2.6126442591296595,5.813598859101095,1.1261430978775024,-5.473315242921011
1708435978.2933316,-1.8706876039505005,-1.384472669368126,-2.6133247057544153,5.811239707260885,1.1271003484725952,-5.473401848469869
1708435978.2953138,-1.8684988021850586,-1.3849939119866868,-2.6141136328326624,5.808844554215231,1.1280338764190674,-5.4735093156443995
1708435978.2973044,-1.866260051727295,-1.385453925733902,-2.614903275166647,5.806511509209432,1.1289478540420532,-5.47365123430361
1708435978.299285,-1.8640655279159546,-1.3859525334886094,-2.6156113783465784,5.804100978165426,1.129847526550293,-5.473790232335226
1708435978.3013651,-1.8618769645690918,-1.3864032191089173,-2.616349999104635,5.801747309952535,1.1308867931365967,-5.4739307204829615
1708435978.3032868,-1.8596220016479492,-1.3868329536965867,-2.617096487675802,5.7993003008659265,1.1317633390426636,-5.473980192338125
1708435978.305325,-1.8573989868164062,-1.3873059016517182,-2.6179028193103235,5.7968340990837,1.1327649354934692,-5.474080268536703
1708435978.3073153,-1.8552130460739136,-1.3878293496421357,-2.6185990015613,5.7945711491401575,1.1337110996246338,-5.474228147660391
1708435978.3093095,-1.853082299232483,-1.388259307747223,-2.619359318410055,5.792173850327291,1.1346564292907715,-5.47431463399996
1708435978.3113134,-1.8508714437484741,-1.388705463414528,-2.6200743357287806,5.789881813317098,1.1356223821640015,-5.474431101475851
1708435978.3133402,-1.8486260175704956,-1.3891650152257462,-2.620837990437643,5.787477719574728,1.136570930480957,-5.474559787903921
1708435978.315316,-1.846444845199585,-1.3896202457002182,-2.6216371695147913,5.785158860474386,1.1375393867492676,-5.474642042313711
1708435978.3173594,-1.8442959785461426,-1.3901292991689225,-2.622445885335104,5.782715546875753,1.1385257244110107,-5.474782351647512
1708435978.3193023,-1.8420480489730835,-1.3905739051154633,-2.623143021260397,5.780376899033346,1.1393847465515137,-5.474868897591726
1708435978.321299,-1.8398631811141968,-1.3910337400487442,-2.623871628438131,5.778080093651571,1.1403381824493408,-5.475021485482351
1708435978.3233087,-1.8377240896224976,-1.3914890003255387,-2.6246476809131067,5.775792705803671,1.1412091255187988,-5.475091640149252
1708435978.3252819,-1.835464358329773,-1.391998068695404,-2.6254234949695032,5.773382413178243,1.14215087890625,-5.475241307412283
1708435978.3273385,-1.833304762840271,-1.3923951846412201,-2.626199547444479,5.770996916085043,1.1431175470352173,-5.475321833287374
1708435978.3292925,-1.8310612440109253,-1.3928873401931305,-2.626925770436422,5.768541443138876,1.1440757513046265,-5.475496832524435
1708435978.3313093,-1.8288439512252808,-1.3933126342347641,-2.6276481787311,5.766127574234762,1.144986629486084,-5.4755457679377955
1708435978.3333406,-1.8266706466674805,-1.3938424748233338,-2.6283772627459925,5.763788687973776,1.1459527015686035,-5.475707296525137
1708435978.3353074,-1.8244404792785645,-1.3942517650178452,-2.629115406666891,5.761447775154867,1.1468896865844727,-5.475753788148062
1708435978.3373358,-1.8222750425338745,-1.3947601032308121,-2.6299617926227015,5.759094345360555,1.1478101015090942,-5.475864175950186
1708435978.3393176,-1.8200783729553223,-1.3951626879027863,-2.6306868235217493,5.756740200310507,1.1487618684768677,-5.476018015538351
1708435978.341329,-1.817902684211731,-1.3956588071635743,-2.6314595381366175,5.754346716194906,1.1497658491134644,-5.476164821778433
1708435978.3433208,-1.8156893253326416,-1.3961023551276703,-2.632176939641134,5.751939880638876,1.1506688594818115,-5.476215366517202
1708435978.345311,-1.813485860824585,-1.3965634268573304,-2.632927719746725,5.749557959824362,1.151615023612976,-5.476339522992269
1708435978.3473194,-1.811313509941101,-1.3969729405692597,-2.6337152163134974,5.74723635891036,1.1525356769561768,-5.476539854203359
