Eg3-git/Classifiers/Data Collection/u3/u3www3_ur3e_joint_states.csv
time,elbow_joint,shoulder_lift_joint,shoulder_pan_joint,wrist_1_joint,wrist_2_joint,wrist_3_joint
1708435964.4272301,-2.1422386169433594,-1.3333933514407654,-2.5262473265277308,6.110988962441244,1.016877293586731,-5.466287736092703
1708435964.4292512,-2.142254590988159,-1.3333559793284913,-2.526193920766012,6.110977041512289,1.0168534517288208,-5.4662596623050135
1708435964.4312031,-2.1422226428985596,-1.3333593171885987,-2.5261698404895228,6.110988962441244,1.016828179359436,-5.466280047093527
1708435964.433207,-2.1422791481018066,-1.3333647710135956,-2.5262354055987757,6.1109845516975305,1.016828179359436,-5.466280047093527
1708435964.4351945,-2.1422622203826904,-1.333372638826706,-2.5262518564807337,6.1109962342079065,1.0168237686157227,-5.4662474433528345
1708435964.4372163,-2.142195701599121,-1.3333858710578461,-2.526177469884054,6.110977041512289,1.016832709312439,-5.4662312904941
1708435964.4392092,-2.14225435256958,-1.3333681237748642,-2.526198212300436,6.11096070983962,1.0168653726577759,-5.4662638942347925
1708435964.4412127,-2.142200231552124,-1.3333889108947297,-2.5262561480151575,6.110941278725424,1.016811490058899,-5.466223661099569
1708435964.4432034,-2.142204761505127,-1.3333484840444108,-2.5262680689441126,6.111038076668539,1.0168907642364502,-5.466284279023306
1708435964.4452093,-2.14220929145813,-1.3332903248122712,-2.5262635389911097,6.111045229225912,1.0168371200561523,-5.46621144214739
1708435964.447213,-2.1422250270843506,-1.3333559793284913,-2.526226584111349,6.111009466439047,1.0168401002883911,-5.466244045888082
1708435964.4492142,-2.142254590988159,-1.3333814454129715,-2.5262396971331995,6.1109962342079065,1.016844630241394,-5.466223661099569
1708435964.4511888,-2.1422295570373535,-1.3333559793284913,-2.526231114064352,6.110968220024862,1.0168534517288208,-5.466215137635366
1708435964.4532275,-2.142249822616577,-1.3333351773074646,-2.5262396971331995,6.110959279328146,1.0168159008026123,-5.466252569352285
1708435964.455197,-2.142195701599121,-1.3333559793284913,-2.5262354055987757,6.1109564183051965,1.016898512840271,-5.466239813958303
1708435964.457216,-2.1422135829925537,-1.3333736670068284,-2.526214663182394,6.110988962441244,1.0168371200561523,-5.466232124959127
1708435964.459214,-2.1422207355499268,-1.3333726239255448,-2.5262396971331995,6.111026274948873,1.0168416500091553,-5.466202918683187
1708435964.4611845,-2.1422667503356934,-1.3333559793284913,-2.5262473265277308,6.1109564183051965,1.016832709312439,-5.466232124959127
1708435964.4631827,-2.142204761505127,-1.3333484691432496,-2.5262680689441126,6.111070859223165,1.016832709312439,-5.4662028590785425
1708435964.4651837,-2.142195701599121,-1.3333396476558228,-2.5262396971331995,6.110975968628683,1.016828179359436,-5.466146830712454
1708435964.4672115,-2.1421797275543213,-1.3333814603141327,-2.5262396971331995,6.111017334252157,1.016844630241394,-5.466232124959127
1708435964.469179,-2.1422994136810303,-1.3333933812430878,-2.5262070337878626,6.110954868584432,1.0168159008026123,-5.466224137936727
1708435964.4711719,-2.1422135829925537,-1.333321825867035,-2.526264731084005,6.111008393555441,1.0168416500091553,-5.466219965611593
1708435964.4732172,-2.1421823501586914,-1.3333770495704194,-2.5262070337878626,6.1109845516975305,1.0168653726577759,-5.4662320653544825
1708435964.4752152,-2.1422135829925537,-1.333372638826706,-2.5262156168567103,6.111026274948873,1.016877293586731,-5.466223661099569
1708435964.4772224,-2.1422135829925537,-1.3333858114532013,-2.526219193135397,6.110980140953817,1.0168817043304443,-5.466232124959127
1708435964.4791844,-2.142204761505127,-1.3334008020213624,-2.526280943547384,6.111026274948873,1.016877293586731,-5.466240588818685
1708435964.4811857,-2.1422667503356934,-1.333372638826706,-2.5262070337878626,6.110942828446188,1.016844630241394,-5.466240588818685
1708435964.4831882,-2.1422295570373535,-1.333364800815918,-2.5261948744403284,6.111036646157064,1.0168609619140625,-5.466219965611593
1708435964.4852505,-2.1422579288482666,-1.3333770495704194,-2.5262234846698206,6.111008393555441,1.0168490409851074,-5.466216746960775
1708435964.4871874,-2.1422410011291504,-1.3333977919868012,-2.5261903444873255,6.111038076668539,1.0168728828430176,-5.466236476098196
1708435964.4891977,-2.1422340869903564,-1.3333351475051423,-2.5261948744403284,6.111012923508444,1.0168654918670654,-5.466212455426351
1708435964.4911964,-2.1422410011291504,-1.333351494078972,-2.5262396971331995,6.110898005753317,1.0168401002883911,-5.466200594102041
1708435964.4932218,-2.14220929145813,-1.333393321638443,-2.5262439886676233,6.111075508385458,1.0168862342834473,-5.466192130242483
1708435964.4952145,-2.1422181129455566,-1.333299220805504,-2.52621037164797,6.111009466439047,1.0168581008911133,-5.466208283101217
1708435964.4971974,-2.142249822616577,-1.3333648157170792,-2.5262070337878626,6.111030804901876,1.0168025493621826,-5.466212515030996
1708435964.49919,-2.1422667503356934,-1.3333770495704194,-2.5262070337878626,6.110966670304098,1.016828179359436,-5.466184441243307
1708435964.5011811,-2.1422455310821533,-1.3333770048669358,-2.5261860529529017,6.1109845516975305,1.0168490409851074,-5.466240588818685
1708435964.5032165,-2.142249822616577,-1.333373711710312,-2.5262277762042444,6.111012923508444,1.0168534517288208,-5.466236893330709
1708435964.505218,-2.142249822616577,-1.3333514642766495,-2.5262070337878626,6.111003982811727,1.0168371200561523,-5.466196362172262
1708435964.50722,-2.1422622203826904,-1.3333770495704194,-2.5261991659747522,6.110959279328146,1.0168070793151855,-5.466159526501791
1708435964.5092058,-2.1422533988952637,-1.333364800815918,-2.526214663182394,6.111012923508444,1.0168699026107788,-5.466175977383749
1708435964.5112255,-2.1422340869903564,-1.3333593171885987,-2.5262234846698206,6.11100064495162,1.0168461799621582,-5.466204885636465
1708435964.5131981,-2.1422250270843506,-1.3333573055318375,-2.5261786619769495,6.111029374390402,1.0168626308441162,-5.4661553541766565
1708435964.5151873,-2.1422181129455566,-1.3333514791778107,-2.5262027422534388,6.110973822861471,1.0168625116348267,-5.466192130242483
1708435964.517213,-2.1422181129455566,-1.3333559793284913,-2.5262439886676233,6.110987174301901,1.0168653726577759,-5.466184441243307
1708435964.519208,-2.1422667503356934,-1.3333484691432496,-2.526280943547384,6.110995042115011,1.0168462991714478,-5.4661880175219935
1708435964.5212147,-2.1422622203826904,-1.3334097129157563,-2.5262234846698206,6.1109667895133875,1.0168217420578003,-5.46616375843157
1708435964.523223,-2.142204761505127,-1.3333514791778107,-2.5262070337878626,6.111015903740682,1.0168037414550781,-5.466180209313528
1708435964.525198,-2.1422667503356934,-1.3333069843104859,-2.5262323061572474,6.111041056900778,1.0167964696884155,-5.466216746960775
1708435964.527262,-2.1422295570373535,-1.3333025586656113,-2.5262485186206263,6.1110501168067834,1.0168249607086182,-5.466236893330709
1708435964.529209,-2.1422410011291504,-1.3333277267268677,-2.5262442270862024,6.1109503386314294,1.016808271408081,-5.466216746960775
1708435964.5312166,-2.1422622203826904,-1.333372638826706,-2.5261829535113733,6.1110607264335535,1.016828179359436,-5.466180209313528
1708435964.5332599,-2.1422791481018066,-1.3333514791778107,-2.5261829535113733,6.111057507782736,1.0167874097824097,-5.466163698826925
1708435964.5352154,-2.1422579288482666,-1.3333307367614289,-2.5261991659747522,6.111029255181112,1.0168371200561523,-5.466253403817312
1708435964.5371988,-2.1422119140625,-1.3333514791778107,-2.5262354055987757,6.111057507782736,1.0168670415878296,-5.466232124959127
1708435964.5392084,-2.1422364711761475,-1.3333440583995362,-2.5262323061572474,6.11108552196578,1.016791820526123,-5.466184441243307
1708435964.5412126,-2.1422207355499268,-1.3333977919868012,-2.5261786619769495,6.111102568894186,1.0168037414550781,-5.466200594102041
1708435964.543195,-2.1422858238220215,-1.3332947355559845,-2.5262234846698206,6.1110350964363,1.016791820526123,-5.466151837502615
1708435964.5451853,-2.14227032661438,-1.3333351475051423,-2.5261991659747522,6.111068236618795,1.016808271408081,-5.466219965611593
1708435964.5472097,-2.1422834396362305,-1.3333233159831543,-2.526219908391134,6.1110890982444666,1.0167677402496338,-5.46618372598757
1708435964.5491889,-2.1422533988952637,-1.3333396476558228,-2.526195828114645,6.111084568291464,1.0168339014053345,-5.466228310261862
1708435964.5511823,-2.1422410011291504,-1.3333603900722046,-2.526187245045797,6.111124861031332,1.0168054103851318,-5.466232542191641
1708435964.5532072,-2.142216205596924,-1.3333800596049805,-2.5261829535113733,6.111117708473959,1.0168054103851318,-5.466224078332083
1708435964.5551875,-2.142306327819824,-1.3333514791778107,-2.5261903444873255,6.111084568291464,1.0167964696884155,-5.466208283101217
1708435964.557194,-2.1422455310821533,-1.3333681386760254,-2.526196066533224,6.111144172936239,1.0167514085769653,-5.466192130242483
1708435964.5591938,-2.1422533988952637,-1.333363727932312,-2.5261829535113733,6.111228215485372,1.0167396068572998,-5.466212515030996
1708435964.561192,-2.142244815826416,-1.3333277267268677,-2.5261665026294153,6.111138450890341,1.0167396068572998,-5.466167990361349
1708435964.5632331,-2.1422410011291504,-1.3333188158324738,-2.526179615651266,6.111204373627462,1.016781210899353,-5.466159168873922
1708435964.5652149,-2.1422321796417236,-1.3333188158324738,-2.526191536580221,6.1111429808433435,1.0168020725250244,-5.466199819241659
1708435964.5672135,-2.1422488689422607,-1.3334008020213624,-2.5262077490436,6.111187922745504,1.0167485475540161,-5.466192130242483
1708435964.569217,-2.1422455310821533,-1.3333681386760254,-2.5261383692370813,6.111222255020895,1.0167529582977295,-5.4661880175219935
1708435964.5712442,-2.142274856567383,-1.3333440583995362,-2.526203695927755,6.111207353859701,1.0167195796966553,-5.466212515030996
1708435964.573233,-2.1422488689422607,-1.3333365482142945,-2.526163403187887,6.111240136414327,1.0166914463043213,-5.466232124959127
1708435964.5751863,-2.1422746181488037,-1.333384470348694,-2.526147190724508,6.111207353859701,1.0166958570480347,-5.466204170380728
1708435964.5771933,-2.1422207355499268,-1.3333603900722046,-2.526151482258932,6.111272918968954,1.0167495012283325,-5.466256682072775
1708435964.579198,-2.1422579288482666,-1.3333559793284913,-2.526093308125631,6.111265408783712,1.0167003870010376,-5.466252569352285
1708435964.5812044,-2.142306327819824,-1.3333514791778107,-2.526118342076437,6.111202823906698,1.016683578491211,-5.466272834931509
1708435964.5831912,-2.142265796661377,-1.3333396327546616,-2.526167694722311,6.111259448319235,1.0167301893234253,-5.466204170380728
1708435964.5852132,-2.142240285873413,-1.3333933365396042,-2.526102129613058,6.111243116646566,1.016709327697754,-5.466236416493551
1708435964.58721,-2.14227032661438,-1.3334263575128098,-2.526114050542013,6.111283528595724,1.016683578491211,-5.46618372598757
1708435964.5891984,-2.1422533988952637,-1.3334008020213624,-2.5261264483081263,6.11131631115035,1.0166836977005005,-5.466240588818685
1708435964.5912163,-2.142207384109497,-1.333352879886963,-2.5261569658862513,6.111288058548727,1.0166717767715454,-5.466232124959127
1708435964.5932372,-2.142265796661377,-1.3333514791778107,-2.5260990301715296,6.111288058548727,1.0166596174240112,-5.466268722211019
1708435964.5952115,-2.142265796661377,-1.3333158057979126,-2.5260782877551478,6.111299860268392,1.0166926383972168,-5.466204170380728
1708435964.597216,-2.1422932147979736,-1.3333351475051423,-2.526062075291769,6.111295449524679,1.0167138576507568,-5.466207210217611
1708435964.5992093,-2.1423356533050537,-1.3333514791778107,-2.526073996220724,6.111291038780966,1.0166594982147217,-5.466232124959127
1708435964.6012108,-2.1422572135925293,-1.3333559793284913,-2.52617317834963,6.11131631115035,1.016672968864441,-5.466219965611593
1708435964.6032188,-2.1422815322875977,-1.3333603900722046,-2.5261076132403772,6.111328232079305,1.0166640281677246,-5.466236416493551
1708435964.6052303,-2.142272710800171,-1.3333514791778107,-2.5261033217059534,6.111311781197347,1.0166852474212646,-5.466232124959127
1708435964.607217,-2.1422841548919678,-1.333372638826706,-2.5261369387256067,6.111293899803915,1.0166807174682617,-5.466227893029348
1708435964.6092074,-2.142268180847168,-1.333339662556984,-2.5261195341693323,6.1112849591071985,1.0166399478912354,-5.4662808815585535
1708435964.611235,-2.142329454421997,-1.3333814603141327,-2.526095692311422,6.111368405609884,1.0166566371917725,-5.466289285813467
1708435964.6132402,-2.142345428466797,-1.3333726537278672,-2.5261076132403772,6.111343133240499,1.0166685581207275,-5.466207210217611
1708435964.6152275,-2.142329454421997,-1.3333024990609665,-2.5261357466327112,6.111394154816427,1.016672968864441,-5.466260139142172
1708435964.6172314,-2.1423046588897705,-1.3333889704993744,-2.526095692311422,6.111326682358541,1.0166399478912354,-5.466239813958303
1708435964.6191962,-2.1423161029815674,-1.3333681237748642,-2.5260751883136194,6.1113717434699915,1.0166116952896118,-5.466239813958303
1708435964.6212044,-2.1423089504241943,-1.333372638826706,-2.5261195341693323,6.11141191700057,1.016623616218567,-5.466268722211019
1708435964.623219,-2.1423044204711914,-1.3333559942296525,-2.5261152426349085,6.111370193749227,1.0166162252426147,-5.466308895741598
1708435964.6252472,-2.14229679107666,-1.3333307367614289,-2.526144568120138,6.111435997277059,1.0166611671447754,-5.466268126164572
1708435964.6272407,-2.1423089504241943,-1.3333440583995362,-2.5260751883136194,6.111434566765585,1.016608476638794,-5.466284279023306
1708435964.6292112,-2.142336368560791,-1.333323360686638,-2.5260990301715296,6.111431467324056,1.0165785551071167,-5.466215137635366
1708435964.6312165,-2.1423027515411377,-1.3333381575397034,-2.526123825703756,6.111419665604391,1.0166252851486206,-5.466263953839437
1708435964.6332371,-2.1423161029815674,-1.333363727932312,-2.5260708967791956,6.111440527230062,1.0165512561798096,-5.466271523629324
1708435964.6352174,-2.1423161029815674,-1.3333770495704194,-2.5260663668261927,6.111488091736593,1.0166010856628418,-5.466287736092703
1708435964.6372123,-2.1423115730285645,-1.3333559793284913,-2.526132647191183,6.111453878670492,1.0165843963623047,-5.466291968022482
1708435964.639197,-2.1423656940460205,-1.333372638826706,-2.526088062916891,6.111432659416952,1.0165798664093018,-5.466275815163748
1708435964.6411853,-2.1423566341400146,-1.3333440583995362,-2.5261076132403772,6.111446130066671,1.0166295766830444,-5.466315809880392
1708435964.6432283,-2.1423699855804443,-1.3333396476558228,-2.5260990301715296,6.111503112107076,1.0165423154830933,-5.466336194668905
1708435964.6451998,-2.142357587814331,-1.333351508980133,-2.5260914007769983,6.111483800202169,1.0166128873825073,-5.466279331837789
1708435964.6472294,-2.1423656940460205,-1.3333114397576828,-2.526104513798849,6.111479151039877,1.0165512561798096,-5.466295425091879
1708435964.649207,-2.142385959625244,-1.3333514791778107,-2.5261076132403772,6.111462819367208,1.0165557861328125,-5.466307346020834
1708435964.6512156,-2.142390251159668,-1.3333396476558228,-2.526123825703756,6.1114985821540735,1.0165557861328125,-5.466323498879568
1708435964.6532118,-2.1423566341400146,-1.3333889704993744,-2.5260871092425745,6.111511933594503,1.0165634155273438,-5.466308061276571
1708435964.6551912,-2.142392873764038,-1.3333770346692582,-2.5260422865497034,6.1114985821540735,1.016588807106018,-5.466319266949789
1708435964.657223,-2.1423161029815674,-1.3333351624063035,-2.5260422865497034,6.111510741501608,1.016577124595642,-5.466360036526815
1708435964.659184,-2.1423275470733643,-1.3333351177028199,-2.526140038167135,6.11150752285079,1.0165557861328125,-5.466348055993215
1708435964.661179,-2.1423399448394775,-1.333351494078972,-2.526116434727804,6.1114776013191126,1.0165557861328125,-5.466311637555258
1708435964.6631906,-2.142397403717041,-1.333388940697052,-2.526083771382467,6.1115313647087,1.0165648460388184,-5.466331128274099
1708435964.6652417,-2.1423656940460205,-1.3333396029523392,-2.5261033217059534,6.1114412424858,1.0165603160858154,-5.466315809880392
1708435964.6672308,-2.1423611640930176,-1.3333514344743271,-2.5260663668261927,6.111489522248068,1.016597867012024,-5.466363732014791
1708435964.669205,-2.1423680782318115,-1.3333100539496918,-2.5260751883136194,6.111482250481405,1.0165859460830688,-5.466335479413168
1708435964.6712184,-2.1423635482788086,-1.333364800815918,-2.5260751883136194,6.111510741501608,1.016527533531189,-5.466372255478994
1708435964.6732452,-2.142413377761841,-1.333384470348694,-2.5260303656207483,6.111511933594503,1.0165393352508545,-5.466368023549215
1708435964.6751935,-2.1423611640930176,-1.3333593171885987,-2.52605110803713,6.111515271454611,1.0165349245071411,-5.466379884873525
1708435964.677222,-2.142401933670044,-1.333405302172043,-2.5261033217059534,6.111502992897787,1.0165647268295288,-5.466375652943746
1708435964.6791887,-2.14241099357605,-1.3333844554475327,-2.5260589758502405,6.11150752285079,1.0165483951568604,-5.4663875738727015
1708435964.681212,-2.1423792839050293,-1.3333933812430878,-2.5260794798480433,6.111506330757894,1.0165648460388184,-5.466343049203054
1708435964.6832035,-2.1423308849334717,-1.333326370721199,-2.5260914007769983,6.1114985821540735,1.0165603160858154,-5.466412130986349
1708435964.6852286,-2.1423726081848145,-1.3333770495704194,-2.5260706583606165,6.111518251686849,1.0165647268295288,-5.46636808315386
1708435964.6872025,-2.1423726081848145,-1.333344118004181,-2.526123825703756,6.111482369690695,1.0165528059005737,-5.466363016759054
1708435964.6891994,-2.1423795223236084,-1.3333548468402405,-2.5260794798480433,6.111489522248068,1.016543984413147,-5.466351095830099
1708435964.6912184,-2.142347574234009,-1.333335132603981,-2.5260706583606165,6.111503112107076,1.0165156126022339,-5.46633887687792
1708435964.693192,-2.142347574234009,-1.3333470982364197,-2.526099983845846,6.111510741501608,1.0165156126022339,-5.466379169617788
1708435964.695224,-2.142406463623047,-1.333380089407303,-2.526104513798849,6.111522662430563,1.0165573358535767,-5.46639603773226
1708435964.6971838,-2.1423795223236084,-1.333363727932312,-2.526083771382467,6.111527073174276,1.0165815353393555,-5.4664029518710535
1708435964.6992269,-2.142343282699585,-1.3333647710135956,-2.5260794798480433,6.111497270851888,1.0165157318115234,-5.466371421013967
1708435964.7011833,-2.1423680782318115,-1.333327741628029,-2.5260871092425745,6.1114985821540735,1.0165201425552368,-5.46638256708254
1708435964.7032235,-2.1423840522766113,-1.3333515238812943,-2.526055399571554,6.111456858902731,1.016523003578186,-5.466379169617788
1708435964.7052035,-2.14241099357605,-1.3333756637624283,-2.5260260740863245,6.111506330757894,1.0165483951568604,-5.466367189084188
1708435964.7072296,-2.1423263549804688,-1.3333559793284913,-2.5260632673846644,6.111576306610861,1.0165156126022339,-5.466419104729788
1708435964.7092354,-2.1423726081848145,-1.33335596442733,-2.526039187108175,6.111510741501608,1.0165573358535767,-5.466379825268881
1708435964.7111871,-2.1424179077148438,-1.3333736968091507,-2.5260422865497034,6.111548054009237,1.0165165662765503,-5.4663994948016565
1708435964.7132087,-2.142392873764038,-1.3334097129157563,-2.526050869618551,6.111510741501608,1.0165573358535767,-5.4663987199412745
1708435964.715228,-2.1423885822296143,-1.3333559793284913,-2.526132647191183,6.111539113312521,1.016532063484192,-5.4663994948016565
1708435964.7172053,-2.1424312591552734,-1.3333726537278672,-2.5260422865497034,6.111502992897787,1.0164986848831177,-5.466440204774038
1708435964.7191792,-2.1423840522766113,-1.3333396476558228,-2.526071850453512,6.111515271454611,1.0165156126022339,-5.466427568589346
1708435964.721182,-2.142392873764038,-1.333384470348694,-2.5260379950152796,6.111531722336569,1.0165573358535767,-5.466386858616964
1708435964.723218,-2.1423885822296143,-1.3333559942296525,-2.5260794798480433,6.111527073174276,1.0165364742279053,-5.4663994948016565
1708435964.7251894,-2.1423795223236084,-1.3333233159831543,-2.526095692311422,6.111538874893942,1.0165483951568604,-5.46638256708254
1708435964.7272015,-2.1424248218536377,-1.3333681237748642,-2.52608830133547,6.111527192383566,1.0165112018585205,-5.4663952628718775
1708435964.729239,-2.1424427032470703,-1.3334219616702576,-2.5260260740863245,6.111515271454611,1.0165573358535767,-5.466439429913656
1708435964.7311902,-2.1424179077148438,-1.333363727932312,-2.526111904774801,6.111522662430563,1.0165156126022339,-5.46635884443392
1708435964.7332048,-2.1424179077148438,-1.3333681386760254,-2.5260379950152796,6.111447918206014,1.0165573358535767,-5.466427508984701
1708435964.7352061,-2.1424179077148438,-1.3333396476558228,-2.526083771382467,6.111491071968832,1.0165319442749023,-5.466423336659567
1708435964.7372055,-2.1424505710601807,-1.333417461519577,-2.5260465780841272,6.111527073174276,1.016503095626831,-5.466455940400259
1708435964.7392077,-2.1423840522766113,-1.3333188158324738,-2.526123825703756,6.11150215843276,1.016503095626831,-5.466414813195364
1708435964.741198,-2.1423840522766113,-1.3333593022874375,-2.526132647191183,6.111523735314169,1.0165245532989502,-5.466483954583303
1708435964.7432165,-2.142401933670044,-1.3333307367614289,-2.52605110803713,6.1115431664283655,1.0165425539016724,-5.466455940400259
1708435964.7452195,-2.142392873764038,-1.3334219616702576,-2.526099983845846,6.111511456757345,1.0165499448776245,-5.466430966054098
1708435964.747211,-2.142392873764038,-1.3333978068879624,-2.526067558919088,6.111455547600546,1.0165603160858154,-5.4664029518710535
1708435964.7492125,-2.1424460411071777,-1.333372638826706,-2.5260923544513147,6.1114574549491785,1.0165408849716187,-5.466447416936056
1708435964.7511873,-2.14241099357605,-1.3333770793727417,-2.5260632673846644,6.111526953964987,1.016532063484192,-5.466488246117727
1708435964.7532084,-2.1423704624176025,-1.3333559793284913,-2.5260303656207483,6.111506211548605,1.0165544748306274,-5.466439489518301
1708435964.7552016,-2.14241099357605,-1.3333603900722046,-2.526100222264425,6.111482250481405,1.0165408849716187,-5.466426793728964
1708435964.7572367,-2.142392873764038,-1.333372638826706,-2.5260914007769983,6.11150752285079,1.0165292024612427,-5.466422561799185
1708435964.7592256,-2.142401933670044,-1.3333548468402405,-2.5260589758502405,6.111531603127279,1.0165408849716187,-5.466430966054098
1708435964.7612004,-2.142354726791382,-1.3333440583995362,-2.5260751883136194,6.111522662430563,1.0165410041809082,-5.466407183800833
1708435964.7632384,-2.1424596309661865,-1.3333559793284913,-2.526095692311422,6.111510741501608,1.0165201425552368,-5.466423336659567
1708435964.7651925,-2.1423635482788086,-1.3334219616702576,-2.5260794798480433,6.111489522248068,1.0165736675262451,-5.466407183800833
1708435964.7672167,-2.142338752746582,-1.333342657690384,-2.5260632673846644,6.111465799599447,1.0165245532989502,-5.466455880795614
1708435964.7691965,-2.1423635482788086,-1.3333440583995362,-2.526071850453512,6.111441719322958,1.0165245532989502,-5.466391090546743
1708435964.7711914,-2.14241099357605,-1.3333681386760254,-2.526095692311422,6.111490952759542,1.016491174697876,-5.466414813195364
1708435964.77322,-2.1424460411071777,-1.333405227666237,-2.5260632673846644,6.111489641457357,1.016503095626831,-5.466407183800833
1708435964.775192,-2.142338752746582,-1.3333559793284913,-2.5260465780841272,6.111474740296163,1.0165573358535767,-5.466422561799185
1708435964.7772188,-2.1423840522766113,-1.3333933663419266,-2.5260589758502405,6.1114327786262415,1.0165618658065796,-5.466447476540701
1708435964.779194,-2.1423885822296143,-1.3333770793727417,-2.52605110803713,6.111461388855734,1.0165364742279053,-5.466391030942098
1708435964.7811942,-2.1423795223236084,-1.3333844554475327,-2.526034657155172,6.111471640854635,1.016532063484192,-5.466426793728964
1708435964.7831993,-2.142413377761841,-1.3334008020213624,-2.526083771382467,6.1115208742912195,1.0165156126022339,-5.466447416936056
1708435964.7851758,-2.1423885822296143,-1.3333307367614289,-2.526083771382467,6.111495601921835,1.016503095626831,-5.466426674519674
1708435964.7872138,-2.1423885822296143,-1.3333603900722046,-2.5260303656207483,6.111441600113668,1.0165165662765503,-5.466430966054098
1708435964.7891953,-2.1424248218536377,-1.333363727932312,-2.526067558919088,6.111474740296163,1.016532063484192,-5.466467861329214
1708435964.7912471,-2.142397403717041,-1.3332980436137696,-2.52608830133547,6.111425626068868,1.0165408849716187,-5.466430966054098
1708435964.793236,-2.1424460411071777,-1.3333307814649125,-2.526104513798849,6.111453878670492,1.0165075063705444,-5.466386799012319
1708435964.7952025,-2.1423680782318115,-1.3333559793284913,-2.526083771382467,6.111427056580343,1.0165618658065796,-5.466443244610922
1708435964.7972178,-2.1423635482788086,-1.3333470684340973,-2.526128355656759,6.111401784210958,1.0165364742279053,-5.466476325188772
1708435964.7991974,-2.1423840522766113,-1.3333603900722046,-2.5261088053332728,6.111434566765585,1.0165783166885376,-5.466414813195364
1708435964.8012125,-2.1423749923706055,-1.3333351475051423,-2.526067558919088,6.111438977509298,1.0165364742279053,-5.4664106408702295
1708435964.8032033,-2.1424107551574707,-1.333384470348694,-2.5260587374316614,6.111398446350851,1.016486644744873,-5.466414813195364
1708435964.8051999,-2.1423840522766113,-1.333372638826706,-2.5260708967791956,6.111381995468893,1.0166066884994507,-5.466414813195364
1708435964.807215,-2.142392873764038,-1.333372638826706,-2.526067558919088,6.111365663796224,1.0165245532989502,-5.466414813195364
1708435964.8092055,-2.142397403717041,-1.3333396476558228,-2.526111904774801,6.111428606301107,1.016533613204956,-5.466430966054098
1708435964.8112092,-2.1423840522766113,-1.3333262962153931,-2.5261076132403772,6.111386644631185,1.0165245532989502,-5.466447416936056
1708435964.8132317,-2.1424338817596436,-1.3332848411849518,-2.526067558919088,6.111383545189657,1.0165618658065796,-5.466430966054098
1708435964.815196,-2.14241099357605,-1.3333559793284913,-2.5260990301715296,6.11137472370223,1.0165245532989502,-5.466407183800833
1708435964.817254,-2.142401933670044,-1.3333559793284913,-2.526083771382467,6.111337053566732,1.0165201425552368,-5.466430966054098
1708435964.819191,-2.14241099357605,-1.333372638826706,-2.5260632673846644,6.111363994866171,1.0165364742279053,-5.466443661843435
1708435964.8212035,-2.1423704624176025,-1.3333233159831543,-2.526083771382467,6.111376273422994,1.016532063484192,-5.466419104729788
1708435964.8232002,-2.1423592567443848,-1.333364800815918,-2.5260632673846644,6.111331212311544,1.0165408849716187,-5.466455940400259
1708435964.8251848,-2.1423635482788086,-1.3333470684340973,-2.5260751883136194,6.111385214119711,1.0165075063705444,-5.466447416936056
1708435964.8272047,-2.1424224376678467,-1.333372638826706,-2.5260217825519007,6.111349093704977,1.016523003578186,-5.466406468545095
1708435964.8292055,-2.1424381732940674,-1.333405317073204,-2.5260546843158167,6.111290919571676,1.0165483951568604,-5.46645170847048
1708435964.8312325,-2.1424198150634766,-1.3333889257958909,-2.526076141987936,6.111323821335592,1.0165528059005737,-5.466447476540701
1708435964.83327,-2.1423726081848145,-1.3333603900722046,-2.526116196309225,6.111291038780966,1.016543984413147,-5.466439489518301
1708435964.8352506,-2.142406463623047,-1.3333889257958909,-2.526067558919088,6.111283528595724,1.0165408849716187,-5.466423336659567
1708435964.837221,-2.1423795223236084,-1.3333889704993744,-2.526055399571554,6.111255037575521,1.0165528059005737,-5.466419164334432
1708435964.839199,-2.142381429672241,-1.3333603602698822,-2.5261240641223353,6.111266839295187,1.0165859460830688,-5.466399435197012
1708435964.841222,-2.1424179077148438,-1.3333933812430878,-2.5260632673846644,6.1112791178520105,1.0165364742279053,-5.466439489518301
1708435964.8432057,-2.142397403717041,-1.3333647859147568,-2.526071850453512,6.1112249968345544,1.016532063484192,-5.466414813195364
1708435964.8451993,-2.1423590183258057,-1.3333100092462082,-2.526120726262228,6.1112475273902795,1.0165156126022339,-5.466439489518301
1708435964.8472083,-2.1423635482788086,-1.333344043498375,-2.526071850453512,6.111266839295187,1.0165408849716187,-5.46646356979479
1708435964.8492305,-2.1424224376678467,-1.3333603751710434,-2.526116196309225,6.1112475273902795,1.016543984413147,-5.4664106408702295
1708435964.851195,-2.1424338817596436,-1.333351494078972,-2.5261088053332728,6.111217605858602,1.0165483951568604,-5.466423336659567
1708435964.8532073,-2.1423680782318115,-1.3333144050887604,-2.526095692311422,6.1111731407936,1.0165364742279053,-5.4664106408702295
1708435964.8552225,-2.1423726081848145,-1.3333889555982132,-2.526067558919088,6.111277329712667,1.0165692567825317,-5.466439489518301
1708435964.8572206,-2.142343282699585,-1.33335596442733,-2.526067558919088,6.111198413162985,1.016532063484192,-5.46639866033663
1708435964.8592021,-2.1423635482788086,-1.3333681386760254,-2.526111904774801,6.1112356064613245,1.0165066719055176,-5.4663952628718775
1708435964.8612146,-2.142392873764038,-1.3333726537278672,-2.5260914007769983,6.111220705300131,1.016543984413147,-5.466419819985525
1708435964.863219,-2.1424312591552734,-1.3333603751710434,-2.5260751883136194,6.111171233444967,1.016581416130066,-5.466391090546743
1708435964.865227,-2.14241099357605,-1.3333559942296525,-2.526116196309225,6.111195313721456,1.0165603160858154,-5.466423336659567
1708435964.8672059,-2.1423442363739014,-1.3333964061788102,-2.5260794798480433,6.111244547158041,1.0165647268295288,-5.466386858616964
1708435964.869269,-2.142392873764038,-1.333342657690384,-2.5260751883136194,6.1112133143241785,1.0164986848831177,-5.466419104729788
1708435964.8711894,-2.1423611640930176,-1.3333844256452103,-2.526067558919088,6.111135232239523,1.0165364742279053,-5.466407183800833
1708435964.8731997,-2.1423885822296143,-1.3333603751710434,-2.5260589758502405,6.111135232239523,1.0165647268295288,-5.466383341942922
1708435964.875241,-2.142347574234009,-1.333314375286438,-2.5261533896075647,6.11117576339797,1.0165573358535767,-5.466363016759054
1708435964.8772151,-2.1423635482788086,-1.3333726239255448,-2.5260546843158167,6.111180174141683,1.0165364742279053,-5.466435972844259
1708435964.8792012,-2.1423399448394775,-1.333393321638443,-2.526088062916891,6.11113070228652,1.016588807106018,-5.46637070575823
1708435964.8811963,-2.1423566341400146,-1.3333814603141327,-2.5261250177966517,6.11117576339797,1.016543984413147,-5.466391090546743
1708435964.8832173,-2.142401933670044,-1.3333514791778107,-2.5260544458972376,6.111102449684896,1.0165770053863525,-5.4663952628718775
1708435964.885211,-2.142381429672241,-1.3333978217891236,-2.526083771382467,6.111139762192526,1.0165557861328125,-5.466427568589346
1708435964.8872097,-2.142291307449341,-1.3333440583995362,-2.52605110803713,6.111065256386556,1.016527533531189,-5.466447953377859
1708435964.8892093,-2.1423611640930176,-1.333363802438118,-2.526055399571554,6.1111734984214685,1.016539454460144,-5.466452066098348
1708435964.891199,-2.1423566341400146,-1.333352879886963,-2.5260632673846644,6.111045944481649,1.0165201425552368,-5.466447893773214
1708435964.893226,-2.1424198150634766,-1.3333559495261689,-2.526100222264425,6.111087548523702,1.016597867012024,-5.466436032448904
1708435964.895202,-2.1423726081848145,-1.33335596442733,-2.5260751883136194,6.111165392189779,1.0165112018585205,-5.466407243405477
1708435964.8972712,-2.1423680782318115,-1.333387480383255,-2.526111904774801,6.111095416336813,1.0165692567825317,-5.46635872522463
1708435964.8992496,-2.142406463623047,-1.3333559793284913,-2.526116196309225,6.111095416336813,1.0165483951568604,-5.466391090546743
1708435964.901194,-2.1423885822296143,-1.333373711710312,-2.5260794798480433,6.111083137779989,1.0165647268295288,-5.466423336659567
1708435964.903253,-2.1423680782318115,-1.333364800815918,-2.526116434727804,6.111132252007284,1.0165647268295288,-5.466367189084188
1708435964.9052083,-2.1423444747924805,-1.3333934259465714,-2.5261033217059534,6.1111159203346155,1.0165512561798096,-5.466362957154409
1708435964.907219,-2.142392873764038,-1.333359346990921,-2.5261369387256067,6.11108015754775,1.0165647268295288,-5.4663918058024805
1708435964.9092324,-2.142352342605591,-1.3333603900722046,-2.5260751883136194,6.111095416336813,1.0165483951568604,-5.466391030942098
1708435964.911212,-2.1423230171203613,-1.3333351773074646,-2.5260751883136194,6.111036884575643,1.0165557861328125,-5.466403726731436
1708435964.9132543,-2.1423566341400146,-1.3333396476558228,-2.526067558919088,6.111063825875082,1.0165513753890991,-5.4663994948016565
1708435964.9152267,-2.1423230171203613,-1.3333069545081635,-2.5260794798480433,6.1110726473625085,1.0165557861328125,-5.466359500085012
1708435964.9172375,-2.1423726081848145,-1.333336518411972,-2.5260632673846644,6.1110068438346765,1.0166010856628418,-5.466403726731436
1708435964.919231,-2.1423230171203613,-1.3333188456347962,-2.5260422865497034,6.111048567086019,1.0165603160858154,-5.466424051915304
1708435964.9212065,-2.142336368560791,-1.333377019768097,-2.5260589758502405,6.111012923508444,1.0165843963623047,-5.4663918058024805
1708435964.9232109,-2.1423115730285645,-1.333339662556984,-2.526067558919088,6.110999452858724,1.0165843963623047,-5.466318432484762
1708435964.9252079,-2.1423487663269043,-1.3333470833352585,-2.5260794798480433,6.111033665924825,1.0166010856628418,-5.466391746197836
1708435964.9272335,-2.142401933670044,-1.3334174466184159,-2.5260632673846644,6.111033189087667,1.0165513753890991,-5.466375652943746
1708435964.9292576,-2.142381429672241,-1.3334220063737412,-2.5260587374316614,6.1109564183051965,1.0165843963623047,-5.466355268155233
1708435964.9312444,-2.142397403717041,-1.3333514791778107,-2.5260096232043665,6.111008393555441,1.0166056156158447,-5.466355268155233
1708435964.9332254,-2.142381429672241,-1.3333559942296525,-2.526083771382467,6.110971200257101,1.0165754556655884,-5.4663875738727015
1708435964.9351895,-2.1423354148864746,-1.3333307665637513,-2.5260751883136194,6.1109845516975305,1.016588807106018,-5.4663472215281885
1708435964.9372144,-2.1423566341400146,-1.3334097278169175,-2.526071850453512,6.110980140953817,1.0165798664093018,-5.466415647660391
1708435964.939209,-2.1423532962799072,-1.333351494078972,-2.5260794798480433,6.111030804901876,1.0165770053863525,-5.466379825268881
1708435964.941238,-2.1423230171203613,-1.333332137470581,-2.526120726262228,6.110982763558187,1.0166264772415161,-5.46633887687792
1708435964.9432263,-2.142336368560791,-1.3333233457854767,-2.526071850453512,6.11100064495162,1.0165680646896362,-5.466395978127615
1708435964.9451873,-2.1423487663269043,-1.333327741628029,-2.5260632673846644,6.1109667895133875,1.016593337059021,-5.466368023549215
1708435964.9472132,-2.1423745155334473,-1.3333484542420884,-2.5261033217059534,6.11102174499587,1.0165843963623047,-5.466314975415365
1708435964.9492178,-2.1423115730285645,-1.333369181757309,-2.5260794798480433,6.110942828446188,1.0165724754333496,-5.466315869485037
1708435964.9511921,-2.1423161029815674,-1.333372638826706,-2.5260501543628138,6.110909688263693,1.0165709257125854,-5.4662827293025416
1708435964.9532268,-2.1423161029815674,-1.3333514791778107,-2.5260871092425745,6.11100064495162,1.0165770053863525,-5.466314975415365
1708435964.955204,-2.142320394515991,-1.333335132603981,-2.5260828177081507,6.110956299095907,1.0165557861328125,-5.466315809880392
1708435964.9572217,-2.1423115730285645,-1.3333144646934052,-2.526076141987936,6.1109681008155725,1.016593337059021,-5.466323498879568
1708435964.9592006,-2.1423184871673584,-1.3333514791778107,-2.526099983845846,6.110965239792623,1.0166010856628418,-5.466323498879568
1708435964.9612129,-2.1423089504241943,-1.3333470684340973,-2.5260794798480433,6.110993492394247,1.0165965557098389,-5.466291968022482
1708435964.9632156,-2.1423161029815674,-1.333277092581131,-2.526095692311422,6.111041772156515,1.0165965557098389,-5.466340366994039
1708435964.9652092,-2.1423399448394775,-1.333339662556984,-2.5260914007769983,6.110988962441244,1.0166341066360474,-5.466279331837789
1708435964.967206,-2.1423275470733643,-1.3333277267268677,-2.5260914007769983,6.110927569657125,1.0165680646896362,-5.466348055993215
1708435964.9691982,-2.1423161029815674,-1.3333933514407654,-2.5260544458972376,6.11102174499587,1.0165921449661255,-5.46633613506426
1708435964.9712222,-2.1423451900482178,-1.3333484393409272,-2.5260663668261927,6.110993492394247,1.016603946685791,-5.466352287922994
1708435964.9732044,-2.1423442363739014,-1.3333158206990738,-2.5260303656207483,6.111012804299154,1.0165377855300903,-5.466267410908834
1708435964.9751983,-2.1423532962799072,-1.3333963763764878,-2.5260794798480433,6.110993492394247,1.0166219472885132,-5.4662954846965235
1708435964.977216,-2.142320394515991,-1.333314449792244,-2.526067558919088,6.1109574911888025,1.0165843963623047,-5.466247145329611
1708435964.9791882,-2.1423089504241943,-1.3333559793284913,-2.5260914007769983,6.111030685692587,1.0165724754333496,-5.46631229320635
1708435964.9812284,-2.1423532962799072,-1.3333559793284913,-2.5260632673846644,6.110977041512289,1.0165843963623047,-5.466271583233969
1708435964.9831982,-2.1423532962799072,-1.333339662556984,-2.5260871092425745,6.1109187481696985,1.0166128873825073,-5.466283504162924
1708435964.9851878,-2.142357587814331,-1.3333528500846406,-2.526104513798849,6.1109187481696985,1.0166219472885132,-5.466227118168966
1708435964.9872022,-2.1423091888427734,-1.3333603751710434,-2.5260794798480433,6.110948550492086,1.0166174173355103,-5.466291968022482
1708435964.989194,-2.142362117767334,-1.3333692115596314,-2.526100222264425,6.1109845516975305,1.0165965557098389,-5.466275815163748
1708435964.9912064,-2.1423451900482178,-1.3333233159831543,-2.526120726262228,6.110986101418295,1.0165724754333496,-5.466299657021658
1708435964.9931993,-2.142362117767334,-1.3333603751710434,-2.5260828177081507,6.110947358399191,1.0165680646896362,-5.466300372277395
1708435964.995191,-2.142378807067871,-1.3332858842662354,-2.526104513798849,6.110977041512289,1.0165349245071411,-5.466300372277395
1708435964.9972017,-2.142305850982666,-1.3333188158324738,-2.52605110803713,6.110975968628683,1.0165770053863525,-5.466267410908834
1708435964.999243,-2.1423497200012207,-1.3333427172950287,-2.5260794798480433,6.1109187481696985,1.0166128873825073,-5.466291968022482
1708435965.001187,-2.142324924468994,-1.3333858710578461,-2.5260751883136194,6.11093960979537,1.0165798664093018,-5.466312352810995
1708435965.0031893,-2.1423180103302,-1.3333681386760254,-2.526067558919088,6.1109975455100916,1.0165724754333496,-5.466275815163748
1708435965.0052133,-2.1423161029815674,-1.3333484542420884,-2.526088062916891,6.110975611000814,1.016588807106018,-5.466268126164572
1708435965.0072036,-2.142296552658081,-1.3333603900722046,-2.5260544458972376,6.11096070983962,1.0165843963623047,-5.466296199952261
1708435965.0092447,-2.1423001289367676,-1.3333233159831543,-2.5260501543628138,6.110972630768575,1.016608476638794,-5.4662474433528345
1708435965.0112042,-2.142357587814331,-1.3333351475051423,-2.526095692311422,6.110975611000814,1.0165468454360962,-5.466300372277395
1708435965.0132515,-2.1423451900482178,-1.3333726239255448,-2.526088062916891,6.11100052574233,1.0165544748306274,-5.466251675282614
1708435965.0152137,-2.142362117767334,-1.3333889704993744,-2.5260751883136194,6.110985982209005,1.0165843963623047,-5.466344598923818
1708435965.017222,-2.142329454421997,-1.3333276969245453,-2.5260914007769983,6.110915171891012,1.016608476638794,-5.466239039097921
1708435965.019187,-2.1423089504241943,-1.3333233457854767,-2.5260632673846644,6.110965239792623,1.0166341066360474,-5.4662474433528345
1708435965.0211864,-2.142324924468994,-1.3333440583995362,-2.5260914007769983,6.11093960979537,1.0165590047836304,-5.466215137635366
1708435965.0232522,-2.1422877311706543,-1.3333100539496918,-2.526099983845846,6.110885607987203,1.0165680646896362,-5.4662808815585535
1708435965.025219,-2.142336368560791,-1.3333559793284913,-2.5261076132403772,6.111014115601339,1.0165590047836304,-5.466291968022482
1708435965.027223,-2.1423134803771973,-1.3333440583995362,-2.5260544458972376,6.1109845516975305,1.0165770053863525,-5.4662885705577295
1708435965.0292294,-2.142333745956421,-1.3332769584706803,-2.526104513798849,6.110948550492086,1.0166010856628418,-5.466211024914877
1708435965.0312278,-2.1422481536865234,-1.3333351773074646,-2.526120726262228,6.11093949058608,1.016588807106018,-5.466251675282614
1708435965.0332758,-2.1422832012176514,-1.3333726239255448,-2.526095692311422,6.1109845516975305,1.0165709257125854,-5.466313187276022
1708435965.0352032,-2.142338514328003,-1.3333307963660737,-2.526128355656759,6.110906827240743,1.0166010856628418,-5.46627247730364
1708435965.0372148,-2.142324924468994,-1.3333396476558228,-2.5260751883136194,6.110990512162008,1.0165843963623047,-5.466207210217611
1708435965.0392077,-2.1422841548919678,-1.3333070141128083,-2.526083771382467,6.110993134766378,1.016608476638794,-5.466244045888082
1708435965.0411866,-2.1423180103302,-1.3333470684340973,-2.526083771382467,6.110956299095907,1.0166385173797607,-5.466260139142172
1708435965.0431921,-2.1423134803771973,-1.333339662556984,-2.526116196309225,6.1109845516975305,1.0165921449661255,-5.466248277817861
1708435965.045195,-2.1422877311706543,-1.333364800815918,-2.526083771382467,6.111012923508444,1.016625165939331,-5.466248218213217
1708435965.0472028,-2.142261505126953,-1.3333158206990738,-2.5261033217059534,6.110981690674581,1.0166128873825073,-5.466251615677969
1708435965.0492086,-2.142268180847168,-1.3333603900722046,-2.526095692311422,6.110935079842367,1.0165513753890991,-5.466232124959127
1708435965.0512102,-2.1422932147979736,-1.3333233159831543,-2.5260589758502405,6.110951769142904,1.0166010856628418,-5.466227952633993
1708435965.0532377,-2.1423356533050537,-1.3333573800376435,-2.5260708967791956,6.110956179886617,1.016588807106018,-5.466207210217611
1708435965.055203,-2.142301082611084,-1.3333307963660737,-2.5260794798480433,6.11094747760848,1.0165965557098389,-5.466268185769216
1708435965.0572078,-2.142322540283203,-1.333364800815918,-2.5260708967791956,6.1109845516975305,1.016608476638794,-5.466159168873922
1708435965.0591981,-2.1423542499542236,-1.333352879886963,-2.5260794798480433,6.110947358399191,1.0166341066360474,-5.466236416493551
1708435965.061189,-2.1423144340515137,-1.3333069843104859,-2.5260468165027063,6.110944020539083,1.0166174173355103,-5.466199878846304
1708435965.0632043,-2.142261505126953,-1.333332137470581,-2.526083771382467,6.110981690674581,1.0165843963623047,-5.466240588818685
1708435965.0652056,-2.142263650894165,-1.3333069843104859,-2.5261250177966517,6.110977041512289,1.0165934562683105,-5.466199819241659
1708435965.0672367,-2.1423180103302,-1.3333726239255448,-2.526128355656759,6.110935079842367,1.0165965557098389,-5.466256682072775
1708435965.069212,-2.142322540283203,-1.3333484691432496,-2.5260546843158167,6.110988962441244,1.0165798664093018,-5.4662156144725245
1708435965.0711992,-2.1423180103302,-1.3333603751710434,-2.526123825703756,6.1109681008155725,1.0165843963623047,-5.466240588818685
1708435965.0732405,-2.142305612564087,-1.3333233159831543,-2.526024881993429,6.110991704254904,1.0166295766830444,-5.466187957917349
1708435965.0751984,-2.142301082611084,-1.3333351475051423,-2.526095692311422,6.110981333046713,1.0166128873825073,-5.466216746960775
1708435965.077207,-2.142333745956421,-1.333332137470581,-2.5260422865497034,6.110948550492086,1.0166295766830444,-5.466180209313528
1708435965.0792303,-2.142329454421997,-1.333372638826706,-2.5260794798480433,6.110980140953817,1.0165468454360962,-5.466240529214041
1708435965.0812018,-2.142263650894165,-1.3334097129157563,-2.526099983845846,6.111017334252157,1.0165724754333496,-5.466232542191641
1708435965.0831947,-2.142277240753174,-1.3333440583995362,-2.5260546843158167,6.11091576793746,1.0165590047836304,-5.46618372598757
1708435965.0852075,-2.142261505126953,-1.3333559793284913,-2.526100222264425,6.110988962441244,1.0165965557098389,-5.466224137936727
1708435965.0871933,-2.1422524452209473,-1.3333233159831543,-2.5260871092425745,6.11096070983962,1.0165965557098389,-5.4661880175219935
1708435965.0891948,-2.142268180847168,-1.3333365482142945,-2.526099983845846,6.11093960979537,1.0166341066360474,-5.466227952633993
1708435965.0911822,-2.142235517501831,-1.333332137470581,-2.5260914007769983,6.110948550492086,1.016588807106018,-5.4661675731288355
1708435965.0932102,-2.1422524452209473,-1.3333514791778107,-2.5260751883136194,6.111006963043966,1.0166175365447998,-5.466224137936727
1708435965.0951962,-2.142263650894165,-1.3333188158324738,-2.526095692311422,6.110944020539083,1.0166206359863281,-5.466172281895773
1708435965.097198,-2.142327070236206,-1.333364800815918,-2.526095692311422,6.110990631371298,1.0165709257125854,-5.466212515030996
1708435965.0992036,-2.1422266960144043,-1.3333070141128083,-2.526116434727804,6.110932218819418,1.0165965557098389,-5.46615177789797
1708435965.101184,-2.142265796661377,-1.3333559793284913,-2.5260632673846644,6.110988962441244,1.016588807106018,-5.4661675731288355
1708435965.1032164,-2.142244815826416,-1.3333484691432496,-2.5260632673846644,6.110968220024862,1.016588807106018,-5.466184381638662
1708435965.1052027,-2.1422975063323975,-1.3333692115596314,-2.5260914007769983,6.11099790313796,1.0165843963623047,-5.466212515030996
1708435965.1072433,-2.142296552658081,-1.333384470348694,-2.526095692311422,6.110951769142904,1.0165876150131226,-5.46618372598757
1708435965.1092196,-2.1423144340515137,-1.3333514791778107,-2.5260794798480433,6.110927688866415,1.0165590047836304,-5.466192130242483
1708435965.1112149,-2.1422932147979736,-1.3333351475051423,-2.5260708967791956,6.110951888352194,1.0166414976119995,-5.466228310261862
1708435965.1132483,-2.1422886848449707,-1.333332137470581,-2.526095692311422,6.110968220024862,1.0165921449661255,-5.466219965611593
1708435965.1152248,-2.1422815322875977,-1.3333144050887604,-2.5260751883136194,6.1109845516975305,1.0166010856628418,-5.466171924267904
1708435965.117206,-2.1422886848449707,-1.3333233159831543,-2.5260914007769983,6.110942828446188,1.0165965557098389,-5.466232542191641
1708435965.1192174,-2.14231014251709,-1.333320216541626,-2.5260794798480433,6.11100064495162,1.01655912399292,-5.466221038495199
1708435965.1212008,-2.1422815322875977,-1.3333573800376435,-2.5260794798480433,6.111018407135763,1.0166056156158447,-5.466167990361349
1708435965.1232574,-2.142244815826416,-1.333332137470581,-2.5261369387256067,6.110988962441244,1.0165590047836304,-5.466212515030996
1708435965.1252232,-2.1422972679138184,-1.3333277267268677,-2.5261369387256067,6.110935556679525,1.0166341066360474,-5.4661476651774805
1708435965.1272316,-2.142272710800171,-1.3333365482142945,-2.5260794798480433,6.110935079842367,1.0166128873825073,-5.466188732777731
1708435965.1292303,-2.142272710800171,-1.3333158057979126,-2.526095692311422,6.110914337425985,1.0166218280792236,-5.466184441243307
1708435965.1312208,-2.142272710800171,-1.333352879886963,-2.5261076132403772,6.110965239792623,1.016608476638794,-5.466209057961599
1708435965.1332393,-2.142301082611084,-1.3333603900722046,-2.526076141987936,6.11096070983962,1.0165843963623047,-5.4661476651774805
1708435965.1351984,-2.1423144340515137,-1.3333484691432496,-2.5260794798480433,6.110977041512289,1.0165635347366333,-5.466184441243307
1708435965.1371968,-2.1422932147979736,-1.3333277267268677,-2.5260708967791956,6.110993492394247,1.0166128873825073,-5.466131512318746
1708435965.1392155,-2.142261505126953,-1.3333814603141327,-2.5260501543628138,6.111017334252157,1.0166341066360474,-5.466200653706686
1708435965.1412292,-2.142301082611084,-1.3332903248122712,-2.5260871092425745,6.110948669701376,1.016625165939331,-5.466204885636465
1708435965.143243,-2.1422975063323975,-1.3333440583995362,-2.5260871092425745,6.111005055695333,1.0165798664093018,-5.46616375843157
1708435965.1451895,-2.1422932147979736,-1.3333365482142945,-2.526123825703756,6.11099802234725,1.0166010856628418,-5.466180686150686
1708435965.1472077,-2.142272710800171,-1.333332137470581,-2.5260794798480433,6.111005055695333,1.0166295766830444,-5.466103140507833
1708435965.1491969,-2.1422975063323975,-1.3333559793284913,-2.5260914007769983,6.1109890816505334,1.0166264772415161,-5.466209057961599
1708435965.1512067,-2.142265796661377,-1.3333559793284913,-2.5260589758502405,6.110948550492086,1.016593337059021,-5.466188732777731
1708435965.1532118,-2.1422860622406006,-1.3333514791778107,-2.526099983845846,6.110972630768575,1.016603946685791,-5.466213289891378
1708435965.155195,-2.142265796661377,-1.3333158057979126,-2.526111904774801,6.1109187481696985,1.0165965557098389,-5.466107491646902
1708435965.1572657,-2.1422524452209473,-1.333364800815918,-2.5260465780841272,6.110906469612875,1.0165724754333496,-5.466172281895773
1708435965.1592264,-2.1423017978668213,-1.3333035570434113,-2.5260708967791956,6.110951769142904,1.016625165939331,-5.466152612362997
1708435965.1611989,-2.1422972679138184,-1.333332137470581,-2.526092592869894,6.111009108811178,1.0166386365890503,-5.466160360966818
1708435965.1632278,-2.142272710800171,-1.3333692115596314,-2.5260794798480433,6.110935079842367,1.0165965557098389,-5.466111723576681
1708435965.165209,-2.142261505126953,-1.3333158057979126,-2.5260914007769983,6.110976922302999,1.0165754556655884,-5.466172281895773
1708435965.1672468,-2.142265796661377,-1.333332137470581,-2.526095692311422,6.110968339234152,1.0166010856628418,-5.466168824826376
1708435965.1692278,-2.142240285873413,-1.3332668554833909,-2.5260663668261927,6.111009108811178,1.016625165939331,-5.466173056756155
1708435965.171227,-2.142263650894165,-1.3333692115596314,-2.5261250177966517,6.111001837044515,1.0166010856628418,-5.466184918080465
1708435965.1732428,-2.142306327819824,-1.3333035570434113,-2.526083771382467,6.111008393555441,1.0165965557098389,-5.466136578713552
1708435965.1752093,-2.142272710800171,-1.3332903248122712,-2.526083771382467,6.110935079842367,1.0165965557098389,-5.466176513825552
1708435965.1772087,-2.142240285873413,-1.3333396476558228,-2.526140276585714,6.11093960979537,1.0165754556655884,-5.4661322871791285
1708435965.1792355,-2.142277240753174,-1.3332668107799073,-2.5260794798480433,6.110993134766378,1.016603946685791,-5.466128055249349
1708435965.1812117,-2.142301082611084,-1.3333603900722046,-2.5260914007769983,6.110993134766378,1.0165965557098389,-5.466164592896597
1708435965.1832497,-2.14231014251709,-1.333373711710312,-2.5260751883136194,6.1109975455100916,1.0166128873825073,-5.466176513825552
1708435965.1852024,-2.142277240753174,-1.3333440583995362,-2.526099983845846,6.111009108811178,1.0166128873825073,-5.466205600892202
1708435965.187236,-2.1422815322875977,-1.3333603900722046,-2.52605110803713,6.110952126770773,1.0165754556655884,-5.466128472481863
1708435965.1894472,-2.142261505126953,-1.3333277267268677,-2.5260708967791956,6.110956299095907,1.0166206359863281,-5.4661158362971705
1708435965.1912005,-2.14225697517395,-1.3333484691432496,-2.526111904774801,6.110968339234152,1.0165843963623047,-5.4661158362971705
1708435965.1932015,-2.14224910736084,-1.3333497804454346,-2.5261369387256067,6.110956299095907,1.0165798664093018,-5.466168765221731
1708435965.1952066,-2.1422815322875977,-1.3333603900722046,-2.5260632673846644,6.11096070983962,1.0166128873825073,-5.466128114853994
1708435965.1972022,-2.142261505126953,-1.3333692115596314,-2.526111904774801,6.110988843231954,1.016625165939331,-5.4661158362971705
1708435965.199199,-2.1422572135925293,-1.333364800815918,-2.526088062916891,6.11099790313796,1.0166162252426147,-5.4661158362971705
1708435965.2012334,-2.142261505126953,-1.3333396476558228,-2.5260379950152796,6.110986101418295,1.0166206359863281,-5.466112677250997
1708435965.203224,-2.1423017978668213,-1.3333573800376435,-2.5260751883136194,6.110927569657125,1.0166010856628418,-5.466103140507833
1708435965.2052305,-2.1423189640045166,-1.3333233159831543,-2.526111904774801,6.1109845516975305,1.0165921449661255,-5.466112677250997
1708435965.207234,-2.1422815322875977,-1.3333290380290528,-2.526099983845846,6.110927569657125,1.0165965557098389,-5.466177169476644
1708435965.2092392,-2.1422886848449707,-1.3333617013743897,-2.526067558919088,6.111005055695333,1.0165921449661255,-5.466104272996084
1708435965.2111912,-2.1422815322875977,-1.3333559793284913,-2.526099983845846,6.11096070983962,1.016603946685791,-5.466092352067129
1708435965.2132158,-2.142244577407837,-1.333373711710312,-2.5261033217059534,6.110968220024862,1.0166206359863281,-5.466111604367391
1708435965.2152045,-2.1422858238220215,-1.3333814603141327,-2.5260751883136194,6.110968220024862,1.0166548490524292,-5.466144923363821
1708435965.217207,-2.142223358154297,-1.3333559793284913,-2.5260708967791956,6.110951769142904,1.0166174173355103,-5.4661158362971705
1708435965.2191944,-2.142223358154297,-1.3333158057979126,-2.5260794798480433,6.110935556679525,1.016608476638794,-5.4660964647876185
1708435965.2211921,-2.1422746181488037,-1.333332137470581,-2.5260794798480433,6.110976922302999,1.0166369676589966,-5.46609998146166
1708435965.2232091,-2.142277240753174,-1.3333247017911454,-2.526116434727804,6.110935556679525,1.016608476638794,-5.466144982968466
1708435965.225211,-2.142244577407837,-1.3333484542420884,-2.526123825703756,6.110939848213949,1.0166325569152832,-5.466092352067129
1708435965.2272005,-2.1422488689422607,-1.333320216541626,-2.5260794798480433,6.110948550492086,1.0166295766830444,-5.466108564530508
1708435965.2292247,-2.1422488689422607,-1.333318830733635,-2.5261076132403772,6.110944020539083,1.0166414976119995,-5.466161076222555
1708435965.2312338,-2.142223358154297,-1.3333484691432496,-2.5260794798480433,6.110942828446188,1.0166414976119995,-5.4661365191089075
1708435965.2332284,-2.1423017978668213,-1.3332698208144684,-2.526123825703756,6.110906827240743,1.0166701078414917,-5.466112677250997
1708435965.2352078,-2.142244815826416,-1.3333365333131333,-2.5261357466327112,6.111009466439047,1.0166325569152832,-5.466144923363821
1708435965.237209,-2.1422903537750244,-1.3333603751710434,-2.5260501543628138,6.110942828446188,1.0166369676589966,-5.466080431138174
1708435965.2392018,-2.1422488689422607,-1.3333036017468949,-2.526095692311422,6.11093949058608,1.0166206359863281,-5.466161076222555
1708435965.2411928,-2.1422488689422607,-1.3333025586656113,-2.5260990301715296,6.110951769142904,1.0166369676589966,-5.466132704411642
1708435965.243194,-2.142306327819824,-1.3333277267268677,-2.5260794798480433,6.110939848213949,1.0166325569152832,-5.466132704411642
1708435965.2451887,-2.1422975063323975,-1.3333114248565217,-2.5260794798480433,6.11093960979537,1.0166281461715698,-5.466080371533529
1708435965.2471893,-2.1423277854919434,-1.3333736670068284,-2.5260990301715296,6.110993492394247,1.0165995359420776,-5.466112677250997
1708435965.2492397,-2.142277240753174,-1.333351494078972,-2.5260914007769983,6.110968220024862,1.0166162252426147,-5.466080431138174
1708435965.251187,-2.1422903537750244,-1.3333453697017212,-2.5261033217059534,6.1109351990516565,1.0166280269622803,-5.466124359761373
1708435965.253201,-2.1422579288482666,-1.3333233457854767,-2.526132647191183,6.11102186420516,1.0166399478912354,-5.466080431138174
1708435965.255199,-2.1422364711761475,-1.3333113950541993,-2.526144568120138,6.110965239792623,1.0166534185409546,-5.4661491552936
1708435965.2572114,-2.1422455310821533,-1.3333736670068284,-2.5260589758502405,6.110952126770773,1.0166819095611572,-5.466104272996084
1708435965.2592056,-2.1422858238220215,-1.333315835600235,-2.5260828177081507,6.110924708634176,1.0166444778442383,-5.466080371533529
1708435965.2612107,-2.142261505126953,-1.3333070141128083,-2.5260751883136194,6.111033665924825,1.0166488885879517,-5.466100756322042
1708435965.2632349,-2.1422488689422607,-1.3333396178535004,-2.526095692311422,6.11101399639205,1.0166444778442383,-5.466100756322042
1708435965.2652218,-2.142306327819824,-1.3333233457854767,-2.5261033217059534,6.1109564183051965,1.0166234970092773,-5.466136876736776
1708435965.2672443,-2.142261505126953,-1.3333233457854767,-2.5260914007769983,6.110948550492086,1.0166399478912354,-5.466116909180776
1708435965.269241,-2.1422860622406006,-1.3333158206990738,-2.5260871092425745,6.110951888352194,1.0166444778442383,-5.466165248547689
1708435965.2711952,-2.142261505126953,-1.33333212256942,-2.526128355656759,6.111042606621542,1.0166655778884888,-5.466083947812216
1708435965.273256,-2.1422533988952637,-1.333339662556984,-2.5261076132403772,6.11099802234725,1.0166655778884888,-5.466112677250997
1708435965.2751927,-2.142277240753174,-1.3333113950541993,-2.526111904774801,6.110944020539083,1.0167105197906494,-5.466132704411642
1708435965.2772162,-2.1422815322875977,-1.3333351177028199,-2.526099983845846,6.110991823464193,1.016635537147522,-5.466100756322042
1708435965.2791972,-2.1422903537750244,-1.333299220805504,-2.5260871092425745,6.110993492394247,1.0166820287704468,-5.4661411682712
1708435965.281211,-2.142272710800171,-1.3333080869964142,-2.526123825703756,6.110971200257101,1.0167059898376465,-5.466144923363821
1708435965.2832289,-2.1422455310821533,-1.3333484542420884,-2.5260751883136194,6.1109962342079065,1.0167059898376465,-5.466108564530508
1708435965.285205,-2.1422815322875977,-1.3333779734424134,-2.5260708967791956,6.11092625835494,1.0166308879852295,-5.466112677250997
1708435965.2872186,-2.142306327819824,-1.3333603900722046,-2.5261152426349085,6.111026155739584,1.016652226448059,-5.466144923363821
1708435965.2892013,-2.142244577407837,-1.3333113950541993,-2.526123825703756,6.11093949058608,1.0166685581207275,-5.466132704411642
1708435965.291184,-2.1422410011291504,-1.3333247166923066,-2.5261033217059534,6.110993134766378,1.016739010810852,-5.466152671967642
1708435965.2932127,-2.14227032661438,-1.333327741628029,-2.5261033217059534,6.110980140953817,1.0166774988174438,-5.466161076222555
1708435965.2951934,-2.1422815322875977,-1.333327741628029,-2.5261195341693323,6.110951769142904,1.0165982246398926,-5.466116849576132
1708435965.2972553,-2.142200231552124,-1.333332137470581,-2.5260708967791956,6.110988962441244,1.0166926383972168,-5.466173056756155
1708435965.2992458,-2.1422860622406006,-1.333332137470581,-2.526123825703756,6.110959279328146,1.0166399478912354,-5.466177169476644
1708435965.3012083,-2.14227032661438,-1.3333573055318375,-2.5261152426349085,6.111034261971273,1.0166763067245483,-5.466100041066305
1708435965.303203,-2.1422622203826904,-1.3333233457854767,-2.5260589758502405,6.110935079842367,1.0166970491409302,-5.4661365191089075
1708435965.3052366,-2.1422791481018066,-1.3333157908967515,-2.5260990301715296,6.110964047699728,1.016701579093933,-5.4661569635020655
1708435965.3072336,-2.142261505126953,-1.333327741628029,-2.526123825703756,6.1109845516975305,1.0166881084442139,-5.466161076222555
1708435965.3092163,-2.142277240753174,-1.3333114248565217,-2.5260914007769983,6.110935079842367,1.0167300701141357,-5.466124359761373
1708435965.3112,-2.1422364711761475,-1.3333770495704194,-2.5260782877551478,6.1109962342079065,1.0166717767715454,-5.466124359761373
1708435965.3132124,-2.1422791481018066,-1.3333113950541993,-2.5261152426349085,6.1109845516975305,1.0166852474212646,-5.466144982968466
1708435965.3152008,-2.1422815322875977,-1.3333365482142945,-2.5261314550982874,6.111024725228109,1.0166717767715454,-5.4661365191089075
1708435965.3172264,-2.1422321796417236,-1.3334051680615921,-2.5261195341693323,6.111020314484396,1.0167421102523804,-5.4661365191089075
1708435965.3192186,-2.14227032661438,-1.333409534101822,-2.5261557737933558,6.11092625835494,1.016716718673706,-5.46618885198702
1708435965.3211966,-2.142277240753174,-1.3333559793284913,-2.5260990301715296,6.111008393555441,1.0166915655136108,-5.4661933223353785
1708435965.3232112,-2.142277240753174,-1.3332991761020203,-2.5260990301715296,6.11100064495162,1.0167211294174194,-5.466144923363821
1708435965.3252141,-2.1422746181488037,-1.3333440583995362,-2.5260871092425745,6.111039626389303,1.0166881084442139,-5.466100041066305
1708435965.3272445,-2.142265796661377,-1.3333484691432496,-2.5261152426349085,6.111012923508444,1.0167003870010376,-5.466201368962423
1708435965.3292413,-2.1422622203826904,-1.3333647710135956,-2.5261109511004847,6.110999572068014,1.0167256593704224,-5.466180745755331
1708435965.331245,-2.1422321796417236,-1.3332920533469697,-2.5261152426349085,6.111008393555441,1.016704797744751,-5.466098908578054
1708435965.3332846,-2.1422533988952637,-1.333306999211647,-2.5261438528644007,6.110975611000814,1.016716718673706,-5.466168765221731
1708435965.3352275,-2.14227032661438,-1.3333069843104859,-2.5261152426349085,6.111024725228109,1.016679286956787,-5.466152612362997
1708435965.3372433,-2.14227032661438,-1.3333069843104859,-2.5261314550982874,6.111054646759786,1.0167465209960938,-5.466184918080465
1708435965.3392062,-2.1423017978668213,-1.3333365333131333,-2.5261483828174036,6.1109667895133875,1.016716718673706,-5.466152612362997
1708435965.3412004,-2.1422278881073,-1.3333440583995362,-2.5261645952807825,6.111033665924825,1.0167123079299927,-5.466144148503439
1708435965.3432097,-2.14227032661438,-1.3333691370538254,-2.5261195341693323,6.110966670304098,1.016709327697754,-5.466123882924215
1708435965.3452013,-2.1422524452209473,-1.3333233755877991,-2.5261357466327112,6.1110501168067834,1.016716718673706,-5.466156129037039
1708435965.3472168,-2.1422533988952637,-1.333327741628029,-2.5261109511004847,6.111005055695333,1.0167709589004517,-5.46615189710726
1708435965.349254,-2.1422488689422607,-1.3333453100970765,-2.5261152426349085,6.111020314484396,1.0167077779769897,-5.466140035782949
1708435965.3512106,-2.142240285873413,-1.3333233457854767,-2.5260990301715296,6.111008393555441,1.016716718673706,-5.466172281895773
1708435965.3532352,-2.1422524452209473,-1.3333559495261689,-2.5260947386371058,6.111024844437399,1.0167620182037354,-5.466192905102865
1708435965.355203,-2.1422579288482666,-1.3333484542420884,-2.5261359850512903,6.111048686295309,1.0167449712753296,-5.466160360966818
1708435965.3572254,-2.1422488689422607,-1.3333559793284913,-2.5261526743518274,6.11100064495162,1.0167360305786133,-5.4661399761783045
1708435965.3592021,-2.142277240753174,-1.3333158057979126,-2.526139561329977,6.111015903740682,1.0167195796966553,-5.466196362172262
1708435965.361231,-2.1422488689422607,-1.3332903248122712,-2.5261483828174036,6.111044156342306,1.0167049169540405,-5.4661887923823755
1708435965.3631904,-2.1422886848449707,-1.3333351475051423,-2.5261226336108606,6.111008393555441,1.0167529582977295,-5.466159586106436
1708435965.3651996,-2.142261505126953,-1.333341048364975,-2.5261226336108606,6.110988962441244,1.0167485475540161,-5.466196362172262
1708435965.3672059,-2.1422410011291504,-1.3333035570434113,-2.5261603037463587,6.11100064495162,1.0167664289474487,-5.466208283101217
1708435965.3692198,-2.1422948837280273,-1.3333453398993989,-2.526184145604269,6.110938417702474,1.0167529582977295,-5.466204885636465
1708435965.3712385,-2.1422860622406006,-1.3332858246615906,-2.5261383692370813,6.111015784531393,1.0168020725250244,-5.466248993073599
1708435965.373231,-2.1422533988952637,-1.3333440583995362,-2.526142660771505,6.110975730210104,1.0167768001556396,-5.466196362172262
1708435965.3752038,-2.1422321796417236,-1.3333603304675599,-2.526184145604269,6.111005055695333,1.016781210899353,-5.466228310261862
1708435965.3772328,-2.1422858238220215,-1.3333114099553605,-2.526159111653463,6.111044156342306,1.016769289970398,-5.466240529214041
1708435965.379204,-2.1422746181488037,-1.333339662556984,-2.526212278996603,6.110945927887716,1.0167648792266846,-5.466265086327688
1708435965.38121,-2.142303943634033,-1.3333233904889603,-2.526203457509176,6.111024725228109,1.0167559385299683,-5.466227893029348
1708435965.383221,-2.1422746181488037,-1.3333069694093247,-2.526220146809713,6.111049520760336,1.0167723894119263,-5.466280821953909
1708435965.3852048,-2.1422579288482666,-1.333320216541626,-2.5262396971331995,6.11100064495162,1.0168054103851318,-5.466264371071951
1708435965.3872042,-2.1422746181488037,-1.333352879886963,-2.5262485186206263,6.111053097039022,1.0167768001556396,-5.466239813958303
1708435965.3892155,-2.14227032661438,-1.3333603751710434,-2.5262234846698206,6.11104570606307,1.0168217420578003,-5.466255966817037
1708435965.3912451,-2.1422321796417236,-1.333364800815918,-2.5262396971331995,6.110980140953817,1.016785740852356,-5.466227058564321
1708435965.3932908,-2.1422321796417236,-1.333352879886963,-2.5262845198260706,6.111053097039022,1.0167964696884155,-5.466251615677969
1708435965.3952012,-2.1422972679138184,-1.3333440733006974,-2.52621037164797,6.1109845516975305,1.0168098211288452,-5.466238979493276
1708435965.39724,-2.1422815322875977,-1.333341048364975,-2.5262561480151575,6.111029374390402,1.0167841911315918,-5.466283563767568
1708435965.3992016,-2.1422975063323975,-1.3333158057979126,-2.5262635389911097,6.11098729351119,1.0168596506118774,-5.466268126164572
1708435965.4012709,-2.1422533988952637,-1.333348424439766,-2.5262625853167933,6.110959160118856,1.0167752504348755,-5.466287736092703
1708435965.4032135,-2.1422207355499268,-1.3333484691432496,-2.52621037164797,6.110991823464193,1.0168054103851318,-5.466312352810995
1708435965.4052064,-2.1422858238220215,-1.3333691668561478,-2.5262559095965784,6.111062156945028,1.016791820526123,-5.466251317654745
1708435965.4072585,-2.14227032661438,-1.3333365482142945,-2.5262766520129603,6.111032235413351,1.016829490661621,-5.46632427373995
1708435965.4092274,-2.1422948837280273,-1.3333440583995362,-2.526243034993307,6.111008393555441,1.016796350479126,-5.466344598923818
1708435965.4112134,-2.1422948837280273,-1.3333114695600052,-2.5262473265277308,6.111012923508444,1.016812801361084,-5.466307405625479
1708435965.4132419,-2.1422860622406006,-1.3333365482142945,-2.5262396971331995,6.110999452858724,1.0167993307113647,-5.466324214135305
1708435965.415201,-2.14227032661438,-1.3333365482142945,-2.5262473265277308,6.110995042115011,1.0168534517288208,-5.466283563767568
1708435965.4172308,-2.1422533988952637,-1.333344043498375,-2.5262604395495813,6.111078727036276,1.0168490409851074,-5.466311577950613
1708435965.4191954,-2.1422815322875977,-1.3332903248122712,-2.526259247456686,6.111015903740682,1.0167993307113647,-5.466323498879568
1708435965.4212034,-2.1422622203826904,-1.3333470982364197,-2.5262964407550257,6.111041176110067,1.0168817043304443,-5.466308120881216
1708435965.4232697,-2.1422431468963623,-1.3333559793284913,-2.5262516180621546,6.110959279328146,1.0168653726577759,-5.466259006653921
1708435965.4251957,-2.1422622203826904,-1.333327741628029,-2.5262964407550257,6.11100052574233,1.0168237686157227,-5.466307405625479
1708435965.4272234,-2.1422364711761475,-1.3333440733006974,-2.5262723604785364,6.11102460601882,1.0168818235397339,-5.466331962739126
1708435965.4291964,-2.1422207355499268,-1.3333365482142945,-2.52627140680422,6.111015903740682,1.0168653726577759,-5.466291252766744
1708435965.4312117,-2.1422791481018066,-1.3333692115596314,-2.526259247456686,6.111036646157064,1.0168862342834473,-5.466331962739126
1708435965.4332197,-2.1422226428985596,-1.3333484691432496,-2.5262344519244593,6.11100064495162,1.0169017314910889,-5.466327730809347
1708435965.435209,-2.1422135829925537,-1.3333681386760254,-2.526275698338644,6.1109845516975305,1.0168728828430176,-5.46633613506426
1708435965.4372387,-2.1422455310821533,-1.3333484691432496,-2.52630860010256,6.111024725228109,1.0169180631637573,-5.466335419808523
1708435965.4392111,-2.1422250270843506,-1.3333726239255448,-2.526259247456686,6.111029255181112,1.0168895721435547,-5.466319326554434
1708435965.441223,-2.1421639919281006,-1.3333321672729035,-2.526243034993307,6.1110665676887415,1.0169389247894287,-5.466355744992391
1708435965.443234,-2.142200231552124,-1.3333233159831543,-2.526250425969259,6.1110620377357385,1.0168850421905518,-5.466420654450552
1708435965.4451969,-2.14220929145813,-1.3333396476558228,-2.526336733494894,6.1109845516975305,1.0169001817703247,-5.466368023549215
1708435965.4472513,-2.1421639919281006,-1.3333514791778107,-2.52630860010256,6.110991585045614,1.0169377326965332,-5.466372195874349
1708435965.44921,-2.1422317028045654,-1.3332579892924805,-2.526250664387838,6.11099539974288,1.0169540643692017,-5.4663918058024805
1708435965.4512126,-2.1422386169433594,-1.333332137470581,-2.52627140680422,6.111008393555441,1.016924262046814,-5.466384176407949
1708435965.4532292,-2.14220929145813,-1.3333396476558228,-2.526267115269796,6.111017334252157,1.0169377326965332,-5.466368023549215
1708435965.4552095,-2.14219331741333,-1.3333025437644501,-2.5262354055987757,6.111033189087667,1.0169121026992798,-5.466379169617788
1708435965.4572408,-2.142202138900757,-1.3333933812430878,-2.526259247456686,6.111024725228109,1.016924262046814,-5.466371480618612
1708435965.4592092,-2.142186403274536,-1.3333069843104859,-2.526267115269796,6.111083137779989,1.0169737339019775,-5.4663918058024805
1708435965.4611976,-2.1421658992767334,-1.3333514493754883,-2.526275698338644,6.110991823464193,1.0169525146484375,-5.466362957154409
1708435965.4632206,-2.1421782970428467,-1.3333559495261689,-2.52627140680422,6.110956299095907,1.0169602632522583,-5.466407183800833
1708435965.465205,-2.142141103744507,-1.3333528500846406,-2.526250664387838,6.110980140953817,1.0169888734817505,-5.466435972844259
1708435965.4672334,-2.1421163082122803,-1.3333858710578461,-2.52627140680422,6.110909926682272,1.0169888734817505,-5.466399435197012
1708435965.4692922,-2.1421172618865967,-1.3333069843104859,-2.526283327733175,6.111024725228109,1.0170186758041382,-5.466452125702993
1708435965.4712043,-2.1421456336975098,-1.3333070439151307,-2.5262790361987513,6.110980140953817,1.0169976949691772,-5.466403011475698
1708435965.473211,-2.1421003341674805,-1.3333277267268677,-2.526320282612936,6.11100064495162,1.0169962644577026,-5.4663918058024805
1708435965.47519,-2.142138719558716,-1.33335596442733,-2.526316229497091,6.1109890816505334,1.0169888734817505,-5.466407183800833
1708435965.4772222,-2.1421093940734863,-1.333418534403183,-2.5263150374041956,6.11100064495162,1.0170382261276245,-5.466382626687185
1708435965.4792016,-2.142090082168579,-1.3333396476558228,-2.5262823740588587,6.110878217011251,1.0170624256134033,-5.466419104729788
1708435965.4812036,-2.142127275466919,-1.3333593916944046,-2.5263312498675745,6.110932218819418,1.0170292854309082,-5.466374937688009
1708435965.4832177,-2.1420819759368896,-1.3332981181195755,-2.5263312498675745,6.110936629563131,1.017037034034729,-5.4663875738727015
1708435965.4852214,-2.142054796218872,-1.3333351475051423,-2.5263312498675745,6.110924708634176,1.017074465751648,-5.466378454362051
1708435965.487225,-2.1420469284057617,-1.3333514791778107,-2.5263641516314905,6.110888707428732,1.017086386680603,-5.466427568589346
1708435965.4892244,-2.1420185565948486,-1.333327741628029,-2.5263684431659144,6.110841023712911,1.0170655250549316,-5.46643174091448
1708435965.4912274,-2.141944169998169,-1.3333351475051423,-2.5263641516314905,6.110815632134237,1.017098307609558,-5.466443661843435
1708435965.4932353,-2.141937017440796,-1.3333470535329361,-2.5263968149768274,6.110763180046835,1.0170488357543945,-5.46645170847048
1708435965.4952023,-2.1419460773468018,-1.33335596442733,-2.526358668004171,6.110772239952841,1.017098307609558,-5.466419104729788
1708435965.4972203,-2.141914129257202,-1.3333726239255448,-2.526375118886129,6.110695946007528,1.0171434879302979,-5.466374937688009
1708435965.4992042,-2.1418282985687256,-1.3333351922086258,-2.5263999144183558,6.110659944802084,1.0171583890914917,-5.46638256708254
1708435965.501211,-2.1418416500091553,-1.3333396327546616,-2.5263620058642786,6.110656964569845,1.0171375274658203,-5.466391090546743
1708435965.5032182,-2.1418099403381348,-1.333342657690384,-2.526383701954977,6.11062120178298,1.0171661376953125,-5.466414813195364
1708435965.5052068,-2.141770124435425,-1.3333515238812943,-2.526383701954977,6.110544669419088,1.0171538591384888,-5.466411415730612
1708435965.5072463,-2.1417553424835205,-1.333338127737381,-2.526395622883932,6.110513675003805,1.017182469367981,-5.466366473828451
1708435965.509232,-2.141721487045288,-1.333405317073204,-2.5263870398150843,6.110522734909811,1.0172109603881836,-5.466435257588522
1708435965.5111997,-2.141664981842041,-1.33335596442733,-2.5264273325549524,6.110461342125692,1.0171946287155151,-5.466367248688833
1708435965.5132189,-2.141662359237671,-1.3333800745061417,-2.5264151732074183,6.1104256985481165,1.0172172784805298,-5.466443661843435
1708435965.5152006,-2.1415810585021973,-1.3333711934140702,-2.5264316240893763,6.110349046974935,1.0172666311264038,-5.466415647660391
1708435965.517216,-2.141570568084717,-1.3334041398814698,-2.5264602343188685,6.110313045769491,1.0172290802001953,-5.466407183800833
1708435965.519235,-2.141515016555786,-1.333460734491684,-2.526479784642355,6.110286581307211,1.0172576904296875,-5.466419164334432
1708435965.5212097,-2.14151930809021,-1.3334485006383439,-2.52651554742922,6.110238539963522,1.0172984600067139,-5.466414813195364
1708435965.5232131,-2.1414310932159424,-1.3334041398814698,-2.5264959971057337,6.110091912537374,1.0172851085662842,-5.46643174091448
1708435965.5252044,-2.1413495540618896,-1.333436445598938,-2.5265234152423304,6.110111462860861,1.0173296928405762,-5.466374937688009
1708435965.5272148,-2.1413559913635254,-1.333418847327568,-2.52657658258547,6.109976637154379,1.0173420906066895,-5.466411415730612
1708435965.5291984,-2.1412224769592285,-1.3334800612977524,-2.5265560785876673,6.109944093018331,1.0173659324645996,-5.466427568589346
1708435965.5312142,-2.141153335571289,-1.333471269612648,-2.5265753904925745,6.109830605774679,1.01735258102417,-5.466456417237417
1708435965.533246,-2.1411385536193848,-1.3335114431432267,-2.5265920797931116,6.109792816429891,1.0174353122711182,-5.466391030942098
1708435965.535212,-2.141075849533081,-1.3335277450135727,-2.526595417653219,6.109679329186239,1.0174051523208618,-5.466342691575186
1708435965.5372968,-2.140979528427124,-1.3335157495788117,-2.5266311804400843,6.109600412636556,1.0174381732940674,-5.466354552899496
1708435965.5391984,-2.1408822536468506,-1.3335430336049576,-2.526647392903463,6.109524118691244,1.0174908638000488,-5.466407183800833
1708435965.541193,-2.1408514976501465,-1.3335667860559006,-2.5267120043383997,6.109419333725729,1.0174741744995117,-5.466460112725393
1708435965.5432336,-2.1407268047332764,-1.3335834306529541,-2.526719395314352,6.109341609268942,1.017498254776001,-5.4664029518710535
1708435965.5452168,-2.1406679153442383,-1.3336116683534165,-2.526784960423605,6.1092040417488,1.0175431966781616,-5.4663994948016565
1708435965.5472238,-2.1405882835388184,-1.3335702878287812,-2.526788298283712,6.109120356827535,1.0175327062606812,-5.466351036225454
1708435965.5492165,-2.140509843826294,-1.3336682927659531,-2.526820246373312,6.108992087631979,1.0176198482513428,-5.466371421013967
1708435965.5512106,-2.140392303466797,-1.333666906957962,-2.52682334581484,6.108882772713461,1.0176154375076294,-5.466424051915304
1708435965.55321,-2.140260696411133,-1.3337148141912003,-2.526863400136129,6.108799087792196,1.0176184177398682,-5.466379169617788
1708435965.5551958,-2.1401405334472656,-1.3337103885463257,-2.5268874804126185,6.108618366509237,1.0176546573638916,-5.466436032448904
1708435965.557195,-2.139979600906372,-1.3337746423533936,-2.5269203821765345,6.108479249268331,1.017675518989563,-5.466379110013143
1708435965.559189,-2.139876365661621,-1.3337865632823487,-2.526947323475973,6.108383762627401,1.017711877822876,-5.466371421013967
1708435965.5612018,-2.139777421951294,-1.3338549000075837,-2.526992384587423,6.108193623810568,1.0177103281021118,-5.466343049203054
1708435965.563227,-2.1396324634552,-1.3338638109019776,-2.5270031134234827,6.1080548641975305,1.0178049802780151,-5.466351572667257
1708435965.5652018,-2.139498472213745,-1.333874673848488,-2.5270686785327356,6.107873666077413,1.0178123712539673,-5.466392640267507
1708435965.5672185,-2.1393418312072754,-1.333877758388855,-2.527079407368795,6.107780921250143,1.0178271532058716,-5.466372255478994
1708435965.5692163,-2.139162540435791,-1.3339460653117676,-2.5270989576922815,6.107552397042074,1.017917275428772,-5.4662954846965235
1708435965.5712085,-2.1389973163604736,-1.3339584332755585,-2.527151409779684,6.107340085297384,1.017927646636963,-5.466331128274099
1708435965.573233,-2.138789653778076,-1.3339318496039887,-2.5272203127490442,6.107145893364706,1.0179343223571777,-5.466299657021658
1708435965.5752163,-2.138610601425171,-1.3340387803367157,-2.5272472540484827,6.106957423477926,1.0180555582046509,-5.466275815163748
1708435965.5772529,-2.1384479999542236,-1.3340423119119187,-2.5273574034320276,6.106791603356161,1.0181248188018799,-5.466328446065084
1708435965.5792096,-2.1382200717926025,-1.3341149699739,-2.5273399988757532,6.106517779618063,1.0181608200073242,-5.466275815163748
1708435965.5812185,-2.1380035877227783,-1.3341387522271653,-2.52736741701235,6.106374132424154,1.018200159072876,-5.466296199952261
1708435965.5832286,-2.137760639190674,-1.3341453683427353,-2.527445141469137,6.106080877571859,1.0182735919952393,-5.466268126164572
1708435965.585227,-2.137538194656372,-1.3341656935266037,-2.5274797121631067,6.1057612774665735,1.0183173418045044,-5.466280047093527
1708435965.5872526,-2.1372392177581787,-1.3342747551253815,-2.527532164250509,6.105567800789633,1.018388032913208,-5.466239813958303
1708435965.589214,-2.1369285583496094,-1.334260494714119,-2.527579132710592,6.1052578566368005,1.0184974670410156,-5.466248277817861
1708435965.5912368,-2.136678695678711,-1.334382714038231,-2.5276432673083704,6.10497401931838,1.018614649772644,-5.466227893029348
1708435965.5932257,-2.1363706588745117,-1.3343071949533005,-2.527686897908346,6.104638206749716,1.0186536312103271,-5.466268722211019
1708435965.595222,-2.1360397338867188,-1.3344452542117615,-2.5277751127826136,6.104364144593038,1.0187499523162842,-5.466236416493551
1708435965.5972369,-2.1357693672180176,-1.3344814640334626,-2.5278354326831263,6.104028093605795,1.0188835859298706,-5.466208283101217
1708435965.5992286,-2.1354496479034424,-1.3345694255879899,-2.5279441515551966,6.103686558991232,1.0189677476882935,-5.4662532846080225
1708435965.6012158,-2.135077953338623,-1.33458764970813,-2.5279999415027063,6.103338348656454,1.0190551280975342,-5.466167990361349
1708435965.6032152,-2.1347804069519043,-1.3346411448768158,-2.5280917326556605,6.102955090790548,1.0191600322723389,-5.466151837502615
1708435965.6052086,-2.134357213973999,-1.3346995276263733,-2.528167788182394,6.102466809540548,1.0192805528640747,-5.466209117566244
1708435965.607227,-2.1339311599731445,-1.3347847175649186,-2.528263870869772,6.1020920155342,1.0193390846252441,-5.4661442081080835
1708435965.6092393,-2.1335995197296143,-1.3348518174937745,-2.5283358732806605,6.1016119597251794,1.0194926261901855,-5.466111604367391
1708435965.6112149,-2.133188247680664,-1.3348616820624848,-2.528479878102438,6.101172196656027,1.0195841789245605,-5.466184918080465
1708435965.613226,-2.132709503173828,-1.334970311527588,-2.5285759607898157,6.10076259353713,1.0197373628616333,-5.4661731163608
1708435965.615203,-2.1323142051696777,-1.3350552779487153,-2.5286436716662806,6.100214111595907,1.0198529958724976,-5.466144982968466
1708435965.6172342,-2.131887674331665,-1.335126892929413,-2.528809372578756,6.099756705551901,1.01994788646698,-5.466059867535726
1708435965.6192155,-2.131425380706787,-1.3352626276067276,-2.5289278666125696,6.099254953652181,1.020125150680542,-5.466101590787069
1708435965.621208,-2.1308834552764893,-1.3353672486594697,-2.529031817113058,6.09868477562026,1.0203064680099487,-5.466059807931082
1708435965.6232233,-2.130357265472412,-1.3354378205588837,-2.529180113469259,6.098100650101461,1.020496129989624,-5.46609735885729
1708435965.6252124,-2.129817485809326,-1.3355469417623063,-2.52932054201235,6.0975472805793665,1.0206598043441772,-5.466080907975332
1708435965.62723,-2.1292333602905273,-1.3356821698001404,-2.5294809977160853,6.0969241736228845,1.020795226097107,-5.466040138398306
1708435965.6292095,-2.1287407875061035,-1.3357369613698502,-2.5296369234668177,6.096343147545614,1.0210014581680298,-5.466048602257864
1708435965.6312246,-2.128129243850708,-1.3358487349799653,-2.5297678152667444,6.095670330315389,1.0211366415023804,-5.466052834187643
1708435965.6332378,-2.127582550048828,-1.3359324795058747,-2.5299490133868616,6.0951095698173425,1.021357536315918,-5.466061357651846
1708435965.6352098,-2.1269335746765137,-1.336010531788208,-2.5300963560687464,6.094467866211691,1.0214974880218506,-5.466020230446951
1708435965.6372156,-2.126296043395996,-1.33623260379348,-2.530329767857687,6.093730914383688,1.0217437744140625,-5.466044847165243
1708435965.6393406,-2.1256256103515625,-1.3363313239863892,-2.5304482618915003,6.092993843346395,1.0219016075134277,-5.465996805821554
1708435965.6412435,-2.1249213218688965,-1.3364181977561493,-2.5306578318225306,6.092282998352804,1.022200584411621,-5.466012899075643
1708435965.64322,-2.1242239475250244,-1.3365870726159592,-2.5308454672442835,6.091524350434103,1.0223671197891235,-5.465980295334951
1708435965.6452105,-2.1235623359680176,-1.3366802346757432,-2.5310004393206995,6.090774881630697,1.0226407051086426,-5.465980414544241
1708435965.6472514,-2.1228158473968506,-1.3368452948382874,-2.531233612691061,6.090050685196676,1.0228617191314697,-5.4659886995898646
1708435965.6492286,-2.1220312118530273,-1.3370056015304108,-2.5314417521106165,6.08914481380538,1.02314293384552,-5.466005150471823
1708435965.6512241,-2.1212611198425293,-1.3371371936849137,-2.531583849583761,6.088385569840231,1.023345708847046,-5.466038171445028
1708435965.6533854,-2.120450258255005,-1.337248147731163,-2.531837050114767,6.087520468025961,1.023679256439209,-5.465969149266378
1708435965.655203,-2.1196236610412598,-1.337448925977089,-2.532069269810812,6.08653603771285,1.023910641670227,-5.46598863998522
1708435965.6572354,-2.1188242435455322,-1.337603123193123,-2.5323460737811487,6.085711586266317,1.0241962671279907,-5.465985242520468
1708435965.659202,-2.1180129051208496,-1.337702215915062,-2.532492224370138,6.084789025574484,1.0244892835617065,-5.465948049222128
1708435965.661204,-2.1170601844787598,-1.3379534643939515,-2.5327780882464808,6.083831059723654,1.0247809886932373,-5.465960745011465
1708435965.6632268,-2.1161861419677734,-1.3380749982646485,-2.533001486455099,6.082800495415487,1.025050163269043,-5.465992991124288
1708435965.6652007,-2.1153130531311035,-1.338291661148407,-2.5332821051227015,6.081812965660848,1.0253791809082031,-5.465964917336599
1708435965.667226,-2.1143500804901123,-1.3384306293777009,-2.5335262457477015,6.080731141358175,1.025696039199829,-5.465976838265554
1708435965.669211,-2.1133995056152344,-1.3385635030320664,-2.533769194279806,6.0797451613243005,1.0260368585586548,-5.466005627308981
1708435965.6712213,-2.112429618835449,-1.3387547147325058,-2.5340336004840296,6.078754651337423,1.0263499021530151,-5.465952996407644
1708435965.6732187,-2.1114890575408936,-1.3389879775098343,-2.5343342463122767,6.077750789910116,1.026620626449585,-5.465936545525686
1708435965.6751933,-2.110483169555664,-1.3391674917987366,-2.534610096608297,6.076786267548361,1.0269752740859985,-5.4659937659846705
1708435965.6772232,-2.1094512939453125,-1.3393333715251465,-2.53486138979067,6.075640189438619,1.0273370742797852,-5.465981070195333
1708435965.6791973,-2.1084184646606445,-1.3395708066276093,-2.535173002873556,6.074475753098287,1.0276364088058472,-5.46601784626116
1708435965.6811926,-2.1073474884033203,-1.339816228752472,-2.5354862848864954,6.073302733689108,1.0280100107192993,-5.466009442006246
1708435965.68323,-2.1062541007995605,-1.3399329346469422,-2.5357773939715784,6.072151767998495,1.0284161567687988,-5.465964917336599
1708435965.6852021,-2.1051669120788574,-1.3402393472245713,-2.536117140446798,6.070930588036337,1.0287469625473022,-5.465944592152731
1708435965.687249,-2.104079246520996,-1.3403170120767136,-2.536409918461935,6.069792377739706,1.0291184186935425,-5.465997223054067
1708435965.6892145,-2.102891683578491,-1.340530739431717,-2.5367382208453577,6.068527805596151,1.0295236110687256,-5.46602982679476
1708435965.6912055,-2.1016905307769775,-1.3407908839038392,-2.5370455423938196,6.067261683731832,1.0298874378204346,-5.466038231049673
1708435965.6932793,-2.1005375385284424,-1.3410463643125077,-2.5373814741717737,6.066087472229757,1.030326247215271,-5.465964202080862
1708435965.6952047,-2.0993432998657227,-1.341227040891983,-2.5377381483661097,6.064721572190084,1.03078293800354,-5.4659844676600855
1708435965.697233,-2.098167896270752,-1.341505081658699,-2.538114134465353,6.063546407013693,1.03117835521698,-5.465996805821554
1708435965.6992104,-2.096947193145752,-1.341781498198845,-2.538469378148214,6.062275397568502,1.031673550605774,-5.46605754295458
1708435965.7012188,-2.095641851425171,-1.3420224350741883,-2.5387685934649866,6.0609320280845544,1.0320727825164795,-5.466037098561422
1708435965.703239,-2.094390392303467,-1.3422164183906098,-2.5391412417041224,6.0595213053520105,1.0325380563735962,-5.466122035180227
1708435965.7052112,-2.0930933952331543,-1.3424856823733826,-2.539558235798971,6.058073746948995,1.0329601764678955,-5.466122035180227
1708435965.707247,-2.0917773246765137,-1.3427066069892426,-2.5399094263659876,6.056743609696188,1.0334258079528809,-5.466125432644979
1708435965.7092354,-2.0904834270477295,-1.3430175942233582,-2.5402889887439173,6.055383074074545,1.0338811874389648,-5.466100756322042
1708435965.7112336,-2.0891098976135254,-1.3432927888682862,-2.540700976048605,6.053919780045309,1.0343997478485107,-5.466104213391439
1708435965.7132306,-2.0877370834350586,-1.3434644651464005,-2.541114155446188,6.052461850434103,1.034900426864624,-5.466181043778555
1708435965.7152195,-2.0863149166107178,-1.3437650364688416,-2.541452471409933,6.050904142647543,1.0353689193725586,-5.4661399761783045
1708435965.7172234,-2.0849318504333496,-1.343981684451439,-2.5418530146228235,6.049369323044576,1.035854697227478,-5.466184441243307
1708435965.719211,-2.0834696292877197,-1.344303162103035,-2.542321745549337,6.047830450325765,1.036407709121704,-5.466221038495199
1708435965.7211986,-2.0820419788360596,-1.3445616525462647,-2.5427659193622034,6.046235191612997,1.0369411706924438,-5.466236416493551
1708435965.723211,-2.080545663833618,-1.3448531788638611,-2.5431857744800013,6.044784176140585,1.037482738494873,-5.466277007256643
1708435965.7251909,-2.0790576934814453,-1.345119373207428,-2.543577496205465,6.043176519661703,1.0380409955978394,-5.466280047093527
1708435965.727213,-2.0775411128997803,-1.3454016310027619,-2.544046465550558,6.041533219605245,1.038446307182312,-5.46629631916155
1708435965.7292016,-2.076033115386963,-1.345712424521782,-2.544509474431173,6.0399300930793665,1.0390247106552124,-5.466372553502218
1708435965.731222,-2.0744757652282715,-1.3459760409644623,-2.544986073170797,6.038264977722921,1.0396522283554077,-5.4663875738727015
1708435965.7332711,-2.0729188919067383,-1.346340150838234,-2.5454381147967737,6.036635029106893,1.0401725769042969,-5.466363732014791
1708435965.7352037,-2.071303367614746,-1.346630410557129,-2.5458806196795862,6.034957515984335,1.0407214164733887,-5.466440860425131
1708435965.7372205,-2.069711685180664,-1.346957729463913,-2.5463812986956995,6.033309209137716,1.0413436889648438,-5.46646356979479
1708435965.7392173,-2.0680952072143555,-1.347227932219841,-2.546877924595968,6.031645524292745,1.041958212852478,-5.466514770184652
1708435965.7411914,-2.0664539337158203,-1.3476091039231797,-2.5474138895617884,6.029901611595907,1.042498230934143,-5.466559890900747
1708435965.7432256,-2.064788579940796,-1.3478814971498032,-2.54785663286318,6.02817069271163,1.0431187152862549,-5.466648344193594
1708435965.745195,-2.063115358352661,-1.348253683452942,-2.5484617392169397,6.026391136437216,1.043698787689209,-5.4666518608676355
1708435965.7471995,-2.0613625049591064,-1.3485971254161377,-2.5489655176745813,6.024605262070455,1.0444480180740356,-5.466686550770895
1708435965.7492194,-2.0596089363098145,-1.3488829296878357,-2.5494819323169153,6.022804248123922,1.0450596809387207,-5.466726605092184
1708435965.7512033,-2.057882308959961,-1.3492414218238373,-2.5499842802630823,6.021004426270284,1.0456764698028564,-5.466790978108541
1708435965.753235,-2.056065082550049,-1.3495477896979828,-2.55052096048464,6.019063699036398,1.0462816953659058,-5.466867212449209
1708435965.7552106,-2.054320812225342,-1.3498826336911698,-2.551051918660299,6.017203914910116,1.0468909740447998,-5.466930333768026
1708435965.757233,-2.0525026321411133,-1.3502793324044724,-2.5515711943255823,6.015314686089315,1.0474801063537598,-5.466962758694784
1708435965.7592218,-2.050633668899536,-1.3506793540767212,-2.552192513142721,6.013475167542257,1.0482113361358643,-5.466980580483572
1708435965.7611961,-2.0488393306732178,-1.3510327202132721,-2.552772823964254,6.011607992440023,1.0489822626113892,-5.467082087193624
1708435965.7632124,-2.0470035076141357,-1.3513594430736084,-2.553368870412008,6.009647953301229,1.0497150421142578,-5.467142049466268
1708435965.7652247,-2.045104742050171,-1.3518109035542984,-2.553959910069601,6.0077141402061365,1.0503294467926025,-5.467230085526602
1708435965.7671995,-2.0431904792785645,-1.352213518028595,-2.554551664982931,6.005702125817098,1.05107581615448,-5.467292789612905
1708435965.7692022,-2.041273593902588,-1.3525507611087342,-2.5551191012011927,6.003676044731893,1.0516752004623413,-5.467348221932546
1708435965.7715366,-2.0393755435943604,-1.3528914612582703,-2.555711809788839,6.001620876580038,1.0523040294647217,-5.467480782662527
1708435965.7732065,-2.0373828411102295,-1.3533609074405213,-2.55631930032839,5.999630558281698,1.0530433654785156,-5.467577640210287
1708435965.775195,-2.03539776802063,-1.3538139176419755,-2.5569515864001673,5.997595059662618,1.0538108348846436,-5.467632118855612
1708435965.7772007,-2.033430337905884,-1.3542940479568024,-2.5576427618609827,5.995543944626608,1.0546165704727173,-5.467617694531576
1708435965.7791994,-2.0314056873321533,-1.3546253454736252,-2.5582502524005335,5.993342983513632,1.055381178855896,-5.46780372062792
1708435965.7812006,-2.029365062713623,-1.3550723207047959,-2.558885161076681,5.991269337921896,1.056122899055481,-5.467907015477316
1708435965.7832239,-2.027324914932251,-1.3555241984179993,-2.559598509465353,5.989148723870077,1.0569384098052979,-5.468027834092275
1708435965.7851999,-2.0252463817596436,-1.3559265744737168,-2.5602052847491663,5.98691867569045,1.057735562324524,-5.4680591265307825
1708435965.787369,-2.023193597793579,-1.3563308429769059,-2.5608208815204065,5.984752881317892,1.0585784912109375,-5.468178514634268
1708435965.7892148,-2.0210959911346436,-1.35678984344516,-2.5615647474872034,5.982622730522909,1.0593867301940918,-5.468281928692953
1708435965.791202,-2.018925666809082,-1.3573083740523835,-2.562200133000509,5.980467188149252,1.060204267501831,-5.468422118817465
1708435965.7932422,-2.016761541366577,-1.3577342194369812,-2.562855068837301,5.978216278343954,1.0610380172729492,-5.468508783970968
1708435965.7952096,-2.0146067142486572,-1.3581677985242386,-2.563615862523214,5.975913512497701,1.0618512630462646,-5.468625072632925
1708435965.7972374,-2.012436866760254,-1.3587130320123215,-2.564296070729391,5.973639476090231,1.0626434087753296,-5.4687286059009
1708435965.7992268,-2.0101633071899414,-1.3591690224460145,-2.564983908330099,5.971395599633016,1.0635318756103516,-5.468913201485769
1708435965.8012156,-2.007927894592285,-1.3597098004869004,-2.5657275358783167,5.969139206200399,1.0643433332443237,-5.469033006821768
1708435965.8032339,-2.0057106018066406,-1.3600927901319046,-2.5664354006396692,5.966882455139913,1.0652061700820923,-5.469136063252584
1708435965.805236,-2.003493547439575,-1.3606338959983368,-2.5671306292163294,5.964682209282675,1.0661094188690186,-5.4692546168910425
1708435965.8072546,-2.001347780227661,-1.3610417705825348,-2.56785494485964,5.962534415512838,1.0669180154800415,-5.469379130993978
1708435965.8092268,-1.9991676807403564,-1.3615413916162034,-2.568522278462545,5.96035526969985,1.0676683187484741,-5.469510738049642
1708435965.8112037,-1.9970086812973022,-1.3619956237128754,-2.569258991871969,5.958084451943197,1.0685100555419922,-5.469658855591909
1708435965.8132348,-1.994821310043335,-1.3624413174441834,-2.569925133381979,5.955845820694723,1.0693601369857788,-5.469792906438009
1708435965.8151996,-1.9925707578659058,-1.3629491788199921,-2.5706000963794153,5.9535560486610315,1.0702202320098877,-5.469971005116598
1708435965.817243,-1.9903912544250488,-1.3634304267219086,-2.571368996297018,5.951318013459005,1.071124792098999,-5.470035020505087
1708435965.8192048,-1.9881417751312256,-1.3638519954732438,-2.5720728079425257,5.94908224323348,1.0719856023788452,-5.470185939465658
1708435965.8212674,-1.9859557151794434,-1.3643680673888703,-2.5728097597705286,5.946865069657125,1.0728627443313599,-5.470347527657644
1708435965.82322,-1.9837058782577515,-1.3648427885821839,-2.573521916066305,5.944670903473654,1.073677897453308,-5.470495525990621
1708435965.8252268,-1.981518030166626,-1.3653124433806916,-2.5742207209216517,5.942432629853048,1.0744022130966187,-5.470662538205282
1708435965.8272238,-1.9792907238006592,-1.3657501500895997,-2.574953858052389,5.940206157952108,1.075243353843689,-5.470780793820516
1708435965.829215,-1.9770667552947998,-1.3662210565856476,-2.575604263936178,5.9380178330238245,1.0760483741760254,-5.470925633107321
1708435965.8312037,-1.9748996496200562,-1.3667263847640534,-2.5763326326953333,5.935778724938192,1.0769178867340088,-5.471101943646566
1708435965.8332157,-1.972679615020752,-1.3672031623176117,-2.577019755040304,5.933590161591329,1.0777382850646973,-5.471208218728201
1708435965.8352447,-1.9705461263656616,-1.3676441621831437,-2.577770535145895,5.931336271553793,1.0785949230194092,-5.471282903348104
1708435965.8372297,-1.9683210849761963,-1.3681527239135285,-2.5785091559039515,5.929056513100424,1.0794600248336792,-5.471414271985189
1708435965.8392992,-1.9661340713500977,-1.3686039012721558,-2.579212490712301,5.92679642417983,1.0803040266036987,-5.4715651909457605
1708435965.8412337,-1.9639822244644165,-1.3690368694118042,-2.5799720923053187,5.924523699074545,1.0811333656311035,-5.471684936677114
1708435965.843266,-1.9618141651153564,-1.3695437026074906,-2.5807090441333216,5.922257530480184,1.0820064544677734,-5.4718162457095545
1708435965.8452349,-1.9595723152160645,-1.3700310450843354,-2.581395212803976,5.92002414444045,1.082794427871704,-5.472009066735403
1708435965.8472202,-1.9573851823806763,-1.3705046486905594,-2.5821028391467493,5.91782962062911,1.0836111307144165,-5.472189847623007
1708435965.849219,-1.9551763534545898,-1.371003897195198,-2.582818094884054,5.9155229208763025,1.084417462348938,-5.472207967435018
1708435965.8512137,-1.9529675245285034,-1.3714464765838166,-2.583536688481466,5.91336070278243,1.0851587057113647,-5.472375396882192
1708435965.8532383,-1.9507678747177124,-1.3719905477813263,-2.58427602449526,5.9110779640968225,1.0859981775283813,-5.472555879746572
1708435965.8552475,-1.948554277420044,-1.372403011923172,-2.5850327650653284,5.908899175911703,1.0868178606033325,-5.472662154828207
1708435965.8572433,-1.9463770389556885,-1.372888670568802,-2.5857415835009974,5.906666147499838,1.0877418518066406,-5.472847525273458
1708435965.859213,-1.9441415071487427,-1.3734090489200135,-2.5864456335650843,5.904516446381368,1.0884881019592285,-5.472920660172598
1708435965.8611999,-1.9419487714767456,-1.3738082510283967,-2.5872045199023646,5.9023369429405115,1.0893278121948242,-5.473063890133993
1708435965.8632236,-1.9397205114364624,-1.3743441861918946,-2.5879340807544153,5.900141823082723,1.0901895761489868,-5.473162297402517
1708435965.8652081,-1.9375174045562744,-1.3748172980597992,-2.5886381308185022,5.897930848389425,1.0910141468048096,-5.4733551184283655
1708435965.867235,-1.9353537559509277,-1.3752457660487671,-2.5893331209765833,5.895646559983053,1.0918395519256592,-5.47350794473757
1708435965.8692088,-1.9331685304641724,-1.37573857725177,-2.5900242964373987,5.893374430924215,1.0926636457443237,-5.473643902932302
1708435965.8712149,-1.9310194253921509,-1.376231313948967,-2.590750519429342,5.891162383347311,1.0934971570968628,-5.4737616817103785
1708435965.8732395,-1.9287822246551514,-1.3766686183265229,-2.5914982000934046,5.888906705170431,1.0943220853805542,-5.473917130623953
1708435965.8751981,-1.926650047302246,-1.3772173833898087,-2.592167917882101,5.886688816338339,1.0951393842697144,-5.474044207726614
1708435965.8772187,-1.9244580268859863,-1.3775843691876908,-2.5928998629199427,5.884448396950521,1.0960177183151245,-5.474168304597036
1708435965.879198,-1.9222015142440796,-1.3781771075776597,-2.593642775212423,5.882182943611898,1.0968506336212158,-5.474323634301321
1708435965.8811896,-1.9200068712234497,-1.3786053222468873,-2.5943008104907435,5.879952180176534,1.0976829528808594,-5.474476281796591
1708435965.8832467,-1.917813777923584,-1.3790620130351563,-2.5950360933886927,5.877752053528585,1.0985313653945923,-5.47463167110552
1708435965.8852108,-1.9156262874603271,-1.3795159322074433,-2.5957475344287317,5.875501262932577,1.0993562936782837,-5.474762801324026
1708435965.8872402,-1.913366436958313,-1.3800160747817536,-2.596443001423971,5.873368370323934,1.100234866142273,-5.474915568028585
1708435965.889227,-1.9111649990081787,-1.3805072170547028,-2.5971861521350306,5.871132242470541,1.1010786294937134,-5.47503370443453
1708435965.891223,-1.9089809656143188,-1.38089673340831,-2.597954813634054,5.868921386986532,1.1018744707107544,-5.475202385579244
1708435965.8932087,-1.9067457914352417,-1.3814697873643418,-2.5986276308642786,5.866658556252279,1.1027523279190063,-5.475275460873739
1708435965.8952122,-1.9045922756195068,-1.381850228910782,-2.5993390719043177,5.86442385891036,1.103581190109253,-5.475456360970632
1708435965.8972347,-1.9023661613464355,-1.3822934937528153,-2.600042168294088,5.862168538361349,1.1043775081634521,-5.4755998889552515
1708435965.8992054,-1.9001672267913818,-1.382826806311943,-2.600776497517721,5.859894859581747,1.1051827669143677,-5.475689355527059
1708435965.9012015,-1.8979274034500122,-1.3833256226829072,-2.6014707724200647,5.857679712563314,1.1059625148773193,-5.475834135209219
1708435965.903227,-1.8957536220550537,-1.3838049334338685,-2.60217792192568,5.855484115868368,1.1067715883255005,-5.475977901612417
1708435965.9051957,-1.8935513496398926,-1.3843125116876145,-2.602917496358053,5.853160846024313,1.1076288223266602,-5.476070229207174
1708435965.9072208,-1.8913276195526123,-1.3847435277751465,-2.603640619908468,5.850963699608602,1.1084212064743042,-5.476243976746694
1708435965.909225,-1.8890912532806396,-1.3852259677699585,-2.6044023672686976,5.848707783013143,1.1092337369918823,-5.476382676755087
1708435965.911229,-1.8868762254714966,-1.3857420843890687,-2.605065647755758,5.846497285157003,1.1099910736083984,-5.476591948662893
1708435965.9132578,-1.8847146034240723,-1.3861914736083527,-2.6057618300067347,5.844297754555502,1.110742449760437,-5.47668165365328
1708435965.9152007,-1.8824888467788696,-1.3866587740233918,-2.6064937750445765,5.842191684037008,1.1115765571594238,-5.476796631013052
1708435965.9172215,-1.880320429801941,-1.3871615690043946,-2.6070783774005335,5.839892375260153,1.112412929534912,-5.477002743874685
1708435965.9192004,-1.878127098083496,-1.387715296154358,-2.6079002062426966,5.837753879814901,1.113252878189087,-5.477149252091543
1708435965.9219368,-1.875900149345398,-1.3881621074727555,-2.6085899511920374,5.835525619774618,1.1141258478164673,-5.477219466363088
