Eg3-git/Classifiers/Data Collection/u3/u3xyz5_ur3e_joint_states.csv
time,elbow_joint,shoulder_lift_joint,shoulder_pan_joint,wrist_1_joint,wrist_2_joint,wrist_3_joint
1708436072.9039505,-2.1435296535491943,-1.3335669499686738,-2.5254927317248743,6.113388049393453,1.0154905319213867,-5.453457538281576
1708436072.9059846,-2.1435387134552,-1.3335507673076172,-2.5255208651172083,6.113388049393453,1.0154950618743896,-5.453469161187307
1708436072.907975,-2.1434686183929443,-1.3335797947696229,-2.5254295508014124,6.113303053170004,1.0155221223831177,-5.453490320836202
1708436072.9099157,-2.143481969833374,-1.3334856790355225,-2.525491539631979,6.113344895630636,1.0155593156814575,-5.453482512627737
1708436072.9119008,-2.1434741020202637,-1.3335679483464737,-2.5254882017718714,6.113278853684225,1.0155340433120728,-5.453511242066519
1708436072.9139457,-2.143425464630127,-1.3335883182338257,-2.525503460560934,6.113304602890768,1.0156360864639282,-5.453478221093313
1708436072.9159157,-2.1434388160705566,-1.3335309338620682,-2.525482956563131,6.113259660988607,1.0156121253967285,-5.453551654015676
1708436072.9179559,-2.1433963775634766,-1.3335224402001877,-2.525527540837423,6.11321912983016,1.0156121253967285,-5.453526322041647
1708436072.9199076,-2.1434433460235596,-1.3335679036429902,-2.525511089955465,6.113220917969503,1.0156360864639282,-5.453556183968679
1708436072.9219291,-2.143418550491333,-1.3335309487632294,-2.5255394617663782,6.113265383034506,1.015622615814209,-5.453526322041647
1708436072.9239416,-2.1434051990509033,-1.3334913414767762,-2.5255559126483362,6.113184916764059,1.0156466960906982,-5.453554276620046
1708436072.9259405,-2.143361806869507,-1.333567963247635,-2.52558404604067,6.113123404770651,1.0156797170639038,-5.45350963274111
1708436072.9278898,-2.1433732509613037,-1.3335389357856293,-2.5255473295794886,6.113147246628561,1.0156588554382324,-5.453566316758291
1708436072.9299567,-2.143409252166748,-1.3335267019322892,-2.5255754629718226,6.113132583885946,1.0156872272491455,-5.453566316758291
1708436072.9319155,-2.143341302871704,-1.3335275960019608,-2.52555495897402,6.11309968212203,1.0156826972961426,-5.45357853571047
1708436072.9339492,-2.1433753967285156,-1.3335721355727692,-2.525590721760885,6.113080370217123,1.0157158374786377,-5.453597847615377
1708436072.9359052,-2.1433212757110596,-1.333514781003334,-2.5255754629718226,6.113105642586508,1.015702247619629,-5.453575078641073
1708436072.937896,-2.1433424949645996,-1.333514781003334,-2.525611464177267,6.11306523063735,1.0157352685928345,-5.453561846409933
1708436072.939922,-2.1433167457580566,-1.3335395020297547,-2.5256081263171595,6.11300669887618,1.0157145261764526,-5.453536514435903
1708436072.9419067,-2.1433026790618896,-1.3335517805865784,-2.525607172642843,6.113045918732443,1.0157173871994019,-5.453574005757467
1708436072.9439225,-2.143348217010498,-1.3336090606502076,-2.5256691614734095,6.113048779755392,1.0157803297042847,-5.453602317963735
1708436072.9458878,-2.1433026790618896,-1.333487094645836,-2.5255940596209925,6.113014328270712,1.0157831907272339,-5.453574005757467
1708436072.9479003,-2.1432814598083496,-1.3335679185441514,-2.5256767908679407,6.1130127785499475,1.015804409980774,-5.45359039703478
1708436072.9498997,-2.1432642936706543,-1.333519921903946,-2.525651756917135,6.113026129990377,1.015762448310852,-5.453602317963735
1708436072.9519067,-2.1433162689208984,-1.333580569630005,-2.525667969380514,6.112947213440695,1.0158030986785889,-5.4536142388926905
1708436072.9539225,-2.143291473388672,-1.3335071814111252,-2.5256593863116663,6.112989294319906,1.0158030986785889,-5.4536142388926905
1708436072.955926,-2.143275499343872,-1.3335517805865784,-2.525684420262472,6.113032328873434,1.0158522129058838,-5.453606788312094
1708436072.9579241,-2.143244981765747,-1.333519921903946,-2.5256925264941614,6.112939822464742,1.0158225297927856,-5.453609768544332
1708436072.959912,-2.143284320831299,-1.3335233491710206,-2.5257044474231165,6.11294578292922,1.015826940536499,-5.453609768544332
1708436072.9619048,-2.1432347297668457,-1.3335564744523545,-2.5256593863116663,6.112954842835226,1.015838861465454,-5.453535083924429
1708436072.9639313,-2.1432673931121826,-1.3335275960019608,-2.5257368723498743,6.112921702652731,1.015838861465454,-5.453617219124929
1708436072.9659078,-2.1432347297668457,-1.333527610903122,-2.525658194218771,6.112947094231405,1.0158374309539795,-5.453663293515341
1708436072.9679594,-2.1431939601898193,-1.3334913414767762,-2.5257399717914026,6.112884390145101,1.0158828496932983,-5.453642551098959
1708436072.9699347,-2.143223285675049,-1.333511398439743,-2.525691334401266,6.112909781723776,1.015857219696045,-5.453584496174948
1708436072.9719462,-2.1432278156280518,-1.3335275960019608,-2.5257108847247522,6.112915861397543,1.0159274339675903,-5.4536171595202845
1708436072.9739103,-2.1432278156280518,-1.3335155856660386,-2.525707546864645,6.112827408104696,1.0158917903900146,-5.453624669705526
1708436072.97591,-2.1431939601898193,-1.3334586930326005,-2.5257108847247522,6.112844216614523,1.015902042388916,-5.453658882771627
1708436072.9779215,-2.143203020095825,-1.3335317534259339,-2.525715176259176,6.112878548889913,1.015993595123291,-5.453629199658529
1708436072.9799192,-2.143157720565796,-1.3335389357856293,-2.52574330965151,6.112923133164205,1.0159446001052856,-5.453685645257131
1708436072.9819345,-2.143153429031372,-1.333527610903122,-2.52578050294985,6.112878429680624,1.0159385204315186,-5.453650001679556
1708436072.9839277,-2.143162250518799,-1.3335233491710206,-2.525788132344381,6.112817156105795,1.0159878730773926,-5.45366079012026
1708436072.985914,-2.143150806427002,-1.3335155856660386,-2.5257390181170862,6.112835156708517,1.0159845352172852,-5.453641060982839
1708436072.987898,-2.143183469772339,-1.3334955883077164,-2.525796953831808,6.112835156708517,1.0159622430801392,-5.45365292230715
1708436072.9899082,-2.143113613128662,-1.333514781003334,-2.5257259050952356,6.1128800986106775,1.016008734703064,-5.453681294118063
1708436072.9919066,-2.143139362335205,-1.333527610903122,-2.5257301966296595,6.11280523517684,1.0160237550735474,-5.453669611607687
1708436072.9939094,-2.1431641578674316,-1.3335233491710206,-2.5257347265826624,6.112798917084493,1.0159878730773926,-5.453657392655508
1708436072.995904,-2.143101215362549,-1.3334552210620423,-2.5258002916919153,6.11279450634078,1.016007423400879,-5.4536484519587916
1708436072.9979434,-2.14308500289917,-1.3334918332150956,-2.5257554689990442,6.112806546479025,1.016007423400879,-5.453676823769705
1708436072.999931,-2.1430985927581787,-1.3335395169309159,-2.5258002916919153,6.112753140717306,1.0160523653030396,-5.45368862548937
1708436073.0019214,-2.1430816650390625,-1.3335275960019608,-2.5258033911334437,6.112754332810201,1.0160225629806519,-5.4537217060672205
1708436073.004023,-2.1431076526641846,-1.3334918332150956,-2.5257707277881067,6.112798917084493,1.0160508155822754,-5.453696433697836
1708436073.0060158,-2.143082857131958,-1.3334913414767762,-2.5257707277881067,6.1127920029456995,1.0160508155822754,-5.453733626996176
1708436073.0080051,-2.1431031227111816,-1.3335317385247727,-2.525782887135641,6.112761962204733,1.0160585641860962,-5.453672293816702
1708436073.010001,-2.1431031227111816,-1.3335233491710206,-2.5258284250842493,6.112680899887838,1.0160932540893555,-5.453665320073263
1708436073.011925,-2.1431326866149902,-1.3334670674851914,-2.525827471409933,6.11270962932662,1.0161291360855103,-5.453721765671865
1708436073.0139325,-2.143087387084961,-1.3335317534259339,-2.5258122126208704,6.11268841007308,1.016082525253296,-5.453684155141012
1708436073.015891,-2.143073797225952,-1.333508313899376,-2.5258570353137415,6.112705099373617,1.0160959959030151,-5.453775469456808
1708436073.017931,-2.1430580615997314,-1.3335071814111252,-2.5258076826678675,6.112767684250631,1.0161603689193726,-5.453741137181417
1708436073.019914,-2.143073797225952,-1.3334587228349228,-2.5258360544787806,6.112764942436971,1.016061782836914,-5.453705374394552
1708436073.0218997,-2.1430580615997314,-1.3335156303695221,-2.5258646647082728,6.112723099976339,1.016164779663086,-5.453729216252462
1708436073.0239792,-2.143026351928711,-1.3335275960019608,-2.5258353392230433,6.112727629929342,1.0161304473876953,-5.453766409550802
1708436073.025919,-2.143066883087158,-1.333508313899376,-2.525843922291891,6.11269901969985,1.0161558389663696,-5.453733626996176
1708436073.027927,-2.143040657043457,-1.3334913414767762,-2.525843922291891,6.112707960396566,1.016180157661438,-5.453753058110372
1708436073.0299342,-2.1430554389953613,-1.333474801187851,-2.5258591810809534,6.112642276078024,1.0161728858947754,-5.453721765671865
1708436073.0319152,-2.143064260482788,-1.333483250146248,-2.5258472601519983,6.112625944405355,1.016168475151062,-5.453766469155447
1708436073.0338967,-2.1430227756500244,-1.3334670972875138,-2.525851551686422,6.112667667656698,1.0161594152450562,-5.453692022954122
1708436073.035896,-2.1430397033691406,-1.333524153833725,-2.5258548895465296,6.112601744919576,1.016192078590393,-5.453761939202444
1708436073.0378997,-2.14304518699646,-1.3334913414767762,-2.5258429686175745,6.112692820816793,1.0162041187286377,-5.453736607228414
1708436073.0399044,-2.1430575847625732,-1.3334748905948182,-2.525851551686422,6.112642395287313,1.0162371397018433,-5.453811053429739
1708436073.041907,-2.143040657043457,-1.333458573823311,-2.525884215031759,6.112643945008077,1.0162415504455566,-5.453797701989309
1708436073.0439026,-2.1429784297943115,-1.3335002821734925,-2.525879685078756,6.112573611527242,1.0162326097488403,-5.453811053429739
1708436073.0459058,-2.143007755279541,-1.333531768327095,-2.5259247461902063,6.112591492920675,1.0162403583526611,-5.453741137181417
1708436073.0479069,-2.143036127090454,-1.3334748607924958,-2.5258753935443323,6.112574803620138,1.0162280797958374,-5.453744177018301
1708436073.0499108,-2.1429829597473145,-1.3334832352450867,-2.5258916060077112,6.112619745522299,1.0162689685821533,-5.4537768999682825
1708436073.051909,-2.1429784297943115,-1.3334955883077164,-2.5258784929858606,6.112582433014669,1.0163005590438843,-5.453765038643972
1708436073.0539384,-2.1429741382598877,-1.3334876012853165,-2.5258830229388636,6.112600433617391,1.0162643194198608,-5.453785781060354
1708436073.0559018,-2.143016815185547,-1.3334629398635407,-2.5258622805224817,6.112537729531088,1.0162599086761475,-5.4537768999682825
1708436073.0579083,-2.142990827560425,-1.3335403215936203,-2.5259161631213587,6.112506139069357,1.0162959098815918,-5.4537768999682825
1708436073.059923,-2.142991781234741,-1.3334261786988755,-2.525903050099508,6.11255573013381,1.016312599182129,-5.453781310711996
1708436073.061902,-2.142991781234741,-1.3334586930326005,-2.5258947054492396,6.112522589951315,1.0162628889083862,-5.453809920941488
1708436073.0639288,-2.1429388523101807,-1.3334960651448746,-2.5258947054492396,6.112539279251852,1.0163334608078003,-5.453756097947256
1708436073.0658965,-2.1429646015167236,-1.3335155856660386,-2.525919262562887,6.112534749298849,1.016265869140625,-5.453788820897238
1708436073.0679116,-2.1429388523101807,-1.3334628653577347,-2.525903050099508,6.112543809204855,1.0163244009017944,-5.453793291245596
1708436073.0699089,-2.1429600715637207,-1.333524153833725,-2.525935475026266,6.112531649857321,1.0162913799285889,-5.453824524079458
1708436073.07191,-2.1429443359375,-1.3335126054337998,-2.525903050099508,6.112495648651876,1.0163273811340332,-5.453751567994253
1708436073.073926,-2.1429262161254883,-1.3335284006646653,-2.525919262562887,6.11246274688796,1.0163530111312866,-5.453793291245596
1708436073.0759144,-2.142951011657715,-1.3335168075612565,-2.525943104420797,6.112474787026205,1.0163109302520752,-5.453870956097738
1708436073.0779254,-2.142948865890503,-1.3334552508643647,-2.5259104410754603,6.112488257675924,1.0163021087646484,-5.453828994427816
1708436073.0799527,-2.142935276031494,-1.3334141236594697,-2.525951687489645,6.112467276840963,1.0163935422897339,-5.453821901475088
1708436073.0819144,-2.142902374267578,-1.3334918332150956,-2.525959316884176,6.112479197769918,1.0163273811340332,-5.453817371522085
1708436073.0839195,-2.142935276031494,-1.333504081969597,-2.5259678999530237,6.112389790802755,1.0163679122924805,-5.453775469456808
1708436073.0859373,-2.142890214920044,-1.3335083437016984,-2.525943104420797,6.112458336144247,1.0163559913635254,-5.453824583684103
1708436073.0879016,-2.142965793609619,-1.333483265047409,-2.5259342829333704,6.112443434983053,1.016347050666809,-5.453783218060629
1708436073.0899029,-2.1428921222686768,-1.3334670972875138,-2.5259550253497522,6.112485158234396,1.0164176225662231,-5.453820113335745
1708436073.0919042,-2.1429202556610107,-1.3334263575128098,-2.5259669462787073,6.112431514054098,1.0163997411727905,-5.453828934823171
1708436073.0938978,-2.1428945064544678,-1.3335040670684357,-2.525959316884176,6.11237000206069,1.016404151916504,-5.453836504613058
1708436073.0958884,-2.14286732673645,-1.3335040521672745,-2.5260117689715784,6.112377393036642,1.0164250135421753,-5.453792158757345
1708436073.097911,-2.142883062362671,-1.3334997606328507,-2.5259864966021937,6.112403142243185,1.016416072845459,-5.453845326100485
1708436073.0999079,-2.1429247856140137,-1.3335156005671998,-2.5259702841388147,6.112362730294027,1.016416072845459,-5.4538055698024195
1708436073.1018953,-2.142850399017334,-1.3334875863841553,-2.5259833971606653,6.112362730294027,1.0164568424224854,-5.453808550034658
1708436073.1038957,-2.1428945064544678,-1.3334918481162568,-2.5259910265551966,6.1123835919196985,1.016489863395691,-5.453824583684103
1708436073.1059856,-2.1428637504577637,-1.3334508848241349,-2.5259953180896204,6.112355220108785,1.0164401531219482,-5.453857664261953
1708436073.1079383,-2.1428921222686768,-1.3334670972875138,-2.5260325113879603,6.11232207992629,1.016485333442688,-5.453890387211935
1708436073.1099286,-2.1428184509277344,-1.3334799271873017,-2.5259953180896204,6.112376081734457,1.0164523124694824,-5.453857664261953
1708436073.111927,-2.142854928970337,-1.333508313899376,-2.5260029474841517,6.112355220108785,1.0164388418197632,-5.453811172639028
1708436073.1139047,-2.142864942550659,-1.3335403215936203,-2.5260282198535364,6.112343060761251,1.016497254371643,-5.453824583684103
1708436073.1159158,-2.1428263187408447,-1.3334960800460358,-2.5260193983661097,6.1124000428016565,1.0164551734924316,-5.453783218060629
1708436073.117915,-2.142815113067627,-1.3334670972875138,-2.5260193983661097,6.112380730896749,1.0164719820022583,-5.453853193913595
1708436073.1199136,-2.1428229808807373,-1.3334841591170807,-2.526015106831686,6.112307655602255,1.0165046453475952,-5.453828934823171
1708436073.1219292,-2.1428062915802,-1.3334756654552002,-2.5260477701770228,6.112303244858541,1.0164839029312134,-5.453824583684103
1708436073.123899,-2.1427831649780273,-1.3334875863841553,-2.5260520617114466,6.112328517227926,1.0165425539016724,-5.453873995934622
1708436073.125908,-2.1428229808807373,-1.3334714037230988,-2.5260520617114466,6.112312066345968,1.016474723815918,-5.453824583684103
1708436073.1279075,-2.1428284645080566,-1.3335083437016984,-2.5260520617114466,6.112303244858541,1.016512155532837,-5.453820113335745
1708436073.1298912,-2.1427831649780273,-1.3334960800460358,-2.5260477701770228,6.112307536392965,1.0165499448776245,-5.453840974961416
1708436073.1318967,-2.1427834033966064,-1.3334875863841553,-2.526055399571554,6.112278926163473,1.0165528059005737,-5.453845326100485
1708436073.1339161,-2.14280366897583,-1.333439664249756,-2.526067558919088,6.112312066345968,1.0165736675262451,-5.453869585190908
1708436073.1359005,-2.1427619457244873,-1.3334918332150956,-2.526067558919088,6.112245905190267,1.016532063484192,-5.453856114541189
1708436073.1379154,-2.14274525642395,-1.3334594827941437,-2.526059691105978,6.112268435745992,1.0165529251098633,-5.453824583684103
1708436073.1399133,-2.142815113067627,-1.333504081969597,-2.526120726262228,6.112292396813192,1.0165647268295288,-5.453857604657308
1708436073.141936,-2.142799139022827,-1.3334552508643647,-2.5260794798480433,6.1122896549995325,1.0165603160858154,-5.453811172639028
1708436073.1439,-2.1427834033966064,-1.33347141862426,-2.526071850453512,6.112217652588644,1.016593337059021,-5.453820113335745
1708436073.1459022,-2.142796754837036,-1.333488480453827,-2.52605110803713,6.112210142403402,1.0165798664093018,-5.453869585190908
1708436073.1478984,-2.1427876949310303,-1.3334918332150956,-2.5260708967791956,6.112231123238363,1.0165648460388184,-5.453820113335745
1708436073.1498911,-2.1427834033966064,-1.3334756654552002,-2.5260794798480433,6.112272846489706,1.0165680646896362,-5.453824583684103
1708436073.1518877,-2.142747163772583,-1.333439664249756,-2.526095692311422,6.112249004631796,1.0166010856628418,-5.453806761895315
1708436073.1539202,-2.142747163772583,-1.3334790927222748,-2.5260663668261927,6.1121864197547815,1.016608476638794,-5.453818742428915
1708436073.155899,-2.14277982711792,-1.3334997457316895,-2.5260914007769983,6.112232672959127,1.016608476638794,-5.453853193913595
1708436073.15796,-2.142746925354004,-1.333484174018242,-2.526083771382467,6.112174498825826,1.0165709257125854,-5.453844253216879
1708436073.1598945,-2.142747163772583,-1.33351685226474,-2.5261152426349085,6.1121429083640955,1.0166414976119995,-5.453828934823171
1708436073.1619263,-2.142751455307007,-1.3334960800460358,-2.5261076132403772,6.112246143608846,1.0166325569152832,-5.453856114541189
1708436073.1639206,-2.1427481174468994,-1.3334875863841553,-2.5260828177081507,6.112171518593588,1.0166579484939575,-5.4538230935679834
1708436073.1658983,-2.1427605152130127,-1.33343060434375,-2.5260914007769983,6.112205850868978,1.016608476638794,-5.453815583382742
1708436073.1679103,-2.1427886486053467,-1.3334670972875138,-2.5260828177081507,6.112142789154806,1.0166369676589966,-5.453815583382742
1708436073.1699142,-2.1427435874938965,-1.3334960800460358,-2.5261152426349085,6.112147319107809,1.0166369676589966,-5.453856114541189
1708436073.1719172,-2.142760753631592,-1.3335041415742417,-2.5261314550982874,6.112163769989767,1.0166774988174438,-5.453885916863577
1708436073.1739638,-2.1427435874938965,-1.3335284006646653,-2.526144568120138,6.112114536553182,1.0166566371917725,-5.453844193612234
1708436073.1759036,-2.1426780223846436,-1.3334918481162568,-2.5260990301715296,6.112095224648275,1.0166369676589966,-5.453831974660055
1708436073.1779268,-2.1427481174468994,-1.333459497695305,-2.5261314550982874,6.112146007805624,1.016619086265564,-5.453830901776449
1708436073.1799242,-2.1427242755889893,-1.3334475618651886,-2.5260990301715296,6.112174260407247,1.0166101455688477,-5.453885916863577
1708436073.181912,-2.1427266597747803,-1.3335083437016984,-2.526144568120138,6.1121370671089075,1.016672968864441,-5.4538649956332605
1708436073.1839168,-2.1427037715911865,-1.3334756654552002,-2.5261314550982874,6.112104284554281,1.0166807174682617,-5.45385176340212
1708436073.1859026,-2.142744541168213,-1.3334714037230988,-2.52614409128298,6.112080085068502,1.0166926383972168,-5.453835431729452
1708436073.1879423,-2.14274001121521,-1.333519921903946,-2.5261152426349085,6.112080085068502,1.0167347192764282,-5.453881386910574
1708436073.189924,-2.142728567123413,-1.3335284006646653,-2.5261064211474817,6.11213384845809,1.0166763067245483,-5.45387697616686
1708436073.191902,-2.142695903778076,-1.3334799122861405,-2.5261109511004847,6.112092363625326,1.0166971683502197,-5.453860584889547
1708436073.1939166,-2.142728567123413,-1.3334799271873017,-2.5261228720294397,6.112068164139547,1.016701579093933,-5.453844193612234
1708436073.1959057,-2.142726182937622,-1.3334756654552002,-2.5261808077441614,6.112101304322042,1.016716718673706,-5.45381868282427
1708436073.1979184,-2.142737627029419,-1.3334680062583466,-2.5261271635638636,6.112089144974508,1.016709327697754,-5.45387697616686
1708436073.1999187,-2.142670154571533,-1.3334756654552002,-2.5261064211474817,6.112113225250997,1.0167421102523804,-5.453881386910574
1708436073.2019062,-2.142749071121216,-1.3334509295276185,-2.526135269795553,6.112056243210592,1.016683578491211,-5.453869585190908
1708436073.2039218,-2.1426632404327393,-1.333439053302147,-2.526135269795553,6.112030851631918,1.0166914463043213,-5.453851823006765
1708436073.205986,-2.142665147781372,-1.3334475618651886,-2.526151482258932,6.112015712052145,1.0167584419250488,-5.453868095074789
1708436073.2079587,-2.142667531967163,-1.3334766042283555,-2.5261264483081263,6.112077224045553,1.0167330503463745,-5.453827563916342
1708436073.2099304,-2.142709255218506,-1.3334347170642395,-2.526151482258932,6.112081634789266,1.0167449712753296,-5.453868154679434
1708436073.2119172,-2.1426517963409424,-1.333467112188675,-2.526167694722311,6.1120276329811,1.0167195796966553,-5.453872505818502
1708436073.2139432,-2.142634868621826,-1.3334347617677231,-2.5261719862567347,6.112057912140646,1.0167665481567383,-5.453872505818502
1708436073.2159312,-2.142674446105957,-1.33347141862426,-2.5261927286731165,6.1120276329811,1.016757607460022,-5.4538795987712305
1708436073.2179787,-2.142639398574829,-1.3334594827941437,-2.526151482258932,6.112029301911154,1.0167620182037354,-5.453863565121786
1708436073.2199323,-2.142656087875366,-1.3334766042283555,-2.526187245045797,6.112032162934103,1.0167405605316162,-5.453844193612234
1708436073.2218952,-2.142648220062256,-1.3334756654552002,-2.5261548201190394,6.111991989403524,1.0167768001556396,-5.453835431729452
1708436073.2239306,-2.142656087875366,-1.3334594827941437,-2.526159111653463,6.111980068474569,1.0166987180709839,-5.453868154679434
1708436073.225917,-2.142681121826172,-1.3334637445262452,-2.5262003580676478,6.112041222840109,1.0167286396026611,-5.453884188328878
1708436073.2279315,-2.142643690109253,-1.333439664249756,-2.5261383692370813,6.112029301911154,1.0167449712753296,-5.453856114541189
1708436073.229911,-2.142669677734375,-1.333431066279747,-2.5261340777026575,6.112045633583822,1.0167739391326904,-5.45385176340212
1708436073.231918,-2.142660617828369,-1.3334799271873017,-2.526195828114645,6.11204885223464,1.016769289970398,-5.453897420560018
1708436073.233955,-2.142688035964966,-1.3334594827941437,-2.5261548201190394,6.1119844792182825,1.016781210899353,-5.45389295021166
1708436073.235909,-2.142627000808716,-1.3334799122861405,-2.526203457509176,6.112021791725912,1.016722559928894,-5.453884188328878
1708436073.2379503,-2.142652750015259,-1.3335083437016984,-2.5261946360217493,6.1120009301002405,1.0168020725250244,-5.453884188328878
1708436073.2398903,-2.1426570415496826,-1.3334637445262452,-2.5261383692370813,6.112007009774008,1.016785740852356,-5.453888539467947
1708436073.2418704,-2.1426403522491455,-1.33345182359729,-2.526187245045797,6.1119964001472376,1.0167603492736816,-5.453891877328054
1708436073.2439115,-2.1425633430480957,-1.3334268045476456,-2.526191536580221,6.11201428154067,1.016800880432129,-5.453897480164663
1708436073.2458992,-2.1425657272338867,-1.3334680062583466,-2.526187245045797,6.111956226616659,1.0168143510818481,-5.453863565121786
1708436073.2479255,-2.142578125,-1.3334439259818573,-2.5261502901660364,6.111993419914999,1.016800880432129,-5.45390093723406
1708436073.2499218,-2.1425790786743164,-1.333484174018242,-2.5261786619769495,6.111965167313375,1.0167604684829712,-5.453905288373129
1708436073.2519097,-2.142608404159546,-1.3334637445262452,-2.5261622110949915,6.111920106201925,1.0167678594589233,-5.453884188328878
1708436073.253918,-2.1425676345825195,-1.3334885251573105,-2.5262046496020716,6.111941087036886,1.0168261528015137,-5.45387697616686
1708436073.255917,-2.1426243782043457,-1.333484174018242,-2.526187245045797,6.111929166107931,1.0168249607086182,-5.453917268906729
1708436073.2579443,-2.1426262855529785,-1.333431066279747,-2.526187245045797,6.111966836243429,1.0167768001556396,-5.4538795987712305
1708436073.2598982,-2.1426289081573486,-1.33345182359729,-2.5262113253222864,6.111965167313375,1.0167887210845947,-5.453888599072592
1708436073.2618918,-2.1426377296447754,-1.333439053302147,-2.5261786619769495,6.111965167313375,1.0167587995529175,-5.453884188328878
1708436073.263905,-2.1425914764404297,-1.3334148836186905,-2.5261948744403284,6.111936557083883,1.0167964696884155,-5.453896347676412
1708436073.265912,-2.1426050662994385,-1.3334799271873017,-2.5261667410479944,6.111965167313375,1.0167964696884155,-5.453888539467947
1708436073.2679434,-2.1425747871398926,-1.333484174018242,-2.5261829535113733,6.111945497780599,1.016812801361084,-5.453854743634359
1708436073.26991,-2.1425790786743164,-1.333496094947197,-2.526264731084005,6.111845481186666,1.0167797803878784,-5.453884188328878
1708436073.2719,-2.1426093578338623,-1.3334637445262452,-2.5261903444873255,6.111962306290426,1.0168715715408325,-5.453905228768484
1708436073.2739172,-2.1426174640655518,-1.333496094947197,-2.5262320677386683,6.111950027733602,1.0168416500091553,-5.453856114541189
1708436073.2758977,-2.1425766944885254,-1.3334766191295166,-2.5261829535113733,6.111926305084982,1.0167828798294067,-5.453908209000723
1708436073.2778928,-2.1426186561584473,-1.3334637743285676,-2.5261786619769495,6.111891615181722,1.0168626308441162,-5.453888539467947
1708436073.279911,-2.1426141262054443,-1.3335241985372086,-2.5261903444873255,6.111921775131979,1.0168249607086182,-5.453896347676412
1708436073.2818964,-2.1425836086273193,-1.33345182359729,-2.526220146809713,6.111962306290426,1.0168743133544922,-5.453896347676412
1708436073.2839246,-2.1426141262054443,-1.3334680062583466,-2.5262277762042444,6.111938226013937,1.0168579816818237,-5.453945759926931
1708436073.2858927,-2.142551898956299,-1.3334637445262452,-2.5262604395495813,6.111839520722189,1.016828179359436,-5.453900877629415
1708436073.2878857,-2.1426050662994385,-1.333459497695305,-2.526214663182394,6.1119634983833215,1.016832709312439,-5.453921620045797
1708436073.2899022,-2.14255952835083,-1.3334918481162568,-2.5262680689441126,6.11184715011672,1.0168204307556152,-5.453872505818502
1708436073.2918987,-2.1425766944885254,-1.3334475618651886,-2.526181761418478,6.111875164299764,1.0168534517288208,-5.453884188328878
1708436073.2939055,-2.1425507068634033,-1.3334148836186905,-2.5262070337878626,6.111893164902487,1.0168401002883911,-5.453900877629415
1708436073.2959116,-2.14255952835083,-1.3334756654552002,-2.5262070337878626,6.111877071648397,1.0168683528900146,-5.453879658375875
1708436073.2979012,-2.142551898956299,-1.3334561598351975,-2.5261860529529017,6.111856210022726,1.0168744325637817,-5.453875247632162
1708436073.299921,-2.1425814628601074,-1.3334594827941437,-2.5262323061572474,6.1118695614631555,1.0168237686157227,-5.453893009816305
1708436073.301912,-2.1425552368164062,-1.3334234815886994,-2.5262723604785364,6.111877071648397,1.0168401002883911,-5.453835431729452
1708436073.3039432,-2.1425766944885254,-1.3334594827941437,-2.5262156168567103,6.111893164902487,1.0168818235397339,-5.453896347676412
1708436073.3059196,-2.1425721645355225,-1.3334347170642395,-2.5262070337878626,6.111881482392111,1.0168565511703491,-5.453887466584341
1708436073.3079867,-2.142531633377075,-1.3334680062583466,-2.5262561480151575,6.111872660904684,1.016844630241394,-5.453882936631338
1708436073.3099866,-2.1425814628601074,-1.3334799271873017,-2.526219193135397,6.111865031510153,1.0168520212173462,-5.453933600579397
1708436073.3119338,-2.142568826675415,-1.3334637445262452,-2.526198212300436,6.111860739975729,1.0168728828430176,-5.453844253216879
1708436073.3139217,-2.1425881385803223,-1.3335046929172059,-2.526193920766012,6.111860739975729,1.0168728828430176,-5.453879658375875
1708436073.315909,-2.14253830909729,-1.33345182359729,-2.5262518564807337,6.1118975756462,1.0168728828430176,-5.453888539467947
1708436073.3178923,-2.1425721645355225,-1.333431066279747,-2.5262473265277308,6.111860739975729,1.0168520212173462,-5.453905228768484
1708436073.3198993,-2.142564296722412,-1.3334561598351975,-2.526219193135397,6.111905085831442,1.0168565511703491,-5.453909699116842
1708436073.3218946,-2.14253830909729,-1.3334475618651886,-2.5262473265277308,6.1118975756462,1.016844630241394,-5.453942481671469
1708436073.3239007,-2.142533779144287,-1.3334268045476456,-2.526259247456686,6.111839520722189,1.0168683528900146,-5.453891936932699
1708436073.3258996,-2.1425812244415283,-1.3334433150342484,-2.5262919108020228,6.111860739975729,1.0168565511703491,-5.453962210808889
1708436073.3279622,-2.1425721645355225,-1.3334433150342484,-2.526243034993307,6.111881482392111,1.0168355703353882,-5.453879658375875
1708436073.3298962,-2.1425857543945312,-1.333419145350792,-2.5262680689441126,6.111927497177877,1.0168850421905518,-5.453903798257009
1708436073.3318996,-2.1425607204437256,-1.3334918481162568,-2.5262516180621546,6.111893164902487,1.0168850421905518,-5.453924600278036
1708436073.3339117,-2.142531394958496,-1.3334353280118485,-2.5262635389911097,6.111850011139669,1.0169135332107544,-5.453887466584341
1708436073.3359287,-2.142568826675415,-1.3334918481162568,-2.5262473265277308,6.1118740914161584,1.0168728828430176,-5.453879658375875
1708436073.3379197,-2.1425812244415283,-1.3334766042283555,-2.52627140680422,6.111856210022726,1.0168895721435547,-5.453912738953726
1708436073.3399312,-2.142540454864502,-1.3334680062583466,-2.5262354055987757,6.111845481186666,1.0169017314910889,-5.453920189534323
1708436073.3418837,-2.142577648162842,-1.3334875863841553,-2.5262680689441126,6.1118905422981165,1.0169135332107544,-5.453933660184042
1708436073.3438938,-2.1425552368164062,-1.3334475618651886,-2.5262518564807337,6.111841070442953,1.0169225931167603,-5.453932289277212
1708436073.34589,-2.142564296722412,-1.3334594827941437,-2.526226584111349,6.111841070442953,1.0169135332107544,-5.453953329716818
1708436073.3479,-2.142568826675415,-1.333431066279747,-2.5262354055987757,6.111881482392111,1.0169135332107544,-5.45389295021166
1708436073.349901,-2.142568826675415,-1.333419145350792,-2.526219193135397,6.111878621369161,1.0168927907943726,-5.453933600579397
1708436073.3518884,-2.142559766769409,-1.3334353280118485,-2.526259247456686,6.111833560257711,1.0168715715408325,-5.453929130231039
1708436073.3539104,-2.142551898956299,-1.3334561598351975,-2.526259247456686,6.111845481186666,1.0169345140457153,-5.453899327908651
1708436073.355896,-2.1425564289093018,-1.3334439259818573,-2.5262473265277308,6.111870753556051,1.0168850421905518,-5.453894857560293
1708436073.3579013,-2.142535924911499,-1.3334680062583466,-2.5262799898730677,6.111808287888326,1.016893982887268,-5.453944269810812
1708436073.3599086,-2.142535924911499,-1.3334680062583466,-2.5262628237353724,6.11181269863204,1.0169254541397095,-5.453866247330801
1708436073.361918,-2.142590284347534,-1.333472342496254,-2.526259247456686,6.111817228585043,1.0169135332107544,-5.4539693037616175
1708436073.3638878,-2.142507553100586,-1.3335046929172059,-2.5262354055987757,6.111824619560995,1.0168761014938354,-5.45394874015917
1708436073.3658845,-2.142547369003296,-1.333439664249756,-2.526243034993307,6.1118740914161584,1.0169180631637573,-5.453955952321188
1708436073.3679218,-2.1425652503967285,-1.3335003566792984,-2.526226584111349,6.111854421883383,1.0169017314910889,-5.453932348881857
1708436073.369889,-2.142490863800049,-1.3334680062583466,-2.5262518564807337,6.111782419472494,1.0168761014938354,-5.453935448323385
1708436073.37189,-2.142568826675415,-1.333418221478798,-2.5262635389911097,6.111824619560995,1.016921043395996,-5.453960303460256
1708436073.3739138,-2.142544984817505,-1.333484174018242,-2.5262473265277308,6.111830699234762,1.0169254541397095,-5.453958872948782
1708436073.3758733,-2.142519950866699,-1.333439053302147,-2.5262308756457728,6.111800420075216,1.0168882608413696,-5.453946952019827
1708436073.377923,-2.142577648162842,-1.3334637445262452,-2.5262354055987757,6.111800420075216,1.016921043395996,-5.45399642387499
1708436073.3798933,-2.142564296722412,-1.3334756654552002,-2.526254955922262,6.111824619560995,1.0169299840927124,-5.453987483178274
1708436073.3819144,-2.1425492763519287,-1.3334680062583466,-2.526259247456686,6.111861812859335,1.0168715715408325,-5.45399642387499
1708436073.3839128,-2.1426150798797607,-1.3334960502437134,-2.5262518564807337,6.111829149513998,1.0169422626495361,-5.454002145920889
1708436073.3859394,-2.142524480819702,-1.3335126054337998,-2.5262845198260706,6.111817228585043,1.0168837308883667,-5.4540486375438135
1708436073.387908,-2.142529010772705,-1.333472342496254,-2.526275698338644,6.111824619560995,1.0168761014938354,-5.454035166894094
1708436073.3899128,-2.142568826675415,-1.3334680062583466,-2.52627140680422,6.111842620163717,1.0169345140457153,-5.454047087823049
1708436073.3919294,-2.1425492763519287,-1.3335046929172059,-2.526243034993307,6.111796009331503,1.0169377326965332,-5.454096202050344
1708436073.3939145,-2.142540454864502,-1.333496094947197,-2.5262799898730677,6.111817109375753,1.0169466733932495,-5.454132322465078
1708436073.3958952,-2.142544984817505,-1.3334433150342484,-2.526259247456686,6.111821639328756,1.016875982284546,-5.454054598008291
1708436073.397913,-2.142573118209839,-1.3334353280118485,-2.5262518564807337,6.111826169281759,1.016909122467041,-5.45413971344103
1708436073.3999012,-2.142544984817505,-1.333484174018242,-2.5262234846698206,6.11184703090743,1.0169254541397095,-5.454151634369985
1708436073.4019098,-2.142551898956299,-1.3334637445262452,-2.526243034993307,6.111763226776876,1.0169557332992554,-5.454171005879537
1708436073.4039283,-2.1425609588623047,-1.3334063750556489,-2.5262845198260706,6.111804950028219,1.0168927907943726,-5.454142693673269
1708436073.4059224,-2.142512083053589,-1.3335003119758149,-2.5262299219714563,6.111760604172506,1.0169135332107544,-5.454194847737448
1708436073.4079792,-2.142512083053589,-1.3334552359632035,-2.526267115269796,6.111788499146261,1.0168670415878296,-5.4542394320117396
1708436073.4099624,-2.142503261566162,-1.3334561598351975,-2.526254955922262,6.11176763752059,1.0169377326965332,-5.454235080872671
1708436073.411927,-2.1424996852874756,-1.333496094947197,-2.526259247456686,6.111773955612936,1.016909122467041,-5.454275612031118
1708436073.413896,-2.142551898956299,-1.3334766042283555,-2.5262635389911097,6.111806380539694,1.0168882608413696,-5.454299334679739
1708436073.4159186,-2.1425607204437256,-1.3334603917649765,-2.52621037164797,6.111785638123312,1.016897201538086,-5.454318765793936
1708436073.417894,-2.142516613006592,-1.33345182359729,-2.5262461344348353,6.111831772118368,1.0169165134429932,-5.454351786767141
1708436073.4198928,-2.142549514770508,-1.3334766042283555,-2.526238743458883,6.111752736359396,1.0168805122375488,-5.4543262163745325
1708436073.421889,-2.1425740718841553,-1.3334518384984513,-2.5262680689441126,6.111752855568685,1.0168761014938354,-5.454350296651022
1708436073.4239259,-2.1425492763519287,-1.3334268045476456,-2.5263217131244105,6.111736404686727,1.0168927907943726,-5.4544304052936
1708436073.425905,-2.142516613006592,-1.3334637594274064,-2.5262919108020228,6.111761796265402,1.0169047117233276,-5.454421583806173
1708436073.427919,-2.1425042152404785,-1.333451808696129,-2.526259247456686,6.11175428608016,1.0169512033462524,-5.4544530550586146
1708436073.4299057,-2.1424882411956787,-1.333439053302147,-2.526254955922262,6.111787545471945,1.0169254541397095,-5.4545021692859095
1708436073.431912,-2.1425538063049316,-1.333439664249756,-2.5262518564807337,6.11171709278182,1.0169047117233276,-5.454554680977957
1708436073.4339137,-2.1425254344940186,-1.3334320050529023,-2.526287619267599,6.111709344177999,1.0169377326965332,-5.454521958027975
1708436073.4359102,-2.142529010772705,-1.333439664249756,-2.526238743458883,6.111718404084005,1.016897201538086,-5.454539481793539
1708436073.4379163,-2.142479419708252,-1.3334115606597443,-2.5262473265277308,6.111755955010214,1.0169047117233276,-5.454622034226553
1708436073.4399135,-2.1424803733825684,-1.33345182359729,-2.5262680689441126,6.111713874131002,1.0169299840927124,-5.454608682786123
1708436073.4418821,-2.1425302028656006,-1.333484174018242,-2.5262680689441126,6.111715543061056,1.0169135332107544,-5.454660717641012
1708436073.443887,-2.1425087451934814,-1.3334353280118485,-2.526226584111349,6.111670362740316,1.0169119834899902,-5.454624716435568
1708436073.445928,-2.142479419708252,-1.3334073585322876,-2.5262723604785364,6.111679422646322,1.0169466733932495,-5.454730753098623
1708436073.4479003,-2.1425302028656006,-1.333439664249756,-2.5263007322894495,6.111682402878561,1.0169017314910889,-5.454692010079519
1708436073.4498887,-2.1424384117126465,-1.3334927719882508,-2.5262845198260706,6.1116957543189905,1.016921043395996,-5.454741183911459
1708436073.4519606,-2.1424474716186523,-1.333419145350792,-2.526243034993307,6.111683833390035,1.0169135332107544,-5.454793218766348
1708436073.453894,-2.142472505569458,-1.3334969592145463,-2.5263007322894495,6.111592876702108,1.016909122467041,-5.45477539697756
1708436073.4558914,-2.1424429416656494,-1.333435372715332,-2.526250664387838,6.1116912243659876,1.0169047117233276,-5.45483231941332
1708436073.457943,-2.1424520015716553,-1.3334439259818573,-2.52627140680422,6.111601936608114,1.0169541835784912,-5.454889122639791
1708436073.459886,-2.142461061477661,-1.3334679913571854,-2.5262723604785364,6.111577737122335,1.0169495344161987,-5.4549055139171045
1708436073.4618943,-2.142472505569458,-1.3334680062583466,-2.526287619267599,6.111562835961141,1.0169299840927124,-5.454920474682943
1708436073.4638875,-2.142489433288574,-1.333403007393219,-2.526243034993307,6.111495721131124,1.0168927907943726,-5.455020491276876
1708436073.4659352,-2.1424520015716553,-1.33345182359729,-2.5262845198260706,6.111525523453512,1.016921043395996,-5.455002609883444
1708436073.4679317,-2.1424813270568848,-1.3334268045476456,-2.526287619267599,6.111527192383566,1.0168882608413696,-5.455035690461294
1708436073.4699147,-2.142437219619751,-1.3334191900542756,-2.526226584111349,6.111484992295065,1.0169135332107544,-5.4550878445254725
1708436073.4719079,-2.1423885822296143,-1.3334277433208008,-2.5262635389911097,6.111440408020773,1.0169299840927124,-5.455107514058248
1708436073.4739158,-2.142408847808838,-1.3334439259818573,-2.5262418429004114,6.111444818764486,1.0168882608413696,-5.455196801816122
1708436073.475915,-2.142392873764038,-1.333439664249756,-2.526259247456686,6.1114210961158655,1.0168882608413696,-5.4552269021617334
1708436073.4779222,-2.1423680782318115,-1.333419145350792,-2.526243034993307,6.111474740296163,1.0169377326965332,-5.455253724251882
1708436073.4799376,-2.1423656940460205,-1.33345182359729,-2.526275698338644,6.111431467324056,1.0169345140457153,-5.455298666154043
1708436073.481927,-2.1423399448394775,-1.3334885251573105,-2.5263174215899866,6.111344682961263,1.016897201538086,-5.455388013516561
1708436073.4839268,-2.1423451900482178,-1.3334766042283555,-2.526259247456686,6.111395585327902,1.0169135332107544,-5.455426994954244
1708436073.4859128,-2.1422548294067383,-1.333484174018242,-2.526280228291647,6.111380684166708,1.0169390439987183,-5.455491427575247
1708436073.487936,-2.142305612564087,-1.333423451786377,-2.526292149220602,6.111322271614828,1.016909122467041,-5.455518488083975
1708436073.4899235,-2.1422860622406006,-1.3334637445262452,-2.5262461344348353,6.111344682961263,1.0169254541397095,-5.455569152032034
1708436073.4919202,-2.142244577407837,-1.3334310811809083,-2.5262954870807093,6.111311900406637,1.0169119834899902,-5.455605093632833
1708436073.493947,-2.1422295570373535,-1.3334637445262452,-2.526299778615133,6.111217605858602,1.0169377326965332,-5.455652777348654
1708436073.4959135,-2.142200231552124,-1.3334756952575226,-2.526250664387838,6.1111864922340295,1.0169165134429932,-5.455712381993429
1708436073.497942,-2.14216947555542,-1.333504707818367,-2.526348654423849,6.1111217615898035,1.0169614553451538,-5.45581835905184
1708436073.499921,-2.1421544551849365,-1.333516926770546,-2.5262954870807093,6.111077415734091,1.0169570446014404,-5.455820147191183
1708436073.501922,-2.142077684402466,-1.3334268045476456,-2.5263074080096644,6.111111509590902,1.0169782638549805,-5.455872599278585
1708436073.5039532,-2.142050266265869,-1.3334552657655259,-2.5262823740588587,6.111083137779989,1.0169858932495117,-5.4559935371028345
1708436073.50594,-2.1419970989227295,-1.3334679913571854,-2.5263031164752405,6.111051904946127,1.0170141458511353,-5.456057552491323
1708436073.5079877,-2.1419360637664795,-1.3334960800460358,-2.5263150374041956,6.111023175507345,1.0169813632965088,-5.456005279217855
1708436073.509918,-2.141982316970825,-1.3334508848241349,-2.5263641516314905,6.110962140351095,1.0170336961746216,-5.456169788037435
1708436073.5119,-2.1419007778167725,-1.333479882483818,-2.5263388792621058,6.1109681008155725,1.0170550346374512,-5.456223491822378
1708436073.5139554,-2.141812324523926,-1.3334875714829941,-2.526391331349508,6.110911118775167,1.0170488357543945,-5.456256453190939
1708436073.5159128,-2.141756772994995,-1.33353607476268,-2.5264273325549524,6.110832083016195,1.0171271562576294,-5.456326786671774
1708436073.5179486,-2.1417622566223145,-1.3335361194661637,-2.5264645258532923,6.1107989428337,1.017171859741211,-5.4563743511783045
1708436073.5199146,-2.141686201095581,-1.3335233491710206,-2.5265241304980677,6.110677945404806,1.0171661376953125,-5.45651609102358
1708436073.5219166,-2.1416146755218506,-1.3334705543569108,-2.5265124479876917,6.110704886704244,1.0171735286712646,-5.456555191670553
1708436073.523907,-2.141556978225708,-1.3335147512010117,-2.526511255894796,6.110656964569845,1.017209768295288,-5.456655565892355
1708436073.5259116,-2.1415014266967773,-1.3335233342698594,-2.5265842119800013,6.110531079560079,1.0172502994537354,-5.45670319000353
1708436073.5279112,-2.141406297683716,-1.333604858522751,-2.526649777089254,6.110464203148641,1.0173356533050537,-5.4567612449275416
1708436073.5298905,-2.1413064002990723,-1.3335995984128495,-2.5266690889941614,6.110392558365621,1.0173312425613403,-5.456804756318228
1708436073.5318983,-2.141197443008423,-1.3335953664830704,-2.526640001927511,6.110259520798483,1.017370343208313,-5.456925932561056
1708436073.533907,-2.141122579574585,-1.3336396229318161,-2.526694361363546,6.110172974854269,1.0173778533935547,-5.45694071451296
1708436073.535932,-2.140990734100342,-1.3336711090854187,-2.526727263127462,6.110072719841757,1.0174381732940674,-5.457057301198141
1708436073.5378997,-2.140913963317871,-1.3337319654277344,-2.5267751852618616,6.1099737761314294,1.0174832344055176,-5.457099262868063
1708436073.5399413,-2.140789270401001,-1.333702878361084,-2.526811424885885,6.109836447029867,1.0174953937530518,-5.4572365323649805
1708436073.541894,-2.1406757831573486,-1.3337717813304444,-2.5268808046924036,6.109697329788961,1.0174938440322876,-5.45729643503298
1708436073.5438898,-2.1405553817749023,-1.3337505620769043,-2.5268753210650843,6.109511720925131,1.017531394958496,-5.457400921975271
1708436073.5459065,-2.140390157699585,-1.333761752848961,-2.5269323031054896,6.109426486283102,1.0175868272781372,-5.457451526318685
1708436073.547909,-2.140249729156494,-1.3338149797967453,-2.5269671122180384,6.1092519638831995,1.0176396369934082,-5.45753521123995
1708436073.5499268,-2.1400907039642334,-1.333810643558838,-2.5270031134234827,6.109068143158712,1.017711877822876,-5.457634274159567
1708436073.5518997,-2.1399407386779785,-1.33389504373584,-2.527083937321798,6.108876693039694,1.0178093910217285,-5.457730833684103
1708436073.5539427,-2.139801025390625,-1.333881289964058,-2.5271437803851526,6.108643400460043,1.0178438425064087,-5.457753543053762
1708436073.5559018,-2.1395633220672607,-1.3339342933944245,-2.527224604283468,6.108474719315328,1.0179446935653687,-5.457891229783193
1708436073.5578973,-2.139375925064087,-1.3340146404555817,-2.527214829121725,6.108236777573385,1.0179880857467651,-5.4579624573337
1708436073.55992,-2.1392171382904053,-1.3340264868787308,-2.5272629896747034,6.108047354012289,1.018093466758728,-5.458025340233938
1708436073.561882,-2.1389970779418945,-1.3340495389750977,-2.5273597876178187,6.107821094780721,1.0181609392166138,-5.458137337361471
1708436073.5639157,-2.1387851238250732,-1.334052951341011,-2.527468744908468,6.107583629875936,1.0182826519012451,-5.4582165519343775
1708436073.5658875,-2.1385297775268555,-1.3341296923211594,-2.527499500905172,6.1072847721870325,1.0183742046356201,-5.458309117947714
1708436073.5679178,-2.1382241249084473,-1.3342057329467316,-2.5275548140155237,6.106984007149496,1.0185065269470215,-5.458381001149313
1708436073.5699072,-2.138051986694336,-1.3342409890941163,-2.527672831212179,6.10672544220046,1.0186553001403809,-5.4584587256061
1708436073.5718832,-2.1377062797546387,-1.3342767518809815,-2.5277438799487513,6.106455075531759,1.0187757015228271,-5.458497826253073
1708436073.573942,-2.1374590396881104,-1.334304766064026,-2.527868096028463,6.106088864594259,1.0188374519348145,-5.4586220423327845
1708436073.5758958,-2.1371190547943115,-1.3343523156693955,-2.5279646555529993,6.105869042664327,1.0189409255981445,-5.458730940018789
1708436073.577897,-2.1368601322174072,-1.3344689917615433,-2.5280326048480433,6.1055524227912805,1.019164800643921,-5.458835486565725
1708436073.5799036,-2.136536121368408,-1.3344640892795105,-2.5280960241900843,6.105243074684896,1.0192729234695435,-5.458877269421713
1708436073.5818963,-2.1362550258636475,-1.3345238429358979,-2.528196398411886,6.104878055840292,1.0194171667099,-5.458972815667288
1708436073.5839367,-2.135927677154541,-1.3346447211555024,-2.528361145650045,6.104566919594564,1.019546389579773,-5.4590805808650416
1708436073.5859015,-2.1356046199798584,-1.3347155761769791,-2.5284081141101282,6.1041756747062585,1.0196563005447388,-5.459217909966604
1708436073.5879056,-2.1351866722106934,-1.3348001700690766,-2.528548542653219,6.103797423630514,1.0198997259140015,-5.459301475678579
1708436073.589932,-2.1348414421081543,-1.3348596853068848,-2.52867299715151,6.103393661766805,1.0200395584106445,-5.459360007439749
1708436073.591913,-2.1343932151794434,-1.334931657915451,-2.528803888951437,6.102928626328268,1.0201853513717651,-5.4595214168178
1708436073.5939238,-2.1339666843414307,-1.3349993985942383,-2.528952185307638,6.10250877121047,1.020419716835022,-5.459600690995352
1708436073.5959082,-2.133608102798462,-1.3351034981063385,-2.5290642420398157,6.102101909905233,1.0205955505371094,-5.459712211285726
1708436073.597895,-2.133193016052246,-1.3351510775140305,-2.529208485280172,6.101675855904379,1.0207597017288208,-5.459766511117117
1708436073.5999203,-2.132730007171631,-1.3352101159146805,-2.5293729940997522,6.101151215821066,1.0209848880767822,-5.459808293973104
1708436073.6018996,-2.132305383682251,-1.3352531355670472,-2.5295572916613978,6.100702988892355,1.021202564239502,-5.459929410611288
1708436073.6039295,-2.131788730621338,-1.3354020875743409,-2.5296674410449427,6.100083696633138,1.0214433670043945,-5.460097912942068
1708436073.605916,-2.1312806606292725,-1.3354647022536774,-2.52990967432131,6.099556195526876,1.0216625928878784,-5.460132483636038
1708436073.6079962,-2.130772590637207,-1.3356702339700242,-2.5300686995135706,6.099031913071432,1.0219647884368896,-5.460265700017111
1708436073.6099415,-2.13025164604187,-1.335733027463295,-2.5302773157702845,6.098439919739523,1.022262454032898,-5.460352305565969
1708436073.6120114,-2.1297266483306885,-1.3358523112586518,-2.5304811636554163,6.097877371102133,1.0224924087524414,-5.460477415715353
1708436073.613968,-2.1291303634643555,-1.335947499876358,-2.53066856065859,6.09732876995162,1.0227371454238892,-5.460567299519674
1708436073.6159642,-2.1285829544067383,-1.3360387843898316,-2.5309019724475306,6.096651780396261,1.022982120513916,-5.460679296647207
1708436073.6179273,-2.1280176639556885,-1.3362399947694321,-2.5310731569873255,6.096027123719015,1.023201584815979,-5.460786763821737
1708436073.6199148,-2.1273324489593506,-1.3363716018250962,-2.5312772432910364,6.095339405327596,1.0235141515731812,-5.460940603409902
1708436073.6219153,-2.1267476081848145,-1.3364460182240983,-2.5315142313586634,6.094657766609945,1.0238778591156006,-5.460981372986929
1708436073.6239495,-2.1260628700256348,-1.3366830509952088,-2.531769100819723,6.094013440399923,1.0241978168487549,-5.461162034665243
1708436073.6258984,-2.1254098415374756,-1.336744712000229,-2.532062355672018,6.093271958618917,1.0245721340179443,-5.461302582417623
1708436073.6279192,-2.124673843383789,-1.3368644726327439,-2.5322566668139856,6.0925259468849084,1.0248831510543823,-5.461389366780416
1708436073.6299095,-2.123960018157959,-1.337036372428276,-2.53257400194277,6.091685282974996,1.0252691507339478,-5.461489442978994
1708436073.6319,-2.1232516765594482,-1.3371914786151429,-2.532830063496725,6.090917813568868,1.0255593061447144,-5.461611572896139
1708436073.6339138,-2.1225645542144775,-1.3373189878514786,-2.5330942312823694,6.090107548027792,1.025983452796936,-5.461714748536245
1708436073.6359036,-2.1217880249023438,-1.3375639927438279,-2.5333572069751185,6.0892971632774255,1.026379942893982,-5.461876038705007
1708436073.637919,-2.1209824085235596,-1.3376545172980805,-2.533665959035055,6.088468539505758,1.0267348289489746,-5.461958293114797
1708436073.6399271,-2.1201438903808594,-1.3378444176963349,-2.5339577833758753,6.087534415512838,1.0271146297454834,-5.462110642586843
1708436073.6419199,-2.119356632232666,-1.3379610192826767,-2.5342569986926478,6.086647379189291,1.0275163650512695,-5.462218169366018
1708436073.6439059,-2.1184864044189453,-1.3382120591453095,-2.534598175679342,6.0857043144996545,1.0279837846755981,-5.462340895329611
1708436073.645899,-2.1176035404205322,-1.3383794736913224,-2.534893814717428,6.084824788361349,1.028437614440918,-5.462488655244009
1708436073.6479018,-2.1167421340942383,-1.338479907517769,-2.535278622304098,6.083746301918783,1.028845191001892,-5.462633673344747
1708436073.649904,-2.1158194541931152,-1.3387204867652436,-2.5355656782733362,6.082748400955953,1.0292686223983765,-5.462756041680471
1708436073.6518993,-2.114903211593628,-1.3389369708350678,-2.5359743277179163,6.081702458649435,1.0297545194625854,-5.462957564984457
1708436073.6539025,-2.1139280796051025,-1.3390953999808808,-2.5363031069384974,6.080622780113973,1.0301663875579834,-5.463067118321554
1708436073.6558998,-2.1129493713378906,-1.3392495822957535,-2.5366137663470667,6.079627263336935,1.030704379081726,-5.463186744843618
1708436073.6579044,-2.111924171447754,-1.3395021271756669,-2.536978308354513,6.078613745957174,1.0311570167541504,-5.463341776524679
1708436073.6599064,-2.110948085784912,-1.3397023242763062,-2.5373857657061976,6.077460038452902,1.031698226928711,-5.463510338460104
1708436073.6618905,-2.109968423843384,-1.3398967546275635,-2.5377946535693567,6.0763763068015955,1.0322521924972534,-5.463584129010336
1708436073.663928,-2.108919858932495,-1.3401087087443848,-2.5381413141833704,6.075222599297323,1.0327730178833008,-5.463757161294119
1708436073.6659055,-2.1077911853790283,-1.3402824264815827,-2.5385547319995325,6.074034082680502,1.0332777500152588,-5.4638471643077295
1708436073.6679118,-2.106684446334839,-1.3405303221992035,-2.5389331022845667,6.072793471604147,1.0338889360427856,-5.4640607873546045
1708436073.669901,-2.105530023574829,-1.3407260787538071,-2.539349619542257,6.071615445404806,1.0343999862670898,-5.464227680359976
1708436073.6720452,-2.104454278945923,-1.340998352771141,-2.5398505369769495,6.0703704235847376,1.0349453687667847,-5.46431798139681
1708436073.6739082,-2.103303909301758,-1.341222734456398,-2.5401926676379603,6.069148647576132,1.0355390310287476,-5.464468602334158
1708436073.6759045,-2.1021103858947754,-1.341451035147049,-2.540694777165548,6.067869412689962,1.036099910736084,-5.464649323617117
1708436073.677896,-2.1009442806243896,-1.3416825246861954,-2.541142527257101,6.066636788636007,1.0367213487625122,-5.464821461831228
1708436073.679912,-2.099745750427246,-1.3419250559857865,-2.5415776411639612,6.065295088082113,1.0373083353042603,-5.464943770562307
1708436073.6818993,-2.0985026359558105,-1.3422013235143204,-2.5420711676227015,6.063982593804159,1.0379877090454102,-5.465091888104574
1708436073.6839094,-2.0972189903259277,-1.3423909556916733,-2.5425060431109827,6.06266616561965,1.0385831594467163,-5.4652667085277
1708436073.6859107,-2.096039295196533,-1.3427197349122544,-2.543051783238546,6.061379182129659,1.0392364263534546,-5.465438191090719
1708436073.6879096,-2.0947628021240234,-1.3429755431464692,-2.543494526539938,6.05998848655776,1.0399022102355957,-5.4655837456332605
1708436073.6899428,-2.0934901237487793,-1.3431804788163682,-2.543934170399801,6.058557498245992,1.0405354499816895,-5.465783361588613
1708436073.691908,-2.0921413898468018,-1.3435227882913132,-2.5444627443896692,6.057161915093221,1.041167974472046,-5.4659268895732325
1708436073.6939106,-2.0907907485961914,-1.3437528622201462,-2.5449209848987024,6.055731642037191,1.0418881177902222,-5.466126863156454
1708436073.695903,-2.089435338973999,-1.3440247041038056,-2.545461956654684,6.05430423000411,1.0425691604614258,-5.466265086327688
1708436073.6979384,-2.088104486465454,-1.3443028640798111,-2.5460222403155726,6.052839267044821,1.0432616472244263,-5.46649402776827
1708436073.6999052,-2.0866763591766357,-1.3445643198541184,-2.546514336262838,6.051263558655538,1.044065237045288,-5.466680888329641
1708436073.7019076,-2.0852041244506836,-1.344820262198784,-2.547110382710592,6.0496123907859705,1.0447582006454468,-5.4668148199664515
1708436073.7039194,-2.083782196044922,-1.3451114159873505,-2.5476537386523646,6.048022377281942,1.0454493761062622,-5.466983441506521
1708436073.705904,-2.082313299179077,-1.3454149526408692,-2.548229996358053,6.046467292099752,1.0461684465408325,-5.46721858183016
1708436073.7079778,-2.080831527709961,-1.3457364302924653,-2.548798386250631,6.044892418175497,1.0469590425491333,-5.4673537651645105
1708436073.7099638,-2.079357862472534,-1.3459673088840027,-2.5494349638568323,6.043283092766561,1.0477298498153687,-5.467573348675863
1708436073.7119303,-2.077831506729126,-1.3462739449790497,-2.5500133673297327,6.041720020561971,1.0484763383865356,-5.467772070561544
1708436073.7139308,-2.0763440132141113,-1.346588061457016,-2.550572935734884,6.039988028794088,1.0492175817489624,-5.467948083077566
1708436073.7159095,-2.0747294425964355,-1.3469290894320984,-2.5511325041400355,6.038282382279196,1.0499720573425293,-5.468146864567892
1708436073.7179327,-2.0731143951416016,-1.3471427124789734,-2.5517571608172815,6.03657482841567,1.0506809949874878,-5.4683101812945765
1708436073.7199607,-2.0715866088867188,-1.3474674981883545,-2.552385155354635,6.034833180695333,1.0513889789581299,-5.468476716672079
1708436073.7219172,-2.0699191093444824,-1.3478036534837265,-2.5530017058001917,6.0331472037132166,1.0521799325942993,-5.468712155018942
1708436073.7239263,-2.068302631378174,-1.348133848314621,-2.5536566416369837,6.031435596733846,1.0530794858932495,-5.468883279954092
1708436073.7259548,-2.0666184425354004,-1.3484208297780533,-2.554365936909811,6.029713141709127,1.0539658069610596,-5.469090584908621
1708436073.7279072,-2.064913749694824,-1.348776565199234,-2.5549400488482874,6.027933704644003,1.0548232793807983,-5.469320301209585
1708436073.7299356,-2.0632107257843018,-1.3491231364062806,-2.5556700865374964,6.026154386788168,1.0557104349136353,-5.469541970883505
1708436073.7319267,-2.0614893436431885,-1.3494864714196702,-2.556308094655172,6.024362194329061,1.0565423965454102,-5.469674770032064
1708436073.7339413,-2.0597872734069824,-1.3498001259616395,-2.5569596926318567,6.022545325547018,1.0574334859848022,-5.469935123120443
1708436073.7359374,-2.058058261871338,-1.3501353424838562,-2.557594362889425,6.0206525204475305,1.0583220720291138,-5.470149878655569
1708436073.7379086,-2.056291103363037,-1.3504625421813508,-2.5582898298846644,6.018724429398336,1.0592325925827026,-5.4703038970576685
1708436073.7399378,-2.0544533729553223,-1.350791649227478,-2.558965508137838,6.016777503281393,1.0601342916488647,-5.470571343098776
1708436073.7419221,-2.052633047103882,-1.3512157511762162,-2.5597098509417933,6.014792787819662,1.0610524415969849,-5.470779363309042
1708436073.743911,-2.0507752895355225,-1.3515911263278504,-2.5603652636157435,6.012859213143148,1.0619977712631226,-5.470997337494985
1708436073.7459695,-2.048935651779175,-1.3520023983768006,-2.561089579259054,6.010893451958456,1.0629280805587769,-5.471212629471914
1708436073.7479086,-2.0470783710479736,-1.3523980242064972,-2.561795775090353,6.008911001473226,1.0638302564620972,-5.471453313027517
1708436073.7499363,-2.045245409011841,-1.352752373819687,-2.562540833150045,6.0069512007530115,1.0647931098937988,-5.471695129071371
1708436073.7519033,-2.0432913303375244,-1.3531742107919236,-2.563268248234884,6.004793393402853,1.0656976699829102,-5.471922341977255
1708436073.753937,-2.0413286685943604,-1.3535696131042023,-2.564012591038839,6.002698290138998,1.0666519403457642,-5.472187165413992
1708436073.7559178,-2.039405107498169,-1.3540046525052567,-2.5647481123553675,6.000604975014486,1.0676088333129883,-5.472340826188223
1708436073.7579126,-2.037433624267578,-1.3544025135091324,-2.565512243901388,5.998625981598654,1.0685839653015137,-5.472642783318655
1708436073.759925,-2.035461902618408,-1.3547714811614533,-2.566263262425558,5.9965399382408044,1.0696227550506592,-5.472836677228109
1708436073.761912,-2.0334911346435547,-1.3552961957505723,-2.56706411043276,5.9943920252616785,1.0706110000610352,-5.473047856484548
1708436073.7639136,-2.0314278602600098,-1.3556937736323853,-2.567819420491354,5.992254841118612,1.0716047286987305,-5.473275069390432
1708436073.7659202,-2.0294320583343506,-1.3560540688088913,-2.5685959498034876,5.9901102659995935,1.07257080078125,-5.473525945340292
1708436073.7679274,-2.0273680686950684,-1.356538252239563,-2.569449488316671,5.987862694054403,1.07356858253479,-5.473752860222952
1708436073.769919,-2.0252814292907715,-1.3569612067988892,-2.5701659361468714,5.985594022064962,1.0745612382888794,-5.473954562340872
1708436073.7719166,-2.0232675075531006,-1.3574200880578537,-2.5709741751300257,5.9834279892738245,1.075577735900879,-5.474300269280569
1708436073.7739625,-2.021108627319336,-1.357910544877388,-2.57178241411318,5.981145131378927,1.076594591140747,-5.474489692841665
1708436073.7759335,-2.018970251083374,-1.3582857114127656,-2.5725908915149134,5.978821384697714,1.0776773691177368,-5.474757138882772
1708436073.7779102,-2.0168161392211914,-1.3588435065797348,-2.5734317938434046,5.976496922760763,1.0786272287368774,-5.475020114575521
1708436073.779963,-2.014634847640991,-1.3593187195113678,-2.5742464701281946,5.974091517716207,1.0797135829925537,-5.475287620221273
1708436073.7819097,-2.0124495029449463,-1.3597680193236847,-2.575054709111349,5.971767651825704,1.0807218551635742,-5.475550774727957
1708436073.7839231,-2.010227680206299,-1.3602166932872315,-2.5758419672595423,5.969474303513326,1.0817099809646606,-5.475785140191213
1708436073.7859156,-2.007974147796631,-1.360737369661667,-2.576613489781515,5.9672125456626794,1.082760214805603,-5.476069037114279
1708436073.78793,-2.00577974319458,-1.3611994099668046,-2.577494208012716,5.964932071953573,1.0838130712509155,-5.476369325314657
1708436073.789941,-2.003605365753174,-1.3616317522576828,-2.578282419835226,5.962637054711141,1.0848586559295654,-5.476588849221365
1708436073.7919044,-2.0013937950134277,-1.3621073824218293,-2.5791054407702845,5.9604495642478845,1.0858262777328491,-5.476848963891165
1708436073.7939181,-1.9991676807403564,-1.362552897339203,-2.57990008989443,5.958189475327291,1.0868546962738037,-5.477135721837179
1708436073.7959244,-1.9969768524169922,-1.363026739364006,-2.580756966267721,5.955816137581625,1.0878609418869019,-5.4773908893214625
1708436073.797898,-1.9947502613067627,-1.363476888542511,-2.5815115610705774,5.953482973366537,1.088866949081421,-5.4775957504855555
1708436073.7999341,-1.992525339126587,-1.363942728643753,-2.5823691526996058,5.951246487885275,1.0899238586425781,-5.4779409805880945
1708436073.80191,-1.9903022050857544,-1.3644676518491288,-2.583191219960348,5.948924052506246,1.0908808708190918,-5.478114430104391
1708436073.8039312,-1.9881688356399536,-1.364917055969574,-2.58398944536318,5.946550833969869,1.0918318033218384,-5.478402558957235
1708436073.8059163,-1.9858952760696411,-1.36538381994281,-2.5848456064807337,5.944197404175558,1.0928291082382202,-5.478690866624014
1708436073.8080032,-1.9837024211883545,-1.3658870172551651,-2.585686985646383,5.941929209023275,1.0939234495162964,-5.47895729938616
1708436073.8099632,-1.9815096855163574,-1.3663625878146668,-2.5865257422076624,5.939606177597799,1.0949556827545166,-5.479223016892568
1708436073.8119977,-1.9793134927749634,-1.3667917561582108,-2.5873985926257532,5.9373501417930505,1.0959446430206299,-5.479396883641378
1708436073.8139682,-1.977071762084961,-1.3672116112760087,-2.5881927649127405,5.934997308045187,1.0969500541687012,-5.479644481335775
1708436073.8159711,-1.9749207496643066,-1.3676794630340119,-2.58899170557131,5.932779776840963,1.0979392528533936,-5.479961160813467
1708436073.817935,-1.9727168083190918,-1.3682120156339188,-2.589813534413473,5.930516469269552,1.09894859790802,-5.480224136506216
1708436073.8199177,-1.9705047607421875,-1.3687111300281067,-2.5906041304217737,5.928175318032064,1.0999975204467773,-5.480428997670309
1708436073.8219228,-1.968296766281128,-1.36907251298938,-2.5914552847491663,5.925827491074362,1.1010023355484009,-5.480771068726675
1708436073.8239279,-1.9661515951156616,-1.369576410656311,-2.5922985712634485,5.9234893200691126,1.101966142654419,-5.480964128171102
1708436073.8259273,-1.9639326333999634,-1.370002494459488,-2.5930808226214808,5.9211933491523645,1.103020191192627,-5.481268886719839
1708436073.827935,-1.9617598056793213,-1.370489479308464,-2.5939117113696497,5.918900954514303,1.1039601564407349,-5.481522921715872
1708436073.829921,-1.959571361541748,-1.3709113758853455,-2.59477144876589,5.916520583420553,1.105042815208435,-5.481712822114126
1708436073.8318946,-1.9573943614959717,-1.3714132618955155,-2.5956230799304407,5.914242732315817,1.105963110923767,-5.48198509613146
1708436073.8339295,-1.955170750617981,-1.371933491235115,-2.5964413324939173,5.911870705872335,1.1069632768630981,-5.482205990944998
1708436073.835912,-1.95294189453125,-1.3723875892213364,-2.5972357431994837,5.909518825798788,1.1079837083816528,-5.48253178993334
1708436073.837975,-1.9507875442504883,-1.3728859436563035,-2.5980668703662317,5.907222616463461,1.1089805364608765,-5.482803527508871
1708436073.8399167,-1.9485936164855957,-1.3733935517123719,-2.598844353352682,5.9050413248832605,1.110001802444458,-5.483021680508749
1708436073.841905,-1.9464112520217896,-1.3738122296384354,-2.5996223131762903,5.902840244560995,1.110974669456482,-5.483272854481832
1708436073.8439336,-1.9441518783569336,-1.3742835086635132,-2.6005149523364466,5.900550353318014,1.1119440793991089,-5.483498517666952
1708436073.8459303,-1.9419441223144531,-1.3748409760049363,-2.6013169924365442,5.8982242224510095,1.1128102540969849,-5.483770553265707
1708436073.8479314,-1.9397708177566528,-1.3752467793277283,-2.602100197468893,5.895879375725546,1.1138838529586792,-5.484004918728964
1708436073.849912,-1.9375239610671997,-1.3757514667562027,-2.6029184500323694,5.893626439362325,1.1149318218231201,-5.484251562749044
1708436073.8519058,-1.9353244304656982,-1.3761723202518006,-2.6037004629718226,5.8912439225013635,1.1159703731536865,-5.48452198902239
1708436073.8539689,-1.9331461191177368,-1.3767100286534806,-2.604532066975729,5.88900767543868,1.1169960498809814,-5.484806005154745
1708436073.8560302,-1.9309800863265991,-1.3771646928838273,-2.6053882280932825,5.8866978762443445,1.1180860996246338,-5.485036079083578
1708436073.857967,-1.928804874420166,-1.3775836390307923,-2.606161896382467,5.88438760021285,1.1191171407699585,-5.485320035611288
1708436073.8599422,-1.9265854358673096,-1.3780541133931656,-2.606994692479269,5.8819888708885095,1.1201986074447632,-5.485580150281088
1708436073.8619561,-1.9244115352630615,-1.3785254520228882,-2.607779328023092,5.879683482437887,1.1211870908737183,-5.485843066369192
1708436073.8639512,-1.9221960306167603,-1.378985197549202,-2.6085789839373987,5.877328145294943,1.1222012042999268,-5.4860568086253565
1708436073.8659198,-1.9199578762054443,-1.3794197899154206,-2.60940128961672,5.875037181168356,1.1232675313949585,-5.4863243142711084
1708436073.8679457,-1.9178739786148071,-1.3799120050719758,-2.6101720968829554,5.872811543732443,1.1243422031402588,-5.486605230961935
1708436073.8698986,-1.9156485795974731,-1.38039122641597,-2.6109989325152796,5.870537864952841,1.1253509521484375,-5.486837927495138
1708436073.8718846,-1.9134455919265747,-1.3808526259711762,-2.61182147661318,5.86829553821639,1.1263376474380493,-5.487139944230215
1708436073.8739672,-1.9111816883087158,-1.3813360643437882,-2.612664524708883,5.865921008377828,1.1273376941680908,-5.487323586140768
1708436073.875914,-1.908979892730713,-1.3817945730737229,-2.613398853932516,5.863596308022299,1.128329873085022,-5.487567667161123
1708436073.877907,-1.9067741632461548,-1.3822454822114487,-2.6142452398883265,5.861314523011007,1.1293566226959229,-5.487813715134756
1708436073.8799398,-1.9045476913452148,-1.3827787053636094,-2.6151023546801966,5.858978736191549,1.1303620338439941,-5.488069478665487
1708436073.8819134,-1.9023940563201904,-1.3832873863032837,-2.6159186998950403,5.8566850302513025,1.1313624382019043,-5.488315884266989
1708436073.8839276,-1.9001466035842896,-1.3836919081262131,-2.6167500654803675,5.854426848679342,1.132407784461975,-5.488562647496359
1708436073.8859146,-1.897940993309021,-1.3841908437064667,-2.617581907902853,5.8520463583763025,1.1334208250045776,-5.488876346741812
1708436073.8879583,-1.8957438468933105,-1.384703890686371,-2.6184209028827112,5.849743950157919,1.1344009637832642,-5.48906916776766
1708436073.8899171,-1.8934853076934814,-1.3851425659707566,-2.619190041218893,5.847359764366903,1.1353942155838013,-5.489324812089102
1708436073.8918934,-1.891278624534607,-1.385629655127861,-2.620035950337545,5.845064389496603,1.1364620923995972,-5.489564005528585
1708436073.8939419,-1.8891462087631226,-1.3861219447902222,-2.6208787600146692,5.842795479088583,1.1374491453170776,-5.489834372197286
1708436073.8959043,-1.8869129419326782,-1.3866582822850724,-2.6216893831836146,5.840576994210043,1.138425350189209,-5.4900898973094385
1708436073.8979013,-1.884740948677063,-1.3871069264462967,-2.622495953236715,5.838304030686178,1.1394582986831665,-5.490346674119131
1708436073.8999188,-1.8825099468231201,-1.387532816534378,-2.6233750025378626,5.836056101113119,1.1404627561569214,-5.490587596093313
1708436073.9019012,-1.8802686929702759,-1.38805244982753,-2.624225680028097,5.833770262985983,1.1414902210235596,-5.490929607545034
1708436073.9039438,-1.8781319856643677,-1.3885154885104676,-2.6249762217151087,5.83139859417037,1.1424401998519897,-5.491159741078512
1708436073.905929,-1.8758776187896729,-1.3889987182668229,-2.6258397738086146,5.829104888230123,1.143460988998413,-5.491335872803823
1708436073.9079416,-1.8737497329711914,-1.3894753468087693,-2.626646105443136,5.826836216240682,1.1445001363754272,-5.491624597703115
1708436073.9099936,-1.8715546131134033,-1.389913560157158,-2.6274240652667444,5.824483978539266,1.1455751657485962,-5.491891686116354
1708436073.911964,-1.8693453073501587,-1.39040099204097,-2.6283040682422083,5.82216106632308,1.1464976072311401,-5.492163662110464
1708436073.9139395,-1.8671245574951172,-1.3908921790174027,-2.6290867964373987,5.819843280106344,1.147523283958435,-5.492398742829458
1708436073.915964,-1.864956259727478,-1.3914191138795395,-2.6299458185779017,5.817487227707662,1.1485894918441772,-5.492640439664022
1708436073.9178998,-1.8627924919128418,-1.3918660146049042,-2.6307714621173304,5.815099227219381,1.1496388912200928,-5.492837671433584
1708436073.9199564,-1.8605263233184814,-1.392325447206833,-2.6316023508654993,5.812788355141439,1.1505696773529053,-5.4931379596339625
1708436073.9219396,-1.8583732843399048,-1.3928487759879609,-2.6324246565448206,5.810594785004415,1.151607632637024,-5.493302706872122
1708436073.923908,-1.8562066555023193,-1.3932312291911622,-2.633273188267843,5.808293330460348,1.1525222063064575,-5.49361634651293
1708436073.925886,-1.8540226221084595,-1.3937386584332963,-2.6340509096728724,5.80598400810317,1.1535769701004028,-5.493813339863912
1708436073.9279299,-1.8518197536468506,-1.394217462544777,-2.6348944346057337,5.80373905876235,1.1545205116271973,-5.494181279336111
1708436073.929905,-1.8496114015579224,-1.3947085452130814,-2.6356759707080286,5.801364290505209,1.1554926633834839,-5.494372550641195
1708436073.931922,-1.8474103212356567,-1.395163745885231,-2.6364830175982874,5.799031603127279,1.156571388244629,-5.494636837636129
1708436073.9339092,-1.8451603651046753,-1.3956363213113328,-2.637303415928976,5.79670928695754,1.1575978994369507,-5.494855348263876
1708436073.9358864,-1.8429875373840332,-1.3960984361222764,-2.6380847136126917,5.79448567607955,1.158614158630371,-5.495160226021902
1708436073.9378839,-1.8407561779022217,-1.3965606850436707,-2.6388676802264612,5.792123305588522,1.1596224308013916,-5.495392922555105
1708436073.9399006,-1.8385779857635498,-1.3970035922578354,-2.639683787022726,5.789912211685934,1.160610556602478,-5.495621327553884
1708436073.9419253,-1.8364371061325073,-1.3974470061114808,-2.6404693762408655,5.7875168202217,1.1616491079330444,-5.495914403592245
1708436073.9439044,-1.8341214656829834,-1.397918002014496,-2.6412556807147425,5.7851836560066126,1.1627780199050903,-5.496228281651632
1708436073.9458923,-1.8319873809814453,-1.3984217655709763,-2.6421402136432093,5.782819020539083,1.163731575012207,-5.4964869062053126
1708436073.9479675,-1.8297395706176758,-1.398864970808365,-2.6429577509509485,5.780567395478048,1.1647987365722656,-5.496688310300009
1708436073.9499223,-1.8275535106658936,-1.3993361306241532,-2.643768612538473,5.778424012451925,1.1658148765563965,-5.49695593515505
1708436073.9519348,-1.8253662586212158,-1.3998438131860276,-2.6445472876178187,5.776140200882711,1.1667612791061401,-5.497211698685781
1708436073.9538946,-1.8231936693191528,-1.4002994459918519,-2.645345989857809,5.773911702423849,1.167771816253662,-5.497425381337301
1708436073.9558923,-1.8210231065750122,-1.4007502657226105,-2.6461485067950647,5.7715163109596155,1.168782114982605,-5.497720662747518
1708436073.9579263,-1.8188022375106812,-1.4011888963035126,-2.6469605604754847,5.76927279213027,1.1697624921798706,-5.497972015534536
1708436073.959897,-1.8164623975753784,-1.4016273629716416,-2.647832457219259,5.766928660660543,1.1708014011383057,-5.498157207165853
1708436073.9619482,-1.8143348693847656,-1.4021307987025757,-2.6486192385302942,5.7646463988120935,1.171838402748108,-5.498441044484274
1708436073.963898,-1.8121075630187988,-1.4026231330684205,-2.649442259465353,5.762398350029745,1.172851324081421,-5.498692218457357
1708436073.9658802,-1.8098911046981812,-1.4030982863954087,-2.6502321402179163,5.760128843575277,1.173817753791809,-5.49900865951647
1708436073.9679222,-1.807677984237671,-1.4035623979619523,-2.651053492222921,5.7577396509941,1.17481529712677,-5.49925530353655
1708436073.9699328,-1.805518388748169,-1.4040129643729706,-2.651865307484762,5.755379426270284,1.17569100856781,-5.499485556279318
1708436073.971892,-1.8033236265182495,-1.4044709962657471,-2.652729336415426,5.753009426384725,1.176632046699524,-5.49972910085787
1708436073.9739137,-1.8010584115982056,-1.4049801093390961,-2.6535609404193323,5.750672328263082,1.1776188611984253,-5.499966863785879
1708436073.9758947,-1.7989293336868286,-1.4053844076446076,-2.6544156710254114,5.748390424042501,1.1786400079727173,-5.500262979661123
1708436073.97792,-1.796748161315918,-1.4059249472669144,-2.655221764241354,5.7461503622825525,1.1796939373016357,-5.500510756169454
1708436073.9799027,-1.7945787906646729,-1.40641304970298,-2.6560774485217493,5.743900406151571,1.1806944608688354,-5.500803653393881
1708436073.981937,-1.79236900806427,-1.4069132518819352,-2.6568875948535364,5.74158655384139,1.1817336082458496,-5.500996414815084
1708436073.9838996,-1.7901451587677002,-1.4073670369437714,-2.6577349344836634,5.739243018418112,1.1827497482299805,-5.501238171254293
1708436073.9859228,-1.7878961563110352,-1.4078549307635804,-2.658508602772848,5.736922728806295,1.183749794960022,-5.501534346734182
1708436073.9879055,-1.7857213020324707,-1.4083015036633988,-2.659360472355978,5.7345008728797815,1.1848276853561401,-5.501778010522024
1708436073.9898887,-1.7835736274719238,-1.4088295859149476,-2.660126511250631,5.732292640000143,1.1859066486358643,-5.502043966447012
1708436073.991881,-1.7813416719436646,-1.4092680227807541,-2.6609490553485315,5.72997926452712,1.1869343519210815,-5.502273801957266
1708436073.9938943,-1.7791829109191895,-1.4097382587245484,-2.66179329553713,5.727694141655721,1.1879167556762695,-5.502557579671041
1708436073.9958878,-1.7770076990127563,-1.4101933997920533,-2.6626229921924036,5.725308525353231,1.1889915466308594,-5.502850596104757
1708436073.9978921,-1.7748240232467651,-1.410610170369484,-2.663382116948263,5.722983705788412,1.1899890899658203,-5.503095809613363
1708436073.9998987,-1.7726075649261475,-1.41111475348983,-2.6642213503467005,5.720650183945455,1.1909886598587036,-5.503315333520071
1708436074.0019083,-1.7704823017120361,-1.4116568726352234,-2.6650150457965296,5.718370425492086,1.1920065879821777,-5.5035831967936915
1708436074.003894,-1.7682931423187256,-1.4120987516692658,-2.6658757368670862,5.716186749726095,1.193021297454834,-5.503817264233724
1708436074.0058975,-1.766034483909607,-1.412627251153328,-2.66664964357485,5.713838207512655,1.194021224975586,-5.504010204468862
1708436074.0079365,-1.7638781070709229,-1.413073108797409,-2.667436424885885,5.711606669216909,1.1950627565383911,-5.504262630139486
1708436074.0099692,-1.7616808414459229,-1.4135447901538392,-2.668272082005636,5.709294545441427,1.1960870027542114,-5.5044854323016565
1708436074.01192,-1.7594995498657227,-1.4140242797187348,-2.6690176169024866,5.706975447922506,1.197064995765686,-5.504793409501211
1708436074.0139241,-1.7571474313735962,-1.4144669783166428,-2.6698079744922083,5.704610574036398,1.1980198621749878,-5.5050533453570765
1708436074.0159106,-1.754966139793396,-1.414974422459938,-2.670659844075338,5.7023658631141565,1.1990635395050049,-5.505308691655294
1708436074.0179353,-1.7528454065322876,-1.4153745633414765,-2.6714921633349817,5.7000921843345544,1.2000795602798462,-5.505542103444235
1708436074.0199099,-1.7505828142166138,-1.415829898124077,-2.672269884740011,5.697832691460409,1.2011569738388062,-5.505715314541952
1708436074.021911,-1.7484360933303833,-1.4163416636041184,-2.6731181780444544,5.69549988487319,1.202202558517456,-5.5060487429248255
1708436074.023939,-1.7462078332901,-1.4168465298465271,-2.6740132013904017,5.693252730160513,1.203248381614685,-5.506280068551199
1708436074.0259128,-1.7440022230148315,-1.4173588019660492,-2.674774471913473,5.690898465901174,1.2043178081512451,-5.5065882245646876
1708436074.0279245,-1.7417353391647339,-1.4178091299584885,-2.675609890614645,5.688557493477621,1.2053076028823853,-5.506829682980673
1708436074.0299103,-1.73959481716156,-1.4182256174138566,-2.676432434712545,5.686279046326437,1.2062838077545166,-5.507039133702413
1708436074.0318894,-1.7373979091644287,-1.4187134516290207,-2.6772058645831507,5.683979201107778,1.2072923183441162,-5.507245365773336
1708436074.0338812,-1.7352486848831177,-1.4192022246173401,-2.678070131932394,5.681686031609335,1.2082523107528687,-5.50754559436907
1708436074.0359147,-1.7329736948013306,-1.4196407508901139,-2.6788719336139124,5.679334986000814,1.209249496459961,-5.507862452660696
1708436074.0378933,-1.7307987213134766,-1.4201717686704178,-2.679690663014547,5.677054869919576,1.210281491279602,-5.508080486451284
1708436074.0399427,-1.7286245822906494,-1.420655996804573,-2.6804936567889612,5.674748587399282,1.2112927436828613,-5.508343223725454
1708436074.0419385,-1.7263903617858887,-1.421082304125168,-2.6813045183764856,5.672370481282034,1.212308406829834,-5.5085992256747645
1708436074.0439084,-1.7241989374160767,-1.42161080360923,-2.682113234196798,5.670097219734945,1.2132941484451294,-5.508898083363668
1708436074.0458953,-1.7219566106796265,-1.4220407766154786,-2.682936731969015,5.66781638839797,1.2143218517303467,-5.509141329918997
1708436074.0478842,-1.7198131084442139,-1.4225783956101914,-2.6838043371783655,5.665582823544302,1.2153300046920776,-5.509374384080068
1708436074.0499058,-1.7176399230957031,-1.422973410492279,-2.684577528630392,5.663188504963674,1.2163317203521729,-5.509670082722799
1708436074.051908,-1.7153607606887817,-1.4234870833209534,-2.6854615847217005,5.660882162838735,1.2172784805297852,-5.509905163441793
1708436074.0539365,-1.7131707668304443,-1.4238962841084977,-2.686219040547506,5.658521759300985,1.2183401584625244,-5.510180060063497
1708436074.0559082,-1.7110567092895508,-1.4244246792844315,-2.687077585850851,5.656273531704702,1.2192957401275635,-5.510395590459005
1708436074.0578985,-1.7088518142700195,-1.4248473954251786,-2.6878772417651575,5.653997945576467,1.2203395366668701,-5.510707143937246
1708436074.0599396,-1.706692099571228,-1.4253425908139725,-2.688732449208395,5.651748406677999,1.2213214635849,-5.5109721461879175
1708436074.0619314,-1.7044891119003296,-1.4257977914861222,-2.6895952860461634,5.649495768338003,1.222337245941162,-5.511169377957479
1708436074.0639002,-1.7022844552993774,-1.4263293457082291,-2.690331522618429,5.647191571980276,1.22332763671875,-5.511424843464987
1708436074.065917,-1.7000396251678467,-1.426791937356331,-2.6911807695971888,5.644856977253713,1.2243993282318115,-5.511699442063467
1708436074.0679064,-1.6978721618652344,-1.427235485320427,-2.692047659550802,5.642489599972524,1.225342035293579,-5.511965517197744
1708436074.0699115,-1.6956390142440796,-1.4277266275933762,-2.6928330103503626,5.6401744959648035,1.226335048675537,-5.512291673813955
1708436074.0719092,-1.693392038345337,-1.4282639783671875,-2.693693224583761,5.6379472492034814,1.2274218797683716,-5.512524787579672
1708436074.073909,-1.691189169883728,-1.42863983035598,-2.6944666544543665,5.635616171150961,1.2283746004104614,-5.512733999882833
1708436074.0759246,-1.6890270709991455,-1.429103971724846,-2.695305411015646,5.633282053261556,1.2293421030044556,-5.512968424950735
1708436074.077893,-1.6868014335632324,-1.4295994651368638,-2.696141306553976,5.630938875466146,1.2304012775421143,-5.513191048298971
1708436074.0799205,-1.6846678256988525,-1.430090532904007,-2.6969450155841272,5.628546047001638,1.2313477993011475,-5.513488415871755
1708436074.0819292,-1.6824066638946533,-1.4304891389659424,-2.697768036519186,5.6262345788772485,1.2323155403137207,-5.513721529637472
1708436074.0839224,-1.6802575588226318,-1.4310131532004853,-2.6985252539264124,5.623998451023855,1.2332878112792969,-5.51402181783785
1708436074.085906,-1.678096055984497,-1.4313860398582001,-2.6993663946734827,5.621705817967214,1.2342360019683838,-5.514270011578695
1708436074.0879257,-1.6758952140808105,-1.4319715809873124,-2.7001474539386194,5.619493949204244,1.235233187675476,-5.514523986970083
1708436074.089892,-1.6736551523208618,-1.4324360948852082,-2.7009578386889856,5.617174613266744,1.2362364530563354,-5.51477945247759
1708436074.091929,-1.671432375907898,-1.432926819925644,-2.701789442692892,5.614879596024313,1.2372688055038452,-5.515063468609945
1708436074.0939066,-1.669258952140808,-1.433344380264618,-2.7026005426989954,5.612563419132986,1.238301157951355,-5.515305225049154
1708436074.0958855,-1.6670324802398682,-1.4337741446546097,-2.703357760106222,5.610202061920919,1.2392847537994385,-5.515580479298727
1708436074.097902,-1.6648622751235962,-1.4342383456281205,-2.7041619459735315,5.607970881253042,1.240357756614685,-5.515819374714987
1708436074.0998785,-1.6626193523406982,-1.4347056460431595,-2.704996411000387,5.605638253479757,1.2414610385894775,-5.516099158917562
1708436074.1019068,-1.6604021787643433,-1.4351967436126252,-2.7058444658862513,5.60336713769988,1.2425036430358887,-5.51632130542864
1708436074.103933,-1.6582201719284058,-1.4356805098107834,-2.70664626756777,5.601054835110464,1.243560791015625,-5.516608063374655
1708436074.105899,-1.6560033559799194,-1.4361597311547776,-2.7074042002307337,5.598722266941824,1.2446284294128418,-5.5168219844447535
1708436074.1079142,-1.6538251638412476,-1.4366764736226578,-2.7081945578204554,5.596403288632192,1.245602011680603,-5.517104450856344
1708436074.1099837,-1.651641607284546,-1.4370853465846558,-2.709078852330343,5.594066190510549,1.2466191053390503,-5.517370287572042
1708436074.1119485,-1.6494554281234741,-1.4376097184470673,-2.709860388432638,5.591853964119711,1.247581958770752,-5.517572406922476
1708436074.113959,-1.647297978401184,-1.4381149125150223,-2.710740629826681,5.589616107731619,1.2486357688903809,-5.517835442219869
1708436074.1159847,-1.6450039148330688,-1.4385850739530106,-2.711522881184713,5.587283837586202,1.249679446220398,-5.518163804207937
1708436074.1179285,-1.6428468227386475,-1.439039246445038,-2.7123103777514856,5.584949898510732,1.2506892681121826,-5.518365327511923
1708436074.1199238,-1.6406142711639404,-1.439527155166008,-2.713167730961935,5.58266847112731,1.2517099380493164,-5.518653933201925
1708436074.121897,-1.638401985168457,-1.4400110256722947,-2.71394926706423,5.5803027031715295,1.2526473999023438,-5.518928889428274
1708436074.1239166,-1.6362028121948242,-1.4404215526631852,-2.714743200932638,5.5780056593711755,1.2536646127700806,-5.519109551106588
1708436074.1259074,-1.6339868307113647,-1.4409202945283432,-2.7155991236316126,5.575721668988027,1.254684567451477,-5.519426290188925
1708436074.1279068,-1.63184654712677,-1.4414658707431336,-2.7164321581469935,5.573458599835195,1.2557395696640015,-5.519678835068838
1708436074.129909,-1.629603385925293,-1.441892759209015,-2.717231337224142,5.571127581387319,1.2567654848098755,-5.519878749047415
1708436074.1318896,-1.6274532079696655,-1.4423915159753342,-2.7180379072772425,5.568765270500936,1.257757544517517,-5.520122353230612
1708436074.1338904,-1.6251988410949707,-1.442830206160881,-2.7188361326800745,5.566445517330923,1.2586774826049805,-5.520369056855337
1708436074.1358852,-1.6230372190475464,-1.443356679087021,-2.7196102778064173,5.564111518650808,1.2596467733383179,-5.520655755196707
1708436074.1378932,-1.6208451986312866,-1.4437939387610932,-2.7203479448901575,5.561966347485342,1.2604625225067139,-5.520911280308859
1708436074.1399093,-1.6187396049499512,-1.4442405861667176,-2.721118752156393,5.55980925539092,1.2613399028778076,-5.521174256001608
1708436074.1419866,-1.6165343523025513,-1.4447483581355591,-2.7219415346728724,5.557617175370016,1.2621891498565674,-5.521444682274954
1708436074.1438959,-1.6143300533294678,-1.4453008633903046,-2.7226715723620813,5.555461990624227,1.2630013227462769,-5.521801833306448
1708436074.1458948,-1.6120898723602295,-1.4458220464042206,-2.7234211603747767,5.553315865784445,1.2638696432113647,-5.522039536629812
1708436074.147899,-1.6098910570144653,-1.4463404429009934,-2.724196736012594,5.5511300442512415,1.2646716833114624,-5.52233857313265
1708436074.149948,-1.6076422929763794,-1.446770803337433,-2.7249344030963343,5.5490755317504785,1.2655168771743774,-5.522624973450796
1708436074.151907,-1.605467677116394,-1.4473268699697037,-2.7256279627429407,5.546876120358267,1.266271710395813,-5.522895399724142
1708436074.1538973,-1.6032990217208862,-1.447810136978962,-2.7263804117785853,5.544810163765707,1.2670371532440186,-5.52321976820101
1708436074.155902,-1.6010631322860718,-1.4483661365560074,-2.7270799318896692,5.542736696987905,1.267783761024475,-5.523535136376516
1708436074.157905,-1.5988460779190063,-1.4488607060960312,-2.727753464375631,5.540676522045889,1.2684460878372192,-5.5238274971591395
1708436074.1599169,-1.596652626991272,-1.4493430790356179,-2.7284391562091272,5.538526046067037,1.2691384553909302,-5.52418697277178
1708436074.1619043,-1.594437837600708,-1.4499036905220528,-2.7290895620929163,5.536463606148519,1.2698397636413574,-5.524481598530905
1708436074.1639364,-1.5922349691390991,-1.4504351553371926,-2.729809586201803,5.534395444184103,1.2704638242721558,-5.524834338818685
1708436074.1659188,-1.5900347232818604,-1.4509661805680771,-2.7304356733905237,5.5323564288909814,1.2710438966751099,-5.52509588399996
1708436074.167952,-1.5878099203109741,-1.45146860302005,-2.7310169378863733,5.530494797020712,1.2715989351272583,-5.525442365800039
1708436074.169912,-1.5856486558914185,-1.4520331633142014,-2.7316845099078577,5.528597163944998,1.272135615348816,-5.525802437459127
1708436074.1719117,-1.5834711790084839,-1.4525891628912468,-2.732269827519552,5.526678073197164,1.2726116180419922,-5.5261157790767115
1708436074.1739063,-1.5812208652496338,-1.4531283539584656,-2.7329300085650843,5.52470480182723,1.2731329202651978,-5.526503149663107
1708436074.1759217,-1.578976035118103,-1.453678087597229,-2.7334921995746058,5.522827255516805,1.2736414670944214,-5.526891354714529
1708436074.1779068,-1.5768098831176758,-1.4542653125575562,-2.7340787092791956,5.520929682045736,1.2741420269012451,-5.527251784001486
1708436074.1799161,-1.5746127367019653,-1.454830290084221,-2.7346091906176966,5.519058394223013,1.2746387720108032,-5.527581874524252
1708436074.1819103,-1.5724055767059326,-1.455440842812397,-2.7352166811572474,5.517205166607656,1.2749710083007812,-5.527969543133871
1708436074.1839445,-1.5702029466629028,-1.4560402941754838,-2.735795799885885,5.515347111016073,1.2754143476486206,-5.528310064469473
1708436074.1859283,-1.567978024482727,-1.4565791350654145,-2.736378018056051,5.513480531960287,1.2758021354675293,-5.528660241757528
1708436074.1879494,-1.5658334493637085,-1.4572234463742753,-2.7368887106524866,5.511711168080129,1.2762149572372437,-5.52908826271166
1708436074.1899037,-1.5636188983917236,-1.4577576232007523,-2.737432066594259,5.5099220154579065,1.2765015363693237,-5.529445771371023
1708436074.1919181,-1.5614001750946045,-1.4583971586874505,-2.7379091421710413,5.508118319302358,1.276751160621643,-5.529885236416952
1708436074.193922,-1.5592377185821533,-1.4590396148017426,-2.738490406666891,5.506323027401724,1.277003526687622,-5.530377272759573
1708436074.1959555,-1.5570625066757202,-1.4595895868590851,-2.7388792673694056,5.504592704563894,1.2772525548934937,-5.530726257954733
1708436074.1979337,-1.5548406839370728,-1.4602458116463204,-2.7393954435931605,5.5028854487235925,1.2773911952972412,-5.531132463608877
1708436074.1998966,-1.5526909828186035,-1.460856744354107,-2.7398625055896204,5.501265811711111,1.2776284217834473,-5.531581048165457
1708436074.2018874,-1.5505062341690063,-1.4615000200322648,-2.740340773259298,5.49962996223525,1.277813196182251,-5.531962219868795
1708436074.2039373,-1.5482983589172363,-1.462175377910473,-2.7407918612109583,5.498016106873312,1.2779388427734375,-5.5324252287494105
1708436074.205894,-1.5460575819015503,-1.462800347512104,-2.7412336508380335,5.496392178326406,1.2780503034591675,-5.532869521771566
1708436074.207921,-1.5438497066497803,-1.4634967756322403,-2.741694513951437,5.494848418026724,1.2781261205673218,-5.533321980630056
1708436074.2099652,-1.5416233539581299,-1.4642264184406777,-2.7420526186572474,5.493298876076498,1.2781416177749634,-5.533829991017477
1708436074.211962,-1.5394660234451294,-1.4648772713593026,-2.742517058049337,5.491816806584158,1.2781407833099365,-5.534291152154104
1708436074.2139633,-1.5373159646987915,-1.4655198168805619,-2.742870632802145,5.490292596607961,1.2781082391738892,-5.534724537526266
1708436074.215979,-1.5350959300994873,-1.46620977789674,-2.743265930806295,5.488762843399801,1.278039813041687,-5.535190943871633
1708436074.217964,-1.5328885316848755,-1.466890112762787,-2.7436609903918665,5.48736338594512,1.2779841423034668,-5.535715464745657
1708436074.2199519,-1.530672550201416,-1.467564233844616,-2.7440553347217005,5.485859322338857,1.2778537273406982,-5.536163930092947
1708436074.2219162,-1.5285221338272095,-1.46823092669759,-2.7444027105914515,5.484479892044821,1.277657151222229,-5.536678914223806
1708436074.2239606,-1.5263628959655762,-1.4689797025970002,-2.7447381655322474,5.483040916710653,1.277475118637085,-5.537208143864767
1708436074.2258995,-1.524135708808899,-1.4696661469391366,-2.7450814882861536,5.481741058617391,1.2773085832595825,-5.537759606038229
1708436074.227939,-1.5219542980194092,-1.470426359479763,-2.7454686800586146,5.480500328331747,1.2770999670028687,-5.5382078925715845
1708436074.2299454,-1.5197781324386597,-1.4710915994695206,-2.745727602635519,5.479154336243429,1.2768867015838623,-5.53874516883959
1708436074.2319229,-1.5176117420196533,-1.4718397048166771,-2.746103588734762,5.477950560837545,1.2765638828277588,-5.53933293024172
1708436074.233922,-1.515330195426941,-1.4726048496416588,-2.746333901082174,5.476635443955221,1.2763206958770752,-5.539924387131826
1708436074.2359412,-1.5131949186325073,-1.4732598823359986,-2.746690336857931,5.475458311825552,1.2759870290756226,-5.540476981793539
1708436074.237901,-1.5109493732452393,-1.4740614903024216,-2.7469409147845667,5.474215018540182,1.275598168373108,-5.54107112089266
1708436074.2399313,-1.50874924659729,-1.4747776475599785,-2.7471442858325403,5.473110544472494,1.2751834392547607,-5.541728858147756
1708436074.2419186,-1.5065507888793945,-1.4755758580616494,-2.7473962942706507,5.471930849343099,1.274804711341858,-5.54227459827532
1708436074.243903,-1.5043444633483887,-1.4763075572303315,-2.7475913206683558,5.470808613091268,1.2743302583694458,-5.542917195950643
1708436074.2459085,-1.5021165609359741,-1.4770502534559746,-2.7478342692004603,5.469787585526266,1.2738336324691772,-5.543547872697012
1708436074.2479029,-1.4998939037322998,-1.4778815296343346,-2.7479692141162317,5.468806969910421,1.2733330726623535,-5.544167761002676
1708436074.24992,-1.4977140426635742,-1.4786444467357178,-2.7482522169696253,5.467807101994314,1.2727130651474,-5.544786993657247
1708436074.2519143,-1.495513677597046,-1.4794666555574914,-2.7483819166766565,5.466918992787161,1.2721902132034302,-5.545394484196798
1708436074.2539053,-1.493274211883545,-1.480286144917347,-2.7485864798175257,5.465967166214742,1.2716343402862549,-5.54601622024645
1708436074.2558913,-1.4910626411437988,-1.4811144334128876,-2.748704973851339,5.464952039509573,1.270934820175171,-5.546675268803732
1708436074.2579026,-1.4888418912887573,-1.4819574517062684,-2.7488935629474085,5.464009809284963,1.270314335823059,-5.547332886849539
1708436074.2599504,-1.4866613149642944,-1.4827818062952538,-2.748955790196554,5.463166284352102,1.2695376873016357,-5.548047129307882
1708436074.2619176,-1.4844061136245728,-1.4836039778641243,-2.7490678469287317,5.462282943516531,1.2688617706298828,-5.548724238072531
1708436074.2638845,-1.4822338819503784,-1.4844516304186364,-2.749178711568014,5.461413550167837,1.2680655717849731,-5.549416546021597
1708436074.2659118,-1.48000967502594,-1.4853296515396615,-2.7492879072772425,5.460689234524526,1.2673927545547485,-5.550090734158651
1708436074.2678854,-1.4778318405151367,-1.4862173360637208,-2.7493422667132776,5.459872412472524,1.2666264772415161,-5.550780061875479
1708436074.2699559,-1.4755700826644897,-1.4870547887733956,-2.7494097391711634,5.459057616978445,1.26573646068573,-5.551471177731649
1708436074.2719133,-1.4733750820159912,-1.487929457133152,-2.7494502703296106,5.458363878517904,1.264862298965454,-5.55221146741976
1708436074.2738936,-1.4712010622024536,-1.4888630670360108,-2.7495511213885706,5.4576419470603845,1.2639890909194946,-5.552862290536062
1708436074.2759187,-1.4689924716949463,-1.4897075083902855,-2.749512020741598,5.456958281784811,1.2630386352539062,-5.553562823926107
1708436074.2779222,-1.46676766872406,-1.4906394344619294,-2.749556843434469,5.456348824291982,1.2620470523834229,-5.55434233347048
1708436074.2799401,-1.464579701423645,-1.49159990370784,-2.7496143023120325,5.455700206547537,1.2610763311386108,-5.555125002061025
1708436074.2819116,-1.4624584913253784,-1.4924971920302887,-2.7495980898486536,5.455116975098409,1.260053277015686,-5.555837337170736
1708436074.2839284,-1.4602237939834595,-1.4934362557581444,-2.749634091054098,5.454486298352041,1.2590843439102173,-5.55652624765505
1708436074.28598,-1.4580307006835938,-1.4943023335984726,-2.749669853840963,5.453821110516348,1.258164882659912,-5.5572391788112085
1708436074.287902,-1.45585036277771,-1.495231495504715,-2.7497625986682337,5.453192341118612,1.257235050201416,-5.557960931454794
1708436074.2899034,-1.4536056518554688,-1.4961076241782685,-2.7497647444354456,5.452499913960256,1.2563344240188599,-5.558729712163107
1708436074.291932,-1.4514169692993164,-1.4970514637282868,-2.7498419920550745,5.451803254872122,1.2553855180740356,-5.559392813836233
1708436074.29392,-1.4491941928863525,-1.497932383125164,-2.7498160044299524,5.451199161797323,1.2544026374816895,-5.560098473225729
1708436074.2958994,-1.4470213651657104,-1.4989264023355027,-2.749857489262716,5.450540351658621,1.2534699440002441,-5.560861591492788
1708436074.2979228,-1.444871425628662,-1.499856711631157,-2.7498682180987757,5.449825572758474,1.2524677515029907,-5.561571423207418
1708436074.2999473,-1.4426789283752441,-1.5008078527501603,-2.7498725096331995,5.449282276421346,1.251570224761963,-5.562376920376913
1708436074.30193,-1.4404569864273071,-1.5016960513642807,-2.7498963514911097,5.448590326100149,1.2506614923477173,-5.563040200863973
1708436074.3038988,-1.43830144405365,-1.5026143503240128,-2.7499290148364466,5.447985040932455,1.2496967315673828,-5.563851062451498
1708436074.305922,-1.436102032661438,-1.5035580855659028,-2.7499118486987513,5.447278249054708,1.248809814453125,-5.564496580754415
1708436074.3079865,-1.4339174032211304,-1.5044768017581482,-2.7499683539019983,5.44664882400588,1.247881293296814,-5.565251354371206
1708436074.3099365,-1.4317680597305298,-1.505374864940979,-2.7500456015216272,5.445963489800253,1.2468763589859009,-5.565956358109609
1708436074.3119955,-1.4295464754104614,-1.5062631380609055,-2.7500577608691614,5.445314395218649,1.2459354400634766,-5.5667094627963465
1708436074.3139915,-1.427389144897461,-1.5072231975248833,-2.750023905430929,5.444721269398489,1.245008111000061,-5.567411784325735
1708436074.3159542,-1.425182819366455,-1.5081492897919198,-2.7500479857074183,5.4440409419830225,1.2440316677093506,-5.568099502717153
1708436074.3179853,-1.4230316877365112,-1.5090647612563153,-2.75010854402651,5.443361091404714,1.243038535118103,-5.568878177796499
1708436074.3199105,-1.420798897743225,-1.509985738699772,-2.750115219746725,5.442771184235372,1.2421066761016846,-5.569610063229696
1708436074.3218987,-1.4186205863952637,-1.5109369729510327,-2.7501230875598353,5.442127930908956,1.2411346435546875,-5.570308868085043
1708436074.3238947,-1.4164330959320068,-1.5118835729411622,-2.750200096760885,5.441523182183065,1.2402102947235107,-5.571096126233236
1708436074.325891,-1.414251685142517,-1.5127933707884331,-2.750171963368551,5.440834033280172,1.239203929901123,-5.57177567878832
1708436074.327919,-1.4120064973831177,-1.5137356010130425,-2.7502036730395716,5.440215456276693,1.2383159399032593,-5.572594765816824
1708436074.3298945,-1.4097827672958374,-1.5146460619619866,-2.7502439657794397,5.439595925598898,1.237380027770996,-5.573432807122366
1708436074.331881,-1.4076218605041504,-1.5155197952738781,-2.750279728566305,5.438989150315084,1.236382246017456,-5.574132088814871
1708436074.3339536,-1.4053682088851929,-1.5164743897369881,-2.7503209749804896,5.4383981106574915,1.2354475259780884,-5.5749303738223475
1708436074.3358812,-1.4031857252120972,-1.5174138259938736,-2.7503319422351282,5.43780009725646,1.2344406843185425,-5.575655762349264
1708436074.337903,-1.4009721279144287,-1.5183202934316178,-2.7503517309771937,5.4371938584144495,1.2335095405578613,-5.576375071202413
1708436074.3398972,-1.3987711668014526,-1.5192551177791138,-2.75034743944277,5.436567473202505,1.232540488243103,-5.577113095914022
1708436074.3418941,-1.3965179920196533,-1.5202021238258858,-2.750403706227438,5.4359221933181665,1.23161780834198,-5.577922884617941
1708436074.3439224,-1.3943637609481812,-1.5210336607745667,-2.7504494825946253,5.435384261399069,1.2306487560272217,-5.578631405030386
1708436074.345899,-1.392122507095337,-1.5219806481948872,-2.750390593205587,5.434682476311483,1.2297124862670898,-5.579466644917623
1708436074.3479145,-1.3899223804473877,-1.5229864914766331,-2.750342909489767,5.434154855995931,1.2286758422851562,-5.580115083848135
1708436074.3498867,-1.387791633605957,-1.523904090081789,-2.750263516102926,5.433617937355795,1.2275006771087646,-5.580959443246023
1708436074.351888,-1.385589599609375,-1.524882936184742,-2.750150267277853,5.433179962425985,1.2263448238372803,-5.581720236931936
1708436074.3539267,-1.383440613746643,-1.5258961406401177,-2.7500186602221888,5.432762610703268,1.2251440286636353,-5.5825499335872095
1708436074.3559005,-1.381203293800354,-1.5269345206073304,-2.749983612691061,5.432433414250173,1.2239770889282227,-5.583298150693075
1708436074.3579316,-1.3790428638458252,-1.5278969158283253,-2.749859396611349,5.432094144612112,1.2226999998092651,-5.584141139184133
1708436074.3599365,-1.3767768144607544,-1.528939963584282,-2.74976355234255,5.431788968830862,1.2214562892913818,-5.584942106400625
1708436074.3619134,-1.374544620513916,-1.529997096662857,-2.749631945286886,5.431476223259725,1.2201327085494995,-5.5857383648501795
1708436074.363921,-1.3723384141921997,-1.5309961077621956,-2.749483887349264,5.431319045811453,1.218836784362793,-5.586501423512594
1708436074.3658926,-1.3701590299606323,-1.5320424933782597,-2.749319616948263,5.4311115620429895,1.217456340789795,-5.587314609681265
1708436074.3679016,-1.3679404258728027,-1.5330799010447045,-2.7491679827319544,5.430945503502645,1.2160401344299316,-5.588159207497732
1708436074.3699193,-1.3657646179199219,-1.5342430931380768,-2.7489636580096644,5.430813956051626,1.2146005630493164,-5.588998679314749
1708436074.3719006,-1.363526463508606,-1.5353400607458134,-2.7488120237933558,5.430792796402731,1.2131896018981934,-5.589855078850881
1708436074.3739028,-1.3613677024841309,-1.5364163380912323,-2.748519245778219,5.430667209416189,1.2116615772247314,-5.590693060551779
1708436074.3759239,-1.3591041564941406,-1.5375435327044507,-2.74831992784609,5.430686580925741,1.2101901769638062,-5.591512326394216
1708436074.3778872,-1.356911063194275,-1.5386631240001698,-2.7480528990374964,5.4306445000465295,1.2086092233657837,-5.592446688805715
1708436074.3799298,-1.3547251224517822,-1.5398335431567212,-2.747817579899923,5.430661189347067,1.2071080207824707,-5.5932990352260035
1708436074.381904,-1.3525301218032837,-1.5410036903670807,-2.7475057283984583,5.430852520256796,1.2054274082183838,-5.594173018132345
1708436074.3839145,-1.3502603769302368,-1.542200993081071,-2.7472341696368616,5.430991518288412,1.2037813663482666,-5.594996515904562
1708436074.385898,-1.3480541706085205,-1.5434159331819792,-2.7469142119037073,5.431189107685842,1.202038049697876,-5.595947269593374
1708436074.387901,-1.3458198308944702,-1.5446231097779055,-2.746603314076559,5.4313416359718225,1.2002493143081665,-5.59687984386553
1708436074.389926,-1.34354567527771,-1.545949886818864,-2.746300284062521,5.4316526530082605,1.198474645614624,-5.597736064587728
1708436074.391896,-1.3413621187210083,-1.547185930689313,-2.7458465735064905,5.431940066605367,1.1966036558151245,-5.5986419955836695
1708436074.3938966,-1.3391671180725098,-1.5484911010465403,-2.7454968134509485,5.432222533016958,1.1947051286697388,-5.599585417901174
1708436074.3958976,-1.3369874954223633,-1.5497794200531025,-2.745039765034811,5.432587611466207,1.1927516460418701,-5.600481990967886
1708436074.3979375,-1.3348497152328491,-1.5511122562787314,-2.7446375528918665,5.4329107878501794,1.1907410621643066,-5.601399306450979
1708436074.3999085,-1.332702398300171,-1.5523539514145632,-2.744237724934713,5.433359610825338,1.1888279914855957,-5.60238886276354
