Eg3-git/Classifiers/Data Collection/u3/u3xyz3_ur3e_joint_states.csv
time,elbow_joint,shoulder_lift_joint,shoulder_pan_joint,wrist_1_joint,wrist_2_joint,wrist_3_joint
1708436041.1597369,-2.1584134101867676,-1.334053860311844,-2.5095236937152308,6.135464060097494,0.9858131408691406,-5.451660398636953
1708436041.1617172,-2.158384084701538,-1.3340570491603394,-2.5095561186419886,6.135489451676168,0.9858055114746094,-5.451635007058279
1708436041.1637135,-2.158343553543091,-1.3340570491603394,-2.5095930735217493,6.135527002602377,0.9858217239379883,-5.451635007058279
1708436041.1656797,-2.158371686935425,-1.3340291541865845,-2.5095236937152308,6.1354431984718225,0.9858011603355408,-5.451603476201193
1708436041.1677122,-2.1583478450775146,-1.3340495240739365,-2.509559456502096,6.135471451073446,0.9857849478721619,-5.451606396828787
1708436041.169736,-2.158371686935425,-1.3340988618186493,-2.509514872227804,6.135497200279989,0.9858065843582153,-5.45158297220339
1708436041.1716993,-2.1584203243255615,-1.3340035539916535,-2.509535614644186,6.135477530747213,0.9857770204544067,-5.451660398636953
1708436041.1737835,-2.158367395401001,-1.3340495389750977,-2.5095723311053675,6.135456669121542,0.9857280254364014,-5.4516019264804285
1708436041.175755,-2.158404588699341,-1.3340451282313843,-2.509535614644186,6.135477530747213,0.98575758934021,-5.451607827340261
1708436041.1777833,-2.158395528793335,-1.3340614599040528,-2.50956374803652,6.135497200279989,0.985769510269165,-5.451612416897909
1708436041.179705,-2.158393144607544,-1.3340168756297608,-2.5095441977130335,6.1354325888450525,0.9857900738716125,-5.451600793992178
1708436041.1816964,-2.1584088802337646,-1.3340335500291367,-2.5095604101764124,6.135477530747213,0.9857738614082336,-5.451603476201193
1708436041.1836872,-2.1584160327911377,-1.3340495389750977,-2.5095322767840784,6.1354983923728845,0.9857497811317444,-5.451600853596823
1708436041.1857157,-2.1584203243255615,-1.3340451431325455,-2.5095930735217493,6.135461199074545,0.98575758934021,-5.451546851788656
1708436041.1877067,-2.1584088802337646,-1.334053860311844,-2.5095399061786097,6.135515081673422,0.9857584834098816,-5.451533440743582
1708436041.1896923,-2.158393144607544,-1.3340256971171875,-2.5095723311053675,6.1354983923728845,0.9857497215270996,-5.451534632836477
1708436041.191675,-2.1584460735321045,-1.3340495091727753,-2.509531084691183,6.135453688889303,0.9856798648834229,-5.451555792485372
1708436041.1936865,-2.1584248542785645,-1.3340335351279755,-2.5095441977130335,6.135474669724264,0.9857454299926758,-5.451560322438375
1708436041.1956823,-2.1583807468414307,-1.3340495389750977,-2.509535614644186,6.135465609818258,0.9857422709465027,-5.451539103184835
1708436041.197709,-2.158404588699341,-1.3340378564647217,-2.5095766226397913,6.135461199074545,0.9856840968132019,-5.451522711907522
1708436041.199726,-2.1584463119506836,-1.3340495389750977,-2.509535614644186,6.135468470841207,0.9857466220855713,-5.451555792485372
1708436041.2016864,-2.1583797931671143,-1.3340701919845124,-2.5095108191119593,6.135456669121542,0.9856560826301575,-5.45154053369631
1708436041.2036884,-2.1583797931671143,-1.3340451282313843,-2.5095236937152308,6.1354731200035,0.9857181310653687,-5.451520029698507
1708436041.2057235,-2.158384323120117,-1.3340495389750977,-2.5095680395709437,6.135461199074545,0.9856896996498108,-5.451491419469015
1708436041.207752,-2.158404588699341,-1.3340335351279755,-2.5094996134387415,6.13548635223464,0.9856865406036377,-5.4515361229525965
1708436041.2096972,-2.158400058746338,-1.3340211820653458,-2.5095887819873255,6.135477530747213,0.9856571555137634,-5.451508108769552
1708436041.2116995,-2.1583762168884277,-1.3340335202268143,-2.5095160643206995,6.1354983923728845,0.9856734275817871,-5.451463226472036
1708436041.2137024,-2.1584248542785645,-1.334074692135193,-2.509552780781881,6.1354731200035,0.985685408115387,-5.451472107564108
1708436041.2156942,-2.1584372520446777,-1.3340583753636857,-2.5095484892474573,6.135453688889303,0.9856330752372742,-5.4514928499804896
1708436041.2177007,-2.158384084701538,-1.3340256971171875,-2.5095561186419886,6.135502803116598,0.9856493473052979,-5.451439325009481
1708436041.2197042,-2.158404588699341,-1.334021196966507,-2.5095236937152308,6.135462748795309,0.9856536984443665,-5.451427284871237
1708436041.2217178,-2.1584293842315674,-1.334053860311844,-2.5095115343676966,6.135441529541769,0.9856124520301819,-5.4514363447772425
1708436041.2237363,-2.158428430557251,-1.3339961779168625,-2.5095117727862757,6.135491001396932,0.9856168627738953,-5.451415483151571
1708436041.2256947,-2.158400058746338,-1.3340627414039155,-2.5094996134387415,6.1354251978691,0.9856417179107666,-5.4513588587390345
1708436041.2277288,-2.1584088802337646,-1.3340495389750977,-2.5095887819873255,6.135429608612814,0.9856223464012146,-5.451415483151571
1708436041.2296927,-2.158367395401001,-1.3340495389750977,-2.5095236937152308,6.1354864714439294,0.985633134841919,-5.451403562222616
1708436041.2317076,-2.158388614654541,-1.3340495389750977,-2.5095441977130335,6.135444748192587,0.9856266975402832,-5.451364521180288
1708436041.2337186,-2.158393144607544,-1.3340168607285996,-2.5095484892474573,6.135482060700216,0.9856460690498352,-5.4514047543155115
1708436041.2357097,-2.158371686935425,-1.334021196966507,-2.5095365683185022,6.135423648148336,0.9856180548667908,-5.451402250920431
1708436041.2376876,-2.158404588699341,-1.3340423566154023,-2.5094834009753626,6.135523903160848,0.9855730533599854,-5.451372210179464
1708436041.23968,-2.158400058746338,-1.3340538454106827,-2.5095487276660364,6.135408746987142,0.9855935573577881,-5.451352659855978
1708436041.2416809,-2.1583638191223145,-1.3340049099973221,-2.509529415761129,6.135444748192587,0.9855694770812988,-5.45134818950762
1708436041.243691,-2.158449649810791,-1.3339767020991822,-2.5095158259021204,6.1354819414909265,0.9856098294258118,-5.451369051133291
1708436041.2457275,-2.158393144607544,-1.3340345186046143,-2.509540859852926,6.135483491211691,0.9856185913085938,-5.451303486024038
1708436041.247695,-2.158341646194458,-1.3340423566154023,-2.5095277468310755,6.135436999588766,0.9855283498764038,-5.451345149670736
1708436041.2497215,-2.1583752632141113,-1.3340335351279755,-2.509508196507589,6.1354161379630945,0.9855607748031616,-5.451357130204336
1708436041.2516885,-2.158371686935425,-1.3340005439570923,-2.509508196507589,6.135417687683859,0.9855730533599854,-5.45131236711611
1708436041.2537217,-2.158449649810791,-1.3339930337718506,-2.5094996134387415,6.135434019356527,0.9855695366859436,-5.451295916234152
1708436041.255687,-2.158404588699341,-1.3340495389750977,-2.5094834009753626,6.1354251978691,0.9855402708053589,-5.451340738927023
1708436041.2577145,-2.158404588699341,-1.3340005439570923,-2.509540859852926,6.135474669724264,0.9855207800865173,-5.45133483806719
1708436041.2596931,-2.1584088802337646,-1.334053860311844,-2.5094993750201624,6.135453688889303,0.9855532646179199,-5.451259974633352
1708436041.2617133,-2.1584372520446777,-1.3340048652938385,-2.509529415761129,6.135479080467977,0.9855413436889648,-5.451330248509542
1708436041.263704,-2.158388614654541,-1.3340423566154023,-2.509463373814718,6.135443079262533,0.9855738282203674,-5.451267782841818
1708436041.2656822,-2.158362865447998,-1.3340005439570923,-2.509467665349142,6.135408746987142,0.9855294227600098,-5.451276663933889
1708436041.2676935,-2.158395528793335,-1.3340467524579545,-2.5094438234912317,6.135467159539022,0.9855128526687622,-5.451272133980886
1708436041.269718,-2.158341646194458,-1.3340256375125428,-2.509467665349142,6.135396826058187,0.9855294227600098,-5.451239470635549
1708436041.27172,-2.158433675765991,-1.3340005588582535,-2.5094154516803187,6.135396826058187,0.9855172634124756,-5.451248411332266
1708436041.2737122,-2.158406972885132,-1.3340301376632233,-2.5094032923327845,6.135445940285482,0.9855381846427917,-5.45128566423525
1708436041.2756968,-2.1583549976348877,-1.3339974296144028,-2.5094123522387903,6.135404217034139,0.9854966402053833,-5.451272253190176
1708436041.2776985,-2.1584160327911377,-1.333993063574173,-2.5094245115863245,6.135342824250021,0.9855010509490967,-5.45126444498171
1708436041.2796862,-2.1584203243255615,-1.3339767020991822,-2.5094364325152796,6.135429608612814,0.9855338335037231,-5.4512245694743555
1708436041.2817178,-2.158395528793335,-1.3340256971171875,-2.50936729112734,6.1354251978691,0.9855128526687622,-5.451261762772695
1708436041.2836907,-2.1583549976348877,-1.3339767319015046,-2.509404961262838,6.135474550514974,0.9854966402053833,-5.451281193886892
1708436041.285693,-2.158388614654541,-1.3339899343303223,-2.5094078222857874,6.135434019356527,0.9855338335037231,-5.451319936905996
1708436041.2877095,-2.1584417819976807,-1.3340389293483277,-2.5093711058246058,6.135396826058187,0.9855413436889648,-5.451232020054952
1708436041.2896795,-2.158371686935425,-1.3340345186046143,-2.5093968550311487,6.135441529541769,0.985484778881073,-5.45121676126589
1708436041.2916932,-2.158393144607544,-1.3340256971171875,-2.5094504992114466,6.135450470238485,0.9855128526687622,-5.451257232819692
1708436041.2937214,-2.158343553543091,-1.3340270978263398,-2.509433094655172,6.135417687683859,0.9855250716209412,-5.451268974934713
1708436041.2956865,-2.158406972885132,-1.333997444515564,-2.509376351033346,6.135429608612814,0.9854772090911865,-5.451215688382284
1708436041.2976995,-2.158358573913574,-1.333997444515564,-2.509388271962301,6.135417687683859,0.9854965806007385,-5.4512662331210535
1708436041.2996745,-2.1583762168884277,-1.3340018552592774,-2.509425226842062,6.135396826058187,0.9854966402053833,-5.45128566423525
1708436041.3016846,-2.158432960510254,-1.333997444515564,-2.5094004313098353,6.135445940285482,0.9855258464813232,-5.45127779642214
1708436041.3037083,-2.1583797931671143,-1.333997444515564,-2.509416643773214,6.135459410935201,0.9855215549468994,-5.4512662331210535
1708436041.3057246,-2.158345937728882,-1.3339930337718506,-2.509392801915304,6.135422098427572,0.9854559302330017,-5.451290074978964
1708436041.3077052,-2.158404588699341,-1.3339732748321076,-2.5093961397754114,6.135479080467977,0.9854891300201416,-5.451248351727621
1708436041.309684,-2.1584203243255615,-1.3339899343303223,-2.5093839804278772,6.135366666107931,0.9855096340179443,-5.451290015374319
1708436041.3117142,-2.1584088802337646,-1.333985523586609,-2.509425226842062,6.135434019356527,0.9854729175567627,-5.4512643853770655
1708436041.3137054,-2.158362865447998,-1.3339944344810029,-2.5093839804278772,6.135413276940145,0.9854771494865417,-5.451252881680624
1708436041.3157203,-2.1584248542785645,-1.3340225976756592,-2.5093961397754114,6.1353845475013635,0.9854529500007629,-5.451224509869711
1708436041.3177333,-2.1584248542785645,-1.3340018552592774,-2.509388271962301,6.135420548706808,0.9854859709739685,-5.451236550007955
1708436041.319723,-2.1584203243255615,-1.3340345186046143,-2.509404722844259,6.135417687683859,0.9854903221130371,-5.451233450566427
1708436041.3217244,-2.1584088802337646,-1.3340181869319458,-2.509449307118551,6.13538013675765,0.9855215549468994,-5.45121676126589
1708436041.323715,-2.1584088802337646,-1.3340256971171875,-2.509388271962301,6.135413276940145,0.9854728579521179,-5.451252941285269
1708436041.3257086,-2.1584203243255615,-1.3339688640883942,-2.509409491215841,6.135359275131979,0.9854528903961182,-5.451257352028982
1708436041.3277063,-2.1583504676818848,-1.3340181869319458,-2.5094011465655726,6.135414826660909,0.9854934215545654,-5.451228980218069
1708436041.3296797,-2.158406972885132,-1.3340181869319458,-2.509416643773214,6.135445940285482,0.9854772090911865,-5.45124984184374
1708436041.331693,-2.1584203243255615,-1.3340062660029908,-2.509441916142599,6.135471570282736,0.9855139851570129,-5.451220158730642
1708436041.3337307,-2.1584203243255615,-1.3339688342860718,-2.5093675295459192,6.135413276940145,0.9854815006256104,-5.451236550007955
1708436041.335733,-2.1583592891693115,-1.3339644533446808,-2.509409014378683,6.135405766754904,0.9854977130889893,-5.45121676126589
1708436041.3377259,-2.158388614654541,-1.3340389293483277,-2.509388271962301,6.135368215828695,0.9855139851570129,-5.451236550007955
1708436041.339701,-2.1584203243255615,-1.3339688640883942,-2.5093918482409876,6.135405766754904,0.985484778881073,-5.45121676126589
1708436041.341711,-2.158400058746338,-1.3340062660029908,-2.509420935307638,6.13543854930953,0.9854859709739685,-5.451240901147024
1708436041.3437095,-2.1584248542785645,-1.3340315085700531,-2.509420935307638,6.1354161379630945,0.9855184555053711,-5.45123798051943
1708436041.3456788,-2.1584417819976807,-1.333985523586609,-2.5093749205218714,6.13543854930953,0.985484778881073,-5.451228980218069
1708436041.3477213,-2.158391237258911,-1.3339614433101197,-2.509404722844259,6.135351884156027,0.9855139851570129,-5.45127779642214
1708436041.3496778,-2.158404588699341,-1.3339732748321076,-2.509416643773214,6.135434019356527,0.9854441285133362,-5.451254371796743
1708436041.351689,-2.158393144607544,-1.3339988452247162,-2.5093961397754114,6.135392415314474,0.9855184555053711,-5.45131087699999
1708436041.3536859,-2.1584134101867676,-1.3340107661536713,-2.509425226842062,6.1353845475013635,0.9854903221130371,-5.451258842145101
1708436041.355682,-2.158400058746338,-1.3339688640883942,-2.5094004313098353,6.135405766754904,0.9854903221130371,-5.45124984184374
1708436041.3576844,-2.1583478450775146,-1.3339614433101197,-2.509413782750265,6.135417687683859,0.9854691028594971,-5.451266173516409
1708436041.3596752,-2.1583797931671143,-1.3339362007430573,-2.509388271962301,6.135420548706808,0.9854646325111389,-5.451245371495382
1708436041.3616812,-2.158400058746338,-1.3340018552592774,-2.5094004313098353,6.135417687683859,0.9854777455329895,-5.451207820569174
1708436041.3637233,-2.1583504676818848,-1.3339525324157258,-2.5094004313098353,6.135408746987142,0.9855095744132996,-5.451261762772695
1708436041.365681,-2.158367395401001,-1.3339328628829499,-2.5093353430377405,6.135440099030294,0.9855139851570129,-5.451236550007955
1708436041.3677268,-2.1584088802337646,-1.3339899343303223,-2.5093677679644983,6.135398018151083,0.9854572415351868,-5.451224509869711
1708436041.3696764,-2.1584203243255615,-1.3340062660029908,-2.5093796888934534,6.135387885361471,0.9854728579521179,-5.451257292424337
1708436041.3716936,-2.1584160327911377,-1.3340270978263398,-2.509404961262838,6.1354806301887415,0.9854934215545654,-5.4511839787112635
1708436041.3737018,-2.1584417819976807,-1.3339644533446808,-2.5093396345721644,6.1353845475013635,0.9854603409767151,-5.451200369988577
1708436041.375818,-2.158371686935425,-1.3340270978263398,-2.509404722844259,6.135413276940145,0.9854602813720703,-5.4512245694743555
1708436041.3777473,-2.158345937728882,-1.3339600426009675,-2.509388271962301,6.135404217034139,0.9854934215545654,-5.451216701661245
1708436041.379703,-2.158384084701538,-1.3339930337718506,-2.509392801915304,6.135429608612814,0.9854559898376465,-5.451182548199789
1708436041.3816783,-2.1584203243255615,-1.3340434294990082,-2.5094004313098353,6.13543854930953,0.9854977130889893,-5.45121676126589
1708436041.3837006,-2.1584463119506836,-1.3340137761882325,-2.509380880986349,6.1354548809821985,0.9855139255523682,-5.451282266770498
1708436041.3857,-2.1584339141845703,-1.3339614433101197,-2.509404722844259,6.135368215828695,0.9854815006256104,-5.451261762772695
1708436041.387716,-2.1583797931671143,-1.3339930337718506,-2.509388271962301,6.135360824852743,0.9854859709739685,-5.451233450566427
1708436041.389699,-2.1584417819976807,-1.33392287910495,-2.5093794504748743,6.135375726013937,0.9854934215545654,-5.45124984184374
1708436041.3916907,-2.158393144607544,-1.3339944344810029,-2.5093677679644983,6.135417687683859,0.9854602813720703,-5.451240901147024
1708436041.3937254,-2.158404588699341,-1.3340005439570923,-2.5093959013568323,6.13538013675765,0.9854728579521179,-5.451252941285269
1708436041.3957007,-2.158404588699341,-1.333985523586609,-2.509372059498922,6.1353890774543665,0.9854934215545654,-5.451228980218069
1708436041.397724,-2.158393144607544,-1.3340270978263398,-2.5093677679644983,6.135414826660909,0.9854729175567627,-5.451268974934713
1708436041.399714,-2.158388614654541,-1.3339600426009675,-2.509416643773214,6.135450470238485,0.9854603409767151,-5.451187018548147
1708436041.4017117,-2.158393144607544,-1.3340137761882325,-2.5093796888934534,6.135413276940145,0.9854734539985657,-5.451248351727621
1708436041.4037204,-2.158393144607544,-1.3340018552592774,-2.509413782750265,6.135431158333578,0.98553466796875,-5.45129901567568
1708436041.405696,-2.1584088802337646,-1.3339944344810029,-2.509380880986349,6.135392415314474,0.9854860305786133,-5.451228980218069
1708436041.407754,-2.158393144607544,-1.3340137761882325,-2.5093961397754114,6.135434019356527,0.9855346083641052,-5.4512707630740564
1708436041.4097319,-2.1584203243255615,-1.3339569431594391,-2.509392801915304,6.135443079262533,0.9855139851570129,-5.4513020555125635
1708436041.4117265,-2.158400058746338,-1.3339930337718506,-2.5094004313098353,6.13538013675765,0.9854815006256104,-5.451215569172994
1708436041.413719,-2.158384084701538,-1.3340018552592774,-2.509388271962301,6.135365354805746,0.985457181930542,-5.451236550007955
1708436041.415693,-2.158395528793335,-1.333985523586609,-2.5094381014453333,6.135443079262533,0.9854934215545654,-5.451240901147024
1708436041.4176826,-2.158428430557251,-1.333985523586609,-2.5093675295459192,6.135441529541769,0.985436737537384,-5.4512662331210535
1708436041.4197044,-2.1584160327911377,-1.333997444515564,-2.509383742009298,6.135434019356527,0.9854235053062439,-5.451269034539358
1708436041.4216752,-2.1584203243255615,-1.3339988452247162,-2.509413782750265,6.135434019356527,0.985484778881073,-5.451268974934713
1708436041.423707,-2.158404588699341,-1.3339930337718506,-2.509355608616964,6.135392415314474,0.9854728579521179,-5.451261762772695
1708436041.4256887,-2.1583504676818848,-1.3339644533446808,-2.5093839804278772,6.135398018151083,0.9855214953422546,-5.451294545327322
1708436041.4277067,-2.1584372520446777,-1.3339821857265015,-2.509404722844259,6.135419237404623,0.9854441285133362,-5.4512662331210535
1708436041.4296787,-2.158388614654541,-1.3339930337718506,-2.5094168821917933,6.1353845475013635,0.9855053424835205,-5.451221291218893
1708436041.431712,-2.1583752632141113,-1.3339767020991822,-2.509371821080343,6.135420548706808,0.9854236245155334,-5.451248351727621
1708436041.4336815,-2.1583504676818848,-1.3339688640883942,-2.509359900151388,6.1353726265724084,0.9854772090911865,-5.451266173516409
1708436041.4356985,-2.1583807468414307,-1.333985523586609,-2.509404722844259,6.135405766754904,0.9855139255523682,-5.451240901147024
1708436041.437683,-2.1584203243255615,-1.3339767020991822,-2.509404961262838,6.135443079262533,0.9854645729064941,-5.4512662331210535
1708436041.4396873,-2.158393144607544,-1.3339451116374512,-2.509409252797262,6.135450470238485,0.9854890704154968,-5.4512274901019495
1708436041.4417787,-2.158400058746338,-1.3340181869319458,-2.5094078222857874,6.135393607407369,0.9854859709739685,-5.451248351727621
1708436041.4437122,-2.158432960510254,-1.3339644533446808,-2.509388271962301,6.135447490006246,0.9854602813720703,-5.451224450265066
1708436041.4456902,-2.1584160327911377,-1.3340434294990082,-2.509388271962301,6.135417687683859,0.9854946136474609,-5.451294485722677
1708436041.4477448,-2.1583728790283203,-1.3340345186046143,-2.5094004313098353,6.13538013675765,0.9854815006256104,-5.451252881680624
1708436041.4496925,-2.1584115028381348,-1.333943710928299,-2.509404961262838,6.135347354203024,0.985497772693634,-5.451306406651632
1708436041.451723,-2.158388614654541,-1.3339899343303223,-2.5093629995929163,6.135435569077291,0.98544842004776,-5.451325837765829
1708436041.4537039,-2.158393144607544,-1.3340018552592774,-2.5094168821917933,6.1354251978691,0.9854771494865417,-5.4513049761401575
1708436041.455689,-2.158404588699341,-1.3339777749827881,-2.5093959013568323,6.135417687683859,0.985457181930542,-5.451288584862844
1708436041.4577608,-2.1583807468414307,-1.3340345186046143,-2.509383742009298,6.135474669724264,0.9855183959007263,-5.45126444498171
1708436041.4596941,-2.158400058746338,-1.3339362007430573,-2.5094004313098353,6.1354251978691,0.9854891300201416,-5.451339189206259
1708436041.46171,-2.158371686935425,-1.3339777749827881,-2.5094016234027308,6.135479080467977,0.9854603409767151,-5.45126444498171
1708436041.4636948,-2.1584203243255615,-1.3339495223811646,-2.5093794504748743,6.13543854930953,0.9855096340179443,-5.451272193585531
1708436041.465703,-2.1584248542785645,-1.3339688640883942,-2.5093634764300745,6.13540135601119,0.9854815006256104,-5.451293055211202
1708436041.4676883,-2.158388614654541,-1.3340345186046143,-2.5094004313098353,6.135434019356527,0.9854815006256104,-5.451297525559561
1708436041.4696836,-2.158404588699341,-1.3340315085700531,-2.509433094655172,6.13543854930953,0.9855096340179443,-5.451321367417471
1708436041.4717057,-2.158388614654541,-1.3339777749827881,-2.5093677679644983,6.135426628380575,0.9855053424835205,-5.451295975838796
1708436041.473745,-2.158388614654541,-1.3339525324157258,-2.5094004313098353,6.135405766754904,0.9854646921157837,-5.451313916836874
1708436041.4757023,-2.158388614654541,-1.334019587641098,-2.509404722844259,6.1353338835533044,0.9854815006256104,-5.451358501111166
1708436041.4777236,-2.158388614654541,-1.333988518720009,-2.5093961397754114,6.135422098427572,0.9855301380157471,-5.451370422040121
1708436041.4796782,-2.158395528793335,-1.3339688640883942,-2.509376351033346,6.135471570282736,0.9854815006256104,-5.451379362736837
1708436041.481711,-2.1584372520446777,-1.3340389293483277,-2.50944167772402,6.135405766754904,0.9855258464813232,-5.451300505791799
1708436041.4836726,-2.158388614654541,-1.3339644533446808,-2.509437386189596,6.135445940285482,0.9854322671890259,-5.451300505791799
1708436041.485667,-2.158353805541992,-1.3340315085700531,-2.5094288031207483,6.135422098427572,0.9854760766029358,-5.45133358636965
1708436041.4876864,-2.158384084701538,-1.333981142645218,-2.5093558470355433,6.135426628380575,0.9854860305786133,-5.451338056718008
1708436041.489686,-2.158404588699341,-1.3339601022056122,-2.5094080607043665,6.135417687683859,0.9854815006256104,-5.451329056416647
1708436041.4916909,-2.158404588699341,-1.3339525175145646,-2.509416643773214,6.135413276940145,0.9854729175567627,-5.45133358636965
1708436041.4937377,-2.1584019660949707,-1.3339285117438813,-2.5094004313098353,6.135436999588766,0.9854977130889893,-5.451329056416647
1708436041.4956732,-2.1584205627441406,-1.3339810830405732,-2.5093472639666956,6.135396826058187,0.9855064749717712,-5.451349620019094
1708436041.4977043,-2.158395528793335,-1.3340225976756592,-2.5094037691699427,6.135492431908407,0.9854772090911865,-5.45132023492922
1708436041.4996731,-2.1584203243255615,-1.3339644533446808,-2.509372059498922,6.135422098427572,0.9855021834373474,-5.451338056718008
1708436041.5017054,-2.1584248542785645,-1.3339644235423584,-2.5093677679644983,6.135365235596456,0.9854441285133362,-5.451307956372396
1708436041.503698,-2.1584088802337646,-1.334019587641098,-2.5093961397754114,6.13540135601119,0.9855064749717712,-5.451275293027059
1708436041.505687,-2.1584203243255615,-1.3339732748321076,-2.5094004313098353,6.135453688889303,0.9855096340179443,-5.45131236711611
1708436041.5077105,-2.158432722091675,-1.334038869743683,-2.5094004313098353,6.135429608612814,0.9855021834373474,-5.451345090066091
1708436041.5096912,-2.1584160327911377,-1.3339899343303223,-2.509425226842062,6.135375726013937,0.9855053424835205,-5.451345090066091
1708436041.511684,-2.1584248542785645,-1.3339767020991822,-2.509425226842062,6.135387885361471,0.9854772090911865,-5.451324705277578
1708436041.5136976,-2.1584160327911377,-1.3340389144471665,-2.509392563496725,6.135429608612814,0.9854815006256104,-5.451316897069113
1708436041.5156817,-2.158388614654541,-1.3340478402427216,-2.509364430104391,6.1353845475013635,0.9854977130889893,-5.45132023492922
1708436041.5176919,-2.158384084701538,-1.3340314489654084,-2.5094004313098353,6.13540135601119,0.9854815006256104,-5.451300505791799
1708436041.5196762,-2.158384084701538,-1.3340018403581162,-2.5093472639666956,6.135413157730856,0.9854891300201416,-5.451349620019094
1708436041.5216787,-2.1584203243255615,-1.3340137910893937,-2.5094004313098353,6.1354864714439294,0.9854772090911865,-5.45133358636965
1708436041.5237114,-2.158395528793335,-1.3340644997409363,-2.509392563496725,6.1354267475898645,0.9854977130889893,-5.45132023492922
1708436041.5257218,-2.158388614654541,-1.3339899343303223,-2.509372059498922,6.135401236801901,0.9855096340179443,-5.451361481343405
1708436041.5276937,-2.158362865447998,-1.3339855384877701,-2.5093839804278772,6.135396826058187,0.9854848384857178,-5.4513705412494105
1708436041.5297358,-2.158391237258911,-1.333986596470215,-2.509392563496725,6.135392415314474,0.9854891300201416,-5.451354090367452
1708436041.5316927,-2.158384084701538,-1.3339569431594391,-2.509376351033346,6.135436999588766,0.9854934215545654,-5.451308015977041
1708436041.5336938,-2.1584115028381348,-1.3339405965856095,-2.509409252797262,6.135458218842306,0.9854934215545654,-5.451340738927023
1708436041.535684,-2.158400058746338,-1.3339614433101197,-2.509425226842062,6.1354267475898645,0.9854729175567627,-5.451352659855978
1708436041.5377085,-2.158393144607544,-1.3340478402427216,-2.509425226842062,6.135441529541769,0.9854934215545654,-5.451291565095083
1708436041.539693,-2.158391237258911,-1.3339810830405732,-2.5093918482409876,6.135431158333578,0.9854772090911865,-5.451352659855978
1708436041.5416813,-2.158400058746338,-1.3340018403581162,-2.509372059498922,6.135467159539022,0.9854934215545654,-5.451329056416647
1708436041.5437045,-2.158393144607544,-1.333985523586609,-2.5094080607043665,6.135462748795309,0.9854848384857178,-5.451340738927023
1708436041.5457401,-2.158395528793335,-1.3340137761882325,-2.5093839804278772,6.135446059494772,0.9854354858398438,-5.451397661362783
1708436041.5476873,-2.1584203243255615,-1.3340478402427216,-2.509409014378683,6.135436999588766,0.9854603409767151,-5.451377813016073
1708436041.5497534,-2.158393144607544,-1.3340434294990082,-2.5094624201404017,6.135417687683859,0.9855139255523682,-5.451364580784933
1708436041.551683,-2.1583797931671143,-1.3340344440988083,-2.5093634764300745,6.135436999588766,0.9855139255523682,-5.451352659855978
1708436041.5536947,-2.158391237258911,-1.3340107661536713,-2.509372059498922,6.135485040932455,0.9855053424835205,-5.451340738927023
1708436041.5556953,-2.158419370651245,-1.3339974594167252,-2.5093839804278772,6.135462748795309,0.9854772090911865,-5.451377872620718
1708436041.5576823,-2.158445119857788,-1.3339688640883942,-2.509388271962301,6.135408746987142,0.9855139255523682,-5.4513482491122645
1708436041.5597126,-2.158445119857788,-1.3340018403581162,-2.5094123522387903,6.135432469635763,0.9854729175567627,-5.451377813016073
1708436041.5616872,-2.158395528793335,-1.334051178102829,-2.509376351033346,6.135462748795309,0.9855053424835205,-5.4513734618770044
1708436041.5637121,-2.1583797931671143,-1.3340151768973847,-2.5093839804278772,6.135458218842306,0.9854934215545654,-5.45132023492922
1708436041.5656898,-2.1584372520446777,-1.3340062511018296,-2.5094123522387903,6.135375726013937,0.9855096936225891,-5.451352659855978
1708436041.5676877,-2.1584203243255615,-1.3339854937842865,-2.509413782750265,6.135450470238485,0.9854728579521179,-5.451385680829183
1708436041.5696907,-2.158406972885132,-1.3339481216720124,-2.509404722844259,6.135458218842306,0.9855139255523682,-5.451329056416647
1708436041.5717108,-2.158428430557251,-1.3340018552592774,-2.5093794504748743,6.1354251978691,0.9854685664176941,-5.451308015977041
1708436041.5737197,-2.1583540439605713,-1.3340181869319458,-2.5094080607043665,6.135458218842306,0.9854891300201416,-5.451336268578665
1708436041.5757046,-2.158406972885132,-1.3339777749827881,-2.509392563496725,6.135488021164694,0.9854977130889893,-5.45136005083193
1708436041.5776947,-2.158391237258911,-1.3339810979417344,-2.509413782750265,6.135450470238485,0.9854891300201416,-5.451308015977041
1708436041.5797026,-2.158406972885132,-1.3339855384877701,-2.5094011465655726,6.135395395546713,0.9854934215545654,-5.451352659855978
1708436041.5816886,-2.158423900604248,-1.3339899194291611,-2.509388271962301,6.135453688889303,0.9855139255523682,-5.451377813016073
1708436041.583719,-2.1583662033081055,-1.3340270233205338,-2.5093675295459192,6.1354761002357385,0.9854772090911865,-5.451311234627859
1708436041.5857124,-2.158406972885132,-1.3339688640883942,-2.509372059498922,6.135434138565817,0.9854560494422913,-5.45136142173876
1708436041.5876925,-2.1584203243255615,-1.3339899343303223,-2.509372059498922,6.135434019356527,0.9854848384857178,-5.4513437191592615
1708436041.5896883,-2.1584362983703613,-1.3339930039695282,-2.509420935307638,6.1354251978691,0.9855183959007263,-5.451385740433828
1708436041.591685,-2.1583752632141113,-1.333976687198021,-2.50944167772402,6.135474669724264,0.9855172634124756,-5.45134818950762
1708436041.5936933,-2.158423900604248,-1.3339988154223938,-2.5094123522387903,6.135413276940145,0.9854729175567627,-5.45134818950762
1708436041.5956986,-2.158423900604248,-1.3339944195798417,-2.509409014378683,6.135420548706808,0.9855010509490967,-5.451352659855978
1708436041.5976987,-2.1584160327911377,-1.3339767319015046,-2.5093677679644983,6.135434019356527,0.9855173230171204,-5.451311294232504
1708436041.5996916,-2.158428430557251,-1.3340062212995072,-2.5093558470355433,6.13540135601119,0.9855172634124756,-5.451410893593923
1708436041.6016836,-2.158406972885132,-1.3339600724032898,-2.5093968550311487,6.13544927814559,0.9855128526687622,-5.451331857834951
1708436041.60369,-2.158423900604248,-1.3340388995460053,-2.5093677679644983,6.13542805889205,0.9854685664176941,-5.4513901511775416
1708436041.6057062,-2.158432722091675,-1.3340062660029908,-2.5094133059131067,6.135458218842306,0.9855172634124756,-5.451343659554617
1708436041.6076946,-2.1584203243255615,-1.3339811128428956,-2.509409252797262,6.135444748192587,0.9855021834373474,-5.451352659855978
1708436041.6097074,-2.1584203243255615,-1.3340137761882325,-2.509392563496725,6.135444748192587,0.9855258464813232,-5.451369051133291
1708436041.611692,-2.158423900604248,-1.3339406114867707,-2.509388271962301,6.135461199074545,0.9854815006256104,-5.451406542454855
1708436041.6137195,-2.158432722091675,-1.3339944344810029,-2.509371821080343,6.135432469635763,0.9855139255523682,-5.451340738927023
1708436041.615693,-2.158391237258911,-1.3339821708253403,-2.509388271962301,6.135387885361471,0.9855215549468994,-5.451402072106497
1708436041.6177158,-2.158406972885132,-1.3339766722968598,-2.509416643773214,6.135450351029196,0.9854804277420044,-5.45136005083193
1708436041.6196976,-2.1583707332611084,-1.333965854053833,-2.509383742009298,6.135404217034139,0.9855215549468994,-5.451382342969076
1708436041.6217194,-2.1584088802337646,-1.3339614582112809,-2.5094004313098353,6.135399806290426,0.9854891300201416,-5.451402072106497
1708436041.6237395,-2.158391237258911,-1.334019587641098,-2.5093968550311487,6.1353845475013635,0.9854603409767151,-5.451377813016073
1708436041.6257355,-2.158395528793335,-1.3340645146420975,-2.509371821080343,6.135453688889303,0.9855301380157471,-5.451352659855978
1708436041.6277158,-2.158386707305908,-1.3339688789895554,-2.509388271962301,6.135413276940145,0.9855215549468994,-5.45136005083193
1708436041.629679,-2.158386707305908,-1.3339855086854477,-2.509392563496725,6.135441529541769,0.9854966402053833,-5.451385680829183
1708436041.6316817,-2.1583797931671143,-1.3340478402427216,-2.509404722844259,6.135450470238485,0.9855010509490967,-5.451303605233328
1708436041.6337035,-2.158423900604248,-1.3339974296144028,-2.5093675295459192,6.1354761002357385,0.9854891300201416,-5.451327327881948
1708436041.6357176,-2.158428430557251,-1.334027038221695,-2.5093839804278772,6.135434138565817,0.9854848384857178,-5.451368991528646
1708436041.6377354,-2.158445119857788,-1.3340018552592774,-2.509409014378683,6.135420548706808,0.9854934215545654,-5.45139313140978
1708436041.6396928,-2.158428430557251,-1.3339811128428956,-2.509388271962301,6.135453688889303,0.9855215549468994,-5.45134818950762
1708436041.6417098,-2.158386707305908,-1.3339974296144028,-2.509383742009298,6.135511863022604,0.9855338335037231,-5.451355640088217
1708436041.6437078,-2.158428430557251,-1.3340107661536713,-2.509388271962301,6.135491001396932,0.9854891300201416,-5.45136005083193
1708436041.645697,-2.158428430557251,-1.3339451116374512,-2.509442392979757,6.135474669724264,0.9855010509490967,-5.451352659855978
1708436041.6477222,-2.158428430557251,-1.3339525324157258,-2.509421173726217,6.1354251978691,0.985512912273407,-5.45134818950762
1708436041.649709,-2.1584701538085938,-1.3340225976756592,-2.509409491215841,6.135467159539022,0.9855301976203918,-5.45130688348879
1708436041.6517282,-2.158445119857788,-1.333985523586609,-2.509379212056295,6.1354819414909265,0.9855294823646545,-5.4513930718051355
1708436041.653719,-2.158449649810791,-1.3339899343303223,-2.5094168821917933,6.135502803116598,0.9855543375015259,-5.4513466993915
1708436041.655693,-2.158423900604248,-1.3339930039695282,-2.5093420187579554,6.1354864714439294,0.9855258464813232,-5.45136005083193
1708436041.6577,-2.1583797931671143,-1.333985523586609,-2.509409491215841,6.135462748795309,0.9855172634124756,-5.451404694710867
1708436041.659681,-2.158454179763794,-1.3340315085700531,-2.509383742009298,6.1354864714439294,0.9854804277420044,-5.45138127008547
1708436041.6617045,-2.158419370651245,-1.3340181720307847,-2.509388271962301,6.135465609818258,0.9855301976203918,-5.451355580483572
1708436041.6637113,-2.1584088802337646,-1.3339732748321076,-2.5094004313098353,6.135395395546713,0.9855085611343384,-5.451343659554617
1708436041.66571,-2.158391237258911,-1.3340062511018296,-2.5093749205218714,6.135413276940145,0.9855042099952698,-5.451363388692037
1708436041.6677146,-2.1583707332611084,-1.3339855086854477,-2.509388271962301,6.135453688889303,0.9855172634124756,-5.451418105755941
1708436041.6697218,-2.1584408283233643,-1.3339688640883942,-2.509430233632223,6.1354161379630945,0.9854803681373596,-5.451360110436575
1708436041.6717,-2.158423900604248,-1.3340256971171875,-2.50944692293276,6.135436999588766,0.9855294823646545,-5.451430384312765
1708436041.6737473,-2.158406972885132,-1.334018201833107,-2.509376351033346,6.135432469635763,0.9855128526687622,-5.451376740132467
1708436041.6757412,-2.158406972885132,-1.333989904528,-2.509414021168844,6.135453688889303,0.9855338335037231,-5.4514169732676905
1708436041.677702,-2.1584103107452393,-1.334015206699707,-2.5094168821917933,6.135429608612814,0.9855294227600098,-5.451402072106497
1708436041.6796799,-2.1584417819976807,-1.333973230128624,-2.5094123522387903,6.135491001396932,0.985550045967102,-5.451413635407583
1708436041.681682,-2.158423900604248,-1.333997444515564,-2.5094004313098353,6.1354819414909265,0.9855164885520935,-5.451384309922354
1708436041.683743,-2.158386707305908,-1.3340270978263398,-2.5094123522387903,6.135461199074545,0.9854879975318909,-5.451404694710867
1708436041.6856954,-2.158423900604248,-1.3340107661536713,-2.5093959013568323,6.1354819414909265,0.9855456352233887,-5.451384309922354
1708436041.6877127,-2.158384084701538,-1.334009365444519,-2.5094078222857874,6.135465609818258,0.9855207800865173,-5.451395813618795
1708436041.6896856,-2.158445119857788,-1.334019513135292,-2.5093959013568323,6.135453688889303,0.985537052154541,-5.451355580483572
1708436041.6916878,-2.158428430557251,-1.3340434593013306,-2.5093794504748743,6.135395395546713,0.9855619072914124,-5.45138127008547
1708436041.6937356,-2.158404588699341,-1.3340433847955246,-2.5094199816333216,6.135470020561971,0.9856228232383728,-5.451355580483572
1708436041.6956825,-2.158395528793335,-1.3339526069215317,-2.5094123522387903,6.135491001396932,0.9855456352233887,-5.451367978249685
1708436041.6977444,-2.158397912979126,-1.3339644086411973,-2.509442392979757,6.13547300079421,0.9855817556381226,-5.451339248810903
1708436041.699693,-2.158428430557251,-1.3340018403581162,-2.509383742009298,6.135465609818258,0.9855327010154724,-5.451384250317709
1708436041.7017279,-2.158404588699341,-1.33402572691951,-2.509388271962301,6.1354161379630945,0.9855445623397827,-5.45138127008547
1708436041.703693,-2.1584584712982178,-1.3339777153781434,-2.5093916098224085,6.135489451676168,0.9855402708053589,-5.451388601456777
1708436041.7057095,-2.1584115028381348,-1.3340389293483277,-2.5093959013568323,6.1354864714439294,0.9855860471725464,-5.451409165059225
1708436041.7077084,-2.158404588699341,-1.3339930039695282,-2.5094381014453333,6.13543580749587,0.985537052154541,-5.451384309922354
1708436041.7097049,-2.1584362983703613,-1.3340256971171875,-2.5094078222857874,6.135456669121542,0.9855564832687378,-5.451404694710867
1708436041.7116985,-2.158428430557251,-1.333982215528824,-2.5094123522387903,6.135465609818258,0.9855967164039612,-5.451355640088217
1708436041.7137196,-2.158406972885132,-1.3340389144471665,-2.5094123522387903,6.135477530747213,0.9855642318725586,-5.451421384011404
1708436041.7156935,-2.158423900604248,-1.3339944344810029,-2.5094078222857874,6.135440337448873,0.9856135845184326,-5.451417032872335
1708436041.7177017,-2.158391237258911,-1.3340062212995072,-2.5093959013568323,6.135461199074545,0.9856386184692383,-5.45139313140978
1708436041.7196724,-2.1584372520446777,-1.3339811128428956,-2.5093703905688685,6.135480391770162,0.9856460690498352,-5.451388661061422
1708436041.721699,-2.1584408283233643,-1.3340107661536713,-2.5094245115863245,6.13539086559371,0.9855924248695374,-5.451449755822317
1708436041.7237039,-2.158432722091675,-1.3340151917985459,-2.5094154516803187,6.13544927814559,0.9856666922569275,-5.451400343571798
1708436041.7256708,-2.158406972885132,-1.3339974594167252,-2.5094123522387903,6.135477530747213,0.9856255054473877,-5.451386932526724
1708436041.7276912,-2.158406972885132,-1.3340018552592774,-2.5094245115863245,6.13544927814559,0.9856297969818115,-5.451395813618795
1708436041.7297037,-2.158449649810791,-1.3339512211135407,-2.5094078222857874,6.13543580749587,0.9855924248695374,-5.451372329388754
1708436041.7316785,-2.1584203243255615,-1.3339899492314835,-2.5093675295459192,6.135491001396932,0.9856579899787903,-5.451437715684072
1708436041.7337172,-2.1584160327911377,-1.33394809186969,-2.5094004313098353,6.13544927814559,0.9856255054473877,-5.451400343571798
1708436041.7356853,-2.158345937728882,-1.3339767468026658,-2.5094333330737513,6.135519492417135,0.9856579899787903,-5.451408032570974
1708436041.7376926,-2.158404588699341,-1.3339767020991822,-2.5093961397754114,6.135458218842306,0.9856579899787903,-5.451395813618795
1708436041.7396796,-2.158428430557251,-1.3339899492314835,-2.5094078222857874,6.1354731200035,0.9856579899787903,-5.451395813618795
1708436041.7416787,-2.158391237258911,-1.3339777451804657,-2.509388271962301,6.135461199074545,0.9856622815132141,-5.451433364545004
1708436041.7437005,-2.158454179763794,-1.3340256971171875,-2.5094290415393274,6.135477530747213,0.9856460690498352,-5.451437715684072
1708436041.7457235,-2.158395528793335,-1.333981142645218,-2.5094123522387903,6.135501611023702,0.9856821298599243,-5.451395813618795
1708436041.7477088,-2.1584115028381348,-1.333985523586609,-2.5093916098224085,6.135465609818258,0.9856907725334167,-5.451433364545004
1708436041.7497294,-2.1584408283233643,-1.3340389293483277,-2.5094497839557093,6.135444748192587,0.9856579303741455,-5.451391402875082
1708436041.7516835,-2.158384084701538,-1.3340181869319458,-2.5094078222857874,6.135543334275045,0.9856460094451904,-5.451372329388754
1708436041.7537422,-2.1583752632141113,-1.3340094101480027,-2.5094483534442347,6.135501611023702,0.985633134841919,-5.451400343571798
1708436041.755699,-2.1584160327911377,-1.333960012798645,-2.5094364325152796,6.135423648148336,0.9856449365615845,-5.451384309922354
1708436041.7576962,-2.158404588699341,-1.3339777451804657,-2.5094123522387903,6.135493862419882,0.9856287240982056,-5.451379839573995
1708436041.759698,-2.1584160327911377,-1.3340181571296235,-2.5093944708453577,6.135517942696371,0.9856493473052979,-5.451400343571798
1708436041.7616787,-2.158406972885132,-1.3340181720307847,-2.5094364325152796,6.135458218842306,0.985633134841919,-5.451404694710867
1708436041.7636952,-2.1584115028381348,-1.3340644997409363,-2.5094409624682825,6.1354983923728845,0.9856493473052979,-5.451404694710867
1708436041.765675,-2.158445119857788,-1.333997444515564,-2.5094168821917933,6.135506140976705,0.9856702089309692,-5.4514124433146876
1708436041.76767,-2.158391237258911,-1.3340271276286622,-2.5094245115863245,6.135456669121542,0.9856536388397217,-5.4514047543155115
1708436041.7696722,-2.158419370651245,-1.3339525324157258,-2.5094245115863245,6.135477530747213,0.9856659173965454,-5.4514334241496485
1708436041.7716794,-2.158406972885132,-1.333985523586609,-2.5094409624682825,6.135411727219381,0.9856734871864319,-5.451370839272634
1708436041.7737231,-2.1583540439605713,-1.3339855086854477,-2.5094078222857874,6.135493862419882,0.9856330752372742,-5.4514363447772425
1708436041.7757716,-2.158423900604248,-1.3340018403581162,-2.5093990007983606,6.1354864714439294,0.985624372959137,-5.451391402875082
1708436041.7777128,-2.158423900604248,-1.3340137761882325,-2.5094409624682825,6.135411727219381,0.9856536984443665,-5.451370958481924
1708436041.779704,-2.158402681350708,-1.3340137761882325,-2.5094245115863245,6.135444748192587,0.9856405854225159,-5.451403562222616
1708436041.7817254,-2.1584160327911377,-1.3339525324157258,-2.5094617048846644,6.135510670929708,0.9856449961662292,-5.451454047356741
1708436041.7837238,-2.1583752632141113,-1.3339820814183732,-2.5094528833972376,6.135510670929708,0.985661506652832,-5.45139587322344
1708436041.7857025,-2.158419370651245,-1.3340389293483277,-2.5093959013568323,6.135477530747213,0.9856244325637817,-5.451449696217672
1708436041.7877097,-2.158386707305908,-1.333997444515564,-2.5094454924212855,6.1354819414909265,0.9856702089309692,-5.451404694710867
1708436041.7896955,-2.1584372520446777,-1.3339767170003434,-2.5094690958606165,6.135527002602377,0.9856406450271606,-5.451403621827261
1708436041.7917209,-2.158423900604248,-1.3340300929597397,-2.5094483534442347,6.135527002602377,0.9856493473052979,-5.451445225869314
1708436041.793709,-2.158391237258911,-1.3339615178159256,-2.5094364325152796,6.135450470238485,0.9856659173965454,-5.451395813618795
1708436041.7957034,-2.1584203243255615,-1.3340093803456803,-2.5094826857196253,6.13542805889205,0.985661506652832,-5.451375369225637
1708436041.7977219,-2.1583752632141113,-1.3340467375567933,-2.5094290415393274,6.135515081673422,0.9856406450271606,-5.451421384011404
1708436041.7996945,-2.158428430557251,-1.3339811128428956,-2.5094290415393274,6.135477530747213,0.9856536388397217,-5.451427404080526
1708436041.8016894,-2.1584115028381348,-1.3339943897775193,-2.5093870798694056,6.135501611023702,0.9856493473052979,-5.451440755520956
1708436041.8036954,-2.158367395401001,-1.3339811277440567,-2.5094199816333216,6.135527002602377,0.9856212139129639,-5.451408092175619
1708436041.805725,-2.1583752632141113,-1.3340478551438828,-2.5094497839557093,6.13553141334609,0.9856493473052979,-5.451411012803213
1708436041.8077195,-2.158423900604248,-1.3340644550374527,-2.5094078222857874,6.135519611626425,0.9856659173965454,-5.451403621827261
1708436041.8097327,-2.158384084701538,-1.3339777749827881,-2.5094123522387903,6.135493862419882,0.985661506652832,-5.451449636613027
1708436041.811695,-2.1584088802337646,-1.3339525175145646,-2.5094245115863245,6.135423648148336,0.9856939911842346,-5.451417032872335
1708436041.8136928,-2.158404588699341,-1.3339644831470032,-2.5094290415393274,6.135423648148336,0.9856406450271606,-5.451404694710867
1708436041.8156993,-2.158391237258911,-1.334038884644844,-2.5094078222857874,6.135489570885458,0.9856529235839844,-5.451466027890341
1708436041.8177311,-2.1584203243255615,-1.3339732599309464,-2.5093825499164026,6.135493862419882,0.9856603741645813,-5.451424423848287
1708436041.8197014,-2.158449649810791,-1.3340138059905549,-2.5094245115863245,6.135440337448873,0.985689640045166,-5.451412502919332
1708436041.8216934,-2.158428430557251,-1.333977760081627,-2.5094409624682825,6.135436999588766,0.9856691360473633,-5.451417032872335
1708436041.8236897,-2.158395528793335,-1.3340225976756592,-2.5094409624682825,6.135468590050497,0.985689640045166,-5.451443735753195
1708436041.8257077,-2.158384084701538,-1.3340389293483277,-2.5093990007983606,6.13544927814559,0.9856853485107422,-5.451404694710867
1708436041.8277025,-2.158423900604248,-1.3340467375567933,-2.5094454924212855,6.135477530747213,0.9856691360473633,-5.451424423848287
1708436041.829701,-2.158395528793335,-1.3339767468026658,-2.5094528833972376,6.135387885361471,0.9856939911842346,-5.451433364545004
1708436041.831712,-2.158400058746338,-1.3339555126479645,-2.5094571749316614,6.135470020561971,0.9856571555137634,-5.451449696217672
1708436041.8337379,-2.158367395401001,-1.3340137910893937,-2.5094736258136194,6.135506140976705,0.9856734275817871,-5.451354626809255
1708436041.8357444,-2.158432722091675,-1.3340049099973221,-2.5094781557666224,6.135447728424825,0.9856648445129395,-5.451408092175619
1708436041.8376994,-2.1584460735321045,-1.3339613688043137,-2.5094168821917933,6.135458218842306,0.9856572151184082,-5.451428834592001
1708436041.8397055,-2.1584115028381348,-1.3340137910893937,-2.5094574133502405,6.1354864714439294,0.9856690764427185,-5.451399211083547
1708436041.8417053,-2.158388614654541,-1.3339810830405732,-2.5094452540027063,6.135482060700216,0.9856287240982056,-5.451375369225637
1708436041.8436942,-2.158393144607544,-1.3340018701604386,-2.5094319025622767,6.13539086559371,0.9857058525085449,-5.451428834592001
1708436041.84569,-2.158404588699341,-1.333976687198021,-2.5094571749316614,6.1354819414909265,0.9856659173965454,-5.451400343571798
1708436041.8476977,-2.1584203243255615,-1.333943785434105,-2.5094335714923304,6.1354251978691,0.9856853485107422,-5.451400343571798
1708436041.8496857,-2.158393144607544,-1.334051178102829,-2.5093990007983606,6.1354819414909265,0.9856244325637817,-5.45138252178301
1708436041.851692,-2.158384084701538,-1.3339974892190476,-2.509427611027853,6.135453688889303,0.9856603741645813,-5.451443795357839
1708436041.8536978,-2.158371686935425,-1.3339688640883942,-2.5094123522387903,6.13542805889205,0.9856734275817871,-5.451428834592001
1708436041.8556783,-2.158393144607544,-1.3340257120183487,-2.5094290415393274,6.135420548706808,0.9856572151184082,-5.451400343571798
1708436041.8577023,-2.158388614654541,-1.3339930933764954,-2.509439531956808,6.135483491211691,0.9856939911842346,-5.451436404381887
1708436041.859705,-2.1583797931671143,-1.3339855384877701,-2.5095019976245325,6.135420548706808,0.9856939911842346,-5.4513869921313685
1708436041.8617322,-2.158343553543091,-1.3339777749827881,-2.5094319025622767,6.13540135601119,0.9856691360473633,-5.451452676449911
1708436041.863694,-2.1584203243255615,-1.3339732897332688,-2.5093780199633997,6.135467040329733,0.9856529235839844,-5.451431934033529
1708436041.8656847,-2.158393144607544,-1.33403895915065,-2.5094245115863245,6.135411727219381,0.985689640045166,-5.451445225869314
1708436041.8677127,-2.1583504676818848,-1.3339987856200715,-2.5094483534442347,6.135488021164694,0.9856201410293579,-5.451457146798269
1708436041.8696961,-2.158339023590088,-1.3339944195798417,-2.5094290415393274,6.1354267475898645,0.9856691360473633,-5.451436404381887
1708436041.8716757,-2.1583974361419678,-1.334047870045044,-2.5094319025622767,6.1354731200035,0.9856485724449158,-5.451433364545004
1708436041.873716,-2.158371686935425,-1.3339688938907166,-2.5094290415393274,6.135375726013937,0.9856939315795898,-5.4514363447772425
1708436041.8757453,-2.158339023590088,-1.3340270978263398,-2.5094364325152796,6.135436999588766,0.9856853485107422,-5.451445225869314
1708436041.8777149,-2.1583549976348877,-1.3339481812766572,-2.5094736258136194,6.135387885361471,0.9856853485107422,-5.451395813618795
1708436041.8797398,-2.1584179401397705,-1.3340555292418976,-2.5094319025622767,6.135404336243429,0.9856734275817871,-5.451421384011404
1708436041.8816853,-2.1583523750305176,-1.3339689087918778,-2.5094364325152796,6.135453688889303,0.9856939315795898,-5.451412502919332
1708436041.8837066,-2.1583807468414307,-1.334004895096161,-2.5094528833972376,6.135404217034139,0.9856777191162109,-5.451482717190878
1708436041.8856802,-2.158384084701538,-1.3340151619962235,-2.5094364325152796,6.135436999588766,0.9856485724449158,-5.451427404080526
1708436041.887688,-2.158388614654541,-1.333985523586609,-2.509439531956808,6.1354548809821985,0.9856659173965454,-5.451395813618795
1708436041.8897097,-2.1583478450775146,-1.3339930784753342,-2.5094528833972376,6.13538025596694,0.9856702089309692,-5.451424423848287
1708436041.8916876,-2.158339023590088,-1.3339899492314835,-2.5094078222857874,6.135413276940145,0.9856528639793396,-5.451428834592001
1708436041.8937154,-2.1583762168884277,-1.3339569729617615,-2.5094409624682825,6.135405766754904,0.9856853485107422,-5.451395813618795
1708436041.8957305,-2.1583638191223145,-1.3340212565711518,-2.5094364325152796,6.1353890774543665,0.9857015609741211,-5.451428834592001
1708436041.897697,-2.1583354473114014,-1.334034488802292,-2.509455744420187,6.135462748795309,0.9856777191162109,-5.4514363447772425
1708436041.8996925,-2.158343553543091,-1.3339944195798417,-2.5094452540027063,6.135405766754904,0.9856777191162109,-5.451440755520956
1708436041.9016874,-2.1582937240600586,-1.3340018701604386,-2.5094438234912317,6.1353890774543665,0.9856648445129395,-5.451412502919332
1708436041.903685,-2.1583569049835205,-1.3339899194291611,-2.5094199816333216,6.1353845475013635,0.9856734275817871,-5.451400343571798
1708436041.9056828,-2.1583683490753174,-1.3339644980481644,-2.5094855467425745,6.135423648148336,0.985689640045166,-5.451395813618795
1708436041.9077184,-2.1584064960479736,-1.334030107860901,-2.5094810167895716,6.1354102967079065,0.9856972694396973,-5.451412502919332
1708436041.9097142,-2.1583683490753174,-1.334042341714241,-2.509427611027853,6.135372745781698,0.985661506652832,-5.451440755520956
1708436041.9116888,-2.1583218574523926,-1.333960087304451,-2.5094528833972376,6.135369765549459,0.9856853485107422,-5.451403621827261
1708436041.913696,-2.1583025455474854,-1.3339688938907166,-2.5094245115863245,6.135332214623251,0.9856442213058472,-5.451440755520956
1708436041.9157202,-2.1582982540130615,-1.3339688938907166,-2.5094736258136194,6.135362374573507,0.9856287240982056,-5.451395813618795
1708436041.9176993,-2.158318519592285,-1.334010736351349,-2.5094483534442347,6.135324704438009,0.9856777191162109,-5.451428894196646
1708436041.9196827,-2.158334493637085,-1.3340256971171875,-2.5094810167895716,6.135342705040731,0.9857015609741211,-5.451400343571798
1708436041.9216874,-2.1583762168884277,-1.3339988154223938,-2.509406630192892,6.13534568527297,0.985689640045166,-5.451424423848287
1708436041.9237022,-2.158332109451294,-1.3339974594167252,-2.509406630192892,6.13532184341506,0.9856276512145996,-5.451412502919332
1708436041.9257267,-2.1583523750305176,-1.3339722466519852,-2.5094736258136194,6.135279762535848,0.9857224225997925,-5.451350156460897
1708436041.9277067,-2.1584064960479736,-1.3339732897332688,-2.5094438234912317,6.135293233185568,0.9856406450271606,-5.451440755520956
1708436041.9296935,-2.1583728790283203,-1.3340434444001694,-2.5094602743731897,6.135288703232565,0.9856821298599243,-5.4514334241496485
1708436041.9316926,-2.158348798751831,-1.3340270680240174,-2.5094409624682825,6.135306703835287,0.9856647849082947,-5.451433304940359
1708436041.933699,-2.158403158187866,-1.3340256971171875,-2.5094648043261927,6.135257231980123,0.9856648445129395,-5.451449636613027
1708436041.935714,-2.1582937240600586,-1.3340137910893937,-2.5094483534442347,6.135257231980123,0.9856449365615845,-5.4514376560794275
1708436041.9377282,-2.1583354473114014,-1.3340005737594147,-2.509406630192892,6.135245430260458,0.9856939315795898,-5.4514169732676905
1708436041.9396932,-2.1583399772644043,-1.333981142645218,-2.5094452540027063,6.135249841004171,0.9856939315795898,-5.451421324406759
1708436041.9417408,-2.1583569049835205,-1.333993063574173,-2.509439531956808,6.13528727272109,0.9856777191162109,-5.451457087193624
1708436041.9437034,-2.1583139896392822,-1.3340225678733368,-2.509498898183004,6.135217058449545,0.9856572151184082,-5.451400343571798
1708436041.9457355,-2.1583096981048584,-1.3339821708253403,-2.5094602743731897,6.1352423308189294,0.985689640045166,-5.451420013104574
1708436041.9477007,-2.1583025455474854,-1.3340018552592774,-2.5094617048846644,6.135221588402548,0.9856571555137634,-5.451420013104574
1708436041.9496956,-2.1583073139190674,-1.3340477806380768,-2.5094662348376673,6.1352423308189294,0.9856493473052979,-5.4514363447772425
1708436041.9517088,-2.158318519592285,-1.3340137761882325,-2.5094245115863245,6.135185587197103,0.9856821298599243,-5.451412502919332
1708436041.9537008,-2.1583614349365234,-1.3339614582112809,-2.5094767252551478,6.135246860771932,0.9856287240982056,-5.451433304940359
1708436041.955691,-2.1582865715026855,-1.334010736351349,-2.5094648043261927,6.13523946979598,0.985661506652832,-5.4514169732676905
1708436041.9576983,-2.158327579498291,-1.3340062511018296,-2.509411160145895,6.135169136315145,0.9856777191162109,-5.451445166264669
1708436041.9596872,-2.1582586765289307,-1.3340225678733368,-2.5094571749316614,6.135260212212362,0.9856244325637817,-5.451400343571798
1708436041.9616919,-2.1583659648895264,-1.3340256971171875,-2.5094409624682825,6.135160195618429,0.9856572151184082,-5.451412502919332
1708436041.9636962,-2.158348798751831,-1.3339525622180481,-2.5094409624682825,6.135185587197103,0.9856734275817871,-5.4514363447772425
1708436041.9656873,-2.1583659648895264,-1.3339855384877701,-2.5094364325152796,6.135173666268148,0.9856536388397217,-5.451445166264669
1708436041.9676943,-2.158357620239258,-1.3340300929597397,-2.5094648043261927,6.1351568577583215,0.9856734275817871,-5.451445166264669
1708436041.9696922,-2.1583445072174072,-1.3339525622180481,-2.5094528833972376,6.1352271912391565,0.9856939911842346,-5.451371018086569
1708436041.9716995,-2.158348798751831,-1.333948166375496,-2.5094483534442347,6.1351990578468225,0.9856417179107666,-5.451420013104574
1708436041.973711,-2.1583445072174072,-1.3339855384877701,-2.5093944708453577,6.135213839798727,0.9856493473052979,-5.451461497937338
1708436041.9757226,-2.158348798751831,-1.3340137761882325,-2.5093990007983606,6.13519440868453,0.9856244325637817,-5.451449636613027
1708436041.977725,-2.158332109451294,-1.3339767020991822,-2.5094690958606165,6.135164725571432,0.9856212139129639,-5.451424423848287
1708436041.9796839,-2.158348798751831,-1.334010736351349,-2.5095186869250696,6.1351990578468225,0.9856244325637817,-5.451485339795248
1708436041.9817193,-2.15837025642395,-1.3340137761882325,-2.5094690958606165,6.135165917664327,0.9856006503105164,-5.451406780873434
1708436041.9837058,-2.158311605453491,-1.3340181720307847,-2.5094781557666224,6.135206329613485,0.9856244921684265,-5.451375428830282
1708436041.9856884,-2.1583659648895264,-1.3339732897332688,-2.509427611027853,6.1351826069648645,0.9856659173965454,-5.451415602360861
1708436041.9876933,-2.158374547958374,-1.3339974594167252,-2.5094690958606165,6.1351990578468225,0.985661506652832,-5.451420013104574
1708436041.9896896,-2.1583406925201416,-1.3339614433101197,-2.5094438234912317,6.135197508126058,0.9856536388397217,-5.451366607342855
1708436041.9917014,-2.1583073139190674,-1.3339767319015046,-2.5094810167895716,6.135152447014608,0.9856417179107666,-5.45147812763323
1708436041.9936945,-2.1582913398742676,-1.3339821708253403,-2.5094199816333216,6.1351826069648645,0.9856659173965454,-5.4514363447772425
1708436041.995688,-2.1583073139190674,-1.333960087304451,-2.5094319025622767,6.135179269104757,0.985661506652832,-5.45147812763323
1708436041.9976876,-2.158324956893921,-1.3340018552592774,-2.5094812552081507,6.135124194412985,0.9856374263763428,-5.451457087193624
1708436041.9996843,-2.1583354473114014,-1.3339777749827881,-2.5094528833972376,6.135219800263204,0.9856287240982056,-5.45147812763323
1708436042.0016894,-2.1583569049835205,-1.3339569431594391,-2.509427611027853,6.135178077011862,0.9856244325637817,-5.451445166264669
1708436042.0037394,-2.1583001613616943,-1.3339821708253403,-2.5094483534442347,6.135212409287252,0.9856493473052979,-5.45149135986437
1708436042.005697,-2.1583073139190674,-1.333985523586609,-2.509435002003805,6.135184037476339,0.9856579899787903,-5.451461497937338
1708436042.0077026,-2.1582958698272705,-1.3339855384877701,-2.509389940892355,6.13519440868453,0.9856297969818115,-5.451445166264669
1708436042.0096893,-2.158311605453491,-1.334019587641098,-2.509472195302145,6.1351568577583215,0.9856460690498352,-5.451433304940359
1708436042.0116916,-2.1583073139190674,-1.3340270680240174,-2.5094273726092737,6.135152447014608,0.985605001449585,-5.4514363447772425
1708436042.0137117,-2.158316135406494,-1.3340062511018296,-2.5094199816333216,6.135178077011862,0.9856536388397217,-5.451440755520956
1708436042.015687,-2.1583046913146973,-1.334010736351349,-2.5094617048846644,6.13513611534194,0.9856374263763428,-5.451473716889517
1708436042.0176926,-2.158311605453491,-1.3339614582112809,-2.50942308107485,6.1351990578468225,0.9856493473052979,-5.451403681431906
1708436042.0197341,-2.1583445072174072,-1.3340181720307847,-2.5094409624682825,6.1351826069648645,0.9856417179107666,-5.4514363447772425
1708436042.0216873,-2.1583025455474854,-1.3340181720307847,-2.5094648043261927,6.135133135109701,0.9856579303741455,-5.451448265706198
1708436042.0237248,-2.158348798751831,-1.3339614582112809,-2.5094364325152796,6.13519440868453,0.9856374263763428,-5.451408151780264
1708436042.0256987,-2.1583073139190674,-1.3339767319015046,-2.5094483534442347,6.135152447014608,0.9856493473052979,-5.451448265706198
1708436042.0276992,-2.1583445072174072,-1.333991066818573,-2.5094810167895716,6.135140526085653,0.9856820702552795,-5.451485399399893
1708436042.0296855,-2.1583025455474854,-1.3339855384877701,-2.5094364325152796,6.1351568577583215,0.9856343269348145,-5.451403681431906
1708436042.0316863,-2.158323049545288,-1.3340018552592774,-2.5094571749316614,6.1351826069648645,0.9856135845184326,-5.451452676449911
1708436042.033682,-2.1583094596862793,-1.3339930337718506,-2.5094319025622767,6.135189997940817,0.9856622815132141,-5.4514363447772425
1708436042.035698,-2.158316135406494,-1.3340137761882325,-2.5094648043261927,6.13519440868453,0.9856374263763428,-5.451469365750448
1708436042.037729,-2.1583354473114014,-1.3339702498963852,-2.5094245115863245,6.135215389519491,0.9856536388397217,-5.451439444218771
1708436042.0397022,-2.1583073139190674,-1.3339944344810029,-2.5094364325152796,6.135124194412985,0.9856417179107666,-5.451521400605337
1708436042.0417016,-2.158332109451294,-1.3340107810548325,-2.5094438234912317,6.1351826069648645,0.9856417179107666,-5.451467696820394
1708436042.0437253,-2.158316135406494,-1.3340478402427216,-2.509411160145895,6.135169136315145,0.9856536388397217,-5.451546553765432
1708436042.0456934,-2.15828013420105,-1.3339930337718506,-2.5094154516803187,6.135187136917867,0.9856777191162109,-5.451484028493063
1708436042.0476887,-2.1583025455474854,-1.3339944195798417,-2.5094319025622767,6.135153996735372,0.9856330752372742,-5.451454404984609
1708436042.0496855,-2.1582868099212646,-1.3340256971171875,-2.5094900766955774,6.135162937432089,0.9856168627738953,-5.451503698025839
1708436042.0516975,-2.1583399772644043,-1.3340477806380768,-2.509427611027853,6.135149585991659,0.9856579899787903,-5.451503698025839
1708436042.0536995,-2.158332109451294,-1.3339362454465409,-2.5094483534442347,6.135178077011862,0.985661506652832,-5.451506737862722
1708436042.0556843,-2.1583445072174072,-1.3340137761882325,-2.5094528833972376,6.135178077011862,0.9856449961662292,-5.451546970997946
1708436042.05769,-2.158332109451294,-1.3339885634234925,-2.509439293538229,6.1351826069648645,0.985661506652832,-5.4514904657946985
1708436042.0597153,-2.158324956893921,-1.3340467673591156,-2.509455744420187,6.135140526085653,0.9856536388397217,-5.451546970997946
1708436042.0617013,-2.158311605453491,-1.3339944344810029,-2.509500805531637,6.135185587197103,0.9856691360473633,-5.451563302670614
1708436042.0637195,-2.158308982849121,-1.334004895096161,-2.509430472050802,6.135165917664327,0.9856821894645691,-5.451591793690817
1708436042.065703,-2.158320665359497,-1.334010736351349,-2.509479586278097,6.135169136315145,0.9856853485107422,-5.451558832322256
1708436042.0677161,-2.1583292484283447,-1.334004895096161,-2.509508196507589,6.1351568577583215,0.9857094287872314,-5.45162415901293
1708436042.0696933,-2.158316135406494,-1.3340388995460053,-2.5095441977130335,6.1351990578468225,0.9857378602027893,-5.451619807873861
1708436042.0716913,-2.158320665359497,-1.3339644831470032,-2.5095635096179407,6.1351990578468225,0.9857051372528076,-5.45166910091509
1708436042.0737169,-2.1582720279693604,-1.3340018403581162,-2.5096011797534388,6.135128605156698,0.9857410192489624,-5.451651398335592
1708436042.0757232,-2.1582932472229004,-1.3339645576528092,-2.50958758989443,6.1351449368293665,0.9857541918754578,-5.451609734688894
1708436042.0777228,-2.1582977771759033,-1.333968849187233,-2.509592119847433,6.13519440868453,0.9858109951019287,-5.451675001774923
1708436042.0797026,-2.158280849456787,-1.3339688938907166,-2.5096071402179163,6.135170328408041,0.9857652187347412,-5.4517123142825525
1708436042.0816875,-2.158243417739868,-1.3340181869319458,-2.5096638838397425,6.135187017708578,0.9858797788619995,-5.451702181492941
1708436042.083728,-2.158235549926758,-1.3339944344810029,-2.5096684137927454,6.135122406273641,0.9858860969543457,-5.451739255581991
1708436042.085693,-2.1582047939300537,-1.3339570325664063,-2.5096805731402796,6.135068523674764,0.9858983755111694,-5.451763097439901
1708436042.0878615,-2.158165693283081,-1.3339944344810029,-2.509683434163229,6.1351016638572595,0.9859015941619873,-5.45175421634783
1708436042.089704,-2.1582047939300537,-1.3339811128428956,-2.509723965321676,6.135115134506979,0.9859711527824402,-5.451810721551077
1708436042.091723,-2.1581923961639404,-1.3340270978263398,-2.5097644964801233,6.135071742325582,0.9859375357627869,-5.451826039944784
1708436042.0937352,-2.158210515975952,-1.3339899343303223,-2.5097885767566126,6.135037290840902,0.9859363436698914,-5.451875332986013
1708436042.095702,-2.1581437587738037,-1.3340137314847489,-2.5097718874560755,6.135001289635458,0.9860063791275024,-5.451870981846945
1708436042.0977204,-2.158128023147583,-1.3340062511018296,-2.50980788866152,6.134986150055685,0.9860749244689941,-5.45184433857073
1708436042.0997086,-2.1581006050109863,-1.3339614433101197,-2.509864870701925,6.134945976525106,0.9860858917236328,-5.451983932648794
1708436042.101736,-2.1580758094787598,-1.333948166375496,-2.5099216143237513,6.134897696762838,0.9861340522766113,-5.451987032090322
1708436042.1037145,-2.158052921295166,-1.333985523586609,-2.5098708311664026,6.134838211327352,0.9861665368080139,-5.451969329510824
1708436042.1056948,-2.158029079437256,-1.334010736351349,-2.5099411646472376,6.134817349701681,0.9861895442008972,-5.452054444943563
1708436042.1077108,-2.1580424308776855,-1.3340018552592774,-2.509923283253805,6.134790289192953,0.9862879514694214,-5.452021423970358
1708436042.1096995,-2.1579318046569824,-1.3339688640883942,-2.5099802652942103,6.134791838913717,0.9862737655639648,-5.4520867506610315
1708436042.1116736,-2.157923936843872,-1.3340018552592774,-2.5099666754352015,6.134755837708273,0.9863259792327881,-5.45204866329302
1708436042.1136837,-2.1578919887542725,-1.334018201833107,-2.5100207964526575,6.134682523995199,0.9863950610160828,-5.452088777218954
1708436042.11568,-2.1578354835510254,-1.333986596470215,-2.510068718587057,6.134691464691915,0.9864505529403687,-5.452161673699514
1708436042.1176925,-2.1578152179718018,-1.3339899343303223,-2.510035816823141,6.134597050934591,0.9864786267280579,-5.452224139367239
1708436042.1196785,-2.1578543186187744,-1.3339811128428956,-2.5101285616504114,6.13455210903243,0.9865584373474121,-5.452216748391287
1708436042.1216733,-2.1578011512756348,-1.3339944344810029,-2.5101526419269007,6.134598600655355,0.9865944385528564,-5.4521963636027735
1708436042.1237154,-2.157752513885498,-1.3340181720307847,-2.510183874760763,6.134578931122579,0.9866264462471008,-5.452266041432516
1708436042.1256948,-2.157712459564209,-1.3340062511018296,-2.510204855595724,6.134528028755941,0.9866981506347656,-5.4523049036609095
1708436042.1276891,-2.1576967239379883,-1.333981142645218,-2.5102320353137415,6.134490477829733,0.9867258071899414,-5.452345375214712
1708436042.1297019,-2.157710313796997,-1.33401374638591,-2.5102439562426966,6.134466755181112,0.98682701587677,-5.452369157467977
1708436042.131708,-2.157646656036377,-1.3339899343303223,-2.51034123102297,6.134369361191549,0.9868906736373901,-5.452372256909506
1708436042.1337025,-2.1576297283172607,-1.3339688938907166,-2.5103846232043665,6.134304988175192,0.9870028495788574,-5.45246142545809
1708436042.1357012,-2.157581090927124,-1.3339732748321076,-2.510371271763937,6.134306180268087,0.987123966217041,-5.452500168477194
1708436042.1377158,-2.157524347305298,-1.3340107661536713,-2.510407272969381,6.13419400432662,0.9872528314590454,-5.452557090912954
1708436042.1396942,-2.1575095653533936,-1.333973230128624,-2.5104551951037806,6.134223925858297,0.987343430519104,-5.452612642441885
1708436042.141692,-2.1574370861053467,-1.333965854053833,-2.510545078908102,6.134120929032125,0.9875051379203796,-5.452635113392965
1708436042.1437392,-2.157442569732666,-1.3339406114867707,-2.5105677286731165,6.134041297226705,0.9876285195350647,-5.452736083661215
1708436042.1457093,-2.15738582611084,-1.3339821857265015,-2.5105915705310267,6.134054887085714,0.9877408742904663,-5.452688817177908
1708436042.1477041,-2.1573495864868164,-1.3339732748321076,-2.5106590429889124,6.133954393654623,0.9878891110420227,-5.452799085770742
1708436042.1496892,-2.157322406768799,-1.3339195412448426,-2.5106828848468226,6.13388084152297,0.9879931211471558,-5.45288718143572
1708436042.1517143,-2.1572587490081787,-1.3339777749827881,-2.510726515446798,6.1338316080863855,0.9881248474121094,-5.452905241643087
1708436042.153742,-2.1572067737579346,-1.3339821857265015,-2.5107951799975794,6.133788215904989,0.9882371425628662,-5.452929083500997
1708436042.1556973,-2.1571953296661377,-1.3339732748321076,-2.510843340550558,6.133695351868429,0.9882997274398804,-5.453000847493307
1708436042.1576886,-2.1571316719055176,-1.3339855086854477,-2.5109153429614466,6.133639919548788,0.9884001016616821,-5.453081194554464
1708436042.1597068,-2.157058000564575,-1.3339767020991822,-2.511024777089254,6.133523213654318,0.9885081052780151,-5.453181211148397
1708436042.1616986,-2.156982183456421,-1.3339645129493256,-2.5110395590411585,6.133464801102438,0.9886445999145508,-5.453233305607931
1708436042.1636958,-2.1569342613220215,-1.333985523586609,-2.511099640523092,6.133336055069723,0.9887406826019287,-5.453309241925375
1708436042.1657012,-2.1568822860717773,-1.3339362752488633,-2.511183563862936,6.133263933449545,0.9888532757759094,-5.453363362942831
1708436042.167712,-2.1567893028259277,-1.3339899343303223,-2.511219326649801,6.133129584580221,0.9890016317367554,-5.453390542660848
1708436042.1697176,-2.156775712966919,-1.3340032559684296,-2.51136023203005,6.133061873703756,0.9891095161437988,-5.453511122857229
1708436042.1717265,-2.156707525253296,-1.3339094382575531,-2.5114484469043177,6.13304220417098,0.9893104434013367,-5.453573946152822
1708436042.17371,-2.156623601913452,-1.3339732748321076,-2.5115037600146692,6.132879125862875,0.9893804788589478,-5.453641120587484
1708436042.1758041,-2.156573534011841,-1.3339732748321076,-2.5115953127490442,6.132790791779318,0.9896275997161865,-5.453742448483602
1708436042.177746,-2.1564910411834717,-1.3339481216720124,-2.511655394230978,6.132696378021993,0.9897502660751343,-5.453812901173727
1708436042.1797268,-2.156435251235962,-1.3339988452247162,-2.5117510000811976,6.13257526138381,0.9898902773857117,-5.4539082686053675
1708436042.1816998,-2.15633225440979,-1.333932788377144,-2.511827532445089,6.132496940880575,0.9900535941123962,-5.4540303389178675
1708436042.1836865,-2.156235694885254,-1.333986596470215,-2.511918846760885,6.13241325595931,0.9902185201644897,-5.454069141541616
1708436042.1857383,-2.1561882495880127,-1.3339495223811646,-2.511970106755392,6.132286178856649,0.9903541207313538,-5.454120341931478
1708436042.1876938,-2.156104326248169,-1.3340077561191102,-2.5120793024646204,6.132176625519552,0.990557849407196,-5.45429760614504
1708436042.1896765,-2.156019926071167,-1.333932877784111,-2.5121753851519983,6.13213466384963,0.9907840490341187,-5.4543408195125025
1708436042.191677,-2.156010866165161,-1.33394609511409,-2.5122996012317103,6.131989466934957,0.9909465909004211,-5.454488579426901
1708436042.193703,-2.1558523178100586,-1.3339495223811646,-2.512353483830587,6.131869780808248,0.9911550283432007,-5.454567674790518
1708436042.1956882,-2.1557774543762207,-1.3339505058578034,-2.51247483888735,6.1317365048225305,0.9913187026977539,-5.454658631478445
1708436042.1977677,-2.1557259559631348,-1.3339372736266633,-2.512578550969259,6.131604659348287,0.9915034174919128,-5.454798761998312
1708436042.199697,-2.1556432247161865,-1.333953933124878,-2.5126667658435267,6.131513225823202,0.9917327165603638,-5.45485765138735
1708436042.2017055,-2.15549635887146,-1.3339417737773438,-2.5127254168139856,6.131409513741293,0.9918921589851379,-5.455002252255575
1708436042.2036996,-2.1554551124572754,-1.3340077561191102,-2.512916866933004,6.13133059719161,0.9921408891677856,-5.45510977903475
1708436042.2057064,-2.1553213596343994,-1.3339300912669678,-2.5130067507373255,6.131153809815206,0.9923121929168701,-5.455192093049185
1708436042.2077024,-2.1552295684814453,-1.3339954179576416,-2.5130487124072474,6.131050574570455,0.9925371408462524,-5.45531934896578
1708436042.2097023,-2.1551411151885986,-1.333941714172699,-2.513224188481466,6.130875456124105,0.9927248954772949,-5.455459419881002
1708436042.2116907,-2.1550424098968506,-1.333913729791977,-2.5133395830737513,6.130673277169027,0.9929364919662476,-5.45555949607958
1708436042.2137034,-2.1549313068389893,-1.3339372736266633,-2.5134218374835413,6.130602824478903,0.9931612014770508,-5.455645326768057
1708436042.2157073,-2.154797315597534,-1.3339137744954606,-2.513571802769796,6.13046013095931,0.9933742880821228,-5.455811027680532
1708436042.217689,-2.1547677516937256,-1.333897427921631,-2.5136991182910364,6.13034354427413,0.9935444593429565,-5.455888871346609
1708436042.2196996,-2.154676914215088,-1.3339018386653443,-2.5137365500079554,6.130150306015768,0.9938141107559204,-5.456033412610189
1708436042.2217083,-2.1545183658599854,-1.3338940900615235,-2.5138521830188196,6.129985439568319,0.9939813613891602,-5.456115845833914
1708436042.2237208,-2.1544861793518066,-1.333880828028061,-2.5140181223498743,6.129837977677145,0.99420166015625,-5.45623213449587
1708436042.225742,-2.154369592666626,-1.3339018386653443,-2.5141873995410364,6.129747974663534,0.9944219589233398,-5.456343058739797
1708436042.2277038,-2.1541757583618164,-1.3339094382575531,-2.5142326990710657,6.129600870400228,0.9946177005767822,-5.456471566353933
1708436042.2296946,-2.1540842056274414,-1.3338851791671296,-2.5143898169146937,6.129481184273519,0.9948545694351196,-5.456644479428427
1708436042.2316961,-2.1540303230285645,-1.333902896647789,-2.514512602482931,6.129325258522787,0.9950215220451355,-5.456726674233572
1708436042.2337255,-2.1539225578308105,-1.3338525158217927,-2.514599625264303,6.129190194397726,0.9952864646911621,-5.456839028988973
1708436042.2357116,-2.1538021564483643,-1.3339107495597382,-2.514752451573507,6.128991472512045,0.9955106377601624,-5.456994179879324
1708436042.2377026,-2.15372633934021,-1.3338821840337296,-2.5148842970477503,6.128856766014852,0.9957146644592285,-5.457134489213125
1708436042.2396958,-2.153592586517334,-1.333919571047165,-2.5149968306170862,6.128640043526449,0.9959756135940552,-5.457208160554067
1708436042.241697,-2.1535604000091553,-1.3338984859040757,-2.515137497578756,6.128545391350546,0.9961948394775391,-5.457327489052908
1708436042.2436986,-2.1534063816070557,-1.3338583272746583,-2.5152316729175013,6.128452050476827,0.9964513778686523,-5.45747554699053
1708436042.2457123,-2.1532979011535645,-1.3339301210692902,-2.5153515974627894,6.128270971566,0.9966793060302734,-5.457616035138265
1708436042.2476933,-2.153202533721924,-1.3338878911784668,-2.5154715220080774,6.128103124886312,0.996911883354187,-5.45772618452181
1708436042.249704,-2.153120517730713,-1.3338689070991059,-2.5156410376178187,6.127934205323019,0.9971598386764526,-5.4578832427607935
1708436042.2517052,-2.153033971786499,-1.3339151752046128,-2.515754524861471,6.1277949688728235,0.9974524974822998,-5.45798504749407
1708436042.253708,-2.152855157852173,-1.3338495057872315,-2.515916411076681,6.127659666329183,0.9976354837417603,-5.4581414500819605
1708436042.255706,-2.152789354324341,-1.333919571047165,-2.515987221394674,6.127492058068075,0.9978965520858765,-5.458265666161672
1708436042.2576985,-2.1526939868927,-1.3338821542314072,-2.5161920229541224,6.127331959992208,0.9981366395950317,-5.458388153706686
1708436042.2596927,-2.1525650024414062,-1.3339446944049378,-2.5162671248065394,6.127176272660055,0.9983441829681396,-5.458512310181753
1708436042.2617142,-2.1524198055267334,-1.3339062643102189,-2.5164111296283167,6.1270238039787195,0.9986051917076111,-5.458651427422659
1708436042.263729,-2.1522927284240723,-1.3338373017362137,-2.51654297510256,6.126855838089742,0.9988246560096741,-5.45874268213381
1708436042.265702,-2.1522209644317627,-1.3339285117438813,-2.516732994710104,6.126668679505148,0.9990853071212769,-5.458894673977987
1708436042.2676957,-2.1521267890930176,-1.33384162307296,-2.516806666051046,6.126524555474081,0.999297022819519,-5.459035102521078
1708436042.2697055,-2.1520020961761475,-1.3338702333024521,-2.5169265905963343,6.126393902092733,0.9995120763778687,-5.4591620604144495
1708436042.2717042,-2.151899814605713,-1.3338628423265,-2.5170629660235804,6.126180398255148,0.9998020529747009,-5.459296826516287
1708436042.273702,-2.1517298221588135,-1.3338416826776047,-2.5172439257251185,6.1260695336158655,1.0000098943710327,-5.459453288708822
1708436042.2757394,-2.1516547203063965,-1.3338416677764435,-2.5173099676715296,6.1259368536765955,1.0002784729003906,-5.459556702767507
1708436042.277751,-2.151563882827759,-1.3338416677764435,-2.517442051564352,6.125761496811666,1.0004856586456299,-5.459707442914144
1708436042.2797155,-2.151395320892334,-1.3338628423265,-2.5175936857806605,6.125580417900839,1.0007585287094116,-5.4598063866244715
1708436042.2816916,-2.151291847229004,-1.3338019263795395,-2.517731253300802,6.125445830612936,1.0009779930114746,-5.459946874772207
1708436042.283702,-2.1511921882629395,-1.3338328760913392,-2.5178495089160364,6.125277983933248,1.0011736154556274,-5.4600945750819605
1708436042.2856903,-2.1510558128356934,-1.3338671785644074,-2.5179739634143274,6.125086295395651,1.0014877319335938,-5.460196260605947
1708436042.2876823,-2.150977611541748,-1.3338181984475632,-2.5180862585650843,6.124945390015402,1.001699686050415,-5.460338060055868
1708436042.2897036,-2.1508405208587646,-1.3338315200856705,-2.5181718508349817,6.124777781754293,1.00190269947052,-5.460402909909384
1708436042.291702,-2.1507246494293213,-1.3338028204492112,-2.5183170477496546,6.12459813335494,1.0021545886993408,-5.460540179406301
1708436042.293703,-2.150665521621704,-1.333806262617447,-2.5184574762927454,6.124457108765402,1.002432107925415,-5.4606627265559595
1708436042.295696,-2.1505091190338135,-1.3338195842555542,-2.5185371080981653,6.124338853150167,1.0025697946548462,-5.460773412381307
1708436042.297697,-2.1504387855529785,-1.3337930303863068,-2.51866585413088,6.124149906426229,1.0028470754623413,-5.4609063307391565
1708436042.2996879,-2.150306224822998,-1.3338028949550171,-2.5187485853778284,6.12404357173995,1.0030752420425415,-5.461066130791799
1708436042.3016858,-2.150235652923584,-1.3338385683349152,-2.5188892523394983,6.123894083290853,1.0033196210861206,-5.461173597966329
1708436042.303692,-2.150084972381592,-1.3338878911784668,-2.5190003553973597,6.123745786934652,1.0035271644592285,-5.461285535489218
1708436042.3057206,-2.150002956390381,-1.3338182729533692,-2.5190542379962366,6.123585688858785,1.0037353038787842,-5.46144545475115
1708436042.3077006,-2.149867057800293,-1.3337939840606232,-2.5192113558398646,6.123438942223348,1.0039634704589844,-5.461524728928701
1708436042.3096905,-2.1497762203216553,-1.333815113907196,-2.5193405787097376,6.123196232109823,1.0041711330413818,-5.461586062108175
1708436042.311686,-2.1496775150299072,-1.3338195991567154,-2.5194841066943567,6.123055088310995,1.0043754577636719,-5.461717728768484
1708436042.3136911,-2.1495676040649414,-1.3337852668813248,-2.5195470491992396,6.122924911766805,1.0045915842056274,-5.461917046700613
1708436042.3157165,-2.1494650840759277,-1.3337776374867936,-2.519686524068014,6.122778045922079,1.0048246383666992,-5.462002519761221
1708436042.317701,-2.1493656635284424,-1.3337689501098176,-2.51985747018923,6.122625219612875,1.0050451755523682,-5.462061528359548
1708436042.3197062,-2.1492691040039062,-1.333793969159462,-2.5199101606952112,6.122535455017843,1.0052379369735718,-5.462201599274771
1708436042.3217304,-2.149177312850952,-1.333777667289116,-2.520064655934469,6.122383224755087,1.005420446395874,-5.4622512499438685
1708436042.323706,-2.1490705013275146,-1.3337613207152863,-2.520151440297262,6.1221821186836145,1.0056824684143066,-5.462424461041586
1708436042.3257031,-2.14897084236145,-1.3337746572545548,-2.5202954451190394,6.122101533203878,1.0058419704437256,-5.462488357220785
1708436042.3277197,-2.148883581161499,-1.3337416362813492,-2.520383898411886,6.1219098446662805,1.0060389041900635,-5.46260375181307
1708436042.329693,-2.148799419403076,-1.3338028949550171,-2.520478073750631,6.121771204262533,1.0061897039413452,-5.462674383317129
1708436042.331691,-2.148696184158325,-1.3338043105653306,-2.520578686391012,6.121632206230917,1.0064148902893066,-5.462802533303396
1708436042.3337584,-2.148594379425049,-1.3337538850358506,-2.520686690007345,6.121485698014059,1.0066248178482056,-5.462898079548971
1708436042.3357139,-2.1485397815704346,-1.333802880053856,-2.520836893712179,6.121333229332723,1.0067919492721558,-5.463038150464193
1708436042.337715,-2.148378610610962,-1.3337460619262238,-2.520914618168966,6.121206271439352,1.0070451498031616,-5.4630982915507715
1708436042.3397036,-2.148348808288574,-1.333758295779564,-2.521060291920797,6.12107144573287,1.0071645975112915,-5.463197116051809
1708436042.3416953,-2.1482651233673096,-1.3337998253158112,-2.521076742802755,6.12089358547286,1.00738525390625,-5.463292721902029
1708436042.3437123,-2.14810848236084,-1.3337104630521317,-2.521259609852926,6.120824920922079,1.007577896118164,-5.463392380868093
1708436042.3456976,-2.148012161254883,-1.3337879490903397,-2.521318022404806,6.120632278710165,1.0077580213546753,-5.463479165230886
1708436042.3477468,-2.147958517074585,-1.333746076827385,-2.521397892628805,6.120496141701498,1.0078816413879395,-5.463567618523733
1708436042.3497112,-2.1478655338287354,-1.3337583255818863,-2.5214739481555384,6.120380866318502,1.0080574750900269,-5.46361875930895
1708436042.3516855,-2.1477906703948975,-1.3337671619704743,-2.5216074625598353,6.120270359307089,1.0082225799560547,-5.4637436906443995
1708436042.3537202,-2.147695302963257,-1.3337430667928238,-2.521637741719381,6.120117890625753,1.0083506107330322,-5.46385240951647
1708436042.355688,-2.147614002227783,-1.3337372106364747,-2.521729056035177,6.119949090271749,1.0085355043411255,-5.463885728512899
1708436042.3577168,-2.1475512981414795,-1.3337342751077195,-2.5218806902514856,6.119883286743917,1.0086510181427002,-5.463978175316946
1708436042.3596818,-2.1474175453186035,-1.3336896312287827,-2.5219343344317835,6.119774091034689,1.0087944269180298,-5.464005414639608
1708436042.3616786,-2.1473348140716553,-1.3337549579194565,-2.5220258871661585,6.119599091797628,1.009020447731018,-5.464117352162496
1708436042.3637025,-2.147247314453125,-1.3337386411479493,-2.5221009890185755,6.119496214180746,1.0091441869735718,-5.464205447827474
1708436042.3656845,-2.1471829414367676,-1.3337430667928238,-2.522189442311422,6.11938093879775,1.009296178817749,-5.464293424283163
1708436042.367713,-2.14707612991333,-1.3337518286756058,-2.5222657362567347,6.1192418215568445,1.009440541267395,-5.464323882256643
1708436042.3697002,-2.14701509475708,-1.3337311458638688,-2.5223212877856653,6.11920319774703,1.0095890760421753,-5.464411918316976
1708436042.3716924,-2.1469242572784424,-1.3336614829352875,-2.522451702748434,6.1190130589301965,1.0097583532333374,-5.464431349431173
1708436042.3737087,-2.1468312740325928,-1.3336865317872544,-2.522451941167013,6.118930923729696,1.0098700523376465,-5.46453291574587
1708436042.3757215,-2.1467676162719727,-1.3336865317872544,-2.5225375334369105,6.118787753372946,1.0100111961364746,-5.464604322110311
1708436042.3777268,-2.146690607070923,-1.3336821359447022,-2.522580687199728,6.118675458222189,1.0101466178894043,-5.4646881262408655
1708436042.3797512,-2.1466193199157715,-1.3336909723332901,-2.5226407686816614,6.118518340378561,1.0102295875549316,-5.464670542870657
1708436042.3817427,-2.146540880203247,-1.333687887792923,-2.522745911275045,6.118473636894979,1.0103912353515625,-5.464742426072256
1708436042.3837576,-2.1464548110961914,-1.3336713326028367,-2.5227564016925257,6.1183568117912195,1.0105148553848267,-5.464793268834249
1708436042.3856926,-2.1464622020721436,-1.3336879921010514,-2.522820774708883,6.118228065758505,1.0106099843978882,-5.464799408112661
1708436042.3877344,-2.1463863849639893,-1.3336953681758423,-2.52290922800173,6.118149268418112,1.0107718706130981,-5.464918140565054
1708436042.3897007,-2.146268606185913,-1.33363430321727,-2.522940699254171,6.118045913964071,1.0108669996261597,-5.465019408856527
1708436042.3916926,-2.1462366580963135,-1.3336579960635682,-2.523029152547018,6.117933857231893,1.0110197067260742,-5.465037945901052
1708436042.3937218,-2.146132469177246,-1.3336746555617829,-2.523053232823507,6.117884623795309,1.011095404624939,-5.465052966271536
1708436042.395701,-2.1460938453674316,-1.333641694193222,-2.523078505192892,6.117702233582296,1.0112354755401611,-5.465148929749624
1708436042.397745,-2.1460087299346924,-1.3336790961078187,-2.5231521765338343,6.1175808785255334,1.0113928318023682,-5.465116027985708
1708436042.3996885,-2.145991325378418,-1.333670274620392,-2.523245159779684,6.117551314621725,1.0115007162094116,-5.465200845395223
1708436042.401702,-2.1459145545959473,-1.3336490851691742,-2.5232840220080774,6.117449748307028,1.0115389823913574,-5.465211633835928
1708436042.403711,-2.1458022594451904,-1.3336922836354752,-2.523352924977438,6.117287981301107,1.0117011070251465,-5.465287748967306
1708436042.4057856,-2.1457624435424805,-1.333662362103798,-2.5233727137195032,6.117187964707174,1.0117566585540771,-5.465311590825216
1708436042.4077141,-2.1457326412200928,-1.3336505603841324,-2.523432795201437,6.117089497834005,1.0118365287780762,-5.465351943169729
1708436042.4097273,-2.1456797122955322,-1.3337131303599854,-2.523459498082296,6.116977441101827,1.011884331703186,-5.465343181286947
1708436042.4116907,-2.145587682723999,-1.3336713028005143,-2.5235541502581995,6.116865145951071,1.0119807720184326,-5.465445641671316
1708436042.4137135,-2.145535469055176,-1.3336535555175324,-2.5236170927630823,6.1167945740516565,1.0120079517364502,-5.4654725829707544
1708436042.4156885,-2.1455206871032715,-1.3336266589215775,-2.5236573855029505,6.116682636528768,1.0121052265167236,-5.465483252202169
1708436042.4177132,-2.145423173904419,-1.3336013120463868,-2.523733917866842,6.116585600167074,1.0121119022369385,-5.465498749409811
1708436042.4196851,-2.145343065261841,-1.3336342138103028,-2.5237446467029017,6.116528737335958,1.0122255086898804,-5.465522591267721
1708436042.4216998,-2.145336866378784,-1.3336505454829712,-2.523813311253683,6.116436111717977,1.012256145477295,-5.465546731148855
1708436042.4237595,-2.1452112197875977,-1.3336668622544785,-2.5238359610186976,6.116283523827352,1.0123578310012817,-5.465566877518789
1708436042.4256885,-2.145172357559204,-1.3336342436126252,-2.5238855520831507,6.1162418005760095,1.0123968124389648,-5.465644184743063
1708436042.4277337,-2.1451213359832764,-1.3336579364589234,-2.5239692370044153,6.116117822914877,1.0125640630722046,-5.465666894112722
1708436042.4296882,-2.14505672454834,-1.3336460453322907,-2.5239439646350306,6.115967023163595,1.0126028060913086,-5.465618197117941
1708436042.4317029,-2.1449897289276123,-1.3336756986430665,-2.524057928715841,6.115930902748861,1.0126910209655762,-5.465674463902609
1708436042.4337158,-2.1449332237243652,-1.3336385649493714,-2.5240774790393274,6.115899550705709,1.0127544403076172,-5.4656336347209376
1708436042.4357076,-2.144850254058838,-1.3336222928813477,-2.5240922609912317,6.11574553230361,1.012826681137085,-5.46568996111025
1708436042.4377248,-2.1447255611419678,-1.3336089563420792,-2.524149243031637,6.115639555245199,1.0129061937332153,-5.465734664593832
1708436042.4397047,-2.1446735858917236,-1.3336460453322907,-2.5241673628436487,6.115539181023397,1.013002872467041,-5.465755228196279
1708436042.441691,-2.144585132598877,-1.3335967075875779,-2.524205032979147,6.115382182389059,1.0130705833435059,-5.465718094502584
1708436042.4437478,-2.144564151763916,-1.3337086153081437,-2.5242272059070032,6.115286576538839,1.0130815505981445,-5.465746466313497
1708436042.445694,-2.1444091796875,-1.3337087345174332,-2.5242770353900355,6.115117656975546,1.0131787061691284,-5.465807024632589
1708436042.4477205,-2.1443490982055664,-1.333678976898529,-2.524320189152853,6.115101563721456,1.0132582187652588,-5.465749565755026
1708436042.4497023,-2.144299030303955,-1.3336713177016755,-2.524353567753927,6.1148860333259485,1.0132988691329956,-5.465718094502584
1708436042.451692,-2.144235372543335,-1.3336879175952454,-2.5244463125811976,6.114877211838522,1.0133304595947266,-5.465742115174429
1708436042.4537435,-2.1441266536712646,-1.3336342585137864,-2.524444882069723,6.11470507362441,1.0133984088897705,-5.465746466313497
1708436042.455685,-2.1440584659576416,-1.333662362103798,-2.5244386831866663,6.114660489350118,1.0134299993515015,-5.465729240571157
1708436042.457721,-2.1439428329467773,-1.333704264169075,-2.5245078245746058,6.114525782852926,1.0135526657104492,-5.465733651314871
1708436042.4596915,-2.1438634395599365,-1.333690957432129,-2.524585787449972,6.114373194962301,1.0135951042175293,-5.465746466313497
1708436042.4616823,-2.143742322921753,-1.3337161999991913,-2.5246201197253626,6.114292609482565,1.013716220855713,-5.465745214615957
1708436042.4637146,-2.143691062927246,-1.3337192100337525,-2.5246155897723597,6.114135491638937,1.013749361038208,-5.46573651233782
1708436042.4656782,-2.1436092853546143,-1.3336940568736573,-2.524689261113302,6.113954889565267,1.0137667655944824,-5.4657249490367334
1708436042.4676836,-2.1435253620147705,-1.3337060076049347,-2.524723831807272,6.113872754364767,1.013875961303711,-5.465713028107778
1708436042.4696934,-2.1433873176574707,-1.3337236207774659,-2.5247448126422327,6.113728868752279,1.0139524936676025,-5.465786580239431
1708436042.4717238,-2.143346071243286,-1.333714799290039,-2.524846617375509,6.113588320999899,1.0139796733856201,-5.465769354497091
1708436042.4736965,-2.1432011127471924,-1.3336984676173707,-2.5248525778399866,6.113428222924032,1.0140199661254883,-5.4657421747790735
1708436042.4757156,-2.1431305408477783,-1.3337283295444031,-2.524879757558004,6.113265383034506,1.0141088962554932,-5.465786639844076
1708436042.4777353,-2.143010139465332,-1.333779053097107,-2.5249653498279017,6.1131640551383875,1.014168620109558,-5.4657408634768885
1708436042.479696,-2.1428606510162354,-1.3337821525386353,-2.524954859410421,6.112936484604635,1.014257550239563,-5.46579081216921
1708436042.4816988,-2.1427292823791504,-1.3338429790786286,-2.5250254313098353,6.112785804062643,1.014251947402954,-5.465725008641378
1708436042.4837217,-2.1425976753234863,-1.3338385683349152,-2.5251014868365687,6.112561332970419,1.0143688917160034,-5.465770069752828
1708436042.4856908,-2.142457962036133,-1.3338985008052369,-2.5251315275775355,6.112407433777609,1.0144497156143188,-5.465802852307455
1708436042.4877107,-2.142334222793579,-1.3339549166015168,-2.525184218083517,6.112277376442709,1.0145502090454102,-5.465765778218405
1708436042.4896889,-2.142216205596924,-1.3339328628829499,-2.525229040776388,6.112053262978353,1.01460599899292,-5.465802852307455
1708436042.4916847,-2.142025947570801,-1.3339822006276627,-2.5252769629107874,6.111843693047323,1.0146901607513428,-5.465757135544912
1708436042.4936945,-2.141855478286743,-1.3339899343303223,-2.525358025227682,6.111685621529379,1.0147534608840942,-5.465789858494894
1708436042.49571,-2.141707181930542,-1.3340389293483277,-2.525377337132589,6.11151550987319,1.0148956775665283,-5.465745214615957
1708436042.4976962,-2.1415302753448486,-1.3340137910893937,-2.525444809590475,6.111221897393026,1.0149295330047607,-5.465782348309652
1708436042.4997065,-2.1413228511810303,-1.334045172934868,-2.5255005995379847,6.111020552902975,1.015043020248413,-5.46581477323641
1708436042.5016906,-2.1411354541778564,-1.3340733808330079,-2.5255890528308313,6.110788810044088,1.0151429176330566,-5.465794150029318
1708436042.5037098,-2.1409237384796143,-1.3341745150140305,-2.525632683430807,6.110540258675375,1.0152432918548584,-5.465801779423849
1708436042.5057383,-2.1407034397125244,-1.3341736656478425,-2.5257418791400355,6.1103176949317834,1.0153034925460815,-5.465765778218405
1708436042.5077395,-2.140544891357422,-1.334148259168007,-2.525797430668966,6.110115754395284,1.0154072046279907,-5.465843145047323
1708436042.509722,-2.140347957611084,-1.3341918152621766,-2.525860611592428,6.109806287079611,1.0154672861099243,-5.465806070958273
1708436042.511705,-2.140125274658203,-1.3343017560294648,-2.5259907881366175,6.109563100128927,1.0155752897262573,-5.465761427079336
1708436042.5136967,-2.1397957801818848,-1.334330291753151,-2.5260329882251185,6.1092474339301965,1.0157132148742676,-5.46581477323641
1708436042.515748,-2.139584541320801,-1.3343409609845658,-2.526100460683004,6.108919727593221,1.0158170461654663,-5.465773646031515
1708436042.5177512,-2.139277935028076,-1.334365041261055,-2.5262532869922083,6.1086463806922815,1.0159528255462646,-5.465773646031515
1708436042.519707,-2.1389658451080322,-1.3344365668347855,-2.526337210332052,6.108275520592489,1.0160608291625977,-5.465817991887228
1708436042.5217116,-2.1386702060699463,-1.3345226657441636,-2.5264421145068567,6.107915389328756,1.0162497758865356,-5.465773646031515
1708436042.523701,-2.1383917331695557,-1.3344885271838685,-2.5265172163592737,6.107552039414205,1.01632559299469,-5.465810362492697
1708436042.5256953,-2.138058662414551,-1.334508330827095,-2.5266462008105677,6.107222068100729,1.0164859294891357,-5.46578556696047
1708436042.5277278,-2.137773036956787,-1.3345725399306794,-2.526745382939474,6.106846678047933,1.0166674852371216,-5.465776864682333
1708436042.5317042,-2.1370537281036377,-1.3346951764873047,-2.52698523203005,6.106052744179525,1.0169724225997925,-5.465801779423849
1708436042.533694,-2.1366751194000244,-1.3347684305957337,-2.527121369038717,6.105577575951376,1.0171197652816772,-5.465793077145712
1708436042.5357246,-2.1362853050231934,-1.334781975751259,-2.5272205511676233,6.105160343437948,1.0173612833023071,-5.46582663456072
1708436042.5377057,-2.1358771324157715,-1.3348922443440934,-2.5273659865008753,6.104664313584127,1.0174674987792969,-5.465801779423849
1708436042.539697,-2.1354665756225586,-1.3348822605660935,-2.5274887720691126,6.1041979668434045,1.0176610946655273,-5.465804998074667
1708436042.5416987,-2.1350719928741455,-1.3349912774613877,-2.527637545262472,6.103744971543112,1.0178574323654175,-5.465842131768362
1708436042.5436988,-2.134620189666748,-1.3350758117488404,-2.52778131166567,6.1033174870307825,1.018013834953308,-5.465804998074667
1708436042.545693,-2.1341662406921387,-1.3351551306298752,-2.5279298464404505,6.1027777073676965,1.0182020664215088,-5.465784553681509
1708436042.5476918,-2.1337101459503174,-1.3352551025203248,-2.52805740038027,6.102263080864706,1.0184154510498047,-5.465910319481985
1708436042.5496843,-2.1332075595855713,-1.3353479218534012,-2.5282252470599573,6.101654875069418,1.0186479091644287,-5.465840760861532
1708436042.551724,-2.1326634883880615,-1.3353855472854157,-2.528431002293722,6.101073372154989,1.0189076662063599,-5.4658735434161585
1708436042.553703,-2.1321818828582764,-1.3355108213475724,-2.5285823980914515,6.100485908776083,1.0191285610198975,-5.465905968342916
1708436042.555723,-2.131588935852051,-1.335627095108368,-2.528762165700094,6.099787819176473,1.0193406343460083,-5.465886477624075
1708436042.557706,-2.131087303161621,-1.335673527126648,-2.528966252003805,6.0992047665412805,1.0196096897125244,-5.465910319481985
1708436042.5596924,-2.1305460929870605,-1.3357519221356888,-2.5291624704944056,6.098581063538351,1.0198838710784912,-5.465921465550558
1708436042.5616894,-2.1299326419830322,-1.3358725321343918,-2.52932578722109,6.0979535458381555,1.0201027393341064,-5.465905253087179
1708436042.5636864,-2.129364490509033,-1.3359684658101578,-2.529555145894186,6.0973174450691126,1.0203629732131958,-5.465974454079763
1708436042.5657022,-2.128735065460205,-1.3360953790000458,-2.5298286120044153,6.096568929940023,1.0206241607666016,-5.4659616390811365
1708436042.5677092,-2.128073215484619,-1.3361865443042298,-2.5300188700305384,6.095844733506002,1.0209046602249146,-5.46601385274996
1708436042.5697045,-2.1273720264434814,-1.3363432449153443,-2.530247990285055,6.09504913070754,1.0212384462356567,-5.466001574193136
1708436042.5717094,-2.126697540283203,-1.3364465844682236,-2.5304580370532435,6.094330656319418,1.0215508937835693,-5.466000858937399
1708436042.5737062,-2.126054048538208,-1.3366184693625947,-2.5307355562793177,6.0935765383537195,1.0218795537948608,-5.4659998456584376
1708436042.5757215,-2.1253416538238525,-1.3367306900075455,-2.5310054461108606,6.092787253647604,1.0221807956695557,-5.466052834187643
1708436042.5777054,-2.124598503112793,-1.3368869733861466,-2.531228844319479,6.09190450885848,1.02250075340271,-5.466085259114401
1708436042.5797222,-2.1239383220672607,-1.3370022934726258,-2.5313685576068323,6.091034638672628,1.0228056907653809,-5.466085259114401
1708436042.581717,-2.123154401779175,-1.3370685291341324,-2.531638209019796,6.090279805451193,1.0231213569641113,-5.466148440037863
1708436042.5837178,-2.1223788261413574,-1.3371836108020325,-2.5319398085223597,6.089381205826559,1.0234942436218262,-5.4661070744143885
1708436042.5857008,-2.1216742992401123,-1.3373524856618424,-2.532158676777975,6.0884941695030115,1.0239170789718628,-5.46618086496462
1708436042.5877285,-2.120847225189209,-1.337511957888939,-2.5324586073504847,6.087590205460348,1.024200439453125,-5.466184441243307
1708436042.5896978,-2.119993209838867,-1.337643564944603,-2.532776419316427,6.086566674500265,1.0245805978775024,-5.466224197541372
1708436042.5916967,-2.1191773414611816,-1.3378089231303711,-2.5330193678485315,6.08551179149703,1.0250028371810913,-5.4662731925593775
1708436042.5936832,-2.118299722671509,-1.3378777515939255,-2.5333147684680384,6.084607231407919,1.0253995656967163,-5.466251556073324
1708436042.5956872,-2.1173958778381348,-1.338124231701233,-2.533607308064596,6.083583700447836,1.025758981704712,-5.466198269520895
1708436042.5976932,-2.116513729095459,-1.3382869374803086,-2.5339072386371058,6.082551705628195,1.0262211561203003,-5.466263834630148
1708436042.5996907,-2.1156203746795654,-1.3384052079967041,-2.5341952482806605,6.0814621327217,1.0266015529632568,-5.466315809880392
1708436042.6016836,-2.114654064178467,-1.3385933351567765,-2.5345445314990442,6.08043526390151,1.0269612073898315,-5.466384355221884
1708436042.6036844,-2.113737106323242,-1.3387010854533692,-2.534830872212545,6.079337942391195,1.0273820161819458,-5.466384355221884
1708436042.6056879,-2.1127519607543945,-1.338878945713379,-2.5351341406451624,6.078266489296713,1.0278446674346924,-5.466355089341299
1708436042.6077108,-2.111762523651123,-1.339067505007126,-2.5355027357684534,6.077122199326315,1.028281331062317,-5.4664157072650355
1708436042.609715,-2.1107594966888428,-1.3392422509244462,-2.5358853975879114,6.07597707489089,1.0287506580352783,-5.466452483330862
1708436042.6116946,-2.1097214221954346,-1.3394423735192795,-2.5361796061145228,6.074779736786642,1.0291683673858643,-5.466455046330587
1708436042.613722,-2.108593463897705,-1.3395528358272095,-2.5365150610553187,6.0735394833381555,1.0296666622161865,-5.466515664254324
1708436042.61569,-2.1075453758239746,-1.339784787302353,-2.5369275251971644,6.072341191559591,1.0301560163497925,-5.466547433529989
1708436042.6177013,-2.1064019203186035,-1.3399969202331086,-2.5372629801379603,6.0710840103919885,1.0305801630020142,-5.466550652180807
1708436042.6196928,-2.1053271293640137,-1.3401763153127213,-2.53762656847109,6.069841372757711,1.0310689210891724,-5.466574434434072
1708436042.6216793,-2.1042213439941406,-1.3403226298144837,-2.5380821863757532,6.068634974747457,1.031578540802002,-5.466659251843588
1708436042.623719,-2.1030712127685547,-1.3405379813960572,-2.538456741963522,6.067298280983724,1.0321123600006104,-5.466670338307516
1708436042.6256924,-2.1018433570861816,-1.3407786202481766,-2.5388076941119593,6.066014039307394,1.032620906829834,-5.466742817555563
1708436042.6277304,-2.100637674331665,-1.3409311485341568,-2.539196316395895,6.064665543823995,1.0331629514694214,-5.46677536169161
1708436042.6296744,-2.099449396133423,-1.3411406886628647,-2.5396533648120325,6.063439714699545,1.0337051153182983,-5.466758076344625
1708436042.6316803,-2.0982272624969482,-1.3413944107345124,-2.540000025426046,6.0620800135429285,1.0342164039611816,-5.466842834149496
1708436042.6337059,-2.0970144271850586,-1.3416142624667664,-2.5404484907733362,6.060647713928976,1.0348387956619263,-5.4668625632869166
1708436042.6356735,-2.0957255363464355,-1.3417965036681672,-2.5408695379840296,6.059240686684408,1.0353838205337524,-5.466885093842642
1708436042.6376882,-2.0944433212280273,-1.342037097816803,-2.5412758032428187,6.057707416802206,1.0359407663345337,-5.466974500809805
1708436042.6396813,-2.093130350112915,-1.3422899705222626,-2.5417004267321985,6.056287038117208,1.0365391969680786,-5.467022005711691
1708436042.6417038,-2.091866970062256,-1.3424767416766663,-2.5421629587756556,6.05482445934371,1.037111759185791,-5.467102412377493
1708436042.6437123,-2.090597629547119,-1.3427022409490128,-2.542588774357931,6.053288686066427,1.0377378463745117,-5.467137459908621
1708436042.6457016,-2.089202880859375,-1.342992292051651,-2.543015782033102,6.051774847298422,1.0383796691894531,-5.467180852090017
1708436042.6477005,-2.0877761840820312,-1.343194143181183,-2.543488089238302,6.050140011101522,1.0389760732650757,-5.467240635548727
1708436042.6497087,-2.0863561630249023,-1.3434152913144608,-2.5439079443561,6.048529255181112,1.0395804643630981,-5.4673577586757105
1708436042.6517003,-2.0849769115448,-1.343688653116562,-2.544403139744894,6.046891319542684,1.040184736251831,-5.4673330823527735
1708436042.6537497,-2.0834898948669434,-1.3439729672721406,-2.5448795000659388,6.045309889107504,1.0408315658569336,-5.46742427745928
1708436042.6557095,-2.0820701122283936,-1.3442030412009736,-2.5453806559192103,6.043577420502462,1.0414927005767822,-5.4674676100360315
