Eg3-git/Classifiers/Data Collection/u3/u3xyz1_ur3e_joint_states.csv
time,elbow_joint,shoulder_lift_joint,shoulder_pan_joint,wrist_1_joint,wrist_2_joint,wrist_3_joint
1708436009.0535245,-2.1405646800994873,-1.333168165092804,-2.5273869673358362,6.108424174576559,1.0190160274505615,-5.343310658131735
1708436009.0554965,-2.1406097412109375,-1.333188847904541,-2.527433458958761,6.108369934349813,1.0190372467041016,-5.3433314005481165
1708436009.0574985,-2.140641212463379,-1.3332256239703675,-2.5273869673358362,6.108414995461263,1.01905357837677,-5.343276623879568
1708436009.059487,-2.140662431716919,-1.3332137924483796,-2.527424399052755,6.108393776207723,1.01905357837677,-5.343352023755209
1708436009.061497,-2.1405885219573975,-1.3332256239703675,-2.5274110476123255,6.108332383423605,1.0190160274505615,-5.343313936387197
1708436009.0635102,-2.1405928134918213,-1.333200530414917,-2.5274201075183313,6.108381974488058,1.0190658569335938,-5.34332257906069
1708436009.0655005,-2.140576124191284,-1.3331915897182007,-2.5273285547839563,6.108340251236715,1.0190417766571045,-5.3432984987842005
1708436009.0674922,-2.140641212463379,-1.333181456928589,-2.5274322668658655,6.108402836113729,1.0190205574035645,-5.3433019558535975
1708436009.0694916,-2.140641212463379,-1.3331845116666337,-2.527396027241842,6.108353602677145,1.0190086364746094,-5.343326930199758
1708436009.0714788,-2.140634298324585,-1.3332048666528244,-2.5274277369128626,6.10840271690444,1.0190956592559814,-5.343306306992666
1708436009.0734944,-2.1406748294830322,-1.3331844967654725,-2.5274232069598597,6.1083730337913416,1.0190328359603882,-5.343306306992666
1708436009.0754974,-2.1406748294830322,-1.333176926975586,-2.527417246495382,6.1083730337913416,1.0190372467041016,-5.343326930199758
1708436009.0774872,-2.140641212463379,-1.333188847904541,-2.5274155775653284,6.108299600868978,1.0190281867980957,-5.343392078076498
1708436009.0794907,-2.1406238079071045,-1.333200530414917,-2.5274081865893763,6.108369934349813,1.0190372467041016,-5.343309466038839
1708436009.0814927,-2.1406280994415283,-1.3331725013307114,-2.5274155775653284,6.108353602677145,1.0190702676773071,-5.343353990708486
1708436009.083503,-2.1406450271606445,-1.3331637543490906,-2.5273824373828333,6.10844777801589,1.0190294981002808,-5.3432722131358545
1708436009.0854857,-2.140658140182495,-1.333225668673851,-2.5273452440844935,6.10838936546401,1.0190070867538452,-5.343318227921621
1708436009.0875049,-2.1406748294830322,-1.3331470799497147,-2.5274081865893763,6.108384835511007,1.0190205574035645,-5.343330208455221
1708436009.0894964,-2.1406493186950684,-1.333176926975586,-2.5274367968188685,6.108323442726888,1.0190658569335938,-5.343325797711508
1708436009.0914967,-2.1406166553497314,-1.3331915748170395,-2.5273869673358362,6.108352052956381,1.01905357837677,-5.343318227921621
1708436009.0935202,-2.1406493186950684,-1.3332048666528244,-2.527391497288839,6.108431446343221,1.0190372467041016,-5.343362812195913
1708436009.0954885,-2.140603542327881,-1.333176926975586,-2.5273900667773646,6.10841058471755,1.01905357837677,-5.343354825173513
1708436009.0975127,-2.140657424926758,-1.333168165092804,-2.5274110476123255,6.108332383423605,1.0190491676330566,-5.3433138767825525
1708436009.0994945,-2.1406774520874023,-1.333200530414917,-2.5274065176593226,6.108401524811544,1.01905357837677,-5.34331709543337
1708436009.1014807,-2.1406774520874023,-1.333200530414917,-2.5274320284472864,6.1083446619804285,1.0190659761428833,-5.343354825173513
1708436009.1035535,-2.140653610229492,-1.3331558269313355,-2.5273991266833704,6.108413445740499,1.0190582275390625,-5.343354825173513
1708436009.1054933,-2.1406450271606445,-1.3332542192986985,-2.527412716542379,6.108384835511007,1.0190446376800537,-5.343318168316976
1708436009.107534,-2.1406660079956055,-1.333188847904541,-2.5273869673358362,6.1083565829093835,1.0190417766571045,-5.3433995882617396
1708436009.1095116,-2.140685558319092,-1.333209292297699,-2.5273991266833704,6.108422505646505,1.0190041065216064,-5.343337420617239
1708436009.1114898,-2.1406705379486084,-1.3331871789744874,-2.527375046406881,6.1083730337913416,1.0190328359603882,-5.343325797711508
1708436009.1135106,-2.1406617164611816,-1.3332256239703675,-2.5273736158954065,6.10838936546401,1.0190867185592651,-5.343374613915579
1708436009.1155174,-2.1406900882720947,-1.333180086021759,-2.5274439493762415,6.10838936546401,1.0190491676330566,-5.343350474034445
1708436009.1175156,-2.1406943798065186,-1.3331946742585679,-2.527375046406881,6.108415114670553,1.0190372467041016,-5.343353990708486
1708436009.119518,-2.140631675720215,-1.3331755858710785,-2.5274201075183313,6.108372914582052,1.0190536975860596,-5.343328718339102
1708436009.1214788,-2.140702247619629,-1.3331915897182007,-2.527391497288839,6.108417856484213,1.0190327167510986,-5.343309466038839
1708436009.12353,-2.140702247619629,-1.3331915897182007,-2.5273991266833704,6.1083565829093835,1.0190328359603882,-5.343391005192892
1708436009.1255493,-2.1406686305999756,-1.333200530414917,-2.5274036566363733,6.108397114067831,1.0190328359603882,-5.34338212410082
1708436009.1275134,-2.140709400177002,-1.3332335513881226,-2.5274441877948206,6.108372914582052,1.01905357837677,-5.343374613915579
1708436009.1295373,-2.140676975250244,-1.3332631599954148,-2.5273869673358362,6.1083565829093835,1.019016146659851,-5.343410376702444
1708436009.1315331,-2.1407179832458496,-1.3331845116666337,-2.527428929005758,6.1083730337913416,1.0190446376800537,-5.34342343011965
1708436009.133508,-2.140652894973755,-1.3332124513438721,-2.5273869673358362,6.108414995461263,1.0190463066101074,-5.343382183705465
1708436009.1354833,-2.140702247619629,-1.3332378727248688,-2.5274036566363733,6.108413445740499,1.01905357837677,-5.343352739010946
1708436009.1374996,-2.1406643390655518,-1.333168165092804,-2.5273945967303675,6.108434307366171,1.0190749168395996,-5.343431059514181
1708436009.139506,-2.140705108642578,-1.333130733375885,-2.5274155775653284,6.108413445740499,1.0190283060073853,-5.343382183705465
1708436009.1414952,-2.140697956085205,-1.3331871789744874,-2.527407948170797,6.108429777413168,1.0190463066101074,-5.343430999909536
1708436009.143518,-2.140706777572632,-1.3332379174283524,-2.5273945967303675,6.108397114067831,1.0190281867980957,-5.3433571497546595
1708436009.1454937,-2.1407337188720703,-1.3331960898688813,-2.5274201075183313,6.1083611128623865,1.019008755683899,-5.343423549328939
1708436009.147512,-2.140685558319092,-1.3331915897182007,-2.527407948170797,6.108408915787496,1.0189998149871826,-5.343398455773489
1708436009.1495035,-2.1407225131988525,-1.333200530414917,-2.5273869673358362,6.1084433672721765,1.0190131664276123,-5.343459669743673
1708436009.151509,-2.1406683921813965,-1.3331755858710785,-2.5274036566363733,6.108429896622457,1.0190461874008179,-5.343397323285238
1708436009.1535306,-2.1407577991485596,-1.3332168769887467,-2.5274320284472864,6.108409034996786,1.0190205574035645,-5.343352798615591
1708436009.1555128,-2.140709400177002,-1.3332499277642746,-2.527375046406881,6.108384835511007,1.0190461874008179,-5.34344727197756
1708436009.1575105,-2.1407294273376465,-1.3331871342710038,-2.5274036566363733,6.10845826843337,1.0190294981002808,-5.343459610139028
1708436009.159492,-2.1407251358032227,-1.3332168769887467,-2.5273945967303675,6.108479010849752,1.0189964771270752,-5.343380932007925
1708436009.1614892,-2.1406939029693604,-1.3332335662892838,-2.5273781458484095,6.108445989876547,1.0190131664276123,-5.343406025563375
1708436009.163511,-2.140676975250244,-1.3331915897182007,-2.5273705164538782,6.1084492085273645,1.0189846754074097,-5.343404773865835
1708436009.1655118,-2.140745162963867,-1.3332124513438721,-2.52735406557192,6.1084492085273645,1.0190552473068237,-5.343388501797811
1708436009.1674886,-2.140723466873169,-1.333180086021759,-2.5274198690997522,6.108522641449728,1.0190131664276123,-5.343388561402456
1708436009.1694808,-2.140700578689575,-1.3331961047700425,-2.527375046406881,6.1085582850273035,1.0189964771270752,-5.34342992702593
1708436009.1714764,-2.140727996826172,-1.3332168769887467,-2.5273869673358362,6.10852991321639,1.0190417766571045,-5.343455199395315
1708436009.1734865,-2.1406919956207275,-1.333209292297699,-2.527412716542379,6.108528721123495,1.0190041065216064,-5.343434218560354
1708436009.1755023,-2.140714645385742,-1.333188847904541,-2.5273945967303675,6.108544814377584,1.0190372467041016,-5.343425397072927
1708436009.177495,-2.140727996826172,-1.3331548136523743,-2.5274155775653284,6.108528721123495,1.0190131664276123,-5.343422297631399
1708436009.1795073,-2.140761375427246,-1.3331961047700425,-2.527396027241842,6.108573066979208,1.0190266370773315,-5.343434218560354
1708436009.181501,-2.1407570838928223,-1.3332335513881226,-2.5273662249194544,6.108568656235494,1.0189964771270752,-5.343406025563375
1708436009.1834857,-2.140716552734375,-1.3332124513438721,-2.5273495356189173,6.108597266464987,1.0190054178237915,-5.343380932007925
1708436009.18547,-2.140740394592285,-1.3331755858710785,-2.527428929005758,6.108582126885214,1.0190010070800781,-5.343406025563375
1708436009.1874921,-2.1407358646392822,-1.3331977886012574,-2.5273662249194544,6.108639108925619,1.018977165222168,-5.343397323285238
1708436009.1894948,-2.140712022781372,-1.3332365316203614,-2.5273495356189173,6.108630049019613,1.0189517736434937,-5.343431059514181
1708436009.1915061,-2.140748977661133,-1.3332168769887467,-2.527379576359884,6.108634578972616,1.018972635269165,-5.3434627691852015
1708436009.1934917,-2.140744686126709,-1.333225579266884,-2.527379576359884,6.108586776047506,1.0189517736434937,-5.343413595353262
1708436009.1954877,-2.140794277191162,-1.333240957265236,-2.527358595524923,6.108670222550192,1.018965244293213,-5.343413595353262
1708436009.1974866,-2.1407313346862793,-1.333175541167595,-2.5274155775653284,6.108552205353536,1.018965244293213,-5.3434298674212855
1708436009.1994715,-2.140794277191162,-1.3332662296346207,-2.527412716542379,6.108550655632772,1.01896071434021,-5.343468312417166
1708436009.2014842,-2.140727996826172,-1.3332157594016572,-2.527363125477926,6.108640658646383,1.0189244747161865,-5.343372229729788
1708436009.2035098,-2.1407976150512695,-1.333180086021759,-2.527384106312887,6.1085866568382166,1.0189454555511475,-5.3434298674212855
1708436009.2054837,-2.1407525539398193,-1.333191604619362,-2.5273991266833704,6.108640658646383,1.018924593925476,-5.343434218560354
1708436009.2075076,-2.1407766342163086,-1.333180086021759,-2.527346436177389,6.108701932221212,1.0189409255981445,-5.343397323285238
1708436009.2094893,-2.140768527984619,-1.3332079362920304,-2.527412716542379,6.108607518463888,1.0188958644866943,-5.343508068715231
1708436009.2114794,-2.1407809257507324,-1.3332246106914063,-2.5273869673358362,6.10863624790267,1.018907904624939,-5.343397323285238
1708436009.213493,-2.1407809257507324,-1.3332335513881226,-2.527341906224386,6.1087002632911584,1.0189290046691895,-5.343401674424307
1708436009.2154791,-2.1407852172851562,-1.3332422983697434,-2.52735406557192,6.10865997055129,1.0189123153686523,-5.343442980443136
1708436009.2175148,-2.1408135890960693,-1.3332246106914063,-2.527375046406881,6.108627187996664,1.018945336341858,-5.343425397072927
1708436009.219529,-2.1408205032348633,-1.3332246106914063,-2.527375046406881,6.108622658043661,1.0188958644866943,-5.343380932007925
1708436009.2214875,-2.1407766342163086,-1.3332378727248688,-2.527379576359884,6.108641969948568,1.0189123153686523,-5.343464020882742
1708436009.2235272,-2.1408047676086426,-1.3331961047700425,-2.527412716542379,6.108742463379659,1.0189212560653687,-5.343376461659567
1708436009.2255301,-2.140825033187866,-1.3332335215858002,-2.527337376271383,6.108680951386251,1.0189005136489868,-5.343397323285238
1708436009.227577,-2.1408004760742188,-1.3332168769887467,-2.5274036566363733,6.108655559807577,1.0189093351364136,-5.343464020882742
1708436009.2295098,-2.1408205032348633,-1.333240957265236,-2.527428929005758,6.108752715378561,1.0189168453216553,-5.343410376702444
1708436009.2314844,-2.1408655643463135,-1.3332079362920304,-2.52735406557192,6.108748185425558,1.0189093351364136,-5.343343857918875
1708436009.2335045,-2.140763521194458,-1.3332395118526001,-2.5274081865893763,6.108731853752889,1.0189049243927002,-5.343434218560354
1708436009.2354827,-2.140841007232666,-1.3332079362920304,-2.527363125477926,6.108754265099325,1.0189335346221924,-5.343422357236044
1708436009.237485,-2.1408205032348633,-1.3332365316203614,-2.52735406557192,6.108727204590597,1.0189409255981445,-5.343409125004904
1708436009.2395077,-2.1408162117004395,-1.3332409721663971,-2.5274036566363733,6.108788478165426,1.0189093351364136,-5.343401614819662
1708436009.2415006,-2.140824317932129,-1.3332335364869614,-2.527358595524923,6.108772027283468,1.0189049243927002,-5.343467179928915
1708436009.243501,-2.1408162117004395,-1.3332201701453705,-2.527358595524923,6.108833420067587,1.0188721418380737,-5.343401614819662
1708436009.245489,-2.1408073902130127,-1.3332618039897461,-2.527400557194845,6.108821618347921,1.0188885927200317,-5.343425397072927
1708436009.2475007,-2.1408286094665527,-1.3332379174283524,-2.527379576359884,6.108819949417867,1.0189049243927002,-5.343422357236044
1708436009.2494872,-2.140798568725586,-1.3331755858710785,-2.527400557194845,6.108791339188375,1.0189005136489868,-5.343443040047781
1708436009.2514849,-2.140852451324463,-1.3332212281278153,-2.527417246495382,6.108786809235372,1.0189168453216553,-5.343438629304067
1708436009.2535143,-2.140886068344116,-1.333200530414917,-2.527400557194845,6.10882447937087,1.0188705921173096,-5.343388382588522
1708436009.2555077,-2.140894889831543,-1.3332440269044419,-2.527337376271383,6.108865010529318,1.018918514251709,-5.343413595353262
1708436009.257529,-2.140852451324463,-1.3332157594016572,-2.527391497288839,6.10888837555007,1.0188721418380737,-5.343397263680593
1708436009.2595065,-2.140890598297119,-1.3331623089364548,-2.527400557194845,6.10887240150527,1.0188840627670288,-5.343450907860891
1708436009.2615097,-2.1408567428588867,-1.3332499277642746,-2.527379576359884,6.108879554062643,1.0189005136489868,-5.343438629304067
1708436009.2634828,-2.14090633392334,-1.3332321059754868,-2.527346436177389,6.1088634608085535,1.0188795328140259,-5.343450848256246
1708436009.265488,-2.140864849090576,-1.3332321059754868,-2.527384106312887,6.108942377358236,1.0189290046691895,-5.343458358441488
1708436009.2675164,-2.1408233642578125,-1.3332365316203614,-2.527355496083395,6.108891713410177,1.0188795328140259,-5.343425397072927
1708436009.2695203,-2.140925645828247,-1.3332648140243073,-2.527367655430929,6.108911144524374,1.0189049243927002,-5.34341794649233
1708436009.2714896,-2.1408605575561523,-1.3332992506078263,-2.527358595524923,6.10892008522109,1.0189049243927002,-5.34344202676882
1708436009.2735002,-2.1408560276031494,-1.3332246106914063,-2.527379576359884,6.1089351055915735,1.0189077854156494,-5.343458358441488
1708436009.275481,-2.140904426574707,-1.3332454723170777,-2.527346436177389,6.10896514633254,1.0189379453659058,-5.343467179928915
1708436009.2775064,-2.14090895652771,-1.333215744500496,-2.527341906224386,6.108980047493734,1.0189123153686523,-5.3434627691852015
1708436009.2795436,-2.140929937362671,-1.3331990104964753,-2.527375046406881,6.108944165497579,1.0189424753189087,-5.343474332486288
1708436009.281522,-2.140904426574707,-1.3332321059754868,-2.527321163808004,6.108979809075155,1.0189290046691895,-5.343481961880819
1708436009.2835107,-2.1408474445343018,-1.3331871789744874,-2.5273452440844935,6.108982789307394,1.0189290046691895,-5.343477551137106
1708436009.2855024,-2.140974998474121,-1.3331960451653977,-2.527375046406881,6.108982908516683,1.0189543962478638,-5.343510452901022
1708436009.2875113,-2.1409451961517334,-1.3331900996020813,-2.5273705164538782,6.109008180886068,1.0189499855041504,-5.343477551137106
1708436009.2894907,-2.1408772468566895,-1.3332277250340958,-2.527391497288839,6.109020221024313,1.0189862251281738,-5.343494180832998
1708436009.291482,-2.140904426574707,-1.333281473522522,-2.527321163808004,6.109027850418844,1.0189363956451416,-5.343525234852926
1708436009.2934911,-2.1408870220184326,-1.3332157743028183,-2.527384106312887,6.109005200653829,1.0189481973648071,-5.343492988740103
1708436009.2954986,-2.1409168243408203,-1.333252878194191,-2.527391497288839,6.1090725539024255,1.0189409255981445,-5.343558196221487
1708436009.2975333,-2.140900135040283,-1.333240957265236,-2.5273991266833704,6.109057891159811,1.0189744234085083,-5.343556944523947
1708436009.299495,-2.140904426574707,-1.3332558137229462,-2.527346436177389,6.1090500233467,1.0189273357391357,-5.343620840703146
1708436009.3015208,-2.140903949737549,-1.3332603734782715,-2.527375046406881,6.109089362412252,1.0189528465270996,-5.343620840703146
1708436009.3035047,-2.1408870220184326,-1.3332440567067643,-2.5274110476123255,6.109036552696981,1.0189980268478394,-5.343640271817343
1708436009.305482,-2.1409168243408203,-1.3332603883794327,-2.527341906224386,6.109074342041769,1.018965244293213,-5.343698386345999
1708436009.3075006,-2.1408843994140625,-1.3332859140685578,-2.52735406557192,6.109139907151022,1.0189980268478394,-5.343721810971395
1708436009.309471,-2.1409082412719727,-1.3332637411407013,-2.5273824373828333,6.109139907151022,1.0190143585205078,-5.343671981488363
1708436009.3115015,-2.1409494876861572,-1.3332934242537995,-2.527375046406881,6.109204280167379,1.0189964771270752,-5.343801204358236
1708436009.3134952,-2.1409449577331543,-1.3332889092019578,-2.5274277369128626,6.1091803191001794,1.0190294981002808,-5.3437674085246485
1708436009.3154783,-2.1409249305725098,-1.3333124083331604,-2.5273900667773646,6.109217631607809,1.0190294981002808,-5.343816284333364
1708436009.3174846,-2.1409125328063965,-1.3332919788411637,-2.5273824373828333,6.109136569290914,1.0190328359603882,-5.3438594977008265
1708436009.3195138,-2.1409451961517334,-1.33330690980468,-2.5273903051959437,6.109223592072286,1.0190491676330566,-5.3438889423953455
1708436009.3214812,-2.1409082412719727,-1.3333350879004975,-2.5273705164538782,6.109242903977194,1.0190776586532593,-5.343948547040121
1708436009.3235078,-2.140974998474121,-1.3333440583995362,-2.527379576359884,6.109210121422567,1.0191059112548828,-5.343905870114462
1708436009.3254795,-2.1409292221069336,-1.3333396178535004,-2.5273900667773646,6.1092309830482385,1.019085168838501,-5.344024721776144
1708436009.3274865,-2.1408870220184326,-1.3334053766778489,-2.5273974577533167,6.109242903977194,1.0191348791122437,-5.344007138405935
1708436009.3294976,-2.140899181365967,-1.3333307069591065,-2.5274065176593226,6.109229314118185,1.0191214084625244,-5.344026629124777
1708436009.331524,-2.14094877243042,-1.3333681386760254,-2.5274155775653284,6.109222042351522,1.0191422700881958,-5.3440667430507105
1708436009.3335385,-2.1409859657287598,-1.3333337169936677,-2.5274396578418177,6.109287845879354,1.0191409587860107,-5.3441025654422205
1708436009.33551,-2.1409401893615723,-1.3333593320897599,-2.5274322668658655,6.109271514206686,1.0191410779953003,-5.344117824231283
1708436009.3375118,-2.140953302383423,-1.3334512424520035,-2.5274110476123255,6.109299766808309,1.0192055702209473,-5.344199363385336
1708436009.3394957,-2.140981435775757,-1.3333623123219986,-2.5274110476123255,6.109277236252584,1.019148349761963,-5.34421414533724
1708436009.3414843,-2.14094877243042,-1.3334290844253083,-2.5273779074298304,6.1092415926750085,1.0191847085952759,-5.344315473233358
1708436009.3435163,-2.140965461730957,-1.333371104007103,-2.5274110476123255,6.109224784165182,1.019271731376648,-5.3442978898631495
1708436009.345486,-2.1409859657287598,-1.3334220063737412,-2.5274515787707728,6.109302985459127,1.0192203521728516,-5.344332281743185
1708436009.347516,-2.14096999168396,-1.3333874505809327,-2.527437988911764,6.109260904579916,1.0192865133285522,-5.344384495412008
1708436009.3494878,-2.140961170196533,-1.3334053766778489,-2.52740985551943,6.109305965691366,1.0193078517913818,-5.344429258500234
1708436009.3514926,-2.1409683227539062,-1.3334041398814698,-2.527442518864767,6.109301554947653,1.0192656517028809,-5.344509545956747
1708436009.3535173,-2.140984058380127,-1.333374248152115,-2.527442518864767,6.109326469689169,1.0193195343017578,-5.3445932308780115
1708436009.35548,-2.1409313678741455,-1.3334041398814698,-2.527475420628683,6.109380471497335,1.0193090438842773,-5.3445948402034205
1708436009.357524,-2.14094877243042,-1.3334130954793473,-2.527482811604635,6.109342920571127,1.0193257331848145,-5.344712440167562
1708436009.3594887,-2.1409811973571777,-1.3333964061788102,-2.527437988911764,6.10934745052413,1.0193257331848145,-5.344747010861532
1708436009.3614893,-2.140961170196533,-1.3334814471057435,-2.527504269276754,6.1093580601509,1.0193498134613037,-5.344827655945913
1708436009.3635263,-2.140984058380127,-1.333359272485115,-2.5274997393237513,6.1093580601509,1.0193812847137451,-5.344927672539846
1708436009.3655229,-2.14097261428833,-1.3333831143430253,-2.527466360722677,6.109341609268942,1.0193812847137451,-5.345002118741171
1708436009.3675094,-2.140984058380127,-1.3334291291287919,-2.527478281651632,6.109440433769979,1.0194474458694458,-5.345115665589468
1708436009.3695006,-2.1409318447113037,-1.3334086698344727,-2.527478281651632,6.109431373863973,1.0194339752197266,-5.3452035824405115
1708436009.3714776,-2.1409029960632324,-1.3333579164794465,-2.5274952093707483,6.109405982285299,1.01946222782135,-5.34526497522463
1708436009.3735032,-2.140976905822754,-1.3334158223918458,-2.5275638739215296,6.109410512238302,1.0194385051727295,-5.345369283352987
1708436009.3755124,-2.140944480895996,-1.3333997887424012,-2.527505699788229,6.109443652420797,1.01947021484375,-5.345570627843038
1708436009.3775132,-2.140965461730957,-1.3333547723344346,-2.5274861494647425,6.109404432564535,1.0194486379623413,-5.345621411000387
1708436009.379509,-2.1409575939178467,-1.3334321689656754,-2.5275428930865687,6.109437215119161,1.0194957256317139,-5.345712129269735
1708436009.3814907,-2.140974521636963,-1.333440975551941,-2.5275383631335657,6.109430062561788,1.019482135772705,-5.345848147069113
1708436009.3835208,-2.1409356594085693,-1.3334441047957917,-2.527571503316061,6.1094655869300745,1.0195149183273315,-5.345938865338461
1708436009.385507,-2.140984058380127,-1.3333874505809327,-2.5275593439685267,6.109437215119161,1.019513726234436,-5.346058313046591
1708436009.3875084,-2.1410183906555176,-1.3333726686290284,-2.527550284062521,6.109425651818075,1.0195256471633911,-5.346185270939962
1708436009.3894804,-2.140976905822754,-1.333436520104744,-2.527574602757589,6.109458076744833,1.0195344686508179,-5.346341673527853
1708436009.3915043,-2.1409926414489746,-1.3333547425321122,-2.52759558359255,6.109469997673788,1.019537329673767,-5.346382145081655
1708436009.3934996,-2.1409928798675537,-1.3334410053542634,-2.527574602757589,6.10949872711257,1.0195543766021729,-5.346538905297415
1708436009.395534,-2.140988349914551,-1.3333547574332734,-2.5275819937335413,6.1094401953514,1.01954984664917,-5.346724096928732
1708436009.3975286,-2.140979766845703,-1.3333831143430253,-2.527628485356466,6.109506118088522,1.0195871591567993,-5.346832636986868
1708436009.399494,-2.140984058380127,-1.3334321838668366,-2.527607504521505,6.1094491360481165,1.0195499658584595,-5.347038571034567
1708436009.4015377,-2.1409921646118164,-1.3334158521941681,-2.5276103655444544,6.109503137856283,1.0195945501327515,-5.347148780022756
1708436009.4035199,-2.1409876346588135,-1.3334130954793473,-2.5276148954974573,6.109494077950277,1.019566297531128,-5.347332481537954
1708436009.405496,-2.141033411026001,-1.3333997887424012,-2.5276179949389856,6.109494197159567,1.0196081399917603,-5.347478632126943
1708436009.4075215,-2.141000747680664,-1.3333874505809327,-2.5276148954974573,6.109470116883077,1.019578218460083,-5.347681526337759
1708436009.4095047,-2.1410088539123535,-1.333415762787201,-2.5275984446154993,6.109519588738241,1.0196068286895752,-5.347853128110067
1708436009.411527,-2.141029119491577,-1.3334454757026215,-2.5275731722461146,6.109447586327352,1.019590139389038,-5.348003629838125
1708436009.4134939,-2.140988349914551,-1.333441050057747,-2.5276103655444544,6.109480726509847,1.0195856094360352,-5.3482258955584925
1708436009.4155042,-2.1410176753997803,-1.3333919805339356,-2.5275896231280726,6.109501588135519,1.0195810794830322,-5.348442558442251
1708436009.4175181,-2.1409964561462402,-1.3334086549333115,-2.5276270548449915,6.109530198365011,1.0196263790130615,-5.3486871162997645
1708436009.41949,-2.1410176753997803,-1.3333786737969895,-2.5275941530810755,6.109477746277609,1.0196113586425781,-5.348827366028921
1708436009.4215379,-2.1409921646118164,-1.3334086698344727,-2.527613703404562,6.109508979111471,1.0195932388305664,-5.349128607903616
1708436009.4235225,-2.1409876346588135,-1.333445430999138,-2.5276270548449915,6.109455334931173,1.0196068286895752,-5.349342111741201
1708436009.4255023,-2.1409964561462402,-1.3333548319390793,-2.5276225248919886,6.109505998879232,1.0196186304092407,-5.349523667489187
1708436009.427539,-2.140979766845703,-1.3333874356797715,-2.5276556650744837,6.1094552157218835,1.0196022987365723,-5.349787954484121
1708436009.429516,-2.1410627365112305,-1.3334041398814698,-2.5276675860034388,6.109483706742086,1.0196276903152466,-5.3500341216670435
1708436009.431499,-2.1410045623779297,-1.3333845150521775,-2.5276148954974573,6.10948525646285,1.0195978879928589,-5.350321892892019
1708436009.4335043,-2.141017436981201,-1.333424688582756,-2.5276179949389856,6.10952244976119,1.019668459892273,-5.350551907216207
1708436009.4354768,-2.1409876346588135,-1.3333337169936677,-2.5276270548449915,6.109510528832235,1.0196096897125244,-5.350830797349111
1708436009.4375057,-2.1410160064697266,-1.333359272485115,-2.5276644865619105,6.1094761965568445,1.019588828086853,-5.351117078457968
1708436009.4394913,-2.1410131454467773,-1.333413080578186,-2.5276435057269495,6.109517919808187,1.0195856094360352,-5.351420108472006
1708436009.4414706,-2.140976905822754,-1.3333874505809327,-2.5276270548449915,6.109508979111471,1.019590139389038,-5.351704541836874
1708436009.443482,-2.1409921646118164,-1.3333800596049805,-2.5276270548449915,6.109525668412008,1.0196232795715332,-5.3520541230784815
1708436009.4454799,-2.140950918197632,-1.3333831143430253,-2.527656857167379,6.109534728318014,1.0195990800857544,-5.352391068135397
1708436009.447496,-2.140950918197632,-1.3333997887424012,-2.5276148954974573,6.109504449158468,1.0196186304092407,-5.3527714053737085
1708436009.4494798,-2.1410202980041504,-1.3333964210799714,-2.5276480356799524,6.109521257668295,1.0195856094360352,-5.3531538287745875
1708436009.4514768,-2.1410000324249268,-1.3334041398814698,-2.5276270548449915,6.109468805580892,1.0195856094360352,-5.353437010441915
1708436009.453504,-2.1410045623779297,-1.3333623272231598,-2.5276103655444544,6.109576093941488,1.0195871591567993,-5.353803936635153
1708436009.4554784,-2.1410202980041504,-1.333389015202858,-2.5276344458209437,6.109546649246969,1.0195499658584595,-5.354142192994253
1708436009.4575346,-2.1409709453582764,-1.333413080578186,-2.5276721159564417,6.109531509667196,1.019566297531128,-5.35448390642275
1708436009.4595072,-2.141024589538574,-1.333357886677124,-2.527623955403463,6.109497177391805,1.0195945501327515,-5.3548495213138025
1708436009.4615238,-2.1409964561462402,-1.333374248152115,-2.5276225248919886,6.109434115677633,1.0195283889770508,-5.355186764393942
1708436009.4635246,-2.1410045623779297,-1.3334409606507798,-2.5276148954974573,6.109551059990682,1.019546389579773,-5.355635885392324
1708436009.4654891,-2.141028881072998,-1.3334201288274308,-2.5275850931750696,6.109510528832235,1.019537329673767,-5.355964068566458
1708436009.4674911,-2.141033411026001,-1.33343958974395,-2.5276148954974573,6.109506118088522,1.019492506980896,-5.356333915387289
1708436009.4695268,-2.1410045623779297,-1.3334739369205018,-2.5276480356799524,6.1094716666038416,1.0195059776306152,-5.356748346482412
1708436009.471492,-2.141028881072998,-1.3333919656327744,-2.5275896231280726,6.109548318177023,1.019513726234436,-5.357175413762228
1708436009.4734833,-2.1409876346588135,-1.3333919656327744,-2.5275939146624964,6.1094881174858,1.0194731950759888,-5.357609573994772
1708436009.4754865,-2.1410176753997803,-1.3334365052035828,-2.527607504521505,6.1094610569770715,1.0194658041000366,-5.357977811490194
1708436009.477481,-2.1410045623779297,-1.3334113669446488,-2.5275865236865442,6.109452116280355,1.0194414854049683,-5.358440403138296
1708436009.4794695,-2.1410176753997803,-1.3334409606507798,-2.5276058355914515,6.109456527024069,1.0194220542907715,-5.35893559852709
1708436009.4814744,-2.1409964561462402,-1.333420143728592,-2.5276406447040003,6.1094868061836145,1.0194250345230103,-5.359388772641317
1708436009.4834986,-2.141021966934204,-1.3334528815797348,-2.5276315847979944,6.109421241074362,1.0194458961486816,-5.359829429780142
1708436009.4854896,-2.141000747680664,-1.333408610229828,-2.5276315847979944,6.109385120659628,1.0193935632705688,-5.360250059758322
1708436009.4874885,-2.1409752368927,-1.333386407499649,-2.5276361147509974,6.109430062561788,1.0194025039672852,-5.36074531475176
1708436009.489478,-2.1409683227539062,-1.3334069711020966,-2.5276148954974573,6.10934733131484,1.0193902254104614,-5.361211065446035
1708436009.491487,-2.1409859657287598,-1.3334158223918458,-2.527623955403463,6.109412181168356,1.019394874572754,-5.3616467157946985
1708436009.4935508,-2.1409752368927,-1.3333711189082642,-2.527623955403463,6.109346139221945,1.0193661451339722,-5.362210218106405
1708436009.4955356,-2.1409523487091064,-1.3334380102208634,-2.5276148954974573,6.1092896340186975,1.0193045139312744,-5.3626431862460535
1708436009.497491,-2.14094877243042,-1.3334157478860398,-2.5275748411761683,6.1092519638831995,1.0193089246749878,-5.363108698521749
1708436009.4994974,-2.14092755317688,-1.333427758221962,-2.5276315847979944,6.1093329069908044,1.0192762613296509,-5.363623265420095
1708436009.5015142,-2.140944480895996,-1.3334201139262696,-2.5276103655444544,6.10926245430068,1.0193135738372803,-5.3640626708613794
1708436009.5035074,-2.14092755317688,-1.3334485751441498,-2.5275774637805384,6.109238374024191,1.019298791885376,-5.364629451428549
1708436009.5054781,-2.1409249305725098,-1.3334396493485947,-2.5276103655444544,6.109186160355367,1.019277572631836,-5.365102831517355
1708436009.5074842,-2.1408843994140625,-1.333442972307541,-2.5276315847979944,6.109124767571249,1.019273042678833,-5.365647141133444
1708436009.5094965,-2.1408605575561523,-1.3334473830512543,-2.5276315847979944,6.109163749008932,1.0192325115203857,-5.366160575543539
1708436009.5115542,-2.140873670578003,-1.3335131418756028,-2.5275984446154993,6.109066831856527,1.0192506313323975,-5.366574827824728
1708436009.5135055,-2.1408073902130127,-1.333466724758484,-2.527607504521505,6.109083163529196,1.0192537307739258,-5.367167178784506
1708436009.5154903,-2.140780210494995,-1.3335233640721817,-2.5275819937335413,6.109014379769125,1.019213080406189,-5.36769682565798
1708436009.5175323,-2.140803098678589,-1.3335321110538025,-2.5276029745685022,6.10898123958663,1.0192174911499023,-5.368209902440206
1708436009.519508,-2.140789031982422,-1.3335278046182175,-2.5276148954974573,6.108960616379537,1.019213080406189,-5.368702713643209
1708436009.5215044,-2.1407313346862793,-1.33352184415374,-2.5275865236865442,6.108922946244039,1.0192055702209473,-5.3692753354655665
1708436009.523507,-2.1406807899475098,-1.333601252441742,-2.527607504521505,6.1088424799735925,1.0192011594772339,-5.369808141385214
1708436009.525501,-2.140681266784668,-1.3335623157075425,-2.5275939146624964,6.1088154194648645,1.0192627906799316,-5.3703612128840845
1708436009.5275247,-2.140608072280884,-1.333651990895607,-2.5275939146624964,6.108786809235372,1.0192461013793945,-5.370893780385153
1708436009.5294812,-2.140605926513672,-1.333684654240944,-2.5276675860034388,6.108677613526144,1.0192055702209473,-5.3714850584613245
1708436009.5315018,-2.1405487060546875,-1.3336668771556397,-2.5276270548449915,6.108629691391744,1.0191802978515625,-5.372009519730703
1708436009.5335143,-2.1404879093170166,-1.3337206554463883,-2.5276315847979944,6.108538615494528,1.0191757678985596,-5.372549537812368
1708436009.5354836,-2.140453338623047,-1.3337162745049973,-2.5276556650744837,6.1085702059562585,1.0192055702209473,-5.373131398354666
1708436009.537508,-2.1403844356536865,-1.3337192398360749,-2.5276435057269495,6.1084762690360925,1.0192174911499023,-5.373667065297262
1708436009.5394979,-2.140289306640625,-1.3337760430625458,-2.527679506932394,6.108397114067831,1.0192084312438965,-5.37425929704775
1708436009.5414863,-2.1402292251586914,-1.3337821078351517,-2.5277062098132532,6.108218896179952,1.019271731376648,-5.374821607266561
1708436009.5435135,-2.140162467956543,-1.333851934676506,-2.527691427861349,6.108111369400778,1.0192537307739258,-5.3754183689700525
1708436009.5454853,-2.140045404434204,-1.3338253063014527,-2.527715269719259,6.108044016152181,1.0192747116088867,-5.375942114983694
1708436009.547536,-2.139981746673584,-1.3339118671468277,-2.5277515093432825,6.107875096588888,1.0192819833755493,-5.376543108616964
1708436009.5494976,-2.1398634910583496,-1.3339196008494874,-2.5278294722186487,6.107769000321188,1.019298791885376,-5.377172533665792
1708436009.551506,-2.139770269393921,-1.3339212399772187,-2.527832333241598,6.1076358435447595,1.019277572631836,-5.377713147793905
1708436009.5535033,-2.1396381855010986,-1.3340182614377518,-2.5278189818011683,6.10751639583663,1.0193135738372803,-5.378264788781301
1708436009.5555096,-2.139523506164551,-1.3340224784663697,-2.5278802553759974,6.107384907990255,1.0193302631378174,-5.378860119973318
1708436009.5575058,-2.1393537521362305,-1.3340625923923035,-2.527886454259054,6.1072906134422205,1.0193617343902588,-5.379395548497335
1708436009.5595014,-2.1391940116882324,-1.3341225993684311,-2.5279386679278772,6.1070783016975305,1.019378423690796,-5.379929784928457
1708436009.5614915,-2.1390554904937744,-1.3341389459422608,-2.5279629866229456,6.106962907105245,1.0193979740142822,-5.380481485520498
1708436009.5634978,-2.1389288902282715,-1.3341570657542725,-2.528019968663351,6.106845247536459,1.019417643547058,-5.381009701882498
1708436009.565494,-2.1387076377868652,-1.334247813825943,-2.5280349890338343,6.106640088349142,1.019466757774353,-5.381673339997427
1708436009.5675187,-2.1385273933410645,-1.3342259985259552,-2.5280919710742396,6.106442916184225,1.0194957256317139,-5.382237557564871
1708436009.5694911,-2.138327121734619,-1.3342648309520264,-2.528168026600973,6.106292116432943,1.0194940567016602,-5.382787827645437
1708436009.5714824,-2.138136386871338,-1.3343422573855896,-2.5282045046435755,6.106138217240133,1.0195724964141846,-5.383409921322958
1708436009.5734932,-2.137925863265991,-1.3343401563218613,-2.528309170399801,6.105890023499288,1.0196113586425781,-5.384047333394186
1708436009.5754914,-2.1377224922180176,-1.3344290119460602,-2.5283318201648157,6.105667459755697,1.0196354389190674,-5.384661380444662
1708436009.577507,-2.137441873550415,-1.334482566719391,-2.52839166322817,6.105378734856405,1.0196906328201294,-5.385207120572225
1708436009.5795257,-2.1371777057647705,-1.3345170778087159,-2.528442684804098,6.105103719025411,1.0197465419769287,-5.385840837155477
1708436009.5815043,-2.1369595527648926,-1.3345518869212647,-2.5285118261920374,6.104850995331564,1.0198410749435425,-5.386406246815817
1708436009.5835137,-2.1366348266601562,-1.334590734248497,-2.528558317814962,6.10459982135848,1.0199207067489624,-5.386994663869039
1708436009.5855064,-2.1363718509674072,-1.3346847754767914,-2.5286884943591517,6.104313123017111,1.0199389457702637,-5.38762861887087
1708436009.5875242,-2.136068105697632,-1.3346982610276719,-2.5287066141711634,6.104094850807943,1.0200275182724,-5.388143006955282
1708436009.589484,-2.135826349258423,-1.3347878468087693,-2.5288191477404993,6.103779303818502,1.0201236009597778,-5.388687972222463
1708436009.5915055,-2.135474443435669,-1.3348192882588883,-2.528923813496725,6.103402602463522,1.0203039646148682,-5.389293138180868
1708436009.5934985,-2.1351401805877686,-1.334895373587944,-2.529045645390646,6.103088605194845,1.020382285118103,-5.389845732842581
1708436009.5954857,-2.13478422164917,-1.3349878054908295,-2.5291369597064417,6.102737533837118,1.0205234289169312,-5.390472118054525
1708436009.5975542,-2.1344242095947266,-1.3351000112346192,-2.5292826334582728,6.102373707085409,1.0206183195114136,-5.391007129346029
1708436009.599499,-2.1340625286102295,-1.335094378595688,-2.5293739477740687,6.102010714798727,1.0206812620162964,-5.391593817864553
1708436009.6014922,-2.133694887161255,-1.3352062565139313,-2.529419008885519,6.101653563767233,1.0207728147506714,-5.392105583344595
1708436009.6034973,-2.133331060409546,-1.3353405010751267,-2.5296064058886927,6.101228463440695,1.020895004272461,-5.392630521451132
1708436009.6054919,-2.132887125015259,-1.3353914034417649,-2.529696528111593,6.100746857910909,1.0210314989089966,-5.393236641083853
1708436009.607506,-2.1324305534362793,-1.335449756389,-2.529813353215353,6.100313532143392,1.0211879014968872,-5.393711451684133
1708436009.609496,-2.131986141204834,-1.3356034469655533,-2.5300188700305384,6.09986840465621,1.0214024782180786,-5.394215408955709
1708436009.611505,-2.1315457820892334,-1.3356944185546418,-2.5301087538348597,6.099338161736288,1.0215500593185425,-5.394795242940084
1708436009.613497,-2.1310784816741943,-1.3357650351575394,-2.530294720326559,6.098847973137655,1.0217258930206299,-5.395341519509451
1708436009.6155055,-2.13057017326355,-1.3359144640019913,-2.5304296652423304,6.0983619568641565,1.0219032764434814,-5.3958574573146265
1708436009.6175008,-2.130082607269287,-1.3360293221524735,-2.5305662790881556,6.097871768265524,1.0220309495925903,-5.396420184765951
1708436009.6194892,-2.1296048164367676,-1.336156503563263,-2.530726734791891,6.097277748375692,1.022170901298523,-5.396945361291067
1708436009.6214812,-2.129072904586792,-1.3362763238004227,-2.5308406988727015,6.09682713726119,1.0223675966262817,-5.3973979393588465
1708436009.623494,-2.1285593509674072,-1.3364000481418152,-2.531008545552389,6.096300589829244,1.0225690603256226,-5.397903803979055
1708436009.625485,-2.128009080886841,-1.3364784133485337,-2.5312276522265833,6.095769870072164,1.02272367477417,-5.398417596017019
1708436009.6275144,-2.1274898052215576,-1.3366391968778153,-2.5313413778888147,6.095135080605306,1.0229461193084717,-5.3989185134517115
1708436009.6295152,-2.126873016357422,-1.3367873144200821,-2.5315216223346155,6.094520318299093,1.0231174230575562,-5.399359409009115
1708436009.631529,-2.126300096511841,-1.3368565154126664,-2.531748119984762,6.09388946273879,1.0233008861541748,-5.399890426789419
1708436009.6335273,-2.1256725788116455,-1.3370416474393387,-2.531926695500509,6.093139159470358,1.0235308408737183,-5.400368336831228
1708436009.6354692,-2.12502121925354,-1.3371597540429612,-2.532100264226095,6.0924768326576135,1.0238116979599,-5.400835398827688
1708436009.6374786,-2.124376058578491,-1.3373570156148453,-2.5323508421527308,6.09174262264327,1.0240119695663452,-5.401346806679861
1708436009.639502,-2.1236586570739746,-1.337438018327095,-2.5325427691089075,6.091058480530538,1.024223804473877,-5.401786033307211
1708436009.6415038,-2.1229569911956787,-1.33762742698703,-2.5327211062060755,6.090319621353903,1.0244401693344116,-5.40227991739382
1708436009.6435106,-2.12231707572937,-1.3377817881158371,-2.5329459349261683,6.089539396553793,1.024697184562683,-5.402769867573873
1708436009.645475,-2.1215202808380127,-1.3379956942847748,-2.5332115332232874,6.0887324688728235,1.024921178817749,-5.40321916738619
1708436009.6474955,-2.1207945346832275,-1.338134617810585,-2.5333688894854944,6.087992298394003,1.0251811742782593,-5.403750542794363
1708436009.649488,-2.1200482845306396,-1.3383156967214127,-2.5336676279651087,6.0870903609092615,1.0254663228988647,-5.404191438351766
1708436009.6514776,-2.1192450523376465,-1.3384692084840317,-2.5338907877551478,6.086232530861654,1.025719404220581,-5.404673282300131
1708436009.6534927,-2.118438243865967,-1.338611514573433,-2.534109894429342,6.085347640305319,1.0259640216827393,-5.405082468186514
1708436009.6555054,-2.1175389289855957,-1.338832588200905,-2.5344274679767054,6.084433424263754,1.0262571573257446,-5.405478302632467
1708436009.6574867,-2.1167795658111572,-1.338916377430298,-2.534731928502218,6.083504307060995,1.0265122652053833,-5.405888799821035
1708436009.6594923,-2.1158831119537354,-1.3391884130290528,-2.5349000136004847,6.082615601807394,1.0268057584762573,-5.406338099633352
1708436009.6614878,-2.1150259971618652,-1.339355857377388,-2.535201374684469,6.081611859589376,1.0270987749099731,-5.406781498585836
1708436009.6634874,-2.1141257286071777,-1.3395260882428666,-2.535504404698507,6.080598938256063,1.0273544788360596,-5.407185260449545
1708436009.6654859,-2.113149404525757,-1.3397104752114792,-2.535736624394552,6.079661595612325,1.0276310443878174,-5.407577160988943
1708436009.667493,-2.1122448444366455,-1.3399087500623246,-2.5359798113452356,6.078597533493795,1.0279616117477417,-5.408061150704519
1708436009.6695294,-2.111262559890747,-1.3401045215180893,-2.536344114934103,6.077633845597067,1.028281331062317,-5.408446077500479
1708436009.6714976,-2.1102662086486816,-1.3402629357627411,-2.5366485754596155,6.0765899298484705,1.0286468267440796,-5.408843223248617
1708436009.6735218,-2.1092991828918457,-1.3404244792512436,-2.53693658510317,6.07551525810317,1.0289796590805054,-5.409249309693472
1708436009.6755102,-2.1082491874694824,-1.3406785440495987,-2.5371525923358362,6.074416386872091,1.0292783975601196,-5.409692827855245
1708436009.6775177,-2.1071817874908447,-1.3408563149026413,-2.537464205418722,6.073276388436117,1.029646396636963,-5.410032455121176
1708436009.6794994,-2.106074810028076,-1.3411014539054413,-2.5377898851977747,6.0720794079597376,1.0300250053405762,-5.410378936921255
1708436009.6815119,-2.1049773693084717,-1.3413286668113251,-2.5381420294391077,6.070893156319418,1.030381202697754,-5.410822574292318
1708436009.683534,-2.1039364337921143,-1.3415304136327286,-2.5384748617755335,6.069683539658346,1.0307506322860718,-5.411265556012289
1708436009.6854868,-2.1027657985687256,-1.3417411309531708,-2.5387900511371058,6.068485009461202,1.0311022996902466,-5.411585215722219
1708436009.6875317,-2.101717233657837,-1.3420268160155793,-2.5391152540790003,6.067247855454244,1.0314509868621826,-5.411922578011648
1708436009.6894875,-2.1005072593688965,-1.3421971809915085,-2.5394633452044886,6.065946805268087,1.031779170036316,-5.41232538620104
1708436009.6914911,-2.099350929260254,-1.3424812120250245,-2.5398440996753138,6.064777004509725,1.0322414636611938,-5.412732962762014
1708436009.6935115,-2.0981853008270264,-1.3426921528628846,-2.540175501500265,6.0634862063224695,1.0325846672058105,-5.413103226815359
1708436009.6955016,-2.0969555377960205,-1.342939780359604,-2.5404980818377894,6.062165963440695,1.033016324043274,-5.413494471703665
1708436009.6975288,-2.095749616622925,-1.3431655031493683,-2.5408101717578333,6.060900079994955,1.0333787202835083,-5.4138227740870875
1708436009.6994991,-2.0944573879241943,-1.3433927458575745,-2.5411697069751185,6.0594448921974084,1.0338129997253418,-5.414279703293936
1708436009.7014954,-2.0931894779205322,-1.3436155629209061,-2.541525189076559,6.0580612299735925,1.0342216491699219,-5.414615337048666
1708436009.7035434,-2.0919063091278076,-1.3439203959754487,-2.541943375264303,6.056685435562887,1.034642219543457,-5.414994303380148
1708436009.7054968,-2.090582847595215,-1.3441387575915833,-2.5423200766192835,6.055273163109579,1.0350394248962402,-5.415320161973135
1708436009.707536,-2.0892651081085205,-1.3444228333285828,-2.542682711278097,6.053718793183126,1.0355093479156494,-5.415710751210348
1708436009.7094975,-2.0879030227661133,-1.3446768683246155,-2.5430455843554896,6.052234995156088,1.0359307527542114,-5.416071836148397
1708436009.7115011,-2.0865139961242676,-1.34487538159404,-2.543431345616476,6.050691354065695,1.036318302154541,-5.416415278111593
1708436009.7135394,-2.0851330757141113,-1.3451880526593705,-2.543864075337545,6.0490479347999475,1.0367934703826904,-5.416716996823446
1708436009.7155058,-2.083742141723633,-1.3454270523837586,-2.5442143122302454,6.04751073101119,1.0372264385223389,-5.417075459157125
1708436009.7175343,-2.0822787284851074,-1.3456604194692154,-2.544680897389547,6.045997130661764,1.0376293659210205,-5.417376760636465
1708436009.719495,-2.080842971801758,-1.345977560882904,-2.5450010935412806,6.044345605164327,1.038161277770996,-5.417694691811697
1708436009.7214823,-2.0793986320495605,-1.346247525220253,-2.545434538518087,6.042783486634054,1.0386089086532593,-5.4180707971202295
1708436009.7235038,-2.077894926071167,-1.3465228241733094,-2.545871082936422,6.041068303375997,1.0390735864639282,-5.418387297783987
1708436009.7255096,-2.07637882232666,-1.3468067210963746,-2.546241585408346,6.039462554245748,1.0395499467849731,-5.418709460888998
1708436009.7275712,-2.0748486518859863,-1.347126306300499,-2.5467196146594446,6.037740337639608,1.0399694442749023,-5.41902465025057
1708436009.7295022,-2.0732834339141846,-1.3473597329906006,-2.547138039265768,6.0361143229301355,1.0404586791992188,-5.419366482888357
1708436009.7314932,-2.071699380874634,-1.3476765316775818,-2.5475626627551478,6.034351575165548,1.0409539937973022,-5.419702474270956
1708436009.733543,-2.0701537132263184,-1.3479665529778977,-2.548023049031393,6.032694327622213,1.0414167642593384,-5.420029584561483
1708436009.7354949,-2.068544864654541,-1.3482492429069062,-2.5484653154956263,6.031032907753744,1.0419425964355469,-5.420302633439199
1708436009.7375355,-2.066892385482788,-1.3485808980515976,-2.5489841143237513,6.029216992646017,1.042447566986084,-5.420584503804342
1708436009.7394993,-2.065260410308838,-1.3489128214171906,-2.54942232767214,6.027443277626791,1.0429662466049194,-5.4209235350238245
1708436009.7414923,-2.0635905265808105,-1.3491984468749543,-2.5498700777636927,6.025613415032186,1.0434682369232178,-5.4212146441089075
1708436009.7435298,-2.061885356903076,-1.3494597238353272,-2.550330464039938,6.023817288666525,1.0438570976257324,-5.421492401753561
1708436009.745489,-2.060204267501831,-1.3497329664281388,-2.550840202962057,6.021850693016805,1.0444254875183105,-5.421811942254202
1708436009.74752,-2.058452844619751,-1.3500949901393433,-2.5512781778918665,6.020016777306356,1.0448522567749023,-5.422126416360037
1708436009.7494838,-2.056750535964966,-1.3504196566394349,-2.5517295042621058,6.018036949425497,1.0453693866729736,-5.422465447579519
1708436009.751484,-2.054932117462158,-1.3506961029819031,-2.5522142092334192,6.016107189446249,1.0459117889404297,-5.422628108655111
1708436009.7535098,-2.053123950958252,-1.3510856938413163,-2.552713457738058,6.0141498921211145,1.0464527606964111,-5.422932509575979
1708436009.75547,-2.051358699798584,-1.3514002722552796,-2.553185764943258,6.012253510742941,1.0470061302185059,-5.42325205007662
1708436009.7574782,-2.0495433807373047,-1.3517331641963501,-2.553671185170309,6.010270821839132,1.0475515127182007,-5.423535768185751
1708436009.7594984,-2.047698736190796,-1.3521170777133484,-2.5541887919055384,6.008189904480734,1.0481077432632446,-5.423764650021688
1708436009.7615206,-2.045792818069458,-1.3524716657451172,-2.554663960133688,6.006187665253439,1.0486195087432861,-5.424059454594747
1708436009.7635446,-2.043937921524048,-1.352761299615242,-2.5552051703082483,6.004121053009786,1.0491623878479004,-5.424337569867269
1708436009.7654989,-2.042020082473755,-1.3531084519675751,-2.555655066167013,6.002027022629537,1.0496082305908203,-5.424592677746908
1708436009.7675333,-2.0401129722595215,-1.3535238069346924,-2.5562124888049524,5.999986040383138,1.0501314401626587,-5.424904648457662
1708436009.7694926,-2.038205146789551,-1.3539560300162812,-2.556716267262594,5.997794973641195,1.0506924390792847,-5.425132874642507
1708436009.7714875,-2.0362493991851807,-1.3542846602252503,-2.557282034550802,5.995733606606283,1.051274061203003,-5.42542136112322
1708436009.773508,-2.034230947494507,-1.354734794502594,-2.557788674031393,5.993525254517355,1.0518885850906372,-5.425696019326345
1708436009.7754965,-2.0322649478912354,-1.3550350827029725,-2.5583041349994105,5.991396057396688,1.0524616241455078,-5.425934497510092
1708436009.7775304,-2.0302608013153076,-1.3554204863360901,-2.5588694254504603,5.989053594857015,1.0530433654785156,-5.426215533410208
1708436009.7795253,-2.028219223022461,-1.3558272433331986,-2.5593722502337855,5.986865508347311,1.0536565780639648,-5.426462892686025
1708436009.7815094,-2.0262246131896973,-1.3561783593944092,-2.559847418461935,5.984562742501058,1.054248332977295,-5.426795844231741
1708436009.7835405,-2.0241341590881348,-1.3566210877946396,-2.560403887425558,5.9822929976280115,1.0549037456512451,-5.426988605652944
1708436009.7855072,-2.0221168994903564,-1.3570483189872284,-2.560927216206686,5.980046021729269,1.0554840564727783,-5.427255396042959
1708436009.7875352,-2.0199546813964844,-1.3574799013188859,-2.5615137259112757,5.977695214539327,1.056130051612854,-5.427489880715505
1708436009.7894945,-2.017873525619507,-1.3578537863544007,-2.5620036760913294,5.975343096047201,1.056677222251892,-5.427806262169973
1708436009.7915025,-2.0156736373901367,-1.3582710486701508,-2.562528196965353,5.9729723809059045,1.0573229789733887,-5.427982632313864
1708436009.7935164,-2.01350474357605,-1.3587398839047928,-2.5631421248065394,5.970661866455831,1.0579460859298706,-5.428249899541036
1708436009.7955,-2.011317491531372,-1.3590912532857438,-2.5637105146991175,5.968319999962606,1.0584837198257446,-5.428485457097189
1708436009.7975342,-2.0090596675872803,-1.359530748133995,-2.5642698446856897,5.9659814713294885,1.0591061115264893,-5.428727332745687
1708436009.7995062,-2.006871223449707,-1.360001267199852,-2.5648050943957728,5.963666069298544,1.0597323179244995,-5.428945128117697
1708436009.801498,-2.0045928955078125,-1.3604110491326828,-2.5653203169452112,5.96123622634963,1.0603121519088745,-5.4292142430888575
1708436009.803537,-2.002384662628174,-1.3608535093120118,-2.565929953251974,5.958775150566854,1.060930609703064,-5.429391686116354
1708436009.805514,-2.000225782394409,-1.3612453651479264,-2.566472832356588,5.956392514496603,1.0614771842956543,-5.429621283208029
1708436009.807524,-1.997992992401123,-1.3616592299989243,-2.5670412222491663,5.954013573914327,1.062074899673462,-5.4298885504352015
1708436009.8095036,-1.9958405494689941,-1.3620873105577012,-2.567564074193136,5.951677906304159,1.062646508216858,-5.4301170150386255
1708436009.8115065,-1.9936823844909668,-1.362497867350914,-2.568092409764425,5.949335801392355,1.0632957220077515,-5.4303529302226465
1708436009.8135667,-1.99147367477417,-1.362907351260521,-2.5685859362231653,5.946995603829183,1.0638060569763184,-5.430533949528829
1708436009.8155158,-1.9892451763153076,-1.3633183401874085,-2.569235865269796,5.944582330971517,1.0644482374191284,-5.430805865918295
1708436009.8174968,-1.9870165586471558,-1.363704652791359,-2.5697532335864466,5.9422048209007166,1.0650115013122559,-5.431018952523367
1708436009.8194952,-1.9847418069839478,-1.3641211253455658,-2.5702815691577356,5.939822780876913,1.0656715631484985,-5.431259218846456
1708436009.821497,-1.9825353622436523,-1.364558072095253,-2.570878330861227,5.9374698279197595,1.0662785768508911,-5.431490782891409
1708436009.823495,-1.9803779125213623,-1.3650242251208802,-2.5714226404773157,5.93516086319045,1.0668134689331055,-5.431708518658773
1708436009.8254895,-1.9781574010849,-1.365430400972702,-2.5719578901873987,5.932813036232748,1.0673414468765259,-5.431930963193075
1708436009.8275323,-1.975967288017273,-1.365877704029419,-2.572517220173971,5.930408465653219,1.0679503679275513,-5.432199422513143
1708436009.8295262,-1.9737670421600342,-1.3662794095328827,-2.5731070677386683,5.9279987690742395,1.068518877029419,-5.432414535676138
1708436009.8315668,-1.971557378768921,-1.3667073261788865,-2.5736807028399866,5.925646889000692,1.069118857383728,-5.432607297097341
1708436009.833591,-1.9693922996520996,-1.367046297793724,-2.574193779622213,5.923175203591146,1.0696675777435303,-5.432856265698568
1708436009.8355286,-1.9671785831451416,-1.3675199461034317,-2.5746801535235804,5.920737015991964,1.070239543914795,-5.4331234137164515
1708436009.8374941,-1.9649925231933594,-1.3679265242866059,-2.5752342383014124,5.9183599827583215,1.0708973407745361,-5.433329705392019
1708436009.8394983,-1.9628324508666992,-1.368360088472702,-2.57581073442568,5.91606770732955,1.0714678764343262,-5.433532659207479
1708436009.841489,-1.9606854915618896,-1.3687874537757416,-2.576292101536886,5.913594114571371,1.07208251953125,-5.4337462226497095
1708436009.8435295,-1.9584715366363525,-1.3692138505033036,-2.576919142399923,5.911235916405477,1.072649598121643,-5.433953706418173
1708436009.8454826,-1.9562370777130127,-1.36970670640979,-2.5774665514575403,5.908878195076742,1.0733329057693481,-5.434222106133596
1708436009.8475432,-1.9540942907333374,-1.3700982195189972,-2.5779975096331995,5.906495916634359,1.0739531517028809,-5.4344252983676355
1708436009.849495,-1.9518766403198242,-1.3705315750888367,-2.578627411519186,5.904232251435079,1.0745365619659424,-5.434598151837484
1708436009.8514986,-1.9496501684188843,-1.3709712487510224,-2.5791130701648157,5.9019038555915735,1.075075387954712,-5.434865478669302
1708436009.8535166,-1.9475057125091553,-1.3714136940291901,-2.57970101038088,5.899581301003256,1.0756808519363403,-5.435084942971365
1708436009.855494,-1.9452468156814575,-1.3718529653600235,-2.580261770878927,5.897185194283285,1.0762615203857422,-5.435290877019064
1708436009.857489,-1.9430277347564697,-1.3722415131381531,-2.580782953892843,5.894753920822897,1.0768170356750488,-5.4354895393001
1708436009.8595073,-1.9408280849456787,-1.372696415787079,-2.581306759511129,5.892345416336813,1.077459692955017,-5.435818914567129
1708436009.8615012,-1.9385745525360107,-1.3731776636889954,-2.58183461824526,5.88998709896163,1.0779826641082764,-5.436041835938589
1708436009.8635216,-1.9363888502120972,-1.3735568684390564,-2.5824533144580286,5.887655842095175,1.0785138607025146,-5.436247650776998
1708436009.8654943,-1.9342697858810425,-1.3740132015994568,-2.5829833189593714,5.88524745681838,1.0791114568710327,-5.436540249978201
1708436009.8674934,-1.9320353269577026,-1.3743757170489808,-2.5835512320147913,5.8829009411628626,1.0796995162963867,-5.436734441910879
1708436009.869501,-1.9298863410949707,-1.3748066437295456,-2.584086243306295,5.880473959236898,1.0802973508834839,-5.436903123055593
1708436009.8715014,-1.927682638168335,-1.375241295700409,-2.584611956273214,5.878079044609823,1.080879807472229,-5.437158409749166
1708436009.8734856,-1.925554871559143,-1.3756980162910004,-2.585196081792013,5.875606405525961,1.0814653635025024,-5.437349204217092
1708436009.875488,-1.923331618309021,-1.3761457961848755,-2.5857229868518274,5.873365747719564,1.082046389579773,-5.437601570283071
1708436009.8774781,-1.9211177825927734,-1.376527265911438,-2.5862610975848597,5.871020185738363,1.0826764106750488,-5.437791470681326
1708436009.8794854,-1.918951153755188,-1.3769553762725373,-2.5868452231036585,5.8686503050620935,1.0831540822982788,-5.438074890767233
1708436009.8814795,-1.916739821434021,-1.3774611961892624,-2.5873799959765833,5.866259920388021,1.0836992263793945,-5.438291196023123
1708436009.8834758,-1.914553165435791,-1.3778013449958344,-2.5879069010363978,5.863839733391561,1.0843449831008911,-5.438479129468099
1708436009.8855107,-1.9122788906097412,-1.3782776606133957,-2.588465992604391,5.86146234253005,1.084966778755188,-5.438698772584097
1708436009.887511,-1.9100669622421265,-1.3785694402507325,-2.5889855066882532,5.8590595600898645,1.0855743885040283,-5.438982311879293
1708436009.8894897,-1.907865285873413,-1.3790485274842759,-2.589557949696676,5.856711375504293,1.0861209630966187,-5.439177755509512
1708436009.8914988,-1.9056637287139893,-1.37945909917865,-2.590116326008932,5.854399788170614,1.0867502689361572,-5.439386908208029
1708436009.8935041,-1.9034852981567383,-1.379936621790268,-2.59063965479006,5.852063405304708,1.0873717069625854,-5.439682726060049
1708436009.895485,-1.901284098625183,-1.380285234456398,-2.5912070910083216,5.849655735283651,1.0879764556884766,-5.439885501061575
1708436009.8975081,-1.899085283279419,-1.3806704741767426,-2.59174615541567,5.847250926285543,1.0885365009307861,-5.440042201672689
1708436009.8995342,-1.8968523740768433,-1.3811288934997101,-2.59231406847109,5.844898688584127,1.0890711545944214,-5.440348092709677
1708436009.9014845,-1.8946646451950073,-1.3815885049155732,-2.592848602925436,5.842599379807272,1.08965265750885,-5.440549854432241
1708436009.9034865,-1.8924124240875244,-1.381970391874649,-2.5934165159808558,5.840254175453939,1.090256929397583,-5.440788392220632
1708436009.905481,-1.8902207612991333,-1.382434682255127,-2.5939720312701624,5.837892401009359,1.090818166732788,-5.440939370785848
1708436009.907527,-1.888002634048462,-1.3828535240939637,-2.5945027510272425,5.835571038513937,1.0913225412368774,-5.441178027783529
1708436009.9094803,-1.8857735395431519,-1.3832928103259583,-2.595070187245504,5.833180177002706,1.0918793678283691,-5.441417221223013
1708436009.9115043,-1.8835499286651611,-1.3836836975863953,-2.595592800770895,5.830718624382772,1.0925291776657104,-5.441633347664968
1708436009.9135344,-1.8813568353652954,-1.3841009002975007,-2.5961301962481897,5.8283880827720544,1.0931148529052734,-5.4418808857547205
1708436009.9154902,-1.8791685104370117,-1.38456945241008,-2.5966742674456995,5.82608042934493,1.0937155485153198,-5.44202441373934
1708436009.9175014,-1.8769164085388184,-1.3849843901446839,-2.5972748438464563,5.823745000153341,1.0942862033843994,-5.442284468804495
1708436009.919514,-1.8748178482055664,-1.3854037386230011,-2.5978294054614466,5.82132254818038,1.094923734664917,-5.4424501101123255
1708436009.9214985,-1.8726094961166382,-1.38585318744693,-2.5984023253070276,5.818919765740194,1.0955255031585693,-5.442710820828573
1708436009.923495,-1.8703973293304443,-1.3862783920815964,-2.598959747944967,5.816544878273763,1.0961227416992188,-5.442966703568594
1708436009.9254887,-1.868192434310913,-1.3867183488658448,-2.5994752089129847,5.814170467644491,1.09671151638031,-5.443179790173666
1708436009.9275029,-1.866040587425232,-1.3871750694564362,-2.6000550428973597,5.81180106380538,1.0972505807876587,-5.443420414124624
1708436009.9295032,-1.8638107776641846,-1.387606294160225,-2.600581471120016,5.809442627220907,1.0978816747665405,-5.443614308034078
1708436009.9314911,-1.8616085052490234,-1.3880123359015961,-2.6011646429644983,5.8070340035255334,1.0983871221542358,-5.443817440663473
1708436009.933486,-1.859443187713623,-1.3884177964976807,-2.6017115751849573,5.80467306354598,1.0990136861801147,-5.444048527871267
1708436009.9354932,-1.8572709560394287,-1.3889071506312867,-2.6022730509387415,5.802278864174642,1.09954833984375,-5.444304410611288
1708436009.9374852,-1.8550564050674438,-1.3893220734647294,-2.6027823130237024,5.799833643227377,1.1001334190368652,-5.444517258797781
1708436009.9394789,-1.8528114557266235,-1.389773966079094,-2.603276793156759,5.797417390137472,1.1006895303726196,-5.444736603890554
1708436009.9414806,-1.8505990505218506,-1.3901546758464356,-2.6038368383990687,5.7950689671333215,1.101265788078308,-5.4450411836253565
1708436009.9434884,-1.8484320640563965,-1.3905859750560303,-2.6043646971331995,5.79278730133132,1.1019206047058105,-5.445239845906393
1708436009.9454775,-1.846235752105713,-1.391033650641777,-2.6048734823810022,5.790355431824484,1.1025664806365967,-5.44547421136965
1708436009.9474764,-1.8440829515457153,-1.391518549328186,-2.6054862181292933,5.788046467095175,1.1031577587127686,-5.445692304764883
1708436009.9494789,-1.8418697118759155,-1.3918394160321732,-2.6059520880328577,5.785566317826071,1.1037259101867676,-5.445964757596151
1708436009.9514732,-1.8396568298339844,-1.3923572462848206,-2.606488052998678,5.783271181374349,1.1042615175247192,-5.446206871663229
1708436009.9534757,-1.8374954462051392,-1.3927969348481675,-2.6070242563830774,5.7809544680412195,1.104878544807434,-5.446424905453817
1708436009.955489,-1.8353443145751953,-1.3931787473014374,-2.60755163828005,5.778527366905966,1.1054426431655884,-5.44664448896517
1708436009.957498,-1.83308744430542,-1.3936309677413483,-2.608126942311422,5.776243674546041,1.1060850620269775,-5.446890417729513
1708436009.9594867,-1.8308736085891724,-1.3940637123635788,-2.60869008699526,5.773895132332601,1.1066153049468994,-5.44707698026766
1708436009.961489,-1.828685998916626,-1.3945415329984208,-2.6092198530780237,5.771451937943258,1.10715913772583,-5.447338525448934
1708436009.9634933,-1.8264504671096802,-1.394877017741539,-2.60974890390505,5.76910279968337,1.1077598333358765,-5.44753992954363
1708436009.9654887,-1.8242381811141968,-1.3953262281468888,-2.6103087107287806,5.7667066929634,1.1083451509475708,-5.447726849709646
1708436009.9675152,-1.8220452070236206,-1.3957615506700058,-2.610847775136129,5.764325487404623,1.108917474746704,-5.447972897683279
1708436009.9694955,-1.819894552230835,-1.3961465072682877,-2.611438814793722,5.761962640076437,1.1095309257507324,-5.448199931775228
1708436009.971494,-1.8176954984664917,-1.3966563057950516,-2.6119850317584437,5.7597025511558435,1.1101559400558472,-5.44841450849642
1708436009.9735155,-1.8154957294464111,-1.39704284191642,-2.6125362555133265,5.75726197937087,1.110756278038025,-5.448666874562399
1708436009.9754944,-1.8132656812667847,-1.3974293631366272,-2.6130500475512903,5.754848229676046,1.1113356351852417,-5.448893491421835
1708436009.9774969,-1.811056137084961,-1.397877888088562,-2.613589111958639,5.7524640438850305,1.1118054389953613,-5.44915354648699
1708436009.979495,-1.8088679313659668,-1.3983095449260254,-2.6142149607287806,5.750110852509298,1.1123217344284058,-5.449292604123251
1708436009.9814928,-1.8067030906677246,-1.3987286400846024,-2.614754025136129,5.74777518489913,1.1127856969833374,-5.4495983759509485
1708436009.9834943,-1.804499626159668,-1.3990453940681,-2.6152802149402063,5.745507585793295,1.1134134531021118,-5.449874583874838
1708436009.9855058,-1.802322268486023,-1.3994924140027543,-2.615875546132223,5.743093240052023,1.1140227317810059,-5.450067464505331
1708436009.9875357,-1.800015926361084,-1.399891511803009,-2.6164305845843714,5.740637767105856,1.1145834922790527,-5.450250867997305
1708436009.9894927,-1.79780912399292,-1.4003853660872956,-2.616944138203756,5.738262641220846,1.115238070487976,-5.450513784085409
1708436009.991501,-1.795598030090332,-1.4008042377284546,-2.617521111165182,5.735859620362081,1.1158369779586792,-5.450707558785574
1708436009.9934928,-1.793412446975708,-1.4012085062316437,-2.6181281248675745,5.733462798386373,1.1164867877960205,-5.45090622106661
1708436009.9954991,-1.7912334203720093,-1.4016487759402771,-2.6186423937426966,5.731085049896993,1.1170377731323242,-5.451136294995443
1708436009.9974887,-1.7890422344207764,-1.4020263713649292,-2.6192103067981165,5.72880648353652,1.1176458597183228,-5.451406065617697
1708436009.9995086,-1.7868828773498535,-1.402482734327652,-2.6197479406939905,5.726417529373922,1.1183290481567383,-5.45160031715502
1708436010.0014946,-1.7846468687057495,-1.4029469949058075,-2.620340172444479,5.724020468979635,1.1189683675765991,-5.451876405869619
1708436010.0034928,-1.7823822498321533,-1.4032645684531708,-2.6208470503436487,5.721645462303915,1.1195387840270996,-5.452057007943289
1708436010.0055285,-1.7802408933639526,-1.403791607623436,-2.6214550177203577,5.7192574618156335,1.1201651096343994,-5.452318195496694
1708436010.0075014,-1.7780386209487915,-1.404176802640297,-2.621969763432638,5.716964590340414,1.1206995248794556,-5.452539328728811
1708436010.009489,-1.7758870124816895,-1.404629186992981,-2.622528139744894,5.7146479962165735,1.1212972402572632,-5.4527796546565455
1708436010.0115411,-1.7737114429473877,-1.4050298792174836,-2.62307578722109,5.7123087523277185,1.1218525171279907,-5.452997450028555
1708436010.0135257,-1.7714958190917969,-1.405437098150589,-2.6236253420459192,5.709928321629324,1.1224677562713623,-5.453220013772146
1708436010.0154872,-1.7692562341690063,-1.4059131157449265,-2.624193255101339,5.7075214860732935,1.1230053901672363,-5.45349616209139
1708436010.0174973,-1.7670714855194092,-1.4062954944423218,-2.6247335116015833,5.705030667572775,1.1236079931259155,-5.453673605118887
1708436010.0194929,-1.7648557424545288,-1.4067970228246232,-2.6252413431750696,5.702653753548422,1.1241706609725952,-5.453893248234884
1708436010.021499,-1.7626806497573853,-1.4071997565082093,-2.6258352438556116,5.700352477818289,1.124780297279358,-5.454138282929556
1708436010.0234904,-1.7604519128799438,-1.4076712143472214,-2.6263445059405726,5.698007929116049,1.1253803968429565,-5.454264763985769
1708436010.025506,-1.7583192586898804,-1.4080948394588013,-2.626896683369772,5.695626306324758,1.125990390777588,-5.454514269028799
1708436010.027539,-1.7561113834381104,-1.4085053366473694,-2.627467457448141,5.6932944534118555,1.1265935897827148,-5.454739634190695
1708436010.0295372,-1.7538655996322632,-1.4089199167541047,-2.6279946009265345,5.69083850362853,1.1271958351135254,-5.454959456120626
1708436010.031531,-1.751635193824768,-1.4093255561641236,-2.62855035463442,5.6885068891342065,1.1277424097061157,-5.455252114926473
1708436010.0335462,-1.7494438886642456,-1.4097569447806855,-2.6291139761554163,5.686117279320516,1.1283683776855469,-5.455483678971426
1708436010.0355027,-1.7472840547561646,-1.4101443749717255,-2.6296890417682093,5.683822440892019,1.1289596557617188,-5.455685500298635
1708436010.0375473,-1.745132327079773,-1.4105998438647767,-2.630218807850973,5.681416857033529,1.1294702291488647,-5.455928985272543
1708436010.0395136,-1.7429078817367554,-1.4110282522490998,-2.630791250859396,5.679082143097677,1.1300811767578125,-5.45614862838854
1708436010.0415177,-1.7406694889068604,-1.411462203865387,-2.6312900225268763,5.676599907666006,1.1306487321853638,-5.456350092087881
1708436010.043547,-1.7384427785873413,-1.4118559968522568,-2.631840769444601,5.674175250321188,1.1312421560287476,-5.456540230904714
1708436010.0454948,-1.7362180948257446,-1.4123337429812928,-2.632383410130636,5.6717644212539575,1.1318590641021729,-5.456764463578359
1708436010.0475135,-1.7340797185897827,-1.412712739115097,-2.6329599062549036,5.669467794686117,1.132402777671814,-5.457021121178762
1708436010.0494854,-1.7318943738937378,-1.4131019872478028,-2.6334620157824915,5.667127179890432,1.1330771446228027,-5.457243744526998
1708436010.0514944,-1.7297606468200684,-1.41353793561969,-2.634033981953756,5.664747464447775,1.133620262145996,-5.45745432773699
1708436010.0535228,-1.727563738822937,-1.4139543187669297,-2.63452393213381,5.662367749005117,1.1342214345932007,-5.4576906005488794
1708436010.0554972,-1.7253633737564087,-1.414422796373703,-2.6351292769061487,5.66004370430068,1.1347532272338867,-5.45797431865801
1708436010.0575354,-1.7231342792510986,-1.4148809176734467,-2.6356447378741663,5.657612311631002,1.1353459358215332,-5.458091322575704
1708436010.0594957,-1.7209254503250122,-1.4153166872313996,-2.636183802281515,5.6553236720855615,1.1359796524047852,-5.458396081124441
1708436010.0615005,-1.7187747955322266,-1.415765718822815,-2.6368034521686,5.653001355915823,1.136605978012085,-5.458548669015066
1708436010.0635307,-1.716551423072815,-1.4161625665477295,-2.637263838444845,5.650688278466024,1.1371431350708008,-5.4588139096843165
1708436010.065491,-1.7143594026565552,-1.4165980976871033,-2.6378658453570765,5.648302542954244,1.1377201080322266,-5.459023598824636
1708436010.0675142,-1.712098479270935,-1.4170252543738862,-2.638409439717428,5.645885276585378,1.1382938623428345,-5.459275786076681
1708436010.0694885,-1.7099196910858154,-1.41741897285495,-2.638932530079977,5.643529343395986,1.1388962268829346,-5.459449175988333
1708436010.0714936,-1.707704782485962,-1.4178185027888794,-2.6394298712359827,5.641090202122488,1.1394556760787964,-5.459722820912496
1708436010.0735261,-1.7054858207702637,-1.418287382727005,-2.6399975458728235,5.638760971813955,1.1400595903396606,-5.459965829049246
1708436010.075505,-1.7033480405807495,-1.4187138837626954,-2.64055306116213,5.636377203255453,1.140688419342041,-5.4601842800723475
1708436010.0775254,-1.7011116743087769,-1.419170932178833,-2.6410754362689417,5.6339905736740015,1.1412802934646606,-5.460387829934255
1708436010.0795007,-1.6988954544067383,-1.4195180398276825,-2.6416636149035853,5.631604718952932,1.1418732404708862,-5.46054178873171
1708436010.0814953,-1.6966840028762817,-1.4199909430793305,-2.642247025166647,5.629147457867422,1.1423882246017456,-5.460812274609701
1708436010.0835044,-1.6944524049758911,-1.4204687041095276,-2.6427417437182825,5.6267480728919885,1.1429619789123535,-5.461024288331167
1708436010.085491,-1.6922417879104614,-1.4208818537047883,-2.6433492342578333,5.624404954701223,1.1435626745224,-5.4612423817264
1708436010.0875,-1.6900603771209717,-1.421298311357834,-2.6438587347613733,5.622073757439413,1.1441468000411987,-5.461495165024893
1708436010.0894873,-1.687925934791565,-1.421773077254631,-2.644423548375265,5.619819867401876,1.1446963548660278,-5.4616891781436365
1708436010.0914874,-1.6856658458709717,-1.4221951228431244,-2.6449697653399866,5.617405044823446,1.1452441215515137,-5.461920563374655
1708436010.093505,-1.6835298538208008,-1.4226368826678772,-2.64555532137026,5.615028905659475,1.145756721496582,-5.462126974259512
1708436010.0954926,-1.6812864542007446,-1.4230094713023682,-2.646032158528463,5.6125913737113855,1.146354079246521,-5.46233451763262
1708436010.0975115,-1.6791419982910156,-1.423429475431778,-2.646670166646139,5.61023365238265,1.1469308137893677,-5.462609414254324
1708436010.0995064,-1.6769300699234009,-1.4237963271192093,-2.6471634546863,5.60782818773345,1.1475838422775269,-5.4628546873675745
1708436010.1014905,-1.674759030342102,-1.42430533588443,-2.647743288670675,5.605487096100607,1.1482534408569336,-5.463060442601339
1708436010.1034992,-1.672572374343872,-1.4247067135623475,-2.6482985655414026,5.60307531335906,1.1488780975341797,-5.463243250046865
1708436010.1055129,-1.670381784439087,-1.4250976604274292,-2.6488922278033655,5.600743520050802,1.1494159698486328,-5.463505868111746
1708436010.1075218,-1.6682132482528687,-1.4255962830832978,-2.6493471304522913,5.59841142871932,1.1500135660171509,-5.463761572037832
1708436010.109489,-1.66591477394104,-1.425973342066147,-2.649940554295675,5.59595142582015,1.1505615711212158,-5.4639319221126
1708436010.111512,-1.6637831926345825,-1.4263955664685746,-2.6504679361926478,5.593650507717886,1.1511473655700684,-5.464196328316824
1708436010.11356,-1.661553144454956,-1.4268192213824769,-2.6510141531573694,5.591315674572744,1.15177321434021,-5.464451913033621
1708436010.1154947,-1.6593798398971558,-1.427259550695755,-2.651541535054342,5.588968860894003,1.1523934602737427,-5.464646104966299
1708436010.1175518,-1.657187581062317,-1.427648977642395,-2.6521435419665735,5.586668479233541,1.1529537439346313,-5.46487802663912
1708436010.1195266,-1.6549897193908691,-1.4281342935613175,-2.65269381204714,5.584205555706777,1.1535117626190186,-5.465101722870962
1708436010.1215134,-1.6527284383773804,-1.428527982240059,-2.653203074132101,5.581862139492788,1.1541001796722412,-5.465282920991079
1708436010.1235135,-1.6505812406539917,-1.4289512199214478,-2.6537559668170374,5.57944135644988,1.1546813249588013,-5.465505127106802
1708436010.125501,-1.6483606100082397,-1.4293965262225647,-2.65424091020693,5.577061044960775,1.1552326679229736,-5.465748731289999
1708436010.127527,-1.6461524963378906,-1.4298187655261536,-2.654785219823019,5.574682521611013,1.155829906463623,-5.466005210076467
1708436010.129524,-1.643898367881775,-1.4302709561637421,-2.655307118092672,5.572367000370779,1.1564382314682007,-5.466195229684011
1708436010.1315196,-1.6417560577392578,-1.4306977701238175,-2.6558995882617396,5.570008504181661,1.1570476293563843,-5.466447416936056
1708436010.1335516,-1.6395444869995117,-1.431083471780159,-2.656475607548849,5.567541765957632,1.1576706171035767,-5.466645185147421
1708436010.1354997,-1.6373296976089478,-1.431491033439972,-2.6569326559649866,5.565177547722616,1.1582022905349731,-5.4668975512134
1708436010.1375327,-1.6351101398468018,-1.4319135707667847,-2.657562319432394,5.5627925274665735,1.158750295639038,-5.467099730168478
1708436010.1395092,-1.6328749656677246,-1.4323134434274216,-2.6580832640277308,5.560465800553121,1.1593300104141235,-5.467302683983938
1708436010.1414938,-1.6306850910186768,-1.4327639204314728,-2.6586392561541956,5.558124530106344,1.15994393825531,-5.467558030282156
1708436010.143511,-1.6285127401351929,-1.4332129967263718,-2.6592984835254114,5.555740344315328,1.1605159044265747,-5.467810396348135
1708436010.1454933,-1.6263079643249512,-1.4336356681636353,-2.6597943941699427,5.553361701756277,1.1610716581344604,-5.468021039162771
1708436010.1475267,-1.6241023540496826,-1.434071109896042,-2.660354200993673,5.5510268090064905,1.1616954803466797,-5.468288246785299
1708436010.1494942,-1.6219123601913452,-1.4344798189452668,-2.6608968416797083,5.548585283547201,1.1622495651245117,-5.468466881905691
1708436010.1515396,-1.6196743249893188,-1.434881181722023,-2.661431614552633,5.5462320921714685,1.1628230810165405,-5.468686226998464
1708436010.1535325,-1.6175514459609985,-1.435321332221367,-2.661987368260519,5.543906020909109,1.163390874862671,-5.4688807169543665
1708436010.155508,-1.6153333187103271,-1.4357359570315857,-2.6625710169421595,5.541521835118093,1.163962483406067,-5.469116453324453
1708436010.1575222,-1.613139271736145,-1.4361300033381958,-2.6630895773517054,5.539109158306875,1.1645845174789429,-5.469344619904653
1708436010.1595078,-1.6109462976455688,-1.4366814953139802,-2.663661305104391,5.536721157818594,1.1651809215545654,-5.469608966504232
1708436010.1614985,-1.6086896657943726,-1.4370049250176926,-2.6641457716571253,5.534293162613668,1.1657332181930542,-5.469860021268026
1708436010.1635208,-1.6065006256103516,-1.4374362987330933,-2.6647475401507776,5.531901168614187,1.1663622856140137,-5.470039252434866
1708436010.1655018,-1.604325771331787,-1.4378604751876374,-2.6652916113482874,5.529668378620901,1.1669436693191528,-5.470277015362875
1708436010.1675615,-1.6021397113800049,-1.438325123195984,-2.6658337751971644,5.527361678868093,1.1675503253936768,-5.470496420060293
1708436010.1694977,-1.5999001264572144,-1.4387069207480927,-2.666339937840597,5.525012540608206,1.168139100074768,-5.470751945172445
1708436010.1714911,-1.5977522134780884,-1.439175234442093,-2.666924540196554,5.522619354515829,1.1686897277832031,-5.470929805432455
1708436010.1735392,-1.5954668521881104,-1.4396488529494782,-2.6674557367907923,5.520261752396383,1.1692951917648315,-5.471161488686697
1708436010.1755562,-1.5932893753051758,-1.440016971235611,-2.667950216923849,5.517896938114919,1.1698626279830933,-5.471421543751852
1708436010.1776137,-1.5911104679107666,-1.440420226459839,-2.6684847513781946,5.515418875008383,1.1705002784729004,-5.471608285103933
1708436010.1795518,-1.5888813734054565,-1.4408725959113617,-2.6690660158740442,5.5131016848380945,1.1710231304168701,-5.471831087266104
1708436010.181506,-1.5867416858673096,-1.441325069671013,-2.669544045125143,5.510804998665609,1.1715744733810425,-5.4720534721957605
1708436010.1835382,-1.5846002101898193,-1.4416666787913819,-2.6701236406909388,5.508400845318594,1.1721960306167603,-5.47227776447405
1708436010.185513,-1.5824220180511475,-1.4421191376498719,-2.6706541220294397,5.50598697641448,1.172805666923523,-5.472476665173666
1708436010.1875453,-1.5802098512649536,-1.442599819307663,-2.6712237040149134,5.503531384259023,1.173349380493164,-5.472715560589926
1708436010.189491,-1.5780351161956787,-1.4429779660752793,-2.671753231679098,5.501129555493154,1.1739675998687744,-5.472918633614675
1708436010.1915147,-1.5758159160614014,-1.443467603330948,-2.672332827244894,5.498721468239584,1.1745725870132446,-5.473132435475485
1708436010.1935334,-1.5736005306243896,-1.4438155156425019,-2.6728315989123743,5.496480452805319,1.1751163005828857,-5.473431054745809
1708436010.1954932,-1.5713924169540405,-1.4443140488914032,-2.6734471956836146,5.494054901390829,1.175652265548706,-5.473633114491598
1708436010.197533,-1.569208025932312,-1.4446900349906464,-2.6739776770221155,5.491715001850881,1.1762216091156006,-5.473852519189016
1708436010.1994884,-1.5669561624526978,-1.4451441031745453,-2.6745412985431116,5.489300656109609,1.176806092262268,-5.474103633557455
1708436010.201482,-1.56474769115448,-1.4455803346684952,-2.675089184437887,5.4868656275566,1.1774396896362305,-5.47424424091448
1708436010.2035236,-1.5625730752944946,-1.4460204404643555,-2.6756282488452356,5.484546887665548,1.1779757738113403,-5.474511686955587
1708436010.2055118,-1.5603301525115967,-1.4464008969119568,-2.676208559666769,5.482221293240347,1.1785600185394287,-5.474756602440969
1708436010.2075224,-1.5582040548324585,-1.4468292158893128,-2.6767709890948694,5.47983472326354,1.1791350841522217,-5.4749255816089075
1708436010.2095308,-1.5560111999511719,-1.4472655293396492,-2.6773393789874476,5.4775112746055505,1.1798059940338135,-5.4751930872546595
1708436010.2115014,-1.5538073778152466,-1.447738991384842,-2.6778762976275843,5.475141453533926,1.1804065704345703,-5.475358907376425
1708436010.2135515,-1.5515989065170288,-1.4481521409801026,-2.6783958117114466,5.472746598511495,1.180993676185608,-5.475623730813162
1708436010.2155004,-1.5493717193603516,-1.448604629640915,-2.679011646901266,5.470338153630056,1.1816154718399048,-5.475887779389517
1708436010.2175024,-1.5471901893615723,-1.448979304437973,-2.679537598286764,5.4680189965064905,1.1821922063827515,-5.4761509338962
1708436010.2194984,-1.5449578762054443,-1.4493597608855744,-2.6800196806537073,5.465683448105612,1.182767391204834,-5.4763750473605555
1708436010.2214978,-1.542790412902832,-1.4498261597803612,-2.680641476308004,5.463412332325735,1.1833524703979492,-5.476593021546499
1708436010.223492,-1.5406012535095215,-1.450330303316452,-2.6811803022967737,5.461106526642599,1.1837913990020752,-5.4768351952182215
1708436010.225496,-1.5383617877960205,-1.4508062613061448,-2.6816747824298304,5.4589048502738855,1.1842913627624512,-5.477090601121084
1708436010.2275333,-1.5361430644989014,-1.451305979197361,-2.6821566263781946,5.456678318768301,1.1848002672195435,-5.477359537278311
1708436010.229516,-1.5339363813400269,-1.4517411229065438,-2.6827579180346888,5.454550730973043,1.18525230884552,-5.477597121392385
1708436010.2315035,-1.531775712966919,-1.4522358787110825,-2.6831513086902063,5.452429044037618,1.1856727600097656,-5.477897528802053
1708436010.2334936,-1.529539942741394,-1.4527321618846436,-2.6836546103106897,5.450470018177786,1.1860963106155396,-5.478176776562826
1708436010.2355103,-1.527393102645874,-1.4532408875278016,-2.6842713991748255,5.4484513876731775,1.186500072479248,-5.478427533303396
1708436010.2375085,-1.525230050086975,-1.4536559593728562,-2.6847220102893274,5.446481215744772,1.186924934387207,-5.4786521832095545
1708436010.2394996,-1.5230305194854736,-1.4542102751186867,-2.685180727635519,5.444518434792318,1.1872600317001343,-5.478972856198446
1708436010.2415166,-1.5208423137664795,-1.454708771114685,-2.6856637636767786,5.442503738194265,1.1876322031021118,-5.479222778473989
1708436010.2435124,-1.5186107158660889,-1.4552569848350068,-2.6861756483661097,5.440599310189047,1.1879563331604004,-5.4795056025134485
1708436010.2455268,-1.5163755416870117,-1.4558005195907135,-2.686676565800802,5.438694345742025,1.1882890462875366,-5.479789261017935
1708436010.247552,-1.514190435409546,-1.456314319079258,-2.687147919331686,5.43684475401,1.1885602474212646,-5.480059746895925
1708436010.2494915,-1.5119982957839966,-1.456874781554081,-2.68761116663088,5.435087549477377,1.1888529062271118,-5.480376068745748
1708436010.2515016,-1.5097944736480713,-1.4574352365783234,-2.6880903879748743,5.433256256371298,1.1891247034072876,-5.480645481740133
1708436010.253507,-1.5076000690460205,-1.457994059925415,-2.6885412375079554,5.43148951509551,1.1893683671951294,-5.480968360100881
1708436010.2555106,-1.505368947982788,-1.4585481074503441,-2.6889968554126185,5.429710554867544,1.1896291971206665,-5.481320861970083
1708436010.2574954,-1.5031402111053467,-1.4590817776373406,-2.689461056386129,5.428081679135122,1.1898528337478638,-5.481569353734152
1708436010.2595284,-1.5009441375732422,-1.4596529391459008,-2.6898933092700403,5.42641847112731,1.1900182962417603,-5.481937889252798
1708436010.261526,-1.4987062215805054,-1.4602786687067528,-2.690298620854513,5.424757706909933,1.1901743412017822,-5.482256356869833
1708436010.263521,-1.4965062141418457,-1.460864433353283,-2.6907413641559046,5.423165547638693,1.1904103755950928,-5.482568625603811
1708436010.265538,-1.4942653179168701,-1.4615413707545777,-2.6911280790912073,5.421676504402914,1.1905616521835327,-5.48291522661318
1708436010.2674973,-1.4920819997787476,-1.4621406880072136,-2.691563908253805,5.420125710755148,1.1906425952911377,-5.483208481465475
1708436010.2695205,-1.4898966550827026,-1.4627547201565285,-2.6919880549060267,5.418665933399954,1.1907705068588257,-5.483601276074545
1708436010.2714868,-1.4877407550811768,-1.4633734834245224,-2.6923745314227503,5.417242932110586,1.1908743381500244,-5.483887020741598
1708436010.2735004,-1.485552430152893,-1.4640266460231324,-2.692871634160177,5.4158052680786035,1.1909584999084473,-5.484301988278524
1708436010.2754889,-1.4833883047103882,-1.464664877658226,-2.6932132879840296,5.4143449542816064,1.1910346746444702,-5.484636489545004
1708436010.2775173,-1.481172800064087,-1.4652952042273064,-2.693657700215475,5.41292684057311,1.191102385520935,-5.484969977532522
1708436010.2795,-1.4790294170379639,-1.4660109368017693,-2.6939926783191126,5.411652195244589,1.191063642501831,-5.485337320958273
1708436010.2815235,-1.4767907857894897,-1.4665880736759682,-2.6943352858172815,5.410333263664999,1.1911383867263794,-5.485740844403402
1708436010.2835424,-1.4746153354644775,-1.4673136261156579,-2.694693390523092,5.409005331784048,1.1910889148712158,-5.486120108758108
1708436010.2855134,-1.472407341003418,-1.468029336338379,-2.6950810591327112,5.407797145634451,1.1910648345947266,-5.486465636883871
1708436010.2874906,-1.470200538635254,-1.4687314939549942,-2.6954830328570765,5.406624841481008,1.1909747123718262,-5.486848119889395
1708436010.289499,-1.4680109024047852,-1.4694056969932099,-2.6958628336535853,5.405476200371542,1.1909315586090088,-5.487214211617605
1708436010.2914846,-1.4657697677612305,-1.4702057403377076,-2.6961925665484827,5.404389488487997,1.1908563375473022,-5.48763090768923
1708436010.2935195,-1.4635868072509766,-1.4708872449449082,-2.6965563933001917,5.403260457306661,1.1907390356063843,-5.488004509602682
1708436010.2955046,-1.4613909721374512,-1.4716423016837616,-2.69690710703005,5.402167963772573,1.1906101703643799,-5.488345805798666
1708436010.2974973,-1.4592186212539673,-1.472348229294159,-2.697242800389425,5.401170420437612,1.1905394792556763,-5.488741163407461
1708436010.2994854,-1.4570146799087524,-1.4730794739774247,-2.6976235548602503,5.400170552521505,1.190348505973816,-5.4891595284091395
1708436010.3015113,-1.4548234939575195,-1.4737397295287629,-2.697904650365011,5.399137425213613,1.1902422904968262,-5.489603523408071
1708436010.3035185,-1.4526320695877075,-1.4746066120317955,-2.698293987904684,5.398118126183309,1.1900361776351929,-5.4899590651141565
1708436010.3054852,-1.450427770614624,-1.4753206086209794,-2.698606077824728,5.397231328278341,1.189892292022705,-5.490407172833578
1708436010.3075233,-1.4483011960983276,-1.4760711950114747,-2.698920551930563,5.396309780865469,1.1896700859069824,-5.490858081971304
1708436010.3094866,-1.4461047649383545,-1.4768758055618783,-2.6991947332965296,5.395549940853872,1.189488172531128,-5.4912559429751795
1708436010.3114967,-1.4439691305160522,-1.4776922848871727,-2.699465815220968,5.394757139473715,1.1891850233078003,-5.491649154816763
1708436010.3135152,-1.441803216934204,-1.4784740445068856,-2.6998148600207728,5.393967854767599,1.1889089345932007,-5.492113832627432
1708436010.3155117,-1.43965482711792,-1.4793013048223038,-2.700074021016256,5.393234121590414,1.1885757446289062,-5.492539469395773
1708436010.3174806,-1.437557578086853,-1.4800515186837693,-2.7003870646106165,5.392618524819174,1.1882585287094116,-5.492933932934896
1708436010.3195193,-1.435396671295166,-1.4808577311090012,-2.7005863825427454,5.391967880516805,1.18793523311615,-5.49336946407427
1708436010.321485,-1.4333750009536743,-1.4817146521857758,-2.7009289900409144,5.3913787482078455,1.1875333786010742,-5.493769470845358
1708436010.3235004,-1.431239366531372,-1.482528531258442,-2.7011223475085657,5.390842127590933,1.1871532201766968,-5.494208637868063
1708436010.3254936,-1.4291467666625977,-1.4833247822574158,-2.7014310995685022,5.390261935978689,1.1867207288742065,-5.494667236004965
1708436010.327493,-1.4270857572555542,-1.4841348019293328,-2.7016423384295862,5.3897562501724146,1.1862913370132446,-5.495130542908804
1708436010.32951,-1.4250351190567017,-1.485055835252144,-2.7019103209124964,5.389338779240408,1.1858351230621338,-5.4956204930888575
1708436010.3315635,-1.4229224920272827,-1.485824630861618,-2.7021217981921595,5.388900565892019,1.185450553894043,-5.496094409619467
1708436010.333617,-1.4208309650421143,-1.4866714936545868,-2.7023704687701624,5.388514566212454,1.1850342750549316,-5.496564869080679
1708436010.3355954,-1.4188379049301147,-1.4875527185252686,-2.7025755087481897,5.388213979988851,1.184564471244812,-5.497026566659109
1708436010.3375616,-1.4167406558990479,-1.4883704868010064,-2.7027507464038294,5.387926924019613,1.1841681003570557,-5.497464720402853
1708436010.3395073,-1.4146983623504639,-1.4891926285675545,-2.703008238469259,5.387672650605001,1.1837326288223267,-5.497930828724996
1708436010.3415065,-1.412672996520996,-1.4900346857360383,-2.703162972127096,5.387412178307333,1.1831860542297363,-5.498401347790853
1708436010.3435087,-1.410616159439087,-1.4909401100924988,-2.7033467928515833,5.387287902622976,1.1826863288879395,-5.498870793973104
1708436010.345515,-1.408614993095398,-1.491802142267563,-2.703571621571676,5.387110221176901,1.182119607925415,-5.499418858681814
1708436010.3475065,-1.4065842628479004,-1.4927061733654519,-2.7036975065814417,5.386929321080007,1.1815640926361084,-5.499909226094381
1708436010.3495195,-1.4046357870101929,-1.4936618965915223,-2.7039268652545374,5.38680379369811,1.1809744834899902,-5.500342134629385
1708436010.3514998,-1.402644157409668,-1.4944829654744645,-2.704040590916769,5.386737870960989,1.180333137512207,-5.500848654900686
1708436010.3535132,-1.4007035493850708,-1.4953496691635628,-2.7042248884784144,5.386685538082876,1.1797130107879639,-5.5013585726367396
1708436010.355509,-1.3987178802490234,-1.496261441414692,-2.7043491045581263,5.3867283938224695,1.1790101528167725,-5.501831833516256
1708436010.3575459,-1.3967833518981934,-1.4972168368152161,-2.7044718901263636,5.386719572335043,1.1783277988433838,-5.5023309032069605
1708436010.359495,-1.394841194152832,-1.4981070172837754,-2.704689089451925,5.386813509255209,1.177651286125183,-5.5028497020350855
1708436010.3615081,-1.3929482698440552,-1.4991234701922913,-2.704768482838766,5.386957275658407,1.1769713163375854,-5.503342930470602
1708436010.3635116,-1.3909807205200195,-1.5000096571496506,-2.704928700123922,5.3870810745056055,1.1762869358062744,-5.503812376652853
1708436010.3655095,-1.3891266584396362,-1.5009422165206452,-2.704996172581808,5.3873071549232385,1.1755825281143188,-5.504254345093862
1708436010.3675058,-1.387224555015564,-1.501883791094162,-2.705111567174093,5.387510406761923,1.1748290061950684,-5.504802469407217
1708436010.3694878,-1.3853057622909546,-1.502843202357628,-2.7051504294024866,5.387730288296499,1.1740422248840332,-5.505280737076895
1708436010.3714826,-1.3834842443466187,-1.5037231010249634,-2.7052300612079065,5.387997972756185,1.1732655763626099,-5.5058380405055445
1708436010.3735356,-1.381534218788147,-1.504703478222229,-2.705334726964132,5.3882972476776025,1.1725176572799683,-5.5063568393336695
1708436010.3754911,-1.3797214031219482,-1.5057109606317063,-2.7054367701159876,5.388659047871389,1.1717318296432495,-5.506850067769186
1708436010.377559,-1.377880334854126,-1.5066203784993668,-2.7054739634143274,5.388984071999349,1.1709061861038208,-5.507404212151663
1708436010.379516,-1.3760864734649658,-1.5076335829547425,-2.70552641550173,5.389453458576956,1.1700751781463623,-5.50794351497759
1708436010.3814921,-1.374193549156189,-1.5086158004454155,-2.7055326143847864,5.389834689884939,1.1691876649856567,-5.5084527174579065
1708436010.3835375,-1.3724428415298462,-1.5096482087722798,-2.705613438283102,5.39035044887618,1.1683552265167236,-5.508944396172659
1708436010.3855298,-1.370727300643921,-1.5106336151114483,-2.70565373102297,5.3908623335655115,1.1675183773040771,-5.509504620228903
1708436010.387542,-1.36885404586792,-1.5116119620255013,-2.7056432406054896,5.391393291741171,1.1666088104248047,-5.510033611451284
1708436010.389487,-1.3670933246612549,-1.5126847189715882,-2.7056599299060267,5.391996371537008,1.1657131910324097,-5.510562304650442
1708436010.3914914,-1.3653199672698975,-1.513624758725502,-2.7057254950152796,5.392599093704977,1.1647480726242065,-5.5111334959613245
1708436010.3935058,-1.36367666721344,-1.514680628930666,-2.70567495027651,5.39330683925704,1.1638566255569458,-5.511659387742178
1708436010.3955119,-1.3618710041046143,-1.5157236021808167,-2.7056358496295374,5.39406298378066,1.162924885749817,-5.512238148842947
1708436010.3975122,-1.3601564168930054,-1.5167479378036042,-2.70559531847109,5.394748198776998,1.1619423627853394,-5.512714807187216
1708436010.3995156,-1.3584412336349487,-1.5178294976106663,-2.705538574849264,5.395570981293478,1.1609870195388794,-5.513252500687734
1708436010.4015243,-1.3567355871200562,-1.5188099791160603,-2.7054832617389124,5.396386253624716,1.1599971055984497,-5.513872269784109
1708436010.4035134,-1.3550653457641602,-1.5198837120882054,-2.7053783575641077,5.39729397276,1.158976674079895,-5.514341894780294
1708436010.405501,-1.3533780574798584,-1.5209235300174733,-2.7053361574756067,5.398077833443441,1.1579625606536865,-5.514944914971487
1708436010.4075396,-1.3516484498977661,-1.5219575253180047,-2.7052927652942103,5.398986267834463,1.1569304466247559,-5.515462462102072
1708436010.4095244,-1.350064754486084,-1.5230228391340752,-2.705162588750021,5.399855959206381,1.155934453010559,-5.515921417866842
1708436010.4115264,-1.3483774662017822,-1.5240401078811665,-2.705132548009054,5.4008229849632166,1.1549227237701416,-5.516508464013235
1708436010.413535,-1.3467516899108887,-1.5251498830369492,-2.7050111929522913,5.401772069721975,1.1538918018341064,-5.5170180837260645
1708436010.41552,-1.3451387882232666,-1.5262481842986126,-2.7048824469195765,5.40281223037795,1.1528152227401733,-5.5175204316722315
1708436010.417505,-1.3435680866241455,-1.5273212318173428,-2.7048197428332728,5.403879511147299,1.1517342329025269,-5.518159989510671
1708436010.419492,-1.3420228958129883,-1.5283833418837567,-2.704641405736105,5.404974627285757,1.150590419769287,-5.5186525026904505
1708436010.4214838,-1.3403924703598022,-1.5294796016863366,-2.7045679728137415,5.406034636288442,1.1494395732879639,-5.5191784540759485
1708436010.4235148,-1.338807463645935,-1.5306307461908837,-2.704320732747213,5.40724931934432,1.1482912302017212,-5.5196924845324915
1708436010.4255347,-1.3372259140014648,-1.5317429427853604,-2.704169575368063,5.408501076489248,1.1471258401870728,-5.520242039357321
1708436010.4275222,-1.3356709480285645,-1.5328657266548653,-2.7040303389178675,5.409670817642965,1.1459698677062988,-5.520826105271475
1708436010.4295442,-1.3341078758239746,-1.5340172921172162,-2.7038455645190638,5.410972046643057,1.1447232961654663,-5.521331493054525
1708436010.4315383,-1.3325139284133911,-1.5352040280452748,-2.703654114400045,5.412334310799398,1.1434792280197144,-5.52183044353594
1708436010.4335387,-1.330950379371643,-1.5363071647337456,-2.7035089174853724,5.413710462837972,1.142191767692566,-5.522380475197927
1708436010.4355578,-1.3293622732162476,-1.5375626322678109,-2.7032256762133997,5.415103781014242,1.1408283710479736,-5.522947613392965
1708436010.4375887,-1.327745795249939,-1.5387052160552521,-2.7030096689807337,5.416536676674642,1.1395314931869507,-5.523501757775442
1708436010.4395068,-1.3262033462524414,-1.5399346512607117,-2.7028079668628138,5.418103742390432,1.1381540298461914,-5.524026278649465
1708436010.4415073,-1.3246183395385742,-1.5411339917084952,-2.7025681177722376,5.419585811882772,1.1367509365081787,-5.524564448987142
1708436010.4435275,-1.3229690790176392,-1.5424424589476367,-2.7022834459887903,5.421081411629476,1.1353490352630615,-5.525075201188223
1708436010.4455194,-1.3214097023010254,-1.5436886058053751,-2.7020021120654505,5.422694194107809,1.133965015411377,-5.525637153779165
1708436010.4475234,-1.319899320602417,-1.5449255865863343,-2.701751772557394,5.424272465496816,1.1325321197509766,-5.526186827813284
1708436010.4495156,-1.3183084726333618,-1.5461934854141255,-2.7015090624438685,5.4260151264961145,1.1310839653015137,-5.526760403309957
1708436010.4515016,-1.3168175220489502,-1.5474780195257445,-2.7011736075030726,5.427742051869192,1.1296206712722778,-5.527348462735311
1708436010.4535086,-1.3152456283569336,-1.5487731539509078,-2.700836722050802,5.429538893490591,1.128044843673706,-5.527806584035055
1708436010.455505,-1.3136706352233887,-1.5501357813230534,-2.700489346181051,5.431337165623464,1.1264845132827759,-5.528404657040731
1708436010.4575262,-1.3121587038040161,-1.5514191978475829,-2.7001505533801478,5.433139490872183,1.124942660331726,-5.528983835374014
1708436010.4594994,-1.3105688095092773,-1.5528110221824427,-2.6997252146350306,5.435079622059622,1.1233255863189697,-5.529517594967977
1708436010.46149,-1.3090723752975464,-1.554128063177206,-2.6993237177478235,5.437020170479574,1.1216908693313599,-5.530017916356222
1708436010.4635193,-1.3074965476989746,-1.5555641551366826,-2.698908869420187,5.438958811550894,1.1200509071350098,-5.530575517808096
1708436010.4654913,-1.3059875965118408,-1.5568785930848499,-2.6984577814685267,5.440945732384481,1.1183913946151733,-5.531145934258596
1708436010.4675214,-1.3045107126235962,-1.5583089155009766,-2.698017660771505,5.442983794003286,1.1167755126953125,-5.531634334717886
1708436010.4694917,-1.3029910326004028,-1.5597165425172825,-2.6975038687335413,5.445130038052358,1.115146517753601,-5.532138828431265
1708436010.4714916,-1.3013955354690552,-1.5612423376045008,-2.6970725695239466,5.447214352875509,1.1134847402572632,-5.532644037400381
1708436010.473522,-1.299899935722351,-1.5627150994590302,-2.6965017954455774,5.44937019327239,1.1118619441986084,-5.533199910317556
1708436010.4755068,-1.2982964515686035,-1.5642054884559293,-2.6959832350360315,5.451427864819326,1.110194444656372,-5.53376138607134
1708436010.4775062,-1.2967772483825684,-1.565682022166886,-2.6953826586352747,5.453577148705282,1.1084107160568237,-5.534232083951132
1708436010.4794898,-1.2952691316604614,-1.5671212354539712,-2.6947625319110315,5.455776858120718,1.1066744327545166,-5.534766976033346
1708436010.4815028,-1.2937359809875488,-1.5685748977451404,-2.694129292164938,5.458116638451376,1.1048392057418823,-5.5352365414248865
1708436010.4835339,-1.2922675609588623,-1.5701762300780793,-2.6935282389270228,5.460364091187277,1.10299551486969,-5.535632316266195
1708436010.485497,-1.2907373905181885,-1.5717317066588343,-2.692876640950338,5.462778973370352,1.1010732650756836,-5.536184910927908
1708436010.487496,-1.289171576499939,-1.5733138523497523,-2.692188088093893,5.465191828995504,1.099216103553772,-5.5366331974612635
1708436010.4894907,-1.2875868082046509,-1.574923654595846,-2.691519800816671,5.467541742115774,1.0972621440887451,-5.537074450646536
1708436010.4914825,-1.2860705852508545,-1.5765072307982386,-2.6908095518695276,5.470018493920126,1.0952422618865967,-5.537509028111593
1708436010.4935117,-1.2845484018325806,-1.5781055889525355,-2.6900342146502894,5.4724628804023645,1.0932708978652954,-5.537946883832113
1708436010.4955132,-1.282901406288147,-1.57981600383901,-2.6893189589129847,5.474880802422323,1.0913218259811401,-5.5384187738048
1708436010.4975362,-1.281369686126709,-1.5814806423582972,-2.688511673604147,5.4773960588272,1.0893805027008057,-5.538814667855398
1708436010.4994998,-1.2797880172729492,-1.5831853351988734,-2.687732998524801,5.479958402901449,1.0874719619750977,-5.539249662552969
1708436010.5015574,-1.2782185077667236,-1.5848461590208949,-2.686930004750387,5.482444393425741,1.0855250358581543,-5.539611462746755
1708436010.503534,-1.2765555381774902,-1.586527010003561,-2.686044756566183,5.484918999462881,1.0835779905319214,-5.539988879357473
1708436010.5054922,-1.275028944015503,-1.5882169208922328,-2.685223166142599,5.487419593125143,1.08161199092865,-5.540376309548513
1708436010.50753,-1.2734490633010864,-1.5899740658202113,-2.6843000094043177,5.48987232425765,1.0795778036117554,-5.540800217782156
1708436010.5094967,-1.271744966506958,-1.5916243992247523,-2.683457676564352,5.492373454361715,1.0776259899139404,-5.541097466145651
1708436010.5115662,-1.270223617553711,-1.5934521160521449,-2.6825786272632044,5.49483876207427,1.075553059577942,-5.541374448929922
1708436010.5135689,-1.2685593366622925,-1.5952898464598597,-2.681617800389425,5.497272062092581,1.0735324621200562,-5.541697386895315
1708436010.515499,-1.2669025659561157,-1.5970007381834925,-2.68067175546755,5.499612438469686,1.0715080499649048,-5.541943673287527
1708436010.5175116,-1.2653017044067383,-1.5987712345519007,-2.6797784010516565,5.502131747990408,1.0694606304168701,-5.542181495820181
1708436010.5194957,-1.2636257410049438,-1.6005455456175746,-2.678770128880636,5.504536497383871,1.0673983097076416,-5.542422060166494
1708436010.5215416,-1.2619473934173584,-1.6023608646788539,-2.6777780691729944,5.506961571961202,1.0652498006820679,-5.54263270298113
1708436010.5235224,-1.2603094577789307,-1.6041718922057093,-2.6767640749560755,5.509339141636648,1.0632119178771973,-5.542892579232351
1708436010.5255048,-1.2585678100585938,-1.60595764736318,-2.6757009665118616,5.511779773026266,1.0612282752990723,-5.5429973045932215
1708436010.5275266,-1.2567540407180786,-1.6078626118102015,-2.674734179173605,5.5140793202217,1.059277892112732,-5.543160323296682
1708436010.529506,-1.2549786567687988,-1.6096388302245082,-2.673788372670309,5.516267525940695,1.0574575662612915,-5.543349866067068
1708436010.5315075,-1.2532166242599487,-1.6115194759764613,-2.672727886830465,5.518601882248678,1.0556995868682861,-5.543447140847341
1708436010.5336287,-1.2513517141342163,-1.6133910618224085,-2.671676222478048,5.520806419640341,1.0537996292114258,-5.54358017841448
1708436010.5355687,-1.249575138092041,-1.6151391468443812,-2.670621935521261,5.523026335030355,1.0517832040786743,-5.543581787739889
1708436010.537531,-1.2478344440460205,-1.6169330082335414,-2.6696046034442347,5.525074887066641,1.0499176979064941,-5.543747548257009
1708436010.5395296,-1.245935082435608,-1.6186849079527796,-2.6685128847705286,5.52727900722579,1.0480397939682007,-5.543762509022848
1708436010.5415215,-1.2441188097000122,-1.62058748821401,-2.667499844227926,5.529395568161764,1.0461313724517822,-5.543760065232412
1708436010.5435073,-1.2422332763671875,-1.6223703823485316,-2.6664469877826136,5.531420695572653,1.0442633628845215,-5.543792430554525
1708436010.5455241,-1.2403229475021362,-1.62420715908193,-2.6654134432422083,5.533406662731924,1.0422941446304321,-5.543788019810812
1708436010.5475094,-1.2383791208267212,-1.6261478863158167,-2.664346996937887,5.5353649137313745,1.0404667854309082,-5.543788019810812
