Eg3-git/Classifiers/Data Collection/u3/u3xyz2_ur3e_joint_states.csv
time,elbow_joint,shoulder_lift_joint,shoulder_pan_joint,wrist_1_joint,wrist_2_joint,wrist_3_joint
1708436027.451648,-2.160278797149658,-1.3365973842195054,-2.5166121164904993,6.1474130032356165,0.9990496635437012,-5.465288285409109
1708436027.4536533,-2.1603035926818848,-1.3365523678115387,-2.5166075865374964,6.147480475693502,0.999037504196167,-5.465316716824667
1708436027.455669,-2.1602745056152344,-1.3366007816842576,-2.516620699559347,6.1474190829093835,0.9990541934967041,-5.465279761944906
1708436027.4576986,-2.1603121757507324,-1.336576209669449,-2.5166197458850306,6.147442805558004,0.9990705251693726,-5.465235833321707
1708436027.4596622,-2.1603193283081055,-1.3365888607553025,-2.5166285673724573,6.147460686951437,0.9990407824516296,-5.465255443249838
1708436027.4616277,-2.1602869033813477,-1.3365769398263474,-2.5166731516467493,6.147480475693502,0.9990750551223755,-5.465251092110769
1708436027.463652,-2.1602911949157715,-1.3365846437266846,-2.5166316668139856,6.147480475693502,0.9990329146385193,-5.465251986180441
1708436027.4656527,-2.1602659225463867,-1.3365888607553025,-2.5166330973254603,6.147468435555258,0.999058723449707,-5.465300504361288
1708436027.46769,-2.160335063934326,-1.3366007816842576,-2.5165987650500696,6.1474517462547205,0.9990542531013489,-5.465202275906698
1708436027.469639,-2.1603035926818848,-1.3365600568107148,-2.5166285673724573,6.14747582653121,0.9990542531013489,-5.465271238480703
1708436027.4716477,-2.1603035926818848,-1.3365481358817597,-2.5166330973254603,6.147480475693502,0.999045193195343,-5.465272430573599
1708436027.473663,-2.160282611846924,-1.3365600568107148,-2.5166285673724573,6.147401201515951,0.9990541934967041,-5.465243522320883
1708436027.475694,-2.1602954864501953,-1.3365565848401566,-2.516578976308004,6.1475164768989465,0.999049723148346,-5.465234939252035
1708436027.477667,-2.1603078842163086,-1.3365727227977295,-2.5165868441211146,6.147468554764547,0.9990734457969666,-5.465292100106375
1708436027.4796326,-2.1603164672851562,-1.3365769398263474,-2.5166075865374964,6.147460686951437,0.9990211129188538,-5.465239171181814
1708436027.4816275,-2.160299777984619,-1.3365727227977295,-2.516670052205221,6.147447335511007,0.9990988373756409,-5.465266946946279
1708436027.4836595,-2.1603035926818848,-1.3365600568107148,-2.5166569391833704,6.147508966713705,0.9990542531013489,-5.465255383645193
1708436027.4856746,-2.1603121757507324,-1.3365486425212403,-2.516649309788839,6.1474190829093835,0.9990541934967041,-5.465263907109396
1708436027.4876707,-2.1602630615234375,-1.3366084855845948,-2.5166447798358362,6.1474249241645715,0.9990779757499695,-5.465238694344656
1708436027.4896393,-2.160245656967163,-1.3365693402341385,-2.5166242758380335,6.147439825325765,0.9990452527999878,-5.46534097591509
1708436027.4916375,-2.160283088684082,-1.3365600568107148,-2.51661187807192,6.147398221283712,0.999049723148346,-5.465312365685598
1708436027.4936426,-2.1602659225463867,-1.3366049987128754,-2.5166862646686,6.147405612259664,0.9990285634994507,-5.465251986180441
1708436027.4956522,-2.1603121757507324,-1.3365888607553025,-2.51661187807192,6.147464024811544,0.999061644077301,-5.465275589619772
1708436027.4976668,-2.1602869033813477,-1.3366007816842576,-2.5166197458850306,6.1474026320274255,0.999049723148346,-5.465300981198446
1708436027.4996302,-2.1602745056152344,-1.3365888607553025,-2.5166285673724573,6.147468554764547,0.9990779757499695,-5.465316776429312
1708436027.501652,-2.1602869033813477,-1.3365439188531418,-2.5166330973254603,6.147471415787496,0.9990571737289429,-5.465324405823843
1708436027.503654,-2.160332441329956,-1.3365439188531418,-2.5166242758380335,6.147442805558004,0.9991021156311035,-5.465283457432882
1708436027.5056217,-2.1603035926818848,-1.3366007816842576,-2.5166524092303675,6.147493827133932,0.9990690350532532,-5.465241793786184
1708436027.5076642,-2.1603281497955322,-1.3365401339581986,-2.5166330973254603,6.147471415787496,0.9990285038948059,-5.465299669896261
1708436027.509674,-2.160348653793335,-1.3366211515716095,-2.5166197458850306,6.147468435555258,0.9990943670272827,-5.465308252965109
1708436027.5116923,-2.1602745056152344,-1.3365274530700226,-2.516610924397604,6.147433864861288,0.999045193195343,-5.465257708226339
1708436027.513682,-2.160278797149658,-1.3365565848401566,-2.5166731516467493,6.147459494858541,0.9990943670272827,-5.465324882661001
1708436027.5156403,-2.1603078842163086,-1.3365727376988907,-2.5166359583484095,6.14747582653121,0.9990285038948059,-5.4652907888041895
1708436027.5176475,-2.1602869033813477,-1.33658121645961,-2.5166075865374964,6.147447335511007,0.9990659952163696,-5.4653366843806666
1708436027.5196338,-2.1603236198425293,-1.3365523678115387,-2.516653601323263,6.147385942726888,0.9990943074226379,-5.465311590825216
1708436027.521634,-2.160310745239258,-1.3365727227977295,-2.5166612307177942,6.14747582653121,0.9990975856781006,-5.465278927479879
1708436027.5236437,-2.1602911949157715,-1.3365846586278458,-2.5166686216937464,6.147447335511007,0.9990407824516296,-5.4653728047954
1708436027.5256279,-2.160283088684082,-1.3365439784577866,-2.5166524092303675,6.147430884629049,0.9990823864936829,-5.4653149286853235
1708436027.527654,-2.1603164672851562,-1.3366135221770783,-2.5166731516467493,6.147484886437216,0.999048113822937,-5.465340081845419
1708436027.5296419,-2.160282611846924,-1.3366050583175202,-2.5166075865374964,6.147484886437216,0.9990645051002502,-5.465380314980642
1708436027.5316572,-2.160282611846924,-1.3365281981280823,-2.5166359583484095,6.147459494858541,0.9990527033805847,-5.465395216141836
1708436027.5336654,-2.1602869033813477,-1.3365804266980668,-2.5166569391833704,6.147468435555258,0.9990735054016113,-5.4653799573527735
1708436027.5356395,-2.1603193283081055,-1.3365684908679505,-2.5166330973254603,6.147456276207723,0.9990824460983276,-5.465343181286947
1708436027.537659,-2.1602702140808105,-1.3365600866130372,-2.5166316668139856,6.147459494858541,0.999069094657898,-5.465375844632284
1708436027.5396416,-2.160250186920166,-1.3365565848401566,-2.5166643301593226,6.147447335511007,0.9990943670272827,-5.465391878281729
1708436027.5416348,-2.16025447845459,-1.3365930777839203,-2.5166569391833704,6.147435414582052,0.9990496039390564,-5.465387825165884
1708436027.543669,-2.1602911949157715,-1.3365846437266846,-2.51660663286318,6.1474729655082605,0.9990735054016113,-5.465383354817526
1708436027.5456276,-2.1603236198425293,-1.3365719777396698,-2.5166242758380335,6.147447335511007,0.9990571141242981,-5.465411607419149
1708436027.5476434,-2.1602911949157715,-1.3365524125150223,-2.5166524092303675,6.14745186546401,0.9990854263305664,-5.465399567280905
1708436027.5496347,-2.1603236198425293,-1.3365523678115387,-2.5166447798358362,6.147398221283712,0.9990615844726562,-5.465416018162863
1708436027.5516338,-2.16032075881958,-1.3366126877120514,-2.5166197458850306,6.147398221283712,0.9990808963775635,-5.465378944073812
1708436027.5536556,-2.160283088684082,-1.3365727078965683,-2.5166447798358362,6.147464144020834,0.9990975856781006,-5.465449039136068
1708436027.5556316,-2.1603193283081055,-1.3366049987128754,-2.5166731516467493,6.147450554161825,0.9990931153297424,-5.465416018162863
1708436027.557776,-2.1603164672851562,-1.3365727227977295,-2.516670052205221,6.147492158203878,0.9990808963775635,-5.465440158043997
1708436027.5596244,-2.1603121757507324,-1.3365443360856553,-2.5166197458850306,6.147439825325765,0.9991065859794617,-5.465432647858755
1708436027.5616357,-2.1603078842163086,-1.3366092306426545,-2.51661187807192,6.147433864861288,0.999064564704895,-5.4653788844691675
1708436027.5636675,-2.1603035926818848,-1.3365973842195054,-2.5166030565844935,6.1474517462547205,0.999110996723175,-5.465448979531423
1708436027.5656528,-2.1603035926818848,-1.3365930777839203,-2.5166524092303675,6.147456156998434,0.9990854263305664,-5.46545654932131
1708436027.5676868,-2.1603035926818848,-1.3366458129933854,-2.5166404883014124,6.14745186546401,0.9990527033805847,-5.465407196675436
1708436027.5696654,-2.1602659225463867,-1.3365888607553025,-2.5166569391833704,6.147431003838339,0.9991437196731567,-5.465477232133047
1708436027.571648,-2.1603121757507324,-1.3365685057691117,-2.5166612307177942,6.147418963700094,0.9990931153297424,-5.465423826371328
1708436027.5736747,-2.1602869033813477,-1.3365930777839203,-2.5166330973254603,6.147393691330709,0.9990363121032715,-5.46546841064562
1708436027.5756466,-2.1603193283081055,-1.3365769398263474,-2.5166359583484095,6.1474894163902185,0.9991139769554138,-5.465431276951925
1708436027.5776694,-2.160282611846924,-1.3365317446044465,-2.5166404883014124,6.147468435555258,0.9990975856781006,-5.465462628995077
1708436027.579635,-2.1603193283081055,-1.336576209669449,-2.5166285673724573,6.147372591286459,0.9990854263305664,-5.4654921928988855
1708436027.5816271,-2.1603035926818848,-1.336555839782097,-2.5166242758380335,6.147426473885336,0.9990808963775635,-5.4654462973224085
1708436027.5836475,-2.160247325897217,-1.3365601164153595,-2.5166359583484095,6.147447335511007,0.9991021156311035,-5.465478960667745
1708436027.5856493,-2.1603078842163086,-1.3365812611630936,-2.5166447798358362,6.147439944535055,0.9991258978843689,-5.465483371411459
1708436027.5876477,-2.1603121757507324,-1.3365481358817597,-2.5165987650500696,6.147442805558004,0.9991258978843689,-5.465474549924032
1708436027.5896297,-2.1603164672851562,-1.3365846437266846,-2.5166359583484095,6.147431003838339,0.9991592764854431,-5.465470079575674
1708436027.591651,-2.160301923751831,-1.3365812462619324,-2.516665760670797,6.147442805558004,0.999088704586029,-5.465528313313619
1708436027.5936408,-2.1603150367736816,-1.3365769249251862,-2.5166359583484095,6.147426354676046,0.999137818813324,-5.465498630200521
1708436027.5956376,-2.1603121757507324,-1.3366211515716095,-2.5166447798358362,6.147426354676046,0.9991214275360107,-5.465523842965261
1708436027.5976672,-2.1602702140808105,-1.3365600419095536,-2.5166524092303675,6.147484886437216,0.9991466999053955,-5.465495292340414
1708436027.5996466,-2.1603193283081055,-1.3366134327701111,-2.5166404883014124,6.1474130032356165,0.9991095066070557,-5.465523902569906
1708436027.6016433,-2.16025447845459,-1.3366049987128754,-2.5166242758380335,6.1474190829093835,0.99912428855896,-5.465514902268545
1708436027.6036427,-2.1602954864501953,-1.3365973842195054,-2.5166686216937464,6.147439825325765,0.9990512132644653,-5.465531293545858
1708436027.605658,-2.1603193283081055,-1.3366415065578003,-2.5166896025287073,6.147431003838339,0.9991139769554138,-5.465503040944235
1708436027.6076546,-2.1602344512939453,-1.3366016459516068,-2.5166612307177942,6.147414552956381,0.99916672706604,-5.465494219456808
1708436027.609659,-2.1602745056152344,-1.3365643334439774,-2.5166447798358362,6.147431003838339,0.9991333484649658,-5.465531293545858
1708436027.6116817,-2.1602869033813477,-1.3366092306426545,-2.5166569391833704,6.14742790439681,0.9991006255149841,-5.465579573308126
1708436027.613651,-2.160278797149658,-1.3365601015141984,-2.5166731516467493,6.147456156998434,0.9991214275360107,-5.465539578591482
1708436027.615695,-2.1602587699890137,-1.3365854632905503,-2.5166030565844935,6.147385942726888,0.9991422295570374,-5.465546850358145
1708436027.6176739,-2.160278797149658,-1.3365608018687745,-2.5166686216937464,6.147431003838339,0.9991286993026733,-5.465526882802145
1708436027.6196384,-2.160287380218506,-1.3365316849998017,-2.5166404883014124,6.147398221283712,0.9991214275360107,-5.465494577084677
1708436027.6216595,-2.1603078842163086,-1.3365973842195054,-2.5166316668139856,6.147411572724142,0.9991286993026733,-5.465531055127279
1708436027.6236506,-2.16033935546875,-1.336548165684082,-2.516622845326559,6.1474517462547205,0.9991503953933716,-5.465534512196676
1708436027.625642,-2.1602587699890137,-1.3365565848401566,-2.5167012850390833,6.147460686951437,0.99912428855896,-5.465530339871542
1708436027.62765,-2.160299777984619,-1.3365888458541413,-2.5166435877429407,6.147390353470602,0.9990959763526917,-5.465534512196676
1708436027.6296659,-2.1603128910064697,-1.3366338920644303,-2.5166154543506067,6.147435414582052,0.99916672706604,-5.465530399476187
1708436027.6316497,-2.160282611846924,-1.3365727376988907,-2.5166643301593226,6.147460686951437,0.99912428855896,-5.465550963078634
1708436027.6336498,-2.1603035926818848,-1.3365812462619324,-2.5166731516467493,6.147435414582052,0.9991333484649658,-5.46556264558901
1708436027.6356332,-2.1603078842163086,-1.3365642589381714,-2.5166524092303675,6.147418963700094,0.9991457462310791,-5.465558413659231
1708436027.63766,-2.160282611846924,-1.3365232956460495,-2.5166896025287073,6.147398221283712,0.99916672706604,-5.465571109448568
1708436027.639646,-2.1602587699890137,-1.3365846437266846,-2.516655508671896,6.147385942726888,0.9991875290870667,-5.465493981038229
1708436027.6416607,-2.1603035926818848,-1.3366092157414933,-2.5166762510882776,6.147411572724142,0.9991486668586731,-5.465582911168234
1708436027.643636,-2.1603121757507324,-1.3366049987128754,-2.5166850725757044,6.1474190829093835,0.999154806137085,-5.465530339871542
1708436027.6456282,-2.160247325897217,-1.3365486425212403,-2.5166731516467493,6.147408354073324,0.9991286993026733,-5.465546850358145
1708436027.6476986,-2.1602869033813477,-1.336612732415535,-2.5166807810412806,6.1474026320274255,0.9990989565849304,-5.465574566517965
1708436027.649634,-2.1602702140808105,-1.3365608018687745,-2.5166271368609827,6.147444355278768,0.9991621375083923,-5.465558473263876
1708436027.6516473,-2.16032075881958,-1.3365846437266846,-2.5166242758380335,6.14746521690444,0.9991457462310791,-5.465538446103231
1708436027.6536412,-2.1603164672851562,-1.3366007518819352,-2.5166686216937464,6.147378432541647,0.9991740584373474,-5.465469245110647
1708436027.6556401,-2.1602587699890137,-1.3365481358817597,-2.5166643301593226,6.147412764817037,0.9991621375083923,-5.465607170258657
1708436027.657649,-2.16025447845459,-1.3365239661983033,-2.516622845326559,6.147384631424703,0.99912428855896,-5.465582911168234
1708436027.6596227,-2.1603035926818848,-1.3366211515716095,-2.5166969935046595,6.147314178734579,0.9991457462310791,-5.465554181729452
1708436027.6616247,-2.160249948501587,-1.3365685057691117,-2.5166807810412806,6.147336709290304,0.9991457462310791,-5.465594951306478
1708436027.6636388,-2.1602745056152344,-1.3365769249251862,-2.516693894063131,6.147305357247152,0.9991831183433533,-5.465619091187612
1708436027.6656406,-2.160283088684082,-1.3365565699389954,-2.5166435877429407,6.147300946503439,0.9991457462310791,-5.465590719376699
1708436027.6676338,-2.1603121757507324,-1.3365685057691117,-2.516655508671896,6.147291886597433,0.9991695880889893,-5.46558648744692
1708436027.6696358,-2.160278797149658,-1.336555839782097,-2.5166896025287073,6.147300946503439,0.9991576671600342,-5.465611402188436
1708436027.671628,-2.1602702140808105,-1.3366127026132126,-2.5166481176959437,6.1472216723258875,0.9991457462310791,-5.465590182934896
1708436027.673641,-2.1602869033813477,-1.3365607869676133,-2.5166524092303675,6.147251474648275,0.999141275882721,-5.4656113425837916
1708436027.6756825,-2.1602702140808105,-1.3366211515716095,-2.5166154543506067,6.147251474648275,0.99912428855896,-5.465598646794454
1708436027.6776657,-2.160283088684082,-1.3365888607553025,-2.5166969935046595,6.147284495621481,0.9991740584373474,-5.465554241334097
1708436027.6796224,-2.1602869033813477,-1.3365804863027115,-2.516655508671896,6.147279965668478,0.9991695880889893,-5.465630892907278
1708436027.6816373,-2.1603035926818848,-1.3365693104318161,-2.5166686216937464,6.147289025574484,0.999160647392273,-5.46560633579363
1708436027.6836405,-2.160247325897217,-1.3366330128959198,-2.5166524092303675,6.147279965668478,0.9991576671600342,-5.465598646794454
1708436027.685627,-2.160327911376953,-1.3365642589381714,-2.5166850725757044,6.147296297341146,0.9991199374198914,-5.465573791657583
1708436027.6876733,-2.160287380218506,-1.3365401190570374,-2.5166435877429407,6.147284495621481,0.9991862773895264,-5.465598646794454
1708436027.6896536,-2.160278797149658,-1.3365769398263474,-2.5166598002063196,6.147238003998556,0.9991650581359863,-5.465577963982717
1708436027.6916466,-2.1603078842163086,-1.3365036112121125,-2.5166316668139856,6.147312390595236,0.9991981387138367,-5.465619091187612
1708436027.6936536,-2.1602954864501953,-1.3365854632905503,-2.516627375279562,6.147271144181051,0.9991413354873657,-5.465582195912496
1708436027.6956458,-2.1602954864501953,-1.3365973842195054,-2.5166969935046595,6.147300946503439,0.9991936683654785,-5.4656105677234095
1708436027.6976457,-2.1602745056152344,-1.3365523678115387,-2.5166762510882776,6.147284495621481,0.999207079410553,-5.465557638798849
1708436027.6996496,-2.1602587699890137,-1.3365359020284195,-2.5166316668139856,6.147246825485983,0.9991695880889893,-5.465582195912496
1708436027.701643,-2.1603121757507324,-1.3365317446044465,-2.5167015234576624,6.147246825485983,0.9991235136985779,-5.465647045766012
1708436027.7036705,-2.160243034362793,-1.3365846437266846,-2.516655508671896,6.147246825485983,0.9991981387138367,-5.465607170258657
1708436027.7056787,-2.1603078842163086,-1.3365888607553025,-2.516622845326559,6.147284495621481,0.9992026686668396,-5.465590242539541
1708436027.7076998,-2.160278797149658,-1.3365804266980668,-2.5166152159320276,6.147289025574484,0.9991907477378845,-5.465594414864675
1708436027.7096925,-2.160325050354004,-1.3366050285151978,-2.5166643301593226,6.147248375206747,0.9991532564163208,-5.46566349664797
1708436027.7117348,-2.160278797149658,-1.3365888756564637,-2.5166850725757044,6.1472723362739465,0.9991936683654785,-5.465557638798849
1708436027.7136722,-2.1602225303649902,-1.3365888607553025,-2.516671959553854,6.147263276367941,0.9992234706878662,-5.4656113425837916
1708436027.7156584,-2.16025447845459,-1.3365112853101273,-2.5166762510882776,6.147281157761373,0.9992026686668396,-5.465598646794454
1708436027.7176971,-2.160283088684082,-1.3365608018687745,-2.5166686216937464,6.147289025574484,0.9991487264633179,-5.465553466473715
1708436027.7196462,-2.160234212875366,-1.3365367513946076,-2.5166762510882776,6.147264826088705,0.9991817474365234,-5.465561870728628
1708436027.7216387,-2.16033673286438,-1.336552844648697,-2.5166404883014124,6.147296297341146,0.9991862773895264,-5.465602938328878
1708436027.7236521,-2.1602516174316406,-1.3365931075862427,-2.516622845326559,6.147226083069601,0.9991907477378845,-5.465607170258657
1708436027.7256818,-2.1602745056152344,-1.3365685057691117,-2.5166807810412806,6.1472439644630334,0.9991891980171204,-5.465626720582144
1708436027.7276552,-2.160242795944214,-1.3365443360856553,-2.5166643301593226,6.147272217064657,0.9991740584373474,-5.46560633579363
1708436027.7296758,-2.160283088684082,-1.3366085153869172,-2.5166850725757044,6.147305357247152,0.9991605877876282,-5.4655373136149805
1708436027.731666,-2.1602702140808105,-1.3366127026132126,-2.5166969935046595,6.147235023766317,0.9991503953933716,-5.465573791657583
1708436027.7336564,-2.1602559089660645,-1.3366288256696244,-2.5166524092303675,6.147246825485983,0.9991650581359863,-5.465623263512747
1708436027.735684,-2.1602911949157715,-1.336524025802948,-2.5166316668139856,6.147263276367941,0.9991936683654785,-5.465651337300436
1708436027.7376637,-2.160247325897217,-1.3365685057691117,-2.5166643301593226,6.147300827294149,0.9991862773895264,-5.465619091187612
1708436027.739645,-2.1603164672851562,-1.336608574991562,-2.5166524092303675,6.147284495621481,0.9991442561149597,-5.465619091187612
1708436027.741659,-2.160287380218506,-1.3365443509868165,-2.5166762510882776,6.147258865624227,0.9991153478622437,-5.465594414864675
1708436027.7436743,-2.1602745056152344,-1.3366169196418305,-2.5166893641101282,6.147251474648275,0.9992026686668396,-5.465635184441702
1708436027.745622,-2.1602911949157715,-1.3365727376988907,-2.5166762510882776,6.147272217064657,0.9991368651390076,-5.465598646794454
1708436027.7476475,-2.1602745056152344,-1.3365846437266846,-2.5166807810412806,6.147217023163595,0.9991784691810608,-5.46558648744692
1708436027.7496238,-2.1602702140808105,-1.3366339665702363,-2.5166807810412806,6.147202002793112,0.9991695880889893,-5.465566043053762
1708436027.7516477,-2.160250186920166,-1.3366338920644303,-2.5167058149920862,6.147235023766317,0.999153196811676,-5.465594414864675
1708436027.7536452,-2.1602659225463867,-1.3365443360856553,-2.5166807810412806,6.147267806320944,0.9992026686668396,-5.465598646794454
1708436027.7556226,-2.1602702140808105,-1.3366007965854187,-2.5166969935046595,6.147235023766317,0.9991981387138367,-5.4656113425837916
1708436027.7576125,-2.1602542400360107,-1.3365523678115387,-2.516655508671896,6.14723955371932,0.9991413354873657,-5.465626720582144
1708436027.7596102,-2.160247325897217,-1.3366007816842576,-2.516671959553854,6.147263276367941,0.9991457462310791,-5.465590242539541
1708436027.7616234,-2.1603121757507324,-1.3365684908679505,-2.51668364206423,6.147267806320944,0.9991442561149597,-5.465573791657583
1708436027.7636323,-2.1602745056152344,-1.3365359020284195,-2.516622845326559,6.147312390595236,0.9991817474365234,-5.465602938328878
1708436027.76564,-2.1602559089660645,-1.3366092306426545,-2.5166762510882776,6.147275554924764,0.999160647392273,-5.465549949799673
1708436027.7676518,-2.1602911949157715,-1.336557076578476,-2.516733233128683,6.1473169205482385,0.9991486668586731,-5.465577963982717
1708436027.7696314,-2.160299777984619,-1.336584673529007,-2.5166805426227015,6.147245394974508,0.9991981387138367,-5.4656105677234095
1708436027.7716284,-2.1602911949157715,-1.336581290965416,-2.5167091528521937,6.147293436318197,0.9991981387138367,-5.465578679238455
1708436027.7736294,-2.1602745056152344,-1.3366007965854187,-2.51670486131777,6.147251474648275,0.9991936683654785,-5.465651337300436
1708436027.7756205,-2.1602630615234375,-1.336572752600052,-2.5167058149920862,6.147272217064657,0.9991862773895264,-5.465570334588186
1708436027.7776332,-2.1602673530578613,-1.3365727078965683,-2.5166643301593226,6.147246944695272,0.9991650581359863,-5.465639416371481
1708436027.7796092,-2.160278797149658,-1.3365359616330643,-2.5166924635516565,6.147291886597433,0.9991862773895264,-5.465573851262228
1708436027.7816198,-2.160278797149658,-1.336540089254715,-2.5166643301593226,6.147267806320944,0.9992042183876038,-5.465554181729452
1708436027.7836459,-2.1602702140808105,-1.3365727227977295,-2.5166731516467493,6.147279965668478,0.9992115497589111,-5.4656551519977015
1708436027.7856028,-2.1602261066436768,-1.336597428922989,-2.51670486131777,6.147260296135702,0.9991442561149597,-5.465590182934896
1708436027.7876172,-2.1603035926818848,-1.336565078502037,-2.5167012850390833,6.147242414742269,0.9991740584373474,-5.465561870728628
1708436027.789616,-2.16025447845459,-1.33658121645961,-2.5166643301593226,6.147246825485983,0.9991442561149597,-5.465570334588186
1708436027.7916043,-2.1602673530578613,-1.3366296750358124,-2.5166481176959437,6.147307979851522,0.9991951584815979,-5.465602997933523
1708436027.793629,-2.160278797149658,-1.3365239363959809,-2.5166762510882776,6.147296297341146,0.9991650581359863,-5.465602938328878
1708436027.7956169,-2.1602516174316406,-1.3365923476270218,-2.5166807810412806,6.147300946503439,0.9991576671600342,-5.465598646794454
1708436027.797626,-2.160275936126709,-1.3365685206702729,-2.5165987650500696,6.147338139801779,0.999153196811676,-5.46558648744692
1708436027.7996209,-2.1602673530578613,-1.3365155917457123,-2.5166643301593226,6.147271144181051,0.9991981387138367,-5.465602938328878
1708436027.8016145,-2.1602702140808105,-1.33658883095298,-2.5166359583484095,6.147275554924764,0.9991695880889893,-5.465623263512747
1708436027.8036397,-2.1603035926818848,-1.336548627620079,-2.516610924397604,6.147300946503439,0.9991936683654785,-5.465549949799673
1708436027.805651,-2.1602745056152344,-1.3365930777839203,-2.516622845326559,6.147289025574484,0.9991817474365234,-5.4656105677234095
1708436027.8076367,-2.1602954864501953,-1.3365523976138611,-2.5166600386248987,6.147289025574484,0.9991739988327026,-5.4656352440463465
1708436027.8096344,-2.160283088684082,-1.3365727227977295,-2.516655508671896,6.147312390595236,0.9991650581359863,-5.465566043053762
1708436027.8116739,-2.160308361053467,-1.336568461065628,-2.5166643301593226,6.147305357247152,0.9992026686668396,-5.46558648744692
1708436027.8136547,-2.1602673530578613,-1.3365854185870667,-2.516663138066427,6.147258746414938,0.9991457462310791,-5.465534154568807
1708436027.8156238,-2.160304069519043,-1.3365769398263474,-2.5166359583484095,6.147329079895773,0.9991605877876282,-5.465598646794454
1708436027.8176167,-2.1602954864501953,-1.3365727227977295,-2.5166850725757044,6.147258746414938,0.9991997480392456,-5.465582911168234
1708436027.8196437,-2.1602673530578613,-1.336531625395157,-2.5166316668139856,6.147314297943868,0.999207079410553,-5.465566043053762
1708436027.821647,-2.1602702140808105,-1.336633102302887,-2.5166359583484095,6.147275554924764,0.9991740584373474,-5.465578798447744
1708436027.8236763,-2.1602587699890137,-1.3366007965854187,-2.5166686216937464,6.14724229553298,0.9991740584373474,-5.4655948917018335
1708436027.8256369,-2.160299777984619,-1.3365486425212403,-2.5166359583484095,6.147333609848776,0.999153196811676,-5.465558473263876
1708436027.8276508,-2.160320997238159,-1.3365812015584488,-2.5166762510882776,6.147300946503439,0.9991486668586731,-5.4656113425837916
1708436027.8296533,-2.160287380218506,-1.336572752600052,-2.5166612307177942,6.1473169205482385,0.9991650581359863,-5.465538446103231
1708436027.8316321,-2.160283088684082,-1.336569370036461,-2.5167046228991907,6.147271144181051,0.9991442561149597,-5.465549949799673
1708436027.8336816,-2.1603164672851562,-1.3365571361831208,-2.5166524092303675,6.147258865624227,0.9991649985313416,-5.465571049843923
1708436027.8356698,-2.1602630615234375,-1.3365359467319031,-2.516671959553854,6.147315728455343,0.9991576671600342,-5.465578738843099
1708436027.8376071,-2.160320997238159,-1.336515636449196,-2.5166435877429407,6.147345530777731,0.9991377592086792,-5.465615455304281
1708436027.8396144,-2.160283088684082,-1.336597428922989,-2.5166762510882776,6.147291886597433,0.9991457462310791,-5.465530339871542
1708436027.8416147,-2.160283088684082,-1.3366058778813859,-2.5166893641101282,6.147299039154806,0.9991621375083923,-5.46556264558901
1708436027.8436391,-2.1602745056152344,-1.3365565997413178,-2.516627375279562,6.147296297341146,0.9991739988327026,-5.465505842362539
1708436027.84562,-2.160304069519043,-1.3365727227977295,-2.5167012850390833,6.147303569107809,0.9991695880889893,-5.465582911168234
1708436027.8476377,-2.160271644592285,-1.3365931075862427,-2.5166762510882776,6.1472558853919885,0.9991695880889893,-5.465574566517965
1708436027.8496082,-2.160304069519043,-1.3365888905576249,-2.5166731516467493,6.147246825485983,0.9991621375083923,-5.465550963078634
1708436027.8516212,-2.160278081893921,-1.3365923476270218,-2.5166881720172327,6.147345530777731,0.9991784691810608,-5.465571049843923
1708436027.8536158,-2.1602094173431396,-1.3365400743535538,-2.5166850725757044,6.147289025574484,0.9991998076438904,-5.465534512196676
1708436027.8556926,-2.1603236198425293,-1.3365727227977295,-2.5166359583484095,6.147303569107809,0.9991951584815979,-5.465555254613058
1708436027.8576732,-2.1603035926818848,-1.3365523380092164,-2.5166969935046595,6.147315728455343,0.9991198182106018,-5.465534512196676
1708436027.8596334,-2.160243034362793,-1.3365401041558762,-2.5166643301593226,6.147284495621481,0.9991621375083923,-5.465465549622671
1708436027.8616583,-2.160287380218506,-1.3365727227977295,-2.5166524092303675,6.147353040962972,0.9991006851196289,-5.465506498013632
1708436027.8636148,-2.1602630615234375,-1.336601660852768,-2.5167012850390833,6.147312390595236,0.9991413354873657,-5.465555254613058
1708436027.865633,-2.1602630615234375,-1.3366016757539292,-2.5166643301593226,6.1472874758537195,0.9991621375083923,-5.46555990377535
1708436027.8676155,-2.1602954864501953,-1.3365727227977295,-2.5166567007647913,6.147327649384298,0.9991650581359863,-5.465523902569906
1708436027.8696163,-2.1602869033813477,-1.3366253686002274,-2.5166896025287073,6.147303569107809,0.9991286993026733,-5.465498630200521
1708436027.8716319,-2.160243511199951,-1.3365642142346879,-2.5167012850390833,6.147303569107809,0.999141275882721,-5.465503040944235
1708436027.8736472,-2.160291910171509,-1.3365651083043595,-2.5166731516467493,6.147251474648275,0.9991784691810608,-5.4655402342425745
1708436027.875637,-2.160271644592285,-1.3364916306785126,-2.5166481176959437,6.147300827294149,0.9991785287857056,-5.465523842965261
1708436027.8776076,-2.160299777984619,-1.3366297793439408,-2.5167012850390833,6.147303569107809,0.9991740584373474,-5.465486351643698
1708436027.8796146,-2.1602587699890137,-1.3365642589381714,-2.516627375279562,6.147312390595236,0.9991951584815979,-5.465516392384664
1708436027.8816097,-2.1603078842163086,-1.3365438741496583,-2.5166807810412806,6.147333609848776,0.9991457462310791,-5.4654462973224085
1708436027.8836296,-2.1602392196655273,-1.3365608018687745,-2.5166969935046595,6.147333609848776,0.99916672706604,-5.465432945881979
1708436027.8856099,-2.160283088684082,-1.3365727227977295,-2.5166359583484095,6.147294509201803,0.99912428855896,-5.4654462973224085
1708436027.8876076,-2.160287380218506,-1.3365846288255234,-2.5166481176959437,6.147307979851522,0.9991287589073181,-5.465455118809835
1708436027.889609,-2.160332441329956,-1.336605043416359,-2.5166600386248987,6.147291886597433,0.9991667866706848,-5.465499703084127
1708436027.891648,-2.160283088684082,-1.336597428922989,-2.5166731516467493,6.147262084275045,0.9991875290870667,-5.465483371411459
1708436027.8936331,-2.160238742828369,-1.3365812313607712,-2.5166524092303675,6.147299039154806,0.999137818813324,-5.465474549924032
1708436027.895623,-2.1602673530578613,-1.3365727376988907,-2.5166762510882776,6.147271144181051,0.999137818813324,-5.46546703973879
1708436027.8976169,-2.16032075881958,-1.3365523380092164,-2.5166893641101282,6.147327649384298,0.9991006255149841,-5.465430025254385
1708436027.8996184,-2.160275936126709,-1.3365486425212403,-2.5166481176959437,6.14731131771163,0.9991547465324402,-5.465484742318289
1708436027.9016118,-2.1602702140808105,-1.336601660852768,-2.5166316668139856,6.147324669152059,0.9991756081581116,-5.46544319788088
1708436027.9036095,-2.160238742828369,-1.3365409535220643,-2.5166924635516565,6.147336709290304,0.9991621375083923,-5.465409223233358
1708436027.9056053,-2.1603164672851562,-1.3365239363959809,-2.5167225042926233,6.147299039154806,0.9991123676300049,-5.465496603642599
1708436027.907627,-2.1602630615234375,-1.3366059076837082,-2.5166524092303675,6.147327649384298,0.9991095066070557,-5.4654017130481165
1708436027.909642,-2.1602745056152344,-1.3365812760642548,-2.5166481176959437,6.147315728455343,0.999154806137085,-5.465422455464498
1708436027.911659,-2.160282611846924,-1.3365608018687745,-2.516671959553854,6.147315728455343,0.9991169571876526,-5.46544319788088
1708436027.9136865,-2.1602673530578613,-1.3365281981280823,-2.5166762510882776,6.147315728455343,0.9991503953933716,-5.4654921928988855
1708436027.9156532,-2.160308599472046,-1.3365854930928727,-2.5166569391833704,6.147369372635641,0.9991422295570374,-5.465373162423269
1708436027.9176283,-2.160283088684082,-1.3365684908679505,-2.5166762510882776,6.147274005204,0.9990842938423157,-5.465447608624594
1708436027.9196205,-2.160287380218506,-1.3366006922772904,-2.5166643301593226,6.147278535157003,0.9991258978843689,-5.465444628392355
1708436027.9216547,-2.1603164672851562,-1.3366415661624451,-2.5166435877429407,6.14731131771163,0.9991050362586975,-5.465431276951925
1708436027.923614,-2.160320997238159,-1.3365608167699357,-2.5166643301593226,6.147312390595236,0.9991303086280823,-5.465448919926779
1708436027.9255974,-2.160283088684082,-1.3366252940944214,-2.5166762510882776,6.147312390595236,0.9990975856781006,-5.465390865002767
1708436027.9276516,-2.1602587699890137,-1.3365888756564637,-2.5166686216937464,6.147357451706686,0.9991303086280823,-5.465423826371328
1708436027.9296057,-2.160278797149658,-1.3366092604449769,-2.5166600386248987,6.147266614228048,0.9991258978843689,-5.465432647858755
1708436027.931631,-2.160247325897217,-1.3365769398263474,-2.516639296208517,6.147312390595236,0.9990808963775635,-5.465395275746481
1708436027.9336166,-2.1602673530578613,-1.3365486425212403,-2.5166850725757044,6.147303569107809,0.9991259574890137,-5.465395275746481
1708436027.9356184,-2.1603164672851562,-1.3365727227977295,-2.516639296208517,6.147300946503439,0.999113917350769,-5.465390865002767
1708436027.9376607,-2.160242795944214,-1.3366127026132126,-2.5166600386248987,6.147320258408346,0.9991214275360107,-5.465444628392355
1708436027.9396088,-2.1602349281311035,-1.3365366917899628,-2.516671959553854,6.1472829459007166,0.9990854263305664,-5.465390865002767
1708436027.941605,-2.1602587699890137,-1.336520568733551,-2.516610924397604,6.147302377014913,0.9990975856781006,-5.465401057397024
1708436027.9436073,-2.1602587699890137,-1.3365812611630936,-2.5166686216937464,6.147360431938925,0.9990931749343872,-5.465358142052786
1708436027.9456198,-2.1602916717529297,-1.3365888756564637,-2.5166688601123255,6.1473485110099695,0.9990930557250977,-5.465392235909597
1708436027.9476144,-2.160271644592285,-1.3365684908679505,-2.5166850725757044,6.1472829459007166,0.9991065859794617,-5.4653582016574305
1708436027.949614,-2.160278797149658,-1.3365565699389954,-2.5166240374194544,6.147373783379354,0.9990482330322266,-5.465387765561239
1708436027.9516177,-2.1602025032043457,-1.3366049987128754,-2.5166447798358362,6.1472829459007166,0.9990931153297424,-5.465375844632284
1708436027.953628,-2.1602392196655273,-1.336531625395157,-2.5166404883014124,6.147320258408346,0.9990808367729187,-5.465338770543234
1708436027.955632,-2.1602587699890137,-1.3365846586278458,-2.5166850725757044,6.1472829459007166,0.9990808963775635,-5.465392176304952
1708436027.9576132,-2.160243034362793,-1.336613581781723,-2.5166404883014124,6.147336590081014,0.9990975856781006,-5.465371433888571
1708436027.9596457,-2.160226345062256,-1.3366178137115021,-2.5166404883014124,6.147377240448751,0.9990779161453247,-5.465355102215902
1708436027.9616137,-2.1602911949157715,-1.3365197640708466,-2.5166316668139856,6.147361862450399,0.9990527033805847,-5.465355102215902
1708436027.9636402,-2.1602954864501953,-1.3365727227977295,-2.5166404883014124,6.14731131771163,0.9991021156311035,-5.465392176304952
1708436027.9656074,-2.1602954864501953,-1.3365973842195054,-2.5166481176959437,6.147306787758627,0.9990886449813843,-5.465375844632284
1708436027.9676363,-2.1602516174316406,-1.3365486574224015,-2.5166524092303675,6.147353040962972,0.9991065859794617,-5.4653061668025416
1708436027.9696116,-2.1603121757507324,-1.3365443360856553,-2.5166731516467493,6.147360431938925,0.9990615844726562,-5.465343181286947
1708436027.9716215,-2.16025447845459,-1.336637334232666,-2.5166567007647913,6.1473439810569666,0.9990735054016113,-5.46531051794161
1708436027.9736524,-2.1602602005004883,-1.3365443062833329,-2.5166316668139856,6.147240984230795,0.9991065859794617,-5.465363923703329
1708436027.9756358,-2.1602587699890137,-1.3365855079940339,-2.5166893641101282,6.147373783379354,0.9990943670272827,-5.465346280728475
1708436027.9776342,-2.1602349281311035,-1.336535857324936,-2.5166643301593226,6.1473485110099695,0.9990735054016113,-5.465368334447042
1708436027.9796073,-2.1602349281311035,-1.3365974438241501,-2.5166271368609827,6.147285687714376,0.9990899562835693,-5.465384666119711
1708436027.981615,-2.16025447845459,-1.336569295530655,-2.5166404883014124,6.147320258408346,0.9990496635437012,-5.46532375017275
1708436027.9836438,-2.1602673530578613,-1.336535857324936,-2.5166481176959437,6.147307979851522,0.9990735650062561,-5.465343181286947
1708436027.985605,-2.1602602005004883,-1.3365769547275086,-2.5166404883014124,6.147318708687582,0.9990329146385193,-5.465356413518087
1708436027.9876592,-2.1602630615234375,-1.3365523380092164,-2.5166924635516565,6.14729784706191,0.9990586042404175,-5.465371433888571
1708436027.9896116,-2.160238742828369,-1.3366296750358124,-2.516639296208517,6.147373783379354,0.9990241527557373,-5.465319339429037
1708436027.9916286,-2.160287380218506,-1.3365888756564637,-2.5166435877429407,6.147364842682638,0.9990615844726562,-5.46531051794161
1708436027.993647,-2.1602306365966797,-1.3365274977735062,-2.5166524092303675,6.147377121239462,0.9990285038948059,-5.465302709733145
1708436027.9956026,-2.160247802734375,-1.3365761947682877,-2.5166359583484095,6.147330510407247,0.9990329146385193,-5.4653475920306605
1708436027.9976501,-2.1603078842163086,-1.3365443360856553,-2.5166447798358362,6.147318708687582,0.9990823864936829,-5.465281967316763
1708436027.9995992,-2.160271644592285,-1.33658883095298,-2.5166359583484095,6.147369372635641,0.999045193195343,-5.465331260357992
1708436028.0016384,-2.1602673530578613,-1.3364950877479096,-2.5166524092303675,6.14739345291213,0.9990285038948059,-5.465356413518087
1708436028.0036292,-2.160247802734375,-1.336523951297142,-2.5166524092303675,6.147341000824728,0.9990329146385193,-5.465343181286947
1708436028.005597,-2.160304307937622,-1.3365769547275086,-2.5166600386248987,6.147327649384298,0.9990285038948059,-5.465302709733145
1708436028.007616,-2.1602349281311035,-1.3366007965854187,-2.5166567007647913,6.14729009845809,0.9990542531013489,-5.4653149286853235
1708436028.0096118,-2.1602954864501953,-1.336609200840332,-2.5166271368609827,6.14731131771163,0.9990899562835693,-5.4653026501285
1708436028.0116532,-2.160271644592285,-1.3365523529103776,-2.5166731516467493,6.1473485110099695,0.9990705847740173,-5.465384666119711
1708436028.013702,-2.160271644592285,-1.3365854930928727,-2.5166524092303675,6.147342431336202,0.9990824460983276,-5.465335671101705
1708436028.0156312,-2.1602392196655273,-1.336568461065628,-2.5166154543506067,6.147285687714376,0.9990571141242981,-5.465307120476858
1708436028.0176382,-2.1602306365966797,-1.3366210919669648,-2.5166731516467493,6.147360431938925,0.9990869760513306,-5.465335671101705
1708436028.0196278,-2.160238742828369,-1.3365163815072556,-2.516649309788839,6.147330510407247,0.9990631341934204,-5.465293888245718
1708436028.0216177,-2.160283088684082,-1.3365930777839203,-2.5166731516467493,6.147323238640585,0.9990496635437012,-5.465352002774374
1708436028.0236611,-2.1602911949157715,-1.3365324300578614,-2.516681973134176,6.147326099663534,0.9990721940994263,-5.465286378060476
1708436028.0256581,-2.160283088684082,-1.336540163760521,-2.5166447798358362,6.1473439810569666,0.9990463256835938,-5.4653282205211084
1708436028.027646,-2.160332202911377,-1.3365812462619324,-2.5166731516467493,6.14739345291213,0.9990329742431641,-5.465335671101705
1708436028.0296378,-2.1602587699890137,-1.336584673529007,-2.5166524092303675,6.1473439810569666,0.9990284442901611,-5.465311590825216
1708436028.0316982,-2.1603078842163086,-1.336609275346138,-2.516649309788839,6.147360431938925,0.9990255832672119,-5.465372745190756
1708436028.0340848,-2.1602673530578613,-1.336544321184494,-2.5166154543506067,6.147371160774984,0.9990329742431641,-5.465307120476858
1708436028.0357716,-2.1602630615234375,-1.3365880411914368,-2.5166731516467493,6.147394883423605,0.9990419745445251,-5.465307060872213
1708436028.0376272,-2.1603078842163086,-1.3365931075862427,-2.5166688601123255,6.147425043373861,0.999058723449707,-5.465360883866445
1708436028.039625,-2.1602869033813477,-1.3365401190570374,-2.5166762510882776,6.147408354073324,0.9990496635437012,-5.465328280125753
1708436028.0416355,-2.1602702140808105,-1.3365727376988907,-2.516655508671896,6.147390472679891,0.9990329742431641,-5.465311590825216
1708436028.0436258,-2.160278797149658,-1.3365888756564637,-2.5166330973254603,6.147390353470602,0.9990300536155701,-5.465311590825216
1708436028.0455923,-2.1602587699890137,-1.3365974438241501,-2.5166807810412806,6.14746521690444,0.9990255832672119,-5.465311590825216
1708436028.0476313,-2.1602516174316406,-1.336535857324936,-2.5166686216937464,6.147447335511007,0.9990465044975281,-5.465281907712118
1708436028.0496228,-2.1602306365966797,-1.336564229135849,-2.5166316668139856,6.147429334908285,0.9990002512931824,-5.4652907888041895
1708436028.0516088,-2.160226345062256,-1.3365239363959809,-2.5166154543506067,6.147487747460165,0.9990136623382568,-5.465299669896261
1708436028.0536315,-2.160320997238159,-1.336581290965416,-2.5166404883014124,6.14747582653121,0.9990463852882385,-5.465286378060476
1708436028.055642,-2.160299777984619,-1.3365769547275086,-2.5166612307177942,6.14752088764266,0.9990047216415405,-5.465308550988333
1708436028.057652,-2.160299777984619,-1.3365727227977295,-2.5166569391833704,6.147508966713705,0.9989925026893616,-5.465283338223593
1708436028.0596588,-2.1602954864501953,-1.3365324896625062,-2.516698185597555,6.147450554161825,0.9989683628082275,-5.465304080639974
1708436028.0616047,-2.1602916717529297,-1.3365486425212403,-2.5166242758380335,6.147467005043783,0.9990227818489075,-5.465308610592977
1708436028.0636442,-2.160247325897217,-1.336535857324936,-2.5166731516467493,6.1475045559699915,0.9990256428718567,-5.465278927479879
1708436028.065644,-2.1602745056152344,-1.336568461065628,-2.5166598002063196,6.147429334908285,0.9989969730377197,-5.465353314076559
1708436028.0675962,-2.1602587699890137,-1.3365812611630936,-2.516693894063131,6.147457945137777,0.9990463852882385,-5.465275589619772
1708436028.0696082,-2.1602225303649902,-1.336613492374756,-2.5166271368609827,6.147480356484213,0.9990181922912598,-5.465307120476858
1708436028.0717027,-2.1602954864501953,-1.3365206283381958,-2.516681973134176,6.147508966713705,0.9989549517631531,-5.465278927479879
1708436028.0736248,-2.1603035926818848,-1.3366297346404572,-2.5166075865374964,6.147491085320272,0.9989683628082275,-5.465311590825216
1708436028.0756183,-2.160283088684082,-1.3365769547275086,-2.5166197458850306,6.147483336716451,0.999034583568573,-5.465312842522756
1708436028.077612,-2.160247325897217,-1.3365523231080552,-2.516677443181173,6.147511827736654,0.9990181922912598,-5.465283338223593
1708436028.079609,-2.160278797149658,-1.3366177094033738,-2.5166154543506067,6.147487747460165,0.9990419745445251,-5.465316061173574
1708436028.0816336,-2.1602673530578613,-1.3365930628827591,-2.5166569391833704,6.1475000260169885,0.9990136623382568,-5.4653160015689295
1708436028.0836565,-2.160247325897217,-1.3365486574224015,-2.5166242758380335,6.1474623558814905,0.999034583568573,-5.465311590825216
1708436028.085658,-2.16025447845459,-1.3365769547275086,-2.5166612307177942,6.1475045559699915,0.9989713430404663,-5.465299669896261
1708436028.087645,-2.160282611846924,-1.3365685057691117,-2.5166643301593226,6.147525298386373,0.9990345239639282,-5.465312902127401
1708436028.0896235,-2.1603121757507324,-1.3366219860366364,-2.5166271368609827,6.147517907410421,0.9990211129188538,-5.465299669896261
1708436028.091651,-2.16025447845459,-1.3365197789720078,-2.5166075865374964,6.147450554161825,0.9990211129188538,-5.465311590825216
1708436028.093607,-2.1602516174316406,-1.3365642142346879,-2.5166404883014124,6.147474276810446,0.9990136027336121,-5.465283338223593
1708436028.0956151,-2.160283088684082,-1.3365769547275086,-2.516677443181173,6.147508966713705,0.9989925026893616,-5.465308550988333
1708436028.0976279,-2.160283088684082,-1.336540089254715,-2.5166316668139856,6.147471415787496,0.999034583568573,-5.46534896293749
1708436028.0996714,-2.1602587699890137,-1.3365565699389954,-2.516649309788839,6.14752088764266,0.9990136623382568,-5.4652907888041895
1708436028.1016102,-2.1602916717529297,-1.3365273934653779,-2.516677443181173,6.147429334908285,0.9990136623382568,-5.465304080639974
1708436028.103614,-2.160247325897217,-1.336560071711876,-2.5166688601123255,6.147480475693502,0.9990136623382568,-5.465311590825216
1708436028.1055932,-2.160222291946411,-1.3365642440370102,-2.51661187807192,6.147484886437216,0.9990375638008118,-5.465341571961538
1708436028.107647,-2.160243034362793,-1.336523951297142,-2.5166316668139856,6.1475000260169885,0.9990211129188538,-5.465299669896261
1708436028.109702,-2.1602954864501953,-1.3365846437266846,-2.516677443181173,6.147487747460165,0.9990419745445251,-5.4653160015689295
1708436028.1116266,-2.1602911949157715,-1.3365273785642167,-2.516693894063131,6.147474276810446,0.9990060329437256,-5.465278927479879
1708436028.1136954,-2.1602306365966797,-1.3365685057691117,-2.5166762510882776,6.147450554161825,0.9990136623382568,-5.465278927479879
1708436028.1157634,-2.1603281497955322,-1.3365651083043595,-2.516616408024923,6.1474788067634485,0.9990014433860779,-5.465287748967306
1708436028.117682,-2.160278797149658,-1.3365888756564637,-2.5166567007647913,6.147491085320272,0.9990227818489075,-5.465332631264822
1708436028.1196618,-2.1602869033813477,-1.3365846288255234,-2.5166242758380335,6.147471415787496,0.9989969730377197,-5.4653160015689295
1708436028.1216323,-2.160271644592285,-1.3365396422198792,-2.5166404883014124,6.147511827736654,0.9990391731262207,-5.4652907888041895
1708436028.1236334,-2.160278797149658,-1.3365315806916733,-2.5166524092303675,6.1475045559699915,0.9990300536155701,-5.465349022542135
1708436028.1256294,-2.160247325897217,-1.3366016757539292,-2.5166316668139856,6.147487747460165,0.9989969730377197,-5.465311590825216
1708436028.1276383,-2.160304069519043,-1.3365812760642548,-2.5166404883014124,6.147508966713705,0.9990136623382568,-5.465311590825216
1708436028.1296449,-2.1602954864501953,-1.3365888607553025,-2.516681973134176,6.147455084114828,0.9990419149398804,-5.465278927479879
1708436028.1316402,-2.1602911949157715,-1.3365930628827591,-2.5166524092303675,6.147496807366171,0.9990255832672119,-5.465274457131521
1708436028.1336849,-2.1602702140808105,-1.3365846437266846,-2.516632858906881,6.147433864861288,0.9990300536155701,-5.465299669896261
1708436028.135662,-2.1602559089660645,-1.3365239810994645,-2.5166197458850306,6.147467005043783,0.9990391135215759,-5.4652284423457544
1708436028.1376252,-2.1602659225463867,-1.3365974736264725,-2.516639296208517,6.1474788067634485,0.9990419149398804,-5.465299669896261
1708436028.1396537,-2.16025447845459,-1.3365888756564637,-2.5166075865374964,6.147450554161825,0.9990047812461853,-5.465286378060476
1708436028.1416266,-2.1602954864501953,-1.3366177541068573,-2.5166242758380335,6.147446024208822,0.9990509152412415,-5.4653160015689295
1708436028.143637,-2.160299777984619,-1.336548627620079,-2.516665522252218,6.147513496666708,0.9990181922912598,-5.465332631264822
1708436028.145658,-2.1602559089660645,-1.3365607571652909,-2.5166686216937464,6.147459494858541,0.9990060329437256,-5.465311590825216
1708436028.147629,-2.160271644592285,-1.3366297793439408,-2.5166242758380335,6.147474276810446,0.9990136623382568,-5.465307120476858
1708436028.1496289,-2.1602869033813477,-1.3366297346404572,-2.5166569391833704,6.147455084114828,0.9990464448928833,-5.465262238179342
1708436028.151661,-2.1603164672851562,-1.3365888607553025,-2.5166612307177942,6.147487747460165,0.9990419745445251,-5.46534896293749
1708436028.1536312,-2.16032075881958,-1.3365846437266846,-2.5166285673724573,6.147442805558004,0.9990542531013489,-5.46532375017275
1708436028.155681,-2.1602745056152344,-1.3365439635566254,-2.516649309788839,6.147455084114828,0.9990181922912598,-5.465352002774374
1708436028.1576357,-2.160278797149658,-1.3365273934653779,-2.5166242758380335,6.1474294541175745,0.9990255832672119,-5.46534896293749
1708436028.1596286,-2.1602587699890137,-1.3365607869676133,-2.5166569391833704,6.1474506733711145,0.9990166425704956,-5.465340081845419
1708436028.1616669,-2.1602673530578613,-1.3365965646556397,-2.5166404883014124,6.147457945137777,0.9990631341934204,-5.465307120476858
1708436028.163639,-2.160304069519043,-1.3365608018687745,-2.5166242758380335,6.147431003838339,0.9990091919898987,-5.4653149286853235
1708436028.165653,-2.1602959632873535,-1.3365359467319031,-2.5166404883014124,6.147517907410421,0.999037504196167,-5.4653282205211084
1708436028.1676226,-2.160283088684082,-1.336601586346962,-2.5166612307177942,6.147513496666708,0.9990419745445251,-5.465372745190756
1708436028.169638,-2.160247325897217,-1.336519719367363,-2.5166612307177942,6.1474084732826135,0.9990463852882385,-5.465335671101705
1708436028.1716337,-2.160287380218506,-1.3365651679090043,-2.5166404883014124,6.147426473885336,0.9990542531013489,-5.465340081845419
1708436028.1736157,-2.160242795944214,-1.33652816832576,-2.5166242758380335,6.147467005043783,0.9990300536155701,-5.4653149286853235
1708436028.175629,-2.160205125808716,-1.336621181373932,-2.5166404883014124,6.147471415787496,0.9990136623382568,-5.465307120476858
1708436028.1776717,-2.160283088684082,-1.3365164262107392,-2.5166404883014124,6.147431003838339,0.9990586638450623,-5.465344552193777
1708436028.1796243,-2.160247325897217,-1.3365930777839203,-2.5166242758380335,6.147487747460165,0.9990211129188538,-5.4653475920306605
1708436028.1816404,-2.160304069519043,-1.3365888756564637,-2.5166567007647913,6.147438275605001,0.999037504196167,-5.465332631264822
1708436028.1836367,-2.1602745056152344,-1.3365651083043595,-2.5166686216937464,6.147483336716451,0.9990329742431641,-5.465368334447042
1708436028.185615,-2.160287380218506,-1.3365855079940339,-2.5166330973254603,6.147513377457418,0.9990660548210144,-5.465340081845419
1708436028.1876276,-2.16025447845459,-1.3365693551352997,-2.5166242758380335,6.147480475693502,0.9990165829658508,-5.465314869080679
1708436028.1896284,-2.1602542400360107,-1.3365443360856553,-2.516665760670797,6.147455084114828,0.9990496635437012,-5.465400997792379
1708436028.191626,-2.160250186920166,-1.3365855526975174,-2.5166643301593226,6.147455084114828,0.999058723449707,-5.465375844632284
1708436028.1936128,-2.1602587699890137,-1.3365693253329773,-2.5166850725757044,6.147453534394064,0.9990419745445251,-5.465389076863424
1708436028.1956167,-2.160299777984619,-1.3365486574224015,-2.5166569391833704,6.1474788067634485,0.9990496635437012,-5.465307060872213
1708436028.1976647,-2.160327911376953,-1.3365727376988907,-2.5166686216937464,6.147464024811544,0.9990586638450623,-5.465280596409933
1708436028.1996272,-2.160304069519043,-1.3366212111762543,-2.516665522252218,6.14747582653121,0.9990211129188538,-5.465338770543234
1708436028.2016144,-2.1602702140808105,-1.3365930777839203,-2.5166612307177942,6.147483336716451,0.9990047812461853,-5.465322438870565
1708436028.2036657,-2.160283088684082,-1.3365812760642548,-2.5166154543506067,6.1475000260169885,0.9990419745445251,-5.465368334447042
1708436028.205617,-2.160299777984619,-1.336548627620079,-2.5166404883014124,6.147442805558004,0.9990211129188538,-5.465400997792379
1708436028.2076287,-2.160282611846924,-1.3366015714458008,-2.5166850725757044,6.14747582653121,0.9990211129188538,-5.465344492589132
1708436028.2096589,-2.160278797149658,-1.336601586346962,-2.5165987650500696,6.147492277413168,0.9990419745445251,-5.4653595129596155
1708436028.2116535,-2.160247325897217,-1.336552308206894,-2.516681973134176,6.1475045559699915,0.9990121722221375,-5.465331200753347
1708436028.2137094,-2.1603035926818848,-1.3365078431418915,-2.5166316668139856,6.147475945740499,0.9990541934967041,-5.465352002774374
1708436028.215662,-2.160278797149658,-1.336621181373932,-2.5166447798358362,6.147433864861288,0.9990706443786621,-5.465338770543234
1708436028.217658,-2.160320997238159,-1.3365401339581986,-2.5166404883014124,6.147455084114828,0.9990211129188538,-5.465326849614279
1708436028.2196743,-2.16023850440979,-1.3365651679090043,-2.516665522252218,6.147492277413168,0.9990300536155701,-5.465343181286947
1708436028.2216363,-2.1603078842163086,-1.3365761798671265,-2.5166567007647913,6.147442805558004,0.9990541934967041,-5.46531051794161
1708436028.2236462,-2.1602559089660645,-1.3365565848401566,-2.516681973134176,6.147438275605001,0.9990541934967041,-5.465343121682302
1708436028.2256474,-2.1602869033813477,-1.3365608018687745,-2.5166285673724573,6.147464024811544,0.9990496635437012,-5.465392176304952
1708436028.2276416,-2.1602869033813477,-1.3365486425212403,-2.5166612307177942,6.1474623558814905,0.9990586042404175,-5.465380255375997
1708436028.229653,-2.1602954864501953,-1.3365888607553025,-2.516681973134176,6.147487747460165,0.9990285038948059,-5.4653475920306605
1708436028.2316384,-2.1602745056152344,-1.3365359020284195,-2.5166197458850306,6.147471415787496,0.9990705847740173,-5.465355102215902
1708436028.233656,-2.160278797149658,-1.3365565699389954,-2.5166285673724573,6.1474517462547205,0.9990329742431641,-5.465412918721334
1708436028.2356627,-2.160299777984619,-1.3366092455438157,-2.5166242758380335,6.147446024208822,0.9990240931510925,-5.465343181286947
1708436028.237634,-2.1603078842163086,-1.3365367364934464,-2.5166285673724573,6.147447335511007,0.9990496635437012,-5.465338770543234
1708436028.2396874,-2.1602630615234375,-1.3365930777839203,-2.5166316668139856,6.147447335511007,0.9990329742431641,-5.465367023144857
1708436028.2416203,-2.1602587699890137,-1.3365401190570374,-2.5166524092303675,6.147487747460165,0.9990285038948059,-5.4653595129596155
1708436028.2436483,-2.160222053527832,-1.3365685057691117,-2.5166731516467493,6.147433864861288,0.9990615844726562,-5.465445880089895
1708436028.2456362,-2.1602745056152344,-1.3365812462619324,-2.5166643301593226,6.147405731468954,0.9990329742431641,-5.465371433888571
1708436028.2476387,-2.160283088684082,-1.3366007965854187,-2.5166404883014124,6.147450554161825,0.9990329742431641,-5.465375844632284
1708436028.249663,-2.1602673530578613,-1.3365358722260972,-2.5166850725757044,6.147418963700094,0.9990660548210144,-5.465420428906576
1708436028.2516077,-2.160261631011963,-1.3365812462619324,-2.5166447798358362,6.147464024811544,0.9990496635437012,-5.465368334447042
1708436028.2536316,-2.1602587699890137,-1.3365359020284195,-2.5166359583484095,6.147483336716451,0.9990542531013489,-5.465392176304952
1708436028.255607,-2.1602745056152344,-1.3366049987128754,-2.5166404883014124,6.147447335511007,0.9990496635437012,-5.4653595129596155
1708436028.2576444,-2.1602869033813477,-1.3365854632905503,-2.5166447798358362,6.147516357689657,0.9990795850753784,-5.465375844632284
1708436028.2596402,-2.1603035926818848,-1.3365197640708466,-2.5166404883014124,6.147429334908285,0.9990779757499695,-5.465367023144857
1708436028.2616193,-2.1602630615234375,-1.3365965348533173,-2.5166361967669886,6.147459494858541,0.9990211129188538,-5.465445880089895
1708436028.2636278,-2.1602630615234375,-1.3366127473166962,-2.5166731516467493,6.147438275605001,0.9990496635437012,-5.465387765561239
1708436028.265635,-2.1603078842163086,-1.3365401339581986,-2.5166361967669886,6.147435414582052,0.9990706443786621,-5.465408507977621
1708436028.267623,-2.1603236198425293,-1.3365608018687745,-2.5166612307177942,6.147442805558004,0.9990660548210144,-5.465392176304952
1708436028.2696424,-2.1603121757507324,-1.3365888607553025,-2.5166242758380335,6.1475045559699915,0.9990706443786621,-5.465395275746481
1708436028.2716348,-2.160299777984619,-1.3365769547275086,-2.5166567007647913,6.147459494858541,0.9990496635437012,-5.465371433888571
1708436028.273635,-2.1603035926818848,-1.3365812611630936,-2.5166359583484095,6.147433864861288,0.9989868402481079,-5.465399686490194
1708436028.2756417,-2.1603164672851562,-1.3365486425212403,-2.5166404883014124,6.147480475693502,0.999045193195343,-5.465395275746481
1708436028.277671,-2.1602911949157715,-1.3365608018687745,-2.5166643301593226,6.147455084114828,0.9990329742431641,-5.465362612401144
1708436028.2796583,-2.1603167057037354,-1.3365685057691117,-2.5166447798358362,6.147480475693502,0.9990496635437012,-5.465371433888571
1708436028.2816236,-2.1602516174316406,-1.3365769249251862,-2.516681973134176,6.147487747460165,0.9990329742431641,-5.465417329465048
1708436028.2836368,-2.1602954864501953,-1.336584673529007,-2.516677443181173,6.147446024208822,0.9990615844726562,-5.465399686490194
1708436028.285631,-2.1602745056152344,-1.3365930777839203,-2.5166404883014124,6.147454964905538,0.9990541934967041,-5.465355102215902
1708436028.2876337,-2.1602306365966797,-1.3365812462619324,-2.5166197458850306,6.147467005043783,0.9990329742431641,-5.465412978325979
1708436028.2896273,-2.160304307937622,-1.3365727376988907,-2.5166524092303675,6.147438275605001,0.9990496635437012,-5.465396587048666
1708436028.29162,-2.1602745056152344,-1.3365888607553025,-2.516649309788839,6.147455084114828,0.999045193195343,-5.4653582016574305
1708436028.293653,-2.1602306365966797,-1.3365650934031983,-2.5166197458850306,6.147442805558004,0.999037504196167,-5.465375844632284
1708436028.2956467,-2.160250186920166,-1.3365769547275086,-2.5166598002063196,6.147464024811544,0.999016523361206,-5.465408507977621
1708436028.2976575,-2.16032075881958,-1.3366135221770783,-2.5166316668139856,6.147513615875997,0.9990419745445251,-5.465412918721334
1708436028.2996285,-2.160332441329956,-1.3365608018687745,-2.5166567007647913,6.147421943932333,0.9990824460983276,-5.465371433888571
1708436028.3016665,-2.160278797149658,-1.336572752600052,-2.516677443181173,6.1475045559699915,0.9990419745445251,-5.465375844632284
1708436028.3036392,-2.160278797149658,-1.3365359020284195,-2.5166569391833704,6.147464024811544,0.9990542531013489,-5.465346280728475
1708436028.305627,-2.1602869033813477,-1.3365523380092164,-2.5165987650500696,6.147468554764547,0.999045193195343,-5.465362612401144
1708436028.3076687,-2.1602916717529297,-1.3365565848401566,-2.516698185597555,6.147468554764547,0.9990362524986267,-5.465396587048666
1708436028.3096817,-2.1602745056152344,-1.3365443360856553,-2.5166197458850306,6.1474517462547205,0.9990824460983276,-5.465370062981741
1708436028.3116684,-2.160282611846924,-1.3365769547275086,-2.5166447798358362,6.147459494858541,0.9990615844726562,-5.465395275746481
1708436028.313668,-2.1602673530578613,-1.3365930777839203,-2.5166612307177942,6.147501218109884,0.9990407228469849,-5.465378944073812
1708436028.3156679,-2.1603078842163086,-1.3365316849998017,-2.5166688601123255,6.147426354676046,0.999045193195343,-5.465408507977621
1708436028.3176253,-2.1603035926818848,-1.3365565848401566,-2.5166643301593226,6.147468554764547,0.9990615844726562,-5.465411607419149
1708436028.3196428,-2.160249948501587,-1.3365685057691117,-2.5166435877429407,6.147435414582052,0.9990496635437012,-5.465408507977621
1708436028.3216267,-2.160304069519043,-1.3365443509868165,-2.516610924397604,6.147450554161825,0.9990824460983276,-5.465375844632284
1708436028.3236816,-2.1602745056152344,-1.3365846437266846,-2.5166569391833704,6.147414552956381,0.9990496635437012,-5.465355042611257
1708436028.3256369,-2.16025447845459,-1.336589739923813,-2.5166524092303675,6.147464024811544,0.9990750551223755,-5.465346280728475
1708436028.327637,-2.1602745056152344,-1.336645932202675,-2.5166612307177942,6.147480475693502,0.9990615844726562,-5.465392116700308
1708436028.3296125,-2.160247325897217,-1.3365608018687745,-2.5166242758380335,6.147426354676046,0.9990407228469849,-5.465371374283926
1708436028.3316278,-2.160226821899414,-1.3366049987128754,-2.5166197458850306,6.147447335511007,0.9990750551223755,-5.465404037629263
1708436028.3336773,-2.1603164672851562,-1.3365565997413178,-2.5165987650500696,6.147447335511007,0.9990735054016113,-5.465358261262075
1708436028.3356814,-2.1602911949157715,-1.3365608018687745,-2.516620699559347,6.1474517462547205,0.9990496635437012,-5.465346221123831
1708436028.3376176,-2.1602630615234375,-1.3365481358817597,-2.5166242758380335,6.147442805558004,0.9990660548210144,-5.465346280728475
1708436028.3396533,-2.160304069519043,-1.3365685057691117,-2.5166569391833704,6.147459494858541,0.9990660548210144,-5.465408448372976
1708436028.3416126,-2.1602745056152344,-1.3365854632905503,-2.5166359583484095,6.147456276207723,0.999045193195343,-5.465330008660452
1708436028.343622,-2.1602911949157715,-1.3366049987128754,-2.5166121164904993,6.147442805558004,0.999045193195343,-5.465387765561239
1708436028.3456059,-2.160283088684082,-1.3366049987128754,-2.516665522252218,6.147401082306661,0.9990660548210144,-5.46541935602297
1708436028.347666,-2.160320997238159,-1.3365325045636673,-2.5166447798358362,6.147496807366171,0.9990496635437012,-5.465395275746481
1708436028.3496196,-2.1602673530578613,-1.3366092306426545,-2.5166030565844935,6.147423493653097,0.9990301132202148,-5.465355102215902
1708436028.3516436,-2.160247325897217,-1.3365608167699357,-2.5166316668139856,6.147410023003378,0.9990824460983276,-5.465392176304952
1708436028.35367,-2.1603167057037354,-1.336540938620903,-2.5166359583484095,6.147439825325765,0.9990735054016113,-5.465367023144857
1708436028.3556285,-2.160238742828369,-1.336548627620079,-2.5166569391833704,6.147414552956381,0.9990285038948059,-5.4654040972339075
1708436028.3576596,-2.1602745056152344,-1.3365651232055207,-2.5166850725757044,6.147442805558004,0.9990690350532532,-5.465399686490194
1708436028.3596687,-2.16025447845459,-1.3365281981280823,-2.5166316668139856,6.147464024811544,0.9990571141242981,-5.4654040972339075
1708436028.3616428,-2.1602954864501953,-1.3365155321410676,-2.5166686216937464,6.147414552956381,0.9990779757499695,-5.465392176304952
1708436028.3636048,-2.1602673530578613,-1.3365846139243622,-2.5166893641101282,6.1474517462547205,0.9990660548210144,-5.465338770543234
1708436028.3656118,-2.1602587699890137,-1.3365316849998017,-2.5166242758380335,6.147401082306661,0.9990615248680115,-5.465383354817526
1708436028.367627,-2.1602516174316406,-1.3365528595498581,-2.5166731516467493,6.147464024811544,0.9990706443786621,-5.465392176304952
1708436028.3696153,-2.1602745056152344,-1.3365769398263474,-2.5166612307177942,6.147444355278768,0.9990660548210144,-5.465411607419149
1708436028.3716526,-2.1602392196655273,-1.3365727227977295,-2.5166447798358362,6.147484886437216,0.9990870356559753,-5.4654040972339075
1708436028.3736215,-2.1602673530578613,-1.3365281981280823,-2.516653601323263,6.147448885231771,0.9990407228469849,-5.465346280728475
1708436028.375626,-2.1603035926818848,-1.3365443360856553,-2.5166404883014124,6.147431003838339,0.9990542531013489,-5.465424839650289
1708436028.377643,-2.160299777984619,-1.3365401190570374,-2.5166154543506067,6.147442805558004,0.9990615844726562,-5.465420428906576
1708436028.3796227,-2.160243034362793,-1.3365481358817597,-2.5166242758380335,6.147468554764547,0.9990779757499695,-5.465383354817526
1708436028.3816223,-2.1602869033813477,-1.3365846437266846,-2.5166154543506067,6.147378432541647,0.9990705847740173,-5.465350691472189
1708436028.3836358,-2.1602702140808105,-1.3366211515716095,-2.516649309788839,6.147435414582052,0.9990211129188538,-5.465383354817526
1708436028.3856225,-2.160299777984619,-1.3365401190570374,-2.5165703932391565,6.147431003838339,0.999045193195343,-5.465346280728475
1708436028.387625,-2.1602349281311035,-1.3365401190570374,-2.5166686216937464,6.1474190829093835,0.9990615844726562,-5.46533435979952
1708436028.3896568,-2.1602559089660645,-1.3366049987128754,-2.5166242758380335,6.147484886437216,0.9990660548210144,-5.465445880089895
1708436028.3916192,-2.160325050354004,-1.3365769398263474,-2.5166154543506067,6.147444355278768,0.9990690350532532,-5.465383354817526
1708436028.3936224,-2.160278797149658,-1.3366296750358124,-2.5166197458850306,6.147431003838339,0.9990496635437012,-5.465371433888571
1708436028.395616,-2.160304069519043,-1.3365812462619324,-2.516649309788839,6.147481906204977,0.9990660548210144,-5.465350691472189
1708436028.3976247,-2.1602916717529297,-1.3365769398263474,-2.516637388859884,6.147394883423605,0.9990898966789246,-5.465399686490194
1708436028.399632,-2.1602673530578613,-1.3365973842195054,-2.5166242758380335,6.147453295975485,0.9990121126174927,-5.465350691472189
1708436028.4016812,-2.1603078842163086,-1.3365120601705094,-2.5166242758380335,6.147432553559103,0.999045193195343,-5.465371433888571
1708436028.4036202,-2.1602673530578613,-1.3365112853101273,-2.5166359583484095,6.147385942726888,0.9990076422691345,-5.465384666119711
1708436028.4056172,-2.1603193283081055,-1.3365239810994645,-2.5166075865374964,6.147420632630148,0.9990615844726562,-5.465395275746481
1708436028.4076447,-2.160226345062256,-1.3365486425212403,-2.5166569391833704,6.147411572724142,0.9990121126174927,-5.465363923703329
1708436028.4096484,-2.160332202911377,-1.3365523678115387,-2.5166032950030726,6.147460686951437,0.999045193195343,-5.465387765561239
1708436028.4116116,-2.1602954864501953,-1.3365974140218277,-2.5166154543506067,6.147383081703939,0.9990779757499695,-5.4654040972339075
1708436028.413668,-2.160304069519043,-1.3365812313607712,-2.5166242758380335,6.147378432541647,0.999045193195343,-5.465396587048666
1708436028.4156923,-2.160299777984619,-1.3365120601705094,-2.5166643301593226,6.147387492447653,0.9990915060043335,-5.465326849614279
1708436028.417709,-2.1602745056152344,-1.3365443509868165,-2.5166893641101282,6.147338020592489,0.9990571141242981,-5.465378944073812
1708436028.4196339,-2.160327911376953,-1.3365804266980668,-2.5166121164904993,6.147403824120321,0.9990690350532532,-5.4654040972339075
1708436028.4216413,-2.160327911376953,-1.3365930777839203,-2.5166807810412806,6.147317158966818,0.9990615844726562,-5.465400997792379
1708436028.42364,-2.160283088684082,-1.3365727227977295,-2.5166569391833704,6.147317158966818,0.9990735054016113,-5.465355102215902
1708436028.4256315,-2.1602745056152344,-1.3365769398263474,-2.5165913740741175,6.147294509201803,0.9990571141242981,-5.465353731309072
1708436028.4276273,-2.160278797149658,-1.3365197640708466,-2.5166850725757044,6.147299039154806,0.999045193195343,-5.465343181286947
1708436028.4296203,-2.1602306365966797,-1.3366092306426545,-2.5166447798358362,6.14731131771163,0.9990541934967041,-5.465375844632284
1708436028.4316251,-2.160299777984619,-1.3365528595498581,-2.5166242758380335,6.1473169205482385,0.9990240335464478,-5.465362612401144
1708436028.433638,-2.1602916717529297,-1.3365727227977295,-2.5166447798358362,6.147233474045553,0.999045193195343,-5.4654040972339075
1708436028.435673,-2.1602911949157715,-1.3365443360856553,-2.5166285673724573,6.147296297341146,0.9990526437759399,-5.4653582016574305
1708436028.4376292,-2.1603035926818848,-1.3365359169295807,-2.5166567007647913,6.147291886597433,0.9990165829658508,-5.465367023144857
1708436028.4396272,-2.160287380218506,-1.336597428922989,-2.5166242758380335,6.147329079895773,0.999045193195343,-5.4653595129596155
1708436028.44162,-2.1603035926818848,-1.3365888607553025,-2.5166435877429407,6.1472829459007166,0.9990660548210144,-5.465392176304952
1708436028.4436255,-2.160291910171509,-1.3365565848401566,-2.5166330973254603,6.147275554924764,0.999045193195343,-5.465380255375997
1708436028.4456518,-2.160283088684082,-1.336572752600052,-2.5166330973254603,6.147299039154806,0.9990660548210144,-5.465371433888571
1708436028.447621,-2.1603121757507324,-1.3365523678115387,-2.51661187807192,6.147300946503439,0.999037504196167,-5.465395275746481
1708436028.449621,-2.1602745056152344,-1.3365443360856553,-2.5166330973254603,6.1472558853919885,0.9990571141242981,-5.465371433888571
1708436028.4516225,-2.16025447845459,-1.3365685206702729,-2.516653601323263,6.147333609848776,0.9990779161453247,-5.465363923703329
1708436028.4536185,-2.1602745056152344,-1.3365523678115387,-2.516616408024923,6.147307979851522,0.9990362524986267,-5.465346280728475
1708436028.4556296,-2.1602745056152344,-1.336597428922989,-2.5166404883014124,6.147263276367941,0.9990735054016113,-5.465371433888571
1708436028.4576235,-2.1602869033813477,-1.3365359020284195,-2.516616408024923,6.147296297341146,0.9990779757499695,-5.465362612401144
1708436028.4596276,-2.1603078842163086,-1.3365973842195054,-2.5166330973254603,6.147300946503439,0.999045193195343,-5.4654040972339075
1708436028.461641,-2.1602673530578613,-1.3365973842195054,-2.516653601323263,6.147275554924764,0.9990869760513306,-5.465375844632284
1708436028.4636679,-2.1602587699890137,-1.3365727227977295,-2.51661187807192,6.147235023766317,0.9990571141242981,-5.465408507977621
1708436028.4656467,-2.160243511199951,-1.3365205836347123,-2.516677443181173,6.147284495621481,0.9990824460983276,-5.4653475920306605
1708436028.4676325,-2.1602392196655273,-1.3365812611630936,-2.5166359583484095,6.1472829459007166,0.9990571141242981,-5.4653595129596155
1708436028.4696283,-2.160287380218506,-1.3365239810994645,-2.5166285673724573,6.147218572884359,0.9990362524986267,-5.465321067963735
1708436028.4716363,-2.160247802734375,-1.3366177541068573,-2.5166197458850306,6.147263276367941,0.9990660548210144,-5.465346280728475
1708436028.4736977,-2.1602349281311035,-1.3365401190570374,-2.5166242758380335,6.147263276367941,0.9990735054016113,-5.465371433888571
1708436028.4756196,-2.160325288772583,-1.33652816832576,-2.5166404883014124,6.147272217064657,0.9990615844726562,-5.4653595129596155
1708436028.477664,-2.1602180004119873,-1.3366016012481232,-2.5166075865374964,6.1473214505012415,0.9990407228469849,-5.465380255375997
1708436028.4796255,-2.1602630615234375,-1.3365651083043595,-2.5166285673724573,6.14723955371932,0.9990779757499695,-5.465375844632284
1708436028.4816463,-2.160242795944214,-1.3365443360856553,-2.51661187807192,6.147223102837362,0.9990615844726562,-5.465380255375997
1708436028.4836438,-2.1601979732513428,-1.3366178137115021,-2.516649309788839,6.147198903351583,0.9990554451942444,-5.465387765561239
1708436028.4856265,-2.1602602005004883,-1.3365078431418915,-2.516622845326559,6.147191631584921,0.9990976452827454,-5.465392116700308
1708436028.4876409,-2.1602559089660645,-1.3364594143680115,-2.5166404883014124,6.147236573487081,0.9991021156311035,-5.465350691472189
1708436028.489627,-2.160247802734375,-1.3366092306426545,-2.5166893641101282,6.147175180702963,0.9990479946136475,-5.465417329465048
1708436028.4916978,-2.160268783569336,-1.3365528744510193,-2.5166896025287073,6.147151100426473,0.9991066455841064,-5.465396706257955
1708436028.493644,-2.1602349281311035,-1.3365239810994645,-2.5166807810412806,6.147098648339071,0.9991185665130615,-5.4653595129596155
1708436028.495643,-2.1602354049682617,-1.3365693551352997,-2.5166686216937464,6.147128450661459,0.999141275882721,-5.465375844632284
1708436028.4976826,-2.160226821899414,-1.3365401190570374,-2.516639296208517,6.147088038712301,0.999137818813324,-5.465306107197897
1708436028.4996576,-2.160219669342041,-1.3365693253329773,-2.5166316668139856,6.1470597861106775,0.9991621375083923,-5.4653595129596155
1708436028.5016458,-2.1601951122283936,-1.3365769547275086,-2.516667429600851,6.147007334023275,0.9991695880889893,-5.465367023144857
1708436028.5036423,-2.1602327823638916,-1.3365367215922852,-2.5166524092303675,6.146950471192159,0.9991952776908875,-5.465375844632284
1708436028.5056453,-2.1601996421813965,-1.3365163666060944,-2.5166850725757044,6.14696096160964,0.9991620779037476,-5.465426150952474
1708436028.5076647,-2.1602044105529785,-1.3365528744510193,-2.5167091528521937,6.1469397423561,0.9991847276687622,-5.465363923703329
1708436028.5096636,-2.160151958465576,-1.3365325045636673,-2.516651217137472,6.146870958596029,0.9992084503173828,-5.465387765561239
1708436028.5116265,-2.160160541534424,-1.3365443360856553,-2.5166881720172327,6.146900760918417,0.9992671012878418,-5.46533435979952
1708436028.5136495,-2.1601181030273438,-1.3365239810994645,-2.5166924635516565,6.146824586182394,0.9992579817771912,-5.4653475920306605
1708436028.5157223,-2.160151481628418,-1.336545155649521,-2.5166881720172327,6.146807896881857,0.9993033409118652,-5.465363923703329
1708436028.5176616,-2.16007924079895,-1.3365367215922852,-2.516712252293722,6.146748173027792,0.9992808103561401,-5.465356413518087
1708436028.5196419,-2.160099506378174,-1.3365693551352997,-2.5166872183429163,6.146707522660055,0.9992881417274475,-5.465352002774374
1708436028.521644,-2.1600637435913086,-1.3365486425212403,-2.51669150987734,6.146749722748556,0.9993676543235779,-5.465412918721334
1708436028.5236773,-2.160027265548706,-1.3365367215922852,-2.516768995915548,6.1466760514076135,0.9993195533752441,-5.4653149286853235
1708436028.525622,-2.160031795501709,-1.3365812462619324,-2.5167482534991663,6.146619188576498,0.9993690848350525,-5.465355102215902
1708436028.5276556,-2.1599998474121094,-1.3365409535220643,-2.5167513529406946,6.146641599922933,0.9994145035743713,-5.465338770543234
1708436028.529607,-2.1600279808044434,-1.3365486425212403,-2.5168083349811,6.146598088532247,0.9994173645973206,-5.465313498173849
1708436028.5316215,-2.1599884033203125,-1.3365333539298554,-2.516758982335226,6.146523344307699,0.9994426369667053,-5.465285066758291
1708436028.5336354,-2.1599717140197754,-1.3365409535220643,-2.516799513493673,6.146491753845968,0.999457836151123,-5.465331260357992
1708436028.5356457,-2.1599810123443604,-1.336529017691948,-2.51685601869692,6.146373617440023,0.9994832873344421,-5.465380255375997
1708436028.537629,-2.159956455230713,-1.3365290325931092,-2.5168800989734095,6.146394717484274,0.9994680881500244,-5.465343181286947
1708436028.53965,-2.1598548889160156,-1.336512879734375,-2.5169130007373255,6.146413910179891,0.9995298385620117,-5.465389076863424
1708436028.5417185,-2.1598877906799316,-1.3365452003530045,-2.5168874899493616,6.14630018451766,0.9995178580284119,-5.465363923703329
1708436028.5436828,-2.159832000732422,-1.336512879734375,-2.5169323126422327,6.146288263588705,0.9995822906494141,-5.465380255375997
1708436028.5456507,-2.1598002910614014,-1.3364651960185547,-2.5169816652881067,6.146219479828634,0.9996109008789062,-5.465338770543234
1708436028.5476413,-2.1597728729248047,-1.3364695024541398,-2.516951862965719,6.146180498390951,0.9996799826622009,-5.465310458336965
1708436028.549616,-2.1597349643707275,-1.3364567768624802,-2.516980234776632,6.146124827652731,0.9996455311775208,-5.465380314980642
1708436028.5516367,-2.1596996784210205,-1.3364207309535523,-2.5170000235186976,6.146044242172994,0.9997069835662842,-5.465326790009634
1708436028.553645,-2.159688711166382,-1.3364325624755402,-2.5170088450061243,6.14599775055007,0.9997682571411133,-5.465392176304952
1708436028.5556648,-2.1596570014953613,-1.336416409616806,-2.5170777479754847,6.145879494934835,0.9997625350952148,-5.465405408536093
1708436028.5576599,-2.1595962047576904,-1.3364496690085907,-2.517097059880392,6.145849573403158,0.9998103976249695,-5.465389076863424
1708436028.5596251,-2.159588098526001,-1.3364453476718445,-2.5170884768115442,6.145723807602682,0.999850869178772,-5.465361003075735
1708436028.5616422,-2.159553050994873,-1.3363923293403168,-2.5171361605273646,6.14565788486556,0.9998914003372192,-5.465371433888571
1708436028.5636497,-2.159536838531494,-1.3363689196160813,-2.5171855131732386,6.145560490875997,0.9999187588691711,-5.4653595129596155
1708436028.5656252,-2.1594409942626953,-1.336393193607666,-2.517167870198385,6.145476448326864,0.999966561794281,-5.465368334447042
1708436028.567658,-2.159449577331543,-1.3364296418479462,-2.5171991030322474,6.1453614113624475,1.0000102519989014,-5.465343181286947
1708436028.56963,-2.1594176292419434,-1.336361677651741,-2.5172444025622767,6.145248758583822,1.0000250339508057,-5.465413037930624
1708436028.571617,-2.15938663482666,-1.336341307764389,-2.5172560850726526,6.145164835243978,1.0001105070114136,-5.465326790009634
1708436028.5736275,-2.1593213081359863,-1.3362636280110856,-2.517336908970968,6.145088660507955,1.00017511844635,-5.465368394051687
1708436028.5756605,-2.159268617630005,-1.3363298934749146,-2.5173283259021204,6.1449612257774255,1.0002472400665283,-5.465392235909597
1708436028.5776463,-2.1592373847961426,-1.3363827925971528,-2.517367188130514,6.144865381508627,1.0002999305725098,-5.4653475920306605
1708436028.5796313,-2.1591897010803223,-1.336309478884079,-2.517416302357809,6.1447863457496545,1.0003314018249512,-5.465375844632284
1708436028.5816422,-2.159097194671631,-1.3363018196872254,-2.51740008989443,6.14461230018691,1.000382423400879,-5.465335671101705
1708436028.5836892,-2.1590828895568848,-1.3362129491618653,-2.517402950917379,6.144534456520834,1.000464677810669,-5.4653475920306605
1708436028.585694,-2.1589746475219727,-1.3362130385688324,-2.517413918172018,6.144350158959188,1.0005145072937012,-5.465343181286947
1708436028.5876486,-2.1589345932006836,-1.3362907630256196,-2.5174835363971155,6.144174921303549,1.000578761100769,-5.465331260357992
1708436028.589623,-2.1588499546051025,-1.3362419617227097,-2.5175331274615687,6.144122469216146,1.0007052421569824,-5.465340081845419
1708436028.5917056,-2.1587774753570557,-1.3362258088639756,-2.517548147832052,6.143960821419515,1.000777244567871,-5.465355102215902
1708436028.5936356,-2.158686399459839,-1.3361892861178895,-2.5175469557391565,6.14383493640975,1.0008325576782227,-5.465405527745382
1708436028.5956287,-2.1586716175079346,-1.3362470281175156,-2.517599407826559,6.143722402840414,1.0009255409240723,-5.465343181286947
1708436028.597642,-2.158545970916748,-1.336154283290245,-2.517639462147848,6.143578636437216,1.0009630918502808,-5.465355102215902
1708436028.5996227,-2.1584622859954834,-1.3362189096263428,-2.517656151448385,6.14348469951705,1.0010846853256226,-5.4653847257243555
1708436028.6016195,-2.1584064960479736,-1.3361620765975495,-2.5176964441882532,6.143253910332479,1.0011540651321411,-5.465392235909597
1708436028.6036413,-2.1583354473114014,-1.3361548346332093,-2.5176952520953577,6.143150555878439,1.0012363195419312,-5.465368394051687
1708436028.605645,-2.158210277557373,-1.3361386221698304,-2.51777154604067,6.142999160080709,1.0012919902801514,-5.465313498173849
1708436028.6077137,-2.158135175704956,-1.3360610467246552,-2.51780873933901,6.142768609314718,1.0013803243637085,-5.465444687997
1708436028.609663,-2.1580891609191895,-1.336110697393753,-2.517839018498556,6.142687785416403,1.0015064477920532,-5.465358142052786
1708436028.6116502,-2.1580166816711426,-1.3360499900630494,-2.517867390309469,6.142506468086996,1.0015980005264282,-5.465392235909597
1708436028.6136446,-2.1578562259674072,-1.3360345971635361,-2.5179110209094446,6.142397033959188,1.0016204118728638,-5.465420488511221
1708436028.6156652,-2.157792329788208,-1.336026207809784,-2.5179219881640833,6.142253505974569,1.0017286539077759,-5.465407196675436
1708436028.617675,-2.157726287841797,-1.3360347014716645,-2.5179901758777063,6.1420349953468225,1.0017961263656616,-5.465398196374075
1708436028.619685,-2.1575803756713867,-1.336022676234581,-2.5180755297290247,6.1418789503868005,1.0019135475158691,-5.4653788844691675
1708436028.6216536,-2.1574482917785645,-1.3360275638154526,-2.51815635362734,6.141679870873251,1.0020138025283813,-5.465358082448141
1708436028.6236668,-2.1574056148529053,-1.3359101575664063,-2.518174711857931,6.141492473870077,1.0021098852157593,-5.465456608925955
1708436028.6256442,-2.157280445098877,-1.3359228682569046,-2.518226925526754,6.141308057099142,1.0021969079971313,-5.465390865002767
1708436028.6276577,-2.15720534324646,-1.335907222037651,-2.518303457890646,6.14112542846755,1.0022811889648438,-5.465438727532522
1708436028.6296444,-2.1571097373962402,-1.3358791780522843,-2.518372122441427,6.140884506493368,1.002396583557129,-5.465401593838827
1708436028.6316562,-2.1569809913635254,-1.3358592253974457,-2.518362347279684,6.1407062886054895,1.0025017261505127,-5.465501193200247
1708436028.633681,-2.156935691833496,-1.335839257841446,-2.5184384028064173,6.140490519791403,1.0026304721832275,-5.465446237717764
1708436028.6356597,-2.156827926635742,-1.3358193349889298,-2.518543068562643,6.140274750977316,1.0027220249176025,-5.465495292340414
1708436028.6376479,-2.1567070484161377,-1.3358439070037385,-2.518571440373556,6.140035140305319,1.0028258562088013,-5.465499762688772
1708436028.6396558,-2.1566035747528076,-1.3358040016940613,-2.5186224619494837,6.139765727310934,1.0029698610305786,-5.465458158646719
1708436028.6416512,-2.1564834117889404,-1.3357067567161103,-2.5187068621264856,6.13953052738265,1.0030659437179565,-5.465499762688772
1708436028.6436417,-2.156327247619629,-1.3357475262931366,-2.518787209187643,6.13934491851882,1.003174066543579,-5.465489689503805
1708436028.6456418,-2.1562318801879883,-1.3356791597655793,-2.5188189188586634,6.1390960095222376,1.003312110900879,-5.465519432221548
1708436028.647658,-2.156127691268921,-1.3357033443501969,-2.518899742756979,6.138892400055685,1.0033975839614868,-5.465503040944235
1708436028.6496427,-2.1560254096984863,-1.335642622118332,-2.5189788977252405,6.138652670174398,1.0035059452056885,-5.465510551129476
1708436028.6516595,-2.1559009552001953,-1.3356112402728577,-2.519006077443258,6.13842390754775,1.003625750541687,-5.4654943386660975
1708436028.6536407,-2.155824899673462,-1.3356474351933976,-2.5191152731524866,6.138237941056051,1.0037578344345093,-5.465497497712271
1708436028.6556394,-2.1556766033172607,-1.3355512481978913,-2.5191665331469935,6.137927996903219,1.003861427307129,-5.465574566517965
1708436028.6577008,-2.1555685997009277,-1.3355913323215027,-2.519275490437643,6.137671696930685,1.004007339477539,-5.465599540864126
1708436028.659711,-2.155461072921753,-1.335555614238121,-2.5193355719195765,6.137505519181051,1.0041483640670776,-5.4656031171428126
1708436028.6616855,-2.1553831100463867,-1.3355996918729325,-2.5194104353534144,6.137249696045675,1.004287838935852,-5.4656105677234095
1708436028.6636682,-2.155217409133911,-1.3355356764844437,-2.519474808369772,6.136981594353475,1.0044320821762085,-5.4656105677234095
1708436028.6656444,-2.155130624771118,-1.3355283302119751,-2.5195260683642786,6.136783706932821,1.004540205001831,-5.465614978467123
1708436028.6676676,-2.1549618244171143,-1.3355367344668885,-2.519635025654928,6.1364526627357385,1.004705786705017,-5.465604964886801
1708436028.6696627,-2.1548664569854736,-1.33548458040271,-2.51969820657839,6.136226522713461,1.0047956705093384,-5.46563440958132
1708436028.6716764,-2.154740333557129,-1.3354596060565491,-2.5197373072253626,6.136028992920675,1.004936933517456,-5.465704325829641
1708436028.6736438,-2.1545846462249756,-1.3354240220836182,-2.5198305288897913,6.135756242066183,1.0050240755081177,-5.465651039277212
1708436028.6756632,-2.1544387340545654,-1.3354205203107377,-2.519888941441671,6.135483848839559,1.0051759481430054,-5.465637985860006
1708436028.677663,-2.154320001602173,-1.3354051274112244,-2.519993845616476,6.135266411095419,1.0053201913833618,-5.465645078812734
1708436028.6796718,-2.1541855335235596,-1.3353682917407532,-2.520127836857931,6.135001528054037,1.0054986476898193,-5.4657267967807215
1708436028.6816413,-2.1540441513061523,-1.3353682917407532,-2.520104948674337,6.134712683945455,1.005577564239502,-5.465640727673666
1708436028.6836782,-2.1539058685302734,-1.3353087914041062,-2.5201647917376917,6.134456264763632,1.0057063102722168,-5.465723697339193
1708436028.6856349,-2.153822183609009,-1.3353299510530015,-2.5202744642840784,6.134251105576315,1.0058505535125732,-5.465710524712698
1708436028.6876647,-2.1536619663238525,-1.3352854263833542,-2.5203667322741907,6.134015905648031,1.0059618949890137,-5.465734664593832
1708436028.6896448,-2.153517961502075,-1.3352940392545243,-2.5203807989703577,6.133767235070028,1.0060869455337524,-5.4656723777400416
1708436028.6916478,-2.15336537361145,-1.3352120381644745,-2.520543400441305,6.133528101235189,1.0062310695648193,-5.465733472500936
1708436028.693657,-2.1533002853393555,-1.3352129322341462,-2.52057391801943,6.133219349175253,1.006334662437439,-5.465786699448721
1708436028.6956527,-2.1531317234039307,-1.3352013391307374,-2.5206130186664026,6.132939207344808,1.006516456604004,-5.465765778218405
1708436028.6976523,-2.1530282497406006,-1.3351694357446213,-2.5206969420062464,6.132663595467367,1.0066806077957153,-5.465814952050344
1708436028.6996799,-2.1528429985046387,-1.3351130199483414,-2.5207985083209437,6.1323879835899255,1.0067839622497559,-5.465789858494894
1708436028.701644,-2.1527371406555176,-1.3351538193276902,-2.5208707491504114,6.1321157095725916,1.0068832635879517,-5.465822402630941
1708436028.7036538,-2.152600049972534,-1.335162268286087,-2.5209341684924524,6.131882059365072,1.007041096687317,-5.465842131768362
1708436028.7056744,-2.152493953704834,-1.3351096224835892,-2.52102238336672,6.131613838463583,1.0071643590927124,-5.465821448956625
1708436028.7076519,-2.152337074279785,-1.3351222735694428,-2.5210776964770716,6.131398069649496,1.0072917938232422,-5.465849463139669
1708436028.7096686,-2.152250051498413,-1.3350823831609269,-2.5211496988879603,6.131147730141439,1.007503867149353,-5.465886656438009
1708436028.71166,-2.152130126953125,-1.3350259375623246,-2.521233622227804,6.130878674774923,1.0075939893722534,-5.4658735434161585
1708436028.7136452,-2.151978015899658,-1.3350259375623246,-2.521329704915182,6.130652177124777,1.0076603889465332,-5.465889875088827
1708436028.7156692,-2.1518876552581787,-1.3350180250457306,-2.5214315096484583,6.130413996964254,1.007813572883606,-5.4658735434161585
1708436028.71778,-2.15173077583313,-1.3349414777806778,-2.521491352711813,6.1301578162010095,1.0079340934753418,-5.46586919227709
1708436028.7196567,-2.151611804962158,-1.3349745285562058,-2.5215261618243616,6.12987374046401,1.0080872774124146,-5.465930287037985
1708436028.721644,-2.151512384414673,-1.3349219274571915,-2.5216055552112024,6.129604923516073,1.008199691772461,-5.4659258166896265
1708436028.7236705,-2.151376247406006,-1.3349506866982956,-2.521661345158712,6.129366504936971,1.0082658529281616,-5.465933148060934
1708436028.7256477,-2.151252031326294,-1.3349028092673798,-2.5217376391040247,6.129086363106527,1.0084218978881836,-5.465909544621603
1708436028.7276924,-2.151111602783203,-1.3348747056773682,-2.521780316029684,6.128867733269491,1.0085469484329224,-5.465917114411489
1708436028.7296367,-2.1510043144226074,-1.334878922705986,-2.5218446890460413,6.128579246788778,1.0086548328399658,-5.465953711663381
1708436028.7316685,-2.1509151458740234,-1.3348627847484131,-2.521961275731222,6.128347027092733,1.008796215057373,-5.465940598641531
1708436028.7336378,-2.150761842727661,-1.3348343980363389,-2.5220332781421106,6.128083336144247,1.008960247039795,-5.466022733842031
1708436028.7356706,-2.1506659984588623,-1.3348310154727479,-2.522097651158468,6.127925503044882,1.0090264081954956,-5.465981070195333
1708436028.7376504,-2.1505231857299805,-1.3348598045161744,-2.5221574942218226,6.127657401352682,1.0091679096221924,-5.465955917035238
1708436028.739639,-2.1504077911376953,-1.3347303581288834,-2.5222089926349085,6.127417909889974,1.0093616247177124,-5.466028753911154
1708436028.741636,-2.1503286361694336,-1.3347552430680771,-2.5222612063037317,6.1271904585655115,1.0094367265701294,-5.465992991124288
1708436028.7436614,-2.1501309871673584,-1.334731177692749,-2.522325579320089,6.126946079521932,1.0095736980438232,-5.466012779866354
1708436028.7456927,-2.149986505508423,-1.334682435994484,-2.5224018732654017,6.126699077873983,1.0097178220748901,-5.466062430535452
1708436028.7476976,-2.1499128341674805,-1.334670515065529,-2.522482935582296,6.126459109574117,1.009830355644226,-5.466005150471823
1708436028.749653,-2.1497466564178467,-1.3346994382194062,-2.522463862095968,6.126239168434896,1.0099507570266724,-5.466033045445577
1708436028.7516387,-2.1496565341949463,-1.3346025508693238,-2.5225566069232386,6.12596224525527,1.0101370811462402,-5.466028753911154
1708436028.753697,-2.1495330333709717,-1.334627942447998,-2.522691075001852,6.125739085465231,1.010177493095398,-5.46608537832369
1708436028.7556539,-2.1494338512420654,-1.3346236509135743,-2.5226765314685267,6.125506865769186,1.0103188753128052,-5.466057304536001
1708436028.7576725,-2.149277925491333,-1.3345672947219391,-2.5227423349963587,6.1252972958381555,1.0104557275772095,-5.466069165860311
1708436028.759655,-2.149214029312134,-1.334535689359047,-2.522827450429098,6.125039565354147,1.010514497756958,-5.4660362044917505
1708436028.7616632,-2.1491026878356934,-1.3345918667367478,-2.522849146519796,6.124833094864645,1.0106693506240845,-5.466105107461111
1708436028.76366,-2.148991584777832,-1.3345518869212647,-2.5228970686541956,6.124605285912313,1.0107429027557373,-5.466100756322042
1708436028.7656424,-2.1488709449768066,-1.3345073920539399,-2.522965733204977,6.1243852255638025,1.010819435119629,-5.466106478367941
1708436028.7677,-2.148812770843506,-1.3344750863364716,-2.5229886213885706,6.124174105912008,1.0109561681747437,-5.466084484254019
1708436028.76967,-2.148651123046875,-1.334452064042427,-2.52307373682131,6.1239672777946375,1.0110117197036743,-5.466067854558126
1708436028.7716877,-2.1485350131988525,-1.3344109517386933,-2.523141686116354,6.123759019165792,1.0111080408096313,-5.466096405182974
1708436028.7737086,-2.148452043533325,-1.334452064042427,-2.5232022444354456,6.123535978585043,1.0112206935882568,-5.4661365191089075
1708436028.7756612,-2.1483302116394043,-1.3344322454980393,-2.5232091585742396,6.123257505684652,1.0113410949707031,-5.466149632130758
1708436028.7776663,-2.1482934951782227,-1.334399939780571,-2.523289744053976,6.123104679375448,1.0113921165466309,-5.466087643300192
1708436028.779647,-2.148124933242798,-1.3344244968942185,-2.523352924977438,6.122904050141134,1.0115045309066772,-5.46616900364031
1708436028.7816453,-2.1480367183685303,-1.3344491583159943,-2.5233846346484583,6.122721063881674,1.0115678310394287,-5.46619832912554
1708436028.7837002,-2.147937536239624,-1.3343880337527771,-2.5234370867358606,6.122517454415121,1.0117329359054565,-5.466173473988668
1708436028.7856407,-2.1478450298309326,-1.3343523156693955,-2.52350098291506,6.122304904251852,1.011796236038208,-5.466119889413015
1708436028.7876966,-2.147732734680176,-1.3343565326980134,-2.5235851446734827,6.122113573342123,1.0119303464889526,-5.4661277572261255
1708436028.7896352,-2.147674322128296,-1.3343765151551743,-2.523613754902975,6.121983516007223,1.011976718902588,-5.466148440037863
1708436028.7916563,-2.1475534439086914,-1.3343606752208252,-2.5236571470843714,6.121768224030294,1.0120935440063477,-5.4661898652659815
1708436028.7936635,-2.1474852561950684,-1.3343403947404404,-2.52366811433901,6.121587025910177,1.012182354927063,-5.466095272694723
1708436028.7956264,-2.147361993789673,-1.3342920553735276,-2.5237696806537073,6.12145887592391,1.0122292041778564,-5.466148440037863
1708436028.79765,-2.1472949981689453,-1.3343776327422638,-2.523813072835104,6.121232735901632,1.0123342275619507,-5.466177884732382
1708436028.7996309,-2.147235155105591,-1.3342920702746888,-2.5238328615771692,6.1210999367530725,1.0124062299728394,-5.4661691228496
1708436028.801635,-2.1471118927001953,-1.334263951783516,-2.5238762537585657,6.12090693691329,1.0124200582504272,-5.466176692639486
1708436028.8036642,-2.147014617919922,-1.3342640113881608,-2.5239244143115442,6.120687114983358,1.0125430822372437,-5.466164712105886
1708436028.8056202,-2.146907091140747,-1.3342037510922928,-2.5239527861224573,6.120523083000936,1.0126349925994873,-5.466185394917623
1708436028.8076956,-2.146820306777954,-1.3342121851495286,-2.523975435887472,6.12033902385787,1.0126994848251343,-5.466148440037863
1708436028.8097372,-2.1467769145965576,-1.3342206341079255,-2.5240278879748743,6.120197045594015,1.012762427330017,-5.4661352078067225
1708436028.811635,-2.1466567516326904,-1.334249423151352,-2.5241132418261927,6.120034086495199,1.0128633975982666,-5.466155950223104
1708436028.8136568,-2.1465930938720703,-1.3342050027898331,-2.5241459051715296,6.119845855026998,1.0129188299179077,-5.466197613869802
1708436028.8157043,-2.146489143371582,-1.334172711973526,-2.5241640249835413,6.119690167694845,1.012953519821167,-5.466167811547415
1708436028.8176963,-2.1464173793792725,-1.3342050027898331,-2.5242448488818567,6.1195809719856165,1.0130630731582642,-5.466172281895773
1708436028.8196726,-2.146244525909424,-1.334205762749054,-2.524240557347433,6.119433390885153,1.01317298412323,-5.466197613869802
1708436028.82165,-2.146209955215454,-1.334189699297287,-2.524264637623922,6.1192253706748865,1.0131714344024658,-5.466160360966818
1708436028.8236945,-2.1461174488067627,-1.3342058074525376,-2.5243006388293665,6.119070040970602,1.0132344961166382,-5.466196362172262
1708436028.8256454,-2.1460578441619873,-1.3341527444175263,-2.5243857542621058,6.118794905930319,1.0133037567138672,-5.4661646525012415
1708436028.8276513,-2.145942449569702,-1.3341358017972489,-2.524433676396505,6.118794786721029,1.0133761167526245,-5.466167811547415
1708436028.8296978,-2.145841598510742,-1.3341527593186875,-2.5244327227221888,6.118599164276876,1.0134646892547607,-5.466176633034841
1708436028.8316462,-2.1458072662353516,-1.3341888350299378,-2.524493996297018,6.118446576386251,1.0135411024093628,-5.466164712105886
1708436028.8336992,-2.1457443237304688,-1.3341485571912308,-2.5245419184314173,6.118307578354635,1.013559103012085,-5.466135267411367
1708436028.8356502,-2.145656108856201,-1.3341888350299378,-2.524487082158224,6.1181983826454065,1.0136116743087769,-5.466144088898794
1708436028.8376434,-2.1455676555633545,-1.334197298889496,-2.524569098149435,6.118022072106161,1.0137290954589844,-5.466164712105886
1708436028.8396397,-2.1454555988311768,-1.3341853630593796,-2.5246124903308313,6.117877352028646,1.0138053894042969,-5.466118995343344
1708436028.841693,-2.145395517349243,-1.3342384707978745,-2.5246244112597864,6.117714154511251,1.013868808746338,-5.466156009827749
1708436028.8436782,-2.1453495025634766,-1.334197313790657,-2.524679962788717,6.117578017502584,1.0139497518539429,-5.466144088898794
1708436028.845667,-2.1452250480651855,-1.334176943903305,-2.5246711413012903,6.117415177613058,1.013981580734253,-5.466200713311331
1708436028.8476715,-2.145141124725342,-1.3341769588044663,-2.5247445742236536,6.117250788002767,1.0139994621276855,-5.466123406087057
1708436028.8496804,-2.145008087158203,-1.334254504447319,-2.524747673665182,6.117100226670065,1.0140939950942993,-5.466188911591665
1708436028.8516693,-2.1449573040008545,-1.3342092049172898,-2.524825398121969,6.116956341057577,1.0141663551330566,-5.466139737759725
1708436028.8536675,-2.144801378250122,-1.334184543495514,-2.5248566309558313,6.1168261645133875,1.0141844749450684,-5.466135267411367
1708436028.8556805,-2.1447010040283203,-1.3342613887837906,-2.524909321461813,6.116585600167074,1.014244556427002,-5.466193262730734
1708436028.857671,-2.144590139389038,-1.3342418533614655,-2.524933401738302,6.116462933808126,1.01435124874115,-5.466139737759725
1708436028.8596935,-2.1445069313049316,-1.3342290681651612,-2.5249486605273646,6.116315114289083,1.01436185836792,-5.466156009827749
1708436028.861638,-2.144378900527954,-1.33426986754451,-2.52502948442568,6.116151916771688,1.0144248008728027,-5.466151539479391
1708436028.863666,-2.144258737564087,-1.3342360270074387,-2.5250325838672083,6.116008507996359,1.0144984722137451,-5.466132167969839
1708436028.8656836,-2.1441431045532227,-1.3343013387969513,-2.525076214467184,6.1158742783363245,1.0145163536071777,-5.466157261525289
1708436028.8676457,-2.143953323364258,-1.33432591081176,-2.525108877812521,6.1156900999839685,1.0145930051803589,-5.466128651295797
1708436028.8696465,-2.1438510417938232,-1.3343132597259064,-2.5251808802234095,6.115494477539816,1.014653205871582,-5.4661006967173975
1708436028.871643,-2.1437323093414307,-1.3343090277961274,-2.525179688130514,6.115327226906576,1.014771819114685,-5.466106835995809
1708436028.8736556,-2.143571615219116,-1.3343000274947663,-2.5252485910998743,6.115107047348776,1.0147855281829834,-5.466197673474447
1708436028.8756711,-2.1434569358825684,-1.3343892407468338,-2.5253005663501185,6.114881503372946,1.014862298965454,-5.4661277572261255
1708436028.8776515,-2.1432600021362305,-1.3344007444432755,-2.525344435368673,6.114691602974691,1.0149509906768799,-5.4661083857165735
1708436028.8796473,-2.143113136291504,-1.3343842935613175,-2.52535850206484,6.114495980530538,1.0150275230407715,-5.466087643300192
1708436028.8816767,-2.142921209335327,-1.3344699454358597,-2.5254226366626185,6.114283549576559,1.0150997638702393,-5.46610397497286
1708436028.8836806,-2.1427927017211914,-1.3344648045352479,-2.5255497137652796,6.114112841873922,1.015171766281128,-5.466100756322042
1708436028.88565,-2.1426050662994385,-1.3344153475812455,-2.525527540837423,6.113876688271322,1.0152366161346436,-5.4661083857165735
1708436028.8876672,-2.1424190998077393,-1.3345124882510682,-2.5256291071521204,6.113659965782919,1.0153491497039795,-5.466084484254019
1708436028.8896635,-2.1421749591827393,-1.3345323664001008,-2.5257371107684534,6.113334047585287,1.0153790712356567,-5.466093305741445
1708436028.891653,-2.141953706741333,-1.334551141863205,-2.5258105436908167,6.113047349243917,1.0154842138290405,-5.466109518204824
1708436028.893669,-2.1417396068573,-1.3346449148705979,-2.5258284250842493,6.1127885458763025,1.0156211853027344,-5.466130201016561
1708436028.8956654,-2.1415932178497314,-1.3346109849265595,-2.5258973280536097,6.112513410836019,1.0157294273376465,-5.46606165567507
1708436028.8976834,-2.1413044929504395,-1.334634856586792,-2.5259323755847376,6.112231123238363,1.0157967805862427,-5.466012720261709
1708436028.899662,-2.141047716140747,-1.3347481352141877,-2.526037041340963,6.111917006760397,1.0158768892288208,-5.466021422539846
1708436028.9016707,-2.1408259868621826,-1.3347515326789399,-2.5260642210589808,6.111647951393881,1.0160177946090698,-5.466025952492849
1708436028.903663,-2.1405627727508545,-1.3348607134870072,-2.5262137095080774,6.1113459942634485,1.0161097049713135,-5.46599650779833
1708436028.9056609,-2.1402223110198975,-1.3348429215005417,-2.5263143221484583,6.110936629563131,1.0162460803985596,-5.46598852077593
1708436028.9076877,-2.139922857284546,-1.3349430722049256,-2.5263729731189173,6.110580312996664,1.0164161920547485,-5.466025892888204
1708436028.909667,-2.1395699977874756,-1.3349957031062623,-2.526501719151632,6.110238420754232,1.0164899826049805,-5.465973560010092
1708436028.9116566,-2.139336347579956,-1.3350878369859238,-2.526548449193136,6.109895932465353,1.0166432857513428,-5.465936247502462
1708436028.9136932,-2.138932704925537,-1.3350624305060883,-2.526660744343893,6.1095207808311365,1.0167348384857178,-5.465948526059286
1708436028.9156713,-2.138594150543213,-1.3351419132998963,-2.5267601648913782,6.109170901566305,1.0168430805206299,-5.465937439595358
1708436028.9176748,-2.1382839679718018,-1.3352101904204865,-2.52687651315798,6.108725416451254,1.0169916152954102,-5.465872232113973
1708436028.9196408,-2.1378707885742188,-1.3352742505124588,-2.5269442240344446,6.108327972679891,1.0171363353729248,-5.4659462610827845
1708436028.921639,-2.1375434398651123,-1.3352939498475571,-2.5271385351764124,6.107937681465902,1.0172516107559204,-5.465876642857687
1708436028.9236412,-2.1370928287506104,-1.3353979152492066,-2.527217451726095,6.107477175980367,1.017433524131775,-5.465930287037985
1708436028.9256444,-2.1366820335388184,-1.3354816001704712,-2.527308766041891,6.107019889145651,1.0175073146820068,-5.4658318797694605
1708436028.9276655,-2.1363093852996826,-1.3355291050723572,-2.527473274861471,6.106475698738851,1.0177298784255981,-5.465858046208517
1708436028.9296665,-2.1357879638671875,-1.3355963242105027,-2.5275891462909144,6.106014001160421,1.0179309844970703,-5.465804878865377
1708436028.9316535,-2.1353249549865723,-1.3357004535249253,-2.5277660528766077,6.105528223305502,1.0180857181549072,-5.465830270444052
1708436028.9337032,-2.1349029541015625,-1.3358201545527955,-2.527881447468893,6.10503505447463,1.0182889699935913,-5.465792957936422
1708436028.9356499,-2.1344077587127686,-1.335863546734192,-2.528009001408712,6.104486453324117,1.0184764862060547,-5.4658061305629175
1708436028.937651,-2.133942127227783,-1.3359993559173127,-2.5281408468829554,6.104004967003622,1.0186117887496948,-5.4658061305629175
1708436028.9396913,-2.133390188217163,-1.336128146653511,-2.5282936731921595,6.103396403580465,1.0187922716140747,-5.465756956730978
1708436028.9416509,-2.1329076290130615,-1.336195857529976,-2.528473440800802,6.10286425331191,1.0190057754516602,-5.4657538572894495
1708436028.943645,-2.132359504699707,-1.336318777208664,-2.5286670366870325,6.102306115418234,1.019202470779419,-5.465758148823873
