Eg3-git/Classifiers/Data Collection/u3/u3xyz4_ur3e_joint_states.csv
time,elbow_joint,shoulder_lift_joint,shoulder_pan_joint,wrist_1_joint,wrist_2_joint,wrist_3_joint
1708436053.7357695,-2.1422579288482666,-1.3332991313985367,-2.525944534932272,6.110654461174764,1.0163065195083618,-5.466101531182424
1708436053.7378056,-2.1422295570373535,-1.3333051663688202,-2.52600604692568,6.110658871918478,1.0163486003875732,-5.4661491552936
1708436053.7397616,-2.1422431468963623,-1.3332725328258057,-2.525959316884176,6.110610949784078,1.0163319110870361,-5.46608812013735
1708436053.7417812,-2.1422135829925537,-1.3332307648709794,-2.525975767766134,6.110528576164999,1.016351580619812,-5.466080431138174
1708436053.743778,-2.1422271728515625,-1.3333051663688202,-2.525954786931173,6.110521304398336,1.016339659690857,-5.466121081505911
1708436053.74577,-2.142197847366333,-1.3332844537547608,-2.5260255972491663,6.110555636673727,1.0163935422897339,-5.466121081505911
1708436053.747788,-2.1422066688537598,-1.333239571457245,-2.525921885167257,6.110524046211996,1.0164058208465576,-5.466092411671774
1708436053.7497625,-2.1421163082122803,-1.3332844537547608,-2.525971237813131,6.110441791802206,1.0163981914520264,-5.466092411671774
1708436053.7517612,-2.14212965965271,-1.3332647693208237,-2.525954786931173,6.110450613289633,1.0163800716400146,-5.466096524392263
1708436053.753797,-2.14212965965271,-1.3332484525493165,-2.5259879271136683,6.110359775810995,1.0164341926574707,-5.466109279786245
1708436053.7557647,-2.1421456336975098,-1.333269165163376,-2.5259833971606653,6.11038218715743,1.0163755416870117,-5.466084603463308
1708436053.7577722,-2.1420719623565674,-1.3332440567067643,-2.5259879271136683,6.110357987671652,1.0163922309875488,-5.466100756322042
1708436053.7597883,-2.1421048641204834,-1.3332691204598923,-2.5259833971606653,6.1103625176246545,1.016404151916504,-5.466112677250997
1708436053.7617724,-2.1421139240264893,-1.3332232397845765,-2.5260074774371546,6.110301363259115,1.016395092010498,-5.466144923363821
1708436053.7638142,-2.142085552215576,-1.3332603734782715,-2.5259998480426233,6.1103237746055505,1.0163922309875488,-5.466104988251821
1708436053.765762,-2.1420819759368896,-1.3332246106914063,-2.5260210672961634,6.110307442932882,1.016432762145996,-5.466072384511129
1708436053.7678072,-2.142066240310669,-1.3332365316203614,-2.5260210672961634,6.110202896385946,1.016395092010498,-5.466132704411642
1708436053.7697642,-2.1420910358428955,-1.3332409274629136,-2.5259953180896204,6.110221850662985,1.0164490938186646,-5.466076318417684
1708436053.7717617,-2.142042398452759,-1.3332365316203614,-2.5259953180896204,6.110263931542196,1.0164204835891724,-5.466104988251821
1708436053.773763,-2.1420209407806396,-1.3332572442344208,-2.5260239283191126,6.110201108246603,1.0164237022399902,-5.466136876736776
1708436053.7757576,-2.1420185565948486,-1.3332035702518006,-2.5260074774371546,6.110189306526937,1.0164523124694824,-5.466056231652395
1708436053.7778053,-2.141984701156616,-1.3332572442344208,-2.5260029474841517,6.110107052117147,1.0164445638656616,-5.4661491552936
1708436053.7797716,-2.1420140266418457,-1.333227739935257,-2.5260120073901575,6.110078680306234,1.0164686441421509,-5.466108504925863
1708436053.7817633,-2.1419529914855957,-1.3331872385791321,-2.5260029474841517,6.110071289330282,1.0164642333984375,-5.466056231652395
1708436053.7837791,-2.1419618129730225,-1.3332035702518006,-2.5260074774371546,6.110026109009542,1.0164356231689453,-5.466109279786245
1708436053.78579,-2.141998052597046,-1.3332202148488541,-2.5260193983661097,6.1100425598915,1.0164477825164795,-5.466097418461935
1708436053.787791,-2.141953945159912,-1.3331549328616639,-2.5260029474841517,6.11000822761611,1.0164732933044434,-5.46606815258135
1708436053.7897575,-2.1419506072998047,-1.33318284273658,-2.5260403792010706,6.109949934273519,1.0164477825164795,-5.466064755116598
1708436053.7917688,-2.1419389247894287,-1.3332211536220093,-2.526068989430563,6.1099891541297815,1.0164763927459717,-5.466040078793661
1708436053.7937737,-2.1419131755828857,-1.3332079660943528,-2.5260358492480677,6.109964954644003,1.0164810419082642,-5.466080431138174
1708436053.7957666,-2.1418964862823486,-1.3331916493228455,-2.5260661284076136,6.109920012741842,1.0164523124694824,-5.466109279786245
1708436053.7977972,-2.1418442726135254,-1.3332092326930542,-2.525993887578146,6.109887110977926,1.0164928436279297,-5.466064814721243
1708436053.7997706,-2.1418983936309814,-1.3331814122251053,-2.5259984175311487,6.109905111580648,1.0164928436279297,-5.466084603463308
1708436053.8017588,-2.141911745071411,-1.3332617443851014,-2.5259984175311487,6.109857547074117,1.0164597034454346,-5.466080907975332
1708436053.803764,-2.1418709754943848,-1.3331756454757233,-2.526048008595602,6.10978256443099,1.0164597034454346,-5.466060523186819
1708436053.8057563,-2.1418256759643555,-1.3331932437470932,-2.5260029474841517,6.109800565033712,1.0164686441421509,-5.466085080300466
1708436053.807795,-2.1418676376342773,-1.3331682246974488,-2.5259817282306116,6.10977195480422,1.0164674520492554,-5.466024521981375
1708436053.8097732,-2.141850709915161,-1.3331145358136673,-2.52606445947756,6.109757411270895,1.0165091753005981,-5.466044906769888
1708436053.8117573,-2.1418392658233643,-1.3331858080676575,-2.525989357625143,6.109728801041403,1.016506314277649,-5.465980354939596
1708436053.8137562,-2.1417737007141113,-1.333200530414917,-2.52606445947756,6.109646427422323,1.0164927244186401,-5.466009442006246
1708436053.8157666,-2.141756772994995,-1.3331858080676575,-2.525989357625143,6.109676348954,1.0164523124694824,-5.465976897870199
1708436053.817747,-2.1417782306671143,-1.3331814122251053,-2.526010338460104,6.109697329788961,1.0164928436279297,-5.46601784626116
1708436053.8197622,-2.141787052154541,-1.3331528466990967,-2.526048008595602,6.109567272454061,1.0164719820022583,-5.465948764477865
1708436053.8217661,-2.1417958736419678,-1.3331602823785325,-2.5259862581836146,6.109592664032736,1.0164674520492554,-5.465964917336599
1708436053.8238127,-2.141732931137085,-1.333173544411995,-2.5260148684131067,6.109592664032736,1.0165047645568848,-5.4660221377955835
1708436053.8257973,-2.1417577266693115,-1.3331321340850373,-2.5260313192950647,6.109552132874288,1.0164809226989746,-5.465945068989889
1708436053.8277705,-2.1417248249053955,-1.3331439656070252,-2.5260358492480677,6.109544861107626,1.0165138244628906,-5.465933148060934
1708436053.829755,-2.1417429447174072,-1.3331079644015809,-2.526043478642599,6.109508979111471,1.0164388418197632,-5.465880517159597
1708436053.831766,-2.1417758464813232,-1.333145411019661,-2.52598482767214,6.109526979714193,1.0164927244186401,-5.465918068085806
1708436053.833767,-2.1416819095611572,-1.3331375581077118,-2.5260403792010706,6.109435665398397,1.0164763927459717,-5.465872708951132
1708436053.8357713,-2.1416943073272705,-1.3331409257701416,-2.526076618825094,6.10939251163558,1.0164927244186401,-5.465856615697042
1708436053.8377585,-2.141719102859497,-1.333157242541649,-2.52606445947756,6.109415042191305,1.0164928436279297,-5.465886179600851
1708436053.8397593,-2.141711950302124,-1.3331858080676575,-2.526052538548605,6.10938190200881,1.0164674520492554,-5.465857807789938
1708436053.841796,-2.141669511795044,-1.3331498068622132,-2.526052538548605,6.109320509224691,1.0164507627487183,-5.465882066880361
1708436053.8437881,-2.1416919231414795,-1.3331124496511002,-2.5260193983661097,6.109346139221945,1.0165210962295532,-5.465805236493246
1708436053.8457713,-2.1417043209075928,-1.3331660640290757,-2.526052538548605,6.109310376435079,1.0164883136749268,-5.465797607098715
1708436053.8477652,-2.1416242122650146,-1.333145411019661,-2.5259984175311487,6.109238254814901,1.0164973735809326,-5.46579754749407
1708436053.8497689,-2.1416172981262207,-1.3330515635064621,-2.5260193983661097,6.109177338867941,1.0164432525634766,-5.465793315564291
1708436053.8517687,-2.141605854034424,-1.3330916327289124,-2.5260449091540735,6.109184610634603,1.0164719820022583,-5.465753022824423
1708436053.853773,-2.1416068077087402,-1.3331168454936524,-2.5260074774371546,6.109160887985983,1.0164854526519775,-5.465729538594381
1708436053.8557606,-2.1416351795196533,-1.3331463646939774,-2.5260029474841517,6.109141218453207,1.016447901725769,-5.465750698243276
1708436053.8577642,-2.141620397567749,-1.3331168305924912,-2.5260615984546106,6.109157907753744,1.0164674520492554,-5.465754870568411
1708436053.8597746,-2.141624689102173,-1.3331049245646973,-2.526005808507101,6.109097707062521,1.0164973735809326,-5.465726021920339
1708436053.8617694,-2.141611337661743,-1.3331212413362046,-2.5260403792010706,6.109032022743978,1.016513705253601,-5.465625468884603
1708436053.8637598,-2.1415445804595947,-1.3330842119506379,-2.525993887578146,6.109090673714437,1.0164343118667603,-5.465686623250143
1708436053.865766,-2.14158296585083,-1.33308860779319,-2.526043478642599,6.1090561030204675,1.0164432525634766,-5.465686682854788
1708436053.867755,-2.1415750980377197,-1.3330484491637726,-2.5260313192950647,6.109047162323751,1.0164597034454346,-5.465597871934072
1708436053.869765,-2.1415467262268066,-1.333076686864235,-2.526010338460104,6.109044301300802,1.0164597034454346,-5.465597871934072
1708436053.8717499,-2.1415512561798096,-1.3330365282348176,-2.5260074774371546,6.108987319260397,1.0164854526519775,-5.465585951005117
1708436053.8737874,-2.141469717025757,-1.3330842119506379,-2.5260193983661097,6.108963477402487,1.016449213027954,-5.465574566517965
1708436053.875789,-2.1415059566497803,-1.3330987703851243,-2.5259817282306116,6.108906495362081,1.0164551734924316,-5.465546850358145
1708436053.8777683,-2.1414856910705566,-1.3330735576203843,-2.5260148684131067,6.108887183457174,1.0164809226989746,-5.465558413659231
1708436053.8797784,-2.1414706707000732,-1.3331017953208466,-2.5259953180896204,6.108879554062643,1.0164854526519775,-5.4655179421054285
1708436053.881755,-2.141453981399536,-1.333082453613617,-2.526043478642599,6.1088048098380945,1.0164445638656616,-5.46550161043276
1708436053.883755,-2.1414706707000732,-1.3330154728940506,-2.5260313192950647,6.108839499741354,1.0164282321929932,-5.465444866810934
1708436053.8857863,-2.141451358795166,-1.333082453613617,-2.526043478642599,6.108808028488912,1.016449213027954,-5.465453747903005
1708436053.8877714,-2.141392946243286,-1.333082453613617,-2.5260029474841517,6.108842360764303,1.0164568424224854,-5.465453688298361
1708436053.8897858,-2.141455888748169,-1.3330242794803162,-2.5259771982776087,6.108776438027181,1.016416072845459,-5.465434376393453
1708436053.8918064,-2.1414105892181396,-1.3330212396434327,-2.5260403792010706,6.108764874726095,1.0164070129394531,-5.4653863350497645
1708436053.8937676,-2.1413733959198,-1.333082453613617,-2.5259607473956507,6.108740794449606,1.0164204835891724,-5.465390865002767
1708436053.8958058,-2.141432046890259,-1.3330198687366028,-2.5259698073016565,6.108646499901571,1.0164086818695068,-5.465370003377096
1708436053.8977609,-2.141433000564575,-1.3330542010119935,-2.5260074774371546,6.10863875129775,1.016404151916504,-5.465337280427114
1708436053.8998127,-2.141378879547119,-1.3330462884953995,-2.5260165373431605,6.108645069390096,1.0164085626602173,-5.465367023144857
1708436053.9017673,-2.141329050064087,-1.3330331456712265,-2.5259862581836146,6.108565795212545,1.0164085626602173,-5.465322438870565
1708436053.9037733,-2.1413674354553223,-1.3329886061004181,-2.5260120073901575,6.1085595963294885,1.0163755416870117,-5.465340081845419
1708436053.9057722,-2.1413605213165283,-1.3330123287490387,-2.5259984175311487,6.1085853455360315,1.0163967609405518,-5.465290729199545
1708436053.9078147,-2.141376256942749,-1.3330181998065491,-2.5260539690600794,6.108549225121298,1.0163891315460205,-5.465295259152548
1708436053.9098027,-2.1413559913635254,-1.3330256205848237,-2.5260313192950647,6.108471858292379,1.0163440704345703,-5.465269927178518
1708436053.911794,-2.141348123550415,-1.3330345314792176,-2.5260148684131067,6.10845040062026,1.0163891315460205,-5.4652666489230555
1708436053.913775,-2.141331195831299,-1.333030031328537,-2.5260239283191126,6.108440267830648,1.0163440704345703,-5.465243224297659
1708436053.9157875,-2.141331195831299,-1.3329973977855225,-2.5259907881366175,6.108490931778707,1.016339659690857,-5.4652279059039515
1708436053.917763,-2.1413073539733887,-1.3329930019429703,-2.525980297719137,6.10843704917983,1.0163981914520264,-5.465232316647665
1708436053.9197733,-2.141315221786499,-1.3329735559276124,-2.5260329882251185,6.108413445740499,1.0163109302520752,-5.465241197739736
1708436053.9217613,-2.1412813663482666,-1.3330168288997193,-2.5259743372546595,6.108359443932333,1.0163319110870361,-5.465215925370352
1708436053.9237866,-2.1412880420684814,-1.3330551546863099,-2.5259879271136683,6.108332383423605,1.0162991285324097,-5.465147618447439
1708436053.9258103,-2.1412699222564697,-1.3330137145570298,-2.5259576479541224,6.108324992447653,1.0163273811340332,-5.465131286774771
1708436053.9278407,-2.1412880420684814,-1.332998440866806,-2.5259667078601282,6.108263957291403,1.0163408517837524,-5.465148989354269
1708436053.9297893,-2.141251802444458,-1.3329440367272873,-2.526013437901632,6.108227836876669,1.0162824392318726,-5.465181593094961
1708436053.931774,-2.1412384510040283,-1.3330137145570298,-2.5259667078601282,6.108257996826925,1.0163381099700928,-5.465038601552145
1708436053.9337852,-2.1412596702575684,-1.3329895448735734,-2.525971237813131,6.10826991775588,1.0163154602050781,-5.4650965372668665
1708436053.9357677,-2.1412198543548584,-1.3329984706691285,-2.5259130636798304,6.10822485664443,1.016308069229126,-5.465059463177816
1708436053.9377685,-2.141247272491455,-1.3330136996558686,-2.525935475026266,6.108193743019857,1.0162824392318726,-5.465056363736288
1708436053.9397829,-2.141268491744995,-1.3330018830350419,-2.525968376790182,6.108141290932455,1.0163004398345947,-5.465069655572073
1708436053.9417927,-2.141244888305664,-1.3329616349986573,-2.525935475026266,6.108138310700216,1.0162792205810547,-5.465065304433004
1708436053.9438033,-2.1412243843078613,-1.3329692345908661,-2.525898043309347,6.1081293700035,1.0162745714187622,-5.465027753506796
1708436053.9457588,-2.1412243843078613,-1.3330061894706269,-2.525942866002218,6.108130919724264,1.0162913799285889,-5.464962128792898
1708436053.947761,-2.1411454677581787,-1.3329824370196839,-2.525935475026266,6.108053076058187,1.0163049697875977,-5.465049986039297
1708436053.9497795,-2.141162395477295,-1.332931862478592,-2.525947395955221,6.108141171723165,1.0162254571914673,-5.464944068585531
1708436053.9517567,-2.1411702632904053,-1.3330150854638596,-2.525914494191305,6.1080665467079065,1.016255497932434,-5.464977089558737
1708436053.953796,-2.141183614730835,-1.3328991544297715,-2.525935475026266,6.108005153923788,1.0162899494171143,-5.46498150030245
1708436053.955776,-2.141192674636841,-1.3329449904016037,-2.525947395955221,6.108014094620504,1.0162479877471924,-5.464948538933889
1708436053.9577763,-2.1411845684051514,-1.332957239156105,-2.525935475026266,6.108041035919943,1.0162689685821533,-5.464936677609579
1708436053.959765,-2.141172170639038,-1.3329779517701645,-2.525944534932272,6.108015763550558,1.0162267684936523,-5.464966301118032
1708436053.9617574,-2.1411936283111572,-1.3329661053470154,-2.525893751774923,6.1079290983970544,1.0162312984466553,-5.464905087147848
1708436053.9637837,-2.141131639480591,-1.3329704862884064,-2.525923554097311,6.107905018120565,1.0161995887756348,-5.464912835751669
1708436053.9657726,-2.1411519050598145,-1.332961620097496,-2.525940004979269,6.1078975079353235,1.0162208080291748,-5.464856092129843
1708436053.967771,-2.1411449909210205,-1.3329256188920517,-2.52592641512026,6.107915627747335,1.0161741971969604,-5.464893166218893
1708436053.9697862,-2.141106605529785,-1.3329626780799408,-2.525898281727926,6.107866036682882,1.0161622762680054,-5.464893106614248
1708436053.9717703,-2.1411404609680176,-1.3329582673362275,-2.525898043309347,6.107866036682882,1.0161832571029663,-5.464885954056875
1708436053.9737878,-2.1411244869232178,-1.3329049211791535,-2.525944534932272,6.107800471573629,1.016192078590393,-5.464803699647085
1708436053.9757698,-2.141104221343994,-1.3329508167556305,-2.5258782545672815,6.107831942826071,1.0162039995193481,-5.464808110390798
1708436053.977775,-2.141120195388794,-1.3329168570092698,-2.5259280840503138,6.107822882920065,1.0161592960357666,-5.464845422898428
1708436053.9797666,-2.141047716140747,-1.3329182428172608,-2.5258992354022425,6.10779749134139,1.016208529472351,-5.464821402226583
1708436053.9817946,-2.1410768032073975,-1.3328689348748703,-2.5258992354022425,6.107768881111898,1.0161757469177246,-5.464825812970297
1708436053.98378,-2.1410634517669678,-1.3329049211791535,-2.5259326140033167,6.107758629112997,1.016180157661438,-5.464801911507742
1708436053.9857883,-2.1410634517669678,-1.3328689646771927,-2.5258618036853235,6.107730257302084,1.0162012577056885,-5.464752916489736
1708436053.987757,-2.1410679817199707,-1.3328896325877686,-2.5259326140033167,6.1077391979988,1.0161423683166504,-5.464797560368673
1708436053.9897828,-2.1410317420959473,-1.3329552424005051,-2.5258827845202845,6.107718336373129,1.016168475151062,-5.464729134236471
1708436053.9917502,-2.14104962348938,-1.3329182279160996,-2.5258873144732874,6.107743727951803,1.01618492603302,-5.464778129254476
1708436053.9937575,-2.141045093536377,-1.3329256188920517,-2.525907103215353,6.10771535614089,1.0161467790603638,-5.464770619069235
1708436053.9957871,-2.14103627204895,-1.3329225790551682,-2.5258963743792933,6.10767029502944,1.0161231756210327,-5.464725796376364
1708436053.9977663,-2.141040563583374,-1.3329015386155625,-2.5258634726153772,6.1076838848884485,1.0161186456680298,-5.464737955723898
1708436053.9997485,-2.14104962348938,-1.3328600239804764,-2.5258589426623743,6.107692944794454,1.0160645246505737,-5.464749876652853
1708436054.0017612,-2.1410088539123535,-1.3328970533660431,-2.5258708635913294,6.107659804611959,1.016144037246704,-5.46472275653948
1708436054.0037682,-2.140979528427124,-1.3328733158162613,-2.525851551686422,6.107619511872091,1.016115665435791,-5.4647719899760645
1708436054.0057874,-2.1409919261932373,-1.3329059493592759,-2.5258963743792933,6.107600199967184,1.0161774158477783,-5.464701954518453
1708436054.0077627,-2.1410176753997803,-1.3329225939563294,-2.5258782545672815,6.107649791031637,1.0161067247390747,-5.464715186749594
1708436054.0097823,-2.1409928798675537,-1.332880751495697,-2.5258634726153772,6.1075748083885095,1.0161112546920776,-5.46464848915209
1708436054.0117488,-2.140984058380127,-1.3329028499177475,-2.5258963743792933,6.107597338944235,1.0161411762237549,-5.464642111455099
1708436054.0137694,-2.141000986099243,-1.3328617227128525,-2.5258963743792933,6.10752688625411,1.0161247253417969,-5.464634601269857
1708436054.015761,-2.140986204147339,-1.3329146367362519,-2.5258424917804163,6.1075806496436975,1.0160959959030151,-5.464609448109762
1708436054.0177524,-2.14097261428833,-1.332849310045578,-2.525872532521383,6.107482182770529,1.0161247253417969,-5.464613858853475
1708436054.0198033,-2.140981435775757,-1.3329552424005051,-2.525851551686422,6.107540356903829,1.0160841941833496,-5.464613858853475
1708436054.0217464,-2.140939950942993,-1.3328983348659058,-2.5258260408984583,6.107492673188009,1.0160796642303467,-5.464581135903494
1708436054.0238056,-2.1409637928009033,-1.3328748804381867,-2.5258589426623743,6.1074174521263025,1.0160796642303467,-5.464581135903494
1708436054.0257802,-2.14097261428833,-1.332849384551384,-2.525902334843771,6.107459533005514,1.0160752534866333,-5.464585546647207
1708436054.027796,-2.140927314758301,-1.3328777116588135,-2.5258048216449183,6.1074596522148035,1.0161006450653076,-5.464640323315756
1708436054.029792,-2.140965700149536,-1.3328733158162613,-2.5258260408984583,6.107393967896261,1.016046166419983,-5.464566175137655
1708436054.0317829,-2.140923023223877,-1.3329072308591385,-2.525848690663473,6.1074209091956995,1.0160796642303467,-5.464598838482992
1708436054.0338004,-2.1409318447113037,-1.33286605895076,-2.525806252156393,6.107387769013204,1.0160388946533203,-5.464549843464987
1708436054.0357797,-2.1409363746643066,-1.3328406673720856,-2.5258544127093714,6.107413518219747,1.0160629749298096,-5.4645331541644495
1708436054.0377965,-2.1409037113189697,-1.3329312962344666,-2.525877062474386,6.107377517014303,1.0160796642303467,-5.464603249226705
1708436054.0397751,-2.140930414199829,-1.3328659993461152,-2.525797192250387,6.107335316925802,1.0160508155822754,-5.464521233235494
1708436054.0417972,-2.1409711837768555,-1.3328450334123154,-2.525818411503927,6.107368457108297,1.0160642862319946,-5.464550916348593
1708436054.0437822,-2.1409125328063965,-1.3328419488719483,-2.525877062474386,6.107365596085348,1.0160390138626099,-5.46456760564913
1708436054.0457652,-2.1408514976501465,-1.3328538698009034,-2.525839630757467,6.107311594277181,1.0160809755325317,-5.464481178914205
1708436054.047757,-2.1408469676971436,-1.3328573119691391,-2.52584416071047,6.107325064926901,1.0160809755325317,-5.464476648961202
1708436054.0497737,-2.1408638954162598,-1.3328617227128525,-2.52584416071047,6.107271301537313,1.0160553455352783,-5.4645389954196375
1708436054.051791,-2.140913486480713,-1.3328124296716233,-2.525785271321432,6.107308614044943,1.0160225629806519,-5.464498821889059
1708436054.0538049,-2.1408772468566895,-1.3328362715295334,-2.5257988611804407,6.107289302140035,1.0160598754882812,-5.464481059704916
1708436054.05576,-2.1408603191375732,-1.3328124445727845,-2.5258365313159388,6.107251632004537,1.0160553455352783,-5.464494351540701
1708436054.0577595,-2.140913486480713,-1.332849384551384,-2.525827471409933,6.107281911164083,1.0160298347473145,-5.464474980031149
1708436054.0598085,-2.1408772468566895,-1.3328419488719483,-2.5257659594165247,6.107257830887594,1.016014814376831,-5.464474980031149
1708436054.0617962,-2.1408772468566895,-1.3328004789403458,-2.5258243719684046,6.107253300934591,1.0160553455352783,-5.464467231427328
1708436054.0637956,-2.140815019607544,-1.3328451377204438,-2.525865141545431,6.1072637913520715,1.0160688161849976,-5.464471642171041
1708436054.065811,-2.140836477279663,-1.3328181070140381,-2.525848690663473,6.107217299729147,1.0160765647888184,-5.464479450379507
1708436054.0677722,-2.140856981277466,-1.3328419637731095,-2.525761429463522,6.107189285546102,1.0161067247390747,-5.4644508997546595
1708436054.069773,-2.14083194732666,-1.3328463447145005,-2.5257988611804407,6.107217299729147,1.0160315036773682,-5.46446276107897
1708436054.0718112,-2.140895128250122,-1.3328493696502228,-2.525857750569479,6.107172953873434,1.016014814376831,-5.464384202157156
1708436054.0737674,-2.1408073902130127,-1.3328212362578888,-2.525810782109396,6.1071908352668665,1.0160269737243652,-5.464447800313131
1708436054.0757902,-2.1408331394195557,-1.3328212213567276,-2.525827471409933,6.10717128494338,1.0160479545593262,-5.464455250893728
1708436054.0777931,-2.14082407951355,-1.3328792464784165,-2.5258153120623987,6.107157695084371,1.016045093536377,-5.464406255875723
1708436054.0797787,-2.140779972076416,-1.3328181070140381,-2.5257988611804407,6.107112633972921,1.0160478353500366,-5.4644269982921045
1708436054.0817788,-2.1408374309539795,-1.3328626465848465,-2.5257869402514856,6.107109772949972,1.0160058736801147,-5.464468483124868
1708436054.0837643,-2.1408419609069824,-1.3328375679305573,-2.5257795492755335,6.107112633972921,1.0159939527511597,-5.464440349732534
1708436054.0857954,-2.1408116817474365,-1.3328181219151993,-2.52582294145693,6.107151853829183,1.0160434246063232,-5.464394394551412
1708436054.0877717,-2.1408419609069824,-1.3328225922635575,-2.5257704893695276,6.107142913132467,1.015981674194336,-5.464403216038839
1708436054.0897715,-2.1408464908599854,-1.3328256171992798,-2.5257583300219935,6.107069480210104,1.016014814376831,-5.464370612298147
1708436054.0917885,-2.140763282775879,-1.3328269881061097,-2.5258410612689417,6.107093322068014,1.016040563583374,-5.464418117200033
1708436054.0937839,-2.1408047676086426,-1.3328181070140381,-2.5258124510394495,6.10702000835494,1.0160315036773682,-5.464391295109884
1708436054.0958066,-2.1408002376556396,-1.3328181070140381,-2.5257795492755335,6.107069480210104,1.0160315036773682,-5.464416507874624
1708436054.0977933,-2.1408207416534424,-1.3327940267375489,-2.5258243719684046,6.106991755753317,1.016052484512329,-5.464392666016714
1708436054.09977,-2.1408135890960693,-1.332813711171486,-2.5257750193225306,6.1070501683051965,1.0160237550735474,-5.464420978222982
1708436054.1017976,-2.1408135890960693,-1.332818092112877,-2.5257988611804407,6.107063758164205,1.0160315036773682,-5.464367214833395
1708436054.1037922,-2.1408069133758545,-1.3327851456454773,-2.5257869402514856,6.106979715615072,1.0160269737243652,-5.464355234299795
1708436054.1057596,-2.140777587890625,-1.332813711171486,-2.5257960001574915,6.106960165291586,1.016036033630371,-5.464362684880392
1708436054.1077652,-2.1407854557037354,-1.3328344237855454,-2.5257960001574915,6.106944072037496,1.016036033630371,-5.464380447064535
1708436054.1097713,-2.1408069133758545,-1.3327896308949967,-2.5257795492755335,6.1069737551505945,1.0160119533538818,-5.464388314877645
1708436054.1117957,-2.1407480239868164,-1.332798422580101,-2.5258289019214075,6.106994616776266,1.0159952640533447,-5.464359704648153
1708436054.1137915,-2.140827178955078,-1.3328181070140381,-2.5258033911334437,6.1069198725517175,1.0160119533538818,-5.464327041302816
1708436054.1157706,-2.140768527984619,-1.3328103733113785,-2.5257492701159876,6.106942403107443,1.0160237550735474,-5.464364174996511
1708436054.117759,-2.1407322883605957,-1.33279404163871,-2.5257914702044886,6.106942403107443,1.0160284042358398,-5.464315120373861
1708436054.1197658,-2.1407310962677,-1.3328225922635575,-2.5258169809924524,6.106925952225485,1.0160237550735474,-5.464384857808248
1708436054.1217663,-2.140777587890625,-1.3328358840993424,-2.5257492701159876,6.106904971390524,1.0160315036773682,-5.46433145204653
1708436054.1238039,-2.140735626220703,-1.332805947666504,-2.525813881550924,6.1069185612495325,1.016040563583374,-5.464328412209646
1708436054.1257827,-2.140763998031616,-1.3328226071647187,-2.5257960001574915,6.106880891114034,1.0159952640533447,-5.464335862790243
1708436054.1278863,-2.1407909393310547,-1.332756684427597,-2.5257583300219935,6.1069185612495325,1.016040563583374,-5.464323941861288
1708436054.129778,-2.140704870223999,-1.3328313541463395,-2.5257628599749964,6.106941091805258,1.0160030126571655,-5.46434468427767
1708436054.1317754,-2.1407277584075928,-1.3328225773623963,-2.5257840792285364,6.106952893524923,1.016014814376831,-5.464320902024404
1708436054.133794,-2.140707492828369,-1.332745061521866,-2.5257960001574915,6.10686610916213,1.015998363494873,-5.464295689259664
1708436054.13579,-2.1406803131103516,-1.3327654016068955,-2.5257704893695276,6.106840717583456,1.0160328149795532,-5.464303199444906
1708436054.137806,-2.140749216079712,-1.3328596365502854,-2.5257840792285364,6.106868970185079,1.016007423400879,-5.46425831714739
1708436054.139767,-2.140716314315796,-1.3328072291663666,-2.5258005301104944,6.106801736145773,1.0159789323806763,-5.464279059563772
1708436054.1417713,-2.1406891345977783,-1.3327851456454773,-2.5257750193225306,6.1069079516227625,1.0160284042358398,-5.464233163987295
1708436054.1437638,-2.140713691711426,-1.3328565073064347,-2.5257840792285364,6.106834876328268,1.0160164833068848,-5.464271608983175
1708436054.145786,-2.1407368183135986,-1.3327820909074326,-2.5257840792285364,6.1068094847495935,1.0159862041473389,-5.464267198239462
1708436054.1478016,-2.140681028366089,-1.3327940267375489,-2.5257840792285364,6.1068259356315515,1.0159907341003418,-5.464271608983175
1708436054.149759,-2.140681028366089,-1.3327983927777787,-2.5257960001574915,6.106789815216818,1.0159833431243896,-5.464255277310507
1708436054.151768,-2.140659809112549,-1.332798422580101,-2.5257795492755335,6.1067706225212,1.0159698724746704,-5.464238945637838
1708436054.153796,-2.1406893730163574,-1.332780734901764,-2.5258005301104944,6.106766092568197,1.0159742832183838,-5.464231137429373
1708436054.1557586,-2.140700578689575,-1.3327865910581131,-2.5257554689990442,6.106848346977987,1.0159742832183838,-5.464308981095449
1708436054.157804,-2.140681028366089,-1.3327626597932358,-2.5257795492755335,6.106786954193868,1.0160495042800903,-5.464238945637838
1708436054.159774,-2.140659809112549,-1.3327688139728089,-2.5257869402514856,6.106779682427206,1.0160102844238281,-5.464228336011068
1708436054.1617587,-2.1407182216644287,-1.3327939969352265,-2.5257960001574915,6.106812464981832,1.0160149335861206,-5.464226726685659
1708436054.1637619,-2.140681028366089,-1.3327688139728089,-2.5257824102984827,6.106739270478048,1.0159952640533447,-5.464203242455618
1708436054.1657665,-2.140622615814209,-1.3327539575150986,-2.5257795492755335,6.106753814011373,1.0159833431243896,-5.464194361363546
1708436054.1678064,-2.1406683921813965,-1.3327908974936982,-2.5257509390460413,6.1067601321037195,1.016002893447876,-5.464207593594686
1708436054.169752,-2.1406660079956055,-1.3328103435090561,-2.5257373491870325,6.106755721360006,1.0159789323806763,-5.464207593594686
1708436054.1717675,-2.1407203674316406,-1.332761065368988,-2.5258334318744105,6.10670160034255,1.015981674194336,-5.464239958916799
1708436054.1737938,-2.1406686305999756,-1.3328059327653428,-2.5257795492755335,6.106727349549093,1.0160284042358398,-5.464228336011068
1708436054.175751,-2.140702486038208,-1.332786576156952,-2.5257795492755335,6.10672281959609,1.016007423400879,-5.464195672665731
1708436054.177796,-2.1406493186950684,-1.3327376407435914,-2.5257960001574915,6.106764781266012,1.0159621238708496,-5.464203182850973
1708436054.1797578,-2.1406731605529785,-1.3327419620803376,-2.5257886091815394,6.106686937599935,1.016019344329834,-5.464220945035116
1708436054.181752,-2.140690326690674,-1.3327851307443161,-2.5257960001574915,6.106703269272604,1.0159742832183838,-5.4642327467547815
1708436054.1837883,-2.1406404972076416,-1.3327821058085938,-2.5257297197925013,6.106667268067159,1.0160284042358398,-5.464246098195211
1708436054.1857898,-2.140652656555176,-1.3327896308949967,-2.5258005301104944,6.106707799225607,1.0159952640533447,-5.464195672665731
1708436054.187826,-2.140691041946411,-1.3328225177577515,-2.5257628599749964,6.106688129692831,1.0160284042358398,-5.464179042969839
1708436054.1897988,-2.1406617164611816,-1.3327582639506836,-2.5257795492755335,6.106682407646932,1.015981674194336,-5.464200083409445
1708436054.1917646,-2.1406404972076416,-1.3327715259841462,-2.5257704893695276,6.106695878296652,1.015999674797058,-5.464183453713552
1708436054.1937964,-2.1406750679016113,-1.3327699613622208,-2.5257886091815394,6.106670129090109,1.0159952640533447,-5.4641879240619105
1708436054.1957676,-2.1406617164611816,-1.3327908974936982,-2.5257719198810022,6.106634485512533,1.0160119533538818,-5.464150730763571
1708436054.1977766,-2.1406776905059814,-1.3327908676913758,-2.5257538000689905,6.106655347138204,1.0159907341003418,-5.464164082204
1708436054.1997645,-2.1406280994415283,-1.3327419471791764,-2.5258095900165003,6.106671678810873,1.0159742832183838,-5.464168492947714
1708436054.2017896,-2.1406538486480713,-1.3327953082374115,-2.5257464090930384,6.106706130295553,1.0160119533538818,-5.4641879240619105
1708436054.2037783,-2.140630006790161,-1.3327494722655793,-2.5257509390460413,6.106627094536581,1.016007423400879,-5.464164082204
1708436054.2057762,-2.140658140182495,-1.332741917376854,-2.5257373491870325,6.106664287834921,1.015981674194336,-5.464192334805624
1708436054.2077677,-2.1406209468841553,-1.3328269732049485,-2.5257251898394983,6.106636035233297,1.0159907341003418,-5.464159671460287
1708436054.2097757,-2.140625476837158,-1.3328116548112412,-2.5258169809924524,6.106619584351339,1.016007423400879,-5.464196745549337
1708436054.2117667,-2.140625476837158,-1.332798422580101,-2.5257251898394983,6.106615173607626,1.0160164833068848,-5.464122239743368
1708436054.213821,-2.1406493186950684,-1.3328103435090561,-2.5257795492755335,6.10658227184371,1.0159952640533447,-5.464213434849874
1708436054.2157712,-2.140645742416382,-1.3327300709537049,-2.5257795492755335,6.106574523239889,1.0159907341003418,-5.464201156293051
1708436054.2177706,-2.1406006813049316,-1.3327331405929108,-2.5257628599749964,6.106619584351339,1.0160043239593506,-5.464164082204
1708436054.219774,-2.140630006790161,-1.3328072291663666,-2.5257628599749964,6.1065581915672205,1.0159907341003418,-5.464143399392263
1708436054.2217634,-2.140622854232788,-1.3327908974936982,-2.5257628599749964,6.106595742493429,1.0160284042358398,-5.464152161275045
1708436054.223833,-2.14062762260437,-1.3327331405929108,-2.5257960001574915,6.10657166221694,1.0159833431243896,-5.464213434849874
1708436054.2258184,-2.140605926513672,-1.3327908974936982,-2.5257509390460413,6.106555330544271,1.0159742832183838,-5.464159671460287
1708436054.2277796,-2.140630006790161,-1.332745061521866,-2.5257795492755335,6.106612074166097,1.0159742832183838,-5.464114967976705
1708436054.2297914,-2.1406140327453613,-1.3327419322780152,-2.5257538000689905,6.106586801796713,1.0160284042358398,-5.464168492947714
1708436054.2317696,-2.140622854232788,-1.3327821058085938,-2.5257704893695276,6.106583583145895,1.0160164833068848,-5.464147750531332
1708436054.2338264,-2.140601634979248,-1.3327376407435914,-2.5257795492755335,6.106583583145895,1.016040563583374,-5.464180413876669
1708436054.2357569,-2.140580415725708,-1.3328029078296204,-2.5257673899279993,6.106538879662313,1.015981674194336,-5.464147750531332
1708436054.2377682,-2.1406095027923584,-1.3327777099660416,-2.5257795492755335,6.1065344689186,1.0160119533538818,-5.464196805153982
1708436054.2398012,-2.140601634979248,-1.3327626448920746,-2.525734249745504,6.106576072960653,1.0160119533538818,-5.464172963296072
1708436054.241767,-2.140622854232788,-1.3327450466207047,-2.5257464090930384,6.106567132263937,1.0160043239593506,-5.464177374039785
1708436054.2437904,-2.140547513961792,-1.3327376407435914,-2.5257795492755335,6.106592523842611,1.0159952640533447,-5.464156631623403
1708436054.2458017,-2.1405563354492188,-1.3327507388642807,-2.525761429463522,6.106506097107687,1.016007423400879,-5.46411514679064
1708436054.2477753,-2.140597343444824,-1.332741917376854,-2.5257914702044886,6.106580602913656,1.0159952640533447,-5.464168492947714
1708436054.2498045,-2.140584707260132,-1.3327777099660416,-2.5257840792285364,6.106585132866659,1.015981674194336,-5.464180413876669
1708436054.2517624,-2.1405937671661377,-1.3327626597932358,-2.5257824102984827,6.106559741287985,1.0159698724746704,-5.464147750531332
1708436054.2537832,-2.1405937671661377,-1.3327908974936982,-2.5258169809924524,6.106589662819662,1.0160329341888428,-5.464193646107809
1708436054.2557702,-2.140610694885254,-1.3327654612115403,-2.5257914702044886,6.106589543610372,1.0159907341003418,-5.464119497929708
1708436054.2577927,-2.140610694885254,-1.3328116250089188,-2.5257509390460413,6.1065266011054895,1.0159907341003418,-5.464140001927511
1708436054.2599132,-2.1405653953552246,-1.3327376407435914,-2.5257914702044886,6.106538879662313,1.0159952640533447,-5.464171592389242
1708436054.2618036,-2.1405370235443115,-1.3327566546252747,-2.5257464090930384,6.10651062706069,1.0160237550735474,-5.46414435306658
1708436054.2637854,-2.1405982971191406,-1.3327742528966446,-2.5257673899279993,6.106494176178732,1.0159575939178467,-5.464168492947714
1708436054.2658088,-2.140530586242676,-1.3327997040799637,-2.5257824102984827,6.106573211937704,1.0159952640533447,-5.464131061230795
1708436054.267785,-2.140582323074341,-1.3327168238214036,-2.5257840792285364,6.106589543610372,1.0160237550735474,-5.464168492947714
1708436054.2697642,-2.1405608654022217,-1.3327654612115403,-2.5257914702044886,6.106559741287985,1.0159907341003418,-5.464176003132955
1708436054.2717865,-2.1405892372131348,-1.3327742230943223,-2.5257840792285364,6.106507646828451,1.0159833431243896,-5.464135531579153
1708436054.2737916,-2.1405441761016846,-1.3327552241138,-2.5257914702044886,6.106535661011495,1.0159863233566284,-5.464164082204
1708436054.2758002,-2.1405866146087646,-1.3327786487391968,-2.5258453528033655,6.106531131058492,1.0160030126571655,-5.464152161275045
1708436054.2778082,-2.1405327320098877,-1.3327539575150986,-2.5257464090930384,6.1065523503120325,1.0160164833068848,-5.4641311208354395
1708436054.2797658,-2.140577793121338,-1.3328116250089188,-2.5257840792285364,6.106528508454122,1.0160328149795532,-5.464222315941946
1708436054.2817616,-2.1405653953552246,-1.3327300262502213,-2.5257795492755335,6.106573211937704,1.0159698724746704,-5.464140001927511
1708436054.28379,-2.140573263168335,-1.3327742528966446,-2.5257583300219935,6.106535661011495,1.0159907341003418,-5.4641433397876185
1708436054.2857614,-2.1405699253082275,-1.3327786785415192,-2.5257960001574915,6.106523978501119,1.016023874282837,-5.4641433397876185
1708436054.2877917,-2.140521287918091,-1.3327908974936982,-2.5257795492755335,6.106523978501119,1.016019344329834,-5.464205626641409
1708436054.2897737,-2.1405742168426514,-1.3327919703773041,-2.5257960001574915,6.106519567757406,1.0159907341003418,-5.464172963296072
1708436054.291761,-2.1406028270721436,-1.3327463430217286,-2.5257840792285364,6.106478917389669,1.016040563583374,-5.4641311208354395
1708436054.293785,-2.1405892372131348,-1.3327742528966446,-2.5257914702044886,6.106573211937704,1.016019344329834,-5.464201156293051
1708436054.2957964,-2.1405982971191406,-1.3327331405929108,-2.5257840792285364,6.106519567757406,1.016007423400879,-5.464184824620382
1708436054.297793,-2.140582323074341,-1.332753987317421,-2.525776449834005,6.106540071755209,1.0159939527511597,-5.464168492947714
1708436054.2997644,-2.140577793121338,-1.3327626448920746,-2.5257464090930384,6.1065032360847376,1.0160030126571655,-5.464168492947714
1708436054.3018029,-2.1405892372131348,-1.3327820760062714,-2.5258048216449183,6.106531131058492,1.016040563583374,-5.464152161275045
1708436054.3037744,-2.1405982971191406,-1.332737610941269,-2.5257960001574915,6.106516587525167,1.016002893447876,-5.464196745549337
1708436054.3057609,-2.1406071186065674,-1.3327419471791764,-2.5257509390460413,6.106535661011495,1.016019344329834,-5.464205626641409
1708436054.30778,-2.1405653953552246,-1.3327552241138,-2.5258124510394495,6.106489646225729,1.0159862041473389,-5.464209977780477
1708436054.3097723,-2.1405937671661377,-1.3327376407435914,-2.5258455912219446,6.106543409615316,1.0160315036773682,-5.464164082204
1708436054.3117614,-2.140577793121338,-1.3327908974936982,-2.5257583300219935,6.106601583748617,1.0159772634506226,-5.4641433397876185
1708436054.3138318,-2.1405892372131348,-1.3327952486327668,-2.525825802479879,6.106544482498922,1.0160057544708252,-5.464168492947714
1708436054.315765,-2.1405699253082275,-1.3327419471791764,-2.5258005301104944,6.106467115670004,1.0160733461380005,-5.464164082204
1708436054.3178637,-2.140577793121338,-1.332767055635788,-2.5257464090930384,6.10652111747817,1.016019344329834,-5.464152161275045
1708436054.31977,-2.1405484676361084,-1.3327997040799637,-2.5257704893695276,6.106544601708212,1.0159939527511597,-5.464180413876669
1708436054.321808,-2.1405608654022217,-1.3327670407346268,-2.5257988611804407,6.106498586922445,1.0160315036773682,-5.464164082204
1708436054.3238046,-2.1405911445617676,-1.332786576156952,-2.5257659594165247,6.106565820961752,1.016014814376831,-5.464172963296072
1708436054.3257773,-2.1405327320098877,-1.3327001494220276,-2.5257750193225306,6.106507527619161,1.015998363494873,-5.464180413876669
1708436054.3278382,-2.1406071186065674,-1.332762674694397,-2.5258169809924524,6.10647605636672,1.0160644054412842,-5.464113358651296
1708436054.3297746,-2.1405653953552246,-1.332798422580101,-2.5257583300219935,6.106490957527914,1.0160269737243652,-5.464147750531332
1708436054.331766,-2.1405653953552246,-1.3327301007560273,-2.5257750193225306,6.1065852520759485,1.0160102844238281,-5.464171592389242
1708436054.333815,-2.1405937671661377,-1.3327786487391968,-2.5257795492755335,6.1065032360847376,1.0160315036773682,-5.464168492947714
1708436054.33577,-2.140582323074341,-1.3327002686313172,-2.5257869402514856,6.106589543610372,1.0160225629806519,-5.464180413876669
1708436054.3377924,-2.140582323074341,-1.332704709177353,-2.5257914702044886,6.106515037804403,1.0160102844238281,-5.464196745549337
1708436054.3397875,-2.140577793121338,-1.3327996295741578,-2.5257704893695276,6.106573211937704,1.016019344329834,-5.464152161275045
1708436054.341767,-2.1405742168426514,-1.3327463430217286,-2.5257704893695276,6.106531131058492,1.0160553455352783,-5.464147750531332
1708436054.3438058,-2.1405699253082275,-1.332753987317421,-2.5258005301104944,6.106528508454122,1.0160343647003174,-5.464220885430471
1708436054.3457673,-2.140573263168335,-1.3327507239631196,-2.5257824102984827,6.106565820961752,1.0160642862319946,-5.464122299348013
1708436054.3478277,-2.1405529975891113,-1.3327419620803376,-2.5258050600634974,6.106498706131735,1.0160598754882812,-5.464150790368215
1708436054.349782,-2.1405982971191406,-1.3327786338380356,-2.5257988611804407,6.1065032360847376,1.0160434246063232,-5.464152161275045
1708436054.3517754,-2.1406028270721436,-1.3327952337316056,-2.5257628599749964,6.1065523503120325,1.0160225629806519,-5.464164082204
1708436054.3538225,-2.1405696868896484,-1.332733229999878,-2.5258124510394495,6.106470095902242,1.0160269737243652,-5.464176003132955
1708436054.3557625,-2.140551805496216,-1.3327699464610596,-2.5258005301104944,6.1065523503120325,1.0160642862319946,-5.464200083409445
1708436054.3577902,-2.140507698059082,-1.3327786338380356,-2.5258243719684046,6.106531131058492,1.0160343647003174,-5.464195672665731
1708436054.359761,-2.140582323074341,-1.3327952337316056,-2.5257914702044886,6.106519567757406,1.016018033027649,-5.464195672665731
1708436054.3617554,-2.1405282020568848,-1.3327626448920746,-2.5258289019214075,6.106589543610372,1.0160675048828125,-5.4641833941089075
1708436054.3637977,-2.1405563354492188,-1.3327214133790513,-2.5257988611804407,6.1065688011939905,1.016088843345642,-5.464183453713552
1708436054.3657537,-2.1405131816864014,-1.332697109585144,-2.5258243719684046,6.106561291008749,1.0160841941833496,-5.464216355477468
1708436054.3677752,-2.1405982971191406,-1.3327908527902146,-2.525832001362936,6.106477367668905,1.0160843133926392,-5.464220885430471
1708436054.3698032,-2.1405653953552246,-1.3327829849771042,-2.5257914702044886,6.106580602913656,1.0160796642303467,-5.464191261922018
1708436054.371754,-2.1405911445617676,-1.3327699464610596,-2.5258124510394495,6.106535661011495,1.0160841941833496,-5.46423721710314
1708436054.3737924,-2.1405484676361084,-1.3327463430217286,-2.5257988611804407,6.1065032360847376,1.0160961151123047,-5.464244369660513
1708436054.3757687,-2.1405892372131348,-1.3327507239631196,-2.5258033911334437,6.1065688011939905,1.0161292552947998,-5.4642120043384
1708436054.3778079,-2.1405982971191406,-1.3327256006053467,-2.5258033911334437,6.106523978501119,1.0160915851593018,-5.464219574128286
1708436054.3798223,-2.140584707260132,-1.3327866059592743,-2.5258365313159388,6.106519567757406,1.0161247253417969,-5.464247767125265
1708436054.381793,-2.1405529975891113,-1.3327654910138627,-2.5257869402514856,6.106523978501119,1.0161395072937012,-5.464289251958029
1708436054.3837733,-2.1405327320098877,-1.3327463430217286,-2.525832001362936,6.106515037804403,1.0161514282226562,-5.464272979890005
1708436054.3857563,-2.1405911445617676,-1.3327407103827973,-2.5258033911334437,6.106507646828451,1.016144037246704,-5.464268628750936
1708436054.3877797,-2.140582323074341,-1.332790808086731,-2.5258198420154017,6.106481897621908,1.0161514282226562,-5.464255277310507
1708436054.389765,-2.1405324935913086,-1.3326959323934098,-2.525832001362936,6.1065523503120325,1.0161067247390747,-5.464271608983175
1708436054.3917584,-2.1405608654022217,-1.3327213835767289,-2.525848690663473,6.106523978501119,1.0161230564117432,-5.464313391839163
1708436054.393785,-2.140582323074341,-1.3327626448920746,-2.5258455912219446,6.106561291008749,1.0161467790603638,-5.464230064545767
1708436054.3957832,-2.1405282020568848,-1.3327047240785141,-2.5258198420154017,6.1065642712409876,1.0161395072937012,-5.464316550885336
1708436054.3977625,-2.1405892372131348,-1.3327331405929108,-2.5257750193225306,6.106519567757406,1.0161423683166504,-5.464365486298696
1708436054.399757,-2.140573263168335,-1.3327376556447526,-2.525810782109396,6.1065032360847376,1.0161231756210327,-5.464365486298696
1708436054.401768,-2.1405742168426514,-1.3327463430217286,-2.5258153120623987,6.106576072960653,1.0161638259887695,-5.4642943183528345
1708436054.4037702,-2.1405608654022217,-1.3327714812806626,-2.525860611592428,6.106567132263937,1.016168475151062,-5.464328352605001
1708436054.4057772,-2.1405563354492188,-1.3327507239631196,-2.525832001362936,6.106567251473226,1.016168475151062,-5.464389268551962
1708436054.4078012,-2.1405937671661377,-1.3327582639506836,-2.5258153120623987,6.106573211937704,1.016180157661438,-5.464306298886434
1708436054.4097986,-2.1405484676361084,-1.3327582639506836,-2.525810782109396,6.106573211937704,1.016196608543396,-5.464356605206625
1708436054.4117856,-2.1405484676361084,-1.3327090454152604,-2.525810782109396,6.106522190361776,1.016192078590393,-5.464327041302816
1708436054.4138355,-2.1405982971191406,-1.3327507239631196,-2.525832001362936,6.106559741287985,1.016196608543396,-5.464327041302816
1708436054.4158163,-2.1406161785125732,-1.3327908527902146,-2.525818411503927,6.106531131058492,1.0161757469177246,-5.464322630559103
1708436054.417774,-2.1405742168426514,-1.3327451360276719,-2.525818411503927,6.106588113098898,1.016213059425354,-5.464359704648153
1708436054.4198017,-2.140521287918091,-1.3327463430217286,-2.52586800256838,6.106506097107687,1.0162343978881836,-5.464376036320822
1708436054.4217572,-2.140547513961792,-1.332725690012314,-2.525839630757467,6.106604802399435,1.0162041187286377,-5.464374963437216
1708436054.423791,-2.1405608654022217,-1.3327463430217286,-2.525797192250387,6.106538879662313,1.0161668062210083,-5.464383844529287
1708436054.4258127,-2.1405529975891113,-1.332733229999878,-2.525794331227438,6.106609332352438,1.0161832571029663,-5.464374963437216
1708436054.427876,-2.1404998302459717,-1.3327419620803376,-2.525865141545431,6.106538879662313,1.0162129402160645,-5.464370552693502
1708436054.4298258,-2.1405608654022217,-1.3327654910138627,-2.525818411503927,6.10657166221694,1.0161668062210083,-5.464386884366171
1708436054.4317799,-2.1405608654022217,-1.3327626448920746,-2.525839630757467,6.106592523842611,1.0162208080291748,-5.464415136967794
1708436054.4338264,-2.1405699253082275,-1.3327134263566514,-2.5258334318744105,6.106592523842611,1.0161950588226318,-5.4644508997546595
1708436054.4357698,-2.1405653953552246,-1.3327670407346268,-2.5258634726153772,6.106576192169943,1.016202688217163,-5.464397493992941
1708436054.4377632,-2.1405327320098877,-1.3327539724162598,-2.525851551686422,6.106604802399435,1.0162371397018433,-5.4644522110568445
1708436054.4397585,-2.1405529975891113,-1.332737685447075,-2.525921885167257,6.106576192169943,1.0162208080291748,-5.464410726224081
1708436054.441759,-2.1405866146087646,-1.3327626448920746,-2.5259128252612513,6.106586801796713,1.016207218170166,-5.464438978825704
1708436054.4437716,-2.1405699253082275,-1.332786576156952,-2.5258799234973353,6.106604802399435,1.0162327289581299,-5.464443389569418
1708436054.4457603,-2.1405892372131348,-1.3327463430217286,-2.5258992354022425,6.106595742493429,1.016244888305664,-5.464488271866934
1708436054.447768,-2.140582323074341,-1.3327742379954834,-2.5259128252612513,6.106607663422384,1.0162525177001953,-5.464430157338278
1708436054.4497836,-2.1405866146087646,-1.332737685447075,-2.5258753935443323,6.106598722725668,1.0162326097488403,-5.464474980031149
1708436054.4517684,-2.1405394077301025,-1.3328084361604233,-2.5258918444262903,6.106579053192892,1.0162100791931152,-5.4644628206836146
1708436054.4537873,-2.1405563354492188,-1.3327995997718354,-2.525888744984762,6.1066404459770105,1.0162267684936523,-5.4644628206836146
1708436054.4557812,-2.140573263168335,-1.3327699464610596,-2.5258453528033655,6.106633174210348,1.0162267684936523,-5.46448249021639
1708436054.4577649,-2.1405608654022217,-1.3327331852963944,-2.5259082953082483,6.106615054398336,1.0162190198898315,-5.464524273072378
1708436054.4597747,-2.1405653953552246,-1.3327829849771042,-2.5258827845202845,6.106591212540426,1.0162599086761475,-5.464512173329489
1708436054.4617622,-2.1405653953552246,-1.3327865612557908,-2.5258708635913294,6.1066568968589685,1.0162599086761475,-5.4645448366748255
1708436054.4637747,-2.1405911445617676,-1.332728849058487,-2.525884453450338,6.106598722725668,1.0162479877471924,-5.464512113724844
1708436054.465788,-2.1405699253082275,-1.3327463579228898,-2.5258663336383265,6.106628525048055,1.0162627696990967,-5.464498821889059
1708436054.4677994,-2.140557289123535,-1.3327376705459137,-2.5259416739093226,6.106628525048055,1.0162599086761475,-5.464515451584951
1708436054.469776,-2.140573263168335,-1.3327786785415192,-2.5258365313159388,6.106619584351339,1.0162672996520996,-5.464535895978109
1708436054.4717705,-2.1405608654022217,-1.3327582043460389,-2.5259116331683558,6.106652366905966,1.0163004398345947,-5.46448249021639
1708436054.4737608,-2.140523672103882,-1.3327331852963944,-2.5259371439563196,6.1066181538398645,1.0162553787231445,-5.4645066300975245
1708436054.475787,-2.1405608654022217,-1.3327344220927735,-2.525848452244894,6.10667775848464,1.0162837505340576,-5.464534584675924
1708436054.4777572,-2.1405937671661377,-1.3327610802701493,-2.5259280840503138,6.10662995555953,1.0163171291351318,-5.464513901864187
1708436054.4797575,-2.1405563354492188,-1.332750753765442,-2.5259490648852747,6.106643426209249,1.0163171291351318,-5.464550916348593
1708436054.4817708,-2.1405653953552246,-1.3327715408853074,-2.525947395955221,6.106659757881918,1.0162837505340576,-5.464567546044485
1708436054.4837565,-2.1405441761016846,-1.332762674694397,-2.525956455861227,6.106613623886862,1.0163172483444214,-5.464576307927267
1708436054.485772,-2.1405982971191406,-1.3328146648458024,-2.525947395955221,6.10670160034255,1.0163154602050781,-5.4645631353007715
1708436054.487801,-2.1405653953552246,-1.3327627193978806,-2.5259206930743616,6.106622564583578,1.0163036584854126,-5.464571956788198
1708436054.4897637,-2.140523672103882,-1.3327463281205674,-2.5259206930743616,6.106697070389547,1.0162959098815918,-5.464549843464987
1708436054.4917574,-2.140584707260132,-1.3327830147794266,-2.5259116331683558,6.106716739922323,1.0163408517837524,-5.464558664952413
1708436054.493758,-2.1405699253082275,-1.332761065368988,-2.525893513356344,6.106688129692831,1.0163036584854126,-5.464567546044485
1708436054.4957612,-2.140519142150879,-1.3327331852963944,-2.5259280840503138,6.106634485512533,1.0163575410842896,-5.464542035256521
1708436054.4977674,-2.1405484676361084,-1.3327583235553284,-2.5259116331683558,6.106650817185201,1.016319990158081,-5.464567546044485
1708436054.4997957,-2.140577793121338,-1.3327939969352265,-2.525944534932272,6.106691348343649,1.0163785219192505,-5.464541975651876
1708436054.5017679,-2.1405699253082275,-1.332795338039734,-2.5259326140033167,6.106691348343649,1.016329050064087,-5.464504961167471
1708436054.5038035,-2.1406071186065674,-1.3328192395022889,-2.525944534932272,6.106683718949117,1.016303539276123,-5.4645572940455835
1708436054.5057871,-2.1406028270721436,-1.3327376556447526,-2.52590257326235,6.106662857323446,1.016339659690857,-5.4645243922816675
1708436054.5077672,-2.140577793121338,-1.3327952784350892,-2.525905434285299,6.106655347138204,1.0163319110870361,-5.464566175137655
1708436054.5097928,-2.1405608654022217,-1.3327451062253495,-2.525942866002218,6.1067049382026575,1.016319990158081,-5.464585606251852
1708436054.5117693,-2.1405608654022217,-1.3327539575150986,-2.525893751774923,6.106683718949117,1.0163319110870361,-5.464594427739279
1708436054.513767,-2.1405441761016846,-1.3327699464610596,-2.525935475026266,6.106674659043112,1.0163319110870361,-5.464557353650228
1708436054.5157614,-2.1405699253082275,-1.332761050467827,-2.525893751774923,6.106670129090109,1.0163486003875732,-5.464569274579183
1708436054.517771,-2.1405484676361084,-1.3327212792686005,-2.52596098581423,6.106625544815817,1.0163785219192505,-5.464521292840139
1708436054.5197663,-2.1406116485595703,-1.3327419471791764,-2.525930945073263,6.1067049382026575,1.0163440704345703,-5.464590016995565
1708436054.5217743,-2.1405982971191406,-1.332761065368988,-2.525914494191305,6.1066627381141565,1.0163604021072388,-5.464573685322897
1708436054.5237942,-2.1406071186065674,-1.332807184462883,-2.525942866002218,6.106670129090109,1.016351580619812,-5.4645825068103235
1708436054.5258324,-2.1405563354492188,-1.3327699464610596,-2.525923554097311,6.106646406441488,1.0163723230361938,-5.464594487343923
1708436054.5277932,-2.1405892372131348,-1.3327777248672028,-2.525972906743185,6.1067168591316126,1.0163679122924805,-5.4645825068103235
1708436054.5297775,-2.140547513961792,-1.3327742528966446,-2.525992457066671,6.106632816582479,1.016351580619812,-5.464640323315756
1708436054.53177,-2.1405653953552246,-1.3327742379954834,-2.52598482767214,6.106665599137106,1.016330599784851,-5.464554313813345
1708436054.5337722,-2.1405653953552246,-1.3327495020679017,-2.525996987019674,6.106658208161154,1.0163440704345703,-5.464610759411947
1708436054.5357997,-2.1405372619628906,-1.3327742528966446,-2.525959316884176,6.106686818390646,1.0163768529891968,-5.464610759411947
1708436054.5377662,-2.1405575275421143,-1.3326957088759919,-2.52598482767214,6.106715190201559,1.0163559913635254,-5.4645705858813685
1708436054.5397935,-2.1405653953552246,-1.3327821058085938,-2.525959316884176,6.1066627381141565,1.0163679122924805,-5.464597527180807
1708436054.5417833,-2.1405394077301025,-1.3328160506537934,-2.5259667078601282,6.106691348343649,1.0163469314575195,-5.464594427739279
1708436054.5437737,-2.1406185626983643,-1.3327896159938355,-2.525992457066671,6.106686818390646,1.0163800716400146,-5.4646523038493555
1708436054.5457637,-2.1405351161956787,-1.332798422580101,-2.525975767766134,6.106716739922323,1.0164058208465576,-5.464569334183828
1708436054.5477655,-2.140577793121338,-1.332807184462883,-2.525996987019674,6.1066627381141565,1.016387701034546,-5.46457809606661
1708436054.5497622,-2.1405529975891113,-1.3327626597932358,-2.5259879271136683,6.106665718346395,1.0163800716400146,-5.464594427739279
1708436054.551781,-2.1405653953552246,-1.3327777248672028,-2.5260375181781214,6.10675727108077,1.0164085626602173,-5.464533213769094
1708436054.5537918,-2.1405394077301025,-1.3327287596515198,-2.5259667078601282,6.106665599137106,1.0164058208465576,-5.464573685322897
1708436054.5557764,-2.1405563354492188,-1.3328278821757813,-2.525980297719137,6.106662857323446,1.0163588523864746,-5.464566175137655
1708436054.5578167,-2.140615224838257,-1.332807184462883,-2.525971237813131,6.10669885852889,1.0163588523864746,-5.464598838482992
1708436054.5597684,-2.140523672103882,-1.3327742677978058,-2.5259833971606653,6.1066627381141565,1.016387701034546,-5.4645825068103235
1708436054.5617712,-2.140631914138794,-1.3327540022185822,-2.5259295145617884,6.106682407646932,1.0163922309875488,-5.464573685322897
1708436054.5638058,-2.1405892372131348,-1.3327168685248871,-2.525951925908224,6.106685268669882,1.0163922309875488,-5.464610759411947
1708436054.565765,-2.1405699253082275,-1.3327626597932358,-2.525909964238302,6.106683718949117,1.0163922309875488,-5.464607659970419
1708436054.5677662,-2.140582323074341,-1.3327654910138627,-2.525971237813131,6.106623756676473,1.0163710117340088,-5.464561764393942
1708436054.5697625,-2.140582323074341,-1.3327821058085938,-2.5259743372546595,6.106682407646932,1.0164085626602173,-5.4645243922816675
1708436054.5717587,-2.1406028270721436,-1.3327908378890534,-2.5259879271136683,6.1066778776939294,1.0163922309875488,-5.464603249226705
1708436054.573783,-2.140615224838257,-1.332790882592537,-2.525971237813131,6.106616484909811,1.0163620710372925,-5.464590016995565
1708436054.575767,-2.1405415534973145,-1.3327777248672028,-2.5259833971606653,6.106694209366598,1.0163967609405518,-5.464598838482992
1708436054.577794,-2.1405608654022217,-1.3327777248672028,-2.52600866953005,6.106703269272604,1.0163800716400146,-5.464590016995565
1708436054.5797741,-2.1405563354492188,-1.3327786487391968,-2.525971237813131,6.1066733477409265,1.0163666009902954,-5.4645705858813685
1708436054.5817695,-2.1405653953552246,-1.3327287298491974,-2.525980297719137,6.106745469361105,1.016416072845459,-5.464640323315756
1708436054.5838017,-2.1405892372131348,-1.3327376556447526,-2.52595025697817,6.1067004082496545,1.016411542892456,-5.4646270910846155
1708436054.5858107,-2.1406071186065674,-1.3327787232450028,-2.525992457066671,6.106719720154562,1.0163922309875488,-5.464635912572042
1708436054.5877938,-2.140584945678711,-1.3327742528966446,-2.5259788672076624,6.106703269272604,1.016404151916504,-5.464549843464987
1708436054.5897882,-2.1405653953552246,-1.332795263533928,-2.5259576479541224,6.106715190201559,1.0164581537246704,-5.464573685322897
1708436054.5917754,-2.140577793121338,-1.3327507835677643,-2.525971237813131,6.10671232917861,1.016395092010498,-5.46457809606661
1708436054.5938146,-2.140582323074341,-1.332767055635788,-2.5260074774371546,6.106670129090109,1.016416072845459,-5.464594427739279
1708436054.595786,-2.1405415534973145,-1.3328029078296204,-2.525992457066671,6.106686818390646,1.016411542892456,-5.464545432721273
1708436054.597799,-2.1405563354492188,-1.3328028929284592,-2.5259667078601282,6.106733190804281,1.016416072845459,-5.4645825068103235
1708436054.5997555,-2.1405699253082275,-1.332789660697319,-2.525971237813131,6.106740939408102,1.0164445638656616,-5.464594427739279
1708436054.6017518,-2.1405575275421143,-1.3327821058085938,-2.5259998480426233,6.106740939408102,1.0163787603378296,-5.464603249226705
1708436054.6038084,-2.1405653953552246,-1.3327134561589737,-2.525971237813131,6.106686818390646,1.0164445638656616,-5.464594487343923
1708436054.605778,-2.140507698059082,-1.33283585429702,-2.5259907881366175,6.106766330986776,1.0164238214492798,-5.464561764393942
1708436054.6077847,-2.1405653953552246,-1.3327777248672028,-2.5259879271136683,6.106698739319601,1.0164282321929932,-5.4646151701556605
1708436054.6097634,-2.1405937671661377,-1.332719938164093,-2.5259621779071253,6.106715190201559,1.016432762145996,-5.464623991643087
1708436054.6117618,-2.1405608654022217,-1.3327494275620957,-2.5260043779956263,6.106653678208151,1.016432762145996,-5.464557353650228
1708436054.613801,-2.1405327320098877,-1.3327654761127015,-2.5260210672961634,6.106674659043112,1.016449213027954,-5.464585606251852
1708436054.615796,-2.1406028270721436,-1.3328014773181458,-2.5260165373431605,6.106804835587301,1.0164401531219482,-5.46457809606661
1708436054.6177952,-2.1405484676361084,-1.3327244085124512,-2.5259667078601282,6.106715190201559,1.0164446830749512,-5.464574996625082
1708436054.6197624,-2.140573263168335,-1.3327984076789399,-2.5260165373431605,6.1067168591316126,1.0164899826049805,-5.464561764393942
1708436054.6217592,-2.1406071186065674,-1.3327821058085938,-2.5259788672076624,6.106694209366598,1.0164356231689453,-5.464545432721273
1708436054.6237879,-2.1405982971191406,-1.3327821058085938,-2.5260120073901575,6.106641757279196,1.0164220333099365,-5.464586917554037
1708436054.6257849,-2.140573263168335,-1.332810328607895,-2.5260120073901575,6.106737720757284,1.0164777040481567,-5.464607659970419
1708436054.6277835,-2.1405608654022217,-1.332810328607895,-2.5260494391070765,6.106653678208151,1.0164523124694824,-5.4645705858813685
1708436054.6298208,-2.1405394077301025,-1.332798348074295,-2.5259907881366175,6.106721269875326,1.0164613723754883,-5.46457809606661
1708436054.6317892,-2.1406071186065674,-1.3327566993287583,-2.5259862581836146,6.106691348343649,1.0164356231689453,-5.464552942906515
1708436054.633804,-2.1405982971191406,-1.3327331852963944,-2.5260329882251185,6.106682407646932,1.0164356231689453,-5.46459132829775
1708436054.63579,-2.1406071186065674,-1.3327654761127015,-2.5259953180896204,6.106724130898275,1.0164401531219482,-5.46459132829775
1708436054.6378074,-2.1406028270721436,-1.332790882592537,-2.5260120073901575,6.106703269272604,1.0164777040481567,-5.464594427739279
1708436054.6397717,-2.140582323074341,-1.3327970814755936,-2.5259862581836146,6.106686818390646,1.0164777040481567,-5.464549843464987
1708436054.6417675,-2.140573263168335,-1.3327330958894272,-2.5259984175311487,6.106719720154562,1.0164597034454346,-5.46457809606661
1708436054.6437814,-2.1405484676361084,-1.332795263533928,-2.5260074774371546,6.106653678208151,1.0164265632629395,-5.464569274579183
1708436054.645761,-2.1405608654022217,-1.3328115803054352,-2.5259879271136683,6.106727349549093,1.0164777040481567,-5.464606348668234
1708436054.6477826,-2.1405415534973145,-1.3327777248672028,-2.5259862581836146,6.106682407646932,1.0164432525634766,-5.464594427739279
1708436054.649767,-2.1406240463256836,-1.332786576156952,-2.5259998480426233,6.106733190804281,1.0164686441421509,-5.4645825068103235
1708436054.65177,-2.1405608654022217,-1.3328103584102173,-2.5260120073901575,6.106691348343649,1.0164356231689453,-5.464590016995565
1708436054.6537695,-2.1405787467956543,-1.3328191947988053,-2.5259788672076624,6.106719600945272,1.0164642333984375,-5.464585606251852
1708436054.6557667,-2.1405653953552246,-1.3328014773181458,-2.5260570685016077,6.106740820198812,1.0164432525634766,-5.46457809606661
1708436054.6577854,-2.1405653953552246,-1.3327376556447526,-2.5260193983661097,6.10671232917861,1.0164642333984375,-5.46462715068926
1708436054.6597617,-2.1405608654022217,-1.332805947666504,-2.5259652773486536,6.106658208161154,1.0164763927459717,-5.464615229760305
1708436054.661758,-2.1405529975891113,-1.3328401309302826,-2.5260193983661097,6.106749999314108,1.0165425539016724,-5.4646077195750635
1708436054.6637588,-2.1405608654022217,-1.3327688586762925,-2.5259984175311487,6.106658208161154,1.0164973735809326,-5.464590016995565
1708436054.6660361,-2.140582323074341,-1.332810328607895,-2.5260403792010706,6.10667775848464,1.0164883136749268,-5.46457809606661
1708436054.6678047,-2.1405370235443115,-1.332810328607895,-2.526048008595602,6.106731879502096,1.0164719820022583,-5.464549783860342
1708436054.6697724,-2.1405982971191406,-1.3327896457961579,-2.5260029474841517,6.106719600945272,1.0164551734924316,-5.464594427739279
1708436054.671771,-2.140573263168335,-1.3328147244504471,-2.5260120073901575,6.10672281959609,1.0164674520492554,-5.464586917554037
1708436054.673775,-2.1405742168426514,-1.332786576156952,-2.5260029474841517,6.106698739319601,1.0164928436279297,-5.46460193792452
1708436054.6757703,-2.140514850616455,-1.3328147244504471,-2.5260403792010706,6.106739270478048,1.0164793729782104,-5.46460330883135
1708436054.6777792,-2.1405866146087646,-1.3328115803054352,-2.5260358492480677,6.106694209366598,1.0164597034454346,-5.46457809606661
1708436054.679789,-2.1405699253082275,-1.3327821058085938,-2.5260358492480677,6.106691348343649,1.016463041305542,-5.464569214974539
1708436054.6817667,-2.140594005584717,-1.3328639727881928,-2.5260029474841517,6.106689679413595,1.0164958238601685,-5.464590016995565
1708436054.6837645,-2.1405415534973145,-1.3327733290246506,-2.5260029474841517,6.106736409455099,1.0164839029312134,-5.464573625718252
1708436054.6857653,-2.140547513961792,-1.3327494871667405,-2.5260148684131067,6.10678397396163,1.0165337324142456,-5.464573625718252
1708436054.6877754,-2.1405441761016846,-1.3327733290246506,-2.526052538548605,6.106769192009725,1.0165075063705444,-5.464624110852377
1708436054.6897566,-2.1405394077301025,-1.3328358244946976,-2.5260403792010706,6.106730448990621,1.016533613204956,-5.464610819016592
1708436054.6917622,-2.1405608654022217,-1.3328028929284592,-2.5260148684131067,6.106742250710287,1.016512155532837,-5.464585546647207
1708436054.6937933,-2.1405892372131348,-1.3328181070140381,-2.5259984175311487,6.106737720757284,1.0164822340011597,-5.464597407971517
1708436054.695766,-2.1405441761016846,-1.3327777248672028,-2.526043478642599,6.1067824242408655,1.0165456533432007,-5.464598838482992
1708436054.6977563,-2.1405699253082275,-1.3328313541463395,-2.526076618825094,6.10674928405837,1.0165319442749023,-5.464618269597189
1708436054.6998007,-2.1405563354492188,-1.332810328607895,-2.526050869618551,6.106775033264913,1.0165573358535767,-5.464634601269857
1708436054.7017717,-2.1405866146087646,-1.3328432750752945,-2.526038948689596,6.1068153260047815,1.0165201425552368,-5.464642051850454
1708436054.7037876,-2.1405787467956543,-1.3327644777349015,-2.526072088872091,6.106824266701498,1.0165648460388184,-5.464639071618215
1708436054.7057595,-2.140507698059082,-1.3327688586762925,-2.5260630289660853,6.10681842544631,1.0165438652038574,-5.4646509925471705
1708436054.7078042,-2.1405351161956787,-1.332810328607895,-2.526084009801046,6.106801736145773,1.0165815353393555,-5.4646212498294275
1708436054.7097652,-2.1405608654022217,-1.3327494871667405,-2.526050869618551,6.106867658882894,1.016588807106018,-5.464667681847708
1708436054.711766,-2.1405911445617676,-1.3328014773181458,-2.5260959307300013,6.106846797257223,1.0165934562683105,-5.464678112660543
1708436054.7137694,-2.1405441761016846,-1.332805947666504,-2.5261123816119593,6.106870639115133,1.0166056156158447,-5.464666191731588
1708436054.7157674,-2.1406028270721436,-1.332809330230095,-2.5260914007769983,6.1068915007408044,1.0166386365890503,-5.464710835610525
1708436054.717796,-2.1405563354492188,-1.3327318590930481,-2.5260959307300013,6.106887089997091,1.016603946685791,-5.464710835610525
1708436054.7197654,-2.140606164932251,-1.3327763986638566,-2.5260749498950403,6.10691117027358,1.016608476638794,-5.464730207120077
1708436054.7217908,-2.140547513961792,-1.3328507405570527,-2.5261033217059534,6.10688995102004,1.016641616821289,-5.464751366768972
1708436054.7238204,-2.1405563354492188,-1.332810328607895,-2.5261197725879114,6.106906640320577,1.0166490077972412,-5.464749876652853
1708436054.7257743,-2.140615224838257,-1.3328551960042496,-2.5261362234698694,6.106909620552816,1.0166730880737305,-5.464761737977163
1708436054.7278175,-2.1405653953552246,-1.3328300279429932,-2.526176993046896,6.106946933060446,1.0166807174682617,-5.464766267930166
1708436054.7297745,-2.1405982971191406,-1.33282125115905,-2.5261107126819056,6.106963622360983,1.0166761875152588,-5.464801851903097
1708436054.7317827,-2.1405441761016846,-1.3328419488719483,-2.526097122822897,6.107005107193746,1.0166971683502197,-5.464793090020315
1708436054.733793,-2.1405742168426514,-1.3328670275262375,-2.526163403187887,6.106957661896505,1.0166926383972168,-5.464793090020315
1708436054.7357588,-2.140606164932251,-1.3328225773623963,-2.526156012211935,6.106950151711263,1.016704797744751,-5.46481687227358
1708436054.7378078,-2.1405441761016846,-1.3328538698009034,-2.526172463093893,6.107002246170797,1.01674222946167,-5.464849952851431
1708436054.739778,-2.140514850616455,-1.3328582507422944,-2.526172463093893,6.107039677887716,1.0167241096496582,-5.464869324360983
1708436054.7417836,-2.1405999660491943,-1.3328344088843842,-2.526170794163839,6.107005226403036,1.0166867971420288,-5.464878205453054
1708436054.7438185,-2.1405696868896484,-1.3328582507422944,-2.526158873234884,6.107046949654379,1.0167529582977295,-5.464905087147848
1708436054.745761,-2.140584707260132,-1.3328344088843842,-2.526125971470968,6.106993305474081,1.0167813301086426,-5.464909497891561
1708436054.7477756,-2.1405937671661377,-1.3329027903131028,-2.5261991659747522,6.107062089234152,1.016802191734314,-5.464945499097006
1708436054.7497945,-2.14062762260437,-1.3328704994967957,-2.5261827150927942,6.107082950859823,1.0167887210845947,-5.464920286332266
1708436054.7517638,-2.140577793121338,-1.3328582507422944,-2.526187245045797,6.10713957527236,1.0167964696884155,-5.464936618004934
1708436054.7537766,-2.140584707260132,-1.3328463298133393,-2.5262203852282923,6.107094871788778,1.016808271408081,-5.465006534253256
1708436054.7557628,-2.1405820846557617,-1.3328940135291596,-2.5261977354632776,6.107135164528646,1.0168535709381104,-5.464927677308218
1708436054.7577763,-2.1405892372131348,-1.3328375679305573,-2.5262444655047815,6.1070889113243005,1.0168579816818237,-5.46502918401827
1708436054.7597609,-2.140526056289673,-1.3328777116588135,-2.5262113253222864,6.107129323273458,1.016877293586731,-5.465033773575918
1708436054.761772,-2.1406140327453613,-1.3328375679305573,-2.5262563864337366,6.107174145966329,1.0169062614440918,-5.465033773575918
1708436054.7638142,-2.1405937671661377,-1.3328573417714615,-2.5262773672686976,6.10719524601058,1.0169181823730469,-5.465048615132467
1708436054.7657547,-2.1405487060546875,-1.3328896325877686,-2.526259247456686,6.107244241028585,1.016897201538086,-5.465135161076681
1708436054.7678075,-2.1405892372131348,-1.3328529608300705,-2.526254717503683,6.107200848847189,1.016921043395996,-5.465101067219869
1708436054.7698007,-2.140610694885254,-1.3328733307174225,-2.526254717503683,6.107254969864645,1.0169826745986938,-5.465150181447164
1708436054.7717626,-2.1405866146087646,-1.3328820180943985,-2.526287857686178,6.107191788941183,1.0170159339904785,-5.465153459702627
1708436054.7738266,-2.140577793121338,-1.3329225790551682,-2.52627140680422,6.1072953818138025,1.0169813632965088,-5.465168301259176
1708436054.7757971,-2.140643358230591,-1.3328807663968583,-2.52625018755068,6.10725616195754,1.0169858932495117,-5.4651639501201075
1708436054.7778175,-2.140622854232788,-1.3328440946391602,-2.526300017033712,6.1072847721870325,1.0170141458511353,-5.4651594201671045
1708436054.7798183,-2.1405892372131348,-1.3328896325877686,-2.5263074080096644,6.107289302140035,1.0170336961746216,-5.465224866067068
1708436054.7817628,-2.140575885772705,-1.3329626333764573,-2.5263147989856165,6.107320534973898,1.017026424407959,-5.4652279059039515
1708436054.7838163,-2.1406095027923584,-1.3329269599965592,-2.5263403097735804,6.107341515808859,1.0170550346374512,-5.465249005948202
1708436054.7857883,-2.1406185626983643,-1.3329388809255143,-2.5263357798205774,6.107304203301229,1.0170533657073975,-5.465260926877157
1708436054.787788,-2.140606164932251,-1.3329344999841233,-2.5263567606555384,6.107356536179342,1.0170369148254395,-5.465287808571951
1708436054.7897894,-2.140575885772705,-1.3329344999841233,-2.5263312498675745,6.107408988266744,1.0171103477478027,-5.465290729199545
1708436054.7917643,-2.1405928134918213,-1.332937554722168,-2.5263643900500696,6.107380378037252,1.0171228647232056,-5.4652655760394495
1708436054.7937706,-2.1405882835388184,-1.3328960847905655,-2.5263553301440638,6.107434379845419,1.0171300172805786,-5.4653223792659205
1708436054.7957888,-2.140634298324585,-1.3329286736300965,-2.526388470326559,6.10739682891921,1.0171464681625366,-5.4653343001948755
1708436054.7977645,-2.140667200088501,-1.332930014734604,-2.5263553301440638,6.107400166779318,1.0171539783477783,-5.465413037930624
1708436054.7997668,-2.140641450881958,-1.332918183212616,-2.526421133671896,6.107426392823019,1.0171539783477783,-5.465395275746481
1708436054.8017747,-2.140625476837158,-1.332937554722168,-2.526362959538595,6.107465731888571,1.0171403884887695,-5.465411607419149
1708436054.8037739,-2.1406502723693848,-1.3329344999841233,-2.526391331349508,6.107492673188009,1.0172066688537598,-5.4654356876956385
1708436054.8057544,-2.140606164932251,-1.332921252851822,-2.5263732115374964,6.107504594116964,1.0172278881072998,-5.465434316788809
1708436054.8077633,-2.1405961513519287,-1.3329661053470154,-2.5264409224139612,6.107455003052511,1.017214298248291,-5.465483311806814
1708436054.8097892,-2.140632390975952,-1.332875059252121,-2.526424233113424,6.107500064163961,1.0172336101531982,-5.46552819410433
1708436054.8117685,-2.1405961513519287,-1.3329582524350663,-2.5264106432544153,6.107577669411459,1.0172290802001953,-5.465535585080282
1708436054.8137937,-2.1406209468841553,-1.332918183212616,-2.5264559427844446,6.107514965325155,1.0172576904296875,-5.465528134499685
1708436054.815784,-2.1406538486480713,-1.3329661053470154,-2.5264769236194056,6.1075641987617395,1.0172863006591797,-5.46554667154421
1708436054.8177872,-2.140636920928955,-1.3329868030599137,-2.5264392534839075,6.107550608902731,1.0172607898712158,-5.465571407471792
1708436054.8197565,-2.1406447887420654,-1.3329661053470154,-2.5264347235309046,6.107597338944235,1.0173267126083374,-5.465595189725057
1708436054.8217566,-2.1406571865081787,-1.3329243075898667,-2.526421133671896,6.107613789826193,1.017317771911621,-5.465647462998525
1708436054.8237913,-2.1406404972076416,-1.332933173780777,-2.5265007654773157,6.1075912592704675,1.0173312425613403,-5.4656816760646265
1708436054.8257554,-2.1406617164611816,-1.3330027920058747,-2.52651292482485,6.10767029502944,1.017358422279358,-5.465659741555349
1708436054.8277915,-2.140658140182495,-1.3329705011895676,-2.526508394871847,6.107628571778097,1.017346739768982,-5.46559310356249
1708436054.8297694,-2.1406357288360596,-1.3329572540572663,-2.526533905659811,6.107640731125631,1.0173912048339844,-5.4656657616244715
1708436054.8317997,-2.1406731605529785,-1.3329616349986573,-2.526494805012838,6.107643353730001,1.0173945426940918,-5.465665702019827
1708436054.833756,-2.1406991481781006,-1.3329080057195206,-2.5265279451953333,6.107713806420126,1.0173990726470947,-5.465703074132101
1708436054.8357728,-2.1406357288360596,-1.3329647791436692,-2.526499334965841,6.107686745911398,1.0173687934875488,-5.465677920972006
1708436054.8377612,-2.140702247619629,-1.3329231452992936,-2.5265517870532435,6.107679354935446,1.0173687934875488,-5.465734724198477
1708436054.8397572,-2.140702486038208,-1.3330105555108567,-2.5265398661242884,6.107682215958395,1.0174307823181152,-5.4657390157329
1708436054.8417609,-2.140707015991211,-1.3329735559276124,-2.5265563170062464,6.107724416046896,1.0174050331115723,-5.465774420891897
1708436054.8437846,-2.1406493186950684,-1.3329036992839356,-2.5265517870532435,6.107760178833761,1.0174500942230225,-5.465799872075216
1708436054.8458111,-2.1406900882720947,-1.3329124611667176,-2.5265353361712855,6.107755648880758,1.0174832344055176,-5.465733532105581
1708436054.8477654,-2.1406946182250977,-1.3329111498645325,-2.5264976660357874,6.1077884314353845,1.0174741744995117,-5.465798739586965
1708436054.849751,-2.140697956085205,-1.3329852384379883,-2.5265427271472376,6.1077884314353845,1.0174484252929688,-5.4658477942096155
1708436054.8517532,-2.140713691711426,-1.332976372247078,-2.5265801588641565,6.107816684037008,1.0174365043640137,-5.465785507355825
1708436054.853786,-2.140681028366089,-1.3330093187144776,-2.526545588170187,6.107779490738668,1.0175282955169678,-5.4658390323268335
1708436054.8557696,-2.1406848430633545,-1.3330105555108567,-2.5265336672412317,6.107849943428793,1.0175026655197144,-5.465858105813162
1708436054.8577657,-2.1406946182250977,-1.3329895448735734,-2.526583258305685,6.1078200218971155,1.0175145864486694,-5.465861622487203
1708436054.8597937,-2.140681028366089,-1.3329852384379883,-2.526604477559225,6.1077942726905725,1.0174967050552368,-5.465866092835562
1708436054.8617587,-2.1407368183135986,-1.3329930168441315,-2.526604477559225,6.10783480384902,1.017498254776001,-5.465861562882559
1708436054.863789,-2.140709400177002,-1.33305078864608,-2.526578728352682,6.107780682831564,1.0175179243087769,-5.46586919227709
1708436054.8657677,-2.140672445297241,-1.3329779368690033,-2.5265982786761683,6.107908236771383,1.0175251960754395,-5.46586919227709
1708436054.8677883,-2.140697956085205,-1.3329930168441315,-2.526602808629171,6.107849943428793,1.0175416469573975,-5.4658735434161585
1708436054.8697743,-2.1407253742218018,-1.3329807680896302,-2.52661639848818,6.10789583900527,1.0175628662109375,-5.465868000184194
1708436054.8717763,-2.1407368183135986,-1.3329807680896302,-2.5266385714160364,6.107875096588888,1.0175704956054688,-5.465868000184194
1708436054.8738086,-2.1407296657562256,-1.332956002359726,-2.5266311804400843,6.107845532685079,1.017573356628418,-5.46590090194811
1708436054.8757646,-2.1407182216644287,-1.3329960715821763,-2.5266056696521204,6.107867944031515,1.017573356628418,-5.465838555489675
1708436054.8777823,-2.1407296657562256,-1.3329675954631348,-2.5266597906695765,6.107920157700338,1.0175987482070923,-5.4658929149257105
1708436054.8797736,-2.1407387256622314,-1.33304979026828,-2.5266311804400843,6.107859003334799,1.017594337463379,-5.465953711663381
1708436054.8817976,-2.1407182216644287,-1.3330704879811783,-2.5266385714160364,6.107915627747335,1.017615556716919,-5.465957228337423
1708436054.8838122,-2.140681028366089,-1.3330181998065491,-2.5266476313220423,6.107861506729879,1.0175987482070923,-5.46597803035845
1708436054.8857982,-2.1406936645507812,-1.3330212396434327,-2.5266462008105677,6.107894646912374,1.017626166343689,-5.466018382702963
1708436054.8878229,-2.140685558319092,-1.3330242794803162,-2.5266643206225794,6.107915508538046,1.0175930261611938,-5.4659897724734705
1708436054.8897817,-2.140676975250244,-1.3330168587020417,-2.5266838709460657,6.10790370681838,1.017626166343689,-5.4660096804248255
1708436054.8917902,-2.140707015991211,-1.3330942404321213,-2.5266717115985315,6.107911097794332,1.0176424980163574,-5.465923074875967
1708436054.893813,-2.1407454013824463,-1.3330287051251908,-2.5266462008105677,6.107869016915121,1.0176424980163574,-5.465981070195333
1708436054.8957775,-2.1407179832458496,-1.3330572706511994,-2.526691261922018,6.107899176865377,1.0176576375961304,-5.466041926537649
1708436054.8977675,-2.140702486038208,-1.3330660474351426,-2.52667481104006,6.107943880348959,1.0176711082458496,-5.466004017983572
1708436054.8997674,-2.140643835067749,-1.3331224781325837,-2.5267329851733606,6.107923018723287,1.017711877822876,-5.466037336980001
1708436054.9017503,-2.1407454013824463,-1.3330321472934266,-2.526649061833517,6.107923018723287,1.017723798751831,-5.466037396584646
1708436054.903795,-2.140685558319092,-1.3330067557147522,-2.526703182850973,6.107885706215658,1.0176784992218018,-5.466008428727285
1708436054.9057648,-2.1406891345977783,-1.333057240848877,-2.526719633732931,6.107931959420004,1.0177074670791626,-5.466037396584646
1708436054.9078095,-2.140659809112549,-1.3331049096635361,-2.52669865289797,6.1078858254249475,1.0177356004714966,-5.466061715279714
1708436054.9097602,-2.1406900882720947,-1.3330930036357422,-2.526752535496847,6.107952940254965,1.0176938772201538,-5.466046218072073
1708436054.9117875,-2.140709400177002,-1.3330973845771332,-2.5267604033099573,6.107906567841329,1.0177311897277832,-5.466082219277517
1708436054.9137933,-2.1406686305999756,-1.3331168603948136,-2.526715103779928,6.107960688858785,1.0177552700042725,-5.466082278882162
1708436054.9158251,-2.1406900882720947,-1.3331049245646973,-2.5267677942859095,6.107915508538046,1.0177671909332275,-5.466024402772085
1708436054.9177935,-2.1406641006469727,-1.33319907010112,-2.5267391840564173,6.107948410301962,1.0177794694900513,-5.466064755116598
1708436054.919764,-2.140648126602173,-1.3331364852241059,-2.5267885367022913,6.107861625939169,1.0177838802337646,-5.466110948716299
1708436054.9217558,-2.140686511993408,-1.3331704300693055,-2.5267887751208704,6.107849943428793,1.0177748203277588,-5.466064755116598
1708436054.9237998,-2.140686511993408,-1.3331660789302369,-2.5267706553088587,6.10783480384902,1.0178033113479614,-5.4660362044917505
1708436054.9257922,-2.1405882835388184,-1.333164782529213,-2.5267723242389124,6.10789583900527,1.0178439617156982,-5.46606165567507
1708436054.9277935,-2.140571355819702,-1.3331647676280518,-2.526825014744894,6.107846724777975,1.0178602933883667,-5.466064755116598
1708436054.929787,-2.140634298324585,-1.333193228845932,-2.526794497166769,6.10781096199111,1.0177899599075317,-5.466060403977529
1708436054.931758,-2.140573263168335,-1.333163858657219,-2.52682334581484,6.107806551247396,1.0178468227386475,-5.466081027184622
1708436054.9337783,-2.1405484676361084,-1.3331682843020936,-2.526856247578756,6.10780035236434,1.0178799629211426,-5.466089848672048
1708436054.9358206,-2.1405222415924072,-1.3332409274629136,-2.526893440877096,6.1077391979988,1.0179040431976318,-5.466093305741445
1708436054.9377806,-2.1405436992645264,-1.3333020818284531,-2.5268800894366663,6.107751118927755,1.0179412364959717,-5.466002408658163
1708436054.939768,-2.140455484390259,-1.3332395863584061,-2.5268846193896692,6.107736336975851,1.0178860425949097,-5.466060463582174
1708436054.9417534,-2.140446186065674,-1.3332932901433487,-2.526911799107687,6.107625472336569,1.0179431438446045,-5.466060403977529
1708436054.9437847,-2.1404099464416504,-1.3332725030234833,-2.5268710295306605,6.107670414238729,1.0179579257965088,-5.466044131909506
1708436054.945806,-2.14031982421875,-1.3332471263459702,-2.526952091847555,6.107615101128378,1.018007755279541,-5.466088835393087
1708436054.947761,-2.1403286457061768,-1.3333288890174408,-2.526943031941549,6.107619511872091,1.0179941654205322,-5.466031853352682
1708436054.9497573,-2.1402580738067627,-1.3333364737084885,-2.5269203821765345,6.107531416207113,1.0180935859680176,-5.466122750435964
1708436054.9517887,-2.140233278274536,-1.333315910106041,-2.5269866625415247,6.1074490425880334,1.0181082487106323,-5.466093305741445
1708436054.9537861,-2.1401360034942627,-1.3334139448455353,-2.527039353047506,6.107522594719686,1.018087387084961,-5.466084484254019
1708436054.9557784,-2.140040874481201,-1.3333832335523148,-2.527085844670431,6.107416498451986,1.0181442499160767,-5.466076676045553
1708436054.9577887,-2.139968156814575,-1.3334483814290543,-2.5270944277392786,6.107316124230184,1.018195629119873,-5.466063503419058
1708436054.9597824,-2.1398932933807373,-1.3334963929704209,-2.5271366278277796,6.107218849449911,1.0182360410690308,-5.466125849877493
1708436054.9617722,-2.139838218688965,-1.3334625375321885,-2.527168099080221,6.10712622383193,1.0182437896728516,-5.466067854558126
1708436054.9637702,-2.1397128105163574,-1.333536521797516,-2.5272071997271937,6.107081520348348,1.018272042274475,-5.4660396615611475
1708436054.9657652,-2.1396546363830566,-1.3335430485061188,-2.527285401021139,6.106967437058248,1.0182676315307617,-5.466121379529135
1708436054.9677873,-2.139514207839966,-1.3336042028716584,-2.527318302785055,6.106912600785055,1.0183247327804565,-5.466093305741445
1708436054.969789,-2.1393930912017822,-1.3335985106280823,-2.5273495356189173,6.106776344567098,1.0183864831924438,-5.466035310422079
1708436054.9717743,-2.1393074989318848,-1.333618940120079,-2.527367655430929,6.106611954956808,1.018356204032898,-5.466035310422079
1708436054.973793,-2.1391308307647705,-1.333683506851532,-2.5273705164538782,6.1064504263694666,1.0183924436569214,-5.466106478367941
1708436054.975815,-2.1390185356140137,-1.3337561053088685,-2.5274081865893763,6.106451976090231,1.0184811353683472,-5.466118280087606
1708436054.9777908,-2.1388745307922363,-1.3337267202189942,-2.5274844805346888,6.106276023178854,1.018496036529541,-5.46607226530184
1708436054.9797895,-2.1387269496917725,-1.3337267500213166,-2.5275071302997034,6.106045591622152,1.018560528755188,-5.466057304536001
1708436054.9817538,-2.138530969619751,-1.3337909442237397,-2.5275564829455774,6.105911004334249,1.0185846090316772,-5.466031853352682
1708436054.983771,-2.1384172439575195,-1.3338803511909028,-2.527609173451559,6.105738746910848,1.0186254978179932,-5.466084484254019
1708436054.9857564,-2.138183832168579,-1.3339117777398606,-2.527623955403463,6.105505811959066,1.018688440322876,-5.466088835393087
1708436054.9877584,-2.1379761695861816,-1.3338746291450043,-2.5276511351214808,6.105269419937887,1.0187788009643555,-5.466105107461111
1708436054.9897587,-2.1377968788146973,-1.3339257848313828,-2.527719799672262,6.105067956238546,1.0188719034194946,-5.466084484254019
1708436054.9917657,-2.137556552886963,-1.3339539480260392,-2.5277753512011927,6.104849684029379,1.018897533416748,-5.466055874024526
1708436054.993782,-2.1373443603515625,-1.3340137761882325,-2.527844492589132,6.104553687363424,1.0189907550811768,-5.466093305741445
1708436054.995773,-2.1371140480041504,-1.3340300184539338,-2.5279045740710657,6.10430263259963,1.0190702676773071,-5.466109577809469
1708436054.9977615,-2.136916399002075,-1.3341235530427475,-2.5279975573169153,6.104023444443502,1.0191800594329834,-5.466060403977529
1708436054.9997673,-2.136561870574951,-1.3340768975070496,-2.528060499821798,6.103785502701559,1.0192099809646606,-5.466093246136801
1708436055.0017855,-2.136333703994751,-1.3341497492841263,-2.5281174818622034,6.103468167572775,1.0193195343017578,-5.46606165567507
1708436055.003774,-2.1360461711883545,-1.3342465174249192,-2.528135363255636,6.103173959046163,1.019396424293518,-5.466088835393087
1708436055.005788,-2.1357553005218506,-1.3342703145793458,-2.5282238165484827,6.102877962380209,1.0194956064224243,-5.4660691062556666
1708436055.007789,-2.1354472637176514,-1.3343005788377305,-2.5283408800708216,6.102501022606649,1.019624948501587,-5.466064755116598
1708436055.00977,-2.1350958347320557,-1.3343853217414399,-2.5284040609942835,6.102146613388815,1.0197527408599854,-5.466031853352682
1708436055.0117595,-2.1347527503967285,-1.3344531220248719,-2.5284999052630823,6.101719248085775,1.0199342966079712,-5.466048483048574
1708436055.013783,-2.1344213485717773,-1.334549756055214,-2.5286455790149134,6.101443040161886,1.0200589895248413,-5.4660155216800135
1708436055.0157635,-2.1340463161468506,-1.3345475655845185,-2.5287743250476282,6.100945222168722,1.0201491117477417,-5.4660691062556666
1708436055.0177886,-2.1337647438049316,-1.3346443188241501,-2.528832737599508,6.1006284830863855,1.020281434059143,-5.4660155216800135
1708436055.019752,-2.1332831382751465,-1.3346919131330033,-2.528961960469381,6.100134598999777,1.0204302072525024,-5.466077927743093
1708436055.0217779,-2.1328718662261963,-1.3347845685533066,-2.529060665761129,6.099737274437704,1.0205925703048706,-5.466106478367941
1708436055.0237615,-2.1324284076690674,-1.3348322671702881,-2.5292211214648646,6.099259125977316,1.020747184753418,-5.466036264096395
1708436055.0257788,-2.131953239440918,-1.3349606704762955,-2.5293710867511194,6.098733055382528,1.0208795070648193,-5.466028753911154
1708436055.0278022,-2.1315438747406006,-1.3350563508323212,-2.529477659855978,6.0981671688850305,1.0211005210876465,-5.466028753911154
1708436055.0297787,-2.13102388381958,-1.3351074618152161,-2.5296502749072474,6.097626197129049,1.0212856531143188,-5.465975526963369
1708436055.0317645,-2.130532741546631,-1.3351748150638123,-2.5297775904284876,6.097062933235922,1.0214613676071167,-5.466019932423727
1708436055.0337863,-2.129997491836548,-1.335270420914032,-2.529904905949728,6.096568333893575,1.0217032432556152,-5.466024402772085
1708436055.0358083,-2.129490852355957,-1.3354115200093766,-2.5300865809070032,6.096001612931051,1.021850347518921,-5.466057244931356
1708436055.0378084,-2.128925323486328,-1.3354702156833191,-2.5302167574511927,6.095409619599142,1.0220788717269897,-5.466015640889303
1708436055.0397708,-2.128420829772949,-1.3356116575053711,-2.5303683916675013,6.094851720124044,1.0223212242126465,-5.46606165567507
1708436055.0417838,-2.1279404163360596,-1.3356617552093049,-2.5305455366717737,6.09424518325881,1.0224997997283936,-5.466082278882162
1708436055.0437727,-2.1272943019866943,-1.3357692670873185,-2.5307298342334192,6.093606579094686,1.0227208137512207,-5.466024402772085
1708436055.0457723,-2.1266908645629883,-1.335861713891365,-2.5309067408191126,6.092948066979208,1.022950530052185,-5.466045025979177
1708436055.0477662,-2.126032829284668,-1.3359278750470658,-2.5310779253589075,6.092225897103109,1.0231986045837402,-5.466045025979177
1708436055.0497708,-2.125433921813965,-1.3360769611648102,-2.5313432852374476,6.091526257782736,1.023479700088501,-5.466024402772085
1708436055.0517614,-2.1247432231903076,-1.3362288188985367,-2.5315216223346155,6.090792047768392,1.0237189531326294,-5.466060403977529
1708436055.0537832,-2.124044418334961,-1.3362998825362702,-2.5317509810077112,6.090008604317465,1.024020791053772,-5.466033045445577
1708436055.0557702,-2.123410940170288,-1.3364508909038086,-2.531959597264425,6.089280593186178,1.0242114067077637,-5.466077927743093
1708436055.0577636,-2.1226797103881836,-1.3365702790072937,-2.5321784655200403,6.088469016342916,1.0245301723480225,-5.4660362044917505
1708436055.05976,-2.122011661529541,-1.3366290491870423,-2.532370630894796,6.087713229447164,1.024781346321106,-5.466027502213613
1708436055.0617623,-2.121251106262207,-1.3367975813201447,-2.532624069844381,6.086785304337301,1.025087833404541,-5.466015581284658
1708436055.0637803,-2.120429277420044,-1.3369291883758088,-2.5328968206988733,6.085964071541586,1.0253674983978271,-5.466089848672048
1708436055.065794,-2.1196672916412354,-1.3370933395675202,-2.533123556767599,6.085041868477621,1.0257585048675537,-5.466031912957327
1708436055.0677667,-2.118828296661377,-1.3372531992248078,-2.5333378950702112,6.084170567780294,1.0260812044143677,-5.466094259415762
1708436055.0697742,-2.1180944442749023,-1.3373443496278306,-2.5336347262011927,6.083228575974264,1.0264555215835571,-5.466077927743093
1708436055.0717795,-2.1171765327453613,-1.3374498945525666,-2.533949677144186,6.082307207375326,1.0267138481140137,-5.466117028390066
1708436055.0737839,-2.116333246231079,-1.33762280762706,-2.5341716448413294,6.081223714142599,1.0270670652389526,-5.466081027184622
1708436055.0758004,-2.115464687347412,-1.3378159266761322,-2.534431044255392,6.080240118294515,1.0274280309677124,-5.466103915368215
1708436055.077767,-2.1145498752593994,-1.3379939806512375,-2.5347607771502894,6.079256164818563,1.0278140306472778,-5.466112677250997
1708436055.0797675,-2.113645076751709,-1.3381668639234086,-2.5351057688342493,6.078289377480306,1.0281550884246826,-5.4661365191089075
1708436055.0818086,-2.1126418113708496,-1.338280813103058,-2.53538948694338,6.077299821167745,1.0285310745239258,-5.466176633034841
1708436055.0837924,-2.111778974533081,-1.3384599697640915,-2.53566819826235,6.076256143837728,1.0288994312286377,-5.466196362172262
1708436055.085776,-2.1107425689697266,-1.3386202913573761,-2.5359681288348597,6.075088965683737,1.0293031930923462,-5.466257158909933
1708436055.0877678,-2.1097097396850586,-1.3388725382140656,-2.5362587610827845,6.073996889382162,1.0296924114227295,-5.466211144124166
1708436055.0897567,-2.1087465286254883,-1.339011625652649,-2.5365963617907923,6.07284568527297,1.0301417112350464,-5.46629631916155
1708436055.0917633,-2.107675790786743,-1.3392039996436615,-2.5369370619403284,6.07165156581954,1.0305252075195312,-5.466324512158529
1708436055.0937788,-2.1066389083862305,-1.3393910390189667,-2.5372679869281214,6.070504057198324,1.0310478210449219,-5.466327730809347
1708436055.0957606,-2.1055727005004883,-1.3395496022752305,-2.53760272661318,6.069296109467306,1.0314598083496094,-5.4664170185672205
1708436055.0977943,-2.104438543319702,-1.3396530759385605,-2.538006369267599,6.068094599037924,1.0319615602493286,-5.4664082566844385
1708436055.0997825,-2.103294849395752,-1.3399771016887208,-2.5383029619800013,6.066823589592733,1.0324722528457642,-5.466443959866659
1708436055.101762,-2.1021697521209717,-1.3401517432979126,-2.5386973063098353,6.065531718521871,1.0329424142837524,-5.466435257588522
1708436055.1037712,-2.101020097732544,-1.3402985495379944,-2.53904372850527,6.064303862839498,1.0333725214004517,-5.4664910475360315
1708436055.1057715,-2.09982967376709,-1.340539277797081,-2.539403740559713,6.063067662506857,1.03392493724823,-5.466518942509786
1708436055.107779,-2.098625659942627,-1.3407467317632218,-2.539794985448019,6.061684357910909,1.0343765020370483,-5.466550592576162
1708436055.1097589,-2.097465991973877,-1.340957374577858,-2.5402162710772913,6.060411917954244,1.0349055528640747,-5.466606918965475
1708436055.1117837,-2.0962250232696533,-1.3412013214877625,-2.540607754384176,6.059017407685079,1.0353893041610718,-5.466634277497427
1708436055.1137722,-2.094949960708618,-1.341420755987503,-2.5410624186145228,6.05765067318038,1.03596830368042,-5.466748599206106
1708436055.1157575,-2.093632936477661,-1.3416109395078202,-2.5414400736438196,6.05620442607955,1.0364309549331665,-5.4667996803866785
1708436055.117757,-2.092385768890381,-1.3417886656573792,-2.541873280202047,6.054777371674337,1.037034034729004,-5.466761593018667
1708436055.119756,-2.091059923171997,-1.3420292151025315,-2.542262856160299,6.053313720017233,1.0376170873641968,-5.4668758551227015
1708436055.1217542,-2.0897326469421387,-1.3422566068223496,-2.542703453694479,6.051871287613668,1.038132667541504,-5.4669310490237635
1708436055.123778,-2.0883450508117676,-1.3425209683230896,-2.54315692583193,6.050257193833151,1.038738489151001,-5.466950360928671
1708436055.1257675,-2.087034225463867,-1.3427274537137528,-2.543621603642599,6.048753726273336,1.0393118858337402,-5.4670103828059595
1708436055.1277976,-2.0855960845947266,-1.3429991167834778,-2.544044558201925,6.0472062704856775,1.0398846864700317,-5.467016522084371
1708436055.1298053,-2.08414363861084,-1.343201072221138,-2.544532601033346,6.045689570694723,1.0404859781265259,-5.467101577912466
1708436055.1318138,-2.0827226638793945,-1.3434728992036362,-2.544983688985006,6.044004785805502,1.0411206483840942,-5.467161361371176
1708436055.1338174,-2.0812695026397705,-1.3437439066222687,-2.5454800764666956,6.042439210205831,1.0417307615280151,-5.467256967221395
1708436055.1357698,-2.0798146724700928,-1.3439544153264542,-2.545971695576803,6.040779578476705,1.0423346757888794,-5.467309002076284
1708436055.1378334,-2.0783162117004395,-1.3442052912763138,-2.5464587847339075,6.039158570557394,1.0430066585540771,-5.467367712651388
1708436055.1397643,-2.076796531677246,-1.344529778962471,-2.546964708958761,6.037474977761068,1.0436064004898071,-5.467431906853811
1708436055.1417532,-2.075249671936035,-1.344760076408722,-2.547546688710348,6.0358126042182825,1.0442014932632446,-5.467528824006216
1708436055.1437786,-2.073789358139038,-1.345014439230301,-2.548028055821554,6.034175383835592,1.0448881387710571,-5.4675708452807825
1708436055.1457646,-2.0721542835235596,-1.3452859383872529,-2.5485342184649866,6.032485353737631,1.045568823814392,-5.467721168194906
1708436055.1477969,-2.070587158203125,-1.3456145238927384,-2.5491164366351526,6.030722486763754,1.0462758541107178,-5.4677234331714075
1708436055.1498003,-2.069017171859741,-1.3459183436683197,-2.5496395269977015,6.029029714852133,1.0469540357589722,-5.46787536541094
1708436055.1517622,-2.0673763751983643,-1.3461723786643525,-2.5502005259143274,6.027162658959188,1.0476053953170776,-5.467890445386068
1708436055.1538312,-2.0657413005828857,-1.3463819038918992,-2.5507238546954554,6.025438296585836,1.0482908487319946,-5.468060318623678
1708436055.1557727,-2.06410551071167,-1.3466805529645463,-2.5512967745410364,6.023563968926229,1.0489728450775146,-5.468106989060537
1708436055.1577828,-2.062354803085327,-1.3469392222217103,-2.5518646875964563,6.021646964340963,1.0496342182159424,-5.468199376259939
1708436055.1597674,-2.0606584548950195,-1.3472558867982407,-2.552460257207052,6.019808518677511,1.0503270626068115,-5.468290690575735
1708436055.1617637,-2.0589394569396973,-1.3475221556476136,-2.553016726170675,6.017913567810812,1.0510318279266357,-5.468361262475149
1708436055.163759,-2.057185649871826,-1.3478671622327347,-2.5536485354052942,6.0159997818763635,1.0518269538879395,-5.468432609234945
1708436055.165758,-2.0554099082946777,-1.3481454116157074,-2.554251734410421,6.01409279087142,1.052556037902832,-5.468552474175588
1708436055.1677644,-2.0535688400268555,-1.3484684389880677,-2.5548558870898646,6.012125599175253,1.0534112453460693,-5.46864360967745
1708436055.1697752,-2.0517959594726562,-1.3487793368152161,-2.555472437535421,6.010183560639181,1.0541702508926392,-5.468776587639944
1708436055.1717625,-2.049921751022339,-1.3490900707295914,-2.55611759821047,6.008177864342489,1.055043339729309,-5.468912128602163
1708436055.1737673,-2.048099994659424,-1.3494408440640946,-2.5567646662341517,6.006205427437582,1.0558817386627197,-5.469027225171224
1708436055.175754,-2.0462729930877686,-1.3498025995543976,-2.5573514143573206,6.004130947380819,1.0566486120224,-5.469160262738363
1708436055.1777766,-2.0444273948669434,-1.3501080137542267,-2.558018747960226,6.002119052201071,1.0575110912322998,-5.46926331916918
1708436055.17979,-2.042569637298584,-1.3503974390080948,-2.5586352984057825,6.00004659870223,1.058312177658081,-5.469371859227316
1708436055.1817906,-2.040567398071289,-1.3507205855897446,-2.5592859427081507,5.997992145806112,1.059143304824829,-5.469420854245321
1708436055.1837978,-2.0386552810668945,-1.3510478299907227,-2.559924904500143,5.995899545937338,1.0599684715270996,-5.469568912182943
1708436055.1857684,-2.0366880893707275,-1.3514427554658432,-2.560622278844015,5.993792998581686,1.0608477592468262,-5.469740454350607
1708436055.1877933,-2.03472638130188,-1.3517506134561081,-2.561270777379171,5.99159466007308,1.0616185665130615,-5.4698466698275965
1708436055.1897857,-2.032733917236328,-1.3521763992360611,-2.5619972387896937,5.989419567375936,1.0625190734863281,-5.4700127879725855
1708436055.1917584,-2.0306849479675293,-1.3525261294892807,-2.5626843611346644,5.987228858261862,1.063360333442688,-5.470181588326589
1708436055.1937675,-2.028615951538086,-1.3528968852809449,-2.5633934179889124,5.984965908318319,1.0642096996307373,-5.470320586358206
1708436055.1957579,-2.026602268218994,-1.3532572400620957,-2.564096752797262,5.982803094177999,1.0650824308395386,-5.470450524483816
1708436055.1977656,-2.024562120437622,-1.3536633414081116,-2.5647993723498743,5.980489241867819,1.0659815073013306,-5.470552329217092
1708436055.1997616,-2.022481918334961,-1.3540338587811966,-2.565516773854391,5.97821723201827,1.0668994188308716,-5.470761601124899
1708436055.2017586,-2.0203328132629395,-1.3544276666692276,-2.5662933031665247,5.975952970772543,1.0678778886795044,-5.470909182225363
1708436055.203766,-2.018186092376709,-1.3548786354115983,-2.5670374075519007,5.973625886231222,1.0688101053237915,-5.471064750348226
1708436055.2057722,-2.01603627204895,-1.3552868974259873,-2.5677550474749964,5.971295583039083,1.0697381496429443,-5.471266273652212
1708436055.2078004,-2.0139212608337402,-1.3556719434312363,-2.5684848467456263,5.969018447190084,1.0707248449325562,-5.471370820199148
1708436055.2098107,-2.0117266178131104,-1.356152967815735,-2.5692604223834437,5.966729986458578,1.0716238021850586,-5.471547547970907
1708436055.211777,-2.009556531906128,-1.3565182399800797,-2.5700164476977747,5.96437035778121,1.072536826133728,-5.471755270157949
1708436055.2137797,-2.007276773452759,-1.3569530111602326,-2.570754591618673,5.962010013848104,1.0735021829605103,-5.471903149281637
1708436055.2157853,-2.005009651184082,-1.357362614279129,-2.571563784276144,5.959600317269125,1.0744765996932983,-5.472115401421682
1708436055.2177792,-2.002772569656372,-1.357752488260605,-2.572299305592672,5.957270133286276,1.0753865242004395,-5.47228712240328
1708436055.2197928,-2.00061297416687,-1.3581626278213044,-2.5730353037463587,5.954938518791952,1.0763232707977295,-5.472478274499075
1708436055.2217653,-1.9984335899353027,-1.3585450214198609,-2.573759142552511,5.952571141510763,1.0772526264190674,-5.472615722809927
1708436055.2237887,-1.9962592124938965,-1.3590171051076432,-2.5745394865619105,5.9503129599388025,1.0781443119049072,-5.472765151654379
1708436055.225761,-1.9941264390945435,-1.3593744349530716,-2.5752626101123255,5.947964894562521,1.0791000127792358,-5.472920660172598
1708436055.2277534,-1.9918766021728516,-1.3598137211850663,-2.5760276953326624,5.945572244911947,1.079991102218628,-5.473198239003317
1708436055.2297752,-1.9896734952926636,-1.3601797235063096,-2.576813522969381,5.943172323494711,1.0809727907180786,-5.47335255542864
