Eg3-git/Classifiers/Data Collection/u8/u8abc4_ur3e_joint_states.csv
time,elbow_joint,shoulder_lift_joint,shoulder_pan_joint,wrist_1_joint,wrist_2_joint,wrist_3_joint
1708442878.908452,-2.141822338104248,-1.3332844537547608,-2.5259550253497522,6.109742271691122,1.0160752534866333,-2.8655265013324183
1708442878.9104338,-2.1418144702911377,-1.3332514625838776,-2.5259562174426478,6.1097168801124475,1.016061782836914,-2.865592066441671
1708442878.9125004,-2.141793966293335,-1.333293394451477,-2.525942866002218,6.109752881317892,1.0161454677581787,-2.8655546347247522
1708442878.914462,-2.141789674758911,-1.3332470220378418,-2.5259550253497522,6.109707939415731,1.0160752534866333,-2.8655384222613733
1708442878.9164987,-2.1417534351348877,-1.3332963746837159,-2.5259221235858362,6.109728801041403,1.0160462856292725,-2.8655632177936
1708442878.9184659,-2.141793966293335,-1.3332800281098862,-2.5259385744677942,6.109724390297689,1.0161112546920776,-2.8655501047717493
1708442878.9204495,-2.1418356895446777,-1.333281473522522,-2.5259385744677942,6.109745132714071,1.0160841941833496,-2.865558926259176
1708442878.9224842,-2.1418445110321045,-1.333305225973465,-2.525951687489645,6.1096465466316126,1.0161454677581787,-2.865542713795797
1708442878.9244647,-2.1417691707611084,-1.3332800281098862,-2.52600866953005,6.109733211785116,1.0161617994308472,-2.8655265013324183
1708442878.926505,-2.141822338104248,-1.333250419502594,-2.5259178320514124,6.109691607743063,1.0161246061325073,-2.865547005330221
1708442878.928489,-2.1418073177337646,-1.3333290678313752,-2.525910202656881,6.10968695858077,1.0160796642303467,-2.8655393759356897
1708442878.9305327,-2.141770124435425,-1.3332888793996354,-2.525980059300558,6.109745132714071,1.0161112546920776,-2.8655675093280237
1708442878.93247,-2.141793966293335,-1.3333498251489182,-2.525942866002218,6.109728801041403,1.0161319971084595,-2.8655458132373255
1708442878.9344869,-2.1417648792266846,-1.3332800281098862,-2.525975767766134,6.109704959183492,1.0160752534866333,-2.8655663172351282
1708442878.936488,-2.1418073177337646,-1.3332875233939667,-2.525959316884176,6.109725940018453,1.0160796642303467,-2.8655546347247522
1708442878.9384675,-2.141789674758911,-1.3332844537547608,-2.525984589253561,6.109728801041403,1.0160915851593018,-2.8655014673816126
1708442878.9404473,-2.141782522201538,-1.3333008152297516,-2.525926653538839,6.109745132714071,1.0161021947860718,-2.865514580403463
1708442878.9424584,-2.1418187618255615,-1.3332593601993104,-2.525980059300558,6.109696018486776,1.016061782836914,-2.8655837217914026
1708442878.9444666,-2.1417958736419678,-1.3332350564054032,-2.5259385744677942,6.10972141006545,1.0161410570144653,-2.865579430256979
1708442878.946484,-2.1417746543884277,-1.3332756769708176,-2.525926653538839,6.109679329186239,1.0160752534866333,-2.8655458132373255
1708442878.9484909,-2.141782522201538,-1.333324746494629,-2.525968138371603,6.1097168801124475,1.0161484479904175,-2.8655222097979944
1708442878.9504693,-2.1418073177337646,-1.3332875084928055,-2.525971237813131,6.109742271691122,1.0160752534866333,-2.8655265013324183
1708442878.9524524,-2.141793966293335,-1.3332681071809311,-2.525959316884176,6.109709489136495,1.0160752534866333,-2.865551296864645
1708442878.9544516,-2.141787052154541,-1.333316833978035,-2.525984589253561,6.109724390297689,1.016115665435791,-2.865558926259176
1708442878.9564612,-2.141787052154541,-1.3332426857999344,-2.5259879271136683,6.109704959183492,1.0161246061325073,-2.8655632177936
1708442878.9584584,-2.1417577266693115,-1.3332667660764237,-2.525971237813131,6.109709489136495,1.0161336660385132,-2.8655663172351282
1708442878.9604516,-2.1417782306671143,-1.3332593154958268,-2.525959316884176,6.109742152481832,1.0160915851593018,-2.8655384222613733
1708442878.9624553,-2.1417534351348877,-1.3333052408746262,-2.525947395955221,6.109721290856161,1.0161319971084595,-2.865542713795797
1708442878.964446,-2.1417958736419678,-1.333316833978035,-2.5259888807879847,6.109728801041403,1.0161737203598022,-2.8655663172351282
1708442878.9664993,-2.1417534351348877,-1.3332263392261048,-2.526004139577047,6.109721290856161,1.0160915851593018,-2.8655663172351282
1708442878.9684508,-2.141787052154541,-1.3333379489234467,-2.525930945073263,6.109767544060507,1.016127586364746,-2.865551296864645
1708442878.9704478,-2.141744375228882,-1.3332636815360566,-2.5259562174426478,6.109688269882955,1.0160661935806274,-2.8655832449542444
1708442878.9724653,-2.141737222671509,-1.3332888793996354,-2.525971237813131,6.109742271691122,1.0161246061325073,-2.865558926259176
1708442878.9744499,-2.1417489051818848,-1.333293394451477,-2.525963846837179,6.109737741738119,1.0160737037658691,-2.8656039873706263
1708442878.97645,-2.1417958736419678,-1.333305225973465,-2.525996748601095,6.109754073410787,1.0160826444625854,-2.865547005330221
1708442878.9784484,-2.1417622566223145,-1.3332814884236832,-2.5259340445147913,6.109730350762167,1.0161454677581787,-2.865547005330221
1708442878.980453,-2.141732931137085,-1.3333211702159424,-2.525971237813131,6.10972141006545,1.0160826444625854,-2.8655338923083704
1708442878.9824555,-2.141765832901001,-1.3332725328258057,-2.5259504953967493,6.109688269882955,1.0161023139953613,-2.865592066441671
1708442878.9844663,-2.1417534351348877,-1.333293394451477,-2.5259340445147913,6.109709489136495,1.0160826444625854,-2.8655632177936
1708442878.9864573,-2.141791582107544,-1.3332963597825547,-2.525971237813131,6.109692799835958,1.016061782836914,-2.8655663172351282
1708442878.9884508,-2.1417622566223145,-1.3332470220378418,-2.525951687489645,6.109701740532675,1.0161231756210327,-2.865537230168478
1708442878.9904642,-2.1417622566223145,-1.3332426857999344,-2.525971237813131,6.109679329186239,1.0161573886871338,-2.8655663172351282
1708442878.992459,-2.1417577266693115,-1.3332681071809311,-2.5259013811694544,6.109704959183492,1.0161350965499878,-2.8655877749072474
1708442878.9944816,-2.1417534351348877,-1.3333008003285904,-2.525971237813131,6.109697210579672,1.0161395072937012,-2.8655133883105677
1708442878.9964623,-2.1417622566223145,-1.3332725328258057,-2.525971237813131,6.109692799835958,1.0161112546920776,-2.865596357976095
1708442878.9984589,-2.1417958736419678,-1.3332681071809311,-2.525992218648092,6.109688269882955,1.016115665435791,-2.865575138722555
1708442879.0004475,-2.1417508125305176,-1.333334596162178,-2.5259385744677942,6.109730350762167,1.0161319971084595,-2.8655338923083704
1708442879.0024502,-2.1417534351348877,-1.3333795231631775,-2.525971237813131,6.109704959183492,1.0161067247390747,-2.8656039873706263
1708442879.0044498,-2.1417462825775146,-1.333271251325943,-2.525996748601095,6.109673487931051,1.0161484479904175,-2.865558926259176
1708442879.00646,-2.1417791843414307,-1.3332725328258057,-2.5259624163257044,6.109692799835958,1.0161231756210327,-2.865575138722555
1708442879.008463,-2.1417791843414307,-1.3332725328258057,-2.5259550253497522,6.10965262630538,1.0161617994308472,-2.8655951658831995
1708442879.0104547,-2.1418163776397705,-1.3332875233939667,-2.525971237813131,6.109704959183492,1.0161112546920776,-2.8656156698810022
1708442879.0124564,-2.1417791843414307,-1.3333123934319993,-2.5259385744677942,6.109713899880209,1.0161558389663696,-2.865600649510519
1708442879.0144627,-2.1417577266693115,-1.3332888793996354,-2.525975529347555,6.1096852896507166,1.0161484479904175,-2.8655620257007044
1708442879.0164666,-2.1417667865753174,-1.333305225973465,-2.525947395955221,6.109668957978048,1.0161772966384888,-2.8655620257007044
1708442879.0184543,-2.1417462825775146,-1.3332800281098862,-2.5259221235858362,6.109622704773702,1.0161186456680298,-2.865575138722555
1708442879.0204573,-2.1417622566223145,-1.3333705973676224,-2.5259550253497522,6.1096898196037195,1.0161186456680298,-2.865575138722555
1708442879.0224628,-2.1417462825775146,-1.3332636815360566,-2.525947395955221,6.109655487328329,1.0160959959030151,-2.8655789534198206
1708442879.0244749,-2.1417577266693115,-1.3332593601993104,-2.5259504953967493,6.109648096352377,1.0161186456680298,-2.8655663172351282
1708442879.0264556,-2.1417534351348877,-1.3332681071809311,-2.526012961064474,6.109698760300436,1.016115665435791,-2.8655994574176233
1708442879.028456,-2.1417837142944336,-1.3332770478776474,-2.5259340445147913,6.1096852896507166,1.016061782836914,-2.8655458132373255
1708442879.0305228,-2.1417293548583984,-1.3332593601993104,-2.525968138371603,6.109655487328329,1.016127586364746,-2.865575138722555
1708442879.0325015,-2.1417462825775146,-1.3332844537547608,-2.5259879271136683,6.109607922821798,1.016115665435791,-2.8656156698810022
1708442879.0344448,-2.1417758464813232,-1.3332888793996354,-2.525963846837179,6.109668957978048,1.016082525253296,-2.8655620257007044
1708442879.0364628,-2.1417791843414307,-1.3332350564054032,-2.525980059300558,6.109697329788961,1.0161186456680298,-2.86560827890505
1708442879.0384588,-2.1417667865753174,-1.3332603734782715,-2.525968138371603,6.109599101334371,1.0161395072937012,-2.8655877749072474
1708442879.04045,-2.141716957092285,-1.3333290678313752,-2.5259297529803675,6.10963915565566,1.0161395072937012,-2.865521017705099
1708442879.042482,-2.1417462825775146,-1.3333123934319993,-2.525975529347555,6.109664428025045,1.0160976648330688,-2.8655994574176233
1708442879.044817,-2.1417791843414307,-1.3332756918719788,-2.525963846837179,6.10965250709609,1.0161603689193726,-2.865558926259176
1708442879.0465,-2.1417248249053955,-1.3332844537547608,-2.525975529347555,6.109701740532675,1.0161439180374146,-2.86560827890505
1708442879.0484562,-2.1417460441589355,-1.3332888793996354,-2.5259550253497522,6.109603512078085,1.0161439180374146,-2.8655458132373255
1708442879.0504606,-2.1417713165283203,-1.3333290678313752,-2.525947395955221,6.109697210579672,1.0161186456680298,-2.865592066441671
1708442879.0524619,-2.1417622566223145,-1.3333123934319993,-2.5259833971606653,6.1096287844474695,1.0161395072937012,-2.8655877749072474
1708442879.0544496,-2.1417882442474365,-1.3332844537547608,-2.5259385744677942,6.109680878907003,1.0161319971084595,-2.8655534426318567
1708442879.0564756,-2.1417622566223145,-1.3333008003285904,-2.5259059111224573,6.109697210579672,1.0161558389663696,-2.8655501047717493
1708442879.0584753,-2.1417462825775146,-1.3333080571940918,-2.5259178320514124,6.109643685608663,1.0161350965499878,-2.86560827890505
1708442879.0604818,-2.1417462825775146,-1.3332681071809311,-2.525926653538839,6.109643685608663,1.0161558389663696,-2.8655663172351282
1708442879.0624633,-2.1417622566223145,-1.3332636815360566,-2.525971237813131,6.109661567002096,1.0161558389663696,-2.8655908743487757
1708442879.064453,-2.1417837142944336,-1.3333334785750885,-2.525971237813131,6.109677898674764,1.0161231756210327,-2.865620199834005
1708442879.0665174,-2.1417462825775146,-1.3333168190768738,-2.525959316884176,6.109657037049093,1.016168475151062,-2.8655908743487757
1708442879.0684478,-2.1417622566223145,-1.3332637411407013,-2.525980059300558,6.109664547234335,1.0161603689193726,-2.8655663172351282
1708442879.0704718,-2.1417791843414307,-1.333284468655922,-2.525959316884176,6.109660017281332,1.0161603689193726,-2.8655415217029017
1708442879.072452,-2.1417248249053955,-1.3333051961711426,-2.525971237813131,6.109697210579672,1.016127586364746,-2.8656113783465784
1708442879.0744517,-2.1417622566223145,-1.3332920384458085,-2.525980059300558,6.109643685608663,1.0161558389663696,-2.8655546347247522
1708442879.0764644,-2.1417293548583984,-1.33330354214225,-2.525959316884176,6.109608042031088,1.0161231756210327,-2.8655789534198206
1708442879.0784872,-2.1417622566223145,-1.3333168488791962,-2.525963846837179,6.109661447792806,1.0161558389663696,-2.865596357976095
1708442879.0804744,-2.1417462825775146,-1.3332963448813935,-2.525971237813131,6.109668957978048,1.0161231756210327,-2.8655789534198206
1708442879.0824776,-2.1417882442474365,-1.3332978797009964,-2.525959316884176,6.1096733687217615,1.0161141157150269,-2.865620199834005
1708442879.0844436,-2.1417338848114014,-1.333305225973465,-2.5259788672076624,6.1096898196037195,1.0161439180374146,-2.8656156698810022
1708442879.0864525,-2.1417758464813232,-1.3332756918719788,-2.525963846837179,6.1096852896507166,1.0161514282226562,-2.8655908743487757
1708442879.0884593,-2.1417534351348877,-1.3332351011088868,-2.525910202656881,6.1096852896507166,1.0161728858947754,-2.8655994574176233
1708442879.0904765,-2.1417417526245117,-1.3332756620696564,-2.525926653538839,6.109661447792806,1.0161350965499878,-2.8655832449542444
1708442879.0924523,-2.1417667865753174,-1.333272547726967,-2.5259385744677942,6.109731662064352,1.0161603689193726,-2.865631882344381
1708442879.0944822,-2.1417791843414307,-1.3332725328258057,-2.525975529347555,6.109660017281332,1.0161484479904175,-2.8655877749072474
1708442879.0964894,-2.1417622566223145,-1.333293379550316,-2.5259385744677942,6.109692799835958,1.0161231756210327,-2.8655994574176233
1708442879.0984805,-2.1417622566223145,-1.3333379042199631,-2.525963846837179,6.1096852896507166,1.0161112546920776,-2.8656027952777308
1708442879.1004906,-2.1417293548583984,-1.3332603883794327,-2.5259879271136683,6.10965262630538,1.0161319971084595,-2.8655832449542444
1708442879.1025062,-2.1417667865753174,-1.3332770478776474,-2.525971237813131,6.109694230347433,1.0161023139953613,-2.8656438032733362
1708442879.104449,-2.1417622566223145,-1.333312378530838,-2.525971237813131,6.109715091973104,1.0161350965499878,-2.8656321207629603
1708442879.106499,-2.1417171955108643,-1.3333168488791962,-2.5259879271136683,6.109731781273641,1.0161484479904175,-2.8656275908099573
1708442879.1084538,-2.1417417526245117,-1.3333052408746262,-2.5259550253497522,6.109677898674764,1.0161186456680298,-2.8655789534198206
1708442879.1104968,-2.1417622566223145,-1.333250419502594,-2.525931183491842,6.1097004292304895,1.0161395072937012,-2.8656395117389124
1708442879.112475,-2.1417293548583984,-1.3332844537547608,-2.5259223620044153,6.10965262630538,1.0161051750183105,-2.8655908743487757
1708442879.1144578,-2.1417124271392822,-1.3333052110723038,-2.525947395955221,6.1096852896507166,1.016164779663086,-2.8655620257007044
1708442879.1164846,-2.1417293548583984,-1.3333168041757126,-2.525992218648092,6.109603392868795,1.0161350965499878,-2.8656190077411097
1708442879.1184578,-2.1417641639709473,-1.3333008152297516,-2.526001040135519,6.10965262630538,1.0161638259887695,-2.8655832449542444
1708442879.1204531,-2.1417577266693115,-1.3332636517337342,-2.526004139577047,6.109627234726705,1.0161603689193726,-2.8656027952777308
1708442879.1224813,-2.1417462825775146,-1.3332548600486298,-2.5259550253497522,6.109655487328329,1.0161848068237305,-2.8655994574176233
1708442879.124453,-2.1417622566223145,-1.3332844537547608,-2.525947395955221,6.109636175423422,1.0161023139953613,-2.8656395117389124
1708442879.126471,-2.1417338848114014,-1.333259404902794,-2.525971237813131,6.109727370529928,1.0161514282226562,-2.8655663172351282
1708442879.1284606,-2.1417577266693115,-1.333292083149292,-2.525942866002218,6.10965262630538,1.0161558389663696,-2.865570370350973
1708442879.1305063,-2.1417293548583984,-1.333272547726967,-2.526012961064474,6.109627353935995,1.0161558389663696,-2.8656232992755335
1708442879.1325376,-2.1417622566223145,-1.3332725328258057,-2.5259385744677942,6.109664547234335,1.0161350965499878,-2.865631882344381
1708442879.134484,-2.1417508125305176,-1.3332920682481308,-2.5259504953967493,6.109648096352377,1.0161467790603638,-2.865614716206686
1708442879.1364625,-2.1417293548583984,-1.3333008003285904,-2.525971237813131,6.109631764679708,1.016168475151062,-2.865620199834005
1708442879.1384606,-2.1417667865753174,-1.3332875233939667,-2.525971237813131,6.109692799835958,1.0161304473876953,-2.865620199834005
1708442879.1404598,-2.1417667865753174,-1.3332844388535996,-2.5259550253497522,6.109685408860006,1.0161514282226562,-2.8655908743487757
1708442879.142467,-2.1417667865753174,-1.3333051812699814,-2.526008431111471,6.109706151276388,1.0161514282226562,-2.8655951658831995
1708442879.1444488,-2.1417293548583984,-1.333293468957283,-2.525980059300558,6.109706151276388,1.0161467790603638,-2.8656438032733362
1708442879.1464708,-2.1417622566223145,-1.3332844537547608,-2.52602202097048,6.109655606537618,1.016168475151062,-2.86564809480776
1708442879.1484656,-2.1417508125305176,-1.3332514774850388,-2.525959316884176,6.109664547234335,1.0161467790603638,-2.865586582814352
1708442879.1506033,-2.1417622566223145,-1.3332844537547608,-2.525910202656881,6.109643685608663,1.0161395072937012,-2.8656070868121546
1708442879.1524634,-2.1417622566223145,-1.3332888793996354,-2.525942866002218,6.10967646816329,1.0161514282226562,-2.8656113783465784
1708442879.1544511,-2.1417667865753174,-1.3332800281098862,-2.525975529347555,6.109718310623922,1.0161892175674438,-2.8655832449542444
1708442879.1564598,-2.1417713165283203,-1.3332593154958268,-2.5259221235858362,6.109613883286276,1.0161603689193726,-2.8656275908099573
1708442879.158461,-2.1417622566223145,-1.3333379042199631,-2.525980059300558,6.10973476150588,1.0161467790603638,-2.8656438032733362
1708442879.1604705,-2.1417508125305176,-1.3332844537547608,-2.525963846837179,6.109679329186239,1.0161638259887695,-2.865586582814352
1708442879.1624644,-2.1417746543884277,-1.3332844537547608,-2.525959316884176,6.10965250709609,1.0161112546920776,-2.8656156698810022
1708442879.1644695,-2.1417622566223145,-1.3333498251489182,-2.525947395955221,6.10967646816329,1.016168475151062,-2.8655994574176233
1708442879.1664932,-2.141721487045288,-1.333316833978035,-2.525992218648092,6.109643685608663,1.0161231756210327,-2.8656070868121546
1708442879.1684508,-2.1417667865753174,-1.3332636815360566,-2.525942866002218,6.109688269882955,1.0161594152450562,-2.8655951658831995
1708442879.1704707,-2.1417248249053955,-1.3333454442075272,-2.525942866002218,6.109688269882955,1.016168475151062,-2.8656471411334437
1708442879.1724992,-2.1417758464813232,-1.3332469922355195,-2.525984589253561,6.109668957978048,1.016168475151062,-2.8656156698810022
1708442879.1744773,-2.1417577266693115,-1.333349810247757,-2.525971237813131,6.109700548439779,1.016126036643982,-2.8656275908099573
1708442879.176462,-2.1417622566223145,-1.3333541613868256,-2.5259624163257044,6.109728801041403,1.0161558389663696,-2.8656070868121546
1708442879.1784577,-2.1417622566223145,-1.3332844537547608,-2.5259550253497522,6.1097391722495935,1.0161558389663696,-2.8656232992755335
1708442879.1804702,-2.1417551040649414,-1.333325744872429,-2.525951687489645,6.109725820809164,1.0161892175674438,-2.8656395117389124
1708442879.1824543,-2.141770124435425,-1.333308072095253,-2.525963846837179,6.109646665840902,1.0161514282226562,-2.8656070868121546
1708442879.1844544,-2.1417791843414307,-1.3332888644984742,-2.5259340445147913,6.109683739929952,1.0161514282226562,-2.865614716206686
1708442879.186456,-2.1417338848114014,-1.3332874935916443,-2.5259178320514124,6.109704959183492,1.0161231756210327,-2.8655994574176233
1708442879.1884696,-2.1417462825775146,-1.3332725328258057,-2.525971237813131,6.109679329186239,1.0161304473876953,-2.8656352202044886
1708442879.1904504,-2.1417622566223145,-1.3333379489234467,-2.525963846837179,6.109712350159445,1.0161350965499878,-2.865598503743307
1708442879.1924474,-2.1417124271392822,-1.3332889390042801,-2.526004139577047,6.109712469368734,1.0161558389663696,-2.8656113783465784
1708442879.1944416,-2.1417622566223145,-1.33330354214225,-2.525996748601095,6.109733211785116,1.0161514282226562,-2.8655908743487757
1708442879.1964512,-2.1417553424835205,-1.3332874935916443,-2.525992218648092,6.109724390297689,1.0161141157150269,-2.86567193666567
1708442879.198442,-2.1417791843414307,-1.3333034974387665,-2.525951687489645,6.109725940018453,1.0161186456680298,-2.8656232992755335
1708442879.2004454,-2.1417791843414307,-1.3332470220378418,-2.525975529347555,6.109670269280233,1.0161603689193726,-2.8655899206744593
1708442879.2024598,-2.1417958736419678,-1.3332991015962143,-2.525959316884176,6.1097168801124475,1.0161395072937012,-2.865606133137838
1708442879.2044423,-2.1417791843414307,-1.3332756769708176,-2.525947395955221,6.109707939415731,1.0161304473876953,-2.8656309286700647
1708442879.2064612,-2.1417791843414307,-1.3333034974387665,-2.525959316884176,6.109736192017355,1.0161439180374146,-2.8656395117389124
1708442879.208448,-2.1417460441589355,-1.3332593154958268,-2.525959316884176,6.109745251923361,1.0161439180374146,-2.8656395117389124
1708442879.2104461,-2.1417622566223145,-1.3332920235446473,-2.525971237813131,6.109727370529928,1.0161186456680298,-2.8655856291400355
1708442879.2124527,-2.1417746543884277,-1.333254800443985,-2.5259550253497522,6.109773862152853,1.0161350965499878,-2.865664307271139
1708442879.2144506,-2.141803026199341,-1.333300845032074,-2.525942866002218,6.109730589180746,1.0161638259887695,-2.865654770527975
1708442879.2164583,-2.1417958736419678,-1.3332558882287522,-2.525971237813131,6.109813916474142,1.0161395072937012,-2.86568791071047
1708442879.218504,-2.141787052154541,-1.3333202314427872,-2.525984589253561,6.109821545868673,1.016127586364746,-2.86572772661318
1708442879.220498,-2.1417622566223145,-1.3333080571940918,-2.525971237813131,6.109878289490499,1.0161439180374146,-2.865695301686422
1708442879.222467,-2.141770124435425,-1.3332874786904831,-2.5259667078601282,6.109878289490499,1.0161395072937012,-2.8656910101519983
1708442879.2244816,-2.141791582107544,-1.33326809227977,-2.5259833971606653,6.109802114754476,1.0161514282226562,-2.8657148520099085
1708442879.226462,-2.141770362854004,-1.3333423894694825,-2.5258894602404993,6.109881269722738,1.016164779663086,-2.865706268941061
1708442879.2284505,-2.1417958736419678,-1.3333290827325364,-2.525959316884176,6.109872329026022,1.0161023139953613,-2.8657105604754847
1708442879.2304988,-2.1417622566223145,-1.3333202016404648,-2.525959316884176,6.109852897911825,1.0161646604537964,-2.8657148520099085
1708442879.2325697,-2.141770124435425,-1.3332667511752625,-2.5259385744677942,6.109818804055013,1.0161067247390747,-2.8656943480121058
1708442879.234492,-2.1417577266693115,-1.3333212745240708,-2.525963846837179,6.109842645912924,1.0161439180374146,-2.8657148520099085
1708442879.236454,-2.1417746543884277,-1.3333080422929307,-2.525935475026266,6.109876739769735,1.0161395072937012,-2.8657386938678187
1708442879.23848,-2.1417667865753174,-1.3333035123399277,-2.525942866002218,6.109855878144064,1.016168475151062,-2.8657429854022425
1708442879.2405128,-2.1417622566223145,-1.3333257150701066,-2.5259578863727015,6.109905111580648,1.016168475151062,-2.865697447453634
1708442879.2424917,-2.1418232917785645,-1.3332711470178147,-2.525942866002218,6.109870898514547,1.0161558389663696,-2.8657429854022425
1708442879.2445018,-2.1417958736419678,-1.3333097261241456,-2.525975529347555,6.1099125025566,1.0161304473876953,-2.8657191435443323
1708442879.2464721,-2.1417248249053955,-1.3333247613957901,-2.525984589253561,6.1098917601402185,1.0161603689193726,-2.8657267729388636
1708442879.2484689,-2.1417791843414307,-1.3332920384458085,-2.5259624163257044,6.109870898514547,1.0161558389663696,-2.8657105604754847
1708442879.2504823,-2.141782522201538,-1.3332888943007966,-2.525947395955221,6.10992323139266,1.0161304473876953,-2.865690056477682
1708442879.252453,-2.1418073177337646,-1.3333379489234467,-2.525996748601095,6.109953152924337,1.0160737037658691,-2.8657224814044397
1708442879.254458,-2.141782522201538,-1.3333379489234467,-2.525984589253561,6.109944093018331,1.0161350965499878,-2.865706268941061
1708442879.2564547,-2.141803026199341,-1.3332844239524384,-2.5259462038623255,6.109948503762045,1.0161186456680298,-2.8657472769366663
1708442879.2585015,-2.141803026199341,-1.3332787168077012,-2.5259385744677942,6.109902131348409,1.0161603689193726,-2.8657549063311976
1708442879.2604594,-2.1418356895446777,-1.3332503300956269,-2.525926653538839,6.10992323139266,1.016180157661438,-2.8657386938678187
1708442879.2624552,-2.141798496246338,-1.3333080422929307,-2.5259667078601282,6.1099514839942834,1.0161141157150269,-2.8657386938678187
1708442879.264471,-2.141798496246338,-1.333320216541626,-2.525975529347555,6.109960424691,1.0161638259887695,-2.8657386938678187
1708442879.2664597,-2.141843557357788,-1.3332666468671341,-2.5259879271136683,6.109982716828146,1.0161467790603638,-2.8657923380481165
1708442879.2684686,-2.1417524814605713,-1.3333781373551865,-2.525951925908224,6.109926330834188,1.0161395072937012,-2.8657804171191614
1708442879.2704608,-2.1418278217315674,-1.33330354214225,-2.5259667078601282,6.110003697663107,1.016127586364746,-2.8657591978656214
1708442879.2724767,-2.141787052154541,-1.3333365631154557,-2.525980059300558,6.109966742783346,1.0161558389663696,-2.86576754251589
1708442879.2744596,-2.141765594482422,-1.3333007854274292,-2.5259550253497522,6.110027777939596,1.016164779663086,-2.8657549063311976
1708442879.27646,-2.141805410385132,-1.3332963746837159,-2.525992218648092,6.110020506172933,1.0161558389663696,-2.865734402333395
1708442879.2784674,-2.141822338104248,-1.3333247315934678,-2.5260162989245813,6.110027777939596,1.0161395072937012,-2.8657429854022425
1708442879.2804635,-2.141852617263794,-1.3333290082267304,-2.5259178320514124,6.1100772497947595,1.0161304473876953,-2.8657549063311976
1708442879.2824605,-2.141793966293335,-1.3333365482142945,-2.525968138371603,6.110039698868551,1.0161395072937012,-2.8657549063311976
1708442879.2844508,-2.141831159591675,-1.3333826077035447,-2.525942866002218,6.11005316951827,1.0161514282226562,-2.8657267729388636
1708442879.2864952,-2.141852617263794,-1.3332636070302506,-2.526012961064474,6.109976756363668,1.0161728858947754,-2.8657718340503138
1708442879.2884464,-2.1417806148529053,-1.3333247315934678,-2.525959316884176,6.11005316951827,1.0161514282226562,-2.8657386938678187
1708442879.2904434,-2.141789674758911,-1.3333035570434113,-2.526012961064474,6.110014307289877,1.0161350965499878,-2.865734402333395
1708442879.2924657,-2.1418392658233643,-1.3333454442075272,-2.525971237813131,6.110045897751608,1.0161467790603638,-2.8657591978656214
1708442879.2944555,-2.141876459121704,-1.333284394150116,-2.525992218648092,6.110120284348287,1.0161728858947754,-2.8657386938678187
1708442879.2965045,-2.141848087310791,-1.333287463789322,-2.525959316884176,6.110041487007894,1.0161467790603638,-2.8657506147967737
1708442879.298463,-2.1418099403381348,-1.33333212256942,-2.525963846837179,6.110050427704611,1.0161514282226562,-2.8657966295825403
1708442879.3004606,-2.141822338104248,-1.333320216541626,-2.5259833971606653,6.110054838448324,1.0161638259887695,-2.865718189870016
1708442879.3024557,-2.1418347358703613,-1.3333168190768738,-2.5259459654437464,6.110103952675619,1.0161558389663696,-2.8657506147967737
1708442879.3044536,-2.141801118850708,-1.333349810247757,-2.5259550253497522,6.110111462860861,1.0161186456680298,-2.865734402333395
1708442879.3064733,-2.1418027877807617,-1.3333365631154557,-2.525980059300558,6.110111462860861,1.0161514282226562,-2.8657506147967737
1708442879.3084655,-2.141800880432129,-1.333394856458046,-2.5259416739093226,6.110120403557577,1.0161728858947754,-2.865718189870016
1708442879.3104568,-2.141843557357788,-1.3333334636739274,-2.525975529347555,6.110139715462484,1.016144037246704,-2.865701977406637
1708442879.3124545,-2.1418676376342773,-1.3333202314427872,-2.5259385744677942,6.110074269562521,1.0161514282226562,-2.8657472769366663
1708442879.3144467,-2.1418890953063965,-1.3333247315934678,-2.525959316884176,6.110123383789816,1.0161467790603638,-2.8657591978656214
1708442879.316465,-2.141855001449585,-1.3333485138467331,-2.5259550253497522,6.110163914948263,1.0161514282226562,-2.865746084843771
1708442879.3184514,-2.141852617263794,-1.3332875084928055,-2.525971237813131,6.110177266388693,1.0161350965499878,-2.8657966295825403
1708442879.3204448,-2.1418631076812744,-1.3333321523717423,-2.5259550253497522,6.110150444298544,1.0161514282226562,-2.865763012562887
1708442879.3224807,-2.1418347358703613,-1.3333187860301514,-2.5259953180896204,6.110163914948263,1.0161848068237305,-2.8657591978656214
1708442879.3244593,-2.1418676376342773,-1.3333007556251069,-2.5259550253497522,6.110137092858114,1.0161395072937012,-2.865729872380392
1708442879.3264499,-2.1418540477752686,-1.333320216541626,-2.5259667078601282,6.110162365227499,1.0161051750183105,-2.865718189870016
1708442879.3284512,-2.1418211460113525,-1.3333247017911454,-2.5259504953967493,6.1101921675498865,1.0161728858947754,-2.8658042589770716
1708442879.33047,-2.1418912410736084,-1.3333692413619538,-2.5259667078601282,6.110166775971212,1.016168475151062,-2.8657212893115442
1708442879.3325505,-2.1418540477752686,-1.3333202016404648,-2.5260208288775843,6.110208856850424,1.0161848068237305,-2.865774933491842
1708442879.3344703,-2.141850709915161,-1.3333485138467331,-2.5259879271136683,6.110178696900167,1.0161423683166504,-2.8657501379596155
1708442879.3364673,-2.1418540477752686,-1.3333453846028824,-2.525980059300558,6.110180365830221,1.0161638259887695,-2.865758721028463
1708442879.3384738,-2.1418416500091553,-1.3332991164973755,-2.525980059300558,6.110235321312704,1.0161350965499878,-2.865741793309347
1708442879.3404732,-2.141855001449585,-1.3333247315934678,-2.5259996096240442,6.110178696900167,1.0161638259887695,-2.865741793309347
1708442879.3424904,-2.1418585777282715,-1.3333529096892853,-2.5259667078601282,6.110182034760275,1.0161638259887695,-2.8657007853137415
1708442879.344455,-2.1418585777282715,-1.3333378595164795,-2.5259385744677942,6.110218989640035,1.0162220001220703,-2.8657506147967737
1708442879.3464656,-2.1418371200561523,-1.3332831126502533,-2.5259340445147913,6.110207307129659,1.0161603689193726,-2.865746084843771
1708442879.348451,-2.1418371200561523,-1.333332137470581,-2.5259667078601282,6.110218989640035,1.0161594152450562,-2.8657212893115442
1708442879.35047,-2.141904830932617,-1.3333080422929307,-2.5259833971606653,6.1101806042488,1.0161757469177246,-2.865746084843771
1708442879.352469,-2.1418540477752686,-1.333332137470581,-2.525971237813131,6.110223400383749,1.016208529472351,-2.865725580845968
1708442879.3544517,-2.141841411590576,-1.3333202016404648,-2.5259667078601282,6.110259401589193,1.0161728858947754,-2.865783754979269
1708442879.356458,-2.141866683959961,-1.3332711917212983,-2.525959316884176,6.110275852471151,1.0162415504455566,-2.8657706419574183
1708442879.3584957,-2.141906976699829,-1.3332919490388413,-2.5259833971606653,6.1102309105689905,1.0161713361740112,-2.8657706419574183
1708442879.360447,-2.1418755054473877,-1.3333365780166169,-2.5260074774371546,6.11029218414382,1.0162039995193481,-2.8657332102404993
1708442879.3624594,-2.141787528991699,-1.3333484840444108,-2.5259791056262415,6.110247599869528,1.016208529472351,-2.865786854420797
1708442879.3644722,-2.1418845653533936,-1.3333113354495545,-2.5259996096240442,6.110287773400106,1.016244888305664,-2.8658161799060267
1708442879.3664544,-2.1418709754943848,-1.3333440733006974,-2.525971237813131,6.110308992653646,1.016244888305664,-2.865737501774923
1708442879.3684545,-2.141866683959961,-1.3332991015962143,-2.525926653538839,6.110266911774435,1.0162146091461182,-2.865791145955221
1708442879.3704484,-2.141907215118408,-1.333320216541626,-2.525971237813131,6.110280382424154,1.0162807703018188,-2.8657825628863733
1708442879.372456,-2.1418850421905518,-1.3333365631154557,-2.526025120412008,6.110295522003927,1.016276240348816,-2.8657825628863733
1708442879.374462,-2.141935348510742,-1.333348498945572,-2.525971237813131,6.11030005195693,1.0162479877471924,-2.8657501379596155
1708442879.376477,-2.141857862472534,-1.333332137470581,-2.5259907881366175,6.11027883270339,1.0162807703018188,-2.8657987753497522
1708442879.3784513,-2.1418778896331787,-1.333323286180832,-2.5260120073901575,6.110287773400106,1.016255497932434,-2.8658319155322474
1708442879.380477,-2.1418983936309814,-1.3332875233939667,-2.525975529347555,6.11029218414382,1.0162553787231445,-2.865786854420797
1708442879.3824694,-2.1418778896331787,-1.3333232712796708,-2.5259624163257044,6.110320794373312,1.0162301063537598,-2.865803066884176
1708442879.3844626,-2.141873598098755,-1.3333573651364823,-2.5259833971606653,6.11029218414382,1.0162509679794312,-2.865836207066671
1708442879.3865259,-2.1418964862823486,-1.3332742613605042,-2.525971237813131,6.110287773400106,1.0162525177001953,-2.865774933491842
1708442879.388466,-2.141914129257202,-1.3333035123399277,-2.5259833971606653,6.110287773400106,1.016255497932434,-2.8658435980426233
1708442879.3904567,-2.1418938636779785,-1.3333529096892853,-2.5259624163257044,6.1102415201957605,1.016222357749939,-2.8658068815814417
1708442879.3924482,-2.1419098377227783,-1.33329792440448,-2.5259879271136683,6.110262501030721,1.016243577003479,-2.8658111731158655
1708442879.3944528,-2.1418917179107666,-1.3333559793284913,-2.525971237813131,6.110287773400106,1.0162718296051025,-2.8658393065081995
1708442879.3964725,-2.1418850421905518,-1.3333604049733658,-2.5259624163257044,6.110274302750387,1.0162479877471924,-2.8658319155322474
1708442879.3984523,-2.141934633255005,-1.333332137470581,-2.5260208288775843,6.110271322518148,1.016239047050476,-2.865842405949728
1708442879.4004428,-2.1419594287872314,-1.3333365482142945,-2.525984589253561,6.110304462700643,1.016243577003479,-2.8658157030688685
1708442879.402455,-2.1419222354888916,-1.3333692413619538,-2.5260162989245813,6.110266911774435,1.0162971019744873,-2.8658555189715784
1708442879.4044614,-2.1419131755828857,-1.33335596442733,-2.5259667078601282,6.110282051354208,1.0162599086761475,-2.865842405949728
1708442879.4064796,-2.1419265270233154,-1.333303527241089,-2.5259667078601282,6.110295522003927,1.0162806510925293,-2.865814510975973
1708442879.4084775,-2.1419389247894287,-1.3333365631154557,-2.525965754185812,6.110266911774435,1.0162346363067627,-2.8658068815814417
1708442879.410462,-2.141934633255005,-1.3333453995040436,-2.5259340445147913,6.110311972885885,1.016239047050476,-2.8658350149737757
1708442879.41247,-2.141941547393799,-1.3333738309196015,-2.5259879271136683,6.1102415201957605,1.0162674188613892,-2.8658598105060022
1708442879.4144616,-2.1419177055358887,-1.3333099347404023,-2.5259833971606653,6.110283243447103,1.0162643194198608,-2.8658393065081995
1708442879.4164677,-2.141930103302002,-1.3333396327546616,-2.5259252230273646,6.11033974865035,1.016243577003479,-2.865814510975973
1708442879.4184744,-2.1419007778167725,-1.3333290678313752,-2.5259791056262415,6.110290992050924,1.016276240348816,-2.8658974806415003
1708442879.4205387,-2.1419177055358887,-1.3333440733006974,-2.526004139577047,6.110246169358053,1.0162971019744873,-2.8658350149737757
1708442879.4224846,-2.1419265270233154,-1.3332990270904084,-2.526029650365011,6.110283243447103,1.0162674188613892,-2.865875546132223
1708442879.424481,-2.141946315765381,-1.3333396178535004,-2.525971237813131,6.110294091492452,1.0162479877471924,-2.8658393065081995
1708442879.4264731,-2.1419177055358887,-1.3333157908967515,-2.5260239283191126,6.1102967140968225,1.016309380531311,-2.8658350149737757
1708442879.4284818,-2.1419007778167725,-1.3333157908967515,-2.525992218648092,6.110237109452047,1.0162837505340576,-2.865802590047018
1708442879.4304922,-2.141908645629883,-1.3333692711642762,-2.5260489622699183,6.110307442932882,1.0162792205810547,-2.865826193486349
1708442879.4325523,-2.1419551372528076,-1.3333232712796708,-2.5259700457202356,6.110262501030721,1.016288161277771,-2.865814510975973
1708442879.4345329,-2.141916513442993,-1.3333529096892853,-2.5260162989245813,6.110266911774435,1.0162525177001953,-2.8658350149737757
1708442879.4364762,-2.1419053077697754,-1.3333529096892853,-2.5259700457202356,6.110290992050924,1.016255497932434,-2.865883175526754
1708442879.4384782,-2.141930103302002,-1.3333277118257065,-2.526041571293966,6.110283243447103,1.016255497932434,-2.8658598105060022
1708442879.4404664,-2.1419222354888916,-1.3333770495704194,-2.5259819666491907,6.110253441124716,1.0162479877471924,-2.865896288548605
1708442879.44247,-2.1419506072998047,-1.3333440583995362,-2.5259953180896204,6.1102579710777185,1.0162688493728638,-2.8658393065081995
1708442879.4444788,-2.141975164413452,-1.3332711917212983,-2.5260120073901575,6.110265362053671,1.0162763595581055,-2.8658555189715784
1708442879.446482,-2.141937017440796,-1.3333529096892853,-2.5259624163257044,6.110302912979879,1.0162346363067627,-2.8658598105060022
1708442879.4484937,-2.141937017440796,-1.3333484840444108,-2.5260074774371546,6.110304462700643,1.0163004398345947,-2.8658724466906946
1708442879.4504774,-2.141953945159912,-1.3332991164973755,-2.5259879271136683,6.110286581307211,1.0162792205810547,-2.8658068815814417
1708442879.4524746,-2.1418874263763428,-1.3333157908967515,-2.5260327498065394,6.110283243447103,1.0163171291351318,-2.865868155156271
1708442879.4545043,-2.1419663429260254,-1.3333396327546616,-2.5259791056262415,6.110320794373312,1.0162509679794312,-2.865896288548605
1708442879.4564793,-2.141937017440796,-1.3333157908967515,-2.5260120073901575,6.110274302750387,1.0162391662597656,-2.8658393065081995
1708442879.4584954,-2.141958475112915,-1.3333890003016968,-2.5259864966021937,6.110250580101766,1.0162837505340576,-2.865798298512594
1708442879.4604647,-2.141975164413452,-1.3333307069591065,-2.5259745756732386,6.110257851868429,1.0162346363067627,-2.8657856623279017
1708442879.4624605,-2.141953945159912,-1.3333080571940918,-2.5260074774371546,6.11025499084548,1.0162674188613892,-2.865818802510397
1708442879.4644752,-2.141984224319458,-1.333384485249855,-2.5260775724994105,6.110282051354208,1.0162346363067627,-2.8658350149737757
1708442879.466469,-2.141958475112915,-1.3333484840444108,-2.5260489622699183,6.110348689347067,1.0162718296051025,-2.865798298512594
1708442879.468469,-2.1419389247894287,-1.3333099347404023,-2.5259953180896204,6.110311972885885,1.016276240348816,-2.865793768559591
1708442879.470492,-2.141930103302002,-1.3333604049733658,-2.525992218648092,6.110265362053671,1.016255497932434,-2.865830723439352
1708442879.4724762,-2.141921043395996,-1.3333484840444108,-2.5259864966021937,6.11027883270339,1.0162464380264282,-2.8658886591540735
1708442879.474461,-2.141963005065918,-1.3333934110454102,-2.5260372797595423,6.110244619637289,1.0163137912750244,-2.8658157030688685
1708442879.4764733,-2.1419131755828857,-1.3333187860301514,-2.5259791056262415,6.110319244652548,1.0162792205810547,-2.8658512274371546
1708442879.4784794,-2.141958475112915,-1.3334097576192399,-2.5260162989245813,6.110290992050924,1.0162391662597656,-2.865868155156271
1708442879.4804597,-2.141953945159912,-1.3333187860301514,-2.5259833971606653,6.110310423165121,1.0162971019744873,-2.8658230940448206
1708442879.4824834,-2.141941547393799,-1.3333351177028199,-2.5259624163257044,6.110274302750387,1.0162301063537598,-2.865798298512594
1708442879.4844651,-2.1419496536254883,-1.3333113652518769,-2.5260327498065394,6.110244738846578,1.016304850578308,-2.8658013979541224
1708442879.486474,-2.141982316970825,-1.3333604049733658,-2.5260208288775843,6.110265362053671,1.016309380531311,-2.865798298512594
1708442879.4884996,-2.1419506072998047,-1.3333277118257065,-2.5259864966021937,6.110298383026876,1.016255497932434,-2.865880076085226
1708442879.4904566,-2.1419663429260254,-1.333332137470581,-2.5260282198535364,6.110274302750387,1.0162674188613892,-2.865830723439352
1708442879.492483,-2.141916513442993,-1.3333123934319993,-2.5260282198535364,6.1103073237235925,1.0162643194198608,-2.865818802510397
1708442879.4944763,-2.14192533493042,-1.3333440583995362,-2.5260029474841517,6.11033974865035,1.0162674188613892,-2.8657856623279017
1708442879.4964685,-2.141979932785034,-1.3333692413619538,-2.5259791056262415,6.110286581307211,1.0162674188613892,-2.8658555189715784
1708442879.498467,-2.141991138458252,-1.3333648306182404,-2.5260446707354944,6.110262501030721,1.0162837505340576,-2.865859333668844
1708442879.5004563,-2.141925573348999,-1.333323286180832,-2.5260074774371546,6.110274302750387,1.0162509679794312,-2.8658512274371546
1708442879.5024674,-2.141937017440796,-1.333332137470581,-2.525965754185812,6.110216128617086,1.016255497932434,-2.8658469359027308
1708442879.5044582,-2.141979932785034,-1.3333648306182404,-2.5260401407824915,6.11025499084548,1.0162391662597656,-2.865891758595602
1708442879.5064614,-2.1418917179107666,-1.3333514642766495,-2.5259819666491907,6.110262381821432,1.0163137912750244,-2.8658512274371546
1708442879.508469,-2.141941547393799,-1.3333277118257065,-2.5260284582721155,6.110250580101766,1.0162628889083862,-2.8658176104175013
1708442879.5104637,-2.141958475112915,-1.3333440583995362,-2.5260356108294886,6.110229599266805,1.0162509679794312,-2.8658350149737757
1708442879.512489,-2.141967296600342,-1.3333514642766495,-2.5260730425464075,6.110290992050924,1.0162674188613892,-2.8658724466906946
1708442879.5144677,-2.141921043395996,-1.3333604049733658,-2.526015106831686,6.110302912979879,1.0162807703018188,-2.865830723439352
1708442879.5164685,-2.141953945159912,-1.3333410781672974,-2.5260193983661097,6.110238659172811,1.0163004398345947,-2.8658512274371546
1708442879.5184712,-2.1419618129730225,-1.3332947057536622,-2.526059691105978,6.110269892006674,1.016276240348816,-2.8658068815814417
1708442879.5204496,-2.141953945159912,-1.333320216541626,-2.526015106831686,6.11027883270339,1.0162837505340576,-2.8658350149737757
1708442879.52246,-2.141928195953369,-1.3332857650569458,-2.5260356108294886,6.11029218414382,1.0163289308547974,-2.8658393065081995
1708442879.52448,-2.141928195953369,-1.3333054196885605,-2.5260568300830286,6.110313522606649,1.0162419080734253,-2.8658319155322474
1708442879.5264645,-2.1419451236724854,-1.3333396327546616,-2.526034657155172,6.110304462700643,1.0162807703018188,-2.865802590047018
1708442879.5284703,-2.141932725906372,-1.3333514642766495,-2.5260313192950647,6.11027883270339,1.016292691230774,-2.8658319155322474
1708442879.5304663,-2.1419460773468018,-1.3333514642766495,-2.526059691105978,6.110247599869528,1.0162674188613892,-2.8658393065081995
1708442879.5325267,-2.141937017440796,-1.3333726537278672,-2.526059691105978,6.110259520798483,1.0162792205810547,-2.8658157030688685
1708442879.5345297,-2.141925573348999,-1.3333814901164551,-2.52608830133547,6.110217439919271,1.0162509679794312,-2.86580998102297
1708442879.536484,-2.141958475112915,-1.3333277118257065,-2.526072088872091,6.110323655396261,1.0162913799285889,-2.8658555189715784
1708442879.538483,-2.141958475112915,-1.3333559793284913,-2.5260959307300013,6.110262381821432,1.0162837505340576,-2.8657780329333704
1708442879.5404823,-2.141949415206909,-1.3333890003016968,-2.526067558919088,6.110283243447103,1.0162913799285889,-2.8657899538623255
1708442879.5424802,-2.141941547393799,-1.3333440583995362,-2.5260825792895716,6.110275852471151,1.016304850578308,-2.8658724466906946
1708442879.5444615,-2.1419708728790283,-1.3333351177028199,-2.5261064211474817,6.110287654190817,1.016255497932434,-2.8657899538623255
1708442879.5464687,-2.141921043395996,-1.3333113652518769,-2.526139561329977,6.110266911774435,1.0162837505340576,-2.8658555189715784
1708442879.5484698,-2.141963005065918,-1.33330354214225,-2.5261405150042933,6.1102415201957605,1.0162674188613892,-2.8658435980426233
1708442879.5504882,-2.141941547393799,-1.3333604049733658,-2.5261152426349085,6.110334384232321,1.0162959098815918,-2.8658435980426233
1708442879.552464,-2.141963005065918,-1.3333648306182404,-2.5261109511004847,6.110247719078817,1.0162599086761475,-2.8658157030688685
1708442879.5544567,-2.1419460773468018,-1.3333934110454102,-2.5260987917529505,6.110301244049825,1.016292691230774,-2.8657942453967493
1708442879.556477,-2.1419708728790283,-1.3333604049733658,-2.5260749498950403,6.110283362656393,1.0162718296051025,-2.8657942453967493
1708442879.5584722,-2.141946315765381,-1.3333559793284913,-2.5261197725879114,6.110268461495199,1.0163004398345947,-2.8658319155322474
1708442879.5604987,-2.141937017440796,-1.3333726686290284,-2.5261240641223353,6.110271322518148,1.0163171291351318,-2.8657825628863733
1708442879.5624616,-2.141930103302002,-1.3333098602345963,-2.5260914007769983,6.110247599869528,1.0162837505340576,-2.8658481279956263
1708442879.5644808,-2.1419708728790283,-1.3333560091308136,-2.5261152426349085,6.110235440521993,1.016309380531311,-2.8657825628863733
1708442879.5665097,-2.141930103302002,-1.3333440583995362,-2.5261033217059534,6.110272753029623,1.0162746906280518,-2.8657332102404993
1708442879.5684965,-2.141937017440796,-1.333326281314232,-2.5261405150042933,6.110239732056417,1.0162837505340576,-2.8658073584186
1708442879.570463,-2.1419708728790283,-1.3333307069591065,-2.5261033217059534,6.110235321312704,1.0162837505340576,-2.8657923380481165
1708442879.572465,-2.1419548988342285,-1.3333559793284913,-2.5260945002185267,6.110268461495199,1.016292691230774,-2.865725580845968
1708442879.5744646,-2.141975164413452,-1.3333440583995362,-2.5260959307300013,6.110247599869528,1.016308069229126,-2.8657224814044397
1708442879.5764654,-2.141930103302002,-1.3333604049733658,-2.5261195341693323,6.110243069916525,1.0162718296051025,-2.865718189870016
1708442879.578499,-2.141908645629883,-1.3333113652518769,-2.5260959307300013,6.110214578896322,1.0163216590881348,-2.8657549063311976
1708442879.5804517,-2.141937017440796,-1.3333604049733658,-2.5261076132403772,6.11019395568923,1.016304850578308,-2.8657429854022425
1708442879.582461,-2.1419131755828857,-1.3333351177028199,-2.526140276585714,6.1102309105689905,1.0163244009017944,-2.8656943480121058
1708442879.5844688,-2.14190411567688,-1.3333800596049805,-2.526140276585714,6.110210048943319,1.016286849975586,-2.8657105604754847
1708442879.5864723,-2.141930103302002,-1.3333069545081635,-2.5261314550982874,6.1102309105689905,1.0163244009017944,-2.8656824270831507
1708442879.5884886,-2.141941547393799,-1.3333978366902848,-2.526140276585714,6.110190975456991,1.0162746906280518,-2.865666214619772
1708442879.5904813,-2.141908645629883,-1.3333559793284913,-2.5260914007769983,6.110223400383749,1.016304850578308,-2.865732256566183
1708442879.592509,-2.141958475112915,-1.3333440583995362,-2.5261033217059534,6.110190975456991,1.0162959098815918,-2.865711514149801
1708442879.594486,-2.141941547393799,-1.3333890003016968,-2.5261109511004847,6.110195386200704,1.0163334608078003,-2.865650478993551
1708442879.5964804,-2.141963005065918,-1.3333307069591065,-2.5261314550982874,6.110199916153707,1.0162701606750488,-2.8656590620623987
1708442879.5984514,-2.141958475112915,-1.3333440583995362,-2.5260987917529505,6.110154974251547,1.0163216590881348,-2.86564284959902
1708442879.6004553,-2.141953945159912,-1.3333559793284913,-2.5261107126819056,6.1101640341575525,1.0163036584854126,-2.8656190077411097
1708442879.6024735,-2.141937017440796,-1.333375633960106,-2.5260618368731897,6.110130893975057,1.0163335800170898,-2.865598503743307
1708442879.6044564,-2.14190411567688,-1.3333604049733658,-2.5260914007769983,6.110142695694723,1.0163408517837524,-2.865574661885397
1708442879.6064665,-2.141975164413452,-1.3333890003016968,-2.526144806538717,6.110154974251547,1.016286849975586,-2.8655675093280237
1708442879.6084862,-2.141930103302002,-1.3333726537278672,-2.5261572043048304,6.110171305924215,1.016308069229126,-2.865523163472311
1708442879.610448,-2.1419177055358887,-1.3333351177028199,-2.5261197725879114,6.110133754998007,1.0163171291351318,-2.865502659474508
1708442879.612487,-2.141967535018921,-1.3333726537278672,-2.5261033217059534,6.1101053831870935,1.0163379907608032,-2.8654213587390345
1708442879.6144612,-2.1418919563293457,-1.3333890003016968,-2.5260749498950403,6.110151636391439,1.016319990158081,-2.865426842366354
1708442879.6164536,-2.14190411567688,-1.333323286180832,-2.5260825792895716,6.110163914948263,1.0163408517837524,-2.865406338368551
1708442879.6184826,-2.1419460773468018,-1.3333726537278672,-2.5260794798480433,6.110147225647726,1.0163244009017944,-2.8653655687915247
1708442879.6204438,-2.1419131755828857,-1.333323286180832,-2.5261152426349085,6.1101757166679285,1.0163049697875977,-2.865382973347799
1708442879.6225379,-2.1419548988342285,-1.3333904308131714,-2.52614933649172,6.110127794533529,1.0163289308547974,-2.86524469057192
1708442879.6244602,-2.14190411567688,-1.3333514642766495,-2.5260751883136194,6.110098111420431,1.0163453817367554,-2.865269724522726
1708442879.6264498,-2.141953945159912,-1.3332947057536622,-2.52614409128298,6.110139715462484,1.016286849975586,-2.865283791218893
1708442879.6284997,-2.1419506072998047,-1.3333978813937684,-2.5260661284076136,6.110135185509481,1.0162913799285889,-2.865223232899801
1708442879.630511,-2.141953945159912,-1.3333514642766495,-2.5260945002185267,6.110142695694723,1.016312599182129,-2.865232054387228
1708442879.6325078,-2.141941547393799,-1.3333514642766495,-2.5260661284076136,6.110118853836813,1.0163036584854126,-2.8651581446277063
1708442879.6345403,-2.141895294189453,-1.3333277118257065,-2.5261405150042933,6.110118973046102,1.016304850578308,-2.865105692540304
1708442879.6365058,-2.1419007778167725,-1.3333365631154557,-2.5260794798480433,6.110151636391439,1.0163036584854126,-2.8650463263141077
1708442879.6384902,-2.1418917179107666,-1.3333934110454102,-2.5261197725879114,6.110107052117147,1.0163244009017944,-2.8650131861316126
1708442879.6404757,-2.141904354095459,-1.3333187860301514,-2.5261226336108606,6.110103952675619,1.0162746906280518,-2.8649523893939417
1708442879.642487,-2.141930103302002,-1.3333396327546616,-2.5260868708239954,6.110098111420431,1.016324520111084,-2.864946190510885
1708442879.6444995,-2.141937017440796,-1.3333604049733658,-2.5261033217059534,6.110130893975057,1.016308069229126,-2.8649140040027063
1708442879.6465418,-2.1419460773468018,-1.3333559793284913,-2.5261076132403772,6.110144245415487,1.0162657499313354,-2.8648861090289515
1708442879.6484964,-2.141908645629883,-1.3333814901164551,-2.5260945002185267,6.110123383789816,1.0163244009017944,-2.8647940794574183
1708442879.6504552,-2.1419718265533447,-1.333368108873703,-2.5260542074786585,6.110171305924215,1.016324520111084,-2.8647454420672815
1708442879.652465,-2.1419506072998047,-1.3333396327546616,-2.5261064211474817,6.110135304718771,1.0163244009017944,-2.8647499720202845
1708442879.6544793,-2.1419460773468018,-1.3333365631154557,-2.5260661284076136,6.110118973046102,1.0162869691848755,-2.86472732225527
1708442879.6565053,-2.141963005065918,-1.3333514642766495,-2.5261152426349085,6.110132324486532,1.0163036584854126,-2.8646705786334437
1708442879.6584742,-2.1419506072998047,-1.3333574396422883,-2.5261033217059534,6.110080110817709,1.0162869691848755,-2.864631477986471
1708442879.660476,-2.1419131755828857,-1.3333770793727417,-2.5260990301715296,6.110095011978903,1.016319990158081,-2.864497248326437
1708442879.6624734,-2.1419460773468018,-1.3333529096892853,-2.5261152426349085,6.110135304718771,1.016308069229126,-2.864462200795309
1708442879.664504,-2.141925573348999,-1.3333426278880616,-2.5260987917529505,6.110132324486532,1.0162913799285889,-2.864467446004049
1708442879.6664863,-2.141908645629883,-1.333332137470581,-2.5261240641223353,6.110074269562521,1.0163408517837524,-2.8643425146686
1708442879.6684606,-2.141991138458252,-1.3333814901164551,-2.5261152426349085,6.110142695694723,1.0163036584854126,-2.8642824331866663
1708442879.6704695,-2.141979932785034,-1.3333726537278672,-2.5260825792895716,6.110078799515524,1.0163289308547974,-2.8641846815692347
1708442879.672477,-2.1419551372528076,-1.3333559793284913,-2.526073757802145,6.110107052117147,1.0163453817367554,-2.864162270222799
1708442879.6744912,-2.141934633255005,-1.3333890003016968,-2.5261033217059534,6.110135304718771,1.0163229703903198,-2.8640340010272425
1708442879.6765006,-2.141984462738037,-1.333347038631775,-2.5260987917529505,6.110135304718771,1.0163289308547974,-2.864018265401022
1708442879.6784818,-2.1419007778167725,-1.3333681386760254,-2.5261483828174036,6.110205518990316,1.0163363218307495,-2.863918129597799
1708442879.6804807,-2.141908645629883,-1.3333351177028199,-2.5261359850512903,6.1101053831870935,1.0163319110870361,-2.8638368288623255
1708442879.6824656,-2.141908645629883,-1.333332137470581,-2.5260914007769983,6.110130774765768,1.0163036584854126,-2.863765541707174
1708442879.6844933,-2.1419177055358887,-1.3333726686290284,-2.52611214319338,6.110154974251547,1.0163155794143677,-2.863702122365133
1708442879.6864674,-2.141921043395996,-1.3333681386760254,-2.526140276585714,6.110089051514425,1.0163319110870361,-2.8635736147509974
1708442879.688463,-2.1419551372528076,-1.3333514642766495,-2.5261405150042933,6.11010097244338,1.0162959098815918,-2.863526169453756
1708442879.6904848,-2.141941547393799,-1.3333484840444108,-2.5260945002185267,6.110126244812765,1.0162869691848755,-2.8633890787707728
1708442879.6924675,-2.1419506072998047,-1.3333814901164551,-2.5261152426349085,6.110133754998007,1.0163244009017944,-2.863309446965353
1708442879.6944807,-2.141941547393799,-1.3333890003016968,-2.5260782877551478,6.1101757166679285,1.0163408517837524,-2.863187376652853
1708442879.6964805,-2.141937017440796,-1.3333426278880616,-2.5261240641223353,6.110171305924215,1.0163694620132446,-2.863107983266012
1708442879.6984644,-2.141949415206909,-1.3333800596049805,-2.5260959307300013,6.110244142800131,1.0163620710372925,-2.863009039555685
1708442879.7004826,-2.1419506072998047,-1.3333890003016968,-2.5260706583606165,6.1102099297340295,1.016249418258667,-2.8629167715655726
1708442879.70248,-2.141984224319458,-1.3333770793727417,-2.5261076132403772,6.1102099297340295,1.0162869691848755,-2.862804953251974
1708442879.7044668,-2.1419167518615723,-1.3333514642766495,-2.5260914007769983,6.1102967140968225,1.0163319110870361,-2.8626883665667933
1708442879.7064736,-2.141958475112915,-1.333364875321724,-2.5260868708239954,6.11027883270339,1.0163036584854126,-2.862605158482687
1708442879.7084634,-2.1419663429260254,-1.333400846724846,-2.5261109511004847,6.110237109452047,1.0162991285324097,-2.862505022679464
1708442879.7105007,-2.141925573348999,-1.3333800596049805,-2.5261076132403772,6.110290992050924,1.0163244009017944,-2.8623598257647913
1708442879.7125123,-2.14190411567688,-1.3333460253528138,-2.5260899702655237,6.110330927162924,1.0163363218307495,-2.8622513453113
1708442879.7144608,-2.141986608505249,-1.3333514642766495,-2.5260377565967005,6.110335337906637,1.0163363218307495,-2.86218506494631
1708442879.716464,-2.1419405937194824,-1.3333726537278672,-2.5260794798480433,6.110352027207174,1.016308069229126,-2.8620532194720667
1708442879.7184813,-2.141979932785034,-1.3333351177028199,-2.5261152426349085,6.110366928368368,1.0162913799285889,-2.8619359175311487
1708442879.7204614,-2.1419777870178223,-1.33338317394767,-2.5261076132403772,6.110343205719747,1.0163244009017944,-2.8618043104754847
1708442879.722489,-2.141958475112915,-1.3333592873862763,-2.5260871092425745,6.110379206925192,1.0163155794143677,-2.8617094198810022
1708442879.7244709,-2.141998052597046,-1.3333890003016968,-2.5261152426349085,6.1104164002235315,1.016308069229126,-2.861555878316061
1708442879.726478,-2.142010450363159,-1.3333637130311509,-2.5260632673846644,6.110379206925192,1.0163171291351318,-2.8614283243762415
1708442879.7284615,-2.1419777870178223,-1.3333800596049805,-2.5261076132403772,6.110391008644857,1.0162991285324097,-2.861328665410177
1708442879.7304847,-2.1419732570648193,-1.3334174913218995,-2.5260987917529505,6.110458123474874,1.0163244009017944,-2.8611868063556116
1708442879.73248,-2.1419689655303955,-1.3333426278880616,-2.5260630289660853,6.110471474915304,1.0163036584854126,-2.861044470463888
1708442879.7345927,-2.1420061588287354,-1.3334219318679352,-2.5260945002185267,6.11049114444808,1.0162702798843384,-2.8608673254596155
1708442879.7365057,-2.141993761062622,-1.3333636981299897,-2.5260914007769983,6.110501515656271,1.0163334608078003,-2.860739771519796
1708442879.7384899,-2.1420254707336426,-1.3333592873862763,-2.5261152426349085,6.110556947975912,1.0163499116897583,-2.8606444040881556
1708442879.7404945,-2.1419758796691895,-1.3333711189082642,-2.5260632673846644,6.110564338951864,1.016312599182129,-2.860504929219381
1708442879.7424972,-2.1420094966888428,-1.333375633960106,-2.526067558919088,6.110594260483541,1.016308069229126,-2.8602941671954554
1708442879.7444727,-2.1420342922210693,-1.3333964061788102,-2.526104752217428,6.110594141274252,1.0162882804870605,-2.860171143208639
1708442879.7464714,-2.142077684402466,-1.3333964210799714,-2.5260794798480433,6.110628711968221,1.0163036584854126,-2.8599658648120325
1708442879.74847,-2.142054796218872,-1.3334365052035828,-2.5260706583606165,6.110698568611898,1.0163171291351318,-2.8599165121661585
1708442879.7504706,-2.142115831375122,-1.3334041398814698,-2.526116434727804,6.110702025681295,1.0162913799285889,-2.8597026507007044
1708442879.7524927,-2.142033338546753,-1.333366797571518,-2.5260465780841272,6.110730278282919,1.0162869691848755,-2.85954720178713
1708442879.7544556,-2.142057180404663,-1.3333217662623902,-2.526067558919088,6.11075113990859,1.0162913799285889,-2.8593698183642786
1708442879.7564547,-2.1420414447784424,-1.3333953779986878,-2.526050869618551,6.110749947815695,1.0163334608078003,-2.859206501637594
1708442879.7584615,-2.1421024799346924,-1.3333548468402405,-2.526039187108175,6.110794532089987,1.0162674188613892,-2.8590710798846644
1708442879.760452,-2.14206862449646,-1.3334409904531022,-2.5260301272021692,6.110866296082296,1.0162746906280518,-2.858866516743795
1708442879.7624712,-2.142055034637451,-1.3333667528680344,-2.5260630289660853,6.110796081810751,1.0163049697875977,-2.8587637583362024
1708442879.7644637,-2.1421263217926025,-1.33338317394767,-2.526026789342062,6.1108529446418665,1.0162599086761475,-2.858563009892599
1708442879.7664847,-2.1420979499816895,-1.33345282197509,-2.52605110803713,6.1109139797981165,1.0162674188613892,-2.8584020773517054
1708442879.7684908,-2.1421093940734863,-1.333371104007103,-2.526043478642599,6.110949981003561,1.0162525177001953,-2.858196798955099
1708442879.7704773,-2.142141103744507,-1.3334174913218995,-2.526001755391256,6.110920297890463,1.0162312984466553,-2.858070675526754
1708442879.7724907,-2.1421501636505127,-1.3334201735309144,-2.5260239283191126,6.110932099610128,1.0162479877471924,-2.857870403920309
1708442879.7744715,-2.142141103744507,-1.3333919805339356,-2.5259745756732386,6.110932218819418,1.0162643194198608,-2.8576822916613978
1708442879.776496,-2.142134189605713,-1.3333953779986878,-2.5260074774371546,6.1109890816505334,1.0162312984466553,-2.8575225512133997
1708442879.7784712,-2.1421525478363037,-1.33346180737529,-2.5259833971606653,6.111012923508444,1.016190528869629,-2.857313934956686
1708442879.7804651,-2.1421782970428467,-1.333424688582756,-2.5259879271136683,6.111060845642843,1.0162615776062012,-2.8571131865130823
1708442879.7824798,-2.1422181129455566,-1.3334086549333115,-2.525980059300558,6.1111159203346155,1.0161981582641602,-2.8569820562945765
1708442879.784464,-2.142164945602417,-1.33345282197509,-2.5260162989245813,6.111086118012228,1.0162280797958374,-2.8567267099963587
1708442879.7864692,-2.1422476768493652,-1.3334069711020966,-2.5260208288775843,6.111124861031332,1.0162280797958374,-2.8566160837756556
1708442879.7884822,-2.142197847366333,-1.3334396493485947,-2.5260120073901575,6.111095416336813,1.0161950588226318,-2.8564232031451624
1708442879.7905192,-2.1422295570373535,-1.3334114116481324,-2.525954786931173,6.111091005593099,1.0162039995193481,-2.8562963644610804
1708442879.7925122,-2.142254590988159,-1.3334350895932694,-2.525984589253561,6.11113070228652,1.0161622762680054,-2.8560062090503138
1708442879.7944949,-2.1422455310821533,-1.3334350895932694,-2.5259879271136683,6.1111594317253015,1.0161423683166504,-2.8558669726001185
1708442879.796463,-2.142216205596924,-1.3334845018437882,-2.525980059300558,6.111187922745504,1.0161594152450562,-2.8556914965258997
1708442879.798479,-2.1422278881073,-1.333446056847908,-2.525951925908224,6.111244547158041,1.0161303281784058,-2.8554585615741175
1708442879.800458,-2.142277240753174,-1.3335233640721817,-2.525992218648092,6.111284839897909,1.0161484479904175,-2.8552866617785853
1708442879.8024666,-2.1422364711761475,-1.3335042756846924,-2.525947395955221,6.111241566925802,1.016164779663086,-2.855082337056295
1708442879.8044827,-2.142240285873413,-1.33352783442054,-2.5259385744677942,6.111299860268392,1.0161112546920776,-2.854877297078268
1708442879.8064601,-2.142305612564087,-1.3335157644799729,-2.5259562174426478,6.111311781197347,1.0161247253417969,-2.854711357747213
1708442879.8084676,-2.142329454421997,-1.3335188937238236,-2.525951687489645,6.1113014099891565,1.0160796642303467,-2.854535166417257
1708442879.810465,-2.1423134803771973,-1.3335475039533158,-2.525975529347555,6.111338722496786,1.016029953956604,-2.8543217817889612
1708442879.8124602,-2.142324924468994,-1.3335441511920472,-2.525923554097311,6.111424076348104,1.016025424003601,-2.854171101246969
1708442879.8144515,-2.142336368560791,-1.333518923526146,-2.525996748601095,6.111420857697286,1.0160584449768066,-2.8540433088885706
1708442879.8164573,-2.1423532962799072,-1.3335637760213395,-2.525940004979269,6.111393916397848,1.0160629749298096,-2.8538194338427942
1708442879.8185399,-2.1423442363739014,-1.3334980320981522,-2.5258894602404993,6.111452448159017,1.0160315036773682,-2.8536229769336146
1708442879.820474,-2.142406463623047,-1.3335397106460114,-2.525951687489645,6.1113730547721765,1.0160553455352783,-2.8534305731402796
1708442879.8224716,-2.142347574234009,-1.3335233491710206,-2.525968138371603,6.111427056580343,1.0160629749298096,-2.8532140890704554
1708442879.8244593,-2.142413377761841,-1.3335025769523163,-2.5259278456317347,6.1114821312721155,1.0160597562789917,-2.8530870119677942
1708442879.8264642,-2.1424224376678467,-1.333518923526146,-2.5259607473956507,6.111491071968832,1.0160270929336548,-2.852891270314352
1708442879.828498,-2.1424248218536377,-1.3335519594005127,-2.525914732609884,6.111536133080282,1.0160030126571655,-2.8526743094073694
1708442879.8304827,-2.142458438873291,-1.3335430038026352,-2.525877062474386,6.111533391266622,1.0160270929336548,-2.852506462727682
1708442879.8324864,-2.142395496368408,-1.3335430038026352,-2.5259278456317347,6.111595499306478,1.0160030126571655,-2.8523176352130335
1708442879.834534,-2.1424317359924316,-1.3335307401469727,-2.525914732609884,6.111601936608114,1.015999674797058,-2.852088514958517
1708442879.8364954,-2.1424405574798584,-1.333542988901474,-2.5259562174426478,6.111627208977499,1.016036033630371,-2.8519867102252405
1708442879.8384676,-2.1424317359924316,-1.3335129183581849,-2.525940004979269,6.111609208374777,1.0159863233566284,-2.851757828389303
1708442879.8404562,-2.1424477100372314,-1.3335430038026352,-2.5259278456317347,6.111686694412985,1.0159952640533447,-2.8515499273883265
1708442879.8424795,-2.1424405574798584,-1.3335801374963303,-2.525869671498434,6.111673223763265,1.0159457921981812,-2.8513978163348597
1708442879.8444638,-2.1425087451934814,-1.3335890483907242,-2.5259278456317347,6.111668813019552,1.016008734703064,-2.851194683705465
1708442879.8464758,-2.1424498558044434,-1.333530755048134,-2.5258830229388636,6.11175428608016,1.0159457921981812,-2.850973431264059
1708442879.848458,-2.1424849033355713,-1.3335815233043213,-2.5259161631213587,6.111758816033163,1.0159502029418945,-2.8507636229144495
1708442879.850468,-2.1424500942230225,-1.3335474294475098,-2.5258947054492396,6.1117544052894495,1.0158931016921997,-2.850622002278463
1708442879.8524768,-2.1425254344940186,-1.3335397106460114,-2.5259249846087855,6.11180196979598,1.0159653425216675,-2.850445334111349
1708442879.8544726,-2.1425302028656006,-1.3334820133498688,-2.5259249846087855,6.111767756729879,1.015902042388916,-2.850302521382467
1708442879.856499,-2.1425492763519287,-1.333530755048134,-2.5259204546557825,6.11181269863204,1.0159066915512085,-2.8501341978656214
1708442879.8584955,-2.1425254344940186,-1.3335055720857163,-2.525902811680929,6.111821758538046,1.0159066915512085,-2.849921528493063
1708442879.8605046,-2.142590284347534,-1.3335934740355988,-2.5259249846087855,6.1118695614631555,1.0159155130386353,-2.84975773492922
1708442879.8624928,-2.142549514770508,-1.3335891228965302,-2.5259161631213587,6.111870753556051,1.0158902406692505,-2.8495851198779505
1708442879.8644848,-2.142535924911499,-1.3335233640721817,-2.5259035269366663,6.111841070442953,1.0158947706222534,-2.8494423071490687
1708442879.866473,-2.142577648162842,-1.3334980768016358,-2.5258992354022425,6.111782419472494,1.0159035921096802,-2.849253241215841
1708442879.868501,-2.142535924911499,-1.3335233491710206,-2.5259442965136927,6.1118905422981165,1.0158660411834717,-2.849053208027975
1708442879.8704813,-2.142542839050293,-1.3335397106460114,-2.5259035269366663,6.1119621870811365,1.0159155130386353,-2.8488975206958216
1708442879.8724754,-2.14255952835083,-1.3335563701442261,-2.5258947054492396,6.1119305966194055,1.0158872604370117,-2.848779026662008
1708442879.8744755,-2.1426050662994385,-1.3334909689477463,-2.5258665720569056,6.111879694252767,1.0158828496932983,-2.8485856691943567
1708442879.8764904,-2.1425633430480957,-1.3335549098304291,-2.525879685078756,6.111920106201925,1.0159155130386353,-2.8484135309802454
1708442879.8784757,-2.1425507068634033,-1.3335549098304291,-2.5258665720569056,6.111945497780599,1.0158991813659668,-2.848212782536642
1708442879.8804667,-2.1425960063934326,-1.3335967820933838,-2.5259249846087855,6.1119398949439905,1.015858769416809,-2.848093573247091
1708442879.8825057,-2.1426198482513428,-1.3335801374963303,-2.5258293787585657,6.111974227219381,1.0158872604370117,-2.8479540983783167
1708442879.88448,-2.1426289081573486,-1.3335189384273072,-2.5258458296405237,6.11195324638442,1.0159534215927124,-2.847769800816671
1708442879.8864875,-2.1426289081573486,-1.3335789901069184,-2.525884215031759,6.111965167313375,1.0158991813659668,-2.8476253191577356
1708442879.8885107,-2.142604112625122,-1.3335637760213395,-2.5259411970721644,6.1120396731193445,1.0158917903900146,-2.8475025335894983
1708442879.890466,-2.142587184906006,-1.333514393573143,-2.525879685078756,6.11201428154067,1.0159155130386353,-2.8473413626300257
1708442879.8924856,-2.142652750015259,-1.3335474294475098,-2.5258546511279505,6.112009870796957,1.0159200429916382,-2.8471933046924036
1708442879.8944595,-2.142676591873169,-1.3335519594005127,-2.525884215031759,6.112033712654867,1.0158660411834717,-2.846997324620382
1708442879.8965206,-2.1426312923431396,-1.333505631690361,-2.5259080568896692,6.112003910332479,1.0158541202545166,-2.8469186464892786
1708442879.898507,-2.142669439315796,-1.3335801374963303,-2.5258753935443323,6.112074243813314,1.0158947706222534,-2.846754852925436
1708442879.9004626,-2.142672061920166,-1.3335025620511551,-2.5258918444262903,6.112029182701864,1.0159035921096802,-2.8466830889331263
1708442879.9024823,-2.1426312923431396,-1.3335218739560624,-2.5259116331683558,6.112081515579977,1.0159200429916382,-2.846531693135397
1708442879.9044468,-2.142648220062256,-1.3335474294475098,-2.5258753935443323,6.112097966461935,1.0159155130386353,-2.8463626543628138
1708442879.9064882,-2.1426899433135986,-1.3335757118514557,-2.5258634726153772,6.112063634186544,1.0158828496932983,-2.846259419118063
1708442879.9084513,-2.142652750015259,-1.3335099977305909,-2.5258830229388636,6.112063634186544,1.0159066915512085,-2.846119228993551
1708442879.9104629,-2.142672061920166,-1.333530755048134,-2.5259080568896692,6.1121147749717615,1.0158947706222534,-2.846043888722555
1708442879.9124799,-2.142672061920166,-1.3335218739560624,-2.5258591810809534,6.112087833672323,1.0158811807632446,-2.8458874861346644
1708442879.9144993,-2.142704963684082,-1.3335637909225007,-2.5258753935443323,6.11203550079421,1.0159155130386353,-2.845772091542379
1708442879.9164512,-2.142643690109253,-1.3335010570338746,-2.5258591810809534,6.112117635994711,1.0158947706222534,-2.8456669489489954
1708442879.9184737,-2.142656087875366,-1.333542988901474,-2.5258918444262903,6.112101304322042,1.0159066915512085,-2.8455515543567103
1708442879.9204707,-2.1427011489868164,-1.3335129183581849,-2.5258784929858606,6.11213384845809,1.015923023223877,-2.8454116026507776
1708442879.922524,-2.1426923274993896,-1.333518923526146,-2.5259249846087855,6.112129199295797,1.015902042388916,-2.8453319708453577
1708442879.92446,-2.142672061920166,-1.3335549098304291,-2.5258753935443323,6.112071263581075,1.0159564018249512,-2.8452561537372034
1708442879.9265163,-2.142672061920166,-1.3334892255118866,-2.5258708635913294,6.112104284554281,1.0158947706222534,-2.845139805470602
1708442879.9284585,-2.1426968574523926,-1.3335519594005127,-2.525896135960714,6.112148868828573,1.0159319639205933,-2.8450310865985315
1708442879.9304929,-2.142672061920166,-1.333539755349495,-2.5259204546557825,6.112095343857565,1.0159183740615845,-2.8449676672564905
1708442879.9324794,-2.14260196685791,-1.3336338710835953,-2.5258546511279505,6.112113106041708,1.0159682035446167,-2.844855610524313
1708442879.9345276,-2.14267897605896,-1.3336250495961686,-2.5258918444262903,6.112141477852621,1.0159891843795776,-2.844807211552755
1708442879.9364884,-2.14267635345459,-1.3335474294475098,-2.5258665720569056,6.112115847855367,1.0159220695495605,-2.8447888533221644
1708442879.9384706,-2.1427419185638428,-1.3335683059743424,-2.5259035269366663,6.1121370671089075,1.0159878730773926,-2.8446887175189417
1708442879.9404526,-2.142683506011963,-1.333484710460045,-2.5258904139148157,6.112123596459188,1.0159502029418945,-2.8446648756610315
1708442879.9425006,-2.142667531967163,-1.3335548502257843,-2.525885883961813,6.112129199295797,1.016008734703064,-2.844592873250143
1708442879.9444602,-2.1426632404327393,-1.3335459542325516,-2.5258873144732874,6.112096774369039,1.0159833431243896,-2.844487253819601
1708442879.94647,-2.1426472663879395,-1.3335055273822327,-2.5259488264666956,6.112113106041708,1.0159622430801392,-2.8444441000567835
1708442879.9484797,-2.14267897605896,-1.3335352700999756,-2.5259116331683558,6.112148868828573,1.015981674194336,-2.8444441000567835
1708442879.950549,-2.1426517963409424,-1.333566741352417,-2.5259116331683558,6.112156379013815,1.0160270929336548,-2.8444417158709925
1708442879.9524603,-2.142733097076416,-1.3335623157075425,-2.5259738604175013,6.112113225250997,1.0160642862319946,-2.8443599382983606
1708442879.9545,-2.1427128314971924,-1.333530755048134,-2.5258784929858606,6.112083542137899,1.016019344329834,-2.844316069279806
1708442879.9564989,-2.1426632404327393,-1.3335879457047959,-2.525902811680929,6.112113225250997,1.0160887241363525,-2.8443246523486536
1708442879.9584675,-2.1426427364349365,-1.3335503947785874,-2.5259116331683558,6.112115847855367,1.0160887241363525,-2.844325844441549
1708442879.9605515,-2.1426303386688232,-1.3335503947785874,-2.5259369055377405,6.112092244416036,1.0160495042800903,-2.844313923512594
1708442879.9624789,-2.142700433731079,-1.3335549098304291,-2.5259161631213587,6.112124788552084,1.0161246061325073,-2.844318215047018
1708442879.9645326,-2.1426632404327393,-1.3335923862508317,-2.5259369055377405,6.112096774369039,1.016061782836914,-2.844395701085226
1708442879.9665148,-2.142704725265503,-1.3335307401469727,-2.5259550253497522,6.112113106041708,1.016168475151062,-2.8443129698382776
1708442879.9684916,-2.142700433731079,-1.3335909110358735,-2.525923554097311,6.112150418549337,1.0161638259887695,-2.8443291823016565
1708442879.9704592,-2.1427135467529297,-1.3336013418487092,-2.525931183491842,6.112101304322042,1.0161638259887695,-2.84434158006777
1708442879.9724627,-2.1427464485168457,-1.3335757118514557,-2.5259888807879847,6.112129199295797,1.0161713361740112,-2.844471041356222
1708442879.9744608,-2.142660617828369,-1.3335296523622056,-2.5259843508349817,6.112101304322042,1.0161995887756348,-2.8444624582873743
1708442879.976484,-2.142674684524536,-1.333541528587677,-2.525910202656881,6.112071263581075,1.0162327289581299,-2.8445218245135706
1708442879.9784758,-2.142709255218506,-1.3335519594005127,-2.525975529347555,6.112113106041708,1.016249418258667,-2.844504419957296
1708442879.9804652,-2.142667531967163,-1.3336177033237,-2.525971237813131,6.112141477852621,1.0162570476531982,-2.8445690313922327
1708442879.9824944,-2.142639398574829,-1.333544136290886,-2.525959316884176,6.112075555115499,1.016276240348816,-2.844682041798727
1708442879.9844613,-2.1426899433135986,-1.3335923862508317,-2.5259879271136683,6.112117635994711,1.0163335800170898,-2.844672981892721
1708442879.9864998,-2.142676591873169,-1.3335923862508317,-2.5259581247912806,6.112089144974508,1.0163874626159668,-2.844729725514547
1708442879.9884703,-2.1426968574523926,-1.3335233491710206,-2.525987688695089,6.1121102450187585,1.016339659690857,-2.8448179403888147
1708442879.9904647,-2.142656087875366,-1.3335637909225007,-2.525994125996725,6.112069833069601,1.0163109302520752,-2.844943110142843
1708442879.992477,-2.142656087875366,-1.3336013865521927,-2.5260239283191126,6.112119304924764,1.0163723230361938,-2.844940964375631
1708442879.9944844,-2.1426045894622803,-1.3335923862508317,-2.526076380406515,6.112045633583822,1.0163935422897339,-2.8450539747821253
1708442879.9964912,-2.142665147781372,-1.333542988901474,-2.526043478642599,6.111983048706808,1.0164177417755127,-2.845142189656393
1708442879.9984627,-2.142665147781372,-1.3335459542325516,-2.526050869618551,6.111971246987142,1.0163952112197876,-2.8452540079699915
1708442880.0004575,-2.142665147781372,-1.33357127130542,-2.5260794798480433,6.111975657730856,1.0164445638656616,-2.8453787008868616
1708442880.0024626,-2.142615556716919,-1.333587960605957,-2.5260420481311243,6.111983048706808,1.0164642333984375,-2.84553033510317
1708442880.0044956,-2.142639398574829,-1.3335099530271073,-2.526128594075338,6.111947285919943,1.0164763927459717,-2.8456657568561
1708442880.0064578,-2.142615556716919,-1.3335263443044205,-2.5260825792895716,6.111941087036886,1.0164507627487183,-2.8458617369281214
1708442880.0084662,-2.142608404159546,-1.3335801374963303,-2.5261483828174036,6.111917245178976,1.016512155532837,-2.8460024038897913
1708442880.010477,-2.1425747871398926,-1.3335218739560624,-2.5261314550982874,6.111896145134725,1.016582727432251,-2.8461623827563685
1708442880.0124593,-2.142591714859009,-1.3335801374963303,-2.5261648336993616,6.111893164902487,1.016527533531189,-2.8463831583606165
1708442880.0144644,-2.142591714859009,-1.333559350376465,-2.52616793314089,6.1118483422096155,1.0166101455688477,-2.846574846898214
1708442880.0164728,-2.1426005363464355,-1.333559350376465,-2.52616793314089,6.111890423088827,1.0166010856628418,-2.84674317041506
1708442880.018454,-2.1425836086273193,-1.3335727763227005,-2.5261219183551233,6.111850011139669,1.0166701078414917,-2.8469789663897913
1708442880.020457,-2.1425507068634033,-1.3335834008506318,-2.526196066533224,6.111765134125509,1.0166370868682861,-2.8471418062793177
1708442880.0224617,-2.1425766944885254,-1.3335549098304291,-2.5261991659747522,6.111778485565939,1.0166897773742676,-2.8473945299731653
1708442880.0244849,-2.142564296722412,-1.333625004892685,-2.526207987462179,6.111745464592733,1.0166716575622559,-2.8475900332080286
1708442880.026459,-2.142524480819702,-1.3335474294475098,-2.5262070337878626,6.1117498753364465,1.0167629718780518,-2.8478508631335657
1708442880.0284648,-2.1425087451934814,-1.3336013418487092,-2.5261903444873255,6.111713874131002,1.0167665481567383,-2.8480826059924524
1708442880.0304885,-2.142533540725708,-1.3335339587977906,-2.5262189547168177,6.1116570112998865,1.0167359113693237,-2.848342482243673
1708442880.0324686,-2.1424667835235596,-1.3335923862508317,-2.526292149220602,6.1116301892097376,1.016797661781311,-2.848635975514547
1708442880.0344832,-2.1424758434295654,-1.333587960605957,-2.5262635389911097,6.111640918045797,1.0168172121047974,-2.848886791859762
1708442880.0365562,-2.1424758434295654,-1.333587960605957,-2.526254717503683,6.111556875496664,1.0168534517288208,-2.8491883913623255
1708442880.0384712,-2.1424317359924316,-1.3335879755071183,-2.526332680379049,6.11156593540267,1.0168490409851074,-2.849488083516256
1708442880.0404804,-2.142423629760742,-1.3335623157075425,-2.526311699544088,6.111551272660055,1.016898512840271,-2.8497353235827845
1708442880.0424712,-2.142401933670044,-1.3335459244302292,-2.5263641516314905,6.111482250481405,1.0168805122375488,-2.8500927130328577
1708442880.044479,-2.1424338817596436,-1.3336087477258225,-2.5263267199145716,6.111446130066671,1.0169466733932495,-2.85034686723818
1708442880.0464797,-2.1423399448394775,-1.3335967820933838,-2.526334349309103,6.111446130066671,1.0169422626495361,-2.850663963948385
1708442880.048471,-2.1423656940460205,-1.3335578751615067,-2.526363197957174,6.111459481507101,1.0169705152511597,-2.8510094324695032
1708442880.0504653,-2.1423115730285645,-1.3336087179235,-2.5263705889331263,6.11141191700057,1.0169570446014404,-2.8512633482562464
1708442880.0524588,-2.142324924468994,-1.333587960605957,-2.52641207376589,6.1113014099891565,1.0169858932495117,-2.851579491292135
1708442880.0544858,-2.142277240753174,-1.3335637909225007,-2.5264151732074183,6.111310350685873,1.0170427560806274,-2.8519607226001185
1708442880.0564613,-2.142223358154297,-1.333586574797966,-2.5264230410205286,6.111217605858602,1.0170427560806274,-2.8522518316852015
1708442880.0584667,-2.142195701599121,-1.3335756969502945,-2.5264676252948206,6.1112356064613245,1.0170336961746216,-2.8526487986194056
1708442880.0604727,-2.1422135829925537,-1.333554820423462,-2.526463333760397,6.111174690514364,1.0170533657073975,-2.852999989186422
1708442880.0624943,-2.1422362327575684,-1.3335745644620438,-2.526449982319967,6.111097919731893,1.0170893669128418,-2.853400770817892
1708442880.0644538,-2.142125368118286,-1.3335879308036347,-2.5264914671527308,6.111122119217672,1.017134666442871,-2.853715483342306
1708442880.0664718,-2.1421003341674805,-1.3335712862065812,-2.526449982319967,6.111051904946127,1.0171616077423096,-2.854046885167257
1708442880.068486,-2.1420369148254395,-1.3336042773774643,-2.5265279451953333,6.111038195877828,1.0171946287155151,-2.854447666798727
1708442880.0704863,-2.142007350921631,-1.3335372668555756,-2.5265234152423304,6.110911237984457,1.0172260999679565,-2.8548370043383997
1708442880.0724995,-2.141995906829834,-1.3336189550212403,-2.5265756289111536,6.110884177475729,1.0172621011734009,-2.855298105870382
1708442880.0744877,-2.1419663429260254,-1.3335789454034348,-2.526637140904562,6.110779630928793,1.0172607898712158,-2.8556323687182825
1708442880.0764806,-2.1419222354888916,-1.3336161238006135,-2.526590887700216,6.110764848976888,1.0173296928405762,-2.856086317692892
1708442880.0784583,-2.141914129257202,-1.3336266887239,-2.5266223589526575,6.110746609955587,1.0173287391662598,-2.856513563786642
1708442880.0804565,-2.1418676376342773,-1.333565742974617,-2.5266686121570032,6.110625731735983,1.0173659324645996,-2.8569143454181116
1708442880.0824637,-2.141744375228882,-1.333610014324524,-2.5266838709460657,6.110533106118002,1.017401933670044,-2.857338253651754
1708442880.084445,-2.1417553424835205,-1.3335984212211152,-2.5266955534564417,6.110501515656271,1.017397403717041,-2.857751433049337
1708442880.086481,-2.1416819095611572,-1.3336222481778641,-2.52674371400942,6.110392558365621,1.0174875259399414,-2.8581627050982874
1708442880.0884619,-2.1415798664093018,-1.3336593818715592,-2.5267675558673304,6.110370266228475,1.0174545049667358,-2.8585668245898646
1708442880.0904882,-2.1415445804595947,-1.3336252582124253,-2.5267675558673304,6.110253441124716,1.0174953937530518,-2.8590388933764856
1708442880.0924606,-2.1415228843688965,-1.3336668771556397,-2.526782814656393,6.110182034760275,1.0175566673278809,-2.8594823519336146
1708442880.094484,-2.1414310932159424,-1.3336835515550156,-2.526860300694601,6.11013816574172,1.0175386667251587,-2.859936062489645
1708442880.096476,-2.141378879547119,-1.333714799290039,-2.52692157426943,6.110032546311178,1.0175750255584717,-2.860370699559347
1708442880.0984683,-2.141310930252075,-1.333702878361084,-2.5268831888781946,6.109959113388815,1.0175824165344238,-2.8607831637011927
1708442880.100455,-2.141247272491455,-1.3337355715087433,-2.5268994013415735,6.109903681069174,1.0176351070404053,-2.861321989689962
1708442880.102484,-2.1411385536193848,-1.3337222945741196,-2.526923481618063,6.109765875130453,1.017675518989563,-2.8616939226733606
1708442880.1045387,-2.1410839557647705,-1.3337430667928238,-2.5269342104541224,6.109724390297689,1.0177162885665894,-2.862192217503683
1708442880.106479,-2.1409389972686768,-1.3337790679982682,-2.5269671122180384,6.109621274262228,1.0176939964294434,-2.862664524708883
1708442880.1085484,-2.1408956050872803,-1.3337460470250626,-2.526986900960104,6.10945092418746,1.017786979675293,-2.8631437460528772
1708442880.110519,-2.1408002376556396,-1.333810643558838,-2.527043883000509,6.109399902611532,1.0178349018096924,-2.863699261342184
1708442880.112468,-2.140709400177002,-1.333851934676506,-2.527100388203756,6.109280574112692,1.017879843711853,-2.8641236464129847
1708442880.1144636,-2.1405293941497803,-1.3338385832360764,-2.5271111170398157,6.1091322777564905,1.0179402828216553,-2.864607636128561
1708442880.1164622,-2.140455484390259,-1.333859310751297,-2.527085606251852,6.109078752785482,1.0180256366729736,-2.8651414553271692
1708442880.1184719,-2.1403231620788574,-1.333834246998169,-2.527159039174215,6.108938205033102,1.018066167831421,-2.865633789693014
1708442880.120473,-2.1402456760406494,-1.333874673848488,-2.5272160212146204,6.108826148300924,1.0180811882019043,-2.8661816755877894
1708442880.1224868,-2.140125274658203,-1.3338940900615235,-2.527214829121725,6.108685600548544,1.0181082487106323,-2.866662089024679
1708442880.1244762,-2.1399972438812256,-1.3339257550290604,-2.527308766041891,6.108607518463888,1.0181641578674316,-2.867206398640768
1708442880.1264718,-2.139861583709717,-1.3339822006276627,-2.5273030439959925,6.108410107880392,1.0182331800460815,-2.8677502314196985
1708442880.1284647,-2.1397037506103516,-1.333989904528,-2.5273764769183558,6.108281719475546,1.0182602405548096,-2.8682714144336146
1708442880.1304858,-2.1395485401153564,-1.3339812022498627,-2.5274198690997522,6.1081052897270105,1.018341064453125,-2.868819061909811
1708442880.1324646,-2.139467477798462,-1.3340300631574173,-2.5275049845324915,6.10799919345931,1.0183895826339722,-2.8693795839892786
1708442880.134485,-2.1392905712127686,-1.334040806894638,-2.527541224156515,6.107884394913473,1.0184794664382935,-2.8699093500720423
1708442880.136541,-2.139106035232544,-1.334074543123581,-2.5276055971728724,6.107721435814657,1.0185474157333374,-2.8704186121570032
1708442880.1384919,-2.1389293670654297,-1.3341225546649476,-2.527623716984884,6.10756145694808,1.0186148881912231,-2.870967213307516
1708442880.1404634,-2.1388065814971924,-1.334125669007637,-2.5276556650744837,6.107340204506674,1.01865816116333,-2.8714657465564173
1708442880.1424775,-2.1386520862579346,-1.3341497492841263,-2.527748409901754,6.107226359635153,1.0187379121780396,-2.872094217930929
1708442880.1444938,-2.1384425163269043,-1.334178016786911,-2.5277841726886194,6.106997597008505,1.0188027620315552,-2.8725999037372034
1708442880.1464908,-2.138300657272339,-1.3342180711082001,-2.527884546910421,6.106864559441366,1.0188909769058228,-2.8731511274920862
1708442880.1484709,-2.1380672454833984,-1.3342616272023697,-2.527919117604391,6.106626736908712,1.01896333694458,-2.8737247625934046
1708442880.1504655,-2.13794207572937,-1.3342247021249314,-2.5280285517321985,6.106456744461813,1.0190188884735107,-2.874218765889303
1708442880.1524675,-2.137733221054077,-1.3342572313598176,-2.528117005025045,6.106272685318746,1.0190939903259277,-2.87477952638735
1708442880.154471,-2.1375091075897217,-1.3343290400556107,-2.5281365553485315,6.10608600357131,1.0192251205444336,-2.875300470982687
1708442880.1564734,-2.1373846530914307,-1.3343854707530518,-2.5282116572009485,6.105821358948507,1.0192761421203613,-2.875826899205343
1708442880.1584845,-2.1370577812194824,-1.334462748175003,-2.528337303792135,6.105635988503256,1.0193750858306885,-2.876385513936178
1708442880.1604757,-2.136817216873169,-1.3344857406667252,-2.528400246297018,6.105367171555319,1.0194592475891113,-2.8769858519183558
1708442880.1624722,-2.136603593826294,-1.3345051270774384,-2.5284810701953333,6.105123626976766,1.0195642709732056,-2.8775580565081995
1708442880.1644638,-2.1363658905029297,-1.3345694255879899,-2.5285266081439417,6.104867684632101,1.0197041034698486,-2.8780811468707483
1708442880.1664786,-2.13608455657959,-1.334556223159172,-2.5286555925952356,6.104616749077596,1.0198081731796265,-2.878578249608175
1708442880.168487,-2.1358370780944824,-1.3346039664796372,-2.5287843386279505,6.104346382408895,1.0199205875396729,-2.8791382948504847
1708442880.17048,-2.1356308460235596,-1.334656224851944,-2.5288353602038782,6.1041602967079065,1.020050048828125,-2.879606072102682
1708442880.1724875,-2.135333776473999,-1.334720106129982,-2.5289481321917933,6.103909718781271,1.0201659202575684,-2.880188528691427
1708442880.1744661,-2.135061740875244,-1.334787831907608,-2.529060188923971,6.103637444763937,1.0202784538269043,-2.8806799093829554
1708442880.1764824,-2.1347873210906982,-1.334790752535202,-2.52916390100588,6.103389608650961,1.0203821659088135,-2.8811753431903284
1708442880.178477,-2.1345512866973877,-1.3348803234151383,-2.529259983693258,6.103091823845663,1.020531177520752,-2.881777588521139
1708442880.1805072,-2.134260892868042,-1.3349191707423707,-2.5294247309314173,6.102846729546346,1.0206183195114136,-2.8822973410235804
1708442880.182466,-2.134031057357788,-1.3349301677993317,-2.5295613447772425,6.102531540184774,1.0207878351211548,-2.8828375975238245
1708442880.1844566,-2.133668899536133,-1.3350758117488404,-2.5296765009509485,6.10227249839858,1.0208450555801392,-2.8833213488208216
1708442880.1864686,-2.1333863735198975,-1.3350834560445328,-2.5298247973071497,6.101964580803671,1.0210884809494019,-2.8838523069964808
1708442880.1884723,-2.1330676078796387,-1.3351780486157914,-2.52993613878359,6.101651060372152,1.0212119817733765,-2.88438851038088
1708442880.190453,-2.1327240467071533,-1.3352463704398652,-2.5301054159747522,6.101335632592001,1.0213934183120728,-2.8848961035357874
1708442880.192468,-2.132460117340088,-1.3352748167565842,-2.5302374998675745,6.10102258899764,1.0215094089508057,-2.8854833284961146
1708442880.19452,-2.132079839706421,-1.3353288930705567,-2.530351702366964,6.100668775826254,1.021674633026123,-2.8859568277942103
1708442880.1964812,-2.131728410720825,-1.3354541075280686,-2.5305448214160364,6.100350248604574,1.0218427181243896,-2.8864081541644495
1708442880.1984673,-2.1313765048980713,-1.3355500114015122,-2.5306690374957483,6.09994255283431,1.0219646692276,-2.886954371129171
1708442880.2004836,-2.1309876441955566,-1.3356822592071076,-2.530849281941549,6.099661099701681,1.0221799612045288,-2.8874521891223353
1708442880.2024715,-2.13061785697937,-1.3357456189445038,-2.531015698109762,6.099257695465841,1.0223915576934814,-2.887963596974508
1708442880.2044713,-2.130223274230957,-1.3358944368413468,-2.531168524418966,6.098889577179708,1.022576093673706,-2.888489309941427
1708442880.2064984,-2.129821538925171,-1.3359641444734116,-2.5313363710986536,6.098584759026327,1.0227445363998413,-2.8890112082110804
1708442880.2084713,-2.1294620037078857,-1.3360846799663086,-2.5315449873553675,6.098203885346212,1.0229026079177856,-2.8894689718829554
1708442880.2104678,-2.1290366649627686,-1.3361806583455582,-2.531729523335592,6.09781705120162,1.023120641708374,-2.8899202982531946
1708442880.2125003,-2.128593921661377,-1.3362587106278916,-2.531888548527853,6.097410428314962,1.0233174562454224,-2.8904078642474573
1708442880.2144616,-2.1281654834747314,-1.3363990497640152,-2.5321462790118616,6.0970345614250085,1.0235337018966675,-2.890934769307272
1708442880.216509,-2.1277480125427246,-1.3365181696465989,-2.5323663393603724,6.096592771797933,1.0237621068954468,-2.8914056460009974
1708442880.2184668,-2.1273033618927,-1.3366541427424927,-2.5325332323657435,6.096176254540243,1.0240073204040527,-2.891918961201803
1708442880.2204602,-2.1267566680908203,-1.3367409420064469,-2.5327816645251673,6.095780360489645,1.0241948366165161,-2.8923116366015833
1708442880.2225251,-2.126352548599243,-1.336921901707985,-2.5329561869250696,6.0952762244041345,1.0244985818862915,-2.8927724997149866
1708442880.2244713,-2.1259067058563232,-1.336980478172638,-2.533181969319479,6.0948595879371545,1.0246998071670532,-2.893298927937643
1708442880.2265077,-2.1253864765167236,-1.3371446591666718,-2.5334299246417444,6.094379889756002,1.0249416828155518,-2.893743340169088
1708442880.2284715,-2.1248788833618164,-1.3372790527394791,-2.5336621443377894,6.093825685768881,1.0252108573913574,-2.8941949049579065
1708442880.230504,-2.1243224143981934,-1.3374305379441758,-2.5339229742633265,6.093393790512838,1.0254093408584595,-2.894653383885519
1708442880.2325017,-2.12386155128479,-1.337586836223938,-2.5342076460467737,6.092940914421835,1.0256588459014893,-2.8951426188098353
1708442880.2344716,-2.1232895851135254,-1.3377130192569275,-2.5343850294696253,6.0924099562461755,1.0259685516357422,-2.8955698649035853
1708442880.2365146,-2.1227009296417236,-1.3379343909076233,-2.5347593466388147,6.091886627465048,1.0262407064437866,-2.8959983030902308
1708442880.238501,-2.122101068496704,-1.338143528704979,-2.5349741617785853,6.091393577843466,1.0265122652053833,-2.8964553515063685
1708442880.2404597,-2.1215858459472656,-1.33833201349292,-2.535257641469137,6.090809452324667,1.0268008708953857,-2.896848503743307
1708442880.2425172,-2.1210482120513916,-1.3385068339160462,-2.5355215708362024,6.090350019722738,1.0270519256591797,-2.8973096052752894
1708442880.2445333,-2.1203954219818115,-1.3386085492423554,-2.535797421132223,6.089740502625265,1.027252197265625,-2.897728983555929
1708442880.2464721,-2.119809150695801,-1.3388655942729493,-2.5360854307757776,6.0893064616020105,1.0275661945343018,-2.898200337086813
1708442880.248501,-2.119107723236084,-1.3390586984208603,-2.5363734404193323,6.088694202690878,1.027863621711731,-2.8985796610461634
1708442880.2504945,-2.1185526847839355,-1.339230017071106,-2.5366898218738,6.088104831963339,1.028164267539978,-2.8989208380328577
1708442880.2525306,-2.1178715229034424,-1.3394633692554017,-2.537022415791647,6.0873992321784876,1.0285757780075073,-2.8992958704577845
1708442880.254502,-2.117168426513672,-1.3397024136832734,-2.537354056035177,6.086840259819784,1.0289204120635986,-2.8997791449176233
1708442880.2564797,-2.1164422035217285,-1.3399224293283005,-2.537673536931173,6.086176740914144,1.0292930603027344,-2.9000893274890345
1708442880.2584882,-2.115787982940674,-1.3401359480670472,-2.5379765669452112,6.0855610249336145,1.0295681953430176,-2.9005184809314173
1708442880.260487,-2.115065097808838,-1.340358482008316,-2.538304630910055,6.084934460907736,1.0299415588378906,-2.9008975664721888
1708442880.2625022,-2.1143057346343994,-1.3406277161887665,-2.538665835057394,6.084336745529928,1.0302495956420898,-2.9012985865222376
1708442880.2644913,-2.1135952472686768,-1.3408340823701401,-2.538936201726095,6.0836713192756555,1.0306557416915894,-2.9016695658313196
1708442880.2665195,-2.112889051437378,-1.3410716515830536,-2.5393462816821497,6.082955586701193,1.0309637784957886,-2.9020593802081507
1708442880.268494,-2.112081527709961,-1.3413766783526917,-2.5397213141070765,6.082276689797201,1.0312992334365845,-2.902426783238546
1708442880.27048,-2.111297607421875,-1.3416932237199326,-2.540093485509054,6.081497537880697,1.0317902565002441,-2.902736012135641
1708442880.2725139,-2.1104824542999268,-1.3419431012919922,-2.5405474344836634,6.080855119019308,1.0321383476257324,-2.903081003819601
1708442880.2744627,-2.1096749305725098,-1.342217968111374,-2.54089862505068,6.0800362704093835,1.0325229167938232,-2.903482977543966
1708442880.2765179,-2.108914613723755,-1.342525915508606,-2.541295591984884,6.079336392670431,1.032877802848816,-2.9037886301623743
1708442880.2784748,-2.108144760131836,-1.3428011399558564,-2.5415974299060267,6.078613149910726,1.033226490020752,-2.9040966669665735
1708442880.2804692,-2.1073060035705566,-1.3430203956416626,-2.5420268217669886,6.077912080078878,1.033639907836914,-2.904435698186056
1708442880.2824724,-2.1063990592956543,-1.3433986616185685,-2.542462412511007,6.077167498856344,1.0340651273727417,-2.904714647923605
1708442880.2844608,-2.1055760383605957,-1.3437561851790925,-2.542866293584005,6.076315748482504,1.034485936164856,-2.905093256627218
1708442880.2864966,-2.104649305343628,-1.3440448653749009,-2.543285910283224,6.075498211174764,1.0349475145339966,-2.9054141680346888
1708442880.2884796,-2.103731155395508,-1.3443552118590851,-2.543729845677511,6.074694144516744,1.0353353023529053,-2.9056432882892054
1708442880.2904716,-2.102837324142456,-1.3447111409953614,-2.544154230748312,6.073890077858724,1.0358551740646362,-2.9059060255633753
1708442880.2924714,-2.1019511222839355,-1.345026509170868,-2.544623915349142,6.0731031773384,1.036238193511963,-2.906243864689962
1708442880.2944653,-2.101062297821045,-1.3453284663013,-2.545079294835226,6.072233426361837,1.0366216897964478,-2.9065540472613733
1708442880.2964673,-2.100116014480591,-1.345661924486496,-2.545497719441549,6.071408974915304,1.0370891094207764,-2.906830374394552
1708442880.2984526,-2.099231004714966,-1.3460103136352082,-2.5460029284106653,6.070543038636007,1.037503957748413,-2.90712815919985
1708442880.3004508,-2.098281145095825,-1.346340374355652,-2.546384398137228,6.069719183235922,1.0379667282104492,-2.9073270002948206
1708442880.30248,-2.0973877906799316,-1.3467246156981965,-2.5469308535205286,6.068868267327108,1.0384058952331543,-2.907623831425802
1708442880.3044689,-2.0963635444641113,-1.3469933581403275,-2.547420088444845,6.068076240807333,1.0389046669006348,-2.9078756014453333
1708442880.3064563,-2.0954530239105225,-1.3474226605943223,-2.547828499470846,6.067224967270651,1.039368987083435,-2.908151690159933
1708442880.3084674,-2.09442138671875,-1.3477976036122818,-2.548354212437765,6.066344368248739,1.0398590564727783,-2.908375088368551
1708442880.3104641,-2.0933992862701416,-1.3481191557696839,-2.5488701502429407,6.065426814347067,1.0403324365615845,-2.9085918108569544
1708442880.3124819,-2.0923783779144287,-1.3484315139106293,-2.5493934790240687,6.064531075745382,1.0408495664596558,-2.908888880406515
1708442880.3144672,-2.0913469791412354,-1.3488813799670716,-2.549901787434713,6.063628542214193,1.0412763357162476,-2.90909988084902
1708442880.3164935,-2.090317487716675,-1.3492639821818848,-2.550401035939352,6.0627407906349084,1.0417121648788452,-2.90932804742922
1708442880.3184676,-2.089231014251709,-1.3496913474849244,-2.5509498755084437,6.06183289268569,1.0422159433364868,-2.9095054308520716
1708442880.320468,-2.088120698928833,-1.3500932914069672,-2.5514939467059534,6.060829865723409,1.0426756143569946,-2.909816567097799
1708442880.3224733,-2.0870203971862793,-1.3505239349654694,-2.5520909468280237,6.059815394669332,1.0432168245315552,-2.9100316206561487
1708442880.3244927,-2.0859031677246094,-1.3509634745172043,-2.552694861088888,6.058855163842001,1.0438116788864136,-2.9102359453784388
1708442880.326477,-2.084764003753662,-1.3513776522925873,-2.5532456080066126,6.0579519150550745,1.0443557500839233,-2.9104273954974573
1708442880.3284597,-2.0836758613586426,-1.3517986249974747,-2.5537803808795374,6.056904423027792,1.044845700263977,-2.910612169896261
1708442880.3304615,-2.0825459957122803,-1.352237032060959,-2.5543773810016077,6.055978286057272,1.045289397239685,-2.910823170338766
1708442880.33249,-2.081411838531494,-1.3526431930116196,-2.554903809224264,6.054976093560018,1.0457699298858643,-2.910994354878561
1708442880.3344643,-2.0802512168884277,-1.3531035643867035,-2.555577818547384,6.053929316788473,1.046260118484497,-2.9111948649035853
1708442880.3365204,-2.0791516304016113,-1.3535915923169632,-2.5561209360705774,6.052954065590658,1.0467768907546997,-2.911374632512228
1708442880.3384852,-2.0779922008514404,-1.3539827030948182,-2.5567448774920862,6.05193983295516,1.0472822189331055,-2.9115784803973597
1708442880.3404572,-2.0767478942871094,-1.3545537751964112,-2.5573371092425745,6.050922739296713,1.047823190689087,-2.911757294331686
1708442880.3424742,-2.0755836963653564,-1.354985849266388,-2.5579031149493616,6.049865233689108,1.048392415046692,-2.9119213263141077
1708442880.3444629,-2.074345111846924,-1.3555159133723755,-2.5586167017566126,6.048771726876058,1.0489541292190552,-2.9121256510363978
1708442880.3464887,-2.0731441974639893,-1.355954111819603,-2.559199635182516,6.047670590668478,1.049454689025879,-2.9123030344592493
1708442880.3484726,-2.0719213485717773,-1.3564520639232178,-2.559814755116598,6.046630489617147,1.0500199794769287,-2.9124611059771937
1708442880.3504615,-2.0707390308380127,-1.3570198577693482,-2.5604189077960413,6.04568778255538,1.050565481185913,-2.912633721028463
1708442880.35246,-2.0695464611053467,-1.3575141292861481,-2.561014477406637,6.044596779137411,1.0511471033096313,-2.912830654774801
1708442880.3544717,-2.0682754516601562,-1.3579418075135727,-2.5616701284991663,6.0435112593467615,1.051711916923523,-2.9129541555987757
1708442880.3564863,-2.0670320987701416,-1.358485908513405,-2.5622971693622034,6.042425739556112,1.052305817604065,-2.913182322178976
1708442880.3584764,-2.0658042430877686,-1.359010563497879,-2.5629735628711146,6.041348683625021,1.0529072284698486,-2.913241211568014
1708442880.360465,-2.064525842666626,-1.3596052688411255,-2.5636778513537806,6.040247905045309,1.0535717010498047,-2.913433853779928
1708442880.3624845,-2.0632874965667725,-1.3601452273181458,-2.564317289982931,6.039116966515341,1.0542210340499878,-2.9135454336749476
1708442880.3644648,-2.0619497299194336,-1.3606219750693818,-2.5649636427508753,6.037959563523092,1.054850697517395,-2.9136925379382532
1708442880.3664722,-2.060645818710327,-1.3611558836749573,-2.565693442021505,6.036817657738485,1.0554500818252563,-2.913849655781881
1708442880.368522,-2.0594632625579834,-1.3617263746312638,-2.566335980092184,6.035733330040731,1.0559988021850586,-2.913985554371969
1708442880.370493,-2.0581259727478027,-1.3623021405986329,-2.567040506993429,6.034624206810751,1.0566014051437378,-2.9141083399402063
1708442880.3725011,-2.056856393814087,-1.3628235322288056,-2.567744795476095,6.0334956524665735,1.0572148561477661,-2.9143102804767054
1708442880.3744636,-2.0555171966552734,-1.3633812230876465,-2.568460528050558,6.03247224071578,1.0578371286392212,-2.914388958607809
1708442880.3764699,-2.0541303157806396,-1.3640211087516327,-2.5692458788501185,6.031355726509847,1.0584782361984253,-2.9145167509662073
1708442880.3784986,-2.0527749061584473,-1.364598111515381,-2.569960896168844,6.030093538552084,1.0591081380844116,-2.9146855513202112
1708442880.3805175,-2.0514461994171143,-1.3651749652675171,-2.5706926027881067,6.029005753784933,1.0597124099731445,-2.9148414770709437
1708442880.382479,-2.050004720687866,-1.3657905620387574,-2.571448866521017,6.027819621353903,1.0603073835372925,-2.9150224367724817
1708442880.3844633,-2.0486626625061035,-1.3663300734809418,-2.572188202534811,6.02674554565505,1.0609703063964844,-2.9151130358325403
1708442880.3864844,-2.0472826957702637,-1.3669042450240632,-2.572867457066671,6.025566088944235,1.0615712404251099,-2.9152494112597864
1708442880.388486,-2.0458974838256836,-1.3674575251391907,-2.573660198842184,6.0244637606437585,1.0621800422668457,-2.9153524080859583
1708442880.3904727,-2.0445032119750977,-1.3680866223624726,-2.574416462575094,6.023327100067892,1.0628260374069214,-2.9155619780169886
1708442880.3924682,-2.0430424213409424,-1.36869531989608,-2.575221125279562,6.022008168488302,1.0634996891021729,-2.9156811873065394
1708442880.394461,-2.0416176319122314,-1.3693421346000214,-2.5759759585009974,6.020866024285116,1.0642391443252563,-2.9157846609698694
1708442880.396479,-2.040184497833252,-1.369971291427948,-2.5767913500415247,6.019652592926779,1.0649458169937134,-2.915957514439718
