Eg3-git/Classifiers/Data Collection/u8/u8abc5_ur3e_joint_states.csv
time,elbow_joint,shoulder_lift_joint,shoulder_pan_joint,wrist_1_joint,wrist_2_joint,wrist_3_joint
1708442897.5227714,-2.151745319366455,-1.3346474927714844,-2.519524637852804,6.1286132214363,1.0042006969451904,-2.798013989125387
1708442897.5247304,-2.151728391647339,-1.3346517396024247,-2.519524637852804,6.128620731621542,1.00419282913208,-2.798002068196432
1708442897.5267446,-2.151732921600342,-1.3346194189837952,-2.519553009663717,6.128571617394247,1.0042169094085693,-2.7980011145221155
1708442897.5287237,-2.151732921600342,-1.3346517098001023,-2.519524637852804,6.1286132214363,1.0042378902435303,-2.7980583349811
1708442897.530727,-2.151754140853882,-1.3346313548139115,-2.519594971333639,6.128603207855978,1.0042169094085693,-2.798030201588766
1708442897.5327442,-2.1517906188964844,-1.3345868301442643,-2.51952034631838,6.12855218628005,1.0042169094085693,-2.7979934851275843
1708442897.5347533,-2.1517250537872314,-1.334615172152855,-2.5195322672473353,6.1286120293434045,1.0041841268539429,-2.798046414052145
1708442897.5367198,-2.1517462730407715,-1.3346236211112519,-2.519578520451681,6.128658044129171,1.0042006969451904,-2.798042122517721
1708442897.5387692,-2.151749849319458,-1.3346397888711472,-2.51953369775881,6.1286295531089685,1.004183292388916,-2.7979891935931605
1708442897.5407443,-2.151745319366455,-1.3346594137004395,-2.51953369775881,6.128562080651083,1.0042006969451904,-2.7980344931231897
1708442897.5427492,-2.1517250537872314,-1.3346432757428666,-2.519529167805807,6.128595816880026,1.0042082071304321,-2.798002068196432
1708442897.5447385,-2.151728391647339,-1.3346236509135743,-2.5195158163653772,6.1286282418067834,1.0042093992233276,-2.798025910054342
1708442897.5467455,-2.151787281036377,-1.334656761293747,-2.51957875887026,6.128650176316061,1.0041885375976562,-2.797997776662008
1708442897.5487263,-2.1517317295074463,-1.3346474927714844,-2.519529167805807,6.128649341851034,1.0041964054107666,-2.798018280659811
1708442897.5507452,-2.151773691177368,-1.334610940223076,-2.5194948355304163,6.1286120293434045,1.004233479499817,-2.7980216185199183
1708442897.5527382,-2.151736259460449,-1.3346066933921357,-2.519524637852804,6.128628361016073,1.0041964054107666,-2.7980626265155237
1708442897.5547442,-2.151754379272461,-1.3346397888711472,-2.5195158163653772,6.128583895951071,1.00423002243042,-2.7980173269854944
1708442897.5567226,-2.151782751083374,-1.3346152168563385,-2.519541088734762,6.128628361016073,1.0041919946670532,-2.798025910054342
1708442897.5587304,-2.151740789413452,-1.33462709308181,-2.519553009663717,6.1286001084144495,1.0042378902435303,-2.798009697590963
1708442897.5607226,-2.151740789413452,-1.3346236509135743,-2.5195499102221888,6.128658044129171,1.004233479499817,-2.7980216185199183
1708442897.5627272,-2.1517951488494873,-1.3346066933921357,-2.519541088734762,6.128588187485494,1.0042006969451904,-2.7980583349811
1708442897.564723,-2.151724100112915,-1.3346758794835587,-2.519569698964254,6.1286120293434045,1.0042169094085693,-2.798025910054342
1708442897.5667827,-2.1517655849456787,-1.3346355718425293,-2.519529167805807,6.128674018173971,1.0041885375976562,-2.798002068196432
1708442897.5687308,-2.1517586708068848,-1.3346313548139115,-2.5194829146014612,6.1286120293434045,1.0041842460632324,-2.7979846636401575
1708442897.5707185,-2.151791572570801,-1.334607185130455,-2.519590441380636,6.128625142365255,1.0042223930358887,-2.798009697590963
1708442897.5727324,-2.151782751083374,-1.3346313548139115,-2.5194829146014612,6.128595816880026,1.0041919946670532,-2.7980669180499476
1708442897.5747516,-2.151719331741333,-1.3346029681018372,-2.519541088734762,6.128640520363607,1.004167914390564,-2.798042122517721
1708442897.576755,-2.151778221130371,-1.3346152168563385,-2.519524637852804,6.128595816880026,1.0042378902435303,-2.798037830983297
1708442897.578753,-2.151782751083374,-1.3346559268287201,-2.5195322672473353,6.128640520363607,1.0041592121124268,-2.7980583349811
1708442897.5807223,-2.151745319366455,-1.33464831233535,-2.5195322672473353,6.128610956459799,1.004233479499817,-2.798070255910055
1708442897.5827239,-2.15179181098938,-1.3346236509135743,-2.519553009663717,6.128636109619894,1.004229187965393,-2.798018280659811
1708442897.5847616,-2.151749849319458,-1.3346440953067322,-2.519545618687765,6.12862395027236,1.0041841268539429,-2.7980173269854944
1708442897.586776,-2.151752233505249,-1.3346271377852936,-2.51960260072817,6.1285990355308435,1.0042169094085693,-2.798013989125387
1708442897.588728,-2.151803970336914,-1.3345910471728821,-2.5195158163653772,6.128592598229208,1.0042006969451904,-2.7980507055865687
1708442897.5907536,-2.151728391647339,-1.3345740747502823,-2.51952034631838,6.128546583443441,1.0042051076889038,-2.7979846636401575
1708442897.592723,-2.151719331741333,-1.3346271377852936,-2.519536558781759,6.128636109619894,1.004179835319519,-2.797997776662008
1708442897.5947258,-2.1517317295074463,-1.3346806031516572,-2.5195322672473353,6.128542291909017,1.0042126178741455,-2.798025910054342
1708442897.5967267,-2.151740789413452,-1.3346720796874543,-2.519536558781759,6.128607618599691,1.0041754245758057,-2.798030201588766
1708442897.5987217,-2.151747703552246,-1.3346389693072815,-2.51955753961672,6.128636944084921,1.0041964054107666,-2.798013989125387
1708442897.600736,-2.1517655849456787,-1.3346152168563385,-2.5195112864123743,6.1286120293434045,1.004242181777954,-2.798046414052145
1708442897.6027222,-2.151761293411255,-1.3346236509135743,-2.519553009663717,6.128616320877828,1.0042169094085693,-2.798054043446676
1708442897.6047397,-2.151724100112915,-1.3346397888711472,-2.5195322672473353,6.128669488220968,1.0042213201522827,-2.798008743916647
1708442897.6067522,-2.151724100112915,-1.3346313548139115,-2.519573990498678,6.12857066371993,1.0041964054107666,-2.7979772726642054
1708442897.6087537,-2.151736259460449,-1.3347086620381852,-2.519524637852804,6.128619539528646,1.0042169094085693,-2.798009697590963
1708442897.6107616,-2.1517374515533447,-1.3346397888711472,-2.5195322672473353,6.128649222641744,1.0042006969451904,-2.798042122517721
1708442897.6127234,-2.15175199508667,-1.3346559268287201,-2.519536558781759,6.12863181808547,1.0041841268539429,-2.798009697590963
1708442897.6147277,-2.151749849319458,-1.3346355718425293,-2.519548479710714,6.128546583443441,1.004179835319519,-2.7979684511767786
1708442897.616711,-2.151754140853882,-1.3346236509135743,-2.519536558781759,6.128674018173971,1.0041559934616089,-2.798025910054342
1708442897.6187665,-2.15171480178833,-1.3346029681018372,-2.5195499102221888,6.128603207855978,1.0041842460632324,-2.797997776662008
1708442897.6207137,-2.151745319366455,-1.3346720796874543,-2.519545618687765,6.128607737808981,1.0042378902435303,-2.798025910054342
1708442897.6227095,-2.15169358253479,-1.334664450292923,-2.51952034631838,6.128586995392599,1.0042169094085693,-2.7979772726642054
1708442897.6247206,-2.151782751083374,-1.3346843135407944,-2.519524637852804,6.1286282418067834,1.0041841268539429,-2.798025910054342
1708442897.626756,-2.151749849319458,-1.3346355718425293,-2.519541088734762,6.128636944084921,1.0042006969451904,-2.7980344931231897
1708442897.6287203,-2.1517701148986816,-1.3346517098001023,-2.5195816198932093,6.128632652550497,1.0042006969451904,-2.7980216185199183
1708442897.6307364,-2.151745319366455,-1.3346517098001023,-2.519583050404684,6.12856291511611,1.004179835319519,-2.7980054060565394
1708442897.6327372,-2.151761293411255,-1.334607185130455,-2.519508425389425,6.12863181808547,1.0042006969451904,-2.798025910054342
1708442897.6347425,-2.151778221130371,-1.3346559268287201,-2.519561831151144,6.12857066371993,1.0041885375976562,-2.798042122517721
1708442897.6367366,-2.151761293411255,-1.3346720796874543,-2.5195651690112513,6.128665196686544,1.0041919946670532,-2.7980454603778284
1708442897.6387362,-2.151749849319458,-1.3346151870540162,-2.519573990498678,6.128619539528646,1.0042006969451904,-2.798065964375631
1708442897.6407735,-2.1517815589904785,-1.334607185130455,-2.5195277372943323,6.128603207855978,1.0041885375976562,-2.798042122517721
1708442897.642743,-2.151728391647339,-1.33461149156604,-2.5195651690112513,6.128644931107321,1.0041841268539429,-2.797997776662008
1708442897.644734,-2.151756763458252,-1.3345910471728821,-2.51955753961672,6.128607737808981,1.0042169094085693,-2.7980497519122522
1708442897.646742,-2.151756763458252,-1.3346355718425293,-2.5195158163653772,6.128620731621542,1.0041919946670532,-2.798074547444479
1708442897.648731,-2.151782751083374,-1.3346800965121766,-2.519585911427633,6.128603207855978,1.00419282913208,-2.798065964375631
1708442897.6507363,-2.1517701148986816,-1.3345945340446015,-2.51955753961672,6.128583895951071,1.0042006969451904,-2.7980831305133265
1708442897.6527336,-2.151736259460449,-1.334615708594658,-2.519541088734762,6.128632652550497,1.0042051076889038,-2.7980173269854944
1708442897.654729,-2.151719331741333,-1.3346236509135743,-2.519536558781759,6.128681409149923,1.0042213201522827,-2.7980216185199183
1708442897.656737,-2.151707172393799,-1.3345706921866913,-2.5195277372943323,6.128628361016073,1.004233479499817,-2.7979849020587366
1708442897.6587522,-2.151752233505249,-1.3346151870540162,-2.519541088734762,6.128604399948873,1.0042006969451904,-2.7980583349811
1708442897.6607394,-2.151778221130371,-1.3346151870540162,-2.519548479710714,6.128636109619894,1.0042662620544434,-2.798009697590963
1708442897.6627755,-2.151736259460449,-1.3346071702292939,-2.519548479710714,6.128625142365255,1.004229187965393,-2.798065964375631
1708442897.6647224,-2.151778221130371,-1.3346194189837952,-2.51955753961672,6.1286282418067834,1.0042136907577515,-2.7980173269854944
1708442897.666742,-2.151728391647339,-1.3346517098001023,-2.519541088734762,6.128575193672933,1.0042213201522827,-2.798042122517721
1708442897.668727,-2.151707172393799,-1.3346355718425293,-2.519524637852804,6.128583776741781,1.0041395425796509,-2.7981038729297083
1708442897.6707294,-2.1517655849456787,-1.3346721094897767,-2.519536558781759,6.1286001084144495,1.0042006969451904,-2.79808217683901
1708442897.6727448,-2.1517317295074463,-1.3346594137004395,-2.519508425389425,6.1286120293434045,1.0042051076889038,-2.7980335394488733
1708442897.674749,-2.1517739295959473,-1.3346355718425293,-2.5194948355304163,6.128603207855978,1.0042541027069092,-2.7980173269854944
1708442897.6767461,-2.151736259460449,-1.3346271377852936,-2.519561831151144,6.128529178887167,1.0041636228561401,-2.7980497519122522
1708442897.6787298,-2.1517906188964844,-1.3346389693072815,-2.519536558781759,6.128649341851034,1.0041841268539429,-2.7980626265155237
1708442897.6807373,-2.1517317295074463,-1.3346594137004395,-2.519574228917257,6.128620731621542,1.0042169094085693,-2.798065964375631
1708442897.682758,-2.151761293411255,-1.3346236509135743,-2.519536558781759,6.128595816880026,1.004233479499817,-2.7980583349811
1708442897.684734,-2.151756763458252,-1.33464831233535,-2.5195651690112513,6.128579485207357,1.0042006969451904,-2.798008743916647
1708442897.686746,-2.151761293411255,-1.3346029681018372,-2.519553009663717,6.128558623581686,1.0042378902435303,-2.798042122517721
1708442897.6887753,-2.151736259460449,-1.3346109849265595,-2.519578520451681,6.128650176316061,1.0042378902435303,-2.798070255910055
1708442897.690731,-2.1517646312713623,-1.3346194338849564,-2.51955753961672,6.128583895951071,1.0042378902435303,-2.798013989125387
1708442897.6927578,-2.151787281036377,-1.3346474778703232,-2.5195322672473353,6.1286295531089685,1.0042213201522827,-2.798025910054342
1708442897.694738,-2.1517374515533447,-1.334639773969986,-2.5196264425860804,6.128555285721578,1.0041841268539429,-2.798065964375631
1708442897.6967554,-2.1517860889434814,-1.334664450292923,-2.519541088734762,6.128546583443441,1.0042006969451904,-2.798037830983297
1708442897.6987438,-2.1517691612243652,-1.3346594137004395,-2.51952034631838,6.1286001084144495,1.004167914390564,-2.7980497519122522
1708442897.7007437,-2.1517739295959473,-1.33461149156604,-2.5195651690112513,6.128607737808981,1.0042006969451904,-2.797980610524313
1708442897.702765,-2.1517906188964844,-1.3346279573491593,-2.519590441380636,6.128582703858175,1.004179835319519,-2.798046414052145
1708442897.7047737,-2.151745319366455,-1.3346236509135743,-2.519553009663717,6.12857602813796,1.00419282913208,-2.7980497519122522
1708442897.7067494,-2.151749849319458,-1.3346885752728959,-2.5195277372943323,6.128547775536337,1.004179835319519,-2.79810339609255
1708442897.7087655,-2.151719331741333,-1.3346228313497086,-2.519545618687765,6.1285509941871545,1.0041964054107666,-2.7980497519122522
1708442897.710756,-2.151765823364258,-1.3346271526864548,-2.519569698964254,6.128620731621542,1.0041841268539429,-2.7980454603778284
1708442897.712755,-2.151782751083374,-1.3346194189837952,-2.5195563475238245,6.128583895951071,1.0042006969451904,-2.798074547444479
1708442897.7147768,-2.1517655849456787,-1.3346152168563385,-2.51960260072817,6.128580319672384,1.0042169094085693,-2.7980907599078577
1708442897.71674,-2.1517646312713623,-1.3346025508693238,-2.519548479710714,6.128597008972921,1.0041964054107666,-2.7980130354510706
1708442897.7187154,-2.1517655849456787,-1.3346800965121766,-2.519548479710714,6.12856279590682,1.0042126178741455,-2.7980054060565394
1708442897.720724,-2.151773691177368,-1.3345987063697358,-2.5195305983172815,6.12856291511611,1.0042006969451904,-2.798008743916647
1708442897.7227337,-2.1517691612243652,-1.33464831233535,-2.51955753961672,6.128588187485494,1.0042662620544434,-2.798054043446676
1708442897.7247171,-2.151736259460449,-1.3346271377852936,-2.51952034631838,6.128588187485494,1.0042169094085693,-2.798074547444479
1708442897.7267416,-2.151782751083374,-1.3346236509135743,-2.5195770899402063,6.1285672066505334,1.0042006969451904,-2.798070255910055
1708442897.7287192,-2.1517271995544434,-1.3346397888711472,-2.519541088734762,6.1285509941871545,1.0041964054107666,-2.7980497519122522
1708442897.7307837,-2.1517908573150635,-1.334656761293747,-2.5195770899402063,6.128588187485494,1.0042006969451904,-2.798107687626974
1708442897.7327363,-2.151728391647339,-1.3346390140107651,-2.5195816198932093,6.12857602813796,1.0042160749435425,-2.7980778853045862
1708442897.7347252,-2.151749849319458,-1.3346636456302186,-2.519590441380636,6.128592598229208,1.0041754245758057,-2.798074547444479
1708442897.7367225,-2.151773691177368,-1.3346559268287201,-2.5196638743029993,6.1285345433051965,1.004167914390564,-2.7980497519122522
1708442897.738725,-2.151749849319458,-1.3346559268287201,-2.5195816198932093,6.128584730416097,1.0042006969451904,-2.7979922930346888
1708442897.7407465,-2.151765823364258,-1.3346072298339386,-2.5195441881762903,6.128527152329244,1.0042006969451904,-2.7980497519122522
1708442897.7427735,-2.151736259460449,-1.3346678477576752,-2.5195441881762903,6.128588187485494,1.0042082071304321,-2.7980173269854944
1708442897.744775,-2.151749849319458,-1.3346559417298813,-2.519590441380636,6.128604519158163,1.004233479499817,-2.7980411688434046
1708442897.746737,-2.151745319366455,-1.3346194338849564,-2.51960260072817,6.128592598229208,1.0042169094085693,-2.7980991045581263
1708442897.7487602,-2.151728391647339,-1.3346321892789383,-2.519548479710714,6.12855218628005,1.0042169094085693,-2.7980616728412073
1708442897.7507632,-2.1517951488494873,-1.334651694898941,-2.51955753961672,6.128584730416097,1.0042169094085693,-2.798042122517721
1708442897.752728,-2.151740789413452,-1.3346509796432038,-2.5195651690112513,6.128564107209005,1.0041841268539429,-2.79808217683901
1708442897.7547588,-2.1517317295074463,-1.3346720796874543,-2.5195770899402063,6.128543484001913,1.0042039155960083,-2.7980216185199183
1708442897.7567298,-2.151752233505249,-1.334676371221878,-2.5195937792407435,6.128588187485494,1.0042204856872559,-2.7980735937701624
1708442897.7587216,-2.1517646312713623,-1.3346109849265595,-2.5195937792407435,6.128556477814474,1.0042247772216797,-2.79808217683901
1708442897.7607603,-2.1517746448516846,-1.3346029681018372,-2.5195441881762903,6.128559815674581,1.004233479499817,-2.7980497519122522
1708442897.7627413,-2.151707172393799,-1.3345987808755417,-2.519553009663717,6.128564107209005,1.0042169094085693,-2.7980292479144495
1708442897.7647624,-2.1517117023468018,-1.3346236509135743,-2.519585911427633,6.128584730416097,1.0042662620544434,-2.7980335394488733
1708442897.7667308,-2.151787281036377,-1.3347001385739823,-2.519573990498678,6.128588187485494,1.004233479499817,-2.7980616728412073
1708442897.7687817,-2.151740789413452,-1.3346279573491593,-2.519553009663717,6.128555285721578,1.0042093992233276,-2.7980292479144495
1708442897.7707524,-2.151778221130371,-1.3346322041800995,-2.5195396582232874,6.128555285721578,1.0041754245758057,-2.79810339609255
1708442897.7727368,-2.1517860889434814,-1.3346228313497086,-2.519548479710714,6.128572809487142,1.004233479499817,-2.7980085054980677
1708442897.7747498,-2.151749849319458,-1.3346236509135743,-2.519573990498678,6.128531563072958,1.0042126178741455,-2.7980991045581263
1708442897.77673,-2.151756763458252,-1.3346758794835587,-2.519569698964254,6.128547894745626,1.004199504852295,-2.7980991045581263
1708442897.7787318,-2.151740789413452,-1.3346885305694123,-2.5195651690112513,6.12857602813796,1.0042082071304321,-2.7980292479144495
1708442897.7807658,-2.1517114639282227,-1.3346474927714844,-2.5195441881762903,6.1285509941871545,1.0042006969451904,-2.7980616728412073
1708442897.782748,-2.151756763458252,-1.3346152168563385,-2.51960260072817,6.128561007767477,1.004229187965393,-2.7980583349811
1708442897.7847512,-2.151778221130371,-1.334602953200676,-2.5195725599872034,6.128547894745626,1.0042409896850586,-2.798054043446676
1708442897.7867937,-2.151749849319458,-1.3346236658147355,-2.5195563475238245,6.12855218628005,1.0042496919631958,-2.798086468373434
1708442897.788741,-2.151761293411255,-1.3346152168563385,-2.5195472876178187,6.128528106003561,1.0042213201522827,-2.798037830983297
1708442897.7907557,-2.1517374515533447,-1.3346194189837952,-2.5195651690112513,6.128511774330892,1.0042126178741455,-2.798054043446676
1708442897.792745,-2.1517586708068848,-1.3346355718425293,-2.5195983091937464,6.128535973816671,1.0042126178741455,-2.79808217683901
1708442897.7947748,-2.151745319366455,-1.3346474927714844,-2.5195606390582483,6.128519284516134,1.0042082071304321,-2.7980130354510706
1708442897.7967322,-2.151728391647339,-1.3346885305694123,-2.5195606390582483,6.12848328331069,1.0042247772216797,-2.7980335394488733
1708442897.7987666,-2.151778221130371,-1.3346474778703232,-2.5195427576648157,6.128475773125448,1.0042082071304321,-2.7980292479144495
1708442897.800767,-2.151754140853882,-1.334671990280487,-2.519569698964254,6.128475773125448,1.0042256116867065,-2.7980249563800257
1708442897.8027449,-2.151745319366455,-1.3346432757428666,-2.5195606390582483,6.128452884941854,1.004248857498169,-2.798004213963644
1708442897.8047788,-2.151732921600342,-1.3347001385739823,-2.5195816198932093,6.12841163852767,1.0042409896850586,-2.7980735937701624
1708442897.806796,-2.1517746448516846,-1.334632159476616,-2.5195441881762903,6.128465044289388,1.0042409896850586,-2.798107687626974
1708442897.8087375,-2.1517655849456787,-1.3346389842084427,-2.5195816198932093,6.12841163852767,1.0042532682418823,-2.7980249563800257
1708442897.8107624,-2.151778221130371,-1.3346066635898133,-2.5195937792407435,6.128408419876852,1.0042575597763062,-2.7980130354510706
1708442897.8127484,-2.1517105102539062,-1.3346602332643052,-2.519548479710714,6.128396260529318,1.0042160749435425,-2.7980907599078577
1708442897.8147442,-2.1517655849456787,-1.3346029681018372,-2.5195606390582483,6.128380048065939,1.0041667222976685,-2.798054043446676
1708442897.8167698,-2.151778221130371,-1.3346474778703232,-2.519569698964254,6.1283548949058435,1.0042498111724854,-2.7980085054980677
1708442897.8187373,-2.15171480178833,-1.3347001832774659,-2.5196474234210413,6.128445493965902,1.004229187965393,-2.7980039755450647
1708442897.8207376,-2.1517655849456787,-1.3346678775599976,-2.519548479710714,6.128458487778463,1.0042366981506348,-2.7980411688434046
1708442897.822765,-2.1517701148986816,-1.334606648688652,-2.519569698964254,6.128383147507467,1.0042204856872559,-2.7980411688434046
1708442897.8247483,-2.1517374515533447,-1.3346236509135743,-2.519569698964254,6.128391849785604,1.0042247772216797,-2.7980497519122522
1708442897.826754,-2.151736259460449,-1.3346801114133378,-2.5195651690112513,6.1284005520637415,1.004195213317871,-2.798119608555929
1708442897.8287308,-2.1517951488494873,-1.3346674305251618,-2.5195651690112513,6.128429162293234,1.0042160749435425,-2.7980411688434046
1708442897.8307533,-2.151754379272461,-1.3346678477576752,-2.5195472876178187,6.128376710205831,1.004273772239685,-2.7980573813067835
1708442897.8327546,-2.1517691612243652,-1.3346594137004395,-2.5195441881762903,6.128417241364279,1.0042204856872559,-2.798074547444479
1708442897.8347394,-2.151754379272461,-1.3346474927714844,-2.519548479710714,6.128409254341879,1.0042366981506348,-2.798065964375631
1708442897.8367488,-2.1517159938812256,-1.3346236509135743,-2.5195980707751673,6.128371226578512,1.0042409896850586,-2.798074547444479
1708442897.8387218,-2.151778221130371,-1.334607185130455,-2.5195816198932093,6.12837432602004,1.0042695999145508,-2.7980573813067835
1708442897.8407252,-2.1517159938812256,-1.3346397888711472,-2.5195801893817347,6.128396260529318,1.004229187965393,-2.79810339609255
1708442897.842749,-2.151782751083374,-1.3346594137004395,-2.5195980707751673,6.128388631134786,1.0042160749435425,-2.7980411688434046
1708442897.8447187,-2.1517632007598877,-1.3346236509135743,-2.5196309725390833,6.128383147507467,1.0042695999145508,-2.7980690638171595
1708442897.8467388,-2.1517117023468018,-1.3346432757428666,-2.5195143858539026,6.12845407703475,1.004229187965393,-2.7980948130237024
1708442897.848729,-2.151700258255005,-1.3346030128053208,-2.519571367894308,6.128429162293234,1.0042409896850586,-2.798037830983297
1708442897.8507233,-2.151754140853882,-1.334610955124237,-2.5196264425860804,6.128388750344076,1.0042322874069214,-2.7980366388904017
1708442897.85273,-2.151700258255005,-1.3346517098001023,-2.5195770899402063,6.12845407703475,1.004229187965393,-2.79808217683901
1708442897.8547394,-2.151732921600342,-1.3346602332643052,-2.5195801893817347,6.1283843396003626,1.0042650699615479,-2.7980948130237024
1708442897.8567784,-2.151736259460449,-1.3346432757428666,-2.5195804278003138,6.1284018633659265,1.0042082071304321,-2.7980411688434046
1708442897.858763,-2.151756763458252,-1.334655911927559,-2.5195770899402063,6.128408419876852,1.0042366981506348,-2.7980616728412073
1708442897.8607357,-2.151736259460449,-1.3346678775599976,-2.5195892492877405,6.128417241364279,1.0042247772216797,-2.7980735937701624
1708442897.8627536,-2.151745319366455,-1.3346397888711472,-2.5195980707751673,6.128347503929891,1.0042986869812012,-2.7980778853045862
1708442897.8647356,-2.151782751083374,-1.3346398037723084,-2.5195563475238245,6.128412830620565,1.0042409896850586,-2.7980335394488733
1708442897.866791,-2.151749849319458,-1.3346474927714844,-2.5196264425860804,6.128420340805807,1.0042409896850586,-2.7980335394488733
1708442897.8687265,-2.1517117023468018,-1.3346474778703232,-2.519586149846212,6.12836371639327,1.004233479499817,-2.7980454603778284
1708442897.8707378,-2.1517374515533447,-1.3346279573491593,-2.519635264073507,6.128368007927694,1.0041877031326294,-2.798074547444479
1708442897.8727698,-2.151745319366455,-1.3346109849265595,-2.5195472876178187,6.1283395169074915,1.0042575597763062,-2.7980292479144495
1708442897.8747356,-2.151754379272461,-1.3346432757428666,-2.5195396582232874,6.128409254341879,1.0042126178741455,-2.7980735937701624
1708442897.8767715,-2.151749849319458,-1.3346355718425293,-2.5195277372943323,6.128356206208029,1.0042366981506348,-2.7980735937701624
1708442897.878741,-2.1517417430877686,-1.3346397888711472,-2.5196264425860804,6.1284005520637415,1.0042532682418823,-2.7980173269854944
1708442897.8807364,-2.1517655849456787,-1.3346067827991028,-2.5195816198932093,6.128347503929891,1.004245400428772,-2.798037830983297
1708442897.8828151,-2.151745319366455,-1.3346029681018372,-2.5195606390582483,6.128356206208029,1.0042039155960083,-2.798042122517721
1708442897.8847473,-2.151749849319458,-1.3346432608417054,-2.51958138147463,6.128397452622213,1.004195213317871,-2.7980616728412073
1708442897.8867571,-2.151745319366455,-1.3346885305694123,-2.519569698964254,6.128364908486166,1.0042279958724976,-2.798037830983297
1708442897.8887722,-2.151740789413452,-1.3346559268287201,-2.5195608774768274,6.1283843396003626,1.0042322874069214,-2.798032347355978
1708442897.8907342,-2.151745319366455,-1.3346843135407944,-2.5195651690112513,6.128364908486166,1.0042082071304321,-2.798037830983297
1708442897.8927646,-2.151761293411255,-1.3346715730479737,-2.5195441881762903,6.12831877449111,1.0042409896850586,-2.798013989125387
1708442897.894733,-2.151719331741333,-1.3347001385739823,-2.519553009663717,6.128376710205831,1.0042322874069214,-2.798037830983297
1708442897.8967512,-2.151728391647339,-1.3346029681018372,-2.5195816198932093,6.128381240158834,1.0041919946670532,-2.798032347355978
1708442897.8987334,-2.1517250537872314,-1.3345868301442643,-2.5195563475238245,6.128360497742452,1.0042409896850586,-2.7980011145221155
1708442897.9007256,-2.151724100112915,-1.3346594137004395,-2.519578520451681,6.128368007927694,1.0042279958724976,-2.798013989125387
1708442897.9027393,-2.1517205238342285,-1.3346398186734696,-2.5195472876178187,6.128348338394918,1.0042575597763062,-2.7980616728412073
1708442897.9047325,-2.151740789413452,-1.3346432757428666,-2.5195770899402063,6.128412830620565,1.0042082071304321,-2.7980335394488733
1708442897.90674,-2.151749849319458,-1.334676371221878,-2.519548479710714,6.128361451416769,1.0042856931686401,-2.7979965845691126
1708442897.9087415,-2.1517417430877686,-1.3346550476602097,-2.5195651690112513,6.128327595978536,1.0042126178741455,-2.798037830983297
1708442897.9107776,-2.1517417430877686,-1.3346194189837952,-2.519586149846212,6.1283395169074915,1.0042160749435425,-2.798009697590963
1708442897.912778,-2.151745319366455,-1.3346313548139115,-2.5195322672473353,6.128380048065939,1.0042650699615479,-2.7980335394488733
1708442897.9147391,-2.1517374515533447,-1.3346355718425293,-2.519553009663717,6.12840615490035,1.004179835319519,-2.7979891935931605
1708442897.9167817,-2.151761293411255,-1.3346397888711472,-2.519561831151144,6.128335225373068,1.0042117834091187,-2.7980335394488733
1708442897.9187794,-2.151728391647339,-1.3346517098001023,-2.519548479710714,6.128360497742452,1.0042204856872559,-2.7980216185199183
1708442897.9207544,-2.151688814163208,-1.334627942447998,-2.5195937792407435,6.128336417465963,1.0042366981506348,-2.798046414052145
1708442897.9227724,-2.1517374515533447,-1.3346194189837952,-2.519548479710714,6.128327595978536,1.0042247772216797,-2.7979772726642054
1708442897.9247375,-2.1517205238342285,-1.3346474927714844,-2.5195441881762903,6.128360497742452,1.004229187965393,-2.798037830983297
1708442897.9267306,-2.1517462730407715,-1.3346474927714844,-2.519532028828756,6.1283724186714075,1.0042322874069214,-2.798042122517721
1708442897.9287348,-2.151732921600342,-1.3346109849265595,-2.519574228917257,6.128351795464315,1.0042247772216797,-2.798013989125387
1708442897.9307334,-2.1517117023468018,-1.3346071553281327,-2.519553009663717,6.128348338394918,1.0042082071304321,-2.7980626265155237
1708442897.9327295,-2.151749849319458,-1.3346397888711472,-2.5195232073413294,6.128389942436971,1.004229187965393,-2.7980344931231897
1708442897.934728,-2.1517586708068848,-1.3346474927714844,-2.5195277372943323,6.128340709000387,1.0042126178741455,-2.798018280659811
1708442897.9367614,-2.1517791748046875,-1.3346678775599976,-2.519548479710714,6.12840615490035,1.004233479499817,-2.798030201588766
1708442897.9387283,-2.1517114639282227,-1.3346029382995148,-2.519541088734762,6.128274190216818,1.0042204856872559,-2.798037830983297
1708442897.940761,-2.1517045497894287,-1.33462709308181,-2.5195322672473353,6.128360497742452,1.0042781829833984,-2.7979562918292444
1708442897.9427633,-2.1517295837402344,-1.334623636012413,-2.5195439497577112,6.128357040673055,1.004233479499817,-2.797981564198629
1708442897.9447482,-2.1517374515533447,-1.3346271079829712,-2.5195277372943323,6.128357040673055,1.0042082071304321,-2.797997776662008
1708442897.9467432,-2.151791572570801,-1.3346236509135743,-2.5195816198932093,6.128373610764303,1.0042204856872559,-2.7979934851275843
1708442897.9487357,-2.151675224304199,-1.3346432608417054,-2.519536558781759,6.128349649697103,1.0042082071304321,-2.798018280659811
1708442897.9507637,-2.1517293453216553,-1.3346279722503205,-2.519524637852804,6.128300416260519,1.0042706727981567,-2.797994915639059
1708442897.952776,-2.1517419815063477,-1.3346236509135743,-2.519553009663717,6.128333318024435,1.0042126178741455,-2.7980063597308558
1708442897.9547298,-2.1517374515533447,-1.3346071702292939,-2.519569698964254,6.128288495331564,1.0042247772216797,-2.7979562918292444
1708442897.9567473,-2.1517462730407715,-1.3346517247012635,-2.519561831151144,6.128211128502645,1.0042213201522827,-2.797981564198629
1708442897.9587293,-2.1517136096954346,-1.3346609634212037,-2.519553009663717,6.128228652268209,1.0042160749435425,-2.797959629689352
1708442897.9607341,-2.1517250537872314,-1.3346474927714844,-2.519553009663717,6.1282657263572595,1.0042082071304321,-2.798002068196432
1708442897.9627278,-2.1517250537872314,-1.3346636456302186,-2.5195606390582483,6.128207671433248,1.004229187965393,-2.7980063597308558
1708442897.964733,-2.1517374515533447,-1.3346355718425293,-2.5195651690112513,6.128228652268209,1.0041964054107666,-2.7979682127581995
1708442897.9667206,-2.1517374515533447,-1.3346152317574997,-2.519524637852804,6.128286230355062,1.0042039155960083,-2.797957722340719
1708442897.9687185,-2.1517295837402344,-1.3345910471728821,-2.519515577946798,6.12820457199172,1.004245400428772,-2.7979562918292444
1708442897.970717,-2.151754140853882,-1.3346313399127503,-2.51952034631838,6.128228652268209,1.004233479499817,-2.797957722340719
1708442897.9727318,-2.1517677307128906,-1.3345706325820466,-2.519503895436422,6.1282033798988245,1.0041877031326294,-2.7979653517352503
1708442897.9747572,-2.151754140853882,-1.3346152168563385,-2.519536558781759,6.128191458969869,1.0042006969451904,-2.797990147267477
1708442897.976743,-2.1517462730407715,-1.3346550923636933,-2.519553009663717,6.128179418831625,1.0042082071304321,-2.79794150987734
1708442897.9787529,-2.1517136096954346,-1.3345910471728821,-2.519536558781759,6.128216492920675,1.004245400428772,-2.7978840509997767
1708442897.9807446,-2.151749849319458,-1.3346109849265595,-2.519541088734762,6.12824176529006,1.004229187965393,-2.7978883425342005
1708442897.9827368,-2.151702404022217,-1.3346559566310425,-2.519541088734762,6.128229486733236,1.0042169094085693,-2.79791766801943
1708442897.984761,-2.151732921600342,-1.3346517098001023,-2.519569698964254,6.128228652268209,1.0041667222976685,-2.797880236302511
1708442897.9867578,-2.1516478061676025,-1.334599570637085,-2.5195112864123743,6.128252494126119,1.0042082071304321,-2.7978814283954065
1708442897.9887366,-2.1517045497894287,-1.3346645098975678,-2.5195499102221888,6.128237473755636,1.004183292388916,-2.797884527836935
1708442897.9907439,-2.1516976356506348,-1.3346959513476868,-2.519541088734762,6.1282774088676355,1.0042039155960083,-2.7978532950030726
1708442897.9927316,-2.1517586708068848,-1.3346029681018372,-2.519550148640768,6.128187048226156,1.0042169094085693,-2.797890011464254
1708442897.9947345,-2.151732921600342,-1.3346602332643052,-2.519536558781759,6.12824176529006,1.0042496919631958,-2.797840181981222
1708442897.9967608,-2.1517374515533447,-1.3346721243909379,-2.519515577946798,6.128196942597189,1.0041885375976562,-2.797927443181173
1708442897.998733,-2.1517205238342285,-1.3346151870540162,-2.519524637852804,6.128216492920675,1.0042169094085693,-2.797906223927633
1708442898.0007536,-2.1517179012298584,-1.3346398037723084,-2.519536558781759,6.128176438599386,1.0041636228561401,-2.7978532950030726
1708442898.0027535,-2.151733875274658,-1.334610955124237,-2.519536558781759,6.128212082176962,1.0042051076889038,-2.7978456656085413
1708442898.0047514,-2.1517021656036377,-1.3345860105803986,-2.51955753961672,6.128244864731588,1.0042082071304321,-2.7978976408587855
1708442898.0067897,-2.1517021656036377,-1.3346029382995148,-2.519529167805807,6.128183948784628,1.0041592121124268,-2.7978532950030726
1708442898.0087466,-2.151700019836426,-1.3346279722503205,-2.519561831151144,6.128167736321249,1.0042169094085693,-2.797890011464254
1708442898.010787,-2.1516976356506348,-1.3346194338849564,-2.519561831151144,6.128229486733236,1.0042082071304321,-2.797860924397604
1708442898.0127397,-2.1517462730407715,-1.33461149156604,-2.519524637852804,6.128208863526144,1.0042051076889038,-2.7978737990008753
1708442898.014735,-2.1517181396484375,-1.334672139292099,-2.5195544401751917,6.128220784455099,1.0041964054107666,-2.7978695074664515
1708442898.0167382,-2.1517179012298584,-1.3346194189837952,-2.519561831151144,6.128163206368246,1.0041964054107666,-2.7978532950030726
1708442898.018736,-2.1517179012298584,-1.3346271079829712,-2.519541088734762,6.128262388497152,1.0041964054107666,-2.7978490034686487
1708442898.0207467,-2.1517250537872314,-1.3346236509135743,-2.519536558781759,6.128228652268209,1.0042213201522827,-2.797849957142965
1708442898.0227847,-2.151693105697632,-1.3346322041800995,-2.519566361104147,6.128179538040914,1.0042051076889038,-2.7978456656085413
1708442898.0247247,-2.1516807079315186,-1.334595338707306,-2.519545618687765,6.128207671433248,1.0042169094085693,-2.7978771368609827
1708442898.0267663,-2.1517136096954346,-1.3346398037723084,-2.51953369775881,6.128216492920675,1.004213809967041,-2.7978251616107386
1708442898.0287251,-2.1517250537872314,-1.3346236509135743,-2.51953369775881,6.128213274269857,1.0042093992233276,-2.7978532950030726
1708442898.0307398,-2.1517066955566406,-1.3346236509135743,-2.519512716923849,6.128151047020712,1.0042126178741455,-2.7978370825396937
1708442898.0327306,-2.1516764163970947,-1.3346194189837952,-2.5195439497577112,6.128167736321249,1.004179835319519,-2.7978413740741175
1708442898.034733,-2.151693105697632,-1.3346398037723084,-2.5194712320910853,6.128191458969869,1.0042051076889038,-2.7978456656085413
1708442898.036729,-2.1517250537872314,-1.3346474927714844,-2.519521776829855,6.128212082176962,1.0042169094085693,-2.7978695074664515
1708442898.038785,-2.151693105697632,-1.334579200749733,-2.5195799509631556,6.128220784455099,1.0042006969451904,-2.7977970282184046
1708442898.0407345,-2.1517045497894287,-1.3346432608417054,-2.519536558781759,6.128183948784628,1.0042136907577515,-2.79786187807192
1708442898.042764,-2.1517021656036377,-1.3346483570388337,-2.519524637852804,6.128212082176962,1.0042169094085693,-2.797882382069723
1708442898.0447257,-2.151733875274658,-1.3346355867436905,-2.519557301198141,6.128220784455099,1.00419282913208,-2.7978413740741175
1708442898.046737,-2.1516976356506348,-1.334607185130455,-2.519553009663717,6.128237473755636,1.004197120666504,-2.7978652159320276
1708442898.0487244,-2.1517021656036377,-1.334684358244278,-2.519508425389425,6.128220784455099,1.0041723251342773,-2.7978413740741175
1708442898.0507662,-2.1516764163970947,-1.3345826280168076,-2.5195499102221888,6.128246176033773,1.0042126178741455,-2.7978456656085413
1708442898.0527353,-2.1516976356506348,-1.3346071702292939,-2.5195561091052454,6.128244983940878,1.0041841268539429,-2.797854248677389
1708442898.0547407,-2.151693105697632,-1.3345867854407807,-2.51953369775881,6.128176438599386,1.0042169094085693,-2.7978456656085413
1708442898.0567472,-2.151693105697632,-1.3346355718425293,-2.519529167805807,6.128196942597189,1.00419282913208,-2.7978857199298304
1708442898.0587416,-2.1517205238342285,-1.3346398037723084,-2.519569698964254,6.128250586777487,1.004179835319519,-2.7978337446795862
1708442898.0607252,-2.1517179012298584,-1.3346441251090546,-2.519532028828756,6.128216492920675,1.0042093992233276,-2.797854248677389
1708442898.0627298,-2.1516764163970947,-1.3346236509135743,-2.519529167805807,6.128179538040914,1.00419282913208,-2.797878090535299
1708442898.0647268,-2.1517045497894287,-1.3346517247012635,-2.519541088734762,6.128212082176962,1.0042093992233276,-2.79783279100527
1708442898.0667346,-2.1517250537872314,-1.3346517247012635,-2.5194829146014612,6.128273117333212,1.00423002243042,-2.797849957142965
1708442898.0687509,-2.1516807079315186,-1.3346157234958191,-2.519517246876852,6.128213274269857,1.0042093992233276,-2.7978370825396937
1708442898.0707426,-2.1517112255096436,-1.3346151870540162,-2.519529167805807,6.128185140877523,1.0041429996490479,-2.797894302998678
1708442898.0727632,-2.151688814163208,-1.33461149156604,-2.519545618687765,6.12824176529006,1.00419282913208,-2.797882382069723
1708442898.0747523,-2.151671886444092,-1.3346322190812607,-2.519508186970846,6.128200280457296,1.0042093992233276,-2.7978456656085413
1708442898.0767305,-2.1516976356506348,-1.334684894686081,-2.51949650446047,6.128220784455099,1.0041841268539429,-2.7978208700763147
1708442898.078767,-2.1516683101654053,-1.3346517247012635,-2.5195589701281946,6.128249394684591,1.0042126178741455,-2.797882382069723
1708442898.0807393,-2.151693105697632,-1.3346526336720963,-2.519557301198141,6.128244864731588,1.0042378902435303,-2.7978132406817835
1708442898.0827646,-2.1517250537872314,-1.3346441251090546,-2.519536558781759,6.128213274269857,1.004151701927185,-2.7978456656085413
1708442898.0847511,-2.1516852378845215,-1.334627927546837,-2.519553009663717,6.128200161248007,1.004151701927185,-2.7978413740741175
1708442898.0867822,-2.1516432762145996,-1.3346559268287201,-2.519545618687765,6.128224360733785,1.0041515827178955,-2.797866169606344
1708442898.088749,-2.1517066955566406,-1.3346157234958191,-2.519566361104147,6.128253686219015,1.004167914390564,-2.797878090535299
1708442898.0907364,-2.1517205238342285,-1.3346355718425293,-2.51952034631838,6.128213274269857,1.0041723251342773,-2.7978294531451624
1708442898.0927312,-2.1516764163970947,-1.334643231039383,-2.519541088734762,6.128250586777487,1.0041841268539429,-2.7978737990008753
1708442898.0947225,-2.1516764163970947,-1.3346602779677887,-2.519583050404684,6.128179538040914,1.0042256116867065,-2.7978132406817835
1708442898.0967574,-2.1516852378845215,-1.3346678179553528,-2.519505325947897,6.128216492920675,1.0041604042053223,-2.7978337446795862
1708442898.0987625,-2.1517021656036377,-1.3345791858485718,-2.519554678593771,6.12824176529006,1.0041604042053223,-2.7978337446795862
1708442898.1007316,-2.1517021656036377,-1.334676445727684,-2.5195499102221888,6.128212082176962,1.0042006969451904,-2.7978208700763147
1708442898.1027474,-2.1516683101654053,-1.33461149156604,-2.519529167805807,6.128228652268209,1.0041723251342773,-2.7978089491473597
1708442898.1047478,-2.1516852378845215,-1.3346364361098786,-2.519529167805807,6.128270017891683,1.004197120666504,-2.7978325525866907
1708442898.106783,-2.151688814163208,-1.3346559566310425,-2.519517246876852,6.128240573197164,1.004225730895996,-2.7978208700763147
1708442898.1087437,-2.1516897678375244,-1.3347036105445405,-2.519538227711813,6.128244864731588,1.0041885375976562,-2.7978294531451624
1708442898.1107843,-2.151693105697632,-1.3346279573491593,-2.519529167805807,6.128151047020712,1.0041885375976562,-2.7978532950030726
1708442898.1127532,-2.1517021656036377,-1.334647462969162,-2.519541088734762,6.1282492754753015,1.0042006969451904,-2.7978089491473597
1708442898.1147666,-2.1516976356506348,-1.3346441251090546,-2.519541088734762,6.1282033798988245,1.0042051076889038,-2.7978132406817835
1708442898.1167636,-2.1516852378845215,-1.3346398335746308,-2.519541088734762,6.128252494126119,1.004151701927185,-2.797854248677389
1708442898.1187558,-2.1517271995544434,-1.3346152168563385,-2.519541088734762,6.1282362816627405,1.004233479499817,-2.7978370825396937
1708442898.120766,-2.1516761779785156,-1.334627942447998,-2.519536558781759,6.128192651062765,1.0042093992233276,-2.797816578541891
1708442898.1227345,-2.151668071746826,-1.3346398037723084,-2.519524637852804,6.12820457199172,1.004197120666504,-2.7978737990008753
1708442898.1247282,-2.1516942977905273,-1.334607185130455,-2.5195708910571497,6.128233063011923,1.0041841268539429,-2.7978575865374964
1708442898.126737,-2.1516764163970947,-1.3345741939595719,-2.519503895436422,6.128216492920675,1.0042006969451904,-2.797849957142965
1708442898.1287324,-2.151672840118408,-1.3346157234958191,-2.519515577946798,6.128233063011923,1.0041964054107666,-2.7978575865374964
1708442898.1307526,-2.1517021656036377,-1.3345987510732193,-2.51955753961672,6.128195750504293,1.0041841268539429,-2.7978413740741175
1708442898.1327515,-2.1517293453216553,-1.3346355718425293,-2.5195439497577112,6.128224360733785,1.004179835319519,-2.797866169606344
1708442898.1347253,-2.1516942977905273,-1.3346721094897767,-2.519562069569723,6.128249394684591,1.004167914390564,-2.7978294531451624
1708442898.1367474,-2.151693105697632,-1.3346194189837952,-2.519573990498678,6.128187048226156,1.0041841268539429,-2.7978575865374964
1708442898.1387525,-2.1517021656036377,-1.3346152019551774,-2.519503895436422,6.128228652268209,1.0042006969451904,-2.7978737990008753
1708442898.1407626,-2.1516852378845215,-1.334680126314499,-2.519569698964254,6.128188359528341,1.0042498111724854,-2.797804657612936
1708442898.1427386,-2.1517136096954346,-1.3346636456302186,-2.519487444554464,6.128211128502645,1.0042051076889038,-2.797910753880636
1708442898.1447592,-2.1516852378845215,-1.3346313399127503,-2.5195322672473353,6.128219949990072,1.0042051076889038,-2.7978575865374964
1708442898.1467433,-2.151627540588379,-1.3346398186734696,-2.519529167805807,6.128249394684591,1.0041515827178955,-2.7978087107287806
1708442898.1487286,-2.1516807079315186,-1.334647462969162,-2.51960260072817,6.128228652268209,1.0041592121124268,-2.7978737990008753
1708442898.1507757,-2.1516976356506348,-1.3346441400102158,-2.519548479710714,6.128306019097128,1.0041841268539429,-2.79783279100527
1708442898.152728,-2.1516976356506348,-1.3346227568439026,-2.519536558781759,6.128252494126119,1.0041395425796509,-2.7978490034686487
1708442898.1547496,-2.1517462730407715,-1.3346029830029984,-2.519574228917257,6.128224360733785,1.0041964054107666,-2.7979028860675257
1708442898.1567454,-2.151688575744629,-1.3346441102078934,-2.519548479710714,6.128200161248007,1.0042051076889038,-2.7978251616107386
1708442898.1587327,-2.1516683101654053,-1.334602953200676,-2.5195651690112513,6.128256904869833,1.0042051076889038,-2.797804657612936
1708442898.1607738,-2.1517021656036377,-1.3346483570388337,-2.519520107899801,6.128195750504293,1.004233479499817,-2.797828261052267
1708442898.1627414,-2.1517136096954346,-1.334643231039383,-2.519524637852804,6.128207671433248,1.0041841268539429,-2.797870461140768
1708442898.1647491,-2.1516976356506348,-1.3346322041800995,-2.519553009663717,6.128256785660543,1.004179835319519,-2.7978208700763147
1708442898.1667352,-2.1517021656036377,-1.3346313399127503,-2.5195561091052454,6.128240573197164,1.0042213201522827,-2.797795836125509
1708442898.168733,-2.151671886444092,-1.3346312654069443,-2.519573990498678,6.128219949990072,1.0041964054107666,-2.7978370825396937
1708442898.1707644,-2.1517226696014404,-1.3346194338849564,-2.519503895436422,6.128231870919027,1.0041964054107666,-2.7978532950030726
1708442898.1727338,-2.1517090797424316,-1.334688590174057,-2.51957875887026,6.128256904869833,1.0042039155960083,-2.7978456656085413
1708442898.1748009,-2.1517136096954346,-1.3346645098975678,-2.519548479710714,6.128230678826132,1.0042705535888672,-2.797854248677389
1708442898.176764,-2.1517021656036377,-1.3346029233983536,-2.519536558781759,6.128248202591696,1.0042006969451904,-2.7978695074664515
1708442898.178763,-2.1516942977905273,-1.3345826280168076,-2.519536558781759,6.128228652268209,1.0041885375976562,-2.7978208700763147
1708442898.1808228,-2.1516637802124023,-1.334675909285881,-2.519541088734762,6.128211128502645,1.0042126178741455,-2.7978737990008753
1708442898.1827288,-2.1517021656036377,-1.3346071702292939,-2.519508425389425,6.1282644150550745,1.0042169094085693,-2.7978456656085413
1708442898.1847558,-2.1517136096954346,-1.3346322041800995,-2.5195606390582483,6.128239381104269,1.0042126178741455,-2.7978370825396937
1708442898.1868136,-2.1516976356506348,-1.334615708594658,-2.5195499102221888,6.128206836968221,1.0042256116867065,-2.7978532950030726
1708442898.1887329,-2.151693105697632,-1.3346355718425293,-2.519524637852804,6.128228652268209,1.004229187965393,-2.7978976408587855
1708442898.190786,-2.1517417430877686,-1.3346151870540162,-2.5195651690112513,6.128301608353414,1.0042247772216797,-2.7978814283954065
1708442898.1927354,-2.1517179012298584,-1.33458265781913,-2.5195651690112513,6.1282230494316,1.0042051076889038,-2.797906223927633
1708442898.1947968,-2.1517021656036377,-1.3346228313497086,-2.519548479710714,6.128228652268209,1.0042126178741455,-2.797906223927633
1708442898.1967435,-2.1517226696014404,-1.3346313548139115,-2.5195606390582483,6.128273117333212,1.0041842460632324,-2.7978532950030726
1708442898.198724,-2.1516807079315186,-1.3346559566310425,-2.5195606390582483,6.128268706589498,1.0041919946670532,-2.7979188601123255
1708442898.20075,-2.1517226696014404,-1.334550217991211,-2.5195725599872034,6.128231870919027,1.0042498111724854,-2.7979231516467493
1708442898.20279,-2.1516366004943848,-1.3346559566310425,-2.5195322672473353,6.128234970360555,1.0041754245758057,-2.7979019323932093
1708442898.204763,-2.1516637802124023,-1.3346517098001023,-2.519541088734762,6.12832664230422,1.004229187965393,-2.7978976408587855
1708442898.2067332,-2.1516637802124023,-1.3346678030541916,-2.519520107899801,6.128211128502645,1.0042496919631958,-2.7978695074664515
1708442898.2087421,-2.1516976356506348,-1.3346157383969803,-2.51955753961672,6.128268825798788,1.0042117834091187,-2.7978771368609827
1708442898.2108028,-2.1516637802124023,-1.334680126314499,-2.5195770899402063,6.128309118538656,1.0042576789855957,-2.7978976408587855
1708442898.212818,-2.1517250537872314,-1.3346397888711472,-2.519553009663717,6.128285395890035,1.0042204856872559,-2.7979019323932093
1708442898.2147586,-2.151667356491089,-1.334619404082634,-2.51957875887026,6.128300416260519,1.0042781829833984,-2.797823969517843
1708442898.216765,-2.1517136096954346,-1.3346355718425293,-2.5195396582232874,6.128256785660543,1.0042006969451904,-2.797835890446798
1708442898.2187665,-2.1517179012298584,-1.3346279871514817,-2.5195651690112513,6.128243672638693,1.0042409896850586,-2.7978814283954065
1708442898.2207313,-2.151681661605835,-1.3346441251090546,-2.519569698964254,6.128256785660543,1.0042126178741455,-2.797890011464254
1708442898.2227304,-2.1516807079315186,-1.334566355948784,-2.5196264425860804,6.128239381104269,1.0042575597763062,-2.7978814283954065
1708442898.2247427,-2.1516852378845215,-1.334598721270897,-2.5195816198932093,6.128239381104269,1.0042082071304321,-2.7978695074664515
1708442898.2267442,-2.1516976356506348,-1.3346236509135743,-2.5195277372943323,6.1282973168189905,1.0042694807052612,-2.7978976408587855
1708442898.2287269,-2.1516942977905273,-1.334611029630043,-2.5195725599872034,6.1282973168189905,1.004183292388916,-2.797901455556051
1708442898.2307618,-2.151693105697632,-1.3346559268287201,-2.519553009663717,6.128309118538656,1.004245400428772,-2.7978976408587855
1708442898.232749,-2.1517226696014404,-1.3345749092153092,-2.519599739705221,6.1282927868659876,1.0042247772216797,-2.7978814283954065
1708442898.2347484,-2.1517021656036377,-1.3346279573491593,-2.5195801893817347,6.128313529282369,1.004183292388916,-2.7978933493243616
1708442898.2368255,-2.1516547203063965,-1.334639773969986,-2.5195305983172815,6.128260004311361,1.0042204856872559,-2.797884527836935
1708442898.2387362,-2.1516637802124023,-1.33468850076709,-2.519548479710714,6.128227460175314,1.0042409896850586,-2.797868315373556
1708442898.2407775,-2.1517021656036377,-1.3345825535110016,-2.5195892492877405,6.128317940026083,1.0041875839233398,-2.797905747090475
1708442898.2427354,-2.1517181396484375,-1.334631310110428,-2.5195756594287317,6.128239381104269,1.0041950941085815,-2.7978432814227503
1708442898.2447598,-2.1516976356506348,-1.3346110147288819,-2.5196028391467493,6.128239381104269,1.0042575597763062,-2.7979512850390833
1708442898.2467296,-2.1517226696014404,-1.3346559268287201,-2.5195592085467737,6.128313529282369,1.0042575597763062,-2.7978857199298304
1708442898.2487488,-2.1517250537872314,-1.3346517098001023,-2.5195608774768274,6.128270971566,1.0042814016342163,-2.797901455556051
1708442898.2507362,-2.1516807079315186,-1.3346322041800995,-2.5195472876178187,6.128346431046285,1.0042650699615479,-2.797913376485006
1708442898.2527924,-2.1516976356506348,-1.3346227717450638,-2.5195816198932093,6.128296005516805,1.004273772239685,-2.7978888193713587
1708442898.254752,-2.1517179012298584,-1.3346071702292939,-2.5195396582232874,6.128353941231527,1.0042445659637451,-2.7979145685779017
1708442898.2567432,-2.1517226696014404,-1.3346432608417054,-2.5195756594287317,6.128296005516805,1.0042564868927002,-2.7979589144336146
1708442898.2587404,-2.1516592502593994,-1.3346517247012635,-2.5195487181292933,6.128357040673055,1.0042279958724976,-2.7979090849505823
1708442898.26073,-2.1517136096954346,-1.3346398037723084,-2.519569698964254,6.128373610764303,1.0042932033538818,-2.7979663054095667
1708442898.2627742,-2.151688575744629,-1.3346355718425293,-2.519548479710714,6.1283724186714075,1.0042695999145508,-2.797962013875143
1708442898.2648146,-2.151667356491089,-1.334692896609642,-2.5195651690112513,6.128404009133138,1.0042933225631714,-2.7979210058795374
1708442898.2667553,-2.1516547203063965,-1.3346236658147355,-2.519548479710714,6.128404128342428,1.0042192935943604,-2.797969643269674
1708442898.2687793,-2.1516852378845215,-1.3346236509135743,-2.519553009663717,6.128412830620565,1.0042475461959839,-2.7979663054095667
1708442898.2707787,-2.1517136096954346,-1.3346072000316163,-2.5195937792407435,6.128371226578512,1.0042846202850342,-2.797973934804098
1708442898.2727463,-2.151677370071411,-1.3346193891814728,-2.5195589701281946,6.128375518112936,1.004288911819458,-2.7979725042926233
1708442898.2747684,-2.1517553329467773,-1.3345986765674134,-2.519536558781759,6.128436553269186,1.0042684078216553,-2.7980344931231897
1708442898.2767558,-2.1517066955566406,-1.334684358244278,-2.5195606390582483,6.12841163852767,1.0043306350708008,-2.7980063597308558
1708442898.2787433,-2.1516852378845215,-1.3346398037723084,-2.5195725599872034,6.128449785500326,1.004259467124939,-2.7980344931231897
1708442898.2807322,-2.1516764163970947,-1.334595338707306,-2.5196519533740442,6.128440964012899,1.0042638778686523,-2.7980216185199183
1708442898.2827663,-2.151672840118408,-1.3345910024693985,-2.519604269658224,6.128432261734762,1.0042846202850342,-2.797980610524313
1708442898.2847402,-2.1516942977905273,-1.3346194189837952,-2.5196221510516565,6.128452884941854,1.0042970180511475,-2.7979965845691126
1708442898.2867541,-2.1517226696014404,-1.3346151572516938,-2.5196474234210413,6.128420340805807,1.0042927265167236,-2.798030201588766
1708442898.2887585,-2.1517250537872314,-1.3346071553281327,-2.5195937792407435,6.1284453747566126,1.0043177604675293,-2.798042122517721
1708442898.2907715,-2.1516942977905273,-1.3346559566310425,-2.5196130911456507,6.128424632340231,1.0043177604675293,-2.798054043446676
1708442898.2927973,-2.1516366004943848,-1.3346720498851319,-2.5196295420276087,6.128387439041891,1.0043015480041504,-2.798070255910055
1708442898.2948248,-2.1516807079315186,-1.3346764904311677,-2.519657913838522,6.128412830620565,1.0043580532073975,-2.7980497519122522
1708442898.2967372,-2.1516592502593994,-1.3345867705396195,-2.5196788946734827,6.128387439041891,1.0043503046035767,-2.798115317021505
1708442898.298756,-2.1516637802124023,-1.3346228015473862,-2.519554678593771,6.128412830620565,1.0042510032653809,-2.7980292479144495
1708442898.3007596,-2.1517021656036377,-1.334643231039383,-2.5195592085467737,6.128429162293234,1.0043370723724365,-2.798060480748312
1708442898.3027713,-2.1516196727752686,-1.3346271079829712,-2.5196414629565638,6.128420340805807,1.0043251514434814,-2.79813796678652
1708442898.3047657,-2.1517155170440674,-1.334591032271721,-2.519604269658224,6.128408419876852,1.0043655633926392,-2.7981422583209437
1708442898.3067515,-2.151665687561035,-1.3346313399127503,-2.519604269658224,6.128445493965902,1.0043240785598755,-2.79816180864443
1708442898.3087444,-2.1516613960266113,-1.3346029233983536,-2.5196250120746058,6.1284453747566126,1.0043524503707886,-2.7981744448291224
1708442898.3107495,-2.1516852378845215,-1.3346432161382218,-2.519662682210104,6.1284159300620935,1.0043319463729858,-2.7981937567340296
1708442898.3128145,-2.1516523361206055,-1.3346313697150727,-2.519636933003561,6.128436672478475,1.0043690204620361,-2.7982423941241663
1708442898.31477,-2.1516852378845215,-1.3346645396998902,-2.519627873097555,6.1283724186714075,1.0043809413909912,-2.798274580632345
1708442898.3167536,-2.151665687561035,-1.3346474778703232,-2.519649092351095,6.128388631134786,1.0043896436691284,-2.7983232180224817
1708442898.3187573,-2.1516499519348145,-1.3346559268287201,-2.5196414629565638,6.128368007927694,1.0043765306472778,-2.7983134428607386
1708442898.3207362,-2.151670217514038,-1.3346071702292939,-2.519649092351095,6.128359305649557,1.0044018030166626,-2.798354212437765
1708442898.322761,-2.1516330242156982,-1.3346194487861176,-2.5196805636035364,6.1283724186714075,1.0043963193893433,-2.7983573118792933
1708442898.3247688,-2.151611804962158,-1.3346279722503205,-2.51966101328005,6.128340709000387,1.0044050216674805,-2.7983930746661585
1708442898.3267589,-2.151616096496582,-1.334615708594658,-2.5196686426745813,6.128397452622213,1.004375696182251,-2.7984779516803187
1708442898.3287575,-2.151646614074707,-1.3346721243909379,-2.5197089354144495,6.128381240158834,1.0044420957565308,-2.798473660145895
1708442898.3307378,-2.1515889167785645,-1.3345868301442643,-2.5197210947619837,6.128299104958334,1.0044125318527222,-2.7985051313983362
1708442898.3327734,-2.151613712310791,-1.3345987659743805,-2.5196641127215784,6.1283408282096765,1.00443696975708,-2.7985413710223597
1708442898.3347626,-2.151604652404785,-1.3346279722503205,-2.5197420755969446,6.128304707794943,1.0044500827789307,-2.7985814253436487
1708442898.3367777,-2.151581048965454,-1.3346355718425293,-2.5197044054614466,6.12826560714797,1.004453182220459,-2.798617188130514
1708442898.338742,-2.151576519012451,-1.3346602779677887,-2.5196672121631067,6.128212082176962,1.0044488906860352,-2.7986460367785853
1708442898.340742,-2.151611328125,-1.3346157234958191,-2.5197301546679896,6.128195750504293,1.0044195652008057,-2.7987058798419397
1708442898.342754,-2.1515774726867676,-1.3346236509135743,-2.5197330156909388,6.128183948784628,1.0044848918914795,-2.798720661793844
1708442898.3447566,-2.1515774726867676,-1.3346398186734696,-2.519745175038473,6.12814341762618,1.0044760704040527,-2.798849884663717
1708442898.346743,-2.1515231132507324,-1.3346279573491593,-2.5197210947619837,6.128140318184652,1.0045416355133057,-2.798927609120504
1708442898.3487594,-2.1515660285949707,-1.3346313548139115,-2.5197165648089808,6.128091203957357,1.0045373439788818,-2.79897386232485
1708442898.3507333,-2.151541233062744,-1.3346687865308304,-2.519748036061422,6.128120648651876,1.0045654773712158,-2.7990134398089808
1708442898.3527725,-2.1515297889709473,-1.3345825386098404,-2.519749704991476,6.12807713726119,1.0046017169952393,-2.799110476170675
1708442898.354752,-2.151543378829956,-1.3346321743777771,-2.5197976271258753,6.128007280617513,1.004613995552063,-2.799152676259176
1708442898.3567445,-2.151475429534912,-1.3346236509135743,-2.5198021570788782,6.128024923592367,1.0046420097351074,-2.7992871443377894
1708442898.3587263,-2.151505947113037,-1.3346559268287201,-2.5198140780078333,6.127988803177633,1.004608392715454,-2.799432341252462
1708442898.3607736,-2.151460886001587,-1.3345706921866913,-2.5197976271258753,6.127956259041586,1.0046322345733643,-2.7994585672961634
1708442898.3627553,-2.1514618396759033,-1.3345748496106644,-2.5198217074023646,6.127974736481466,1.004710078239441,-2.7995737234698694
1708442898.3647628,-2.1514573097229004,-1.3345953536084671,-2.5198782126056116,6.127872335701742,1.0046848058700562,-2.799645964299337
1708442898.3668299,-2.15142560005188,-1.3346283745816727,-2.51985747018923,6.127889859467306,1.0047788619995117,-2.799859348927633
1708442898.368741,-2.1513936519622803,-1.3346475076726456,-2.5198290983783167,6.1277809021766565,1.0047626495361328,-2.8000114599811
1708442898.3707392,-2.1513733863830566,-1.3346406829408188,-2.519869391118185,6.1277373907859705,1.004847526550293,-2.80006987253298
1708442898.372776,-2.151310920715332,-1.3346236509135743,-2.5198350588427942,6.127713191300192,1.0048226118087769,-2.800213877354757
1708442898.3747292,-2.1513094902038574,-1.33456306279216,-2.519872490559713,6.1276446459587,1.0048511028289795,-2.800422970448629
1708442898.3767679,-2.1512646675109863,-1.3345826131156464,-2.519881550465719,6.127611744194784,1.0048993825912476,-2.8005626837359827
1708442898.3787682,-2.151282548904419,-1.334555373792984,-2.5199385325061243,6.127556311875143,1.0048704147338867,-2.8007431666003626
1708442898.3807206,-2.151262044906616,-1.334574819808342,-2.5199535528766077,6.127557503968038,1.0049068927764893,-2.800889555607931
1708442898.3827403,-2.151217222213745,-1.3345511120608826,-2.520014826451437,6.127493011742391,1.0049175024032593,-2.801056210194723
1708442898.3847332,-2.1511895656585693,-1.334607185130455,-2.520001475011007,6.127425658493795,1.0050028562545776,-2.8012660185443323
1708442898.3867965,-2.1511735916137695,-1.3346071702292939,-2.51994759241213,6.1273605702217,1.0049700736999512,-2.8015058676349085
1708442898.3887713,-2.1511588096618652,-1.3345757287791749,-2.5200255552874964,6.127325761109152,1.005043625831604,-2.801746670399801
1708442898.3907628,-2.151122570037842,-1.334600345497467,-2.5200496355639856,6.127264606743612,1.0050380229949951,-2.8019471804248255
1708442898.3927634,-2.1511270999908447,-1.3345595461181183,-2.5200615564929407,6.127161013870992,1.0050663948059082,-2.8022165934192103
1708442898.3947608,-2.1510510444641113,-1.3345553588918229,-2.520085398350851,6.127144682198324,1.0051189661026,-2.802422110234396
1708442898.3967648,-2.1510262489318848,-1.3345391911319275,-2.5201543013202112,6.127061950951376,1.0051546096801758,-2.80270225206484
1708442898.3987632,-2.1509695053100586,-1.3345595461181183,-2.5201409498797815,6.126969206124105,1.0051908493041992,-2.8029945532428187
1708442898.4007742,-2.1509909629821777,-1.3345237982324143,-2.5201860109912317,6.126942145615377,1.0052063465118408,-2.80328613916506
1708442898.4027524,-2.1509172916412354,-1.3345731359771271,-2.520176951085226,6.126844990044393,1.005340337753296,-2.80357534090151
1708442898.4047391,-2.150897979736328,-1.3344997328570862,-2.520217482243673,6.1267210123832605,1.0053517818450928,-2.803873364125387
1708442898.4067545,-2.1509206295013428,-1.3344963651946564,-2.520196501408712,6.12666534164504,1.0053876638412476,-2.804173771535055
1708442898.4087691,-2.1508355140686035,-1.3344766658595582,-2.5202534834491175,6.126610982209005,1.0054607391357422,-2.8044777552234095
1708442898.4107542,-2.1507482528686523,-1.3345125180533906,-2.52030593553652,6.126534688263693,1.005488395690918,-2.8048704306231897
1708442898.412826,-2.150742769241333,-1.334475578074791,-2.520289484654562,6.126430022507467,1.0055276155471802,-2.8052662054644983
1708442898.4147813,-2.1507019996643066,-1.3344640743783494,-2.520412270222799,6.126292574196615,1.0055962800979614,-2.8056674639331263
1708442898.4168043,-2.150656223297119,-1.33443175375972,-2.5203986803637903,6.126250135689535,1.0056239366531372,-2.8061278502093714
1708442898.4187703,-2.1506268978118896,-1.3344322007945557,-2.520430390034811,6.126176225930013,1.0056642293930054,-2.8065837065326136
1708442898.4207444,-2.150590658187866,-1.3344322007945557,-2.520421568547384,6.1259933588798425,1.005724310874939,-2.807006899510519
1708442898.422765,-2.1505112648010254,-1.3344322007945557,-2.520433489476339,6.1259909746940515,1.005788803100586,-2.8075318972217005
1708442898.4247518,-2.150512218475342,-1.334436447625496,-2.520446840916769,6.125862347870626,1.00584876537323,-2.8080113569842737
1708442898.426761,-2.1504201889038086,-1.3343998354724427,-2.5204723517047327,6.125721561699667,1.0058839321136475,-2.8084712664233606
1708442898.4287286,-2.150388479232788,-1.3344448965838929,-2.5205262343036097,6.125601637154379,1.0059409141540527,-2.8089187780963343
1708442898.4307547,-2.1503000259399414,-1.3343511235765,-2.520574156438009,6.125498401909628,1.0060455799102783,-2.8094337622271937
1708442898.432759,-2.1502888202667236,-1.3343842786601563,-2.5206223169909876,6.125324594765463,1.0061253309249878,-2.809934202824728
1708442898.434766,-2.150195837020874,-1.3343842935613175,-2.5206177870379847,6.125180828362264,1.0061616897583008,-2.8105350176440638
1708442898.4367635,-2.1500868797302246,-1.3343885254910965,-2.520637337361471,6.125069844513693,1.006200909614563,-2.8109968344317835
1708442898.4387534,-2.1500439643859863,-1.3343280416778107,-2.5206614176379603,6.1250038025672815,1.0063178539276123,-2.8115971724139612
1708442898.4407477,-2.1500051021575928,-1.3343723577312012,-2.5206881205188196,6.12481855133132,1.006340742111206,-2.812202278767721
1708442898.4427583,-2.149883985519409,-1.3343523007682343,-2.520728890095846,6.124743568688192,1.0064870119094849,-2.812716070805685
1708442898.4447634,-2.1498076915740967,-1.3343487542918702,-2.520785633717672,6.124575722008505,1.0065667629241943,-2.8132789770709437
1708442898.4467735,-2.1497511863708496,-1.3343090575984498,-2.5208173433886927,6.1244109747703455,1.0065900087356567,-2.8139405886279505
1708442898.4487476,-2.1497013568878174,-1.3343493801406403,-2.520820204411642,6.124294030457296,1.006678581237793,-2.814528528844015
1708442898.4508414,-2.1496262550354004,-1.3342434626868744,-2.520860735570089,6.124187814980306,1.006722092628479,-2.8151565233813685
1708442898.4527774,-2.1495649814605713,-1.3343048703721543,-2.5209344069110315,6.124027478485861,1.0068228244781494,-2.815768305455343
1708442898.4548066,-2.1494662761688232,-1.3342690479806443,-2.5209417978869837,6.123850571900167,1.0068907737731934,-2.816423002873556
1708442898.456769,-2.1494038105010986,-1.3342894476703187,-2.520973269139425,6.123645293503561,1.0069669485092163,-2.8171849886523646
1708442898.458905,-2.14931321144104,-1.3342248362353821,-2.5210378805743616,6.123552906304159,1.0069899559020996,-2.8178446928607386
1708442898.4608073,-2.1492087841033936,-1.3342248362353821,-2.5210705439196985,6.123404371529379,1.0071234703063965,-2.8186169306384485
1708442898.4627378,-2.14912486076355,-1.3342494529536744,-2.5211380163775843,6.1232125637824915,1.0071953535079956,-2.8192995230304163
1708442898.4647212,-2.1490161418914795,-1.3342290681651612,-2.5211411158191126,6.123056995659628,1.0072269439697266,-2.8200417200671595
1708442898.4667509,-2.1490070819854736,-1.3341683608344574,-2.521177355443136,6.1229134676750085,1.0073723793029785,-2.820846144353048
1708442898.4687696,-2.148857593536377,-1.3341683161309739,-2.521201197301046,6.122712242394247,1.0073957443237305,-2.8216729799853724
1708442898.4708092,-2.1488232612609863,-1.3341649931720276,-2.5212326685534876,6.122546064644613,1.0075047016143799,-2.8225114981280726
1708442898.4727287,-2.148707389831543,-1.3341776889613648,-2.521325651799337,6.122386204987325,1.00759756565094,-2.8233559767352503
1708442898.4747505,-2.1485986709594727,-1.3341127347997208,-2.5213871637927454,6.122133242874899,1.0076403617858887,-2.824162308369772
1708442898.476759,-2.1484944820404053,-1.3340359044126053,-2.521359984074728,6.121937262802877,1.0077561140060425,-2.825084988270895
1708442898.4787848,-2.148411273956299,-1.334085540180542,-2.5214529673205774,6.121786224633016,1.0078409910202026,-2.8259738127337855
1708442898.4807818,-2.1483445167541504,-1.334065706734993,-2.5215144793139856,6.121624934464254,1.007933497428894,-2.82685357729067
1708442898.4827683,-2.148237705230713,-1.3340410751155396,-2.521501127873556,6.121457445412435,1.0079760551452637,-2.827773396168844
1708442898.484823,-2.1481220722198486,-1.3340052229217072,-2.5215850512133997,6.12120949009017,1.0080764293670654,-2.8287747542010706
1708442898.4867616,-2.1480042934417725,-1.3340342354825516,-2.521621290837423,6.120982277184286,1.0082095861434937,-2.82980186143984
1708442898.4887462,-2.1478679180145264,-1.3340223294547577,-2.5216451326953333,6.120711552887716,1.0082653760910034,-2.830764357243673
1708442898.4908063,-2.1477115154266357,-1.334030957227089,-2.5217424074756067,6.12049018123702,1.00835382938385,-2.831820789967672
1708442898.4927506,-2.147629737854004,-1.3339215380004426,-2.521729056035177,6.1202629683311365,1.008453369140625,-2.832892719899313
1708442898.494799,-2.1475422382354736,-1.333930106168129,-2.5218055883990687,6.120044934540548,1.008549451828003,-2.8339715639697474
1708442898.4967482,-2.1474435329437256,-1.333901972775795,-2.52185827890505,6.119772660523214,1.008691668510437,-2.8350301424609583
1708442898.4987636,-2.147298574447632,-1.3339310747436066,-2.5218969027148646,6.119560706406393,1.0087307691574097,-2.8360942045794886
1708442898.500808,-2.147141933441162,-1.3338778626969834,-2.521916453038351,6.119343507080831,1.008790135383606,-2.8372352758990687
1708442898.5027564,-2.1470420360565186,-1.333846167927124,-2.5220096747027796,6.119042026787557,1.0089181661605835,-2.8384767214404505
1708442898.5047815,-2.146883487701416,-1.333810643558838,-2.522028986607687,6.118762123375692,1.0090274810791016,-2.839736048375265
1708442898.5067468,-2.1467673778533936,-1.3337865632823487,-2.5220800081836146,6.118512737541952,1.0091073513031006,-2.840977970753805
1708442898.508731,-2.146663188934326,-1.3337505620769043,-2.5221622625934046,6.118254530220785,1.0092357397079468,-2.8422420660602015
1708442898.5107698,-2.1465461254119873,-1.3337386411479493,-2.5222342650042933,6.117970335274496,1.0093410015106201,-2.843530003224508
1708442898.5128133,-2.1464474201202393,-1.333702878361084,-2.522235933934347,6.117760884552755,1.0094033479690552,-2.844776455556051
1708442898.5147994,-2.1462762355804443,-1.3337028932622452,-2.522306267415182,6.117448556214132,1.0094919204711914,-2.8460338751422327
1708442898.5167358,-2.1461663246154785,-1.3336549562266846,-2.522364918385641,6.117140757828512,1.0096372365951538,-2.8473485151873987
1708442898.5187325,-2.1459689140319824,-1.333626778130867,-2.52238899866213,6.116871464043417,1.0096921920776367,-2.8486819903003138
1708442898.5207717,-2.145814895629883,-1.3336274337819596,-2.5224443117724817,6.11659203746871,1.0098413228988647,-2.8500660101519983
1708442898.5227628,-2.1456878185272217,-1.3335749071887513,-2.522501293812887,6.116211163788595,1.0099048614501953,-2.8514938990222376
1708442898.524765,-2.1455376148223877,-1.3335550737432023,-2.5225732962237757,6.115981924324789,1.0099880695343018,-2.8528671900378626
1708442898.5267289,-2.1454176902770996,-1.3335114282420655,-2.52260929742922,6.115651714592733,1.0101213455200195,-2.854234282170431
1708442898.5288084,-2.145242691040039,-1.3334148240140458,-2.5226948896991175,6.115282881050863,1.0102207660675049,-2.8556836287127894
1708442898.5307722,-2.145122528076172,-1.33345519125972,-2.52272612253298,6.1150046465690515,1.0103750228881836,-2.85712176958193
1708442898.532757,-2.1449503898620605,-1.3334234666875382,-2.5227413813220423,6.114615785866537,1.0104386806488037,-2.858685080205099
1708442898.534766,-2.1448006629943848,-1.333439664249756,-2.5228055159198206,6.114240634232321,1.0105464458465576,-2.860178534184591
1708442898.5367653,-2.144620180130005,-1.333371402030327,-2.5228403250323694,6.113952147751608,1.010655164718628,-2.8616612593280237
1708442898.5387402,-2.1444647312164307,-1.3333516132882615,-2.522937838231222,6.11360119560317,1.0107922554016113,-2.8631840387927454
1708442898.5407686,-2.144296884536743,-1.3333398264697571,-2.5229316393481653,6.113155233650961,1.010805606842041,-2.864810053502218
1708442898.542791,-2.144097328186035,-1.3332921874574204,-2.522979799901144,6.11278926113204,1.0109479427337646,-2.8663821856128138
1708442898.5447526,-2.1439428329467773,-1.3331790429404755,-2.5230773130999964,6.112422692566671,1.0110068321228027,-2.8679612318622034
1708442898.5467658,-2.143766164779663,-1.3332203340581437,-2.52313739458193,6.112068402558126,1.0111355781555176,-2.8696404139148157
1708442898.5487516,-2.143577814102173,-1.333164171581604,-2.523156706486837,6.111766683846273,1.0111826658248901,-2.8714409510241907
1708442898.5507789,-2.1434338092803955,-1.3331280064633866,-2.5232377688037317,6.111430156021871,1.0113366842269897,-2.8732622305499476
1708442898.552748,-2.143280506134033,-1.3331287664226075,-2.523290220891134,6.110963809281149,1.0114079713821411,-2.875028435383932
1708442898.554781,-2.1431124210357666,-1.3330401194146653,-2.5233379046069544,6.110639560013571,1.0114802122116089,-2.876787249241964
1708442898.5567605,-2.142911911010742,-1.3330159497312088,-2.5234220663653772,6.110227215081014,1.011555552482605,-2.878470484410421
1708442898.5587473,-2.1427767276763916,-1.33301696301017,-2.5234161059008997,6.109868037491598,1.0117011070251465,-2.8802464644061487
1708442898.5607548,-2.1425650119781494,-1.3329808723977585,-2.523496929799215,6.109526741295614,1.011744499206543,-2.8822038809405726
1708442898.5627527,-2.1423888206481934,-1.3329418313554307,-2.5234954992877405,6.109030830651083,1.0118484497070312,-2.8839269320117396
1708442898.5647256,-2.1422312259674072,-1.3328489077142258,-2.5236380735980433,6.108567583351888,1.0118954181671143,-2.8857253233539026
1708442898.5667896,-2.141989231109619,-1.3328419488719483,-2.5236154238330286,6.1081488011176965,1.011997103691101,-2.8874967733966272
1708442898.5687487,-2.1418352127075195,-1.3327483844808121,-2.5237460772143763,6.107756125717916,1.0120443105697632,-2.8893678824054163
1708442898.5707283,-2.1416852474212646,-1.3327093434384842,-2.5237565676318567,6.107238876610555,1.0121490955352783,-2.8911636511432093
1708442898.572746,-2.141491413116455,-1.332726539378502,-2.523891274129049,6.106845724373617,1.012265682220459,-2.892949883137838
1708442898.5747397,-2.1412758827209473,-1.3326699447682877,-2.5238614718066614,6.106387126236715,1.0123052597045898,-2.894888703023092
1708442898.5767534,-2.141070604324341,-1.3326222908547898,-2.523900572453634,6.105956423073568,1.0124225616455078,-2.896792713795797
1708442898.5787637,-2.1409127712249756,-1.3326200556806107,-2.5239649454699915,6.105561363487997,1.0125142335891724,-2.8987258116351526
1708442898.580748,-2.1407132148742676,-1.3325182062438508,-2.52396804491152,6.105058419495382,1.012605905532837,-2.900741163884298
1708442898.582774,-2.140526056289673,-1.3324464422515412,-2.52403694788088,6.104636776238241,1.0126900672912598,-2.9027376810656946
1708442898.5847583,-2.140331983566284,-1.3323944819024582,-2.524054829274313,6.104179250984945,1.0127707719802856,-2.9048195520984095
1708442898.5867429,-2.1401119232177734,-1.3323461574367066,-2.5241239706622522,6.103748667031088,1.012886881828308,-2.9067869822131556
1708442898.588744,-2.139876127243042,-1.3323515218547364,-2.5242229143725794,6.10327039936141,1.0129635334014893,-2.908773962651388
1708442898.5907342,-2.1397171020507812,-1.3322833639434357,-2.524224344884054,6.102782952576437,1.013002872467041,-2.910867993031637
1708442898.5927534,-2.13948130607605,-1.3322109144977112,-2.5242815653430384,6.102373230248251,1.0130997896194458,-2.912959400807516
1708442898.59478,-2.1392602920532227,-1.332212508921959,-2.5242467562304896,6.10184537151412,1.0131676197052002,-2.9149916807757776
1708442898.5967388,-2.1390247344970703,-1.3321441125920792,-2.524299208317892,6.101367223053732,1.0132637023925781,-2.9170385042773646
1708442898.598773,-2.13881778717041,-1.3321083647063752,-2.5243728796588343,6.100901829987325,1.0132910013198853,-2.9190989176379603
1708442898.6007557,-2.1386146545410156,-1.3320157539895554,-2.5243921915637415,6.100414621620931,1.013346791267395,-2.921197239552633
1708442898.6027596,-2.1384027004241943,-1.3319833737662812,-2.5244930426227015,6.099917042046346,1.013456106185913,-2.9232335726367396
1708442898.6047604,-2.1381373405456543,-1.3319450181773682,-2.5245004335986536,6.099450933724203,1.013490915298462,-2.925333086644308
1708442898.6067505,-2.1379804611206055,-1.331909255390503,-2.5245123545276087,6.099002468376913,1.0135513544082642,-2.927426878605978
1708442898.6087685,-2.137784242630005,-1.3318811368993302,-2.5245888868915003,6.098519670754232,1.013635516166687,-2.929523293172018
1708442898.6107512,-2.1375720500946045,-1.3317846071771164,-2.5245826880084437,6.097949492722311,1.013716220855713,-2.9317765871631067
1708442898.61283,-2.1373205184936523,-1.3317689907601853,-2.524669949208395,6.097489106446066,1.0137393474578857,-2.9341264406787317
1708442898.6147752,-2.137122869491577,-1.3316487234881897,-2.524698321019308,6.096930253296652,1.0138204097747803,-2.9364827314959925
1708442898.6167462,-2.136904716491699,-1.3316050630858918,-2.5246756712542933,6.096379148751058,1.0138968229293823,-2.938740078602926
1708442898.6187732,-2.136651039123535,-1.3315375161222,-2.5247119108783167,6.095869648247518,1.0139195919036865,-2.940982166920797
1708442898.6207485,-2.1364359855651855,-1.3314819496921082,-2.524723831807272,6.095379102021017,1.0139721632003784,-2.943284336720602
1708442898.6228023,-2.136188507080078,-1.3314498227885743,-2.524759594594137,6.094946729927816,1.0139832496643066,-2.945468012486593
1708442898.6247544,-2.135993480682373,-1.3314026159099122,-2.5247793833362024,6.0944654820259,1.0140639543533325,-2.9477716127978724
1708442898.6267369,-2.135754108428955,-1.3313592237285157,-2.5248168150531214,6.093893158226766,1.0140595436096191,-2.9499476591693323
1708442898.6287394,-2.135571241378784,-1.331299365764,-2.5248242060290735,6.093302595406332,1.014168620109558,-2.9523406664477747
1708442898.6307645,-2.1352620124816895,-1.3312395376018067,-2.52488881746401,6.092806207924642,1.0141637325286865,-2.9545519987689417
1708442898.6328053,-2.1350677013397217,-1.3311517995646973,-2.524867836629049,6.092202412873068,1.0142650604248047,-2.956888262425558
1708442898.6347558,-2.1348161697387695,-1.3310464036515732,-2.52491265932192,6.091660964279928,1.0142816305160522,-2.959237877522604
1708442898.6367471,-2.1345720291137695,-1.3309703481248398,-2.5248826185809534,6.091053235321798,1.0143210887908936,-2.96159273782839
1708442898.6387393,-2.134349822998047,-1.330919401054718,-2.5249367395984095,6.090552556305685,1.0143404006958008,-2.963921372090475
1708442898.6407397,-2.1340811252593994,-1.3309167486480256,-2.524939839039938,6.090018856316366,1.0143558979034424,-2.9663968721972864
1708442898.6427422,-2.133899211883545,-1.33087673903022,-2.524939839039938,6.0894237635429285,1.0143721103668213,-2.96885854402651
1708442898.6447728,-2.133634328842163,-1.330711619263031,-2.5249889532672327,6.0888839838798425,1.0143795013427734,-2.971348587666647
1708442898.646751,-2.133373498916626,-1.330733136539795,-2.524968210850851,6.088318931847372,1.0144364833831787,-2.973844114934103
1708442898.6487327,-2.1331725120544434,-1.3306733232787629,-2.524959150944845,6.087737428932943,1.0144321918487549,-2.976356808339254
1708442898.65078,-2.1329283714294434,-1.3305938851884385,-2.524968210850851,6.087102520256796,1.0144364833831787,-2.9788697401629847
1708442898.6527405,-2.1326611042022705,-1.3305449795774003,-2.524956289921896,6.086548912316122,1.0144728422164917,-2.9812961260425013
1708442898.6547422,-2.1324126720428467,-1.3304450821927567,-2.52494723001589,6.086020219116964,1.0145337581634521,-2.983758036290304
1708442898.6567492,-2.1321945190429688,-1.3303693693927308,-2.524975601826803,6.085382091789999,1.0145044326782227,-2.9861868063556116
1708442898.658868,-2.131969928741455,-1.3303015989116211,-2.524921957646505,6.084836232453146,1.0144431591033936,-2.9886356035815638
1708442898.6610057,-2.13175892829895,-1.3303029102138062,-2.524980131779806,6.084201204567709,1.0144846439361572,-2.99101430574526
1708442898.6627545,-2.131516218185425,-1.330218882565834,-2.524968210850851,6.083595263748922,1.0144925117492676,-2.993613068257467
1708442898.664757,-2.1312849521636963,-1.3301334542087098,-2.524956289921896,6.083006250649252,1.0144846439361572,-2.9961567560779017
1708442898.6668708,-2.131024122238159,-1.3300745797208329,-2.524939839039938,6.082383382111349,1.0144562721252441,-2.9988725821124476
1708442898.6687462,-2.130767822265625,-1.3300384891084214,-2.5249276796924036,6.081751811295309,1.0144400596618652,-3.00157076517214
1708442898.670746,-2.130565881729126,-1.329959200029709,-2.5248857180224817,6.0811558840568445,1.014460563659668,-3.004169766102926
1708442898.6727467,-2.130338668823242,-1.3298700463822861,-2.524956289921896,6.08062373378829,1.0144083499908447,-3.006676737462179
1708442898.674772,-2.130075454711914,-1.329822452073433,-2.5249035994159144,6.080004799156942,1.0144321918487549,-3.009301487599508
1708442898.6767468,-2.129868984222412,-1.3297431480935593,-2.5249202887164515,6.079420316010275,1.014428973197937,-3.0118590036975306
1708442898.6787739,-2.1295876502990723,-1.3297199767879029,-2.5248871485339563,6.07877932766036,1.0144288539886475,-3.0144415537463587
1708442898.6807446,-2.129335880279541,-1.3296969693950196,-2.5248916784869593,6.078238236695089,1.014392614364624,-3.017041031514303
1708442898.682796,-2.1291091442108154,-1.3295429211905976,-2.5248916784869593,6.077650296479025,1.0143274068832397,-3.0195465723620813
1708442898.6847463,-2.1288528442382812,-1.3295046848109742,-2.5248435179339808,6.077007996826925,1.0143122673034668,-3.022261921559469
1708442898.686757,-2.128664493560791,-1.3294686836055298,-2.5248106161700647,6.076436388283529,1.0142760276794434,-3.024850670491354
1708442898.688759,-2.128387451171875,-1.3293896180442353,-2.5248361269580286,6.075741636544027,1.0142313241958618,-3.0275402704821985
1708442898.690754,-2.128141403198242,-1.3292721819928666,-2.5248242060290735,6.0751051781471155,1.0142072439193726,-3.0302751700030726
1708442898.6927667,-2.127899408340454,-1.3292327684215088,-2.5248003641711634,6.074539887696066,1.0141875743865967,-3.032935444508688
1708442898.6947787,-2.1276161670684814,-1.3291775596192856,-2.5247324148761194,6.073909270554342,1.0141887664794922,-3.035687510167257
1708442898.6967504,-2.1274616718292236,-1.3291266870549698,-2.524735752736227,6.073364722519674,1.014181137084961,-3.038384024296896
1708442898.6987545,-2.127218008041382,-1.3290383380702515,-2.524731222783224,6.072691070824423,1.0141242742538452,-3.0410102049456995
1708442898.700745,-2.126976251602173,-1.3290069562247773,-2.5247374216662806,6.072135197907247,1.0140464305877686,-3.0436018149005335
1708442898.702755,-2.1267223358154297,-1.328878567819931,-2.5247209707843226,6.071562278061666,1.0140433311462402,-3.0462785402881067
1708442898.7047544,-2.12650203704834,-1.328851507311203,-2.5246711413012903,6.070967542916097,1.0139938592910767,-3.048864189778463
1708442898.7067769,-2.1262640953063965,-1.3287807416966935,-2.5245991388904017,6.070297348290243,1.0139788389205933,-3.051464621220724
1708442898.708774,-2.1260719299316406,-1.3286297631314774,-2.5246110598193567,6.069711315422811,1.0138977766036987,-3.0540812651263636
1708442898.7107615,-2.125807762145996,-1.328594760303833,-2.5245917479144495,6.069190728455343,1.01388680934906,-3.0568082968341272
1708442898.7128334,-2.1255784034729004,-1.328572393660881,-2.524497095738546,6.06853603103713,1.0138335227966309,-3.059444252644674
1708442898.7148376,-2.12530779838562,-1.3284959656051178,-2.524519745503561,6.06801866272048,1.0137943029403687,-3.062188688908712
1708442898.7167566,-2.125077247619629,-1.32844931006942,-2.5244627634631556,6.067478287010946,1.01377534866333,-3.0649080912219446
1708442898.718777,-2.124885320663452,-1.3283646416715165,-2.5244718233691614,6.066876160889425,1.013694405555725,-3.067638937626974
1708442898.720766,-2.124591827392578,-1.3282485020211716,-2.524414841328756,6.066297399788656,1.0135984420776367,-3.070230786000387
1708442898.7227795,-2.124401330947876,-1.3282743257335206,-2.5243998209582728,6.065641867905416,1.0135457515716553,-3.0729127565967005
1708442898.7247605,-2.1241414546966553,-1.3281774085811158,-2.5243592897998255,6.065100538521566,1.0134944915771484,-3.0755744616137903
1708442898.726762,-2.1240041255950928,-1.3281708669713517,-2.524306599293844,6.064450251847067,1.0134060382843018,-3.078190867100851
1708442898.728806,-2.1237316131591797,-1.328033210044243,-2.524273697529928,6.063928472786703,1.0132968425750732,-3.0808585325824183
1708442898.7307563,-2.123511791229248,-1.327949122791626,-2.5242679754840296,6.063434588700094,1.0132052898406982,-3.083419148121969
1708442898.7327728,-2.123274564743042,-1.3279339236072083,-2.5242603460894983,6.062847125321188,1.0131241083145142,-3.086146418248312
1708442898.73477,-2.123023748397827,-1.3278795045665284,-2.524252955113546,6.062272536545553,1.0130648612976074,-3.0888238588916224
1708442898.7367764,-2.12283992767334,-1.3278033447316666,-2.5241268316852015,6.061702000885763,1.012947916984558,-3.0916383902179163
1708442898.7387843,-2.1226065158843994,-1.3277568233064194,-2.524100128804342,6.0611034510429285,1.0128518342971802,-3.0944977442370813
1708442898.7407496,-2.1223974227905273,-1.3276426059058686,-2.52405029932131,6.060541856079855,1.0127971172332764,-3.097226921712057
1708442898.742792,-2.1222081184387207,-1.3275753867677231,-2.5240069071399134,6.05998860576705,1.0126967430114746,-3.0999847094165247
1708442898.7447681,-2.12201189994812,-1.327531860475876,-2.523937765751974,6.059451567917623,1.012542486190796,-3.1026747862445276
1708442898.7467854,-2.1218180656433105,-1.3274445247701188,-2.5239062944995325,6.058867919235983,1.012442946434021,-3.105344835911886
1708442898.7487755,-2.1215310096740723,-1.3273882430842896,-2.523879591618673,6.058342325478353,1.0123631954193115,-3.1079700628863733
1708442898.7507973,-2.121410846710205,-1.327263505463936,-2.5237908999072474,6.057770955353536,1.012255311012268,-3.110645596181051
1708442898.752754,-2.121218681335449,-1.3272894036820908,-2.52372652689089,6.05726312378005,1.0121710300445557,-3.113255325947897
1708442898.7547631,-2.1209988594055176,-1.327164427643158,-2.5237401167498987,6.056642877846517,1.012058138847351,-3.1158950964557093
1708442898.7567806,-2.12073016166687,-1.3271621030620118,-2.523672644292013,6.0561033366020105,1.0119138956069946,-3.11866003671755
1708442898.7587652,-2.1206119060516357,-1.3270816516927262,-2.5235465208636683,6.055539476662435,1.0117897987365723,-3.1214335600482386
1708442898.7608287,-2.1203761100769043,-1.3269775223783036,-2.523555580769674,6.054953086167135,1.0116844177246094,-3.1243484655963343
1708442898.7628193,-2.1201469898223877,-1.3269622784904023,-2.5234788099872034,6.054480540543356,1.0115349292755127,-3.127176825200216
1708442898.76478,-2.119992733001709,-1.3268580746701737,-2.523428265248434,6.053880917816915,1.0114027261734009,-3.129861656819479
1708442898.7667906,-2.1197636127471924,-1.326806442146637,-2.5233214537249964,6.053330647736349,1.011311650276184,-3.1325185934649866
1708442898.7687712,-2.1195662021636963,-1.326791600590088,-2.5232508818255823,6.052799808769979,1.0111876726150513,-3.1352649370776575
1708442898.7707574,-2.119403839111328,-1.3266666245511551,-2.523173157368795,6.0522416708763025,1.0110560655593872,-3.1379764715777796
1708442898.7727478,-2.1192123889923096,-1.3266229194453736,-2.5231340567218226,6.051649319916525,1.0109447240829468,-3.1406694094287317
1708442898.774799,-2.118950128555298,-1.3266034585288544,-2.523062054310934,6.051052915840902,1.0107873678207397,-3.143460814152853
1708442898.7767723,-2.1187753677368164,-1.3265153926661988,-2.5230229536639612,6.050647246628561,1.010683536529541,-3.146092240010397
1708442898.7787795,-2.118612051010132,-1.3264275652221222,-2.5229678789721888,6.050067055016317,1.0105061531066895,-3.1487610975848597
1708442898.7807674,-2.118417739868164,-1.3263718646815796,-2.5228760878192347,6.049483763962545,1.0103906393051147,-3.1515982786761683
1708442898.7827523,-2.1182544231414795,-1.3263686311296006,-2.522774044667379,6.048958885460653,1.0102508068084717,-3.1543269793139856
1708442898.7847404,-2.118049383163452,-1.3262524616769333,-2.52274734178652,6.048510062485494,1.010097622871399,-3.157116476689474
1708442898.7867591,-2.1178534030914307,-1.3262001436999817,-2.522634569798605,6.048015224724569,1.0099239349365234,-3.159849230443136
1708442898.7887752,-2.1176669597625732,-1.3261327755502244,-2.5225957075702112,6.0475289700324915,1.0098506212234497,-3.16272479692568
1708442898.790804,-2.1175105571746826,-1.3261294823936005,-2.5225072542773646,6.047034132271566,1.0096451044082642,-3.165530268345968
1708442898.7927651,-2.1173243522644043,-1.326057718401291,-2.5223992506610315,6.046518075257101,1.0094801187515259,-3.168321196232931
1708442898.7947545,-2.1171531677246094,-1.3259697270444413,-2.522297445927755,6.04598747470931,1.009364128112793,-3.171061340962545
1708442898.7967527,-2.11691951751709,-1.325949953203537,-2.5222089926349085,6.045460688858785,1.009186863899231,-3.1737492720233362
1708442898.7987714,-2.1167821884155273,-1.3258661937764664,-2.5221625010119837,6.044991242676534,1.0090724229812622,-3.1763816515551966
1708442898.800805,-2.1166188716888428,-1.3257695597461243,-2.522106949483053,6.044554340630331,1.0089161396026611,-3.179100577031271
1708442898.80277,-2.1164145469665527,-1.3257468205741425,-2.5219813028918665,6.044011819153585,1.0087226629257202,-3.1817389170276087
1708442898.8047569,-2.116238832473755,-1.3256578010371705,-2.5219102541552942,6.043472039490499,1.008582592010498,-3.184516255055563
1708442898.806777,-2.116063117980957,-1.3256197732738038,-2.5218101183520716,6.043043005257406,1.0083937644958496,-3.187259022389547
1708442898.808761,-2.115915536880493,-1.3255423468402405,-2.521775547658102,6.042625534325399,1.0082863569259644,-3.1900768915759485
1708442898.810782,-2.1157474517822266,-1.32551562905822,-2.52163011232485,6.0420676348503015,1.0081095695495605,-3.1926830450641077
1708442898.812751,-2.1155500411987305,-1.325431616311409,-2.521546188985006,6.041650402336874,1.0079455375671387,-3.1953845659839075
1708442898.8148031,-2.1153995990753174,-1.3253753048232575,-2.5214739481555384,6.041186797409811,1.007760763168335,-3.1981287638293665
1708442898.816792,-2.115237236022949,-1.3253151339343567,-2.5213618914233606,6.040757405548849,1.0075639486312866,-3.200862232838766
1708442898.8187947,-2.115125894546509,-1.3252641570619126,-2.521294180546896,6.040325987129965,1.0074362754821777,-3.203543488179342
1708442898.8207757,-2.114967107772827,-1.3252455008080979,-2.521202627812521,6.039880859642782,1.0072306394577026,-3.2061155478106897
1708442898.8227892,-2.114828586578369,-1.325156719689705,-2.521135393773214,6.039465057640829,1.0070548057556152,-3.2087717692004603
1708442898.824815,-2.1146745681762695,-1.325072006588318,-2.52101976076235,6.038965689926901,1.0069271326065063,-3.2113781611071985
1708442898.8267763,-2.1145200729370117,-1.325021581058838,-2.5209103266345423,6.038584220200338,1.006730079650879,-3.214099947606222
1708442898.8288062,-2.1143715381622314,-1.3249695015004654,-2.5208354632007044,6.038134205132284,1.0065783262252808,-3.2168174425708216
1708442898.8308175,-2.114215850830078,-1.3249295067838212,-2.5206945578204554,6.0376614210899255,1.0063894987106323,-3.219574038182394
1708442898.8328006,-2.114084482192993,-1.324840397839882,-2.5205984751330774,6.037263500481405,1.006237268447876,-3.222236935292379
1708442898.8347867,-2.1139166355133057,-1.3248422902873536,-2.5205023924456995,6.036836492806234,1.0060653686523438,-3.2249203364001673
1708442898.8367672,-2.1138055324554443,-1.324732945566513,-2.520430390034811,6.0364900706108,1.0059341192245483,-3.2276108900653284
1708442898.8387864,-2.113701105117798,-1.3247087907842179,-2.5203238169299524,6.036101448326864,1.0057705640792847,-3.2302737871753138
1708442898.8407643,-2.1135616302490234,-1.3246943664601822,-2.520197931920187,6.0356517908866785,1.0055855512619019,-3.232945982609884
1708442898.8427515,-2.1133971214294434,-1.3245771837285538,-2.520118538533346,6.0352704403694055,1.0053924322128296,-3.235483709965841
1708442898.8447769,-2.113285779953003,-1.3245869141868134,-2.520047966633932,6.034875619202413,1.0051878690719604,-3.238105122243063
1708442898.8467565,-2.113150119781494,-1.324534924035408,-2.519935671483175,6.0344430086906335,1.0050402879714966,-3.240701500569479
1708442898.8487623,-2.1130566596984863,-1.324458510880806,-2.51978570619692,6.034033524781027,1.0048270225524902,-3.243396584187643
1708442898.850779,-2.1129250526428223,-1.3245007258704682,-2.5197318235980433,6.033744799881735,1.0046716928482056,-3.246051613484518
1708442898.8527596,-2.112813711166382,-1.324354277258255,-2.5196159521686,6.033369529038229,1.0045080184936523,-3.2487600485431116
1708442898.8548086,-2.1126890182495117,-1.3243640226176758,-2.519508186970846,6.032956588059225,1.004265308380127,-3.251565996800558
1708442898.856746,-2.1125121116638184,-1.3243077111295243,-2.51941687265505,6.032598721771993,1.0041263103485107,-3.2542350927936
1708442898.85875,-2.112419366836548,-1.3242640954307099,-2.5192459265338343,6.03225206115798,1.0038764476776123,-3.2567155996905726
1708442898.8607645,-2.112354278564453,-1.3241966527751465,-2.51917535463442,6.031961905747213,1.003729224205017,-3.25930625597109
1708442898.8627727,-2.1122660636901855,-1.324103222494461,-2.5190797487842005,6.031623828202047,1.0035663843154907,-3.2619336287127894
1708442898.864782,-2.1121013164520264,-1.3240761768868943,-2.5190003553973597,6.031194793968954,1.0033535957336426,-3.264559332524435
1708442898.8667667,-2.112001419067383,-1.3240728837302704,-2.518895451222555,6.0308406231696985,1.0031331777572632,-3.267151180897848
1708442898.8687756,-2.111909866333008,-1.3239968133023758,-2.518816057835714,6.0305577395255945,1.0029653310775757,-3.269738499318258
1708442898.870753,-2.1118314266204834,-1.3239488017610093,-2.518705193196432,6.030156838684835,1.0028177499771118,-3.2721901575671595
1708442898.87281,-2.111729145050049,-1.323877365594246,-2.518646780644552,6.029809939652242,1.0025852918624878,-3.2748704592334192
1708442898.8747437,-2.111579418182373,-1.323893592958786,-2.5184829870807093,6.02955840805129,1.0023767948150635,-3.2775281111346644
1708442898.8767824,-2.1115002632141113,-1.3238292050412674,-2.5183962027179163,6.029157626419821,1.0021313428878784,-3.2802749315844935
1708442898.87875,-2.1114003658294678,-1.3237905216268082,-2.5182839075671595,6.028859007149496,1.0019924640655518,-3.2829251925097864
1708442898.8807776,-2.111268997192383,-1.323745922451355,-2.5181880632983606,6.028483378678121,1.0018287897109985,-3.285499874745504
1708442898.8827841,-2.111250400543213,-1.3236692708781739,-2.5181432406054896,6.028188931732931,1.0015469789505005,-3.288187090550558
1708442898.8847513,-2.111128330230713,-1.323707253938057,-2.5179720560656946,6.0279403803642175,1.0014249086380005,-3.2908523718463343
1708442898.886764,-2.1110329627990723,-1.3236390215209504,-2.517918411885397,6.027669417649069,1.0011956691741943,-3.293468777333395
1708442898.8888075,-2.1108992099761963,-1.3235984605601807,-2.517834488545553,6.0273122666175745,1.0010037422180176,-3.2960222403155726
1708442898.890767,-2.110860586166382,-1.3235308688930054,-2.5176518599139612,6.027037131577291,1.0008035898208618,-3.298521343861715
1708442898.892764,-2.110793352127075,-1.32350309312854,-2.5176428000079554,6.0267289755638025,1.0006206035614014,-3.301045004521505
1708442898.8947449,-2.1107230186462402,-1.3234630090049286,-2.517423693333761,6.026422250061788,1.0004228353500366,-3.303523604069845
1708442898.896813,-2.1105904579162598,-1.3234434884837647,-2.517365280781881,6.026159393578329,1.000203251838684,-3.3061423937426966
1708442898.8987842,-2.1105291843414307,-1.3234115701964875,-2.5172739664660853,6.025963294297018,1.0000559091567993,-3.30872613588442
1708442898.9007664,-2.1104860305786133,-1.323371486072876,-2.5171454588519495,6.025650727539816,0.9998846054077148,-3.311479155217306
1708442898.902791,-2.1104114055633545,-1.323282704954483,-2.517005745564596,6.02532325962142,0.9996999502182007,-3.314200464879171
1708442898.904762,-2.110328197479248,-1.3233205092004319,-2.516893450413839,6.02501808384017,0.9994664788246155,-3.3168235460864466
1708442898.9067898,-2.1102681159973145,-1.323300988679268,-2.5167647043811243,6.024825441628256,0.9992984533309937,-3.319296662007467
1708442898.9087565,-2.1102044582366943,-1.3231673252633591,-2.5167065302478235,6.0245563862617395,0.9990734457969666,-3.3217929045306605
1708442898.9107594,-2.110107183456421,-1.3231845957091828,-2.5166104475604456,6.024400460511007,0.9989184737205505,-3.324366871510641
1708442898.9127686,-2.110076427459717,-1.3231395494988938,-2.5164437929736536,6.024079072266378,0.9987875819206238,-3.3269503752337855
1708442898.91487,-2.1100006103515625,-1.3231277924827118,-2.5163779894458216,6.023877131729879,0.9985331296920776,-3.329477373753683
1708442898.9167974,-2.1099462509155273,-1.3230557304671784,-2.5162821451770228,6.023666250496664,0.9983786344528198,-3.3319924513446253
1708442898.9188013,-2.109895944595337,-1.323039860730507,-2.5162044207202356,6.023425447731771,0.9981697797775269,-3.3344512621508997
1708442898.9207559,-2.109823703765869,-1.3229880344918747,-2.5160709063159388,6.023218977242269,0.9979578256607056,-3.3371031920062464
1708442898.9227588,-2.109816551208496,-1.3229816269925614,-2.515937391911642,6.022919523506918,0.9977988600730896,-3.33960730234255
1708442898.9247751,-2.1097609996795654,-1.3229072254947205,-2.515867058430807,6.022682297020712,0.9975572228431702,-3.342193905507223
1708442898.9267642,-2.109692096710205,-1.3228477996638794,-2.5157204310046595,6.022565471916952,0.9974026083946228,-3.344794575368063
1708442898.9288247,-2.1096577644348145,-1.3229144227555771,-2.515679899846212,6.022312748223104,0.9972178339958191,-3.3472445646869105
1708442898.9307578,-2.1095967292785645,-1.3228856188109894,-2.5156050364123743,6.0220974562461755,0.9970260858535767,-3.349682394658224
1708442898.9327538,-2.1095738410949707,-1.3228369069150467,-2.5154386202441614,6.021926748543539,0.9968422651290894,-3.3521671930896204
1708442898.934763,-2.109496831893921,-1.3227935296348114,-2.5153351465808313,6.021747219353475,0.9966330528259277,-3.3546767870532435
1708442898.9367595,-2.109469413757324,-1.322760449056961,-2.5152676741229456,6.021539675980367,0.9964702129364014,-3.357156578694479
1708442898.9387865,-2.109466075897217,-1.3226976853660126,-2.5151763598071497,6.021343457489767,0.9962489008903503,-3.359570089970724
1708442898.94075,-2.1093881130218506,-1.322706328039505,-2.515043322240011,6.021127092629232,0.9960402846336365,-3.361953083668844
1708442898.9427652,-2.1094582080841064,-1.3226456952146073,-2.514956299458639,6.0210455534751794,0.9958930611610413,-3.3643110434161585
1708442898.9448037,-2.109408140182495,-1.3226348024657746,-2.514869276677267,6.020866381912985,0.9957497119903564,-3.366727892552511
1708442898.9467528,-2.10932993888855,-1.32260616243396,-2.5147386232959192,6.020755517273702,0.9955447316169739,-3.369087044392721
1708442898.9487674,-2.1093344688415527,-1.3225574505380173,-2.5146804491626185,6.020571934967794,0.995384931564331,-3.3715599218951624
1708442898.9507651,-2.1092653274536133,-1.3225303155234833,-2.5145514647113245,6.020376074105062,0.9952125549316406,-3.3741782347308558
1708442898.952775,-2.109269857406616,-1.322517753844597,-2.5144646803485315,6.020186054497518,0.9950283169746399,-3.376608673726217
1708442898.9547565,-2.109241485595703,-1.3225187820247193,-2.5143852869616907,6.02011393287734,0.9948807954788208,-3.3789528051959437
1708442898.956764,-2.109206199645996,-1.322502539759018,-2.514275852833883,6.019957053452291,0.9946920275688171,-3.381326500569479
1708442898.9587433,-2.1092357635498047,-1.3223944020322342,-2.514176909123556,6.019822346955099,0.9945415258407593,-3.383643929158346
1708442898.9607577,-2.109210729598999,-1.32241806507621,-2.5141096750842493,6.019706117897787,0.9943078756332397,-3.3861473242389124
1708442898.962771,-2.1091859340667725,-1.3224365276149292,-2.5140047709094446,6.019597875862875,0.994102418422699,-3.3884244600879114
1708442898.9647555,-2.109206438064575,-1.3223016274026413,-2.51395827928652,6.019491898804464,0.9939965009689331,-3.3906937281238
1708442898.9667568,-2.1091904640197754,-1.3223384630731125,-2.513817373906271,6.019388544350424,0.9938077926635742,-3.392921272908346
1708442898.968751,-2.1091744899749756,-1.3223234129003067,-2.5137620607959192,6.019303428917684,0.993611216545105,-3.395257059727804
1708442898.9707654,-2.1091859340667725,-1.3223071855357666,-2.5136945883380335,6.019197094231405,0.9934847354888916,-3.3975990454303187
1708442898.9727676,-2.1091575622558594,-1.3222387743047257,-2.5135775248156946,6.019040214806356,0.9932917356491089,-3.399968926106588
1708442898.974767,-2.1091768741607666,-1.322223739033081,-2.513489309941427,6.018980371743002,0.9931190609931946,-3.4023056666003626
1708442898.9767792,-2.109220027923584,-1.3222399812987824,-2.5134099165545862,6.018954741745748,0.9929588437080383,-3.4047091642962855
1708442898.9787705,-2.1091928482055664,-1.3222442877343674,-2.5133305231677454,6.018825042038717,0.9928408861160278,-3.4070492426501673
1708442898.9807827,-2.109226703643799,-1.3221760851195832,-2.5132556597339075,6.018729078560629,0.9926352500915527,-3.409252468739645
1708442898.9827619,-2.109220027923584,-1.3221760553172608,-2.5131462256061,6.018687355309286,0.9925162196159363,-3.4114955107318323
1708442898.9847727,-2.1092312335968018,-1.322085515861847,-2.513066832219259,6.018604862480917,0.9923223257064819,-3.413715426121847
1708442898.9867697,-2.109217643737793,-1.3221279096654435,-2.513008419667379,6.018604743271627,0.992210865020752,-3.4160855452166956
1708442898.9887722,-2.109250545501709,-1.3221603643945237,-2.5128944555865687,6.018503415375509,0.9920429587364197,-3.418349329625265
1708442898.9907777,-2.1092629432678223,-1.322099731569626,-2.5128241221057337,6.018462884217062,0.9918878078460693,-3.420591179524557
1708442898.9927518,-2.109278917312622,-1.3220749211362381,-2.5127220789538782,6.018419730454244,0.9917261600494385,-3.4228463808642786
1708442898.9947526,-2.109269857406616,-1.3221527648023148,-2.5126352945910853,6.018433081894674,0.9916117787361145,-3.425072256718771
1708442898.9967556,-2.109283447265625,-1.322087825541832,-2.5125916639911097,6.018306004792013,0.9914829134941101,-3.427281681691305
1708442898.9987578,-2.1093082427978516,-1.3220590066960831,-2.512524191533224,6.018316018372335,0.99132239818573,-3.429420534764425
1708442899.00076,-2.1092991828918457,-1.3220801961473008,-2.5124028364764612,6.018282162934103,0.9911665320396423,-3.431647841130392
1708442899.0027568,-2.1093266010284424,-1.322060690527298,-2.5123398939715784,6.018276202469625,0.9909808039665222,-3.4338365236865442
1708442899.0047545,-2.1093673706054688,-1.322040156727173,-2.5122562090503138,6.0183013556297205,0.9908365607261658,-3.436251227055685
1708442899.0067663,-2.109321117401123,-1.3220000577024003,-2.5121541658984583,6.018259513169088,0.9907176494598389,-3.4385700861560267
1708442899.0087767,-2.109415054321289,-1.3220162850669404,-2.5121379534350794,6.0182639239128015,0.9905781149864197,-3.440749708806173
1708442899.0107613,-2.1094441413879395,-1.322053076033928,-2.512014691029684,6.018302905350485,0.9904502034187317,-3.4428749720202845
1708442899.012793,-2.1094884872436523,-1.3219838601401825,-2.5119429270373743,6.018276202469625,0.9903597235679626,-3.4449089209186
1708442899.01481,-2.1094422340393066,-1.3220001024058838,-2.5119128862964075,6.018256532936849,0.9901613593101501,-3.447155300770895
