Eg3-git/Classifiers/Data Collection/u8/u8abc3_ur3e_joint_states.csv
time,elbow_joint,shoulder_lift_joint,shoulder_pan_joint,wrist_1_joint,wrist_2_joint,wrist_3_joint
1708442832.8238177,-2.1422812938690186,-1.3337429028800507,-2.5268996397601526,6.11189745643691,1.0177074670791626,-2.6848483721362513
1708442832.825811,-2.1422529220581055,-1.3337419641068955,-2.5269041697131556,6.111878621369161,1.0176948308944702,-2.6848512331592005
1708442832.8278313,-2.1422617435455322,-1.3337590259364625,-2.5268619696246546,6.111857402115621,1.0176948308944702,-2.6848958174334925
1708442832.8298278,-2.1422972679138184,-1.3337627214244385,-2.5268500486956995,6.111865150719442,1.0176576375961304,-2.684894386922018
1708442832.8318112,-2.142301559448242,-1.333725781445839,-2.5268591086017054,6.111840951233663,1.0177037715911865,-2.6849656740771692
1708442832.8338246,-2.142301559448242,-1.3337352585843583,-2.5268426577197474,6.111843931465902,1.0176502466201782,-2.6849430243121546
1708442832.8358319,-2.142240524291992,-1.3337419492057343,-2.5268800894366663,6.1118695614631555,1.0176379680633545,-2.6849849859820765
1708442832.8378448,-2.142265796661377,-1.3337139201215287,-2.5268052260028284,6.111883151322164,1.017600417137146,-2.6849804560290735
1708442832.8398452,-2.1422533988952637,-1.333742917781212,-2.5268381277667444,6.111840951233663,1.0176424980163574,-2.6849504152881067
1708442832.8418667,-2.142219305038452,-1.3337301176837464,-2.5268426577197474,6.111833560257711,1.0176379680633545,-2.6849504152881067
1708442832.843829,-2.142240524291992,-1.333698646431305,-2.5269086996661585,6.111861932068624,1.0176379680633545,-2.6850205103503626
1708442832.8458846,-2.142268419265747,-1.3337461811355134,-2.5268636385547083,6.111829030304708,1.0176546573638916,-2.684965197240011
1708442832.847847,-2.1422410011291504,-1.3337224584868927,-2.5268681685077112,6.111817109375753,1.0176351070404053,-2.6850014368640345
1708442832.8498213,-2.1422815322875977,-1.3336976927569886,-2.5268500486956995,6.111817109375753,1.0176138877868652,-2.6850433985339563
1708442832.8518713,-2.1422858238220215,-1.3337755811265488,-2.5268755594836634,6.111773955612936,1.0176138877868652,-2.6850433985339563
1708442832.8538382,-2.1422743797302246,-1.3337267202189942,-2.5268800894366663,6.111756074219503,1.0176351070404053,-2.6850341002093714
1708442832.8558254,-2.142220973968506,-1.333738626246788,-2.5268636385547083,6.111811029701986,1.0175975561141968,-2.6850839296924036
1708442832.8578446,-2.14224910736084,-1.33371056736026,-2.526881519948141,6.111778485565939,1.0175975561141968,-2.685082499180929
1708442832.8598392,-2.1422324180603027,-1.333702878361084,-2.526832405720846,6.1117663262184045,1.017594337463379,-2.6851277987109583
1708442832.861857,-2.1422324180603027,-1.333771289592125,-2.52682334581484,6.111765134125509,1.0175734758377075,-2.6851113478290003
1708442832.8638215,-2.1422367095947266,-1.3337960702231904,-2.5268142859088343,6.111773955612936,1.0175987482070923,-2.6851559321032923
1708442832.8658273,-2.1422815322875977,-1.333759070639946,-2.5268097559558313,6.111729013710775,1.0175704956054688,-2.6851335207568567
1708442832.8678336,-2.1422533988952637,-1.333694414501526,-2.526827875767843,6.111775266915121,1.017595887184143,-2.685175959263937
1708442832.869859,-2.1422786712646484,-1.3336326640895386,-2.526761595402853,6.1117498753364465,1.017583966255188,-2.6851144472705286
1708442832.8718348,-2.1422338485717773,-1.3337267202189942,-2.526789967213766,6.111701953202047,1.0175672769546509,-2.685166899357931
1708442832.8738399,-2.142270088195801,-1.333702878361084,-2.526745144520895,6.111779796868124,1.0175416469573975,-2.685221258793966
1708442832.8758483,-2.1422743797302246,-1.333740459089615,-2.5267632643329065,6.111697423249044,1.0174893140792847,-2.685233179722921
1708442832.8778203,-2.142277240753174,-1.3337309819510956,-2.5267797152148646,6.111713874131002,1.017510175704956,-2.6852121988879603
1708442832.8798268,-2.1422743797302246,-1.3336790365031739,-2.5267301241504114,6.1117228148277185,1.0175223350524902,-2.6852493921863
1708442832.881857,-2.1422252655029297,-1.3336943697980423,-2.5267813841449183,6.111690032273092,1.017510175704956,-2.6851778666125696
1708442832.8838081,-2.1422367095947266,-1.3337029081634064,-2.52669865289797,6.111652362137594,1.0175358057022095,-2.6852522532092493
1708442832.8858225,-2.1422858238220215,-1.3336909723332901,-2.526689592991964,6.111616718560018,1.0174652338027954,-2.6852641741382044
1708442832.8878193,-2.142249584197998,-1.3336662662080307,-2.52665359178652,6.1116454479988,1.0174938440322876,-2.6852672735797327
1708442832.8898115,-2.1421756744384766,-1.333666892056801,-2.526719633732931,6.111636388092794,1.0174819231033325,-2.685288731251852
1708442832.8918512,-2.1422786712646484,-1.3336866957000275,-2.52669865289797,6.111649858742513,1.017498254776001,-2.6852672735797327
1708442832.8938203,-2.1421802043914795,-1.333690957432129,-2.5267048517810267,6.1116747734840295,1.0175235271453857,-2.68531304994692
1708442832.895827,-2.1422295570373535,-1.3336867106011887,-2.526670281087057,6.1115596173103235,1.017498254776001,-2.6852875391589563
1708442832.897858,-2.1422877311706543,-1.333711401825287,-2.5266416708575647,6.1116301892097376,1.017439603805542,-2.6853397528277796
1708442832.8998098,-2.142213821411133,-1.333678202038147,-2.526670281087057,6.111597406655111,1.0174529552459717,-2.6853366533862513
1708442832.9018185,-2.142209529876709,-1.3337275695851822,-2.5266626516925257,6.111634599953451,1.0175026655197144,-2.6853442827807825
1708442832.9038181,-2.1422252655029297,-1.3336705279401322,-2.52665359178652,6.111639129906454,1.017498254776001,-2.6853070894824427
1708442832.9058387,-2.142258405685425,-1.3337157380631943,-2.526665751134054,6.1116182682807825,1.0174574851989746,-2.6853562037097376
1708442832.9078264,-2.142254114151001,-1.333719940190651,-2.5266884008990687,6.1116182682807825,1.0174411535263062,-2.685401980076925
1708442832.9098146,-2.142254114151001,-1.3337113720229645,-2.52665359178652,6.111585485726156,1.017486333847046,-2.6853471438037317
1708442832.9118261,-2.142213821411133,-1.3337028932622452,-2.5266416708575647,6.111589896469869,1.017483115196228,-2.685329262410299
1708442832.9138346,-2.142245292663574,-1.3336625558188935,-2.5266762415515345,6.111561286240377,1.017429232597351,-2.6853843371020716
1708442832.9158442,-2.142213821411133,-1.3336371642402192,-2.5266762415515345,6.11161087730483,1.017483115196228,-2.685430351887838
1708442832.9178226,-2.142213821411133,-1.3337156635573884,-2.5266838709460657,6.1116078970725916,1.0174752473831177,-2.685375515614645
1708442832.919811,-2.142213821411133,-1.3336625409177323,-2.5266884008990687,6.11162434795455,1.0174680948257446,-2.6854286829577845
1708442832.9218285,-2.1422367095947266,-1.3336705279401322,-2.5266671816455286,6.1115866778190515,1.0174051523208618,-2.6854406038867396
1708442832.923826,-2.1422295570373535,-1.3336668622544785,-2.526670281087057,6.111503231316366,1.0174442529678345,-2.6854122320758265
1708442832.925821,-2.1422181129455566,-1.3336463880589982,-2.5266853014575403,6.111582267075338,1.017421841621399,-2.6854315439807337
1708442832.9278176,-2.1422619819641113,-1.3336865466884156,-2.5266416708575647,6.111555802613058,1.017397403717041,-2.685443703328268
1708442832.9298205,-2.1421844959259033,-1.3336416345885773,-2.5266929308520716,6.11150478103713,1.017401933670044,-2.6854568163501185
1708442832.9318304,-2.142213821411133,-1.3336301755956192,-2.5266552607165735,6.111633288651266,1.017397403717041,-2.685497824345724
1708442832.9338284,-2.1422338485717773,-1.3336583089879532,-2.5266552607165735,6.111567365914144,1.017397403717041,-2.685484234486715
1708442832.9358163,-2.142275333404541,-1.3336583238891144,-2.5266643206225794,6.1115091917808435,1.0173687934875488,-2.6854680220233362
1708442832.937825,-2.1421959400177,-1.3336879473975678,-2.5266507307635706,6.111534583359518,1.0173615217208862,-2.685500685368673
1708442832.9398108,-2.1422181129455566,-1.3336420965245743,-2.526652161275045,6.111542331963339,1.0173524618148804,-2.68547231355776
1708442832.9418516,-2.1422181129455566,-1.333704338674881,-2.5266597906695765,6.111604678421774,1.0173990726470947,-2.685488526021139
1708442832.9438157,-2.142209053039551,-1.3336919111064454,-2.5266266504870813,6.111476170807638,1.017337679862976,-2.68549615541567
1708442832.9458797,-2.14219331741333,-1.3336593818715592,-2.5266431013690394,6.111494052201071,1.017337679862976,-2.6854997316943567
1708442832.9478726,-2.1421890258789062,-1.3336625409177323,-2.5266476313220423,6.111530053406515,1.0173540115356445,-2.6855412165271204
1708442832.949851,-2.1422181129455566,-1.3336060655168076,-2.5266476313220423,6.111538994103231,1.017337679862976,-2.685554806386129
1708442832.951846,-2.1421873569488525,-1.333658294086792,-2.5266597906695765,6.111531722336569,1.017337679862976,-2.6855412165271204
1708442832.9538243,-2.142204761505127,-1.333690957432129,-2.5266340414630335,6.1115527031715295,1.0172759294509888,-2.6855159441577356
1708442832.955827,-2.1421732902526855,-1.3337113720229645,-2.5266011396991175,6.1115243313606165,1.0173087120056152,-2.685535256062643
1708442832.957867,-2.1421687602996826,-1.3336711090854187,-2.526602808629171,6.111474740296163,1.0173133611679077,-2.6855159441577356
1708442832.959843,-2.14219331741333,-1.3336342138103028,-2.5266266504870813,6.111506330757894,1.0173341035842896,-2.68557316461672
1708442832.9618309,-2.142200231552124,-1.3336549562266846,-2.5266101996051233,6.111543524056234,1.017293930053711,-2.685507122670309
1708442832.963836,-2.1421844959259033,-1.3336918962052842,-2.5266431013690394,6.111491191178121,1.0172263383865356,-2.685511652623312
1708442832.965819,-2.142200231552124,-1.3336625707200547,-2.526628319417135,6.111471760063925,1.0173267126083374,-2.685585085545675
1708442832.9678168,-2.1421518325805664,-1.333638773565628,-2.5266266504870813,6.111483800202169,1.0173341035842896,-2.6855598131762903
1708442832.9698296,-2.142186164855957,-1.3336189550212403,-2.526619259511129,6.111465799599447,1.017293930053711,-2.685601298009054
1708442832.971824,-2.1421844959259033,-1.3336421710303803,-2.5266147295581263,6.111504542618551,1.0173430442810059,-2.6855760256396692
1708442832.973833,-2.1422133445739746,-1.3336634796908875,-2.526623789464132,6.111443507462301,1.0173029899597168,-2.685580555592672
1708442832.9758596,-2.1421687602996826,-1.333638773565628,-2.526619259511129,6.111485349922933,1.0172984600067139,-2.685580555592672
1708442832.9778416,-2.1422133445739746,-1.3336583089879532,-2.526635710393087,6.111480700760641,1.0172654390335083,-2.6856377760516565
1708442832.9798086,-2.1422133445739746,-1.3336463582566758,-2.526586357747213,6.111459481507101,1.0172607898712158,-2.6855953375445765
1708442832.9818234,-2.142258405685425,-1.3336506646922608,-2.526562039052145,6.111431586533346,1.0172849893569946,-2.6856494585620325
1708442832.983807,-2.142197608947754,-1.3336961281350632,-2.526644770299093,6.111386525421896,1.0172849893569946,-2.6856213251696985
1708442832.985827,-2.1421265602111816,-1.3336876344731827,-2.526586357747213,6.111401784210958,1.0173267126083374,-2.6856494585620325
1708442832.987837,-2.1421844959259033,-1.33360609531913,-2.5265818277942103,6.111361133843221,1.017293930053711,-2.6856423060046595
1708442832.9898121,-2.1422269344329834,-1.3336516332677384,-2.526574198399679,6.111353742867269,1.0172817707061768,-2.6856406370746058
1708442832.9918163,-2.142181873321533,-1.3336345267346879,-2.526604477559225,6.111332523613729,1.0172834396362305,-2.685657564793722
1708442832.9938295,-2.1421566009521484,-1.3336669516614457,-2.5265818277942103,6.111381995468893,1.0172683000564575,-2.685669485722677
1708442832.995833,-2.1422019004821777,-1.3336103570512314,-2.526637379323141,6.111399996071615,1.0172654390335083,-2.685678545628683
1708442832.9978333,-2.1422107219696045,-1.333638773565628,-2.5265710989581507,6.111370193749227,1.0172621011734009,-2.685648743306295
1708442832.9998333,-2.1422133445739746,-1.3336507093957444,-2.526607338582174,6.111395585327902,1.0172743797302246,-2.68567401567568
1708442833.0018442,-2.1421890258789062,-1.3336301755956192,-2.52661639848818,6.111379134445944,1.0172667503356934,-2.685709540043966
1708442833.0038197,-2.142197608947754,-1.333622620706894,-2.526620928441183,6.111322271614828,1.0172322988510132,-2.6856561342822474
1708442833.0058365,-2.1421737670898438,-1.3336430352977295,-2.526623789464132,6.111379134445944,1.0172743797302246,-2.685676876698629
1708442833.007822,-2.142197608947754,-1.3336430203965683,-2.526628319417135,6.111379134445944,1.0172951221466064,-2.6856723467456263
1708442833.0098097,-2.142152786254883,-1.3335773956826706,-2.526611868535177,6.111386525421896,1.0172290802001953,-2.685702149068014
1708442833.0118313,-2.1421823501586914,-1.3336549413255234,-2.52661639848818,6.1113672135169885,1.017241358757019,-2.6857007185565394
1708442833.0138118,-2.1422178745269775,-1.3336354208043595,-2.526623789464132,6.111376273422994,1.0172336101531982,-2.6856723467456263
1708442833.01586,-2.142144203186035,-1.333618403678276,-2.526586357747213,6.111359464913168,1.0172126293182373,-2.685669247304098
1708442833.0178442,-2.1421775817871094,-1.3336756837419053,-2.526574198399679,6.111350524216451,1.0172172784805298,-2.6856635252581995
1708442833.0198224,-2.142148494720459,-1.3336061400226136,-2.526623789464132,6.111326682358541,1.017224669456482,-2.6856516043292444
1708442833.0218515,-2.142132520675659,-1.3336183440736313,-2.526611868535177,6.111355054169454,1.0172216892242432,-2.6857171694384974
1708442833.0238535,-2.142141342163086,-1.333659217958786,-2.526578728352682,6.111322271614828,1.0172216892242432,-2.6857081095324915
1708442833.0258353,-2.1421239376068115,-1.3336430501988907,-2.526583258305685,6.111331212311544,1.0172336101531982,-2.6857081095324915
1708442833.027815,-2.142190456390381,-1.3336515885642548,-2.526595417653219,6.111307370453634,1.0172053575515747,-2.6857295672046106
1708442833.0298526,-2.1421167850494385,-1.3336677563241501,-2.526590887700216,6.111326682358541,1.0172502994537354,-2.685720507298605
1708442833.031857,-2.1421124935150146,-1.3336267334273835,-2.5265710989581507,6.111298429756918,1.0172053575515747,-2.6857295672046106
1708442833.0338485,-2.142137050628662,-1.3336189699224015,-2.5265818277942103,6.111335742264547,1.017197608947754,-2.685762945805685
1708442833.035833,-2.1421282291412354,-1.3336311143687745,-2.5265665690051478,6.111319291382589,1.0172637701034546,-2.6857126394854944
1708442833.0378602,-2.1421608924865723,-1.3336880964091797,-2.526609007512228,6.111335742264547,1.017218828201294,-2.685707155858175
1708442833.0398204,-2.1421167850494385,-1.3336592030576249,-2.526599947606222,6.111323821335592,1.0172425508499146,-2.685765806828634
1708442833.041823,-2.1421210765838623,-1.3336354804090043,-2.5265546480761927,6.111328232079305,1.0172260999679565,-2.68573242822756
1708442833.0438824,-2.1421823501586914,-1.333651916389801,-2.5265710989581507,6.111332762032308,1.0172260999679565,-2.6857503096209925
1708442833.0458446,-2.142152786254883,-1.333634154205658,-2.526609007512228,6.111278998642721,1.017209768295288,-2.6857126394854944
1708442833.0478797,-2.1421327590942383,-1.3336918962052842,-2.526587788258688,6.111353742867269,1.0172216892242432,-2.685720507298605
1708442833.0498264,-2.1421217918395996,-1.333618940120079,-2.526604477559225,6.111245858460226,1.0172306299209595,-2.685715977345602
1708442833.051838,-2.142141342163086,-1.3336388033679505,-2.5265665690051478,6.111299979477682,1.0172380208969116,-2.6856990496264856
1708442833.0538192,-2.142125368118286,-1.3336387884667893,-2.526599947606222,6.111284839897909,1.017193078994751,-2.685662094746725
1708442833.0558362,-2.1421430110931396,-1.3336519014886399,-2.5265665690051478,6.111217605858602,1.0172020196914673,-2.685762945805685
1708442833.0578399,-2.142132520675659,-1.3336225909045716,-2.526604477559225,6.111280309944906,1.0172021389007568,-2.685782019292013
1708442833.0598214,-2.1421542167663574,-1.333659977918007,-2.5265637079821985,6.111254918366232,1.0171767473220825,-2.685690228139059
1708442833.0618515,-2.14219069480896,-1.3336268675378342,-2.5266135374652308,6.111273038178243,1.017209768295288,-2.685749355946676
1708442833.0638413,-2.142169952392578,-1.3336311143687745,-2.5265217463122767,6.111233937531271,1.0172110795974731,-2.685761276875631
1708442833.0658529,-2.1421587467193604,-1.333590329890587,-2.526529137288229,6.111280309944906,1.017188549041748,-2.685786549245016
1708442833.0678346,-2.1421613693237305,-1.3335987341455002,-2.5265665690051478,6.1112310765083215,1.017218828201294,-2.685761276875631
1708442833.0698323,-2.142134189605713,-1.3336354208043595,-2.526583258305685,6.111202823906698,1.0171947479248047,-2.6857450644122522
1708442833.0718608,-2.142141342163086,-1.3336520057967682,-2.5265217463122767,6.1112520573432825,1.0172233581542969,-2.685749355946676
1708442833.0738304,-2.1421701908111572,-1.333618925218918,-2.5265756289111536,6.111240136414327,1.0172066688537598,-2.685715977345602
1708442833.0758684,-2.142134189605713,-1.3336395782283326,-2.5265665690051478,6.111218917160787,1.017218828201294,-2.685791079198019
1708442833.0778553,-2.142141342163086,-1.3336311143687745,-2.5265710989581507,6.111214387207784,1.017197608947754,-2.685765568410055
1708442833.0798123,-2.1422080993652344,-1.333618925218918,-2.526583258305685,6.111244547158041,1.0171902179718018,-2.685720745717184
1708442833.0818453,-2.1421542167663574,-1.3336231124452134,-2.526587788258688,6.111153232842245,1.017193078994751,-2.685749355946676
1708442833.0838313,-2.1421701908111572,-1.3336072576097031,-2.5265472571002405,6.111277329712667,1.0171689987182617,-2.685707155858175
1708442833.0858364,-2.1421263217926025,-1.33360310018573,-2.5265846888171595,6.111178982048788,1.0171436071395874,-2.685749355946676
1708442833.087814,-2.1421384811401367,-1.3336029660752793,-2.5266013781176966,6.111150252610006,1.0172110795974731,-2.685774628316061
1708442833.0898364,-2.1420962810516357,-1.333614633684494,-2.5265546480761927,6.111166703491964,1.0171599388122559,-2.685782019292013
1708442833.0918672,-2.1421544551849365,-1.3336103868535538,-2.5265591780291956,6.1111745713050745,1.0171902179718018,-2.6857405344592493
1708442833.0938215,-2.1421217918395996,-1.33360310018573,-2.5265217463122767,6.111213433533468,1.0171902179718018,-2.6857569853412073
1708442833.0958502,-2.142108678817749,-1.3335945469192048,-2.5265546480761927,6.111220705300131,1.0171526670455933,-2.685782019292013
1708442833.097853,-2.1421217918395996,-1.3335987788489838,-2.5265381971942347,6.111184704094686,1.0171661376953125,-2.6858118216144007
1708442833.0998194,-2.142108678817749,-1.3336480867913743,-2.5265637079821985,6.111147391587057,1.0171195268630981,-2.6857731978045862
1708442833.101844,-2.1421499252319336,-1.3336189550212403,-2.526620928441183,6.111271607666769,1.0171735286712646,-2.685727898274557
1708442833.1038287,-2.142129898071289,-1.33360310018573,-2.5265336672412317,6.111192452698507,1.0171571969985962,-2.685753885899679
1708442833.1058424,-2.1421384811401367,-1.3336030703834076,-2.5265682379352015,6.111198293953695,1.0171571969985962,-2.68577748933901
1708442833.107847,-2.1421005725860596,-1.3336072725108643,-2.5265381971942347,6.111144292145529,1.0171825885772705,-2.685727898274557
1708442833.10982,-2.1420724391937256,-1.3335945469192048,-2.5265801588641565,6.111180293350973,1.0171689987182617,-2.68573242822756
1708442833.1118472,-2.1421217918395996,-1.3335834008506318,-2.5265546480761927,6.111163842469015,1.017140507698059,-2.6857731978045862
1708442833.1138222,-2.1421384811401367,-1.3336072725108643,-2.5265801588641565,6.111126172333517,1.0171661376953125,-2.685765568410055
1708442833.1159024,-2.14211368560791,-1.333614469771721,-2.5265217463122767,6.111169802933492,1.0171122550964355,-2.685727898274557
1708442833.1178167,-2.1421430110931396,-1.333651603465416,-2.5265710989581507,6.111105191498556,1.017133116722107,-2.6857360045062464
1708442833.119835,-2.1420602798461914,-1.3335746389678498,-2.5265381971942347,6.111095416336813,1.0170958042144775,-2.6857405344592493
1708442833.121826,-2.1420724391937256,-1.33357489228759,-2.5265846888171595,6.111123311310568,1.0171582698822021,-2.6857450644122522
1708442833.1238234,-2.1420724391937256,-1.3336651039174576,-2.5265756289111536,6.1111323712165735,1.0171419382095337,-2.685765806828634
1708442833.1258144,-2.1420979499816895,-1.3336116832545777,-2.5265608469592493,6.111113297730245,1.0171538591384888,-2.685715977345602
1708442833.1278167,-2.142063856124878,-1.3336354357055207,-2.5265710989581507,6.111127841263571,1.017133116722107,-2.685723606740133
1708442833.129846,-2.1421217918395996,-1.333626927142479,-2.5265591780291956,6.111096608429708,1.0171375274658203,-2.6857569853412073
1708442833.131817,-2.1420681476593018,-1.333586649303772,-2.5265937487231653,6.111133801728048,1.0171211957931519,-2.685793940220968
1708442833.133811,-2.1420724391937256,-1.3336231124452134,-2.5265637079821985,6.111120331078329,1.0171583890914917,-2.685736958180563
1708442833.13587,-2.1421217918395996,-1.3335866195014496,-2.5265396277057093,6.1111042378242395,1.0171375274658203,-2.685793940220968
1708442833.1378171,-2.1420979499816895,-1.3335702878287812,-2.5265637079821985,6.111071097641744,1.0171256065368652,-2.685736958180563
1708442833.1398094,-2.1420645713806152,-1.3336311143687745,-2.5265021959887903,6.111101019173422,1.0171420574188232,-2.685727898274557
1708442833.1418154,-2.1420645713806152,-1.33357027292762,-2.526511255894796,6.111075627594747,1.017134666442871,-2.685727898274557
1708442833.1438084,-2.1420774459838867,-1.333586947326996,-2.5265725294696253,6.111018645554342,1.0170639753341675,-2.68573242822756
1708442833.1458387,-2.1420812606811523,-1.3335542243770142,-2.5265188852893274,6.111030566483297,1.0171300172805786,-2.685753885899679
1708442833.1478977,-2.1420769691467285,-1.333579034810402,-2.5265353361712855,6.111065375595846,1.0171362161636353,-2.685782019292013
1708442833.1498444,-2.1420445442199707,-1.333562360411026,-2.5265279451953333,6.111018645554342,1.01706862449646,-2.685694758092062
1708442833.1518314,-2.142061710357666,-1.3335219633630295,-2.5265563170062464,6.111084687500753,1.0170774459838867,-2.685736958180563
1708442833.1538212,-2.142068862915039,-1.3336276572993775,-2.5265517870532435,6.111008393555441,1.0170937776565552,-2.68573242822756
1708442833.155865,-2.1421022415161133,-1.3336201024106522,-2.5265021959887903,6.111003863602438,1.0170611143112183,-2.68573242822756
1708442833.1578155,-2.1420812606811523,-1.3336354357055207,-2.526511255894796,6.111024844437399,1.017037034034729,-2.6857081095324915
1708442833.1598296,-2.142106533050537,-1.3336189699224015,-2.5265021959887903,6.111030924111166,1.0170336961746216,-2.6857169310199183
1708442833.161838,-2.1420862674713135,-1.3335879010013123,-2.5264914671527308,6.111005055695333,1.0170488357543945,-2.685758415852682
1708442833.1638381,-2.142073154449463,-1.3335834306529541,-2.526508394871847,6.111005055695333,1.0170533657073975,-2.685774628316061
1708442833.165839,-2.1420037746429443,-1.33360310018573,-2.526473585759298,6.110986220627584,1.0170505046844482,-2.6857250372516077
1708442833.1678271,-2.1421022415161133,-1.3336072576097031,-2.5264902750598353,6.110924708634176,1.0170835256576538,-2.6856916586505335
1708442833.1698213,-2.1420249938964844,-1.333616093998291,-2.526499334965841,6.110920178681173,1.0170084238052368,-2.6857126394854944
1708442833.1718233,-2.1421022415161133,-1.3335953515819092,-2.526503864918844,6.11096070983962,1.0170129537582397,-2.6856961886035364
1708442833.1738396,-2.142012357711792,-1.333549128179886,-2.526454273854391,6.110938298493185,1.0170129537582397,-2.6857126394854944
1708442833.1758122,-2.142085552215576,-1.3335953515819092,-2.526461664830343,6.110875117569723,1.0170037746429443,-2.6856845060931605
1708442833.177843,-2.1420774459838867,-1.333557979469635,-2.526458803807394,6.1109094498451135,1.017005205154419,-2.685664955769674
1708442833.1798093,-2.14206600189209,-1.3335826259902497,-2.5264604727374476,6.110888707428732,1.0169646739959717,-2.685705010090963
1708442833.1818144,-2.142016649246216,-1.3335593801787873,-2.5264514128314417,6.11082016208724,1.0169602632522583,-2.6857169310199183
1708442833.1838033,-2.1420037746429443,-1.3336039197495957,-2.5264256636248987,6.110927569657125,1.0169557332992554,-2.6856887976275843
1708442833.1858325,-2.142054557800293,-1.3335504245809098,-2.5264468828784388,6.1108648655708215,1.0169858932495117,-2.685681406651632
1708442833.1878097,-2.1420459747314453,-1.3335923713496705,-2.5264273325549524,6.110829102783956,1.0169737339019775,-2.6856315771686
1708442833.1898053,-2.142000913619995,-1.3335756820491333,-2.5264468828784388,6.110824572830953,1.0169315338134766,-2.685669485722677
1708442833.191835,-2.1420459747314453,-1.3335460287383576,-2.5264061133014124,6.1108364937599084,1.016978144645691,-2.685636107121603
1708442833.1937983,-2.1420297622680664,-1.3335144531777878,-2.5264814535724085,6.11085461357192,1.016928791999817,-2.685648504887716
1708442833.195823,-2.1420209407806396,-1.3335056465915223,-2.5264273325549524,6.110764729767599,1.016936182975769,-2.685653034840719
1708442833.197807,-2.1420209407806396,-1.3334892702153702,-2.5263987223254603,6.110793101578512,1.0169332027435303,-2.6856873671161097
1708442833.1998034,-2.1420702934265137,-1.3335233491710206,-2.5264182726489466,6.110806572228231,1.016909122467041,-2.685581986104147
1708442833.2018242,-2.1420183181762695,-1.3335277748158951,-2.526386801396505,6.110740887909689,1.0168973207473755,-2.6856043974505823
1708442833.203818,-2.1420254707336426,-1.3334504973939438,-2.5263987223254603,6.1106958267982385,1.0168805122375488,-2.6856043974505823
1708442833.2058504,-2.1419973373413086,-1.3334552508643647,-2.526353899632589,6.110676276474752,1.016909122467041,-2.685568634663717
1708442833.2078295,-2.1419973373413086,-1.3334712398103257,-2.526400391255514,6.110685336380758,1.0169180631637573,-2.685564104710714
1708442833.209809,-2.141988515853882,-1.3334756654552002,-2.52637488046755,6.110702025681295,1.0168401002883911,-2.68557316461672
1708442833.211806,-2.14203143119812,-1.333450899725296,-2.526388470326559,6.110615122109213,1.0168895721435547,-2.685551706944601
1708442833.2138326,-2.1420016288757324,-1.3334475767663498,-2.526370350514547,6.110642182617941,1.0168863534927368,-2.685502592717306
1708442833.2158475,-2.1419930458068848,-1.3334509593299408,-2.526386801396505,6.110658871918478,1.0168609619140625,-2.685530964528219
1708442833.217845,-2.141953229904175,-1.3334268492511292,-2.526370350514547,6.110672461777487,1.0168159008026123,-2.6855295340167444
1708442833.2198164,-2.1419734954833984,-1.3334593337825318,-2.526350800191061,6.1105761406715295,1.0167964696884155,-2.6855369249926966
1708442833.2218316,-2.141958236694336,-1.3333914887956162,-2.526379410420553,6.1105761406715295,1.0167919397354126,-2.6854751745807093
1708442833.2238283,-2.141970634460449,-1.333459348683693,-2.526391331349508,6.110528576164999,1.016800880432129,-2.6855247656451624
1708442833.2258182,-2.141970634460449,-1.3334651452353974,-2.5263221899615687,6.110544669419088,1.0168429613113403,-2.685535494481222
1708442833.2278042,-2.1419663429260254,-1.333448128109314,-2.5263553301440638,6.11052571514205,1.0167887210845947,-2.685422722493307
1708442833.2298164,-2.1419663429260254,-1.3334523153356095,-2.5263598600970667,6.110562550812521,1.0167315006256104,-2.685443703328268
1708442833.2318335,-2.141953945159912,-1.3334607046893616,-2.5263553301440638,6.11048053482131,1.0167440176010132,-2.685394589100973
1708442833.2338357,-2.141941547393799,-1.3334158223918458,-2.5263856093036097,6.1104702828224084,1.016769289970398,-2.6854077021228235
1708442833.2358406,-2.141925573348999,-1.3334234964898606,-2.5263312498675745,6.110453593521871,1.0167529582977295,-2.6853883902179163
1708442833.2378268,-2.141880750656128,-1.3334527772716065,-2.5263598600970667,6.110421049385824,1.0167540311813354,-2.6854375044452112
1708442833.2398198,-2.1419010162353516,-1.333440975551941,-2.5262983481036585,6.110392558365621,1.0166867971420288,-2.6854096094714563
1708442833.241845,-2.1418938636779785,-1.3334158223918458,-2.5263403097735804,6.110352146416464,1.016709327697754,-2.685370747243063
1708442833.2438593,-2.141913414001465,-1.3334527772716065,-2.5263028780566614,6.110379206925192,1.0166914463043213,-2.685410801564352
1708442833.2458217,-2.1418895721435547,-1.3334114265492936,-2.5262864271747034,6.110348927765646,1.0167003870010376,-2.6853397528277796
1708442833.2478528,-2.141909599304199,-1.3334440749934693,-2.5262909571277063,6.1103625176246545,1.0166716575622559,-2.6852920691119593
1708442833.2498474,-2.1418938636779785,-1.333432139163353,-2.5263238588916224,6.110371458321371,1.0166431665420532,-2.685341183339254
1708442833.2518532,-2.141902446746826,-1.333461658363678,-2.5263193289386194,6.110305893212118,1.0166970491409302,-2.685324732457296
1708442833.2538452,-2.1419270038604736,-1.333439679150917,-2.5262697378741663,6.110256302147665,1.0167016983032227,-2.685284201298849
1708442833.255827,-2.141878128051758,-1.3333910268596192,-2.526266876851217,6.110228049546041,1.016631007194519,-2.6852760950671595
1708442833.2578268,-2.141918182373047,-1.3333750081113358,-2.526292387639181,6.110250460892477,1.016694188117981,-2.6852596441852015
1708442833.2598403,-2.14186692237854,-1.3334528070739289,-2.5262864271747034,6.110229599266805,1.0166444778442383,-2.6852062384234827
1708442833.2618346,-2.14182448387146,-1.333418832426407,-2.526275936757223,6.110211717873373,1.0166566371917725,-2.6851914564715784
1708442833.2638178,-2.1418216228485107,-1.333418832426407,-2.526259247456686,6.110174166947164,1.0166281461715698,-2.6851545015918177
1708442833.2658567,-2.1418542861938477,-1.3333580058864136,-2.5262637774096888,6.11015938499526,1.0165830850601196,-2.68516713777651
1708442833.2678263,-2.1418542861938477,-1.3333864969066163,-2.526242796574728,6.110163914948263,1.0165876150131226,-2.6851633230792444
1708442833.2698429,-2.141846179962158,-1.3334130507758637,-2.526233975087301,6.110075461655416,1.0166295766830444,-2.685144011174337
1708442833.2718697,-2.1417970657348633,-1.3333954078010102,-2.52622634569277,6.1100995419319055,1.0165798664093018,-2.6851232687579554
1708442833.2738576,-2.1418347358703613,-1.3334115755609055,-2.5262144247638147,6.110118853836813,1.0165770053863525,-2.6850572268115442
1708442833.275853,-2.1418631076812744,-1.3333914887956162,-2.5262637774096888,6.110095011978903,1.0165603160858154,-2.685075108204977
1708442833.2778327,-2.141794204711914,-1.3334481877139588,-2.5261827150927942,6.110080230026998,1.0165557861328125,-2.68504244485964
1708442833.2798374,-2.141846179962158,-1.3334285479835053,-2.5261977354632776,6.1100425598915,1.0166022777557373,-2.68504244485964
1708442833.2818737,-2.1417739391326904,-1.3333756488612671,-2.5262399355517786,6.110072839051046,1.0165483951568604,-2.684993569050924
1708442833.283821,-2.141826629638672,-1.3333954376033326,-2.5262067953692835,6.110006916313925,1.0165692567825317,-2.68496543565859
1708442833.285837,-2.141791343688965,-1.3334114265492936,-2.5262113253222864,6.109991776734152,1.0165156126022339,-2.6849504152881067
1708442833.2878242,-2.1417784690856934,-1.3334041398814698,-2.5261946360217493,6.110020386963644,1.0165029764175415,-2.684934202824728
1708442833.289838,-2.1417746543884277,-1.3334041398814698,-2.5261991659747522,6.1099469540412805,1.016503095626831,-2.6849351564990442
1708442833.2918537,-2.141791343688965,-1.3334646385959168,-2.526203695927755,6.109954464226522,1.0165735483169556,-2.684890095387594
1708442833.2938213,-2.1417789459228516,-1.3333998185447236,-2.5261855761157435,6.109909760742941,1.016486644744873,-2.684854332600729
1708442833.295871,-2.141827344894409,-1.333338202243187,-2.5261736551867884,6.10992323139266,1.0165425539016724,-2.6848424116717737
1708442833.2978387,-2.141741991043091,-1.3334290248206635,-2.5262416044818323,6.109918701439657,1.0165046453475952,-2.6848304907428187
1708442833.2998233,-2.1418001651763916,-1.3334130507758637,-2.526196304951803,6.10995768287734,1.0164719820022583,-2.68480092683901
1708442833.3018618,-2.141753673553467,-1.3333998185447236,-2.526203695927755,6.109915482788839,1.0164883136749268,-2.684781853352682
1708442833.3038294,-2.1417667865753174,-1.3334334653666993,-2.5261917749988,6.109854447632589,1.0164763927459717,-2.6847623030291956
1708442833.3058424,-2.141775369644165,-1.3334041398814698,-2.5261917749988,6.109900700836935,1.0164597034454346,-2.6847415606128138
1708442833.307824,-2.1417622566223145,-1.33340077221904,-2.526187245045797,6.109893190651693,1.0164763927459717,-2.684688393269674
1708442833.3098218,-2.1417174339294434,-1.333363727932312,-2.526163403187887,6.109884249954977,1.0164763927459717,-2.684701744710104
1708442833.3118565,-2.1417508125305176,-1.3333919805339356,-2.526175324116842,6.109876858979025,1.0164433717727661,-2.684652868901388
1708442833.3138485,-2.1417059898376465,-1.333338202243187,-2.5261827150927942,6.109819876938619,1.0164432525634766,-2.684669081364767
1708442833.3158734,-2.141721725463867,-1.333384470348694,-2.5261455217944544,6.109857547074117,1.016431212425232,-2.6846044699298304
1708442833.3178256,-2.141771078109741,-1.333384470348694,-2.526224915181295,6.109857547074117,1.0164356231689453,-2.6845970789538782
1708442833.3198175,-2.141751289367676,-1.3334086400321503,-2.5261827150927942,6.109848487168112,1.0164704322814941,-2.6845935026751917
1708442833.3218377,-2.141763925552368,-1.3334334653666993,-2.526196304951803,6.109833347588339,1.0164401531219482,-2.6846023241626185
1708442833.323821,-2.1417102813720703,-1.3333844554475327,-2.526163403187887,6.109767424851217,1.0164192914962769,-2.6845784823047083
1708442833.3258195,-2.1417174339294434,-1.3334041398814698,-2.526217047368185,6.109776484757223,1.0164191722869873,-2.684545342122213
1708442833.3278043,-2.14168119430542,-1.3333681386760254,-2.526170794163839,6.109751331597128,1.016437292098999,-2.684505049382345
1708442833.3298411,-2.141751289367676,-1.333405302172043,-2.526196304951803,6.109807956009664,1.0164401531219482,-2.6844399611102503
1708442833.3318489,-2.1417274475097656,-1.3333548170379181,-2.526212517415182,6.109792935639181,1.0164523124694824,-2.6844282785998743
1708442833.3338275,-2.141746997833252,-1.33340077221904,-2.526179854069845,6.109764802246847,1.016416072845459,-2.684413258229391
1708442833.3358722,-2.141718864440918,-1.3334334653666993,-2.526151482258932,6.109715211182394,1.0164401531219482,-2.684413258229391
1708442833.3378272,-2.141707420349121,-1.3333756637624283,-2.526184384022848,6.109773862152853,1.0164204835891724,-2.6843860785113733
1708442833.33983,-2.14168643951416,-1.3333668273738404,-2.526175324116842,6.109773862152853,1.0163906812667847,-2.684345308934347
1708442833.3418486,-2.141690731048584,-1.3333593171885987,-2.526184384022848,6.109754192620077,1.0164026021957397,-2.6843093077289026
1708442833.3438458,-2.141723155975342,-1.3333800596049805,-2.526142422352926,6.109727251320638,1.016411542892456,-2.6842384974109095
1708442833.3458488,-2.14164137840271,-1.333396391277649,-2.526130501423971,6.10976921299056,1.0164282321929932,-2.6842075029956263
1708442833.3478515,-2.1417038440704346,-1.33340077221904,-2.526151482258932,6.109789836197653,1.0163997411727905,-2.6841710249530237
1708442833.349861,-2.1416988372802734,-1.3333919805339356,-2.5261171499835413,6.109724390297689,1.0164250135421753,-2.6841800848590296
1708442833.3518825,-2.14168643951416,-1.3333800596049805,-2.52616793314089,6.109721290856161,1.0164490938186646,-2.684108082448141
1708442833.3538337,-2.141711711883545,-1.3333756637624283,-2.526200834904806,6.109761941223898,1.016411542892456,-2.6840925852404993
1708442833.3558884,-2.1416711807250977,-1.3333756488612671,-2.526139561329977,6.1097168801124475,1.0164371728897095,-2.6840642134295862
1708442833.3578339,-2.14168643951416,-1.3333681386760254,-2.526208225880758,6.109773862152853,1.0164356231689453,-2.68396503130068
1708442833.3598464,-2.14164137840271,-1.3333470684340973,-2.526156012211935,6.109745132714071,1.0164401531219482,-2.683984104787008
1708442833.3618584,-2.1417038440704346,-1.333384470348694,-2.526146952305929,6.109707939415731,1.016414761543274,-2.6839352289782923
1708442833.3638275,-2.141666889190674,-1.3333514791778107,-2.526142422352926,6.109800803452291,1.0164580345153809,-2.683855120335714
1708442833.3658597,-2.141645669937134,-1.3333756488612671,-2.52616793314089,6.109766351967611,1.0164356231689453,-2.6837812105761927
1708442833.3678644,-2.1416501998901367,-1.3333668273738404,-2.5261181036578577,6.109728801041403,1.0164238214492798,-2.683795992528097
1708442833.3698528,-2.1416828632354736,-1.3333963763764878,-2.526137892399923,6.109745132714071,1.0163861513137817,-2.6837108770953577
1708442833.3718553,-2.1416587829589844,-1.333342657690384,-2.526175324116842,6.109679329186239,1.0164371728897095,-2.683633629475729
1708442833.3738463,-2.141658067703247,-1.333396391277649,-2.526163403187887,6.109778272896566,1.0164445638656616,-2.6835604349719446
1708442833.3758857,-2.14164137840271,-1.333363727932312,-2.5261662642108362,6.1097943661506555,1.0164238214492798,-2.683472220097677
1708442833.3778393,-2.141690731048584,-1.3333889704993744,-2.526170794163839,6.109773862152853,1.0164822340011597,-2.683427635823385
1708442833.379824,-2.141666889190674,-1.3333889704993744,-2.526175324116842,6.109757411270895,1.0164401531219482,-2.6833773295031946
1708442833.3818347,-2.141658067703247,-1.3333381575397034,-2.526187245045797,6.109679329186239,1.0164401531219482,-2.683303181325094
1708442833.383816,-2.1417319774627686,-1.3333756488612671,-2.5261781851397913,6.109773862152853,1.0164238214492798,-2.68325645128359
1708442833.3858192,-2.1416501998901367,-1.3333756488612671,-2.5262203852282923,6.109736192017355,1.016411542892456,-2.683176342641012
1708442833.3878171,-2.141658067703247,-1.3333756488612671,-2.526175324116842,6.109745132714071,1.0163952112197876,-2.6830549875842493
1708442833.3898277,-2.141662359237671,-1.3333681386760254,-2.526224915181295,6.109745132714071,1.0164686441421509,-2.6829822699176233
1708442833.3918223,-2.1417038440704346,-1.3333800596049805,-2.526175324116842,6.109745132714071,1.0163980722427368,-2.682894770299093
1708442833.3938103,-2.14164137840271,-1.3333431643298645,-2.5261617342578333,6.109757411270895,1.0164612531661987,-2.682843033467428
1708442833.3958073,-2.14164137840271,-1.3333724600127717,-2.5261917749988,6.109757411270895,1.0164597034454346,-2.6827171484576624
1708442833.39783,-2.141624689102173,-1.3333843064359208,-2.526208225880758,6.109744059830465,1.0164238214492798,-2.68266207376589
1708442833.3998735,-2.141645669937134,-1.3333963763764878,-2.526175324116842,6.109724390297689,1.0164523124694824,-2.6825414339648646
1708442833.401831,-2.141662359237671,-1.3333756488612671,-2.526203695927755,6.109752881317892,1.016501784324646,-2.682431999837057
1708442833.4038403,-2.1416289806365967,-1.3334086400321503,-2.526203695927755,6.109707939415731,1.0164973735809326,-2.682336155568258
1708442833.405847,-2.141711711883545,-1.3334169548800965,-2.5262203852282923,6.1097333309944055,1.0164793729782104,-2.682293955479757
1708442833.4078288,-2.141695022583008,-1.3333630871823807,-2.5261781851397913,6.109740721970358,1.0165300369262695,-2.682164017354147
1708442833.4098113,-2.1416289806365967,-1.333342657690384,-2.5262370745288294,6.109776484757223,1.0165210962295532,-2.6820440928088587
1708442833.411834,-2.141666889190674,-1.33340077221904,-2.5261529127704065,6.109736192017355,1.016503095626831,-2.6819520632373255
1708442833.4138334,-2.141674041748047,-1.3334169548800965,-2.5262325445758265,6.109736192017355,1.0165364742279053,-2.6817899386035364
1708442833.415854,-2.1417081356048584,-1.3334243160537262,-2.526187245045797,6.10976933219985,1.016543984413147,-2.681723419819967
1708442833.4178302,-2.141645669937134,-1.333372638826706,-2.5262067953692835,6.109739529877462,1.016597867012024,-2.6815958658801478
1708442833.4198146,-2.141666889190674,-1.333363727932312,-2.5261946360217493,6.109792935639181,1.0166386365890503,-2.681397263203756
1708442833.4218414,-2.141674041748047,-1.3334041398814698,-2.5262773672686976,6.109762894898214,1.0166161060333252,-2.6812859217273157
1708442833.4238255,-2.1417038440704346,-1.333420143728592,-2.5262234846698206,6.109809624939718,1.0166325569152832,-2.681190315877096
1708442833.4258919,-2.141695022583008,-1.3334086400321503,-2.5262444655047815,6.109828936844625,1.0166444778442383,-2.680976454411642
1708442833.42783,-2.1416995525360107,-1.3333831590465088,-2.5262189547168177,6.109850156098165,1.0166281461715698,-2.6808152834521692
1708442833.4298391,-2.1416828632354736,-1.3334453862956543,-2.526209894810812,6.109887468605795,1.0166566371917725,-2.6807456652270716
1708442833.4318504,-2.1416819095611572,-1.333362416630127,-2.5262563864337366,6.1098365662391565,1.016706109046936,-2.6805220285998743
1708442833.4338229,-2.1416494846343994,-1.3333668273738404,-2.5262473265277308,6.109835016518392,1.016704797744751,-2.680345598851339
1708442833.4359295,-2.141718864440918,-1.3334008020213624,-2.5262683073626917,6.109890329628744,1.0167301893234253,-2.680201832448141
1708442833.4378252,-2.1417031288146973,-1.3333668273738404,-2.526254717503683,6.109920012741842,1.0166914463043213,-2.6800344626056116
1708442833.4398499,-2.141711711883545,-1.3334334653666993,-2.526262346898214,6.109915482788839,1.016725778579712,-2.6797876993762415
1708442833.4418516,-2.1416501998901367,-1.333362416630127,-2.526301447545187,6.109910952835836,1.0167754888534546,-2.6796281973468226
1708442833.4438417,-2.141637086868286,-1.3333668273738404,-2.526262346898214,6.109993684082784,1.016785740852356,-2.679422203694479
1708442833.4458165,-2.141662359237671,-1.3334321540645142,-2.5262697378741663,6.109927642136373,1.0167604684829712,-2.6792548338519495
1708442833.4478893,-2.141669750213623,-1.3334158223918458,-2.5262909571277063,6.109897362976827,1.0167677402496338,-2.6790297667132776
1708442833.4498775,-2.1416800022125244,-1.3333998185447236,-2.5263193289386194,6.109984624176779,1.0167887210845947,-2.6788418928729456
1708442833.4518304,-2.141707420349121,-1.333384470348694,-2.5263312498675745,6.110033857613363,1.0168218612670898,-2.67863375345339
1708442833.4538515,-2.14164137840271,-1.3333711487105866,-2.5262983481036585,6.110039698868551,1.016791820526123,-2.6783633867846888
1708442833.4558413,-2.141695022583008,-1.3333711487105866,-2.5263403097735804,6.110035168915548,1.0168461799621582,-2.678171221409933
1708442833.4578314,-2.1417031288146973,-1.3334130507758637,-2.5263598600970667,6.110068309098043,1.0168461799621582,-2.677934710179464
1708442833.4598396,-2.1416501998901367,-1.333387480383255,-2.5263341108905237,6.1100995419319055,1.0168462991714478,-2.6777058283435267
1708442833.461863,-2.1417319774627686,-1.3333831590465088,-2.526358429585592,6.110111462860861,1.0168237686157227,-2.6774752775775355
1708442833.4638507,-2.141716241836548,-1.3334041398814698,-2.526372019444601,6.110095011978903,1.0168609619140625,-2.67717153230776
1708442833.465873,-2.1416537761688232,-1.333350495701172,-2.5263643900500696,6.110163914948263,1.0168895721435547,-2.6768973509417933
1708442833.4678588,-2.141674041748047,-1.3334528070739289,-2.526400391255514,6.110121714859762,1.0169165134429932,-2.676673475896017
1708442833.469839,-2.141690731048584,-1.3334246438792725,-2.526370350514547,6.110229956894674,1.0168882608413696,-2.676364246998922
1708442833.4718401,-2.141716241836548,-1.333417461519577,-2.5263822714435022,6.11018322685317,1.0169826745986938,-2.6760717074023646
1708442833.4738286,-2.1416783332824707,-1.3333954078010102,-2.52647835413088,6.1102521298225305,1.0169904232025146,-2.67579156557192
1708442833.4758704,-2.1416449546813965,-1.3334573072246094,-2.5264151732074183,6.110218989640035,1.017011284828186,-2.6754329840289515
1708442833.4778435,-2.1417031288146973,-1.3333919805339356,-2.526428763066427,6.110293853073873,1.0170096158981323,-2.6751115957843226
1708442833.4798195,-2.141711711883545,-1.3333954078010102,-2.5264363924609583,6.110259520798483,1.0170096158981323,-2.674835507069723
1708442833.4818454,-2.14168643951416,-1.333420143728592,-2.5264318625079554,6.11030005195693,1.0170292854309082,-2.674560610448019
1708442833.4838324,-2.1416537761688232,-1.3334246438792725,-2.5264318625079554,6.110290992050924,1.0170550346374512,-2.674189869557516
1708442833.485877,-2.141714572906494,-1.3334440749934693,-2.5264015833484095,6.110265242844381,1.0170129537582397,-2.6738558451281946
1708442833.4878414,-2.141714572906494,-1.333387480383255,-2.5264106432544153,6.110277640610494,1.0170459747314453,-2.6734991709338587
1708442833.4898427,-2.1416449546813965,-1.333407000904419,-2.5264843145953577,6.110368478089132,1.0170700550079346,-2.6731413046466272
1708442833.491877,-2.1416821479797363,-1.3333787483027955,-2.5264468828784388,6.110355126648702,1.0170774459838867,-2.6727803389178675
1708442833.4938564,-2.141723155975342,-1.3333910417607804,-2.526463333760397,6.110312926560201,1.0171464681625366,-2.6724734942065638
1708442833.4958375,-2.141658067703247,-1.3334158223918458,-2.52649170557131,6.110353457718649,1.017134666442871,-2.6721084753619593
1708442833.4978359,-2.141665458679199,-1.333407000904419,-2.52649170557131,6.11039565780715,1.017092227935791,-2.6716750303851526
1708442833.499843,-2.1416988372802734,-1.3334528070739289,-2.526466194783346,6.110370147019186,1.0171674489974976,-2.67133599916567
1708442833.5018492,-2.141695022583008,-1.333439664249756,-2.526499334965841,6.110382067948141,1.0171616077423096,-2.6709349791156214
1708442833.5038252,-2.1416945457458496,-1.3334651452353974,-2.5265279451953333,6.110344517021932,1.0171403884887695,-2.670516554509298
1708442833.505846,-2.141695022583008,-1.333460734491684,-2.5265443960772913,6.110414969712057,1.0171689987182617,-2.670123879109518
1708442833.50785,-2.141723155975342,-1.3334563237479706,-2.526537005101339,6.110439049988546,1.0172277688980103,-2.669654909764425
1708442833.5098166,-2.1417031288146973,-1.3334233325770875,-2.5265472571002405,6.110405909806051,1.017209768295288,-2.6692381540881556
1708442833.511842,-2.1417205333709717,-1.3334144216826935,-2.5265427271472376,6.1104092476661584,1.017209768295288,-2.668837849293844
1708442833.5138113,-2.141723155975342,-1.3334351640990754,-2.5265653769122522,6.110389458924093,1.0172336101531982,-2.668396774922506
1708442833.5158541,-2.1416783332824707,-1.333439664249756,-2.5265398661242884,6.110413777619161,1.0171962976455688,-2.6679351965533655
1708442833.5178266,-2.141707420349121,-1.3334144216826935,-2.5265217463122767,6.110462534218588,1.0172667503356934,-2.667441431676046
1708442833.5198188,-2.1416501998901367,-1.3334307235530396,-2.5265892187701624,6.110446202545919,1.0172277688980103,-2.6669707934008997
1708442833.521841,-2.141662359237671,-1.3334563088468094,-2.526587788258688,6.110446202545919,1.0172621011734009,-2.666457478200094
1708442833.5238438,-2.141714572906494,-1.3334681552699585,-2.5265968481646937,6.110483634262838,1.0173028707504272,-2.6659799257861536
1708442833.5258625,-2.141669750213623,-1.333460734491684,-2.5265381971942347,6.110443579941549,1.0172592401504517,-2.6654658953296106
1708442833.5278924,-2.1416828632354736,-1.333418832426407,-2.526609007512228,6.11043010929183,1.017317771911621,-2.6649723688708704
1708442833.529837,-2.141711711883545,-1.333439664249756,-2.526578728352682,6.110439049988546,1.0173646211624146,-2.6644819418536585
1708442833.5318525,-2.14168643951416,-1.333472655420639,-2.526620928441183,6.110466944962301,1.0173511505126953,-2.6639817396747034
1708442833.5338352,-2.1417205333709717,-1.3334429872087021,-2.526590887700216,6.110455024033346,1.017374873161316,-2.663387123738424
1708442833.5358574,-2.1416821479797363,-1.333484486942627,-2.5266311804400843,6.110450613289633,1.017337679862976,-2.662832800542013
1708442833.5378392,-2.1416783332824707,-1.3335086864284058,-2.5266476313220423,6.110483753472128,1.0173450708389282,-2.6622632185565394
1708442833.5398252,-2.1417038440704346,-1.3334174317172547,-2.5266762415515345,6.110450613289633,1.017382264137268,-2.6616974512683313
1708442833.5418394,-2.141695022583008,-1.33350424588237,-2.5266929308520716,6.1104092476661584,1.017364263534546,-2.6611364523517054
1708442833.543823,-2.1416711807250977,-1.3335440915874024,-2.5266340414630335,6.110352265625753,1.017418622970581,-2.660468880330221
1708442833.5458238,-2.1416263580322266,-1.333559350376465,-2.5266507307635706,6.110418069153585,1.017427682876587,-2.6599090735064905
1708442833.547886,-2.1416544914245605,-1.3335814338973542,-2.526691261922018,6.110418069153585,1.0174307823181152,-2.6593361536609095
1708442833.5499234,-2.1416378021240234,-1.333526374106743,-2.526686731969015,6.110431659012594,1.0174709558486938,-2.658672873173849
1708442833.5518653,-2.1416306495666504,-1.3335460883430024,-2.5267377535449427,6.110344517021932,1.017429232597351,-2.6581605116473597
1708442833.5538578,-2.141615390777588,-1.3335821640542527,-2.526686731969015,6.110374676972189,1.0174262523651123,-2.657506291066305
1708442833.5558484,-2.141590118408203,-1.3335373115590592,-2.526682202016012,6.1103505966956995,1.0174425840377808,-2.656884733830587
1708442833.557842,-2.1415538787841797,-1.333653212790825,-2.52669865289797,6.110343205719747,1.0174366235733032,-2.6562286059008997
1708442833.5598269,-2.1415581703186035,-1.3336144548705597,-2.526710573826925,6.110343205719747,1.017466425895691,-2.6555100123034876
1708442833.5618498,-2.1415185928344727,-1.3336056482842942,-2.5267015139209192,6.110246050148763,1.0175162553787231,-2.6548779646502894
1708442833.5638237,-2.141519069671631,-1.3336189550212403,-2.5267227331744593,6.110191929131307,1.0174847841262817,-2.6542790571795862
1708442833.565844,-2.1414225101470947,-1.3336637777141114,-2.526731793080465,6.1102309105689905,1.017513394355774,-2.6536391417132776
1708442833.567845,-2.141427516937256,-1.333614469771721,-2.5267677942859095,6.110160696297445,1.0175628662109375,-2.6529722849475306
1708442833.5698159,-2.1414151191711426,-1.333663747911789,-2.5267587343799036,6.110190856247701,1.0175824165344238,-2.652334276829855
1708442833.5718606,-2.141317367553711,-1.333638609652855,-2.5267587343799036,6.11015938499526,1.0176032781600952,-2.651630942021505
1708442833.5738528,-2.1413066387176514,-1.3336549562266846,-2.526820484791891,6.110081660538473,1.017585277557373,-2.6509137789355677
1708442833.575835,-2.1412501335144043,-1.3337029081634064,-2.5268035570727747,6.110045897751608,1.0176396369934082,-2.6502299944507044
1708442833.5778272,-2.141263484954834,-1.3336535555175324,-2.526820484791891,6.109999167710104,1.0176424980163574,-2.649557654057638
1708442833.579838,-2.1411707401275635,-1.333666906957962,-2.5268636385547083,6.109971272736349,1.0176351070404053,-2.6488211790667933
1708442833.581835,-2.141188144683838,-1.3337042790702363,-2.5268381277667444,6.109894501953878,1.0176637172698975,-2.6481154600726526
1708442833.583849,-2.1411492824554443,-1.3337161552957078,-2.5268591086017054,6.109863388329305,1.0176379680633545,-2.6474149862872522
1708442833.5858397,-2.1410434246063232,-1.3337249767831345,-2.5268951098071497,6.109786975174703,1.0176502466201782,-2.6467180887805384
1708442833.587871,-2.141024589538574,-1.3336941462806244,-2.526944700871603,6.10973488071517,1.0177253484725952,-2.645989958439962
1708442833.5898392,-2.1409568786621094,-1.3337028932622452,-2.526926581059591,6.109634506493368,1.0176784992218018,-2.6452859083758753
1708442833.591879,-2.140859842300415,-1.33372055113826,-2.5269928614245813,6.10959147193984,1.017681360244751,-2.644475523625509
1708442833.593852,-2.140803098678589,-1.333670274620392,-2.5269747416125696,6.1095197079475305,1.017632246017456,-2.643714729939596
1708442833.5958931,-2.140714645385742,-1.33374439299617,-2.5269911924945276,6.109423625260153,1.0177057981491089,-2.642967764531271
1708442833.5978286,-2.1406233310699463,-1.333707259302475,-2.5270631949054163,6.109320390015402,1.0177717208862305,-2.6421573797809046
1708442833.599838,-2.1405930519104004,-1.3337116700461884,-2.5270467440234583,6.109162080078878,1.0177057981491089,-2.641438070927755
1708442833.6018379,-2.140496015548706,-1.3337135028890152,-2.527105156575338,6.109108316689291,1.0177838802337646,-2.640710179005758
1708442833.603848,-2.1403839588165283,-1.3336940568736573,-2.5271454493152063,6.109033572464742,1.0177463293075562,-2.639935080205099
1708442833.605848,-2.1403651237487793,-1.3337716621211548,-2.527160708104269,6.108893024712362,1.0178242921829224,-2.639188591633932
1708442833.607825,-2.140233039855957,-1.3337267202189942,-2.5270898977862757,6.10874496677474,1.0177960395812988,-2.638451639805929
1708442833.6098206,-2.1401612758636475,-1.3337209087661286,-2.527184549962179,6.108629691391744,1.017798900604248,-2.6376283804522913
1708442833.6118681,-2.140045642852783,-1.3337746274522324,-2.52717096010317,6.1084821102912805,1.0178271532058716,-2.6368523279773157
1708442833.6138387,-2.139937162399292,-1.3337953996709366,-2.5272043387042444,6.1083295224006555,1.0178271532058716,-2.6360393206225794
1708442833.6158493,-2.1398463249206543,-1.3337732416442414,-2.527231041585104,6.108185994416036,1.0179084539413452,-2.6352174917804163
1708442833.617864,-2.1397953033447266,-1.3338314157775422,-2.527259413396017,6.108102309494772,1.0178905725479126,-2.634465758000509
1708442833.6198473,-2.1396420001983643,-1.3338682514480134,-2.52726394334902,6.1078975079353235,1.0179232358932495,-2.6336734930621546
1708442833.6218355,-2.139554262161255,-1.3338385385325928,-2.5273330847369593,6.107795941620626,1.0179567337036133,-2.6328392664538782
1708442833.623818,-2.139435291290283,-1.3338803958943863,-2.5273194948779505,6.10756133773879,1.0180045366287231,-2.6320884863482874
1708442833.6258585,-2.1392948627471924,-1.3339041781476517,-2.5272985140429896,6.10735963562087,1.0180408954620361,-2.631259266530172
1708442833.6278572,-2.139186143875122,-1.3339117777398606,-2.527329985295431,6.107245909958639,1.018003225326538,-2.6304643789874476
1708442833.6298323,-2.1390724182128906,-1.3339108240655442,-2.527341906224386,6.1070289490516565,1.0180526971817017,-2.6296802202807825
1708442833.6318426,-2.1389479637145996,-1.3338851642659684,-2.5273705164538782,6.106899010926046,1.018018364906311,-2.628779951726095
1708442833.6338289,-2.1388275623321533,-1.3339107495597382,-2.5274441877948206,6.106661188393392,1.0180256366729736,-2.627988878880636
1708442833.6358361,-2.138725996017456,-1.3339301210692902,-2.5274680296527308,6.106516349106588,1.018072247505188,-2.6271262804614466
1708442833.6378388,-2.138561487197876,-1.3339627248099823,-2.527449909840719,6.106315958290853,1.0180498361587524,-2.6263442675219935
1708442833.6398325,-2.1384007930755615,-1.3338931512883683,-2.527525250111715,6.106103884964742,1.018078327178955,-2.6254993120776575
1708442833.6418347,-2.138221025466919,-1.333941788678505,-2.5275145212756556,6.105902063637533,1.018141269683838,-2.624641005192892
1708442833.64384,-2.1380813121795654,-1.3339495223811646,-2.5275355021106165,6.105673301010885,1.0181776285171509,-2.623755757008688
1708442833.6458356,-2.1379265785217285,-1.3339451116374512,-2.527588192616598,6.105417835503378,1.0181596279144287,-2.62290865579714
1708442833.6478634,-2.137742757797241,-1.333997444515564,-2.52759558359255,6.105180012970724,1.018196940422058,-2.6220551172839563
1708442833.6499095,-2.137469530105591,-1.334066392188408,-2.5275865236865442,6.1049572108085535,1.018195629119873,-2.621246639882223
1708442833.6518886,-2.1372900009155273,-1.3340495389750977,-2.5276766459094446,6.1046193716819666,1.018264651298523,-2.620373551045553
1708442833.6538777,-2.137061595916748,-1.334090219145157,-2.527674976979391,6.104434239655294,1.0182437896728516,-2.619565550480978
1708442833.6558526,-2.136915445327759,-1.3340572279742737,-2.5277367273913782,6.104178416519918,1.0182929039001465,-2.6186404863940638
1708442833.6578372,-2.1367177963256836,-1.3340691191009064,-2.527691427861349,6.103863107949056,1.0182795524597168,-2.6177507082568567
1708442833.6598358,-2.1364848613739014,-1.3341059994748612,-2.5277395884143274,6.10358344295577,1.0183038711547852,-2.616906468068258
1708442833.6618443,-2.1362662315368652,-1.3341016334346314,-2.5277679602252405,6.103383052140035,1.0183517932891846,-2.616037432347433
1708442833.6638322,-2.136033535003662,-1.334149644975998,-2.527778450642721,6.103009569435873,1.0184016227722168,-2.6152291933642786
1708442833.6658604,-2.1357827186584473,-1.3341696870378037,-2.5278144518481653,6.1027270434196375,1.0184375047683716,-2.6143809000598353
1708442833.6678288,-2.135586738586426,-1.3341818463853379,-2.5278518835650843,6.1023844359214685,1.0183908939361572,-2.6134660879718226
1708442833.6698236,-2.135303497314453,-1.3341853481582184,-2.527900044118063,6.102043616562643,1.0184240341186523,-2.6125810782061976
1708442833.6718533,-2.1350491046905518,-1.3341922920993348,-2.527890984212057,6.101689207344808,1.018490195274353,-2.6117735544787806
1708442833.6738286,-2.134813070297241,-1.334229053264,-2.5279057661639612,6.101241099625387,1.0184555053710938,-2.6109347979175013
1708442833.6758666,-2.1345341205596924,-1.3342129004052659,-2.5279749075519007,6.100915062218466,1.0185095071792603,-2.610056463872091
1708442833.677817,-2.134286642074585,-1.3342479330352326,-2.5280078093158167,6.100520360260763,1.018527865409851,-2.6092565695392054
1708442833.6798294,-2.134016275405884,-1.3342886579087754,-2.5280707518206995,6.100173818856039,1.018560528755188,-2.608464066182272
1708442833.6818454,-2.133711099624634,-1.3343170148185273,-2.5280829111682337,6.099831330567159,1.018593668937683,-2.6076791922198694
1708442833.6838477,-2.1335010528564453,-1.3343614649823685,-2.528168265019552,6.099439489632406,1.0185892581939697,-2.60680061975588
1708442833.6858876,-2.1331565380096436,-1.3343523901752015,-2.5281789938556116,6.099028694420614,1.018596887588501,-2.6060248056994837
1708442833.6878536,-2.132878065109253,-1.3343806874803086,-2.5282731691943567,6.098586308747091,1.018595576286316,-2.605248991643087
1708442833.6898236,-2.1325888633728027,-1.3344612282565613,-2.5283032099353235,6.098195898323812,1.0186524391174316,-2.6043625513659876
1708442833.69184,-2.132233142852783,-1.3344486516765137,-2.528376881276266,6.097720730095663,1.0186794996261597,-2.603630844746725
1708442833.6938717,-2.1319026947021484,-1.3345368665507813,-2.528363291417257,6.097249734192648,1.018705129623413,-2.6027520338641565
1708442833.695857,-2.1315596103668213,-1.3344920587590714,-2.5284398237811487,6.09677146652297,1.0187125205993652,-2.602028195058004
1708442833.6978467,-2.1312453746795654,-1.3345399510911484,-2.528496805821554,6.096312153130331,1.0187650918960571,-2.601154152547018
1708442833.6998336,-2.130861282348633,-1.3345399659923096,-2.528569046651022,6.095817911415853,1.0187726020812988,-2.6004064718829554
1708442833.7018375,-2.130478620529175,-1.3345595759204407,-2.52857476869692,6.095321047097006,1.0188719034194946,-2.5995846430407923
1708442833.7038593,-2.130079746246338,-1.3346236956170578,-2.5286648909198206,6.0947608826454065,1.0188946723937988,-2.598854128514425
1708442833.7058868,-2.129606246948242,-1.334627942447998,-2.5287187735186976,6.094203221588888,1.0189093351364136,-2.5980032126056116
1708442833.707836,-2.129183530807495,-1.3346551370671769,-2.52879244485964,6.09363208988265,1.0189862251281738,-2.5972068945514124
1708442833.7098527,-2.1287732124328613,-1.3347319823554535,-2.5288236776935022,6.093070137291708,1.0190356969833374,-2.5963686148272913
1708442833.711837,-2.1283299922943115,-1.3347354096225281,-2.528891150151388,6.092463123589315,1.0190294981002808,-2.5955961386310022
1708442833.7138402,-2.127915620803833,-1.3347714108279725,-2.5289529005633753,6.091905343323507,1.0190658569335938,-2.594801966344015
1708442833.7158566,-2.1274800300598145,-1.3348032993129273,-2.529008213673727,6.091348278313436,1.019097089767456,-2.5940735975848597
1708442833.7178571,-2.126938581466675,-1.3348556470922013,-2.5290799776660364,6.090697514801779,1.019116997718811,-2.5932019392596644
1708442833.7198486,-2.1264736652374268,-1.3348635745099564,-2.5291641394244593,6.090104806214132,1.0191737413406372,-2.592454258595602
1708442833.7218277,-2.1259498596191406,-1.3348950308612366,-2.529236141835348,6.0893781063850305,1.0192627906799316,-2.5916274229632776
1708442833.72384,-2.1253819465637207,-1.3348985773376008,-2.5293248335467737,6.088679778366842,1.0192819833755493,-2.590916697178976
1708442833.7259052,-2.124847888946533,-1.334958405499794,-2.5293996969806116,6.087927686959066,1.0193678140640259,-2.5901594797717493
1708442833.7278314,-2.1243345737457275,-1.3350101870349427,-2.529541794453756,6.087170588761129,1.019385814666748,-2.5894179979907435
1708442833.7298398,-2.1238327026367188,-1.3350018870881577,-2.529595915471212,6.086516010552206,1.0194265842437744,-2.588635508214132
1708442833.7318382,-2.1232519149780273,-1.3350743067315598,-2.529684607182638,6.0857804892356775,1.019519329071045,-2.5878987948047083
1708442833.7338457,-2.1226413249969482,-1.335101918583252,-2.529776159917013,6.084995496063986,1.019546389579773,-2.5871673266040247
1708442833.7358553,-2.12204647064209,-1.3351828914931794,-2.52988845506777,6.08419297912673,1.0196157693862915,-2.5863638559924524
1708442833.7378478,-2.1214218139648438,-1.3352228117040177,-2.530017677937643,6.083351480751791,1.0196595191955566,-2.585708204899923
1708442833.7398605,-2.1207408905029297,-1.3353064519217988,-2.530125443135397,6.082431661873617,1.0197480916976929,-2.584966484700338
1708442833.741842,-2.120103597640991,-1.335358427172043,-2.530207697545187,6.08154987075881,1.019831895828247,-2.5842371622668665
1708442833.7438147,-2.1194393634796143,-1.335345358853676,-2.5302918593036097,6.080678331642904,1.0199086666107178,-2.5835400263415735
1708442833.745837,-2.11875319480896,-1.335405097608902,-2.530435625706808,6.07981418350295,1.0199180841445923,-2.582825485860006
1708442833.7478263,-2.1180734634399414,-1.3355176162770768,-2.530534807835714,6.078971135407247,1.0200411081314087,-2.582083765660421
1708442833.7498796,-2.1173431873321533,-1.3355893355659028,-2.530722204838888,6.077995288162985,1.0201371908187866,-2.581383768712179
1708442833.7518556,-2.1165835857391357,-1.3356527847102662,-2.530788246785299,6.077116238861837,1.0202093124389648,-2.5806413332568567
1708442833.7538188,-2.1158840656280518,-1.3357004535249253,-2.5309651533709925,6.076129305153646,1.0202932357788086,-2.580017630253927
1708442833.7558372,-2.1150565147399902,-1.3357882362655182,-2.53105074564089,6.075029361038961,1.0203731060028076,-2.579398218785421
1708442833.7578547,-2.114224433898926,-1.3358481240323563,-2.5312650839435022,6.07400261142806,1.020477056503296,-2.578752342854635
1708442833.7598207,-2.1134181022644043,-1.3359064769795914,-2.5313971678363245,6.072945701866903,1.020589828491211,-2.578078333531515
1708442833.7618504,-2.1125600337982178,-1.3360641461661835,-2.531581226979391,6.071872460633077,1.0206575393676758,-2.577451292668478
1708442833.7638333,-2.1117515563964844,-1.3360907149365921,-2.531647507344381,6.070872056275167,1.0208195447921753,-2.5768590609179896
1708442833.765829,-2.1108851432800293,-1.3362349730781098,-2.5318456331836146,6.069737660675802,1.0209112167358398,-2.5761995951281946
1708442833.7678359,-2.110034465789795,-1.3363067519715806,-2.5320704619037073,6.068592655449667,1.0210449695587158,-2.5755630175219935
1708442833.769819,-2.109114646911621,-1.3364068877748032,-2.5322099367724817,6.067396747856893,1.0211069583892822,-2.574981753026144
1708442833.771826,-2.108193874359131,-1.336477891807892,-2.5323687235461634,6.066269624024191,1.02130925655365,-2.574397865925924
1708442833.7738101,-2.107206106185913,-1.3366338175586243,-2.53259522119631,6.065058100014486,1.0214253664016724,-2.573768440877096
1708442833.7758508,-2.106290102005005,-1.3367094707540055,-2.532769266759054,6.063850748329916,1.0215648412704468,-2.573233429585592
1708442833.7778509,-2.1053242683410645,-1.336817593579628,-2.5329368750201624,6.062591421395101,1.0217376947402954,-2.5725858847247522
1708442833.7798176,-2.1043362617492676,-1.336843417291977,-2.533150021229879,6.061415183335104,1.0218791961669922,-2.5719602743731897
1708442833.7818308,-2.1033129692077637,-1.3370080602220078,-2.533320967351095,6.060104000359335,1.0220295190811157,-2.571416441594259
1708442833.7838252,-2.1022348403930664,-1.3371649396470566,-2.533553425465719,6.058771836548605,1.022170901298523,-2.5708606878863733
1708442833.785821,-2.1011924743652344,-1.3372072738460083,-2.5337544123279017,6.057492959290304,1.0223422050476074,-2.5702956358539026
1708442833.7878292,-2.1001925468444824,-1.3373105090907593,-2.5339418093310755,6.056191670685568,1.0224981307983398,-2.5697296301471155
1708442833.7898245,-2.0990419387817383,-1.3374378842166443,-2.5341578165637415,6.054871785431661,1.022637963294983,-2.5692177454577845
1708442833.791861,-2.0979630947113037,-1.3375745427659531,-2.534430805836813,6.053449618607321,1.022827386856079,-2.568603817616598
1708442833.7938712,-2.0968308448791504,-1.3377262663892289,-2.534679714833395,6.052140223770895,1.0229958295822144,-2.568058792744772
1708442833.7958157,-2.0957579612731934,-1.3378100854209443,-2.5349016825305384,6.05064474323348,1.0232540369033813,-2.567587916051046
1708442833.7978406,-2.094559907913208,-1.3380076450160523,-2.5351505915271204,6.049135911255636,1.0234373807907104,-2.5670838991748255
1708442833.7998486,-2.093357801437378,-1.3381672960570832,-2.5354564825641077,6.047698485642233,1.0236796140670776,-2.5665181318866175
1708442833.8018513,-2.0921754837036133,-1.3382867735675354,-2.535633389149801,6.0461968062217615,1.0238913297653198,-2.5660412947284144
1708442833.8038595,-2.0909557342529297,-1.338416950111725,-2.5359259287463587,6.044767129212179,1.0241003036499023,-2.5655372778521937
1708442833.805846,-2.089712142944336,-1.3385528039983292,-2.5361209551440638,6.0433000204856775,1.0242879390716553,-2.5649896303759974
1708442833.807824,-2.088472366333008,-1.338753343825676,-2.5364044348346155,6.041730272560873,1.0244386196136475,-2.5645130316363733
1708442833.8098311,-2.0872271060943604,-1.3388520640185853,-2.536752525960104,6.04016541221694,1.024717926979065,-2.5640621821032923
1708442833.8118196,-2.085923194885254,-1.3389983189157029,-2.5370476881610315,6.038577186852255,1.0249825716018677,-2.5635960737811487
1708442833.813858,-2.0846149921417236,-1.3392077100327988,-2.537340227757589,6.037006842881002,1.0252230167388916,-2.563131634389059
1708442833.8158383,-2.0832769870758057,-1.3393615049174805,-2.537622038518087,6.035366046219625,1.0255028009414673,-2.562678877507345
1708442833.8178267,-2.0818912982940674,-1.3395047646811982,-2.537943188344137,6.033839213639059,1.0257428884506226,-2.5622668902026575
1708442833.8198473,-2.0806169509887695,-1.339722068314888,-2.5382500330554407,6.032154667168417,1.026037335395813,-2.561904493962423
1708442833.821826,-2.0791666507720947,-1.3398877394250412,-2.5385904947863978,6.030472743302145,1.0263452529907227,-2.5614333788501185
1708442833.8238664,-2.0778067111968994,-1.340068669324257,-2.5389235655414026,6.028833734780111,1.0265412330627441,-2.560967985783712
1708442833.8258307,-2.0763399600982666,-1.3402879399112244,-2.539213005696432,6.027127373009481,1.0267889499664307,-2.5606470743762415
1708442833.8278096,-2.074911594390869,-1.340475322013237,-2.539668862019674,6.025367724686422,1.0271271467208862,-2.5601637999164026
1708442833.8298235,-2.0734364986419678,-1.3407201778939744,-2.5399654547320765,6.023624646454611,1.0274320840835571,-2.559812132512228
1708442833.831838,-2.071962594985962,-1.3409096461585541,-2.540351215993063,6.021840798645773,1.0277314186096191,-2.559427086506979
1708442833.8338668,-2.0703959465026855,-1.3411160868457337,-2.540736500416891,6.020082580834188,1.028069257736206,-2.5590503851519983
1708442833.835832,-2.068939447402954,-1.341331423526146,-2.5410919825183313,6.0181935904319666,1.0283892154693604,-2.5587194601642054
1708442833.8378274,-2.0673301219940186,-1.3416005086949845,-2.541495386754171,6.016407954483785,1.0287021398544312,-2.5583365599261683
1708442833.8398283,-2.0657570362091064,-1.3417527985623856,-2.5418627897845667,6.014614689141073,1.029109001159668,-2.5579970518695276
1708442833.84182,-2.064124822616577,-1.3420056414655228,-2.5422707239734095,6.012741076737203,1.0294406414031982,-2.5576606432544153
1708442833.843848,-2.0625767707824707,-1.3422194880298157,-2.5426786581622522,6.010900723725118,1.0298211574554443,-2.55733305612673
1708442833.8458245,-2.0609512329101562,-1.3424541813186188,-2.543149773274557,6.00896309593276,1.0301785469055176,-2.557028834019796
1708442833.847852,-2.059300184249878,-1.342705176477768,-2.5434871355639856,6.007072675019064,1.0305306911468506,-2.556729857121603
1708442833.8498533,-2.0576398372650146,-1.3429740977338334,-2.5439356009112757,6.005154835968771,1.0309849977493286,-2.556375567113058
1708442833.851885,-2.0559537410736084,-1.343213440184929,-2.544419590626852,6.003205406456747,1.0313119888305664,-2.5560227076159876
1708442833.85383,-2.054218292236328,-1.3435839426568528,-2.5448845068561,6.001213300019064,1.0317659378051758,-2.5557997862445276
1708442833.8558853,-2.052525758743286,-1.3437468719533463,-2.545279089604513,5.999241220742025,1.0322022438049316,-2.5554781595813196
1708442833.8578374,-2.050755262374878,-1.3441113245538254,-2.5457635561572474,5.997166383057394,1.032651424407959,-2.5551884810077112
1708442833.8598368,-2.049041748046875,-1.3443956536105652,-2.546318594609396,5.995093095093527,1.0331089496612549,-2.554995838795797
1708442833.8618662,-2.0472545623779297,-1.344689966445305,-2.54673940340151,5.993118750839987,1.033557653427124,-2.5547340551959437
1708442833.863839,-2.045476198196411,-1.3450142008117218,-2.5472570101367396,5.991007911949911,1.0339686870574951,-2.5544615427600306
1708442833.8658478,-2.043689250946045,-1.3452384632876893,-2.5477684179889124,5.9889025566871545,1.0344951152801514,-2.554281775151388
1708442833.8678298,-2.0418105125427246,-1.3456282925656815,-2.548338238392965,5.986791837006368,1.0349727869033813,-2.554012123738424
1708442833.8698244,-2.039915084838867,-1.3458936375430604,-2.5488269964801233,5.984543430596151,1.0354654788970947,-2.5538411776172083
1708442833.8718643,-2.0381157398223877,-1.346238688831665,-2.549425188695089,5.982506143837728,1.0360039472579956,-2.5536327997790735
1708442833.8738294,-2.0362040996551514,-1.3465228092721482,-2.549976412449972,5.980371105461874,1.0365325212478638,-2.5534070173846644
1708442833.8758311,-2.0343058109283447,-1.3468214881471177,-2.5505171457873743,5.978196370392599,1.0369807481765747,-2.5532198588000696
1708442833.8778396,-2.0324416160583496,-1.3471580159715195,-2.551084820424215,5.976050126343527,1.0374740362167358,-2.553063933049337
1708442833.8798254,-2.030398368835449,-1.3474719834378739,-2.551657740269796,5.973862039833822,1.0380208492279053,-2.5529208819018763
1708442833.8818376,-2.0284628868103027,-1.3478262287429352,-2.5521989504443567,5.971595155983724,1.038581132888794,-2.552739206944601
1708442833.8838341,-2.0265233516693115,-1.3482145232013245,-2.5528891722308558,5.969417321472921,1.0391179323196411,-2.552587334309713
1708442833.8858669,-2.0244858264923096,-1.3485704225352784,-2.553501907979147,5.967202293663778,1.0397160053253174,-2.5524137655841272
1708442833.8878415,-2.0225236415863037,-1.3488873106292267,-2.5540505091296595,5.965030777245321,1.0402227640151978,-2.552249256764547
1708442833.889852,-2.020407199859619,-1.349316106443741,-2.5547190348254603,5.962740647583761,1.0408300161361694,-2.552194658909933
1708442833.8918197,-2.018393039703369,-1.3496776235154648,-2.555331293736593,5.960460293083944,1.0413753986358643,-2.5520790258990687
1708442833.8938403,-2.0162577629089355,-1.3500156712583085,-2.5560370127307337,5.958165633469381,1.0420173406600952,-2.551958147679464
1708442833.895853,-2.014094352722168,-1.3504070055535813,-2.556692902241842,5.955801832466879,1.0426921844482422,-2.5519076029406946
1708442833.8978267,-2.0119788646698,-1.350821540956833,-2.5574289003955286,5.9534634230430505,1.043279767036438,-2.5518017450915735
1708442833.8998287,-2.0098111629486084,-1.351232410674431,-2.558042351399557,5.951153623848715,1.0439423322677612,-2.551731888447897
1708442833.9018478,-2.0076651573181152,-1.3516189467957993,-2.558709208165304,5.948799955635824,1.0445764064788818,-2.551688019429342
1708442833.903839,-2.0054514408111572,-1.3520091635039826,-2.559451166783468,5.946436750679769,1.0451912879943848,-2.5515902678119105
1708442833.9058738,-2.0032522678375244,-1.3524533224156876,-2.560195032750265,5.944007026940145,1.0458735227584839,-2.5515390078174036
1708442833.9078221,-2.000993490219116,-1.3529242140105744,-2.5608983675586146,5.941622483521261,1.0465995073318481,-2.5515270868884485
1708442833.9098337,-1.9987273216247559,-1.353380264048912,-2.561669890080587,5.939235555916586,1.0473014116287231,-2.551474634801046
1708442833.9118428,-1.9964905977249146,-1.3537851733020325,-2.5623355547534388,5.9369393465812585,1.0480122566223145,-2.551552120839254
1708442833.9138217,-1.9943389892578125,-1.3541573149016877,-2.5631096998797815,5.934645521431722,1.0486506223678589,-2.551556412373678
1708442833.9158525,-1.9921447038650513,-1.3546252858689805,-2.5638700167285364,5.932398307114401,1.049257755279541,-2.5516091028796595
1708442833.9178324,-1.9899178743362427,-1.3550722760013123,-2.5645716826068323,5.930061328202047,1.0498806238174438,-2.551624123250143
1708442833.9198315,-1.9876983165740967,-1.3554935616305848,-2.565329376851217,5.927711832314291,1.0505095720291138,-2.5517056624041956
1708442833.9218483,-1.9854744672775269,-1.3559688937715073,-2.56612211862673,5.92528127410964,1.0513137578964233,-2.551810089741842
1708442833.9238281,-1.9831955432891846,-1.3563739520362397,-2.566901985798971,5.9229222414787195,1.0520182847976685,-2.5518162886248987
1708442833.9258416,-1.9810305833816528,-1.3568491500667115,-2.5676520506488245,5.920612799912252,1.0527883768081665,-2.5518785158740442
1708442833.9278462,-1.9788206815719604,-1.3573477429202576,-2.5684190432177942,5.91829394081191,1.0535697937011719,-2.551934544240133
1708442833.929866,-1.9766855239868164,-1.3577858966640015,-2.5692296663867396,5.915962445526876,1.0542957782745361,-2.5519126097308558
1708442833.931863,-1.9744935035705566,-1.3581747573665162,-2.5699308554278772,5.913573968201437,1.0549931526184082,-2.551925245915548
1708442833.9338539,-1.9723132848739624,-1.3586497914842148,-2.570672337208883,5.911170828133383,1.0557056665420532,-2.551981274281637
1708442833.9358923,-1.9700943231582642,-1.359165908103325,-2.571406904851095,5.908901083260336,1.0564521551132202,-2.5519683996783655
1708442833.9378421,-1.9679862260818481,-1.3595914405635376,-2.572188202534811,5.906629073410787,1.0572516918182373,-2.551997248326437
1708442833.939854,-1.9658291339874268,-1.3600053501180192,-2.572951141987936,5.904297101288595,1.0579630136489868,-2.551971499119894
1708442833.9418478,-1.9636343717575073,-1.360501692896225,-2.5736971537219446,5.901984917908468,1.058646559715271,-2.552065912877218
1708442833.9438307,-1.9614319801330566,-1.3609189552119751,-2.57439095178713,5.899611699372091,1.0594145059585571,-2.5520971457110804
1708442833.9458878,-1.9591991901397705,-1.3614672732404252,-2.575097624455587,5.897270667343893,1.060102939605713,-2.552133623753683
1708442833.9478502,-1.9570298194885254,-1.3618382078460236,-2.5758495966540735,5.8948988793189905,1.0608004331588745,-2.552162233983175
1708442833.9498775,-1.95485258102417,-1.362289698129036,-2.5766008535968226,5.892541634827413,1.0615334510803223,-2.552225414906637
1708442833.9519043,-1.9526771306991577,-1.362775446181633,-2.5773537794696253,5.890119898110189,1.0622221231460571,-2.5522552172290247
1708442833.953855,-1.9504753351211548,-1.3632134062102814,-2.5780890623675745,5.887984025269308,1.0629688501358032,-2.552335325871603
1708442833.955875,-1.9483405351638794,-1.3637631100467225,-2.5788748900042933,5.885620224266805,1.0636287927627563,-2.552338186894552
1708442833.9578485,-1.9461331367492676,-1.3642010402730484,-2.5796099344836634,5.883199560433187,1.064390778541565,-2.552345577870504
1708442833.959865,-1.943872094154358,-1.364580900674202,-2.580386463795797,5.880944001465597,1.0651031732559204,-2.552484099064962
1708442833.961842,-1.9416894912719727,-1.3651368778995057,-2.581116501485006,5.8785894987876794,1.0659116506576538,-2.5524752775775355
1708442833.963835,-1.9394457340240479,-1.3655418765595932,-2.581878964100973,5.876274215966024,1.0666017532348633,-2.552497688923971
1708442833.9658597,-1.9372352361679077,-1.365988851790764,-2.5826407114612024,5.8739778874214075,1.0673551559448242,-2.552521530781881
1708442833.9678493,-1.935052752494812,-1.3664269757321854,-2.583386484776632,5.871752249985494,1.0680513381958008,-2.5525365511523646
1708442833.9698389,-1.9328608512878418,-1.3668668580106278,-2.5841267744647425,5.8693333742912195,1.0687451362609863,-2.552589241658346
1708442833.971834,-1.9306716918945312,-1.3672896337560196,-2.5849180857287806,5.867054211884298,1.069437026977539,-2.5526674429522913
1708442833.9738498,-1.9284348487854004,-1.3677438360503693,-2.5856192747699183,5.864726054459371,1.070177435874939,-2.552661720906393
1708442833.9758651,-1.9262877702713013,-1.3681606662324448,-2.5863993803607386,5.862311112671652,1.0708860158920288,-2.5527048746692103
1708442833.977836,-1.9240233898162842,-1.3686126333526154,-2.587210003529684,5.859958994179525,1.0715526342391968,-2.5528038183795374
1708442833.9798334,-1.921831488609314,-1.3690706354430695,-2.5879414717303675,5.857648837357321,1.0722707509994507,-2.552843157445089
1708442833.9818273,-1.9196484088897705,-1.369485006933548,-2.5887120405780237,5.855315553932943,1.0729976892471313,-2.5528906027423304
1708442833.9838276,-1.917508840560913,-1.3699228328517457,-2.5894175211535853,5.853128182678976,1.0736929178237915,-2.5529094378100794
1708442833.9858458,-1.9153106212615967,-1.3702747237733384,-2.5902367273913782,5.850745069771566,1.0743697881698608,-2.552984062825338
1708442833.9878333,-1.9130709171295166,-1.3707097333720704,-2.590996328984396,5.8483643410499475,1.075053334236145,-2.553056065236227
1708442833.9898245,-1.9108787775039673,-1.371226267223694,-2.5917111078845423,5.846061813622274,1.0757900476455688,-2.5530417601214808
1708442833.9918635,-1.9086493253707886,-1.371628226046898,-2.592536274586813,5.84378861167983,1.0765272378921509,-2.5530622641192835
1708442833.993845,-1.9064486026763916,-1.3720677954009552,-2.5933035055743616,5.841515886574545,1.0773476362228394,-2.5530858675586146
1708442833.9958227,-1.904301404953003,-1.3724984687617798,-2.594046417866842,5.839249121933737,1.077963948249817,-2.5531542936908167
1708442833.997817,-1.9020658731460571,-1.3728589725545426,-2.594721857701437,5.8369319317634485,1.0786815881729126,-2.553194824849264
1708442833.9998262,-1.8998167514801025,-1.3734233540347596,-2.5954559485064905,5.834636676102438,1.079406499862671,-2.5532799402820032
1708442834.001824,-1.8976343870162964,-1.3738003981164475,-2.5962560812579554,5.832299697190084,1.0801061391830444,-2.5533738772021692
1708442834.00383,-1.895387053489685,-1.3743092578700562,-2.5970497767077845,5.8299492476280115,1.0808473825454712,-2.553347412739889
1708442834.0058727,-1.8931688070297241,-1.3747480076602479,-2.5978193918811243,5.827523696213522,1.081511378288269,-2.5534289518939417
1708442834.007853,-1.8909448385238647,-1.3752660316279908,-2.598548475896017,5.825271355896749,1.0822392702102661,-2.553455654774801
1708442834.0098586,-1.888710856437683,-1.3756541025689621,-2.5992844740497034,5.822944628983297,1.0829287767410278,-2.5535128752337855
1708442834.0118823,-1.8865426778793335,-1.3760970097831269,-2.60000187555422,5.8206591484840295,1.0836013555526733,-2.553511444722311
1708442834.0138376,-1.8843621015548706,-1.3765867066434403,-2.6008132139789026,5.818295466690817,1.0842739343643188,-2.5535767714129847
1708442834.0159018,-1.8821282386779785,-1.3770162475160141,-2.601586405430929,5.815944897919454,1.0849705934524536,-2.5536866823779505
1708442834.0178628,-1.8799065351486206,-1.3774757397225876,-2.6022947470294397,5.813650238304891,1.0856913328170776,-2.5536766687976282
1708442834.0198328,-1.8777809143066406,-1.3778938216022034,-2.603091303502218,5.811326849251547,1.0864285230636597,-2.5536635557757776
1708442834.0218825,-1.8756136894226074,-1.3783162546208878,-2.6038227717029017,5.809003698616781,1.0871613025665283,-2.5537450949298304
1708442834.0238404,-1.873402714729309,-1.3787353050759812,-2.6046181360827845,5.806670772820272,1.087815761566162,-2.5538130442248743
1708442834.025867,-1.871198296546936,-1.3791951847127457,-2.6052749792682093,5.804340588837423,1.0886040925979614,-2.5538042227374476
1708442834.0278606,-1.868996262550354,-1.379646973018982,-2.606042448674337,5.8019858477409265,1.0892750024795532,-2.553836170827047
1708442834.02985,-1.8668254613876343,-1.3800831151059647,-2.606724564229147,5.799599993019857,1.0900031328201294,-2.5538888613330286
1708442834.0318518,-1.864587664604187,-1.3804799032262345,-2.607539955769674,5.797156321793356,1.0907779932022095,-2.5539162794696253
1708442834.0338228,-1.8623969554901123,-1.3809532982162018,-2.60828143755068,5.794907080918112,1.091445803642273,-2.5539758841144007
1708442834.0358365,-1.8602101802825928,-1.3814769101193924,-2.6090591589557093,5.79258011558608,1.0921666622161865,-2.554028336201803
1708442834.0378385,-1.858035922050476,-1.3818544161370774,-2.6097617785083216,5.7903058407600305,1.092879056930542,-2.5540645758258265
1708442834.0398462,-1.855871558189392,-1.3822511446527024,-2.610479180012838,5.788022386818685,1.0935674905776978,-2.554101053868429
1708442834.0418646,-1.8536303043365479,-1.3827726256898423,-2.6112504641162317,5.785592186241903,1.0943282842636108,-2.5540879408465784
1708442834.0438375,-1.8514400720596313,-1.3832445454648514,-2.611992422734396,5.783304083138265,1.0950368642807007,-2.5541561285602015
1708442834.045866,-1.8492299318313599,-1.3837204587510605,-2.6127527395831507,5.780972468643942,1.0957432985305786,-2.554232899342672
1708442834.0478518,-1.8470325469970703,-1.3841755849174042,-2.61353308359255,5.778771388321676,1.0965052843093872,-2.5542729536639612
1708442834.0498645,-1.844890832901001,-1.3846096706441422,-2.6142380873309534,5.776504504471578,1.097184181213379,-2.5542643705951136
1708442834.0519223,-1.8426228761672974,-1.3851022285274048,-2.6149783770190638,5.774133193283834,1.0978808403015137,-2.5543082396136683
1708442834.0538473,-1.8403977155685425,-1.3855035913041611,-2.615760866795675,5.771817314415731,1.098586082458496,-2.5544100443469446
1708442834.055874,-1.838240385055542,-1.3859591645053406,-2.6165037790881556,5.769478189736166,1.0993643999099731,-2.5544284025775355
1708442834.0578582,-1.8360109329223633,-1.3864444506219407,-2.617221180592672,5.767122971802511,1.100055456161499,-2.5544689337359827
1708442834.0598502,-1.8337923288345337,-1.3868290346911927,-2.61796743074526,5.76483045795516,1.1008177995681763,-2.554483954106466
1708442834.0618584,-1.8315763473510742,-1.3873618108085175,-2.6187921206103724,5.762586939125814,1.1014652252197266,-2.554603401814596
1708442834.0638592,-1.8293663263320923,-1.3877391380122681,-2.619512383137838,5.760232794075765,1.102149486541748,-2.5545933882342737
1708442834.0658598,-1.8272076845169067,-1.3882240814021607,-2.6202624479876917,5.7579067824180505,1.1029078960418701,-2.554633442555563
1708442834.0678556,-1.8250330686569214,-1.3886985343745728,-2.6210697332965296,5.755563485413351,1.1035057306289673,-2.554657284413473
1708442834.0698311,-1.8228100538253784,-1.3891544055989762,-2.6217919031726282,5.753158676415243,1.1042518615722656,-2.5547266642199915
1708442834.0718625,-1.8206018209457397,-1.3895958375981827,-2.622596804295675,5.750806200295248,1.1048988103866577,-2.55477482477297
1708442834.0738423,-1.8184062242507935,-1.3899986308864136,-2.6233513990985315,5.748480784683981,1.1056181192398071,-2.5547812620746058
1708442834.0758667,-1.816238284111023,-1.390491248374321,-2.6240978876696985,5.746199476509847,1.106317400932312,-2.5548341909991663
1708442834.0778315,-1.8140333890914917,-1.3909385663321991,-2.6248486677752894,5.743888127594747,1.1070308685302734,-2.5548623243915003
1708442834.0798354,-1.8118523359298706,-1.3913727414659043,-2.62561542192568,5.74160002449111,1.1077361106872559,-2.5549100081073206
1708442834.0818617,-1.8096873760223389,-1.3918289852193375,-2.6263824144946497,5.739188539772787,1.1084285974502563,-2.554970089589254
1708442834.0838404,-1.8074477910995483,-1.3922895652106781,-2.6271656195269983,5.736786472588339,1.1091564893722534,-2.5549407641040247
1708442834.0858486,-1.805245041847229,-1.3926991534284134,-2.627906862889425,5.734436619072714,1.1098486185073853,-2.555035177861349
1708442834.0878465,-1.8030421733856201,-1.393174187546112,-2.6286829153644007,5.732160556107321,1.1105048656463623,-2.5550459066974085
1708442834.0898428,-1.8008813858032227,-1.3935797077468415,-2.6294663588153284,5.729822981148519,1.1111592054367065,-2.555126492177145
1708442834.0918574,-1.7987183332443237,-1.394036279325821,-2.630200211201803,5.727498996048727,1.1119519472122192,-2.5551703611956995
1708442834.0938442,-1.7964606285095215,-1.3944950711778183,-2.6309505144702356,5.725190150528707,1.1126419305801392,-2.555145327244894
1708442834.0958648,-1.7942874431610107,-1.3949467700770875,-2.6317058245288294,5.7228290913398645,1.113357424736023,-2.5552554766284388
1708442834.0978951,-1.7920564413070679,-1.395381124024727,-2.632530752812521,5.720495927124777,1.1140209436416626,-2.555274311696188
1708442834.0998318,-1.7898930311203003,-1.3958168637803574,-2.6332526842700403,5.718221175461569,1.1147180795669556,-2.555335346852438
1708442834.1018305,-1.7877111434936523,-1.3962602329305192,-2.633944813405172,5.715914237290182,1.1154589653015137,-2.5553956667529505
1708442834.1038468,-1.78550386428833,-1.396727905874588,-2.6347623507129114,5.713662969857015,1.1162328720092773,-2.555362049733297
1708442834.105854,-1.7833008766174316,-1.397146762614586,-2.6355133692370813,5.711331593781271,1.1169761419296265,-2.5554021040545862
1708442834.1078596,-1.7810865640640259,-1.3976469200900574,-2.6362181345569056,5.709001946240225,1.1176949739456177,-2.5554712454425257
1708442834.109842,-1.7788959741592407,-1.3980295968106766,-2.636928383504049,5.706629621773519,1.118436574935913,-2.555502716694967
1708442834.1118345,-1.7767404317855835,-1.3984528642943879,-2.6376896540271204,5.704283523350515,1.1191859245300293,-2.5555222670184534
1708442834.1138384,-1.7745189666748047,-1.3989080053618927,-2.6384082476245325,5.70204650142745,1.119935154914856,-2.5556286017047327
1708442834.1158764,-1.7723180055618286,-1.3993404072574158,-2.6391802469836634,5.699760663300314,1.1206271648406982,-2.5556958357440394
1708442834.1178596,-1.7700899839401245,-1.399762974386551,-2.639902655278341,5.697500335961141,1.1213690042495728,-2.555682961140768
1708442834.1198351,-1.7678556442260742,-1.4002138835242768,-2.640648905430929,5.695114600449362,1.122080683708191,-2.5557196776019495
1708442834.121849,-1.7656197547912598,-1.4007069778493424,-2.6414127985583704,5.692761707096853,1.1228227615356445,-2.555718723927633
1708442834.12386,-1.7634117603302002,-1.4010957044414063,-2.6421428362475794,5.690433728485861,1.1235097646713257,-2.5558117071734827
1708442834.1258583,-1.7612111568450928,-1.4015573126128693,-2.642935101185934,5.688131797104635,1.1242390871047974,-2.5558069388019007
1708442834.1278589,-1.7590079307556152,-1.4019584667733689,-2.6436479727374476,5.685773241310873,1.1249464750289917,-2.5558632055865687
1708442834.1298478,-1.7568092346191406,-1.4024644804051896,-2.6443620363818567,5.683524775296011,1.125676155090332,-2.5559328238116663
1708442834.1318514,-1.7546143531799316,-1.40289859593425,-2.645135466252462,5.681213009148397,1.1263561248779297,-2.555988852177755
1708442834.1338618,-1.7524218559265137,-1.4033134293607255,-2.645845953618185,5.678756344109335,1.1270360946655273,-2.555983368550436
1708442834.135834,-1.750190019607544,-1.403728113775589,-2.646611992512838,5.67647140005187,1.1277490854263306,-2.556072775517599
1708442834.1378498,-1.7480049133300781,-1.4041812282851716,-2.647339646016256,5.674085843354025,1.1285160779953003,-2.5561140219317835
1708442834.139839,-1.7457956075668335,-1.4046315562776108,-2.6481502691852015,5.6717795608337305,1.1292732954025269,-2.5560997168170374
1708442834.1418428,-1.7436110973358154,-1.4050938946059723,-2.6488850752459925,5.6695284126098535,1.1299593448638916,-2.556180540715353
1708442834.1438434,-1.7413947582244873,-1.4055825781873246,-2.649674717579977,5.6672361371810815,1.13068425655365,-2.5562241713153284
1708442834.1458652,-1.739197850227356,-1.4059964728406449,-2.6504085699664515,5.664879309922018,1.131421446800232,-2.5562685171710413
1708442834.1478739,-1.736994981765747,-1.40651190400634,-2.6512044111834925,5.662541854172506,1.132077693939209,-2.556251112614767
1708442834.1498256,-1.7347499132156372,-1.406931297188141,-2.6519256273852747,5.660150277405538,1.1327861547470093,-2.5563135782824915
1708442834.151914,-1.7326146364212036,-1.4074477714351197,-2.6527021566974085,5.657848822861471,1.1334294080734253,-2.556424919758932
1708442834.1538568,-1.7304387092590332,-1.4078116428903122,-2.65342623392214,5.655543255596914,1.1341263055801392,-2.556457583104269
1708442834.1558387,-1.7282700538635254,-1.4083180290511628,-2.654248301182882,5.653287517815389,1.1348601579666138,-2.5564525763141077
1708442834.1578724,-1.7260432243347168,-1.4087965947440644,-2.6549821535693567,5.65093086937026,1.1355363130569458,-2.556476418172018
1708442834.1598637,-1.723900556564331,-1.4092589628747483,-2.6557543913470667,5.6486907480056665,1.1362541913986206,-2.5565410296069544
1708442834.1618638,-1.7217029333114624,-1.409677193765976,-2.6564939657794397,5.646339344769277,1.136974811553955,-2.5566020647632044
1708442834.1638818,-1.7195541858673096,-1.4101216357997437,-2.657227341328756,5.643929230957784,1.137736439704895,-2.55668288866152
1708442834.1658306,-1.7172983884811401,-1.410461888914444,-2.658010784779684,5.641590046673574,1.1384804248809814,-2.556694809590475
1708442834.1678667,-1.715122938156128,-1.410938100223877,-2.658708635960714,5.639255869179525,1.1392627954483032,-2.5566728750811976
1708442834.169846,-1.7129426002502441,-1.4114588511041184,-2.659532610570089,5.636913108616628,1.1399580240249634,-2.556786600743429
1708442834.1718853,-1.7107657194137573,-1.4118646693280716,-2.6602051893817347,5.634684192925253,1.14073646068573,-2.5567615667926233
1708442834.173846,-1.7085670232772827,-1.412370817070343,-2.6610260645495813,5.632256972580709,1.141398549079895,-2.5568512121783655
1708442834.175839,-1.706359624862671,-1.4127935332110901,-2.661781136189596,5.629885363369741,1.1420786380767822,-2.556817595158712
1708442834.1778545,-1.7040983438491821,-1.413244129424431,-2.6625195185290735,5.627518582135,1.1427680253982544,-2.5569098631488245
1708442834.179837,-1.7019494771957397,-1.4136513483575364,-2.66327411333193,5.625206875592031,1.1434646844863892,-2.5569332281695765
1708442834.181887,-1.6997380256652832,-1.4141257864287873,-2.6640172640429896,5.622923481255331,1.1441397666931152,-2.556936566029684
1708442834.1838586,-1.6976048946380615,-1.4146213841489335,-2.664781157170431,5.620615827828207,1.144845724105835,-2.5569852034198206
1708442834.1858628,-1.6953349113464355,-1.415052444939949,-2.6655362288104456,5.618295299797811,1.145480990409851,-2.557066265736715
1708442834.187892,-1.6930768489837646,-1.4155200731805344,-2.666199509297506,5.615981864720144,1.146236777305603,-2.557077232991354
1708442834.189848,-1.6909469366073608,-1.4159841251424332,-2.6669800917254847,5.6136905429656885,1.1469374895095825,-2.557145897542135
1708442834.191863,-1.688680648803711,-1.416422889833786,-2.667743984852926,5.611318158894338,1.1476463079452515,-2.55715781847109
1708442834.1938503,-1.686497688293457,-1.4168375742486496,-2.668466393147604,5.608998584538259,1.1484168767929077,-2.5572391192065638
1708442834.1958473,-1.684299111366272,-1.4173214745572587,-2.669176165257589,5.606703984528341,1.149107575416565,-2.5572829882251185
1708442834.197869,-1.6821074485778809,-1.4177390795997162,-2.6699941794024866,5.604460882931509,1.1498615741729736,-2.5573306719409388
1708442834.1998649,-1.6799119710922241,-1.4181866508773346,-2.6708396116839808,5.602148282318868,1.150625228881836,-2.557343069707052
1708442834.2018619,-1.6777654886245728,-1.4187357735684891,-2.6716278235064905,5.599972653179922,1.1514517068862915,-2.55745512643923
1708442834.2038243,-1.6755454540252686,-1.4192230564406891,-2.672533098851339,5.5977773545081995,1.152363896369934,-2.557568136845724
1708442834.205826,-1.6733245849609375,-1.4197913271239777,-2.673443380986349,5.595571684628286,1.153161644935608,-2.5576961676227015
1708442834.2078743,-1.6710786819458008,-1.4202574503472825,-2.6743419806109827,5.593409645348348,1.1540056467056274,-2.5578163305865687
1708442834.2098331,-1.6688857078552246,-1.4207708698562165,-2.6752403418170374,5.591383564263143,1.1548343896865845,-2.557936493550436
1708442834.2118561,-1.666691541671753,-1.421318845157959,-2.6761279741870325,5.589263784676351,1.1556719541549683,-2.558092180882589
1708442834.213861,-1.664503812789917,-1.4218505334905167,-2.6770387331592005,5.587194072991171,1.1564810276031494,-2.55823785463442
1708442834.2158356,-1.6622809171676636,-1.4223928165486832,-2.678004566823141,5.585059273033895,1.1573669910430908,-2.5584257284747522
1708442834.217897,-1.6600672006607056,-1.422981084590294,-2.679025475178854,5.583051073342123,1.1582998037338257,-2.558688465748922
1708442834.2198405,-1.6579217910766602,-1.423523412351944,-2.6800156275378626,5.581023442536154,1.1592646837234497,-2.5588436762439173
1708442834.221866,-1.6556752920150757,-1.4240666192821045,-2.680972162877218,5.578971433430471,1.1602617502212524,-2.559047524129049
1708442834.2238684,-1.6534878015518188,-1.4246898305467148,-2.6820293108569544,5.576965379505911,1.1612257957458496,-2.5592404047595423
1708442834.2258792,-1.6513127088546753,-1.425179199581482,-2.6830771605121058,5.575086164265432,1.1622456312179565,-2.5594762007342737
1708442834.2278478,-1.6491001844406128,-1.4258004885962983,-2.684138600026266,5.573068547039785,1.1632728576660156,-2.559798542653219
1708442834.2298594,-1.646897792816162,-1.4263952684453507,-2.6852663199054163,5.571131396084585,1.1642866134643555,-2.560038153325216
1708442834.2318468,-1.64474356174469,-1.4270465534976502,-2.6864200274096888,5.569173383503713,1.1652328968048096,-2.560308043156759
1708442834.2338483,-1.6425355672836304,-1.4277473998120804,-2.6874714533435267,5.567289638310232,1.1663283109664917,-2.560584608708517
1708442834.2358365,-1.640381097793579,-1.4283494514277955,-2.6886563936816614,5.565363037377157,1.1673120260238647,-2.560896698628561
1708442834.237859,-1.6381988525390625,-1.4289632004550477,-2.6898439566241663,5.563608634262838,1.168418049812317,-2.5611658732043665
1708442834.2398398,-1.6360982656478882,-1.4296353322318573,-2.691031281148092,5.561967777996816,1.1694800853729248,-2.561518732701437
1708442834.2418585,-1.633927583694458,-1.4302613151124497,-2.6921847502337855,5.560151862889089,1.1705615520477295,-2.5617733637439173
1708442834.2438657,-1.6318520307540894,-1.4309293937734147,-2.693390671406881,5.558533775597372,1.1716523170471191,-2.562033001576559
1708442834.2458591,-1.6296701431274414,-1.431590975528099,-2.6946092287646692,5.5568702695663355,1.1727752685546875,-2.5624945799456995
1708442834.2478652,-1.6275726556777954,-1.4323277336410065,-2.695810619984762,5.5552193997199915,1.1739739179611206,-2.5627806822406214
1708442834.2498436,-1.6255196332931519,-1.4329090279391785,-2.697109047566549,5.553637850075521,1.1751917600631714,-2.563108269368307
1708442834.2518926,-1.6233956813812256,-1.433620662694313,-2.698287312184469,5.5520498035247705,1.1763081550598145,-2.5634942690478724
1708442834.253903,-1.6214019060134888,-1.4342949849418183,-2.6996141115771692,5.550525951176443,1.1773709058761597,-2.563826862965719
1708442834.255871,-1.6193164587020874,-1.4349613052657624,-2.700833861027853,5.548988687783041,1.1785802841186523,-2.5642157236682337
1708442834.257849,-1.6172407865524292,-1.4357134413770218,-2.702142302189962,5.547529923706808,1.1797816753387451,-2.564690176640646
1708442834.259822,-1.615218997001648,-1.436394677763321,-2.7034698168383997,5.545990812569418,1.1810686588287354,-2.5650294462787073
1708442834.261857,-1.6131716966629028,-1.4371607166579743,-2.70478326479067,5.5446305749709985,1.182312250137329,-2.565434996281759
1708442834.2638762,-1.6111513376235962,-1.4379036587527771,-2.7061622778521937,5.543265807419576,1.1836634874343872,-2.5657816568957728
1708442834.2658522,-1.6091725826263428,-1.4386823189309617,-2.7075234095202845,5.54194455125884,1.1849796772003174,-2.5661538282977503
1708442834.267864,-1.6071844100952148,-1.4393846553615113,-2.7088127771960657,5.54060314872817,1.1862690448760986,-2.5665953795062464
1708442834.2698605,-1.6051270961761475,-1.440135271554329,-2.7102258841144007,5.539311575680532,1.187608003616333,-2.566944185887472
1708442834.2718787,-1.6032335758209229,-1.44090789676223,-2.71161133447756,5.537997174053945,1.1889206171035767,-2.567425791417257
1708442834.2738898,-1.6012617349624634,-1.4416451764157792,-2.713099781666891,5.536709892540731,1.1902978420257568,-2.5678377787219446
1708442834.2758214,-1.5992820262908936,-1.4424824130586167,-2.7145493666278284,5.5355135081108,1.1917450428009033,-2.568258825932638
1708442834.2778568,-1.5973623991012573,-1.4432411354831238,-2.71594745317568,5.534354197769918,1.1931962966918945,-2.568760935460226
1708442834.2798693,-1.5954300165176392,-1.4440051329186936,-2.7174115816699427,5.533242153912344,1.1945762634277344,-2.5691657702075403
1708442834.281843,-1.5934793949127197,-1.4447661203197022,-2.7188265959369105,5.532160985260763,1.1959718465805054,-2.5696874300586146
1708442834.283828,-1.5916112661361694,-1.4455710512450715,-2.7203334013568323,5.531210768013754,1.1974526643753052,-2.5701878706561487
1708442834.2858381,-1.589758038520813,-1.446409323518612,-2.7218475977527063,5.530132043152609,1.1988762617111206,-2.570620838795797
1708442834.2878568,-1.5878560543060303,-1.4472741347602387,-2.723379437123434,5.529162871628561,1.2003692388534546,-2.5710728804217737
1708442834.2898407,-1.586071252822876,-1.4480428111604233,-2.724919382725851,5.528148519783773,1.201897144317627,-2.571538511906759
1708442834.291849,-1.584144949913025,-1.4489279401353379,-2.7265074888812464,5.527206945210256,1.2034046649932861,-2.5720060507403772
1708442834.2938213,-1.5823496580123901,-1.4497133952430268,-2.728046242390768,5.526285576611318,1.2049061059951782,-2.5725417772876185
1708442834.2958696,-1.5805509090423584,-1.4506101471236725,-2.729650322590963,5.5254201767738245,1.206400752067566,-2.5730577150927942
1708442834.2978308,-1.5787497758865356,-1.4514889133027573,-2.7312031427966517,5.524580466538229,1.2078360319137573,-2.5735300222979944
1708442834.2998312,-1.576925277709961,-1.452260599737503,-2.7327962557422083,5.523746597557821,1.2093620300292969,-2.5740349928485315
1708442834.3018405,-1.5752266645431519,-1.4531623658588906,-2.734361712132589,5.522988784104147,1.210907220840454,-2.5745506922351282
1708442834.3038442,-1.5733528137207031,-1.4540092659047623,-2.7359681765185755,5.522177803307333,1.2124555110931396,-2.5750442186938685
1708442834.3058906,-1.5716149806976318,-1.454899401669838,-2.737626377736227,5.521518873959341,1.2140427827835083,-2.5755887667285364
1708442834.3078372,-1.5698140859603882,-1.4558229458383103,-2.7392495314227503,5.520773637085714,1.215653896331787,-2.576089922581808
1708442834.3098483,-1.5681445598602295,-1.4566636470011254,-2.740950409566061,5.520110595017233,1.2172577381134033,-2.576634947453634
1708442834.3118465,-1.5663481950759888,-1.4575078946403046,-2.74263579050173,5.519519376545706,1.2188295125961304,-2.577139679585592
1708442834.3138533,-1.5646570920944214,-1.4584069189480324,-2.744343344365255,5.51885478475646,1.2205101251602173,-2.577700440083639
