Eg3-git/Classifiers/Data Collection/u8/u8abc2_ur3e_joint_states.csv
time,elbow_joint,shoulder_lift_joint,shoulder_pan_joint,wrist_1_joint,wrist_2_joint,wrist_3_joint
1708442780.6632042,-2.142036199569702,-1.3333757680705567,-2.526363197957174,6.110627400666036,1.0169682502746582,-3.1963139216052454
1708442780.6651871,-2.141916513442993,-1.3334127825549622,-2.5264044443713587,6.110577809601583,1.0170217752456665,-3.1962433497058313
1708442780.6671796,-2.141993761062622,-1.3333791357329865,-2.526371781026022,6.110642182617941,1.0170423984527588,-3.1963184515582483
1708442780.6691742,-2.142019271850586,-1.3334234666875382,-2.526346508656637,6.110568749695577,1.0170183181762695,-3.1962316671954554
1708442780.6712234,-2.142014980316162,-1.333383397465088,-2.526379410420553,6.11058388927535,1.0169932842254639,-3.1962361971484583
1708442780.6731868,-2.141949415206909,-1.333379105930664,-2.526400152836935,6.110606419831075,1.0170260667800903,-3.196261231099264
1708442780.6752467,-2.1419732570648193,-1.3333757829717179,-2.526395622883932,6.110615479737081,1.0170173645019531,-3.196244780217306
1708442780.6771774,-2.142002582550049,-1.3334362369826813,-2.5263989607440394,6.1105806706245325,1.01698899269104,-3.19623309770693
1708442780.6792235,-2.141975164413452,-1.3334568303874512,-2.5263553301440638,6.110589730530538,1.0169802904129028,-3.19625693956484
1708442780.6812024,-2.141982316970825,-1.3334085059216996,-2.526363197957174,6.110589730530538,1.0170303583145142,-3.196265522633688
1708442780.683186,-2.1419777870178223,-1.3333876144937058,-2.5263662973987024,6.110606419831075,1.017005205154419,-3.196249310170309
1708442780.6852155,-2.142014980316162,-1.3334373098662873,-2.526363197957174,6.110589730530538,1.0170094966888428,-3.19623309770693
1708442780.6871789,-2.1419708728790283,-1.3334320199540635,-2.5264371077166956,6.1106228707130334,1.0170094966888428,-3.196273152028219
1708442780.6892185,-2.141979932785034,-1.3333876144937058,-2.526367489491598,6.110568749695577,1.016977071762085,-3.19623309770693
1708442780.6912065,-2.141998052597046,-1.3334041398814698,-2.526363197957174,6.110660183220663,1.0170217752456665,-3.196249310170309
1708442780.6931875,-2.141998052597046,-1.3334041398814698,-2.5263543764697474,6.110582339554586,1.0170094966888428,-3.196212355290548
1708442780.6951785,-2.1420061588287354,-1.333351583485939,-2.526383701954977,6.110598671227255,1.017033576965332,-3.1962242762195032
1708442780.6971796,-2.1419405937194824,-1.3333843511394043,-2.526391331349508,6.110555279045858,1.0170094966888428,-3.196237389241354
1708442780.6991858,-2.141975164413452,-1.3334200245193024,-2.5263333956347864,6.110582339554586,1.017005205154419,-3.196216646824972
1708442780.7011886,-2.141998052597046,-1.3334127825549622,-2.526334349309103,6.110603201180258,1.017033576965332,-3.196221176777975
1708442780.7031808,-2.141986608505249,-1.3334085059216996,-2.526371781026022,6.1106018898780725,1.0170094966888428,-3.196293894444601
1708442780.7051833,-2.141998052597046,-1.3333672148040314,-2.526375118886129,6.1106018898780725,1.0170130729675293,-3.196245018635885
1708442780.70717,-2.142002582550049,-1.3334128123572846,-2.526400152836935,6.110568749695577,1.0170130729675293,-3.196212355290548
1708442780.709175,-2.142014980316162,-1.333453507428505,-2.5263879934894007,6.1106768725212,1.017005205154419,-3.196256701146261
1708442780.7112107,-2.1419732570648193,-1.3333672148040314,-2.5264163653003138,6.110594260483541,1.0170137882232666,-3.19623309770693
1708442780.7131927,-2.142014980316162,-1.3334320348552247,-2.526375118886129,6.110592949181356,1.017005205154419,-3.1962035338031214
1708442780.715196,-2.1419618129730225,-1.333371416931488,-2.52638823190798,6.110544669419088,1.017054557800293,-3.196228567753927
1708442780.7172613,-2.142014980316162,-1.3334286671927948,-2.52641207376589,6.110552298813619,1.0170292854309082,-3.196245018635885
1708442780.7191672,-2.1419618129730225,-1.3333919805339356,-2.526358668004171,6.110585081368246,1.017005205154419,-3.196265522633688
1708442780.721184,-2.141986608505249,-1.3334171038917084,-2.52641207376589,6.110589730530538,1.0170260667800903,-3.1962743441211146
1708442780.7231731,-2.1419663429260254,-1.3333672148040314,-2.526371781026022,6.11059735992507,1.0170130729675293,-3.196281973515646
1708442780.7251809,-2.1419777870178223,-1.3333834272674103,-2.526371781026022,6.110531079560079,1.0169965028762817,-3.1962700525866907
1708442780.7271688,-2.141993761062622,-1.3333962571671982,-2.526363197957174,6.110568749695577,1.0170501470565796,-3.196281973515646
1708442780.7291687,-2.141993761062622,-1.3334439557841797,-2.526391331349508,6.110589730530538,1.0170379877090454,-3.1962085405932825
1708442780.731182,-2.1419777870178223,-1.3334171038917084,-2.5263543764697474,6.110589730530538,1.0170501470565796,-3.1962700525866907
1708442780.7331736,-2.1419618129730225,-1.3334128123572846,-2.526383701954977,6.110620009690084,1.0170501470565796,-3.196245018635885
1708442780.7351894,-2.142019271850586,-1.3334085208228608,-2.526379410420553,6.11057327964858,1.0170414447784424,-3.196261231099264
1708442780.7372282,-2.1419618129730225,-1.3333344918540497,-2.526400152836935,6.110620009690084,1.0170292854309082,-3.1962254683123987
1708442780.739282,-2.1419732570648193,-1.3333791357329865,-2.526346508656637,6.1106018898780725,1.017004370689392,-3.1963024775134485
1708442780.7412329,-2.1420061588287354,-1.3334362220815201,-2.526395622883932,6.110598671227255,1.0170620679855347,-3.1962700525866907
1708442780.7431889,-2.141982316970825,-1.3333672148040314,-2.5264163653003138,6.1106018898780725,1.0170830488204956,-3.1962536017047327
1708442780.7451916,-2.141932725906372,-1.3334085208228608,-2.5263553301440638,6.110585081368246,1.0170620679855347,-3.1963070074664515
1708442780.7471914,-2.1419575214385986,-1.333383397465088,-2.5263989607440394,6.110549199372091,1.017069935798645,-3.1962626616107386
1708442780.7491782,-2.141982316970825,-1.333399937754013,-2.526350800191061,6.110577809601583,1.0170655250549316,-3.19623309770693
1708442780.751187,-2.142019271850586,-1.3333919805339356,-2.526363197957174,6.110568749695577,1.0170862674713135,-3.1962581316577356
1708442780.7531846,-2.141998052597046,-1.3333843362382432,-2.526371781026022,6.110544669419088,1.0170655250549316,-3.196249310170309
1708442780.7551734,-2.141989231109619,-1.3333875995925446,-2.5264108816729944,6.110553729325094,1.0171024799346924,-3.19623309770693
1708442780.7571769,-2.141993761062622,-1.3333956462195893,-2.5263946692096155,6.110585200577535,1.017134428024292,-3.196212355290548
1708442780.7592092,-2.1419708728790283,-1.333379105930664,-2.526395622883932,6.110586869507589,1.017085075378418,-3.19623309770693
1708442780.7611945,-2.1419663429260254,-1.3333800596049805,-2.5263870398150843,6.11051224449233,1.0171704292297363,-3.196221176777975
1708442780.7631924,-2.141949415206909,-1.3333919805339356,-2.526391331349508,6.110561358719625,1.0171418190002441,-3.196216646824972
1708442780.7652001,-2.141923666000366,-1.3334005338004609,-2.526407543812887,6.110652792244711,1.0171494483947754,-3.196212355290548
1708442780.7671938,-2.1419618129730225,-1.3333586019328614,-2.526358668004171,6.110540139466085,1.0171616077423096,-3.196265522633688
1708442780.7691755,-2.141986608505249,-1.3334127825549622,-2.5263662973987024,6.110547888069906,1.0171332359313965,-3.1962242762195032
1708442780.7712007,-2.142023801803589,-1.3334085059216996,-2.5263620058642786,6.110620009690084,1.017166018486023,-3.196212355290548
1708442780.773209,-2.142014980316162,-1.3333875995925446,-2.526383701954977,6.110582339554586,1.0171332359313965,-3.19623309770693
1708442780.7751887,-2.1419451236724854,-1.3334214252284546,-2.5263825098620813,6.110594260483541,1.0171332359313965,-3.196265522633688
1708442780.7771883,-2.1419572830200195,-1.333371416931488,-2.5263662973987024,6.110561358719625,1.017128825187683,-3.19623309770693
1708442780.7792006,-2.141986608505249,-1.3333876144937058,-2.526375118886129,6.1105092642600916,1.017190933227539,-3.196237389241354
1708442780.7811792,-2.141993761062622,-1.3334524196437378,-2.5263500849353235,6.110603320389547,1.0171581506729126,-3.196240488682882
1708442780.783217,-2.1419451236724854,-1.3333466810039063,-2.5264371077166956,6.110620128899374,1.0170962810516357,-3.196240488682882
1708442780.7851806,-2.141975164413452,-1.3334041398814698,-2.526383701954977,6.110556947975912,1.0171616077423096,-3.1962481180774134
1708442780.7871916,-2.1419663429260254,-1.3333791357329865,-2.5263662973987024,6.110524165421285,1.0171126127243042,-3.196249310170309
1708442780.7891858,-2.141982316970825,-1.3334362369826813,-2.526379410420553,6.110556947975912,1.0171616077423096,-3.196245018635885
1708442780.791219,-2.1419777870178223,-1.3334115457585831,-2.526403252278463,6.110561358719625,1.0171573162078857,-3.1962700525866907
1708442780.7931979,-2.142014980316162,-1.3334406179240723,-2.526379410420553,6.110586869507589,1.0171735286712646,-3.1962700525866907
1708442780.7952113,-2.142014980316162,-1.3334158223918458,-2.5263543764697474,6.11057327964858,1.0171537399291992,-3.1962700525866907
1708442780.7971866,-2.141937017440796,-1.3334286671927948,-2.526428286229269,6.110577809601583,1.017166018486023,-3.196261231099264
1708442780.7991881,-2.1419663429260254,-1.3333834272674103,-2.526379410420553,6.110582339554586,1.0171244144439697,-3.1962080637561243
1708442780.8011918,-2.141975164413452,-1.3333913844874878,-2.526375118886129,6.11052559593276,1.0171703100204468,-3.196249310170309
1708442780.8031929,-2.141937017440796,-1.3334286671927948,-2.526395622883932,6.1105748293693445,1.0171363353729248,-3.196265522633688
1708442780.805187,-2.1419618129730225,-1.3334439408830185,-2.526419464741842,6.110574948578634,1.0171616077423096,-3.196285072957174
1708442780.807252,-2.1419663429260254,-1.3333999526551743,-2.526407543812887,6.110544669419088,1.0171778202056885,-3.1962361971484583
1708442780.8091912,-2.141949415206909,-1.3333962571671982,-2.526395622883932,6.110586869507589,1.017194390296936,-3.1962536017047327
1708442780.811165,-2.1419644355773926,-1.3334041398814698,-2.526379410420553,6.110558140068807,1.0171778202056885,-3.196285072957174
1708442780.8132,-2.141975164413452,-1.3333757829717179,-2.526375118886129,6.1106077311332605,1.0171529054641724,-3.1963070074664515
1708442780.8151834,-2.141991138458252,-1.3334005636027833,-2.526363197957174,6.110570418625631,1.017145037651062,-3.196277443562643
1708442780.81719,-2.1419618129730225,-1.3333672148040314,-2.526395622883932,6.110521304398336,1.0171822309494019,-3.1962700525866907
1708442780.819188,-2.1419119834899902,-1.3333962720683594,-2.5263553301440638,6.110549199372091,1.0171616077423096,-3.196249310170309
1708442780.8211823,-2.141949415206909,-1.3333876144937058,-2.526391331349508,6.110579359322347,1.0171573162078857,-3.196293656026022
1708442780.8231785,-2.1419663429260254,-1.3333919805339356,-2.5263870398150843,6.110567080765524,1.0171407461166382,-3.196249310170309
1708442780.8251855,-2.141958475112915,-1.333424375658371,-2.526419464741842,6.110582339554586,1.0171778202056885,-3.196293894444601
1708442780.8271885,-2.1419405937194824,-1.3333875995925446,-2.5264206568347376,6.110459673195638,1.0171616077423096,-3.196261231099264
1708442780.829203,-2.1419708728790283,-1.3334362369826813,-2.526375118886129,6.110542046814718,1.0171573162078857,-3.196249310170309
1708442780.8311996,-2.142002582550049,-1.3334320199540635,-2.526375118886129,6.11046718338088,1.0171245336532593,-3.196273152028219
1708442780.8331974,-2.141921043395996,-1.3333713871291657,-2.5263989607440394,6.11052559593276,1.0171735286712646,-3.1962862650500696
1708442780.83517,-2.141937017440796,-1.3333962571671982,-2.526358668004171,6.110553729325094,1.0171900987625122,-3.196301285420553
1708442780.8372152,-2.142002582550049,-1.333371416931488,-2.526383701954977,6.110548126488485,1.0171778202056885,-3.196289364491598
1708442780.8392348,-2.14190411567688,-1.3333791357329865,-2.5263999144183558,6.110464203148641,1.017194390296936,-3.196249310170309
1708442780.8412268,-2.1419119834899902,-1.3333509725383301,-2.5263870398150843,6.110518204956808,1.0172063112258911,-3.196240488682882
1708442780.8431845,-2.141949415206909,-1.3334041398814698,-2.526342217122213,6.110550987511434,1.0171988010406494,-3.19625693956484
1708442780.8451774,-2.141993761062622,-1.3333919805339356,-2.526407543812887,6.110468613892355,1.017103910446167,-3.196301285420553
1708442780.8471973,-2.141930103302002,-1.33344058812175,-2.526407543812887,6.110449063568868,1.0171735286712646,-3.196285072957174
1708442780.8491883,-2.1419451236724854,-1.3334041398814698,-2.5263870398150843,6.1104702828224084,1.017210602760315,-3.196285072957174
1708442780.8512015,-2.141986608505249,-1.333399937754013,-2.526403252278463,6.110500085144796,1.0171616077423096,-3.196285072957174
1708442780.8537524,-2.141941547393799,-1.3333800596049805,-2.5264151732074183,6.110396969109335,1.017194390296936,-3.196301285420553
1708442780.855205,-2.1419451236724854,-1.333379105930664,-2.526436154042379,6.110516536026754,1.0171735286712646,-3.196252409611837
1708442780.8571846,-2.1419618129730225,-1.333399922852852,-2.526419464741842,6.110462653427877,1.017145037651062,-3.196289364491598
1708442780.8591888,-2.141989231109619,-1.3333876144937058,-2.5263705889331263,6.110504615097799,1.0171407461166382,-3.196245018635885
1708442780.861227,-2.1419708728790283,-1.3333516132882615,-2.5263662973987024,6.110409128456869,1.0171616077423096,-3.196301285420553
1708442780.8631873,-2.141923666000366,-1.3334171038917084,-2.526395622883932,6.110400187760153,1.0171616077423096,-3.1962807814227503
1708442780.8652194,-2.1419708728790283,-1.3333919805339356,-2.526358668004171,6.110483753472128,1.0171375274658203,-3.1962981859790247
1708442780.8671832,-2.141953945159912,-1.3334041398814698,-2.526419464741842,6.110439049988546,1.0171573162078857,-3.196305815373556
1708442780.8691797,-2.1419451236724854,-1.3333791357329865,-2.52641207376589,6.110471474915304,1.0171691179275513,-3.196301285420553
1708442780.8712206,-2.142000198364258,-1.3334085059216996,-2.5264151732074183,6.1104092476661584,1.017145037651062,-3.196301285420553
1708442780.8731763,-2.1419460773468018,-1.3334200096181412,-2.526395622883932,6.1104092476661584,1.0171778202056885,-3.1962762514697474
1708442780.8752272,-2.1419451236724854,-1.3334286522916337,-2.5263705889331263,6.110455024033346,1.0171407461166382,-3.1963170210467737
1708442780.877192,-2.1419618129730225,-1.333371416931488,-2.5264151732074183,6.1104551432426355,1.0171822309494019,-3.1963005701648157
1708442780.8791828,-2.142019510269165,-1.3334277433208008,-2.526403252278463,6.110458123474874,1.017166018486023,-3.1963005701648157
1708442780.8811972,-2.141937017440796,-1.3334005785039444,-2.5263662973987024,6.110437142639913,1.0171691179275513,-3.1963375250445765
1708442780.8831928,-2.141932725906372,-1.333411530857422,-2.5263870398150843,6.11043010929183,1.017148494720459,-3.196340862904684
1708442780.885215,-2.1419618129730225,-1.3333913844874878,-2.526436154042379,6.110466944962301,1.0171407461166382,-3.1963732878314417
1708442780.887211,-2.141975164413452,-1.3333919954350968,-2.5263455549823206,6.110466944962301,1.0172063112258911,-3.196368996297018
1708442780.8892016,-2.141979932785034,-1.3333919805339356,-2.5264151732074183,6.110413777619161,1.017166018486023,-3.196364704762594
1708442780.8912191,-2.141949415206909,-1.3333962720683594,-2.526440445576803,6.110416638642111,1.0171573162078857,-3.196385208760397
1708442780.893206,-2.1419708728790283,-1.3333748590997239,-2.5263705889331263,6.110479342728414,1.017145037651062,-3.196385208760397
1708442780.8952425,-2.141963005065918,-1.3334085208228608,-2.526423756276266,6.110474812775411,1.0171616077423096,-3.1963470617877405
1708442780.8971834,-2.1419460773468018,-1.3334320199540635,-2.526391331349508,6.110462653427877,1.017132043838501,-3.196348253880636
1708442780.8991787,-2.1419460773468018,-1.3333999526551743,-2.5263989607440394,6.110466944962301,1.0171332359313965,-3.196380917225973
1708442780.90124,-2.141984224319458,-1.3333956462195893,-2.5263827482806605,6.11043261268691,1.0171573162078857,-3.1963513533221644
1708442780.903197,-2.141958475112915,-1.3333509725383301,-2.526407543812887,6.110416638642111,1.0171363353729248,-3.196364704762594
1708442780.9052174,-2.141895294189453,-1.3333833676627656,-2.5263989607440394,6.110412108689108,1.0171529054641724,-3.196414057408468
1708442780.907234,-2.141941547393799,-1.3334362220815201,-2.5263944307910364,6.110479342728414,1.0171900987625122,-3.196430508290426
1708442780.9092145,-2.1419618129730225,-1.3334041398814698,-2.5263944307910364,6.110500085144796,1.0171616077423096,-3.196425978337423
1708442780.911236,-2.141986608505249,-1.3334041398814698,-2.526403252278463,6.110474812775411,1.0171573162078857,-3.196380917225973
1708442780.9132266,-2.141963005065918,-1.3334733110717316,-2.526403252278463,6.110422599106588,1.0171616077423096,-3.196430508290426
1708442780.9152403,-2.141949415206909,-1.333371416931488,-2.526440445576803,6.110416638642111,1.0171616077423096,-3.196360174809591
1708442780.9172075,-2.141995906829834,-1.3334448647550126,-2.5264230410205286,6.110471474915304,1.0171735286712646,-3.196355644856588
1708442780.9191804,-2.141975164413452,-1.3334085208228608,-2.5264108816729944,6.110483753472128,1.0171778202056885,-3.1963351408587855
1708442780.921216,-2.141932725906372,-1.3334362369826813,-2.526423994694845,6.110437142639913,1.0171494483947754,-3.196380917225973
1708442780.923192,-2.141928195953369,-1.3333876144937058,-2.5263870398150843,6.110421049385824,1.0171735286712646,-3.19642144838442
1708442780.9252107,-2.141949415206909,-1.3333875995925446,-2.5263500849353235,6.1104928133781335,1.0172030925750732,-3.196430508290426
1708442780.927194,-2.1419708728790283,-1.3334320348552247,-2.526468817387716,6.110439049988546,1.0171616077423096,-3.1964009443866175
1708442780.9292185,-2.1419451236724854,-1.3333919805339356,-2.5263870398150843,6.110423671990194,1.017145037651062,-3.196392838154928
1708442780.9312391,-2.142023801803589,-1.3334610623172303,-2.5264273325549524,6.110441791802206,1.0171735286712646,-3.196414057408468
1708442780.9331915,-2.141958475112915,-1.3333713871291657,-2.526403252278463,6.110446202545919,1.0170994997024536,-3.19636041322817
1708442780.9352121,-2.141958475112915,-1.3333876144937058,-2.5263989607440394,6.110449063568868,1.0171856880187988,-3.196392838154928
1708442780.9372518,-2.141916513442993,-1.3333466810039063,-2.526419464741842,6.110504615097799,1.017210602760315,-3.196348253880636
1708442780.9392562,-2.141932725906372,-1.3333962720683594,-2.5263901392566126,6.1104092476661584,1.0171407461166382,-3.196392838154928
1708442780.94123,-2.1419708728790283,-1.3333919805339356,-2.526440445576803,6.1104256985481165,1.0171573162078857,-3.1963797251330774
1708442780.943195,-2.141953945159912,-1.3334329438260575,-2.526456658040182,6.110466944962301,1.017158031463623,-3.196437660847799
1708442780.9452176,-2.141963005065918,-1.3333919805339356,-2.526407543812887,6.110401379853048,1.0171616077423096,-3.1964052359210413
1708442780.9472451,-2.1419663429260254,-1.333367185001709,-2.526423994694845,6.1104702828224084,1.0171573162078857,-3.196414057408468
1708442780.9491837,-2.141932725906372,-1.3334041398814698,-2.526403252278463,6.110483753472128,1.0171822309494019,-3.196392838154928
1708442780.9512253,-2.141937017440796,-1.33344058812175,-2.5263870398150843,6.110466944962301,1.0171573162078857,-3.196376625691549
1708442780.953198,-2.141963005065918,-1.333371416931488,-2.5264151732074183,6.110474812775411,1.0171735286712646,-3.1964052359210413
1708442780.9552329,-2.141963005065918,-1.3334158223918458,-2.5263989607440394,6.110449063568868,1.0171407461166382,-3.196397129689352
1708442780.9571838,-2.1419575214385986,-1.3333962571671982,-2.5263825098620813,6.1104445336158655,1.0171494483947754,-3.196430269871847
1708442780.9592073,-2.141921043395996,-1.333375797872879,-2.5263989607440394,6.110453593521871,1.017166018486023,-3.196397368107931
1708442780.9612036,-2.1419451236724854,-1.3334128123572846,-2.5264359156238,6.110461342125692,1.0171573162078857,-3.196414057408468
1708442780.9631822,-2.1419777870178223,-1.3333713871291657,-2.5263944307910364,6.110483753472128,1.0171865224838257,-3.196425978337423
1708442780.9652112,-2.141986608505249,-1.3334170591882248,-2.5263782183276575,6.1104702828224084,1.017145037651062,-3.196430269871847
1708442780.96721,-2.141979932785034,-1.3333843362382432,-2.5264230410205286,6.110441672592916,1.0171735286712646,-3.19642144838442
1708442780.969195,-2.141953945159912,-1.3334286671927948,-2.526375118886129,6.1104256985481165,1.0171703100204468,-3.196462933217184
1708442780.9712079,-2.1419451236724854,-1.3333595556071778,-2.526440445576803,6.1104822037513635,1.0171407461166382,-3.196392838154928
1708442780.973167,-2.142019510269165,-1.3333800596049805,-2.5263989607440394,6.11043261268691,1.017166018486023,-3.1964059511767786
1708442780.9752011,-2.1419451236724854,-1.333388702278473,-2.5263705889331263,6.110461342125692,1.0171573162078857,-3.19642144838442
1708442780.9771817,-2.141963005065918,-1.3333999526551743,-2.5264273325549524,6.110462653427877,1.0171537399291992,-3.196414057408468
1708442780.9792109,-2.141937017440796,-1.333379105930664,-2.5264151732074183,6.110488164215841,1.017166018486023,-3.1963632742511194
1708442780.9811952,-2.141953945159912,-1.3333962720683594,-2.5264392534839075,6.110479342728414,1.0171529054641724,-3.1963513533221644
1708442780.9832032,-2.141953945159912,-1.333424375658371,-2.5264063517199915,6.110479342728414,1.0171573162078857,-3.1963840166675013
1708442780.9852037,-2.1419575214385986,-1.3334200245193024,-2.526403252278463,6.110512125283041,1.0171866416931152,-3.196388308201925
1708442780.987184,-2.1419777870178223,-1.3334158223918458,-2.5264151732074183,6.1104256985481165,1.0171616077423096,-3.1963632742511194
1708442780.9891865,-2.141937017440796,-1.3333919805339356,-2.526357714329855,6.110461222916403,1.0171494483947754,-3.1963751951800745
1708442780.9912095,-2.1419618129730225,-1.3334170591882248,-2.5263827482806605,6.110456812172689,1.0171332359313965,-3.1963632742511194
1708442780.9931977,-2.141958475112915,-1.333371416931488,-2.5263946692096155,6.1104657528694055,1.0171494483947754,-3.1963797251330774
1708442780.995216,-2.141937017440796,-1.3333758127740403,-2.526452366505758,6.110506045609274,1.017145037651062,-3.1963632742511194
1708442780.9971952,-2.141928195953369,-1.3333800596049805,-2.5264151732074183,6.110491263657369,1.0171616077423096,-3.196376625691549
1708442780.9992,-2.141953945159912,-1.3333875995925446,-2.5264151732074183,6.11051498630599,1.017145037651062,-3.1963632742511194
1708442781.0011933,-2.141958475112915,-1.3334005338004609,-2.5263946692096155,6.1104702828224084,1.017158031463623,-3.1964052359210413
1708442781.0031857,-2.1419618129730225,-1.333346740608551,-2.5264108816729944,6.110477673798361,1.017166018486023,-3.1963966528521937
1708442781.005204,-2.142002582550049,-1.3333595854095002,-2.526403252278463,6.110461342125692,1.017115831375122,-3.1963513533221644
1708442781.0072002,-2.1419451236724854,-1.3334362220815201,-2.5263827482806605,6.110524046211996,1.0171865224838257,-3.1963632742511194
1708442781.0091867,-2.1419708728790283,-1.3333629381707688,-2.5264151732074183,6.110489594727316,1.0171616077423096,-3.1964052359210413
1708442781.0112178,-2.141982316970825,-1.3334234666875382,-2.526403252278463,6.1104867337043665,1.017166018486023,-3.1963678042041224
1708442781.0131915,-2.1419663429260254,-1.333417074089386,-2.5264359156238,6.110503065377035,1.017128825187683,-3.196442190800802
1708442781.0152025,-2.141975164413452,-1.3333800596049805,-2.5263739267932337,6.110468613892355,1.0171703100204468,-3.1964052359210413
1708442781.0171897,-2.141932725906372,-1.333424375658371,-2.5263989607440394,6.1104715941245935,1.0171822309494019,-3.196442190800802
1708442781.0191925,-2.141953945159912,-1.3334127974561234,-2.526423756276266,6.110456812172689,1.0171494483947754,-3.196430269871847
1708442781.0212052,-2.141982316970825,-1.3334568303874512,-2.5264108816729944,6.1104657528694055,1.017179012298584,-3.196430269871847
1708442781.0231998,-2.1419708728790283,-1.3334041398814698,-2.5264151732074183,6.110521185189047,1.017166018486023,-3.196462933217184
1708442781.0251849,-2.141953945159912,-1.3333595854095002,-2.5264480749713343,6.110522734909811,1.017128825187683,-3.1964009443866175
1708442781.0271845,-2.141949415206909,-1.333424375658371,-2.5263944307910364,6.110555636673727,1.0171581506729126,-3.196425978337423
1708442781.0291774,-2.141991138458252,-1.3334362220815201,-2.5264316240893763,6.110562550812521,1.0171462297439575,-3.196372095738546
1708442781.031247,-2.141953945159912,-1.3333757829717179,-2.5263827482806605,6.110489594727316,1.017146110534668,-3.19642144838442
1708442781.033187,-2.141949415206909,-1.3334524196437378,-2.526423756276266,6.110546576767721,1.017158031463623,-3.1964128653155726
1708442781.0352192,-2.141949415206909,-1.333371416931488,-2.5264108816729944,6.110558140068807,1.017129898071289,-3.196446720753805
1708442781.0372088,-2.141986608505249,-1.3334127974561234,-2.5264151732074183,6.110589730530538,1.0171418190002441,-3.196462933217184
1708442781.0392926,-2.141975164413452,-1.3333919805339356,-2.5264108816729944,6.110598671227255,1.0171256065368652,-3.1964333693133753
1708442781.041229,-2.141989231109619,-1.3334491413882752,-2.5263870398150843,6.110610949784078,1.017079472541809,-3.196446720753805
1708442781.0431767,-2.141958475112915,-1.3333748441985627,-2.526375118886129,6.1106183407600305,1.0171375274658203,-3.1964009443866175
1708442781.0452054,-2.141921043395996,-1.3334171038917084,-2.5263946692096155,6.110606419831075,1.017145037651062,-3.196449581776754
1708442781.0471728,-2.1419618129730225,-1.3333758127740403,-2.5263989607440394,6.110592949181356,1.0171375274658203,-3.196414057408468
1708442781.0493987,-2.141941547393799,-1.3334085059216996,-2.5264273325549524,6.110630261688986,1.0171581506729126,-3.196442190800802
1708442781.0512145,-2.141941547393799,-1.3333757829717179,-2.526375118886129,6.110571729927816,1.0171051025390625,-3.196437660847799
1708442781.0531876,-2.1419708728790283,-1.3333876144937058,-2.5264645258532923,6.110630261688986,1.0171746015548706,-3.1964171568499964
1708442781.055203,-2.141932725906372,-1.33344058812175,-2.526397768651144,6.110585200577535,1.0170962810516357,-3.196380917225973
1708442781.0571897,-2.141941547393799,-1.333371416931488,-2.5263989607440394,6.11062120178298,1.0171256065368652,-3.196397129689352
1708442781.059184,-2.141979932785034,-1.3334610623172303,-2.526444737111227,6.1106393215949915,1.0171170234680176,-3.1963966528521937
1708442781.0611763,-2.141982316970825,-1.3333962273648758,-2.5264151732074183,6.110627400666036,1.0171418190002441,-3.196392838154928
1708442781.0631917,-2.141937017440796,-1.3333800596049805,-2.5264108816729944,6.110555279045858,1.017129898071289,-3.1963675657855433
1708442781.0651827,-2.141949415206909,-1.3333511066487809,-2.5264151732074183,6.110609280854025,1.0171462297439575,-3.1963678042041224
1708442781.0671916,-2.1419708728790283,-1.3334128123572846,-2.526423756276266,6.110568749695577,1.0171462297439575,-3.1964052359210413
1708442781.0691752,-2.1419708728790283,-1.3334041398814698,-2.5264151732074183,6.110594260483541,1.0171213150024414,-3.196392838154928
1708442781.0712032,-2.141953945159912,-1.3333956909230729,-2.5263825098620813,6.110630261688986,1.017146110534668,-3.1964009443866175
1708442781.0732217,-2.141937017440796,-1.3334115457585831,-2.5264108816729944,6.110585200577535,1.0171462297439575,-3.196425978337423
1708442781.0751839,-2.141986608505249,-1.3333638620427628,-2.5263620058642786,6.1106393215949915,1.0172117948532104,-3.196397129689352
1708442781.0771954,-2.1419663429260254,-1.3333791357329865,-2.526419464741842,6.11062120178298,1.0171418190002441,-3.1964097658740442
1708442781.0791888,-2.141953945159912,-1.333411530857422,-2.5263739267932337,6.1106228707130334,1.0171051025390625,-3.196380917225973
1708442781.0811937,-2.1419451236724854,-1.3334286969951172,-2.5263705889331263,6.1105806706245325,1.0171136856079102,-3.1963277498828333
1708442781.0831857,-2.141998052597046,-1.333371416931488,-2.5264230410205286,6.110654341965475,1.017129898071289,-3.196357075368063
1708442781.0852506,-2.141989231109619,-1.3334448647550126,-2.5264230410205286,6.1105761406715295,1.0171093940734863,-3.196343962346212
1708442781.0871813,-2.1419405937194824,-1.3333962720683594,-2.526407543812887,6.11059735992507,1.0170881748199463,-3.196376625691549
1708442781.0891778,-2.1419663429260254,-1.3333552193692704,-2.5264151732074183,6.1106183407600305,1.0171375274658203,-3.196376625691549
1708442781.091218,-2.1419193744659424,-1.3334128123572846,-2.526419464741842,6.110588419228353,1.017116904258728,-3.196385208760397
1708442781.0931828,-2.141953945159912,-1.3334524494460602,-2.5263858477221888,6.110588419228353,1.0171668529510498,-3.196376625691549
1708442781.0952,-2.1419076919555664,-1.333383397465088,-2.5264359156238,6.110606419831075,1.0171494483947754,-3.196372095738546
1708442781.0971966,-2.1419663429260254,-1.3333629232696076,-2.526403252278463,6.110609280854025,1.017104983329773,-3.196364704762594
1708442781.0992155,-2.141949415206909,-1.3333757829717179,-2.5264359156238,6.1105806706245325,1.017129898071289,-3.1963678042041224
1708442781.1011987,-2.1419663429260254,-1.3333875995925446,-2.5264230410205286,6.110588419228353,1.0171093940734863,-3.196392838154928
1708442781.1031966,-2.1419122219085693,-1.3333344769528885,-2.5264435450183313,6.110625731735983,1.0171006917953491,-3.196380917225973
1708442781.1051974,-2.141975164413452,-1.3334005636027833,-2.5264151732074183,6.110600220948019,1.0171581506729126,-3.1963895002948206
1708442781.107195,-2.141986608505249,-1.3334362220815201,-2.5263825098620813,6.110616671829977,1.0171418190002441,-3.196397129689352
1708442781.10917,-2.141949415206909,-1.3334361922791977,-2.5264316240893763,6.110651004105367,1.0171213150024414,-3.196418348942892
1708442781.11121,-2.141958475112915,-1.3334244203618546,-2.5264065901385706,6.110646593361654,1.0171213150024414,-3.196392838154928
1708442781.1131837,-2.142002582550049,-1.3334200096181412,-2.5264557043658655,6.110615479737081,1.0171256065368652,-3.196437660847799
1708442781.1152024,-2.141953945159912,-1.3334127825549622,-2.526375118886129,6.1105761406715295,1.0171012878417969,-3.196397129689352
1708442781.1172042,-2.1419076919555664,-1.3334128123572846,-2.526419464741842,6.11059735992507,1.0171256065368652,-3.196372095738546
1708442781.1192172,-2.141928195953369,-1.3334199649146576,-2.5264480749713343,6.110612380295553,1.017116904258728,-3.196376625691549
1708442781.121181,-2.1419663429260254,-1.3334029030850907,-2.526407543812887,6.110625731735983,1.0170806646347046,-3.1963895002948206
1708442781.123202,-2.141949415206909,-1.3333672148040314,-2.5263825098620813,6.110665905266561,1.017158031463623,-3.1964097658740442
1708442781.1251905,-2.1419618129730225,-1.3334320050529023,-2.5263989607440394,6.110663401871481,1.0171093940734863,-3.196425978337423
1708442781.1271977,-2.141975164413452,-1.3334127825549622,-2.526419464741842,6.110630261688986,1.017146110534668,-3.196430269871847
1708442781.1291816,-2.1419076919555664,-1.3334257763675232,-2.52641207376589,6.110670435219564,1.0171375274658203,-3.196414057408468
1708442781.13121,-2.141949415206909,-1.3334568303874512,-2.526419464741842,6.110633122711935,1.0171549320220947,-3.196392838154928
1708442781.1331909,-2.141993761062622,-1.3334158223918458,-2.5263989607440394,6.110649812012472,1.0171256065368652,-3.196422878895895
1708442781.1351838,-2.1419451236724854,-1.3333875697902222,-2.5263989607440394,6.110663401871481,1.017129898071289,-3.196397129689352
1708442781.1371922,-2.1419708728790283,-1.3334286671927948,-2.5263825098620813,6.110604870110311,1.0171093940734863,-3.196380917225973
1708442781.1393032,-2.141982316970825,-1.3334041398814698,-2.526440445576803,6.110674965172567,1.0171136856079102,-3.196343962346212
1708442781.1412523,-2.141982316970825,-1.3334244054606934,-2.5263944307910364,6.110646593361654,1.0171092748641968,-3.1963394323932093
1708442781.1432292,-2.1419451236724854,-1.3333672744086762,-2.5264065901385706,6.1106839058692834,1.017096757888794,-3.196372095738546
1708442781.1452112,-2.1419451236724854,-1.3334234219840546,-2.526423994694845,6.110649812012472,1.0171093940734863,-3.1963277498828333
1708442781.1472044,-2.1419777870178223,-1.3334213507226487,-2.5264163653003138,6.11062120178298,1.0171256065368652,-3.196388308201925
1708442781.1492066,-2.141949415206909,-1.333407239322998,-2.5264151732074183,6.11058388927535,1.0171256065368652,-3.1963308493243616
1708442781.1511877,-2.1419451236724854,-1.3334158074906846,-2.5264316240893763,6.110642182617941,1.0171549320220947,-3.1963394323932093
1708442781.1531885,-2.141998052597046,-1.3334200245193024,-2.526419464741842,6.1106454012687585,1.017129898071289,-3.1963558832751673
1708442781.1551924,-2.1419451236724854,-1.3334439408830185,-2.5263739267932337,6.110649812012472,1.017129898071289,-3.196376625691549
1708442781.1572068,-2.1419732570648193,-1.3333713573268433,-2.5263989607440394,6.110687005310812,1.0171256065368652,-3.1963189283954065
1708442781.1591861,-2.142002582550049,-1.3334200245193024,-2.5264480749713343,6.1106241820152185,1.0171256065368652,-3.1963840166675013
1708442781.161204,-2.141989231109619,-1.3334243607572098,-2.5264325777636927,6.110691296845236,1.017146110534668,-3.196397129689352
1708442781.1631916,-2.1419618129730225,-1.33343958974395,-2.5264480749713343,6.11068223693923,1.017129898071289,-3.196348492299215
1708442781.1652086,-2.1419360637664795,-1.333407239322998,-2.5263620058642786,6.110633122711935,1.0171136856079102,-3.196380917225973
1708442781.1672013,-2.141993761062622,-1.3333800447038193,-2.526403252278463,6.110579478531637,1.0171256065368652,-3.19643479982485
1708442781.1691878,-2.1419732570648193,-1.333395631318428,-2.5264020601855677,6.110613810807028,1.0171418190002441,-3.196388308201925
1708442781.171245,-2.141982316970825,-1.3334362220815201,-2.5264151732074183,6.110615122109213,1.017145037651062,-3.196348492299215
1708442781.1732063,-2.141991138458252,-1.3333791357329865,-2.526456658040182,6.110685336380758,1.0171462297439575,-3.196388308201925
1708442781.1751876,-2.1419575214385986,-1.333359645014145,-2.5263989607440394,6.110649812012472,1.0171213150024414,-3.1963558832751673
1708442781.1771948,-2.1419777870178223,-1.3334449094584961,-2.526403252278463,6.11060785034255,1.0171256065368652,-3.196388308201925
1708442781.1792135,-2.1419689655303955,-1.333424375658371,-2.5263989607440394,6.1107122776801965,1.017129898071289,-3.196392838154928
1708442781.1812255,-2.1420061588287354,-1.3333876144937058,-2.5264719168292444,6.110698687821188,1.0171136856079102,-3.19636041322817
1708442781.1831965,-2.1420061588287354,-1.3334320050529023,-2.526452366505758,6.110612261086263,1.0170718431472778,-3.196376625691549
1708442781.1851761,-2.1419777870178223,-1.3334609878114243,-2.52641207376589,6.110636460572042,1.0170924663543701,-3.196364704762594
1708442781.1871955,-2.1419575214385986,-1.3334286224893113,-2.5263989607440394,6.110636460572042,1.017096757888794,-3.196397129689352
1708442781.1891773,-2.142024040222168,-1.3333962720683594,-2.5263989607440394,6.110619771271505,1.0170924663543701,-3.196414057408468
1708442781.1911943,-2.1419618129730225,-1.3333919805339356,-2.5264108816729944,6.110661494522848,1.0171418190002441,-3.196388308201925
1708442781.1931756,-2.141989231109619,-1.3334482473186036,-2.526419464741842,6.110736357956686,1.0170962810516357,-3.1963678042041224
1708442781.1951876,-2.1419405937194824,-1.3333510172418137,-2.5264316240893763,6.110723006516256,1.0171256065368652,-3.196397129689352
1708442781.1971922,-2.141989231109619,-1.3334234666875382,-2.5264063517199915,6.110689866333761,1.017104983329773,-3.1964014212237757
1708442781.1991868,-2.1420364379882812,-1.3333919805339356,-2.5264435450183313,6.110752808838644,1.0171256065368652,-3.196376625691549
1708442781.2011926,-2.142002582550049,-1.3334115457585831,-2.5264151732074183,6.110649812012472,1.017129898071289,-3.196380917225973
1708442781.2031891,-2.1419575214385986,-1.3334041398814698,-2.526419464741842,6.110676276474752,1.0171093940734863,-3.19643479982485
1708442781.2051756,-2.141998052597046,-1.333408461218216,-2.5264273325549524,6.110702025681295,1.0171213150024414,-3.196364704762594
1708442781.2071745,-2.1420016288757324,-1.33344058812175,-2.5264392534839075,6.110697495728292,1.0171418190002441,-3.196348492299215
1708442781.2091944,-2.141984701156616,-1.3334652495435257,-2.526440445576803,6.110800850182333,1.0171746015548706,-3.1963513533221644
1708442781.2112074,-2.1419529914855957,-1.3333748889020463,-2.5264151732074183,6.1107332585151575,1.0170718431472778,-3.196364704762594
1708442781.2131813,-2.142010450363159,-1.3333919805339356,-2.5264435450183313,6.110812651901998,1.0171418190002441,-3.196401659642355
1708442781.2152264,-2.141984701156616,-1.3334041398814698,-2.526436154042379,6.11074839809493,1.0171624422073364,-3.1963070074664515
1708442781.2171803,-2.141989231109619,-1.3333919656327744,-2.5264316240893763,6.110825884133138,1.0171008110046387,-3.1963558832751673
1708442781.219195,-2.1419644355773926,-1.3333834272674103,-2.5264676252948206,6.110821473389425,1.0171213150024414,-3.1964102427112024
1708442781.2212298,-2.1419689655303955,-1.3334647429040452,-2.5264435450183313,6.110812413483419,1.017134428024292,-3.196397129689352
1708442781.223188,-2.1419777870178223,-1.3333956611207505,-2.5264151732074183,6.110824692040243,1.0171703100204468,-3.1963442007647913
1708442781.2252316,-2.141989231109619,-1.333439664249756,-2.526485029851095,6.110850083618917,1.0171623229980469,-3.1964128653155726
1708442781.2271829,-2.141993761062622,-1.3333757680705567,-2.526440445576803,6.110821473389425,1.0171375274658203,-3.196364704762594
1708442781.2292082,-2.141984701156616,-1.333427758221962,-2.526436154042379,6.110878336220541,1.0170924663543701,-3.196414057408468
1708442781.2312028,-2.141993761062622,-1.3334329438260575,-2.5264349619494837,6.110803353577413,1.0171256065368652,-3.196380917225973
1708442781.2332013,-2.1419732570648193,-1.3334361922791977,-2.5264435450183313,6.110787021904745,1.0171213150024414,-3.19636041322817
1708442781.235248,-2.1419732570648193,-1.333399922852852,-2.5263782183276575,6.1108693955238245,1.017116904258728,-3.1964014212237757
1708442781.237218,-2.1419732570648193,-1.3334200096181412,-2.5264151732074183,6.110803353577413,1.0171418190002441,-3.196397129689352
1708442781.2392144,-2.1419732570648193,-1.3334115010550995,-2.5264435450183313,6.110841023712911,1.0171624422073364,-3.1964226404773157
1708442781.241282,-2.141993761062622,-1.3333962720683594,-2.5264316240893763,6.110807883530416,1.0171624422073364,-3.19642144838442
1708442781.2432137,-2.1419777870178223,-1.333399937754013,-2.526419464741842,6.11082016208724,1.0171213150024414,-3.1963613669024866
1708442781.2452466,-2.141989231109619,-1.3333962571671982,-2.5264151732074183,6.110807883530416,1.017146110534668,-3.19642144838442
1708442781.2472148,-2.1420016288757324,-1.3334115159562607,-2.5264151732074183,6.110829102783956,1.0171375274658203,-3.19636041322817
1708442781.2491891,-2.141984701156616,-1.3333834421685715,-2.526403252278463,6.110845553665914,1.0171616077423096,-3.19636041322817
1708442781.2512245,-2.141989231109619,-1.333408535724022,-2.526419464741842,6.11082016208724,1.0171245336532593,-3.196414057408468
1708442781.2531822,-2.1420300006866455,-1.3334361773780365,-2.5264108816729944,6.110824572830953,1.0171256065368652,-3.1964009443866175
1708442781.255204,-2.1420228481292725,-1.3334406179240723,-2.5264392534839075,6.110848533898153,1.017146110534668,-3.196418348942892
1708442781.2571907,-2.1419925689697266,-1.3334244054606934,-2.5264645258532923,6.110857474594869,1.0171703100204468,-3.1964009443866175
1708442781.2592325,-2.142010450363159,-1.333411530857422,-2.5264557043658655,6.110829102783956,1.0171170234680176,-3.196385208760397
1708442781.261233,-2.1420094966888428,-1.333399937754013,-2.526447836552755,6.110857474594869,1.0171494483947754,-3.1964388529406946
1708442781.2631996,-2.1419804096221924,-1.333399937754013,-2.5264273325549524,6.110860335617819,1.0171093940734863,-3.196392838154928
1708442781.2652159,-2.142010450363159,-1.3334448349526902,-2.5264602343188685,6.110807883530416,1.017129898071289,-3.196397129689352
1708442781.2671885,-2.1420185565948486,-1.333411530857422,-2.5264599959002894,6.110779511719503,1.017134428024292,-3.1964009443866175
1708442781.2692373,-2.1420016288757324,-1.3334128123572846,-2.5264480749713343,6.110878336220541,1.0171418190002441,-3.196388308201925
1708442781.2712,-2.1419928073883057,-1.3334362369826813,-2.526442591344015,6.1108364937599084,1.0171418190002441,-3.196397129689352
1708442781.2731957,-2.1419970989227295,-1.33344058812175,-2.5265002886401575,6.110815632134237,1.0171537399291992,-3.196392838154928
1708442781.2752318,-2.142068386077881,-1.3334244054606934,-2.526511255894796,6.11077510097579,1.0171703100204468,-3.196388308201925
1708442781.2771847,-2.1419970989227295,-1.333411530857422,-2.526532236729757,6.110882866173544,1.0171537399291992,-3.196434561406271
1708442781.2791991,-2.1420228481292725,-1.3334568452886124,-2.5265234152423304,6.110850083618917,1.0171616077423096,-3.1964290777789515
1708442781.2812216,-2.1420469284057617,-1.3333956462195893,-2.5265191237079065,6.110845553665914,1.0171375274658203,-3.196414057408468
1708442781.2832096,-2.1420514583587646,-1.33344920099292,-2.5265515486346644,6.110824572830953,1.0171375274658203,-3.1964097658740442
1708442781.2852201,-2.1420016288757324,-1.333367259507515,-2.5265677610980433,6.110895025521078,1.0171213150024414,-3.196380917225973
1708442781.2871814,-2.1420469284057617,-1.3333913546851655,-2.5265515486346644,6.110887396126547,1.017080545425415,-3.1964009443866175
1708442781.2891803,-2.1419928073883057,-1.333395631318428,-2.526555840169088,6.110833632736959,1.0171462297439575,-3.1964128653155726
1708442781.2912216,-2.1420254707336426,-1.3334128123572846,-2.5265591780291956,6.110843884735861,1.017104983329773,-3.1964672247516077
1708442781.2931995,-2.142042398452759,-1.3333672297051926,-2.526554886494772,6.110841023712911,1.0171537399291992,-3.1964171568499964
1708442781.2952142,-2.142011880874634,-1.3333876144937058,-2.526506010686056,6.110861885338583,1.017091989517212,-3.196442190800802
1708442781.29718,-2.1420300006866455,-1.3334041398814698,-2.5265429655658167,6.110815632134237,1.017158031463623,-3.196437660847799
1708442781.2991986,-2.1420094966888428,-1.333367185001709,-2.526517931615011,6.110824572830953,1.0171866416931152,-3.1964171568499964
1708442781.301212,-2.142042636871338,-1.3334041249803086,-2.5265963713275355,6.1108906147773645,1.0171375274658203,-3.1964333693133753
1708442781.3031855,-2.1419970989227295,-1.3334361922791977,-2.526538674031393,6.110857474594869,1.0171008110046387,-3.196442190800802
1708442781.3051972,-2.1420345306396484,-1.3334128123572846,-2.5265148321734827,6.11082016208724,1.0171332359313965,-3.1964367071734827
1708442781.307176,-2.1419928073883057,-1.333383397465088,-2.5265148321734827,6.110857474594869,1.0171332359313965,-3.196415964757101
1708442781.3091836,-2.1420140266418457,-1.3334449094584961,-2.5265677610980433,6.11082016208724,1.0171493291854858,-3.196449581776754
1708442781.3112066,-2.142000436782837,-1.3334244054606934,-2.526564661656515,6.11082016208724,1.0170962810516357,-3.1964409987079065
1708442781.3132062,-2.1420016288757324,-1.333423451786377,-2.5265148321734827,6.110836612969198,1.017166018486023,-3.1964290777789515
1708442781.315204,-2.1420094966888428,-1.333439664249756,-2.5265677610980433,6.110787021904745,1.0171375274658203,-3.196449581776754
1708442781.3172157,-2.1420300006866455,-1.3333551746657868,-2.526527706776754,6.110866534500875,1.017145037651062,-3.1964247862445276
1708442781.3191962,-2.1420016288757324,-1.3333956462195893,-2.5265234152423304,6.110812413483419,1.0171407461166382,-3.1964247862445276
1708442781.321202,-2.1420164108276367,-1.3334362369826813,-2.5265191237079065,6.110873925476827,1.0171778202056885,-3.1964290777789515
1708442781.3232179,-2.1420164108276367,-1.3334277433208008,-2.5265234152423304,6.110833751946249,1.0171865224838257,-3.196432415639059
1708442781.3252065,-2.1419970989227295,-1.33344058812175,-2.5265353361712855,6.1107942936714075,1.0171494483947754,-3.1964409987079065
1708442781.3271942,-2.1420254707336426,-1.3333875995925446,-2.5265396277057093,6.110845553665914,1.017145037651062,-3.196411673222677
1708442781.3291867,-2.1419970989227295,-1.333415837293007,-2.5265148321734827,6.110793101578512,1.0171256065368652,-3.1964128653155726
1708442781.331208,-2.14200496673584,-1.3333999675563355,-2.5265796820269983,6.110850083618917,1.017146110534668,-3.1964247862445276
1708442781.3331902,-2.1420469284057617,-1.333400548701622,-2.5265191237079065,6.110791551857748,1.0171051025390625,-3.196399990712301
1708442781.3351963,-2.142059326171875,-1.333452360039093,-2.5265396277057093,6.110808002739706,1.0171170234680176,-3.1964085737811487
1708442781.3371885,-2.1420207023620605,-1.333439664249756,-2.526588503514425,6.110845553665914,1.0171462297439575,-3.1964290777789515
1708442781.3392012,-2.1420209407806396,-1.3334320050529023,-2.5265677610980433,6.110829102783956,1.0171051025390625,-3.1964367071734827
1708442781.3413074,-2.1419835090637207,-1.3334406179240723,-2.5265591780291956,6.110787021904745,1.0171256065368652,-3.1964009443866175
1708442781.3432295,-2.1420300006866455,-1.3334276688149949,-2.5265515486346644,6.110824572830953,1.0171256065368652,-3.1964896360980433
1708442781.3451915,-2.1420514583587646,-1.3334085208228608,-2.526548449193136,6.110803353577413,1.0171332359313965,-3.1964615027057093
1708442781.3471859,-2.142037868499756,-1.333439664249756,-2.5265234152423304,6.110841023712911,1.017128825187683,-3.196477715169088
1708442781.349173,-2.1420140266418457,-1.333330289726593,-2.526538674031393,6.110807883530416,1.017145037651062,-3.1964734236346644
1708442781.3512218,-2.1419928073883057,-1.3333834272674103,-2.5264785925494593,6.110841023712911,1.017128825187683,-3.196432415639059
1708442781.3531847,-2.1420094966888428,-1.3333791208318253,-2.5264819304095667,6.110866534500875,1.017145037651062,-3.1964452902423304
1708442781.3552196,-2.1420209407806396,-1.3334243607572098,-2.526493851338522,6.110861885338583,1.0171418190002441,-3.196428124104635
1708442781.3571997,-2.1420273780822754,-1.3333713871291657,-2.5264819304095667,6.1108364937599084,1.0171375274658203,-3.1964691321002405
1708442781.3592095,-2.142011880874634,-1.3333913844874878,-2.5264819304095667,6.1108529446418665,1.0171375274658203,-3.1964691321002405
1708442781.3611822,-2.1420207023620605,-1.3334041696837922,-2.526527706776754,6.110812413483419,1.0171746015548706,-3.196444336568014
1708442781.363182,-2.1420164108276367,-1.3334320348552247,-2.5265234152423304,6.110866534500875,1.0171703100204468,-3.196493927632467
1708442781.3651738,-2.142063856124878,-1.3334362369826813,-2.5265191237079065,6.110813963204183,1.0171051025390625,-3.1964572111712855
1708442781.3671792,-2.1420094966888428,-1.333408535724022,-2.526511255894796,6.110861885338583,1.0171616077423096,-3.1964367071734827
1708442781.36917,-2.142000436782837,-1.3333870333484192,-2.526543919240133,6.110841023712911,1.0171494483947754,-3.196420494710104
1708442781.3711865,-2.1420207023620605,-1.3334439408830185,-2.526580874119894,6.110878217011251,1.0171418190002441,-3.1964529196368616
1708442781.3731828,-2.142050266265869,-1.333399937754013,-2.526548449193136,6.110812413483419,1.0171332359313965,-3.196411911641256
1708442781.3751738,-2.142066240310669,-1.3333875995925446,-2.526548449193136,6.110857474594869,1.017129898071289,-3.196456257496969
1708442781.3772016,-2.1420140266418457,-1.3334128272584458,-2.5264950434314173,6.1108754751975916,1.0171418190002441,-3.196432415639059
1708442781.3791776,-2.142042636871338,-1.333395631318428,-2.5265515486346644,6.110795962601461,1.017158031463623,-3.1964734236346644
1708442781.3811853,-2.1420300006866455,-1.3334439557841797,-2.5265069643603724,6.110824572830953,1.0171418190002441,-3.1964367071734827
1708442781.3831787,-2.142029047012329,-1.333399937754013,-2.5265396277057093,6.110845553665914,1.0171213150024414,-3.196428124104635
1708442781.3851793,-2.142059326171875,-1.3334524047425766,-2.5265396277057093,6.11077510097579,1.0171375274658203,-3.196432415639059
1708442781.38719,-2.142103433609009,-1.3334277433208008,-2.5264950434314173,6.110812413483419,1.017079472541809,-3.196448628102438
1708442781.389201,-2.141996145248413,-1.3333748143962403,-2.52651554742922,6.110833632736959,1.0171616077423096,-3.1964452902423304
1708442781.3912244,-2.142037868499756,-1.3334482324174424,-2.5265310446368616,6.11082016208724,1.0171213150024414,-3.1964734236346644
1708442781.3932073,-2.142042398452759,-1.3333875995925446,-2.526503626500265,6.110824572830953,1.0171213150024414,-3.1964896360980433
1708442781.3951962,-2.142037868499756,-1.3334320348552247,-2.5265234152423304,6.110784160881796,1.0171375274658203,-3.1964615027057093
1708442781.397208,-2.1420254707336426,-1.333424375658371,-2.526499334965841,6.110857474594869,1.0171213150024414,-3.1964853445636194
1708442781.3991852,-2.1420164108276367,-1.333407239322998,-2.5264907518969935,6.110800492554464,1.01716148853302,-3.1964290777789515
1708442781.4011824,-2.142054796218872,-1.3334128123572846,-2.5264981428729456,6.110829102783956,1.0171332359313965,-3.196448628102438
1708442781.4031863,-2.1420094966888428,-1.3334439408830185,-2.526482884083883,6.110887396126547,1.017145037651062,-3.196444336568014
1708442781.4051898,-2.142037868499756,-1.3334244054606934,-2.526527706776754,6.110887396126547,1.0171051025390625,-3.1964734236346644
1708442781.4071927,-2.1420254707336426,-1.3334190857461472,-2.5264907518969935,6.110845553665914,1.0171213150024414,-3.1965015570269983
1708442781.4091904,-2.1420209407806396,-1.3333956760219117,-2.526487175618307,6.110829102783956,1.0171418190002441,-3.196477715169088
1708442781.4111907,-2.1420254707336426,-1.333399922852852,-2.526499334965841,6.110769259720602,1.0171051025390625,-3.196444336568014
1708442781.4131932,-2.1420164108276367,-1.3333704334548493,-2.5265026728259485,6.1108213541801355,1.0171996355056763,-3.196477715169088
1708442781.4151788,-2.1420061588287354,-1.333392010336258,-2.5265026728259485,6.110779511719503,1.0171387195587158,-3.196411911641256
1708442781.417206,-2.142000436782837,-1.3334128123572846,-2.526499334965841,6.11077510097579,1.017146110534668,-3.196428124104635
1708442781.4192111,-2.1419835090637207,-1.3334200245193024,-2.526487175618307,6.11080955246047,1.0171332359313965,-3.1964529196368616
1708442781.4212048,-2.1420140266418457,-1.3333956909230729,-2.526511255894796,6.110788690834799,1.0171418190002441,-3.1965060869800013
1708442781.4231834,-2.142059326171875,-1.333407239322998,-2.526482884083883,6.110816943436422,1.0171418190002441,-3.1964734236346644
1708442781.425201,-2.142037868499756,-1.333411530857422,-2.526524368916647,6.110833632736959,1.017116904258728,-3.196432415639059
1708442781.4272292,-2.1420209407806396,-1.3333834272674103,-2.526511255894796,6.110861885338583,1.0171256065368652,-3.1964529196368616
1708442781.429192,-2.142033338546753,-1.333477572803833,-2.526524368916647,6.110816943436422,1.017129898071289,-3.196449581776754
1708442781.4312055,-2.1420300006866455,-1.3334085208228608,-2.526475254689352,6.110861885338583,1.0170925855636597,-3.1965273062335413
1708442781.4331932,-2.142033338546753,-1.33341999471698,-2.5265124479876917,6.110770571022787,1.0171703100204468,-3.196411673222677
1708442781.43519,-2.1420164108276367,-1.3334234666875382,-2.526475254689352,6.110781180649557,1.0171332359313965,-3.1964572111712855
1708442781.4372108,-2.142042636871338,-1.33344058812175,-2.526475254689352,6.110791432648458,1.017129898071289,-3.1964615027057093
1708442781.4392114,-2.1420865058898926,-1.3334072095206757,-2.5265079180346888,6.1107438681419275,1.0171051025390625,-3.196482006703512
1708442781.4413183,-2.1420388221740723,-1.3334482622197648,-2.5264676252948206,6.11077510097579,1.017134428024292,-3.1964128653155726
1708442781.4432418,-2.142059326171875,-1.3334405583194275,-2.526479784642355,6.110793101578512,1.0170480012893677,-3.196437660847799
1708442781.4451923,-2.142075300216675,-1.3334158223918458,-2.5264020601855677,6.110816943436422,1.017118215560913,-3.1964290777789515
1708442781.447213,-2.1421000957489014,-1.333383397465088,-2.5263946692096155,6.110851633339681,1.0171256065368652,-3.196453873311178
1708442781.449199,-2.142037868499756,-1.3334320348552247,-2.526403252278463,6.11080955246047,1.0171136856079102,-3.1963635126696985
1708442781.4512343,-2.142029047012329,-1.3334072840264817,-2.5263662973987024,6.110788571625509,1.0170893669128418,-3.196434561406271
1708442781.4531844,-2.1420140266418457,-1.3333986562541504,-2.5263825098620813,6.1108213541801355,1.0171507596969604,-3.1964128653155726
1708442781.4551969,-2.142063856124878,-1.3333914142898102,-2.52641207376589,6.110770571022787,1.017096757888794,-3.1964097658740442
1708442781.457189,-2.142011880874634,-1.3333914291909714,-2.52635103860964,6.110793101578512,1.0171136856079102,-3.1964052359210413
1708442781.4592013,-2.1420094966888428,-1.3334115755609055,-2.526395622883932,6.110791432648458,1.0171668529510498,-3.1964052359210413
1708442781.4612236,-2.1420469284057617,-1.333431990151741,-2.5263388792621058,6.110818493157186,1.017080545425415,-3.196385208760397
1708442781.46319,-2.1420209407806396,-1.3334158223918458,-2.5263641516314905,6.110772239952841,1.0171136856079102,-3.1964014212237757
1708442781.4651823,-2.14200496673584,-1.3333956462195893,-2.526334349309103,6.1108213541801355,1.0171267986297607,-3.1963732878314417
1708442781.4671998,-2.142054796218872,-1.3334567856839676,-2.5264044443713587,6.110806572228231,1.017118215560913,-3.196328941975729
1708442781.4691808,-2.1420865058898926,-1.3334200096181412,-2.526342217122213,6.110802042275228,1.017109990119934,-3.1963170210467737
1708442781.471226,-2.1419880390167236,-1.3334115606597443,-2.5263806025134485,6.110793101578512,1.017085075378418,-3.1963301340686243
1708442781.473209,-2.1420164108276367,-1.3334115606597443,-2.5263553301440638,6.110731947212972,1.017096757888794,-3.1963051001178187
1708442781.4751976,-2.142042636871338,-1.33337918043647,-2.5264087359057825,6.110718476563253,1.0171055793762207,-3.1962817350970667
1708442781.47719,-2.1420254707336426,-1.3334041398814698,-2.5263596216784876,6.110793101578512,1.0170525312423706,-3.196249310170309
1708442781.479181,-2.142054796218872,-1.333383397465088,-2.5263095537768763,6.110793101578512,1.017068862915039,-3.1962254683123987
1708442781.4812102,-2.1420300006866455,-1.3334286671927948,-2.526325766240255,6.110723006516256,1.0170612335205078,-3.19617730775942
1708442781.4832172,-2.1420843601226807,-1.3333757829717179,-2.5264044443713587,6.110764729767599,1.0170655250549316,-3.1961122194873255
1708442781.4851966,-2.1419970989227295,-1.3334524047425766,-2.5263925234424036,6.110710727959432,1.0170568227767944,-3.1961384455310267
1708442781.4871964,-2.142050266265869,-1.333424375658371,-2.5263431707965296,6.1107603190238855,1.0170196294784546,-3.1961258093463343
1708442781.4891996,-2.1420772075653076,-1.333439664249756,-2.5264044443713587,6.11074839809493,1.0170655250549316,-3.1960695425616663
1708442781.4912043,-2.1419925689697266,-1.3333705973676224,-2.5263312498675745,6.11078571060256,1.0170371532440186,-3.19602877298464
1708442781.4931746,-2.142000436782837,-1.3334604513696213,-2.5263388792621058,6.110731947212972,1.017048954963684,-3.195960585271017
1708442781.4952142,-2.142068386077881,-1.3334085059216996,-2.526330057774679,6.110749947815695,1.0170533657073975,-3.1959243456469935
1708442781.4971783,-2.142033338546753,-1.3333586615375062,-2.5263999144183558,6.110686886101522,1.017033576965332,-3.195925537739889
1708442781.4992278,-2.142033338546753,-1.3334115606597443,-2.526318136845724,6.11073778846816,1.0170446634292603,-3.195869270955221
1708442781.5011883,-2.1420254707336426,-1.3334362220815201,-2.5263596216784876,6.110650884896078,1.0170458555221558,-3.1958046595202845
1708442781.5031857,-2.1420164108276367,-1.3334474873593827,-2.5263388792621058,6.110664355545797,1.0170414447784424,-3.1957364718066614
1708442781.5052023,-2.142042398452759,-1.3333834123662491,-2.526334349309103,6.11060785034255,1.0170130729675293,-3.1957343260394495
1708442781.5071828,-2.1420798301696777,-1.3334361624768754,-2.5263968149768274,6.110649812012472,1.0170371532440186,-3.1956167856799524
1708442781.509187,-2.142037868499756,-1.3334128272584458,-2.52635103860964,6.110670435219564,1.017020583152771,-3.195547882710592
1708442781.5112174,-2.1420388221740723,-1.3333587360433121,-2.52635103860964,6.110670435219564,1.017008662223816,-3.195538345967428
1708442781.5131867,-2.1419835090637207,-1.3334320050529023,-2.526371781026022,6.110604870110311,1.0170217752456665,-3.1954825560199183
1708442781.515198,-2.1420342922210693,-1.3333956909230729,-2.526330057774679,6.11062120178298,1.0170217752456665,-3.1953986326800745
1708442781.5171785,-2.1419880390167236,-1.3334041249803086,-2.52635103860964,6.110649812012472,1.017033576965332,-3.195293966923849
1708442781.519187,-2.142063856124878,-1.333424375658371,-2.526371781026022,6.110625731735983,1.0169727802276611,-3.1951938311206263
1708442781.5212667,-2.1420469284057617,-1.3333424639752884,-2.526342217122213,6.110571729927816,1.017005205154419,-3.1951218287097376
1708442781.5231817,-2.142033338546753,-1.3334072691253205,-2.5263879934894007,6.110663401871481,1.0169965028762817,-3.1950095335589808
1708442781.5251837,-2.142037868499756,-1.333346740608551,-2.5264325777636927,6.110637652664938,1.0169845819473267,-3.194885317479269
1708442781.5271802,-2.142066240310669,-1.3334234815886994,-2.5263589064227503,6.110642063408651,1.0169932842254639,-3.1948304812060755
1708442781.5291803,-2.1420300006866455,-1.333387629394867,-2.5263763109790247,6.11059735992507,1.0169932842254639,-3.194677178059713
1708442781.5311859,-2.142054796218872,-1.3334524196437378,-2.526363197957174,6.110606419831075,1.01698899269104,-3.1946194807635706
1708442781.5332007,-2.1420094966888428,-1.3333834421685715,-2.52635103860964,6.1106183407600305,1.0170007944107056,-3.1944828669177454
1708442781.5351944,-2.142033338546753,-1.3334361922791977,-2.5263879934894007,6.110612261086263,1.0170173645019531,-3.1943913141833704
1708442781.5371823,-2.142054796218872,-1.3333629381707688,-2.526363197957174,6.110663401871481,1.0170007944107056,-3.1942229906665247
1708442781.539202,-2.1420199871063232,-1.3334277433208008,-2.526395622883932,6.110592949181356,1.0170217752456665,-3.1941195170031946
1708442781.5412745,-2.1420209407806396,-1.3334439408830185,-2.52635103860964,6.110613810807028,1.0170501470565796,-3.193946425114767
1708442781.5432184,-2.1420514583587646,-1.3334329438260575,-2.5263212362872522,6.11059735992507,1.0170576572418213,-3.193848196660177
1708442781.5452218,-2.1420681476593018,-1.3334482175162812,-2.5264044443713587,6.110595929413595,1.0170007944107056,-3.193643395100729
1708442781.5471873,-2.142054796218872,-1.3334361922791977,-2.5263388792621058,6.110651123314657,1.0170414447784424,-3.193495575581686
1708442781.5491796,-2.1420140266418457,-1.3334361922791977,-2.526371781026022,6.11065565326766,1.017033576965332,-3.1933847109424036
1708442781.551228,-2.1419880390167236,-1.3333956909230729,-2.526383701954977,6.110625731735983,1.017008662223816,-3.1932247320758265
1708442781.5531864,-2.1420061588287354,-1.3334766638330002,-2.5264044443713587,6.110667812615194,1.017033576965332,-3.193052593861715
1708442781.5552282,-2.142054796218872,-1.3334041398814698,-2.5263763109790247,6.1106018898780725,1.017048954963684,-3.192930285130636
1708442781.5572116,-2.1419880390167236,-1.333439664249756,-2.5263553301440638,6.110616671829977,1.0170576572418213,-3.192725483571188
1708442781.5591834,-2.1420300006866455,-1.3333875995925446,-2.526383701954977,6.110606419831075,1.017048954963684,-3.192598883305685
1708442781.5612035,-2.1420469284057617,-1.3334523749402543,-2.5263589064227503,6.1106018898780725,1.0170533657073975,-3.1923654715167444
1708442781.5631757,-2.1420061588287354,-1.333410532479622,-2.526346508656637,6.110609400063314,1.0170371532440186,-3.1921866575824183
1708442781.5652,-2.1420910358428955,-1.3334200096181412,-2.526407543812887,6.11062120178298,1.0170371532440186,-3.191969935094015
1708442781.5672162,-2.142059326171875,-1.3333999526551743,-2.526403252278463,6.110630261688986,1.017114281654358,-3.191808048878805
1708442781.569208,-2.1420514583587646,-1.3334158223918458,-2.526375118886129,6.11065565326766,1.0170949697494507,-3.1915915648089808
1708442781.5712073,-2.1420342922210693,-1.3334277284196396,-2.5263870398150843,6.110637652664938,1.0170774459838867,-3.1913960615741175
1708442781.573181,-2.1420300006866455,-1.333514155154564,-2.5263827482806605,6.110555279045858,1.0171267986297607,-3.1911233107196253
1708442781.5752134,-2.142063856124878,-1.3334439408830185,-2.526383701954977,6.110637652664938,1.017122507095337,-3.190920654927389
1708442781.5772223,-2.1420209407806396,-1.3334115606597443,-2.52641207376589,6.110592949181356,1.017109990119934,-3.190627638493673
1708442781.579189,-2.1420094966888428,-1.333402932887413,-2.5263589064227503,6.1106018898780725,1.017118215560913,-3.1903963724719446
1708442781.5812364,-2.1420514583587646,-1.3334115606597443,-2.526383701954977,6.1106228707130334,1.017129898071289,-3.1901052633868616
1708442781.583197,-2.142042398452759,-1.33344820261512,-2.526407543812887,6.110651123314657,1.0171616077423096,-3.1898658911334437
1708442781.5852153,-2.1419758796691895,-1.3334115457585831,-2.52641207376589,6.110589730530538,1.0171778202056885,-3.189578358327047
1708442781.5872009,-2.1420140266418457,-1.3334158223918458,-2.5263870398150843,6.110592949181356,1.0171856880187988,-3.1892936865436
1708442781.5891924,-2.1420300006866455,-1.3334115606597443,-2.526428286229269,6.110660183220663,1.0171735286712646,-3.1890433470355433
1708442781.5912356,-2.1419835090637207,-1.3334482175162812,-2.526395622883932,6.110571729927816,1.0172019004821777,-3.188723866139547
1708442781.5932035,-2.14200496673584,-1.3334766340306778,-2.526423756276266,6.110571729927816,1.0172019004821777,-3.1884408632861536
1708442781.595198,-2.1419925689697266,-1.3334320199540635,-2.526419464741842,6.1107003567512415,1.0171407461166382,-3.1881900469409388
1708442781.5972323,-2.1420094966888428,-1.333439664249756,-2.5264273325549524,6.1105642197425745,1.017181396484375,-3.187822167073385
1708442781.5992093,-2.1419880390167236,-1.3333999526551743,-2.526403252278463,6.1106183407600305,1.0172184705734253,-3.1874735991107386
1708442781.6012263,-2.141996145248413,-1.3334234666875382,-2.5263989607440394,6.1105761406715295,1.0172019004821777,-3.18717867532839
1708442781.6032238,-2.1419801712036133,-1.3333919805339356,-2.5264480749713343,6.110625731735983,1.0172467231750488,-3.186774555836813
1708442781.6052139,-2.142000436782837,-1.3333870631507416,-2.5264185110675257,6.11057327964858,1.017225980758667,-3.1864145437823694
1708442781.6071851,-2.142042398452759,-1.3334041398814698,-2.5264230410205286,6.110585200577535,1.0172423124313354,-3.186014000569479
1708442781.6091924,-2.1420726776123047,-1.3334286224893113,-2.526475254689352,6.1105806706245325,1.0172785520553589,-3.18567139307131
1708442781.6112149,-2.1420254707336426,-1.3334158223918458,-2.526447121297018,6.110643732338705,1.0173026323318481,-3.1852601210223597
1708442781.61318,-2.1420140266418457,-1.3334115606597443,-2.52645451227297,6.110567080765524,1.017317771911621,-3.184910837803976
1708442781.6152103,-2.1419687271118164,-1.333432064657547,-2.526470963154928,6.110522258072653,1.0173470973968506,-3.184481207524435
1708442781.6172307,-2.1420016288757324,-1.333424375658371,-2.5265069643603724,6.110625731735983,1.0173745155334473,-3.184042517338888
1708442781.6191807,-2.1419925689697266,-1.33344820261512,-2.5265515486346644,6.11059735992507,1.0173745155334473,-3.1836960951434534
1708442781.621211,-2.1419644355773926,-1.3334041398814698,-2.5265472571002405,6.1106183407600305,1.017398715019226,-3.1832690874682825
1708442781.6231875,-2.141993761062622,-1.3334062558463593,-2.526572291051046,6.110543358116903,1.0173944234848022,-3.1828773657428187
1708442781.6252148,-2.1419970989227295,-1.3334362220815201,-2.5265963713275355,6.110633122711935,1.0173778533935547,-3.1823533217059534
1708442781.6271896,-2.1419835090637207,-1.3334072691253205,-2.5265963713275355,6.110613810807028,1.0174262523651123,-3.1819022337542933
1708442781.6292074,-2.1420061588287354,-1.3334524196437378,-2.526562277470724,6.110595929413595,1.0174705982208252,-3.1814516226397913
1708442781.6312132,-2.1419732570648193,-1.333448277120926,-2.526604239140646,6.110637652664938,1.0174369812011719,-3.1809564272509974
1708442781.6331868,-2.141989231109619,-1.3334234666875382,-2.526583258305685,6.110688435822286,1.0174576044082642,-3.1804843584643763
1708442781.6352124,-2.141998052597046,-1.3334439259818573,-2.5265875498401087,6.1105642197425745,1.017498254776001,-3.1799939314471644
1708442781.637185,-2.142002582550049,-1.3334277433208008,-2.526619259511129,6.110592949181356,1.0175472497940063,-3.179530922566549
1708442781.6392174,-2.142014980316162,-1.3334885847619553,-2.5266149679767054,6.1106228707130334,1.017554759979248,-3.1789830366717737
1708442781.641251,-2.1419663429260254,-1.3334524196437378,-2.526676956807272,6.110543358116903,1.017591118812561,-3.178459946309225
1708442781.6433039,-2.1419529914855957,-1.3334524643472214,-2.5266268889056605,6.110613810807028,1.0175867080688477,-3.177953545247213
1708442781.6452124,-2.141949415206909,-1.3334158223918458,-2.526663843785421,6.110630261688986,1.017594337463379,-3.1773818174945276
1708442781.6471891,-2.141989231109619,-1.3334928762963791,-2.5267086664782923,6.110609280854025,1.0176151990890503,-3.1768341700183313
1708442781.6491787,-2.1419618129730225,-1.3334886592677613,-2.5266955534564417,6.1106018898780725,1.0176512002944946,-3.17631179491152
1708442781.651165,-2.141982316970825,-1.33345182359729,-2.526691261922018,6.110588419228353,1.0176764726638794,-3.175760332738058
1708442781.653199,-2.141982316970825,-1.333439664249756,-2.526675049458639,6.110651123314657,1.0176467895507812,-3.1752212683307093
1708442781.6551838,-2.141928195953369,-1.3334191006473084,-2.526731554661886,6.110552418022909,1.01768159866333,-3.174723450337545
1708442781.6571903,-2.141953945159912,-1.3333942604115983,-2.526731554661886,6.110646593361654,1.0177397727966309,-3.1741283575641077
1708442781.659178,-2.1420071125030518,-1.3334647429040452,-2.5267229715930384,6.110663401871481,1.0177756547927856,-3.173577133809225
1708442781.6611915,-2.141937017440796,-1.3334439408830185,-2.5267513434039515,6.11058388927535,1.0177594423294067,-3.172957722340719
1708442781.6632042,-2.141899824142456,-1.3334561896375199,-2.526788298283712,6.1106183407600305,1.0177913904190063,-3.1723230520831507
1708442781.6651928,-2.141937017440796,-1.3334689450315018,-2.526794735585348,6.11062120178298,1.0177783966064453,-3.171643082295553
1708442781.6671987,-2.141958475112915,-1.333435298209526,-2.5268121401416224,6.110646593361654,1.0178436040878296,-3.171094004307882
1708442781.6692033,-2.14190411567688,-1.3334842187217255,-2.526794497166769,6.110637652664938,1.017827033996582,-3.1704164187060755
1708442781.6712058,-2.141958475112915,-1.3334072691253205,-2.52682334581484,6.1106183407600305,1.0178720951080322,-3.1697991530047815
1708442781.6731987,-2.141939163208008,-1.333414838915207,-2.526811424885885,6.110634672432699,1.0178676843643188,-3.169136349354879
1708442781.6751842,-2.1419506072998047,-1.3334234666875382,-2.5268309752093714,6.110630261688986,1.0178992748260498,-3.1685624758349817
1708442781.6772215,-2.1419551372528076,-1.333427758221962,-2.526851479207174,6.110613810807028,1.0179318189620972,-3.167870108281271
1708442781.6791885,-2.1419131755828857,-1.3334723871997376,-2.5268667379962366,6.110681283264913,1.0179636478424072,-3.167201821004049
1708442781.6812203,-2.1418964862823486,-1.3334799420884629,-2.5268994013415735,6.110672461777487,1.0179507732391357,-3.166590992604391
1708442781.6831892,-2.1419222354888916,-1.3335047972253342,-2.5269246737109583,6.110630261688986,1.017974853515625,-3.165908400212423
1708442781.6851764,-2.1419479846954346,-1.3334723871997376,-2.52685791650881,6.110648262291708,1.0180197954177856,-3.1652327219592493
1708442781.6871872,-2.141972064971924,-1.33345182359729,-2.526919190083639,6.110642182617941,1.0180305242538452,-3.1646066347705286
1708442781.6891801,-2.1419007778167725,-1.333508388405182,-2.526963774357931,6.110658871918478,1.018087387084961,-3.1639278570758265
1708442781.6912394,-2.1418938636779785,-1.33345519125972,-2.5269442240344446,6.110612261086263,1.0180948972702026,-3.1632278601275843
1708442781.6932085,-2.141869068145752,-1.3334713888219376,-2.526992384587423,6.110592949181356,1.0181320905685425,-3.162499968205587
1708442781.6951873,-2.1418893337249756,-1.333491863017418,-2.5269256273852747,6.1105806706245325,1.0181684494018555,-3.161819044743673
1708442781.6972258,-2.1418533325195312,-1.3335071516088028,-2.527012888585226,6.1106183407600305,1.0181596279144287,-3.1611600557910364
1708442781.6991925,-2.1418328285217285,-1.3334507954171677,-2.5270355383502405,6.110646593361654,1.018208622932434,-3.1604166666613978
1708442781.7011998,-2.1418709754943848,-1.3335233491710206,-2.5270610491382044,6.110625731735983,1.0182437896728516,-3.1597254912005823
1708442781.7031775,-2.1418211460113525,-1.3334756654552002,-2.527043883000509,6.110630261688986,1.01827073097229,-3.1589506308185022
1708442781.70519,-2.1418912410736084,-1.3335114282420655,-2.5270350615130823,6.110588419228353,1.01829195022583,-3.158229176198141
1708442781.7072146,-2.1418912410736084,-1.3335318279317399,-2.5270708242999476,6.110571729927816,1.0183734893798828,-3.1574159304248255
1708442781.7092128,-2.1418709754943848,-1.3335431528142472,-2.5271199385272425,6.1106183407600305,1.0184054374694824,-3.1567142645465296
1708442781.7111838,-2.1418392658233643,-1.333584190612175,-2.5271809736834925,6.110651004105367,1.0183923244476318,-3.156001631413595
1708442781.7131855,-2.1418392658233643,-1.3335352700999756,-2.5271440188037317,6.110663401871481,1.0183794498443604,-3.1553123633014124
1708442781.7152245,-2.1417691707611084,-1.3335233491710206,-2.527163569127218,6.110634672432699,1.0184402465820312,-3.1545046011554163
1708442781.7172425,-2.141796588897705,-1.3335679930499573,-2.527135197316305,6.110625731735983,1.0184600353240967,-3.15372878709902
1708442781.7191904,-2.141826868057251,-1.3335626286319275,-2.5271995703326624,6.110651123314657,1.0185134410858154,-3.152958695088522
1708442781.7212048,-2.141826868057251,-1.3335345101407547,-2.527191702519552,6.1106018898780725,1.0184710025787354,-3.152184549962179
1708442781.7231867,-2.141789674758911,-1.3335560721210022,-2.52720290819277,6.110642063408651,1.0185604095458984,-3.151383940373556
1708442781.7252054,-2.141770124435425,-1.3335352700999756,-2.5272439161883753,6.11062120178298,1.0185604095458984,-3.150609795247213
1708442781.7272,-2.1417746543884277,-1.3335636270097275,-2.5272672812091272,6.1106839058692834,1.0186089277267456,-3.149871889744894
1708442781.7291982,-2.1417791843414307,-1.3336158257773896,-2.527283493672506,6.110643732338705,1.0186488628387451,-3.1490851084338587
1708442781.731272,-2.141765832901001,-1.3335309040597458,-2.527308527623312,6.110552298813619,1.018685221672058,-3.14828068414797
1708442781.7332237,-2.1417746543884277,-1.333584190612175,-2.5273399988757532,6.110642182617941,1.0187093019485474,-3.147538963948385
1708442781.7351813,-2.141770124435425,-1.3335755479386826,-2.5273030439959925,6.110652792244711,1.0187005996704102,-3.146780316029684
1708442781.7372363,-2.1417622566223145,-1.333559350376465,-2.5273192564593714,6.110603320389547,1.0187321901321411,-3.145984951649801
1708442781.7391942,-2.1417713165283203,-1.3335550737432023,-2.5273149649249476,6.11062120178298,1.0187606811523438,-3.1451738516436976
1708442781.7412453,-2.1417713165283203,-1.3336072725108643,-2.5273640791522425,6.110642182617941,1.0188053846359253,-3.144426409398214
1708442781.743283,-2.1417338848114014,-1.3335474294475098,-2.527313772832052,6.110609280854025,1.0188740491867065,-3.143700186406271
1708442781.7452307,-2.141721487045288,-1.3335388761809845,-2.527346674595968,6.110646593361654,1.0188729763031006,-3.1429410616504114
1708442781.7472303,-2.1416807174682617,-1.3336082708886643,-2.527383867894308,6.110660183220663,1.018885612487793,-3.1421812216388147
1708442781.74921,-2.1416897773742676,-1.3335791540196915,-2.527456823979513,6.110609280854025,1.018909215927124,-3.1413939634906214
1708442781.7512074,-2.141726016998291,-1.3335834306529541,-2.5274153391467493,6.110616671829977,1.0189168453216553,-3.1405954996692103
1708442781.7532082,-2.1417393684387207,-1.3336817187121888,-2.5274394194232386,6.110609280854025,1.018970251083374,-3.139808718358175
1708442781.7551897,-2.141695261001587,-1.333587796693184,-2.527438465748922,6.1106228707130334,1.0189697742462158,-3.138970915471212
1708442781.7572355,-2.141711950302124,-1.3336158257773896,-2.527454678212301,6.110642182617941,1.018977165222168,-3.1381145159350794
1708442781.7592056,-2.1416332721710205,-1.3335507077029725,-2.527438465748922,6.110618221550741,1.0190459489822388,-3.1373325029956263
1708442781.7612188,-2.1416544914245605,-1.3336158257773896,-2.527482811604635,6.1106183407600305,1.019086241722107,-3.136581007634298
1708442781.763199,-2.1416172981262207,-1.333611549144127,-2.527466599141256,6.110634672432699,1.0190329551696777,-3.1357553640948694
1708442781.7652407,-2.1415889263153076,-1.3336145889810105,-2.527482811604635,6.110625731735983,1.0191268920898438,-3.134951893483297
1708442781.7672575,-2.14164662361145,-1.33366014183078,-2.5274491945849817,6.110637652664938,1.0190601348876953,-3.1341331640826624
1708442781.769177,-2.1416306495666504,-1.3335663092187424,-2.5274909178363245,6.110576259880819,1.0191333293914795,-3.13330585161318
1708442781.771221,-2.141594409942627,-1.3336558800986786,-2.5275102297412317,6.110646593361654,1.019153118133545,-3.132531706486837
1708442781.7731924,-2.141624927520752,-1.3336354804090043,-2.5275147596942347,6.110637652664938,1.0191770792007446,-3.1316714922534388
1708442781.775214,-2.14159893989563,-1.3336720776608963,-2.527538601552145,6.110630261688986,1.0191893577575684,-3.130817715321676
1708442781.7772136,-2.1415536403656006,-1.3335953515819092,-2.527538601552145,6.1106454012687585,1.019245982170105,-3.129982058201925
1708442781.779217,-2.14158296585083,-1.3336039942554017,-2.5275548140155237,6.110592949181356,1.0192699432373047,-3.129195753728048
1708442781.7812362,-2.1415581703186035,-1.333598719244339,-2.5275505224811,6.110585200577535,1.019335150718689,-3.1283159891711634
1708442781.7832012,-2.1415839195251465,-1.333636076455452,-2.5275548140155237,6.110646593361654,1.0192972421646118,-3.127537790928976
1708442781.7852254,-2.1415793895721436,-1.3335706752589722,-2.527619187031881,6.1106018898780725,1.0193047523498535,-3.126726214085714
1708442781.7871907,-2.1415750980377197,-1.3336601567319413,-2.527599636708395,6.110585200577535,1.0193703174591064,-3.12590462366213
1708442781.7892182,-2.1415467262268066,-1.333636076455452,-2.527611796055929,6.110643732338705,1.0193378925323486,-3.1250444094287317
1708442781.7912602,-2.1416053771972656,-1.333611549144127,-2.5276270548449915,6.1106393215949915,1.0193498134613037,-3.1242662111865442
1708442781.7932389,-2.1415441036224365,-1.3336158257773896,-2.5276227633105677,6.110609400063314,1.0193814039230347,-3.1234970728503626
1708442781.7952323,-2.1415512561798096,-1.3335464310697098,-2.5276358763324183,6.110613810807028,1.0193936824798584,-3.1226256529437464
1708442781.7971857,-2.141465425491333,-1.333598719244339,-2.527613941823141,6.1106183407600305,1.0194177627563477,-3.121800963078634
1708442781.7992458,-2.1414971351623535,-1.3335791540196915,-2.527646843587057,6.1106793759162805,1.0194664001464844,-3.1209502855883997
1708442781.8012607,-2.1414830684661865,-1.3335748773864289,-2.5276880900012415,6.110642182617941,1.0194664001464844,-3.1201441923724573
1708442781.8031957,-2.141453981399536,-1.33358687282119,-2.5277162233935755,6.110585200577535,1.01947021484375,-3.1194141546832483
1708442781.8051898,-2.141479730606079,-1.333598719244339,-2.527698818837301,6.110606419831075,1.019498348236084,-3.1185506025897425
1708442781.80722,-2.141505479812622,-1.3336189550212403,-2.5276499430285853,6.110585200577535,1.019514560699463,-3.1177831331836146
1708442781.8091974,-2.141479730606079,-1.3336189550212403,-2.527682606373922,6.110600220948019,1.019482135772705,-3.1170173327075403
1708442781.8112118,-2.14144229888916,-1.3336635094932099,-2.52771503130068,6.1106228707130334,1.0195343494415283,-3.116169516240255
1708442781.8131943,-2.1414601802825928,-1.3335783046535035,-2.527660671864645,6.110585200577535,1.0195225477218628,-3.11542779604067
1708442781.8151999,-2.1414151191711426,-1.3336145889810105,-2.52776009241213,6.110651123314657,1.0195138454437256,-3.1146274248706263
1708442781.8172083,-2.1413776874542236,-1.3336072725108643,-2.5277677218066614,6.11059735992507,1.0195751190185547,-3.1139376799212855
1708442781.819221,-2.1413564682006836,-1.3336030703834076,-2.5277262369738978,6.11063181140975,1.0195987224578857,-3.1131632963763636
1708442781.8212056,-2.141374349594116,-1.3336231422475358,-2.527754608784811,6.11057327964858,1.0195695161819458,-3.112432305012838
1708442781.823236,-2.141383409500122,-1.3336231422475358,-2.5277469793902796,6.110559808998861,1.0196185111999512,-3.1116376558886927
1708442781.825202,-2.1413629055023193,-1.3336268377355118,-2.5277708212481897,6.110624420433798,1.0196425914764404,-3.110955301915304
1708442781.8272128,-2.141364812850952,-1.3336311143687745,-2.527794901524679,6.110524165421285,1.0196504592895508,-3.110159937535421
1708442781.8292692,-2.141310930252075,-1.3336711686900635,-2.527761999760763,6.110542046814718,1.0196338891983032,-3.109428946171896
1708442781.8312707,-2.141315221786499,-1.3336678755334397,-2.527827803288595,6.110562550812521,1.0197036266326904,-3.108666006718771
1708442781.8332078,-2.141319751739502,-1.3336463135531922,-2.527807060872213,6.110456812172689,1.019670009613037,-3.1078904310809534
1708442781.8351953,-2.1412339210510254,-1.3336311143687745,-2.5278189818011683,6.11043547370986,1.0197117328643799,-3.1070664564715784
1708442781.837211,-2.1412065029144287,-1.3336841028979798,-2.5278144518481653,6.110421049385824,1.0197105407714844,-3.10635215440859
1708442781.8391905,-2.1412155628204346,-1.3336634796908875,-2.5278189818011683,6.110352146416464,1.0197508335113525,-3.105588976536886
1708442781.8412802,-2.141185998916626,-1.3336797219565888,-2.527868096028463,6.110337006836691,1.0197924375534058,-3.1048737207995813
1708442781.8432405,-2.1411678791046143,-1.333650679593422,-2.527868096028463,6.110296952515402,1.0197584629058838,-3.1041062513934534
1708442781.8452237,-2.1411473751068115,-1.3336592328599473,-2.527900997792379,6.110302912979879,1.0197750329971313,-3.1033666769610804
1708442781.8472118,-2.141113519668579,-1.3335973930409928,-2.5278878847705286,6.110298383026876,1.01981520652771,-3.102661673222677
1708442781.849216,-2.1410839557647705,-1.3336473119309922,-2.5278964678393763,6.110275852471151,1.0197741985321045,-3.101853672658102
1708442781.8512132,-2.1410272121429443,-1.3336747598699112,-2.52785832086672,6.1102521298225305,1.0198185443878174,-3.101166073475973
1708442781.8531914,-2.141043186187744,-1.3336225611022492,-2.527870241795675,6.110182034760275,1.0198602676391602,-3.1004186312304896
1708442781.8552318,-2.1410021781921387,-1.3336790216020127,-2.527886692677633,6.110084521561422,1.0198678970336914,-3.099668089543478
1708442781.8571942,-2.1409265995025635,-1.333720089202263,-2.52793533006777,6.1100889323051355,1.0198054313659668,-3.098928515111105
1708442781.8591897,-2.1409389972686768,-1.3336790365031739,-2.5278940836535853,6.1101159928138635,1.019863486289978,-3.0981975237475794
1708442781.8612266,-2.1409037113189697,-1.3336824041656037,-2.5278778711902063,6.110095011978903,1.0198832750320435,-3.097495142613546
1708442781.863217,-2.1408638954162598,-1.3337352734855195,-2.5279386679278772,6.109994637757101,1.0198907852172852,-3.096772019063131
1708442781.8652205,-2.1408345699310303,-1.3336781126311799,-2.5279837290393274,6.109996187477865,1.0199323892593384,-3.0960286299334925
1708442781.8671885,-2.140793800354004,-1.33366251111541,-2.5279791990863245,6.109984624176779,1.0198994874954224,-3.0952938238727015
1708442781.86918,-2.1408116817474365,-1.3336747598699112,-2.5279791990863245,6.109903561859884,1.0199849605560303,-3.0945218245135706
1708442781.8712242,-2.1407525539398193,-1.3337471944144745,-2.5280328432666224,6.109794485359945,1.0199594497680664,-3.0937891642199915
1708442781.8732328,-2.1407368183135986,-1.3337105375579377,-2.528027121220724,6.109791624336996,1.0199836492538452,-3.0931206385241907
1708442781.8751945,-2.1407182216644287,-1.3336705279401322,-2.528006617222921,6.109751331597128,1.0199421644210815,-3.0923758188830774
1708442781.877203,-2.140565872192383,-1.3337071549943467,-2.528027121220724,6.109678017884054,1.019974946975708,-3.091630760823385
1708442781.8791878,-2.140575885772705,-1.333742917781212,-2.5280633608447474,6.109697329788961,1.0200111865997314,-3.090945068989889
1708442781.881229,-2.1405441761016846,-1.3337138009122391,-2.5280872027026575,6.1095971939857385,1.0200425386428833,-3.0901854673968714
1708442781.8831813,-2.140467882156372,-1.3337634068778534,-2.5281201044665735,6.109495627671041,1.02003812789917,-3.089456860219137
1708442781.8852127,-2.140387773513794,-1.3337138009122391,-2.5281646887408655,6.109423744469442,1.0200755596160889,-3.088837210332052
1708442781.8871999,-2.1403558254241943,-1.333754838710167,-2.528135124837057,6.109351980477133,1.0200788974761963,-3.088149134312765
1708442781.889189,-2.14031720161438,-1.3336976927569886,-2.528147045766012,6.109256493836202,1.0201116800308228,-3.0873480478869837
1708442781.891204,-2.1402368545532227,-1.333808035855629,-2.5281546751605433,6.10921739318923,1.0201728343963623,-3.0867233912097376
1708442781.8932023,-2.1401607990264893,-1.333730013375618,-2.5281997362719935,6.109068143158712,1.0201435089111328,-3.0860863367663782
1708442781.8952212,-2.140134334564209,-1.3337181967547913,-2.528210465108053,6.109014379769125,1.020167350769043,-3.0853634516345423
1708442781.8972144,-2.1400043964385986,-1.3337299686721344,-2.5282681624041956,6.1089138863380334,1.0201902389526367,-3.084733311329977
1708442781.899183,-2.1399178504943848,-1.3337746423533936,-2.528308693562643,6.108800399094381,1.020260214805603,-3.0840440432177942
1708442781.9011943,-2.1398277282714844,-1.3337789636901398,-2.5283151308642786,6.108665811806478,1.0202677249908447,-3.0833566824542444
1708442781.903209,-2.1397862434387207,-1.3337746423533936,-2.5283358732806605,6.108624207764425,1.0202953815460205,-3.082787100468771
1708442781.9051983,-2.1396865844726562,-1.333823562865593,-2.5283096472369593,6.108470189362325,1.0203443765640259,-3.0821223894702356
1708442781.9071863,-2.1395723819732666,-1.3338192862323304,-2.528358761464254,6.108366834908285,1.020310640335083,-3.081536595021383
1708442781.9091928,-2.139481544494629,-1.3338556450656434,-2.5284395853625696,6.108205306320944,1.0203807353973389,-3.080944601689474
1708442781.9112213,-2.139385223388672,-1.3338183772614975,-2.528442684804098,6.108114230423727,1.0204205513000488,-3.08032995859255
1708442781.9132109,-2.1393189430236816,-1.3338268262198945,-2.528471056615011,6.1080291149909876,1.020400047302246,-3.0797348658191126
1708442781.915235,-2.139158010482788,-1.333838404422142,-2.5284951368915003,6.107831942826071,1.0204408168792725,-3.0790346304522913
1708442781.9172182,-2.139115810394287,-1.3338097792914887,-2.5285146872149866,6.107733118325033,1.0204644203186035,-3.0784836451159876
1708442781.9192188,-2.1390035152435303,-1.3338504445603867,-2.528583590184347,6.107523667603292,1.0204558372497559,-3.077872339879171
1708442781.921225,-2.1388607025146484,-1.333874524836876,-2.528607432042257,6.107398497849264,1.0205087661743164,-3.077322069798605
1708442781.9231884,-2.1387157440185547,-1.3338375252536316,-2.5286317507373255,6.107200968056478,1.0205204486846924,-3.0767021814929407
1708442781.9252028,-2.138620376586914,-1.333932028417923,-2.5286017099963587,6.107031929283895,1.0205399990081787,-3.076040808354513
1708442781.927191,-2.1384143829345703,-1.3338778924993058,-2.528646771107809,6.106896149903097,1.0205719470977783,-3.0754383246051233
1708442781.9292107,-2.13834810256958,-1.333922417168953,-2.528682533894674,6.106757032662191,1.0206122398376465,-3.07485014597048
1708442781.9312165,-2.138213872909546,-1.3338811707547684,-2.5287590662585657,6.10654758194045,1.0206360816955566,-3.0743446985827845
1708442781.9331865,-2.1380069255828857,-1.3339459312013169,-2.5287590662585657,6.106352078705587,1.0206810235977173,-3.0737531820880335
1708442781.935206,-2.1379189491271973,-1.3339582991651078,-2.5287745634662073,6.106223571091451,1.0207533836364746,-3.0731495062457483
1708442781.9371896,-2.13777494430542,-1.3339744967273255,-2.528851572667257,6.105879771500387,1.0207849740982056,-3.0726340452777308
1708442781.9391928,-2.137594699859619,-1.3339572113803406,-2.528853956853048,6.10568534114913,1.0208537578582764,-3.0720630327807825
1708442781.9412348,-2.1373817920684814,-1.3339985770038147,-2.52889854112734,6.105429637223043,1.0208568572998047,-3.071569029484884
1708442781.943281,-2.1371943950653076,-1.334001825456955,-2.5289717356311243,6.105206954270162,1.0209215879440308,-3.0709598700152796
1708442781.9452245,-2.1369667053222656,-1.3340383929065247,-2.5290287176715296,6.104943740158834,1.0210306644439697,-3.070440117512838
1708442781.9472227,-2.136781930923462,-1.3340298545411606,-2.5290187040912073,6.104721057205953,1.0210462808609009,-3.0699248949633997
1708442781.9491923,-2.13664174079895,-1.3339890998652955,-2.5290544668780726,6.104458081513204,1.0210405588150024,-3.06941801706423
1708442781.951196,-2.136404275894165,-1.3340336841395875,-2.529086414967672,6.104178416519918,1.0211129188537598,-3.0689032713519495
1708442781.953198,-2.1361570358276367,-1.3340452772429963,-2.529241148625509,6.103852498322286,1.0211981534957886,-3.0683422724353235
1708442781.9552023,-2.135904550552368,-1.3340733659318467,-2.529186550770895,6.103567111283102,1.0212745666503906,-3.0678427855121058
1708442781.9572031,-2.1357100009918213,-1.3340974313071747,-2.5292628447162073,6.103256094246664,1.0213267803192139,-3.0672903696643274
1708442781.9591906,-2.135458469390869,-1.3341504049352189,-2.52933913866152,6.102928626328268,1.0213828086853027,-3.0667970816241663
1708442781.961188,-2.1352226734161377,-1.3341776889613648,-2.529416624699728,6.10260163524703,1.0214143991470337,-3.066317145024435
1708442781.9632072,-2.1349682807922363,-1.3341412407210846,-2.529381815587179,6.102332103043356,1.021486759185791,-3.065817181264059
1708442781.9652207,-2.134753704071045,-1.3341896694949646,-2.5294788519488733,6.101948010712423,1.021567702293396,-3.0653556028949183
1708442781.9671931,-2.13439679145813,-1.334217147236206,-2.5295267740832728,6.101605522423544,1.0216102600097656,-3.064870897923605
1708442781.9691951,-2.134120464324951,-1.3342494529536744,-2.5295987764941614,6.10121380069808,1.0216913223266602,-3.0644362608539026
1708442781.9712052,-2.133857011795044,-1.3342690479806443,-2.529752556477682,6.100787627487936,1.021804690361023,-3.0639315287219446
1708442781.9731932,-2.133510112762451,-1.3343340021422883,-2.5297351519214075,6.100372183113851,1.0218143463134766,-3.063469473515646
1708442781.975221,-2.133190393447876,-1.3343493354371567,-2.529818121586935,6.099872934609213,1.0219522714614868,-3.0630577246295374
1708442781.9771926,-2.132859230041504,-1.334336594944336,-2.529919687901632,6.099450099259176,1.0220122337341309,-3.062594715748922
1708442781.979207,-2.1325621604919434,-1.334392712717392,-2.5300167242633265,6.099019396096029,1.0221161842346191,-3.062139097844259
1708442781.9811974,-2.1322343349456787,-1.3343842786601563,-2.5300591627704065,6.098578321724691,1.0222082138061523,-3.061686340962545
1708442781.9831908,-2.131887197494507,-1.3343880039504548,-2.530163828526632,6.098172056465902,1.0222723484039307,-3.0612548033343714
1708442781.9851918,-2.13151216506958,-1.3344604831985016,-2.530219618474142,6.097630965500631,1.0223685503005981,-3.0608933607684534
1708442781.9871905,-2.1311123371124268,-1.33451663077388,-2.530323092137472,6.097133266716757,1.0225019454956055,-3.06050688425173
1708442781.9892094,-2.1307177543640137,-1.334499717955925,-2.530440632496969,6.09663091877059,1.0225939750671387,-3.0600250403033655
1708442781.9912522,-2.130363941192627,-1.3345115941813965,-2.530499521886007,6.096113669663229,1.022665023803711,-3.0596256891833704
1708442781.9931922,-2.129940986633301,-1.3345314872315903,-2.530612293873922,6.095542418747701,1.0227534770965576,-3.0592945257769983
1708442781.9952352,-2.129504919052124,-1.3346730035594483,-2.530663077031271,6.094995367317953,1.0228700637817383,-3.058890406285421
1708442781.9972253,-2.129082202911377,-1.3346029382995148,-2.530759398137228,6.094463217049398,1.0229743719100952,-3.0584993998156946
1708442781.9992328,-2.128610134124756,-1.3346236211112519,-2.5308521429644983,6.093896853714742,1.0230748653411865,-3.058119599019186
1708442782.001197,-2.1281633377075195,-1.3346789938262482,-2.5309675375567835,6.093223917275228,1.023182988166809,-3.0577154795276087
1708442782.003191,-2.1276934146881104,-1.3346951615861435,-2.5310798327075403,6.092566120415487,1.0233359336853027,-3.057397190724508
1708442782.0052032,-2.1271557807922363,-1.334767998462059,-2.531165901814596,6.0918829319770715,1.0234805345535278,-3.05700928369631
1708442782.0072207,-2.126652956008911,-1.3347345453551789,-2.5313079992877405,6.091255295067587,1.0235929489135742,-3.056713883076803
1708442782.0091996,-2.126155376434326,-1.334847168331482,-2.5314279238330286,6.090517031937399,1.0236713886260986,-3.056342665349142
1708442782.0111938,-2.1256158351898193,-1.3348267835429688,-2.5315356890307825,6.089827763825216,1.023815631866455,-3.056058708821432
1708442782.0132105,-2.1251187324523926,-1.3349036586335679,-2.531642738972799,6.089075910836019,1.0239685773849487,-3.055772368107931
1708442782.0152032,-2.1245827674865723,-1.3349028092673798,-2.531778875981466,6.088409054070272,1.0240932703018188,-3.0554073492633265
1708442782.0172596,-2.124052047729492,-1.3349388551763077,-2.531912151967184,6.087637650757589,1.0242135524749756,-3.055142943059103
1708442782.0192394,-2.1234359741210938,-1.3350683015635987,-2.5320430437671106,6.086794125824728,1.024357795715332,-3.0548234621631067
1708442782.021211,-2.1227993965148926,-1.3350263696959992,-2.5321760813342493,6.085919129639425,1.0244617462158203,-3.0546184221850794
1708442782.023204,-2.1221578121185303,-1.3350865703872223,-2.532311026250021,6.085135924607076,1.0246719121932983,-3.0542853514300745
1708442782.0252233,-2.121649742126465,-1.3351265054992218,-2.5324843565570276,6.084361421852865,1.024802803993225,-3.054021660481588
1708442782.0272148,-2.1209683418273926,-1.335170255308487,-2.5325914064990442,6.0834622261817834,1.0249338150024414,-3.053795878087179
1708442782.0292194,-2.1203057765960693,-1.3351813566735764,-2.5327280203448694,6.082596885948934,1.0250903367996216,-3.0535391012774866
1708442782.0312355,-2.119654655456543,-1.3352452230504532,-2.5329089800464075,6.08173559883193,1.0252435207366943,-3.0533128420459192
1708442782.033197,-2.118983507156372,-1.3352931451848526,-2.533036772404806,6.080803382187643,1.0254158973693848,-3.0529750029193323
1708442782.0352426,-2.1183626651763916,-1.3354271215251465,-2.5331433455096644,6.079902159958639,1.0255756378173828,-3.0527594725238245
1708442782.0372052,-2.1176698207855225,-1.3354085993817826,-2.5333200136767786,6.078885304718771,1.025728464126587,-3.0525272528277796
1708442782.0392227,-2.116962432861328,-1.335464746957161,-2.5335045496570032,6.078045236855306,1.0259088277816772,-3.0522752443896692
1708442782.041219,-2.116262912750244,-1.3355936718038102,-2.5335784594165247,6.077175366669454,1.0261263847351074,-3.0520923773394983
1708442782.0432954,-2.1155757904052734,-1.335608260040619,-2.5337844530688685,6.076089846878805,1.026254415512085,-3.0518351236926478
1708442782.0452342,-2.1148364543914795,-1.3356358271888276,-2.533936325703756,6.075066196709432,1.026409387588501,-3.0516684691058558
1708442782.047207,-2.1140739917755127,-1.3357237142375489,-2.5341206232654017,6.074072468071737,1.0266072750091553,-3.051476780568258
1708442782.0491874,-2.113325834274292,-1.3358321201852341,-2.5342515150653284,6.073002087860861,1.0267713069915771,-3.0512681643115442
1708442782.0512066,-2.112562894821167,-1.335927577023842,-2.534440342579977,6.071978556900778,1.026918649673462,-3.051117722188131
1708442782.0531948,-2.111767530441284,-1.3359832030585785,-2.5346484819995325,6.070913541107931,1.0271070003509521,-3.050946060811178
1708442782.0552213,-2.111017942428589,-1.336079717879631,-2.534767452870504,6.069837081223287,1.027267575263977,-3.050753657017843
1708442782.0571952,-2.1102454662323,-1.3361183118871232,-2.5348904768573206,6.068883168488302,1.0274478197097778,-3.0506232420550745
1708442782.0591965,-2.1094138622283936,-1.3362274777940293,-2.53511625925173,6.067699658661642,1.0276075601577759,-3.050495688115255
1708442782.061207,-2.1085407733917236,-1.3362941455892106,-2.5352960268603724,6.066615688591757,1.0278128385543823,-3.050328318272726
1708442782.0632026,-2.1077165603637695,-1.3364339482835312,-2.5354469458209437,6.065463650017538,1.028045415878296,-3.0501511732684534
1708442782.0652199,-2.106877088546753,-1.3364779961160203,-2.535651508961813,6.064270961075582,1.0282248258590698,-3.0500147978412073
1708442782.0671952,-2.1059951782226562,-1.3365656000426789,-2.535811249409811,6.063106047898092,1.028457522392273,-3.049908224736349
1708442782.0691857,-2.1051583290100098,-1.3366204363158722,-2.5360236803637903,6.0619555590446375,1.0286840200424194,-3.049739185963766
1708442782.0712123,-2.104280948638916,-1.3367405992797394,-2.5361676851855677,6.060719954758444,1.0288424491882324,-3.0496283213244837
1708442782.073192,-2.1033291816711426,-1.3367965680411835,-2.5363956133471888,6.059523927956381,1.0290021896362305,-3.049500052128927
1708442782.0752327,-2.1024348735809326,-1.3369005781463166,-2.536605183278219,6.058299052506246,1.0292187929153442,-3.0493677298175257
1708442782.0771968,-2.101525068283081,-1.3370004159263154,-2.536739174519674,6.057015764504232,1.029435157775879,-3.0493043104754847
1708442782.0792038,-2.100538969039917,-1.3371158701232453,-2.537004057561056,6.05570541599349,1.0296474695205688,-3.049208704625265
1708442782.0812101,-2.099519968032837,-1.337195025091507,-2.537159029637472,6.054405677109518,1.029860258102417,-3.0490639845477503
1708442782.083198,-2.0985167026519775,-1.3373557937196274,-2.5373969713794153,6.0530316708381555,1.0301170349121094,-3.0489681402789515
1708442782.0852394,-2.097594976425171,-1.3374391061118622,-2.5375593344317835,6.0516929505165,1.030320644378662,-3.0489047209369105
1708442782.0872004,-2.096588134765625,-1.337469444876053,-2.537783924733297,6.050332176476278,1.0305098295211792,-3.0488370100604456
1708442782.0892045,-2.0955936908721924,-1.3376827848008652,-2.5379672686206263,6.048921930580892,1.0307457447052002,-3.048753325139181
1708442782.091234,-2.09458065032959,-1.3377059263041993,-2.538219992314474,6.047592508583822,1.0309741497039795,-3.0486894289599817
1708442782.0931919,-2.093545913696289,-1.3377770346454163,-2.5384283701526087,6.046157824784078,1.0311784744262695,-3.0486837069140833
1708442782.0952032,-2.0924930572509766,-1.3379542243531723,-2.5386233965503138,6.044725286751547,1.0314769744873047,-3.048561159764425
1708442782.0972066,-2.09136962890625,-1.3380653870156785,-2.5388930479632776,6.043290364533224,1.031631350517273,-3.0485428015338343
1708442782.0992107,-2.090308666229248,-1.3381683987430115,-2.5390709082232874,6.041828501015463,1.031908631324768,-3.048551384602682
1708442782.101232,-2.089216709136963,-1.3383531731418152,-2.539295260106222,6.0403883335884,1.0321249961853027,-3.048434082661764
1708442782.1031876,-2.0881142616271973,-1.3384605807117005,-2.5395267645465296,6.038831341057577,1.0323776006698608,-3.0484512487994593
1708442782.1051917,-2.0870206356048584,-1.3385673624328156,-2.53978401819338,6.0374019024665735,1.032622218132019,-3.048394505177633
1708442782.1071868,-2.0858538150787354,-1.338679165845253,-2.5399704615222376,6.035868751793661,1.032809853553772,-3.0483649412738245
1708442782.1091878,-2.084765672683716,-1.3388631802848359,-2.5402475039111536,6.034377801209249,1.0331318378448486,-3.0483673254596155
1708442782.1112115,-2.083554744720459,-1.3389738512090226,-2.540438238774435,6.032815205841818,1.033332109451294,-3.0483136812793177
1708442782.1131945,-2.0824267864227295,-1.3391541254571457,-2.540731732045309,6.031277286797323,1.0335925817489624,-3.048392359410421
1708442782.1151962,-2.081249952316284,-1.3393053871444245,-2.5409675280200403,6.02962754943923,1.033865213394165,-3.0483673254596155
1708442782.1171885,-2.0800442695617676,-1.339501054292061,-2.5412071386920374,6.028063642769613,1.0341014862060547,-3.0483954588519495
1708442782.1192021,-2.0788164138793945,-1.3396442544511338,-2.541429583226339,6.026458251267233,1.0343856811523438,-3.048432175313131
1708442782.121224,-2.077594518661499,-1.339804397230484,-2.541727368031637,6.024889218598165,1.0346633195877075,-3.0483911673175257
1708442782.1231976,-2.0764057636260986,-1.3399359446815033,-2.5419586340533655,6.023245560913839,1.034886360168457,-3.048382584248678
1708442782.1251879,-2.075181007385254,-1.3400781911662598,-2.5422149340258997,6.021520840912618,1.0351312160491943,-3.048504654561178
1708442782.1272185,-2.0739030838012695,-1.3402737391046067,-2.542422358189718,6.01987515667037,1.0354689359664917,-3.0485032240497034
1708442782.1291914,-2.0726418495178223,-1.3404500496438523,-2.5427473227130335,6.018173205643453,1.0357661247253418,-3.0485766569720667
1708442782.1312058,-2.071303129196167,-1.3406412911466141,-2.542999569569723,6.016391980438986,1.036001205444336,-3.048559013997213
1708442782.1332288,-2.070073366165161,-1.3408326667598267,-2.5432663599597376,6.014640915184774,1.0363267660140991,-3.048635546361105
1708442782.1351955,-2.068751811981201,-1.3410563182881852,-2.5435672442065638,6.0130008337791345,1.0366231203079224,-3.048654858266012
1708442782.1372087,-2.0674426555633545,-1.3412182343057175,-2.543802801762716,6.011320221215048,1.036843180656433,-3.0486791769610804
1708442782.1391737,-2.0661427974700928,-1.3414065700820466,-2.5440788904773157,6.009522545128622,1.037148118019104,-3.0487762133227747
1708442782.1412082,-2.064777374267578,-1.3416056346944352,-2.5443013350116175,6.0077401278312585,1.0373679399490356,-3.048755470906393
1708442782.1432595,-2.0635228157043457,-1.3418296736529847,-2.544614378605978,6.006076085358419,1.0376650094985962,-3.0488320032702845
1708442782.1452723,-2.062173366546631,-1.3419965964606781,-2.5448859373675745,6.004208552628317,1.0379494428634644,-3.048842732106344
1708442782.1472611,-2.060824155807495,-1.3422032010606308,-2.545190397893087,6.0025662062461755,1.0382379293441772,-3.048924509678976
1708442782.1491976,-2.05952787399292,-1.3423979890397568,-2.5454989115344446,6.000823366432943,1.0385841131210327,-3.049037758504049
1708442782.1512296,-2.0581841468811035,-1.3426752102426072,-2.5458079020129603,5.999062764435568,1.0388147830963135,-3.0489824453936976
1708442782.1532054,-2.0568509101867676,-1.3428488981774827,-2.5461445490466517,5.997266995697775,1.0391526222229004,-3.0490344206439417
1708442782.1552336,-2.0554521083831787,-1.343101294045784,-2.546394650136129,5.995443928032675,1.0394651889801025,-3.0491519610034388
