Eg3-git/Classifiers/Data Collection/u8/u8abc1_ur3e_joint_states.csv
time,elbow_joint,shoulder_lift_joint,shoulder_pan_joint,wrist_1_joint,wrist_2_joint,wrist_3_joint
1708442753.062918,-2.1418797969818115,-1.333902583723404,-2.5275633970843714,6.111766207009115,1.018957257270813,-2.3664072195636194
1708442753.064889,-2.1418981552124023,-1.3338617545417328,-2.5275352636920374,6.111731993943014,1.018945336341858,-2.3663249651538294
1708442753.0668964,-2.141913890838623,-1.3338821691325684,-2.5275548140155237,6.111761796265402,1.0189334154129028,-2.36638313928713
1708442753.068887,-2.1418752670288086,-1.3338617396405716,-2.5275679270373743,6.111783015518942,1.0189255475997925,-2.366333786641256
1708442753.070924,-2.1418938636779785,-1.3338906925967713,-2.5275428930865687,6.1118109104926965,1.0189018249511719,-2.366412941609518
1708442753.0729003,-2.1418824195861816,-1.333890662794449,-2.5275633970843714,6.1117498753364465,1.01888108253479,-2.36633807817568
1708442753.0749054,-2.1419010162353516,-1.3338744950345536,-2.527566973363058,6.111790048867025,1.0188885927200317,-2.36635929742922
1708442753.0769157,-2.1418585777282715,-1.3338821691325684,-2.5275548140155237,6.1117379544074915,1.018897294998169,-2.36635929742922
1708442753.0789158,-2.1418752670288086,-1.333890662794449,-2.527534310017721,6.111791956215658,1.0188930034637451,-2.366347138081686
1708442753.080912,-2.1418542861938477,-1.3338983368924637,-2.5275428930865687,6.111735093384542,1.0189006328582764,-2.366342608128683
1708442753.0828884,-2.141955852508545,-1.333890662794449,-2.5275428930865687,6.111794578820028,1.0189168453216553,-2.3662694136248987
1708442753.0848875,-2.1418709754943848,-1.33393947899852,-2.5275395552264612,6.111757266312399,1.0188918113708496,-2.3663154284106653
1708442753.0869,-2.1419224739074707,-1.3339233112386246,-2.5275636355029505,6.111740815430441,1.0189006328582764,-2.3662617842303675
1708442753.0888906,-2.1418542861938477,-1.3338531863740464,-2.5275147596942347,6.111758816033163,1.0188723802566528,-2.366246763859884
1708442753.090921,-2.1418631076812744,-1.3338821244290848,-2.5275147596942347,6.111757266312399,1.0189006328582764,-2.3662379423724573
1708442753.0929003,-2.1418864727020264,-1.3338949841311951,-2.5274820963488978,6.111745345383444,1.0189168453216553,-2.366258684788839
1708442753.0949388,-2.1418709754943848,-1.3338617545417328,-2.5275352636920374,6.1117379544074915,1.0188887119293213,-2.3662379423724573
1708442753.0969074,-2.141873836517334,-1.3338940900615235,-2.5275147596942347,6.111745345383444,1.0188961029052734,-2.3662739435779017
1708442753.0989048,-2.1418631076812744,-1.3338583272746583,-2.5275591055499476,6.1117498753364465,1.018909215927124,-2.3662379423724573
1708442753.1009119,-2.1418752670288086,-1.3338540655425568,-2.5275309721576136,6.111761796265402,1.0188723802566528,-2.366251293812887
1708442753.102899,-2.1419179439544678,-1.3339471530965348,-2.5275591055499476,6.111766207009115,1.0188723802566528,-2.3662379423724573
1708442753.1049345,-2.1418709754943848,-1.3338660162738343,-2.5275800863849085,6.1117498753364465,1.0189049243927002,-2.366308037434713
1708442753.1069117,-2.141902208328247,-1.3338498336127778,-2.527494017277853,6.1117334244544885,1.0188767910003662,-2.36623460451235
1708442753.1088903,-2.14186692237854,-1.3338744950345536,-2.5275102297412317,6.111691343575277,1.018909215927124,-2.36623460451235
1708442753.1109583,-2.1418585777282715,-1.333854080443718,-2.5275309721576136,6.11171709278182,1.01885986328125,-2.366279427205221
1708442753.1128914,-2.141902208328247,-1.3338821691325684,-2.527529780064718,6.111747014313497,1.0188686847686768,-2.366246763859884
1708442753.1149194,-2.141850233078003,-1.3338702482036133,-2.5274930636035364,6.111704814224996,1.0188900232315063,-2.366291586552755
1708442753.1168976,-2.141845703125,-1.333898351793625,-2.5275428930865687,6.1117498753364465,1.0189298391342163,-2.366275135670797
1708442753.1189108,-2.141909599304199,-1.3339105707458039,-2.527538601552145,6.1117663262184045,1.0188723802566528,-2.366230074559347
1708442753.1209838,-2.1418867111206055,-1.3338583272746583,-2.5275266806231897,6.111806380539694,1.0188767910003662,-2.3662882486926478
1708442753.1229343,-2.1418373584747314,-1.3338821691325684,-2.5275147596942347,6.111728894501486,1.018884301185608,-2.36623460451235
1708442753.1249151,-2.1419053077697754,-1.3338418465903779,-2.527494017277853,6.111724483757772,1.018909215927124,-2.366267506276266
1708442753.1269155,-2.141895294189453,-1.333893598323204,-2.5275560061084192,6.111688363343038,1.0188887119293213,-2.366255585347311
1708442753.1289144,-2.1419224739074707,-1.333906815653183,-2.527522389088766,6.1117379544074915,1.0189136266708374,-2.366283957158224
1708442753.13093,-2.141902208328247,-1.3338375997594376,-2.5275471846209925,6.111729013710775,1.0189006328582764,-2.366263214741842
1708442753.1328917,-2.141849994659424,-1.333890662794449,-2.527510468159811,6.111679541855612,1.0189093351364136,-2.366242233906881
1708442753.1349163,-2.1418895721435547,-1.3338626486114045,-2.5275147596942347,6.111742484360494,1.0189255475997925,-2.3662005106555384
1708442753.1369145,-2.1418542861938477,-1.3338779223016282,-2.5274985472308558,6.111720073014059,1.0188887119293213,-2.366218153630392
1708442753.1389,-2.1419155597686768,-1.3338583272746583,-2.5275755564319056,6.111775266915121,1.0188723802566528,-2.366230074559347
1708442753.1409056,-2.14189076423645,-1.3338617545417328,-2.527494017277853,6.1117544052894495,1.0189049243927002,-2.3662601153003138
1708442753.1429207,-2.1418542861938477,-1.333890662794449,-2.527505938206808,6.111751425057211,1.0188930034637451,-2.366173330937521
1708442753.1449163,-2.141911268234253,-1.3338788163712998,-2.5275428930865687,6.111697542458334,1.0188887119293213,-2.366246763859884
1708442753.1468952,-2.1418981552124023,-1.3338940900615235,-2.527505938206808,6.111659872322836,1.0189049243927002,-2.36623460451235
1708442753.1489089,-2.141895294189453,-1.3338864159635087,-2.527522389088766,6.1117379544074915,1.0189136266708374,-2.366255585347311
1708442753.1509495,-2.1418864727020264,-1.3338940900615235,-2.5274608770953577,6.111691343575277,1.0189049243927002,-2.366255585347311
1708442753.152904,-2.1418631076812744,-1.3339276325753708,-2.5275309721576136,6.111730563431539,1.0188930034637451,-2.366255585347311
1708442753.1549134,-2.1418981552124023,-1.333955631857254,-2.527538601552145,6.111726033478536,1.0189168453216553,-2.366222683583395
1708442753.1569104,-2.141878128051758,-1.3338498336127778,-2.527538601552145,6.11170648315505,1.0189181566238403,-2.366251293812887
1708442753.1589086,-2.1418709754943848,-1.3338735711625596,-2.5274985472308558,6.111704814224996,1.0189049243927002,-2.366258684788839
1708442753.1609282,-2.141895294189453,-1.3338702482036133,-2.5275233427630823,6.111726033478536,1.0188887119293213,-2.3662644068347376
1708442753.1628952,-2.141911029815674,-1.3338897687247773,-2.527510468159811,6.111676561623373,1.0188930034637451,-2.3662479559527796
1708442753.1649148,-2.1418864727020264,-1.3338983368924637,-2.5275633970843714,6.111664283066549,1.0189049243927002,-2.366206232701437
1708442753.1669123,-2.1418542861938477,-1.3338456016829987,-2.5275800863849085,6.111681091576376,1.0189093351364136,-2.366176430379049
1708442753.1688967,-2.1418542861938477,-1.333866001372673,-2.5275352636920374,6.111636268883505,1.018868088722229,-2.366189781819479
1708442753.170917,-2.141902208328247,-1.3338864159635087,-2.5275755564319056,6.111699092179098,1.0189049243927002,-2.366246763859884
1708442753.1728911,-2.1418416500091553,-1.3338498336127778,-2.5275147596942347,6.111701953202047,1.01894211769104,-2.366255585347311
1708442753.1749263,-2.141895294189453,-1.3338864159635087,-2.5274985472308558,6.111595856934347,1.0189136266708374,-2.366246763859884
1708442753.1768923,-2.1418840885162354,-1.3338055920651932,-2.5275190512286585,6.111679422646322,1.0188974142074585,-2.3662601153003138
1708442753.1788929,-2.14186692237854,-1.333902583723404,-2.5275505224811,6.111639129906454,1.0189049243927002,-2.3661940733539026
1708442753.1809044,-2.141846179962158,-1.3338498336127778,-2.527510468159811,6.111633407860555,1.0189168453216553,-2.3662315050708216
1708442753.1829336,-2.1418709754943848,-1.333866001372673,-2.5275352636920374,6.111598956375875,1.0189255475997925,-2.366156880055563
1708442753.1848922,-2.1418797969818115,-1.333873600964882,-2.5275309721576136,6.111577737122335,1.0189255475997925,-2.366255585347311
1708442753.1869078,-2.14190673828125,-1.3338744950345536,-2.5275233427630823,6.111561286240377,1.0189299583435059,-2.366218153630392
1708442753.188907,-2.1418416500091553,-1.333902583723404,-2.5275922457324427,6.111627208977499,1.018897294998169,-2.366201702748434
1708442753.190897,-2.1418416500091553,-1.3338456016829987,-2.5275505224811,6.111577737122335,1.0189584493637085,-2.366201702748434
1708442753.1929033,-2.1418373584747314,-1.3338455569795151,-2.5275591055499476,6.111516701966085,1.0189006328582764,-2.366197172795431
1708442753.19491,-2.1418259143829346,-1.3338788163712998,-2.5275514761554163,6.111574876099386,1.01885986328125,-2.3662059942828577
1708442753.1969192,-2.1418416500091553,-1.3338129383376618,-2.5275233427630823,6.1115256426628015,1.0188723802566528,-2.366246763859884
1708442753.1989107,-2.141850471496582,-1.3338375997594376,-2.5275514761554163,6.111558425217428,1.0189334154129028,-2.3662434259997767
1708442753.2009027,-2.1418304443359375,-1.3338745099357148,-2.5275548140155237,6.111558425217428,1.018912434577942,-2.366189781819479
1708442753.202893,-2.1418752670288086,-1.3338702482036133,-2.527510468159811,6.111530053406515,1.01894211769104,-2.366239134465353
1708442753.2048934,-2.1418137550354004,-1.3338583272746583,-2.527517859135763,6.111562835961141,1.0189006328582764,-2.366230074559347
1708442753.2069151,-2.141845703125,-1.3338498336127778,-2.5275428930865687,6.111551272660055,1.0188798904418945,-2.366218153630392
1708442753.2089126,-2.1418797969818115,-1.3338412207416077,-2.5275877157794397,6.111542331963339,1.0188887119293213,-2.3661940733539026
1708442753.2109,-2.1418797969818115,-1.3338418465903779,-2.5275352636920374,6.111501800804891,1.0189049243927002,-2.3662434259997767
1708442753.2129009,-2.141850471496582,-1.3338583272746583,-2.5275755564319056,6.1115091917808435,1.018912434577942,-2.366197172795431
1708442753.2149038,-2.141888380050659,-1.3338702482036133,-2.527510468159811,6.111583816796102,1.0189049243927002,-2.366213862095968
1708442753.2169032,-2.1418259143829346,-1.3338583272746583,-2.5275514761554163,6.111531722336569,1.0189378261566162,-2.3662272135363978
1708442753.218923,-2.1418585777282715,-1.3338821691325684,-2.5275800863849085,6.111510741501608,1.0188930034637451,-2.366242233906881
1708442753.2209375,-2.1418631076812744,-1.3338617396405716,-2.527505938206808,6.111539113312521,1.0189334154129028,-2.366189781819479
1708442753.2229483,-2.141850471496582,-1.3338821691325684,-2.5275548140155237,6.111489522248068,1.0188961029052734,-2.3662272135363978
1708442753.224922,-2.1418137550354004,-1.3338950288346787,-2.5275147596942347,6.1114985821540735,1.0189005136489868,-2.366239134465353
1708442753.2269123,-2.141846179962158,-1.3338583272746583,-2.527517859135763,6.111560332566061,1.0188798904418945,-2.366272036229269
1708442753.2289047,-2.1418585777282715,-1.3338333082250138,-2.5275679270373743,6.1115198014076135,1.0188961029052734,-2.366218153630392
1708442753.2309089,-2.1418309211730957,-1.333931879406311,-2.527545992528097,6.111482250481405,1.0189497470855713,-2.366246763859884
1708442753.2328935,-2.1417925357818604,-1.3338659864715119,-2.5275028387652796,6.111473190575399,1.0188754796981812,-2.366274897252218
1708442753.234913,-2.141818046569824,-1.333857388501503,-2.527522389088766,6.111510741501608,1.0189080238342285,-2.3662763277636927
1708442753.2369013,-2.1418347358703613,-1.3338256490281601,-2.5275922457324427,6.111407506256857,1.0188798904418945,-2.36623460451235
1708442753.2388926,-2.1417970657348633,-1.3338626635125657,-2.527538601552145,6.111511933594503,1.0189496278762817,-2.366230074559347
1708442753.240897,-2.1418304443359375,-1.3338213872960587,-2.5275591055499476,6.111444818764486,1.0189212560653687,-2.366225783024923
1708442753.2429078,-2.141818046569824,-1.3338213872960587,-2.527538601552145,6.111491191178121,1.0189168453216553,-2.3662882486926478
1708442753.244927,-2.1417856216430664,-1.3338256490281601,-2.5274973551379603,6.11147021034316,1.0189247131347656,-2.3662689367877405
1708442753.2469053,-2.1417813301086426,-1.3338702482036133,-2.527522150670187,6.11147021034316,1.0189290046691895,-2.36623460451235
1708442753.2488918,-2.141801357269287,-1.333898351793625,-2.5275965372668665,6.111458289414205,1.018912434577942,-2.3662095705615442
1708442753.250905,-2.141801357269287,-1.3338540655425568,-2.52755576768984,6.111467349320211,1.018945336341858,-2.366222683583395
1708442753.2528913,-2.141801357269287,-1.3338831079057236,-2.5275800863849085,6.111497151642599,1.0189255475997925,-2.3662360350238245
1708442753.2549148,-2.1417813301086426,-1.3339025986245652,-2.5275712648974817,6.111467349320211,1.0189409255981445,-2.3661702314959925
1708442753.2569008,-2.141798496246338,-1.3338745099357148,-2.5275266806231897,6.111430036812582,1.0189741849899292,-2.3662598768817347
1708442753.258883,-2.1418395042419434,-1.3338702482036133,-2.5275147596942347,6.111474740296163,1.0189571380615234,-2.366222683583395
1708442753.260894,-2.141826629638672,-1.3338418316892167,-2.5275548140155237,6.111437070160665,1.018957257270813,-2.366197172795431
1708442753.2629404,-2.1418633460998535,-1.3338540655425568,-2.5275548140155237,6.1114433882530115,1.0189659595489502,-2.366263214741842
1708442753.264903,-2.141794204711914,-1.3338540655425568,-2.5275505224811,6.111418235092916,1.0189409255981445,-2.366296116505758
1708442753.2669344,-2.1417856216430664,-1.3338659864715119,-2.527587954198019,6.111462819367208,1.0189114809036255,-2.366239134465353
1708442753.2689064,-2.141839027404785,-1.3338788461736222,-2.527517859135763,6.111474859505453,1.0189157724380493,-2.366239134465353
1708442753.2709303,-2.141839027404785,-1.333910585646965,-2.527562681828634,6.111431586533346,1.0189365148544312,-2.366251055394308
1708442753.2729032,-2.141847610473633,-1.333870218401291,-2.5275591055499476,6.111480700760641,1.0189483165740967,-2.366218153630392
1708442753.2748864,-2.141798496246338,-1.3338455569795151,-2.5275147596942347,6.111436116486349,1.0189483165740967,-2.366201702748434
1708442753.2769203,-2.141826629638672,-1.3339062494090577,-2.527587954198019,6.11142252662734,1.0189815759658813,-2.3662105242358606
1708442753.2788954,-2.141822338104248,-1.3338418316892167,-2.527545992528097,6.111386525421896,1.0189608335494995,-2.3662477175342005
1708442753.2808917,-2.141826629638672,-1.33389067769561,-2.5275636355029505,6.111424195557394,1.0189727544784546,-2.366213862095968
1708442753.2829163,-2.1418027877807617,-1.33389067769561,-2.5276246706592005,6.111428725510397,1.0190140008926392,-2.3662379423724573
1708442753.2849042,-2.141843318939209,-1.3339068603566666,-2.5275102297412317,6.111402976303854,1.0189934968948364,-2.366222683583395
1708442753.2869198,-2.141822338104248,-1.3339025986245652,-2.5276127497302454,6.111362683563986,1.0189640522003174,-2.366213862095968
1708442753.2888882,-2.1417489051818848,-1.3338375699571152,-2.527541700993673,6.1113717434699915,1.019021987915039,-2.366246763859884
1708442753.2908869,-2.141787052154541,-1.3338702482036133,-2.527534310017721,6.111358272820272,1.019026279449463,-2.366263214741842
1708442753.292891,-2.141822338104248,-1.3338626635125657,-2.5275591055499476,6.111355054169454,1.019020676612854,-2.3662388960467737
1708442753.2948794,-2.1418027877807617,-1.3338753444007416,-2.5275583902942103,6.111343133240499,1.0190162658691406,-2.3662644068347376
1708442753.2969177,-2.141805648803711,-1.3339025986245652,-2.5275548140155237,6.111392724304952,1.0190339088439941,-2.366251055394308
1708442753.298903,-2.14182710647583,-1.3338702482036133,-2.5275583902942103,6.1113881943519495,1.0190504789352417,-2.366246763859884
1708442753.3009048,-2.141822338104248,-1.333911196594574,-2.527538601552145,6.11137472370223,1.0190579891204834,-2.3662763277636927
1708442753.3029091,-2.141745090484619,-1.3339025986245652,-2.5275474230395716,6.111376273422994,1.0190250873565674,-2.366230312977926
1708442753.304901,-2.1418228149414062,-1.3338788461736222,-2.5275712648974817,6.111402976303854,1.0190131664276123,-2.3662424723254603
1708442753.3069139,-2.1417899131774902,-1.3338659864715119,-2.527566973363058,6.1113459942634485,1.0190131664276123,-2.366218392048971
1708442753.3088918,-2.1418070793151855,-1.333877907400467,-2.527522389088766,6.111362802773275,1.0190579891204834,-2.3662050406085413
1708442753.3109024,-2.141740560531616,-1.333866925244667,-2.527562681828634,6.111358272820272,1.0190088748931885,-2.3661766687976282
1708442753.3129222,-2.1417574882507324,-1.3338498187116166,-2.527587954198019,6.1113459942634485,1.019020676612854,-2.3663092295276087
1708442753.3149364,-2.1418070793151855,-1.33389067769561,-2.527522389088766,6.11132966259078,1.019024133682251,-2.366283718739645
1708442753.3169003,-2.1417784690856934,-1.3339068603566666,-2.5275755564319056,6.111362802773275,1.0190579891204834,-2.366255585347311
1708442753.3188946,-2.141787052154541,-1.3338583272746583,-2.527529780064718,6.111399996071615,1.0190491676330566,-2.366251055394308
1708442753.3209233,-2.1418099403381348,-1.3338455569795151,-2.527522150670187,6.111308800965109,1.0190534591674805,-2.366262976323263
1708442753.322921,-2.1417784690856934,-1.3338300001672287,-2.527587954198019,6.111402976303854,1.0190372467041016,-2.366230074559347
1708442753.324878,-2.1417784690856934,-1.3338375699571152,-2.5275712648974817,6.111395466118612,1.0190579891204834,-2.366213862095968
1708442753.3268967,-2.1417741775512695,-1.3338583272746583,-2.5275548140155237,6.111358272820272,1.0190372467041016,-2.366230312977926
1708442753.3288856,-2.1418099403381348,-1.3338626635125657,-2.527566973363058,6.1113130924995325,1.0190250873565674,-2.36623460451235
1708442753.330904,-2.14176607131958,-1.3338291060975571,-2.527538601552145,6.111365663796224,1.0190666913986206,-2.3662388960467737
1708442753.3328867,-2.1418185234069824,-1.3338583272746583,-2.5275548140155237,6.111425506859579,1.019020676612854,-2.3662424723254603
1708442753.3348782,-2.1417746543884277,-1.333857388501503,-2.5275505224811,6.111322271614828,1.0190372467041016,-2.366267506276266
1708442753.3369024,-2.141791343688965,-1.3338333082250138,-2.5275548140155237,6.111399996071615,1.0190329551696777,-2.366230074559347
1708442753.338912,-2.1418185234069824,-1.3338950288346787,-2.5275712648974817,6.111399996071615,1.019041657447815,-2.366246763859884
1708442753.3408806,-2.1418027877807617,-1.3339112114957352,-2.5275505224811,6.111362802773275,1.0190372467041016,-2.366258684788839
1708442753.3429198,-2.141831636428833,-1.3338171404651185,-2.527529780064718,6.11141191700057,1.019041657447815,-2.3662882486926478
1708442753.3448792,-2.1417956352233887,-1.3338455569795151,-2.5275712648974817,6.11132966259078,1.0190701484680176,-2.366213862095968
1708442753.3469045,-2.141787052154541,-1.3338540655425568,-2.527545992528097,6.1113459942634485,1.0190491676330566,-2.3662050406085413
1708442753.3488824,-2.1417622566223145,-1.3338864308646698,-2.527587954198019,6.111362802773275,1.0190284252166748,-2.3662379423724573
1708442753.350892,-2.14182710647583,-1.3339068603566666,-2.5275591055499476,6.111374604492941,1.0190372467041016,-2.366230312977926
1708442753.352904,-2.141745090484619,-1.3338573586991807,-2.527566973363058,6.1114046452339075,1.0190372467041016,-2.366230074559347
1708442753.3549147,-2.1418309211730957,-1.3338540655425568,-2.527545992528097,6.111292350083151,1.0190579891204834,-2.3662379423724573
1708442753.3568864,-2.141749382019043,-1.3339068603566666,-2.527579132710592,6.1113459942634485,1.0190162658691406,-2.366242233906881
1708442753.3589401,-2.1418607234954834,-1.3338735711625596,-2.5275428930865687,6.1113672135169885,1.0190579891204834,-2.3662095705615442
1708442753.3609016,-2.141787052154541,-1.3338745099357148,-2.5275712648974817,6.111365544586935,1.0190569162368774,-2.3662543932544153
1708442753.3628838,-2.1417784690856934,-1.3338617396405716,-2.5275800863849085,6.11137472370223,1.0190657377243042,-2.366246763859884
1708442753.36489,-2.141827344894409,-1.3338626635125657,-2.5275712648974817,6.111320602684774,1.0190372467041016,-2.3662379423724573
1708442753.3669033,-2.141791343688965,-1.3339025986245652,-2.5275748411761683,6.111379134445944,1.0190820693969727,-2.366279427205221
1708442753.3688924,-2.141787052154541,-1.3338455569795151,-2.527579132710592,6.111407506256857,1.019074559211731,-2.366267506276266
1708442753.370956,-2.1417579650878906,-1.333838404422142,-2.527545992528097,6.111395585327902,1.0190491676330566,-2.366246763859884
1708442753.3729007,-2.141794204711914,-1.33389067769561,-2.527562681828634,6.111391055374899,1.0190534591674805,-2.3662498633014124
1708442753.374909,-2.1417784690856934,-1.333906815653183,-2.527607266102926,6.111398446350851,1.0190372467041016,-2.366255585347311
1708442753.3769124,-2.1418027877807617,-1.3338778924993058,-2.5275548140155237,6.111379134445944,1.0190284252166748,-2.366251055394308
1708442753.378901,-2.1418070793151855,-1.3338617396405716,-2.527583424245016,6.111402976303854,1.019070029258728,-2.366246763859884
1708442753.380948,-2.141770362854004,-1.3338788461736222,-2.527562681828634,6.111391055374899,1.0191071033477783,-2.366295878087179
1708442753.3829088,-2.1417579650878906,-1.3338950288346787,-2.527566973363058,6.111407387047567,1.019074559211731,-2.366267506276266
1708442753.3848975,-2.141745090484619,-1.3338788461736222,-2.5275583902942103,6.1113895056541345,1.019004464149475,-2.366279427205221
1708442753.386922,-2.141787052154541,-1.3338950288346787,-2.527583424245016,6.111407506256857,1.0190534591674805,-2.3662379423724573
1708442753.388903,-2.1417784690856934,-1.333919109111168,-2.527583424245016,6.111374604492941,1.0190491676330566,-2.366279427205221
1708442753.3909209,-2.14176607131958,-1.3338583272746583,-2.527545992528097,6.111407506256857,1.0190372467041016,-2.366230312977926
1708442753.3929026,-2.141791343688965,-1.3338626635125657,-2.5275583902942103,6.111313211708822,1.0190534591674805,-2.3662379423724573
1708442753.3949354,-2.1418027877807617,-1.333812878733017,-2.5275374094592493,6.111365544586935,1.0190491676330566,-2.3662498633014124
1708442753.3969138,-2.1418099403381348,-1.3338333082250138,-2.5275428930865687,6.111391055374899,1.019020676612854,-2.366255585347311
1708442753.3989184,-2.1418113708496094,-1.3339034479907532,-2.527587954198019,6.111440527230062,1.0190162658691406,-2.366267506276266
1708442753.400926,-2.1418113708496094,-1.3338583421758194,-2.5275505224811,6.1114163277442834,1.0190284252166748,-2.3662424723254603
1708442753.4028933,-2.141753673553467,-1.3338617396405716,-2.527607504521505,6.111431467324056,1.0190491676330566,-2.366267506276266
1708442753.404944,-2.1417784690856934,-1.3338626635125657,-2.527616087590353,6.111358272820272,1.0189869403839111,-2.3662336508380335
1708442753.406899,-2.1418113708496094,-1.3338788461736222,-2.5275755564319056,6.111424195557394,1.0190118551254272,-2.366274897252218
1708442753.408898,-2.1417617797851562,-1.3338745099357148,-2.527591053639547,6.111431586533346,1.0190613269805908,-2.366258684788839
1708442753.4109228,-2.1418185234069824,-1.333812878733017,-2.527579132710592,6.111449587136068,1.0190863609313965,-2.3662572542773646
1708442753.4129007,-2.14176607131958,-1.3338735711625596,-2.527579132710592,6.111419665604391,1.0190162658691406,-2.366279427205221
1708442753.4149704,-2.1417579650878906,-1.3338012856296082,-2.527591053639547,6.111436116486349,1.019081950187683,-2.3662663141833704
1708442753.416906,-2.141745090484619,-1.3338821691325684,-2.527599636708395,6.111424195557394,1.0190372467041016,-2.366279427205221
1708442753.41894,-2.141787052154541,-1.333866925244667,-2.527599636708395,6.111386644631185,1.019074559211731,-2.3662126700030726
1708442753.420921,-2.1417784690856934,-1.3338617396405716,-2.5275748411761683,6.111436116486349,1.0189955234527588,-2.366262976323263
1708442753.4229338,-2.141798496246338,-1.3338940900615235,-2.5276041666613978,6.111464011460104,1.019008755683899,-2.3662827650653284
1708442753.4249318,-2.141798496246338,-1.3338055473617096,-2.5275865236865442,6.11145697811202,1.0189965963363647,-2.3662334124194544
1708442753.4269233,-2.141794204711914,-1.3338461828282853,-2.527591053639547,6.111447918206014,1.0190613269805908,-2.3662717978106897
1708442753.4288995,-2.1418113708496094,-1.333910585646965,-2.527599636708395,6.111446130066671,1.0190622806549072,-2.366263214741842
1708442753.4309406,-2.1418113708496094,-1.33389067769561,-2.5275965372668665,6.111415135651388,1.019020676612854,-2.3662543932544153
1708442753.4329028,-2.1418113708496094,-1.333866925244667,-2.527566973363058,6.111393916397848,1.0190460681915283,-2.366258684788839
1708442753.4349625,-2.1418113708496094,-1.3338821691325684,-2.527538601552145,6.111438977509298,1.019020676612854,-2.366279427205221
1708442753.4369109,-2.1418395042419434,-1.3338583272746583,-2.5275583902942103,6.111471760063925,1.0190372467041016,-2.3662660757647913
1708442753.4389248,-2.141753673553467,-1.3339068603566666,-2.527562681828634,6.1114927408988855,1.0190460681915283,-2.366312328969137
1708442753.4409251,-2.141787052154541,-1.333911122088768,-2.527579132710592,6.111449348717489,1.0190460681915283,-2.3662424723254603
1708442753.4428945,-2.141787052154541,-1.3338498187116166,-2.527616087590353,6.111486661225118,1.0190372467041016,-2.366262976323263
1708442753.4449208,-2.1418228149414062,-1.33389067769561,-2.5276203791247767,6.111527192383566,1.0190162658691406,-2.366251055394308
1708442753.4469094,-2.1418309211730957,-1.33389067769561,-2.527591053639547,6.111571895867147,1.0190088748931885,-2.36623460451235
1708442753.4489086,-2.1418228149414062,-1.3338821542314072,-2.527566973363058,6.111560332566061,1.0190000534057617,-2.3662543932544153
1708442753.4509413,-2.141787052154541,-1.3338498783162613,-2.527595345173971,6.11150478103713,1.0190043449401855,-2.366312328969137
1708442753.4528959,-2.1418309211730957,-1.3338745099357148,-2.5275452772723597,6.111542331963339,1.019020676612854,-2.3662379423724573
1708442753.454946,-2.141782760620117,-1.333870218401291,-2.527545992528097,6.111595618515768,1.0190175771713257,-2.366230312977926
1708442753.4568946,-2.141782760620117,-1.3338375699571152,-2.527562681828634,6.111570346146383,1.0190293788909912,-2.366283718739645
1708442753.458919,-2.141782760620117,-1.3338583272746583,-2.5275822321521204,6.111542331963339,1.0190131664276123,-2.366255585347311
1708442753.4609137,-2.1418185234069824,-1.3338710975698014,-2.5275703112231653,6.111612307816305,1.0189965963363647,-2.3662169615374964
1708442753.4629,-2.14176607131958,-1.3338488799384614,-2.5276041666613978,6.111500370293417,1.0190175771713257,-2.366258684788839
1708442753.4649055,-2.1418027877807617,-1.3338583421758194,-2.527562681828634,6.1115256426628015,1.0190043449401855,-2.3662379423724573
1708442753.466885,-2.141791343688965,-1.333898351793625,-2.5275548140155237,6.111513602524557,1.0190131664276123,-2.366246763859884
1708442753.4688876,-2.1418070793151855,-1.333878831272461,-2.527583424245016,6.111595618515768,1.0190622806549072,-2.3662717978106897
1708442753.4709141,-2.141782760620117,-1.333866925244667,-2.5276029745685022,6.111513602524557,1.019041657447815,-2.3662424723254603
1708442753.472904,-2.1417617797851562,-1.3338745099357148,-2.527583424245016,6.111595618515768,1.0190623998641968,-2.3662543932544153
1708442753.474928,-2.1418027877807617,-1.3338583272746583,-2.527607504521505,6.1115912077720544,1.019005298614502,-2.366267506276266
1708442753.4768968,-2.141798496246338,-1.3338745099357148,-2.5275548140155237,6.111583697586813,1.0190131664276123,-2.366225783024923
1708442753.4788885,-2.1417574882507324,-1.3338172149709244,-2.527562681828634,6.111594426422872,1.0189803838729858,-2.3662870565997522
1708442753.4809232,-2.141745090484619,-1.3338333082250138,-2.527583424245016,6.111554014473715,1.019020676612854,-2.366262976323263
1708442753.482894,-2.141826629638672,-1.3338949543288727,-2.527566973363058,6.1115912077720544,1.0190131664276123,-2.366258684788839
1708442753.4849236,-2.1418142318725586,-1.3338540655425568,-2.5275548140155237,6.111582267075338,1.0189921855926514,-2.366312328969137
1708442753.4868963,-2.141794204711914,-1.3338333678296586,-2.5275092760669153,6.111579286843099,1.0189640522003174,-2.366246763859884
1708442753.4888916,-2.1417784690856934,-1.3338213872960587,-2.5275712648974817,6.111549484520712,1.0190175771713257,-2.3662424723254603
1708442753.4908907,-2.1417529582977295,-1.333919109111168,-2.527562681828634,6.11150478103713,1.0190250873565674,-2.366262976323263
1708442753.4929008,-2.1417698860168457,-1.3338617396405716,-2.527545992528097,6.1116124270255945,1.0190293788909912,-2.3662336508380335
1708442753.4948933,-2.1417856216430664,-1.333846167927124,-2.527599636708395,6.111533391266622,1.0190010070800781,-2.3662379423724573
1708442753.496901,-2.1417899131774902,-1.3338214469007035,-2.5275254885302942,6.111530053406515,1.018989086151123,-2.3662663141833704
1708442753.498905,-2.14176607131958,-1.3338992905667801,-2.5275712648974817,6.111542331963339,1.0190424919128418,-2.366262976323263
1708442753.5009148,-2.141787052154541,-1.333797962670662,-2.5275712648974817,6.111582267075338,1.0189934968948364,-2.366279427205221
1708442753.5029194,-2.141822338104248,-1.3338418316892167,-2.527566973363058,6.1115912077720544,1.019026279449463,-2.3662379423724573
1708442753.5048854,-2.1418070793151855,-1.3338498187116166,-2.5275548140155237,6.111603486328878,1.0189847946166992,-2.366300408040182
1708442753.506926,-2.1418142318725586,-1.3338745099357148,-2.5275591055499476,6.111574756890096,1.0189697742462158,-2.3662379423724573
1708442753.5088954,-2.1418561935424805,-1.3338821840337296,-2.527529780064718,6.111606347351827,1.0190140008926392,-2.3662424723254603
1708442753.5109055,-2.141801357269287,-1.3338256490281601,-2.527545992528097,6.111590015679159,1.0189861059188843,-2.366225783024923
1708442753.5129182,-2.141798496246338,-1.3338745099357148,-2.527583424245016,6.111573326378622,1.0189439058303833,-2.3663046995746058
1708442753.5148892,-2.141794204711914,-1.3338171255639573,-2.5275505224811,6.111598956375875,1.018965244293213,-2.3662543932544153
1708442753.516902,-2.141798496246338,-1.3338949841311951,-2.5275922457324427,6.111561286240377,1.0189234018325806,-2.3662169615374964
1708442753.5188918,-2.1417784690856934,-1.3338583272746583,-2.527529780064718,6.111594426422872,1.0189321041107178,-2.3662763277636927
1708442753.5208995,-2.1417899131774902,-1.333903358583786,-2.527583424245016,6.111598956375875,1.0189483165740967,-2.366295878087179
1708442753.5229113,-2.1417784690856934,-1.3338540655425568,-2.527566973363058,6.1115198014076135,1.0189697742462158,-2.3662717978106897
1708442753.5248914,-2.141826629638672,-1.3338745099357148,-2.5275548140155237,6.111590015679159,1.0189483165740967,-2.36623460451235
1708442753.526929,-2.1418347358703613,-1.3338583272746583,-2.527562681828634,6.111533391266622,1.0189037322998047,-2.366274897252218
1708442753.528919,-2.1418070793151855,-1.3338659864715119,-2.527529780064718,6.111577737122335,1.0189123153686523,-2.366246763859884
1708442753.530897,-2.1418309211730957,-1.3338702482036133,-2.527579132710592,6.111540424614706,1.0188798904418945,-2.366307799016134
1708442753.5328908,-2.1418309211730957,-1.3338702482036133,-2.5275748411761683,6.111598956375875,1.0189006328582764,-2.3662095705615442
1708442753.5348878,-2.141847610473633,-1.333911196594574,-2.527534310017721,6.111598956375875,1.0189334154129028,-2.366213862095968
1708442753.536909,-2.1418676376342773,-1.3338375699571152,-2.527599636708395,6.111622798233785,1.0189334154129028,-2.366230312977926
1708442753.538903,-2.1418142318725586,-1.3338583272746583,-2.527595345173971,6.1116347191627405,1.0189168453216553,-2.3662424723254603
1708442753.5409148,-2.1418185234069824,-1.3338540655425568,-2.527545992528097,6.111540543823995,1.0189181566238403,-2.366230312977926
1708442753.5429277,-2.1418027877807617,-1.333866925244667,-2.5275505224811,6.111676800041952,1.0188887119293213,-2.366279427205221
1708442753.544902,-2.1418142318725586,-1.3337970238975068,-2.527579132710592,6.111568796425619,1.018909215927124,-2.36623460451235
1708442753.5469182,-2.1417813301086426,-1.3338256490281601,-2.5275583902942103,6.111598956375875,1.0188767910003662,-2.366246763859884
1708442753.5489295,-2.1417741775512695,-1.3338788461736222,-2.5276041666613978,6.111634599953451,1.018926739692688,-2.366246763859884
1708442753.550901,-2.1417529582977295,-1.3338418316892167,-2.527538601552145,6.1116347191627405,1.0188723802566528,-2.366222683583395
1708442753.5528927,-2.141826629638672,-1.333911196594574,-2.527587954198019,6.111606347351827,1.01888108253479,-2.366291586552755
1708442753.5548964,-2.141794204711914,-1.3338540655425568,-2.527583424245016,6.111610758095541,1.0188554525375366,-2.366267506276266
1708442753.5568948,-2.1417970657348633,-1.333812878733017,-2.5276041666613978,6.111585485726156,1.0189006328582764,-2.3662543932544153
1708442753.5589256,-2.141839027404785,-1.333911196594574,-2.527628008519308,6.111609208374777,1.0189378261566162,-2.366300408040182
1708442753.5608964,-2.141847610473633,-1.3338788461736222,-2.5275703112231653,6.11161087730483,1.0188305377960205,-2.366251055394308
1708442753.5628903,-2.141826629638672,-1.3338745099357148,-2.527623716984884,6.1116137383277795,1.018897294998169,-2.366262976323263
1708442753.5648956,-2.141846179962158,-1.3338821691325684,-2.5275712648974817,6.1116301892097376,1.0189049243927002,-2.3662706057177942
1708442753.5669096,-2.1417899131774902,-1.3338669550469895,-2.5275428930865687,6.111597406655111,1.0189049243927002,-2.3662379423724573
1708442753.568906,-2.141818046569824,-1.3338455569795151,-2.5276041666613978,6.111584055214681,1.0188597440719604,-2.366283718739645
1708442753.5709112,-2.141822338104248,-1.3338864308646698,-2.527529780064718,6.1116301892097376,1.0189212560653687,-2.3662379423724573
1708442753.5729053,-2.1418347358703613,-1.3338626635125657,-2.527587954198019,6.111622798233785,1.018909215927124,-2.366262976323263
1708442753.574904,-2.1418352127075195,-1.3338540655425568,-2.527541700993673,6.1116301892097376,1.018897294998169,-2.366267506276266
1708442753.5769105,-2.141839027404785,-1.3339068603566666,-2.527579132710592,6.111621129303732,1.0188798904418945,-2.366213862095968
1708442753.5789025,-2.141826629638672,-1.3338627082160492,-2.5275428930865687,6.111651408463278,1.0188930034637451,-2.3663046995746058
1708442753.5809147,-2.1417925357818604,-1.3338821691325684,-2.527583424245016,6.111670362740316,1.0189049243927002,-2.3662543932544153
1708442753.5829332,-2.141805648803711,-1.3339025390199204,-2.527579132710592,6.111652362137594,1.01888108253479,-2.366274897252218
1708442753.5849066,-2.1418590545654297,-1.3338626635125657,-2.5275583902942103,6.111690032273092,1.0189049243927002,-2.366230074559347
1708442753.5869231,-2.141822338104248,-1.3338583272746583,-2.527545992528097,6.111677872925558,1.0188974142074585,-2.3662214914904993
1708442753.588912,-2.1417970657348633,-1.3338299852660676,-2.5275712648974817,6.111661541252889,1.01888108253479,-2.366262976323263
1708442753.5909061,-2.141826629638672,-1.3339025986245652,-2.5275922457324427,6.111677872925558,1.0189005136489868,-2.3662095705615442
1708442753.5928903,-2.141847610473633,-1.3338617545417328,-2.5275548140155237,6.111711013108053,1.0189136266708374,-2.366251055394308
1708442753.5948927,-2.141822338104248,-1.3338418316892167,-2.527611796055929,6.111681091576376,1.018868088722229,-2.366283718739645
1708442753.5969143,-2.1418633460998535,-1.3338583272746583,-2.527545992528097,6.111683952599325,1.0189093351364136,-2.366201702748434
1708442753.5989127,-2.1418590545654297,-1.3339034479907532,-2.527522389088766,6.111681091576376,1.0188554525375366,-2.36623460451235
1708442753.6008902,-2.1418309211730957,-1.3339068603566666,-2.527587954198019,6.111704814224996,1.0188730955123901,-2.366251055394308
1708442753.6028872,-2.141871690750122,-1.3338617545417328,-2.527534310017721,6.111745345383444,1.018885612487793,-2.366274897252218
1708442753.6048946,-2.1418347358703613,-1.3338418316892167,-2.527538601552145,6.1117215035255334,1.0189049243927002,-2.3662291208850306
1708442753.6069021,-2.141801357269287,-1.333858312373497,-2.5275471846209925,6.11175428608016,1.0188524723052979,-2.366218392048971
1708442753.6089041,-2.141818046569824,-1.3338498187116166,-2.5275591055499476,6.111721622734823,1.0189006328582764,-2.366246763859884
1708442753.6108959,-2.141846179962158,-1.33380979419265,-2.5275548140155237,6.111763345986166,1.01885986328125,-2.366262976323263
1708442753.6128917,-2.141822338104248,-1.3338906925967713,-2.5275755564319056,6.111688482552328,1.0189181566238403,-2.366246763859884
1708442753.6148927,-2.1418216228485107,-1.3338375401547928,-2.5275548140155237,6.111729013710775,1.0189136266708374,-2.366246763859884
1708442753.6169,-2.141871690750122,-1.3338540655425568,-2.5275591055499476,6.111692893296041,1.0188766717910767,-2.366242233906881
1708442753.6188989,-2.141847610473633,-1.3338583421758194,-2.5275679270373743,6.111730563431539,1.0188767910003662,-2.366258684788839
1708442753.6208944,-2.1418304443359375,-1.3338626635125657,-2.5275548140155237,6.111704814224996,1.0188930034637451,-2.366180960332052
1708442753.6229153,-2.1417856216430664,-1.3338333082250138,-2.5275548140155237,6.11175428608016,1.0188974142074585,-2.366291586552755
1708442753.6248927,-2.141805648803711,-1.333866925244667,-2.527538601552145,6.111763345986166,1.018897294998169,-2.366262976323263
1708442753.6269062,-2.141822338104248,-1.3338583272746583,-2.527562681828634,6.111692893296041,1.018847942352295,-2.366295878087179
1708442753.628894,-2.141822338104248,-1.3338864308646698,-2.5275591055499476,6.111688482552328,1.018868088722229,-2.366274897252218
1708442753.630891,-2.1418304443359375,-1.3338540655425568,-2.5275922457324427,6.111726033478536,1.018897294998169,-2.3662543932544153
1708442753.6328986,-2.141818046569824,-1.33383762956176,-2.527534310017721,6.1117498753364465,1.0189136266708374,-2.366246763859884
1708442753.6349146,-2.141846179962158,-1.33389067769561,-2.5275505224811,6.111721622734823,1.0188723802566528,-2.366258684788839
1708442753.63691,-2.1418304443359375,-1.3339025986245652,-2.527513567601339,6.1117379544074915,1.0188930034637451,-2.366251055394308
1708442753.6389165,-2.1418673992156982,-1.3338626486114045,-2.5275712648974817,6.111713874131002,1.018884301185608,-2.3662543932544153
1708442753.6409028,-2.1418137550354004,-1.3338788014701386,-2.527566973363058,6.11171709278182,1.0189049243927002,-2.366258684788839
1708442753.642907,-2.141846179962158,-1.3338702482036133,-2.527545754109518,6.111663090973654,1.0188941955566406,-2.3662455717669886
1708442753.6449015,-2.1418092250823975,-1.3338626635125657,-2.527534310017721,6.1117228148277185,1.018897294998169,-2.366279427205221
1708442753.6469376,-2.141818046569824,-1.3339025539210816,-2.5275712648974817,6.111688482552328,1.0188729763031006,-2.3663211504565638
1708442753.6488917,-2.141846179962158,-1.3338821691325684,-2.5275548140155237,6.111709344177999,1.018885612487793,-2.366324249898092
1708442753.6509147,-2.141817569732666,-1.3338455718806763,-2.5275591055499476,6.111712682038107,1.0188511610031128,-2.3663364092456263
1708442753.65291,-2.141826629638672,-1.3338583272746583,-2.5275633970843714,6.111758935242452,1.018897294998169,-2.3662827650653284
1708442753.6549046,-2.141822338104248,-1.3338343364051362,-2.5275712648974817,6.111709344177999,1.0188511610031128,-2.36634070078005
1708442753.6569157,-2.1418631076812744,-1.3338541251472016,-2.527534310017721,6.1117379544074915,1.0188435316085815,-2.3663273493396204
1708442753.6588988,-2.141839027404785,-1.3338745099357148,-2.5275922457324427,6.111709344177999,1.0189093351364136,-2.3663066069232386
1708442753.660901,-2.1418752670288086,-1.3338583421758194,-2.5275965372668665,6.1117334244544885,1.0188798904418945,-2.3662946859942835
1708442753.6629016,-2.1418304443359375,-1.3338659864715119,-2.5275548140155237,6.1117379544074915,1.018909215927124,-2.366330687199728
1708442753.6648998,-2.1418092250823975,-1.3338012856296082,-2.5275254885302942,6.111726033478536,1.0188930034637451,-2.366333786641256
1708442753.6669092,-2.141843318939209,-1.3338993352702637,-2.527538601552145,6.111712682038107,1.0188887119293213,-2.3663416544543665
1708442753.6689155,-2.141843318939209,-1.3338375699571152,-2.527522389088766,6.111747014313497,1.0189136266708374,-2.3664072195636194
1708442753.67094,-2.1418673992156982,-1.3338418316892167,-2.527534310017721,6.111747014313497,1.0189049243927002,-2.3663950602160853
1708442753.6728988,-2.1418416500091553,-1.3338541102460404,-2.527534310017721,6.111758816033163,1.0189018249511719,-2.3664355913745325
1708442753.6749284,-2.1417925357818604,-1.3338992309621354,-2.5275633970843714,6.111742365151205,1.0188930034637451,-2.3663938681231897
1708442753.6769123,-2.141818046569824,-1.3338299852660676,-2.5275505224811,6.111763345986166,1.018909215927124,-2.3664100805865687
1708442753.6789072,-2.1418092250823975,-1.3338342618993302,-2.5275633970843714,6.111751425057211,1.0189298391342163,-2.366438690816061
1708442753.680911,-2.1418304443359375,-1.3338914823583146,-2.5275505224811,6.111701953202047,1.0188554525375366,-2.3664923349963587
1708442753.6829371,-2.141826629638672,-1.3338497889092942,-2.527538601552145,6.111742365151205,1.0189136266708374,-2.3664658705340784
1708442753.6849139,-2.141846179962158,-1.3338626486114045,-2.527541700993673,6.111701953202047,1.0188887119293213,-2.366585079823629
1708442753.6869075,-2.141850471496582,-1.3338418465903779,-2.5275800863849085,6.111775266915121,1.018959641456604,-2.366537872944967
1708442753.6889045,-2.141871690750122,-1.333841861491539,-2.5275548140155237,6.111744153290548,1.0188930034637451,-2.366619888936178
1708442753.6909044,-2.1418216228485107,-1.3338455271771927,-2.5275712648974817,6.111701953202047,1.0189062356948853,-2.3666098753558558
1708442753.6929212,-2.141871690750122,-1.3338332784226914,-2.527538601552145,6.111711013108053,1.0188930034637451,-2.3666251341449183
1708442753.6949089,-2.141850471496582,-1.3338583272746583,-2.527545992528097,6.111747014313497,1.0188767910003662,-2.3667104879962366
1708442753.6969023,-2.1417768001556396,-1.3338668805411835,-2.5275712648974817,6.111718404084005,1.0189049243927002,-2.366802994404928
1708442753.6989245,-2.1418304443359375,-1.333854080443718,-2.5275505224811,6.111640798836508,1.0189093351364136,-2.3668599764453333
1708442753.70093,-2.1418673992156982,-1.333846167927124,-2.527587954198019,6.111690032273092,1.0189049243927002,-2.3669047991382044
1708442753.702943,-2.141871690750122,-1.3338702482036133,-2.5275712648974817,6.111673342972555,1.0189049243927002,-2.36694842973818
1708442753.7049348,-2.141850471496582,-1.3338461828282853,-2.527538601552145,6.111637818604269,1.0189509391784668,-2.3669636885272425
1708442753.7069154,-2.141875982284546,-1.3338503998569031,-2.527538601552145,6.111703502922811,1.0188887119293213,-2.3670476118670862
1708442753.7089028,-2.141818046569824,-1.3338906329921265,-2.527545992528097,6.1116301892097376,1.0188961029052734,-2.367115084324972
1708442753.7109482,-2.1418631076812744,-1.333846167927124,-2.5275712648974817,6.1116018173988245,1.0189290046691895,-2.3671870867358606
1708442753.7129037,-2.141801357269287,-1.3338375848582764,-2.527534310017721,6.111606347351827,1.0189334154129028,-2.3672876993762415
1708442753.7149453,-2.141818046569824,-1.3338906329921265,-2.5275755564319056,6.111577737122335,1.0189006328582764,-2.367401186619894
1708442753.716909,-2.141801357269287,-1.333841861491539,-2.5276039282428187,6.1115243313606165,1.0189247131347656,-2.3674569765674036
1708442753.718912,-2.1418673992156982,-1.3338498038104554,-2.527545992528097,6.111516582756796,1.018912434577942,-2.3675723711596888
1708442753.7209146,-2.1418802738189697,-1.3338455569795151,-2.527538601552145,6.111546742707052,1.0189540386199951,-2.367631260548727
1708442753.7229345,-2.141822338104248,-1.333854080443718,-2.5275505224811,6.111543524056234,1.0189452171325684,-2.3677480856524866
1708442753.7249312,-2.1418259143829346,-1.3339318049005051,-2.527579132710592,6.111468541413107,1.0189203023910522,-2.3679335753070276
1708442753.7269022,-2.1417574882507324,-1.3338626486114045,-2.527566973363058,6.111503112107076,1.0189157724380493,-2.36799127260317
1708442753.7289054,-2.141794204711914,-1.3339189899018784,-2.527545992528097,6.1115198014076135,1.018978476524353,-2.3682053724872034
1708442753.7309153,-2.1417407989501953,-1.33388306320224,-2.5275505224811,6.111401784210958,1.018965244293213,-2.3683210054980677
1708442753.7329087,-2.141826629638672,-1.3338583272746583,-2.527530018483297,6.111381995468893,1.0189276933670044,-2.36851412454714
1708442753.734913,-2.141791343688965,-1.333846167927124,-2.527562681828634,6.1113459942634485,1.0189802646636963,-2.3686538378344935
1708442753.7369084,-2.141770362854004,-1.3337851774743577,-2.5275583902942103,6.111322271614828,1.0190306901931763,-2.368842665349142
1708442753.7389126,-2.14176607131958,-1.333854080443718,-2.527558151875631,6.111265647202291,1.0190010070800781,-2.3690062204944056
1708442753.7409213,-2.1417579650878906,-1.3338098388961335,-2.5275374094592493,6.111245858460226,1.019041657447815,-2.369117561970846
1708442753.7429178,-2.141753673553467,-1.3338788014701386,-2.527612034474508,6.1112356064613245,1.019074559211731,-2.3693347612964075
1708442753.7449462,-2.141741991043091,-1.3338583272746583,-2.527591053639547,6.111202823906698,1.0190403461456299,-2.369495217000143
1708442753.7469363,-2.1417789459228516,-1.33380979419265,-2.527616087590353,6.111174452095785,1.019057035446167,-2.36971098581423
1708442753.7489018,-2.1417551040649414,-1.3338342618993302,-2.527637545262472,6.111118781357565,1.0191013813018799,-2.3698957602130335
1708442753.750962,-2.1416971683502197,-1.3338256788304825,-2.5275655428515833,6.111129271775045,1.0191094875335693,-2.370171610509054
1708442753.7528975,-2.1416995525360107,-1.3338626635125657,-2.5275896231280726,6.1111100790794275,1.0191824436187744,-2.3704445997821253
1708442753.754926,-2.1416409015655518,-1.333834246998169,-2.5276647249804896,6.111027705460348,1.0191824436187744,-2.3706160227404993
1708442753.7568996,-2.1416501998901367,-1.3339068603566666,-2.5276389757739466,6.111029374390402,1.0191936492919922,-2.370925013219015
1708442753.7589366,-2.1416544914245605,-1.3338540655425568,-2.5277002493487757,6.110924708634176,1.0192381143569946,-2.3712051550494593
1708442753.760931,-2.1416192054748535,-1.33389067769561,-2.5277367273913782,6.110887038498678,1.0192546844482422,-2.371469322835104
1708442753.762919,-2.1416003704071045,-1.3338256788304825,-2.5277395884143274,6.110824572830953,1.0192493200302124,-2.371744219456808
1708442753.7649157,-2.141510009765625,-1.3338583272746583,-2.5277441183673304,6.110727536469259,1.0193147659301758,-2.3721142450915735
1708442753.766924,-2.1415061950683594,-1.3338461530259629,-2.5277469793902796,6.1106793759162805,1.0193016529083252,-2.372462574635641
1708442753.768907,-2.141475200653076,-1.333838404422142,-2.5277259985553187,6.11060785034255,1.019342303276062,-2.372826878224508
1708442753.7709095,-2.141444206237793,-1.333797962670662,-2.527836863194601,6.110555279045858,1.01941978931427,-2.37318998972048
1708442753.7728944,-2.1413867473602295,-1.3337695908597489,-2.527773920689718,6.110489594727316,1.0193979740142822,-2.373566452656881
1708442753.7749395,-2.1413474082946777,-1.3338183921626587,-2.527823511754171,6.110380637436666,1.019405484199524,-2.3739715258227747
1708442753.776903,-2.1413073539733887,-1.3338063818267365,-2.527883593236105,6.110341536789694,1.0195202827453613,-2.374382797871725
1708442753.7789218,-2.1412510871887207,-1.333789886241295,-2.527914826069967,6.110248911171713,1.0195235013961792,-2.3747876326190394
1708442753.7809017,-2.141183853149414,-1.3338183921626587,-2.527898375188009,6.110162246018209,1.0195300579071045,-2.37527305284609
1708442753.7829132,-2.141143321990967,-1.333746225838997,-2.5279465357409876,6.110045778542318,1.019578218460083,-2.375749174748556
1708442753.7849119,-2.1410419940948486,-1.3337173026851197,-2.5279584566699427,6.1099469540412805,1.0196142196655273,-2.3762741724597376
1708442753.7869036,-2.1410229206085205,-1.3336849224618454,-2.527994219456808,6.109772193222799,1.0197193622589111,-2.376784388219015
1708442753.7889228,-2.1409525871276855,-1.3337182116559525,-2.5280514399157923,6.109673607140341,1.0197584629058838,-2.377345387135641
1708442753.7909214,-2.1408958435058594,-1.3337105375579377,-2.5280678907977503,6.109558212548055,1.0198438167572021,-2.377946440373556
1708442753.792895,-2.140843629837036,-1.3336815697005768,-2.5280752817737024,6.109374391823568,1.019899606704712,-2.378454033528463
1708442753.7949052,-2.140735387802124,-1.333702878361084,-2.528132502232687,6.109259235649862,1.0199792385101318,-2.3791146914111536
1708442753.796904,-2.1406683921813965,-1.333658294086792,-2.5281835238086146,6.109136688500204,1.0200687646865845,-2.3797391096698206
1708442753.7989109,-2.14060115814209,-1.3336625409177323,-2.5282254854785364,6.108911025315084,1.0201292037963867,-2.3804338614093226
1708442753.8009233,-2.1405653953552246,-1.3336146187833329,-2.528281037007467,6.108800399094381,1.0202089548110962,-2.3810556570636194
1708442753.802904,-2.1404402256011963,-1.333598719244339,-2.5282912890063685,6.108592617302694,1.020248293876648,-2.3817887941943567
1708442753.8049104,-2.140320301055908,-1.3336146187833329,-2.5282941500293177,6.1083963988120935,1.020390510559082,-2.3825348059283655
1708442753.8068912,-2.140204906463623,-1.3335877519897004,-2.528372351323263,6.10824595668868,1.0204163789749146,-2.383214060460226
1708442753.8088946,-2.1401448249816895,-1.333559350376465,-2.5283616224872034,6.107996094017782,1.0205049514770508,-2.3839624563800257
1708442753.8109114,-2.140054225921631,-1.3335431677154084,-2.5284562746631067,6.107867705612936,1.0206266641616821,-2.3847883383380335
1708442753.8128936,-2.1399495601654053,-1.3335190874389191,-2.5284953753100794,6.107643353730001,1.0206736326217651,-2.3856332937823694
1708442753.8149142,-2.1398227214813232,-1.3335275512984772,-2.528601948414938,6.107419121056356,1.0207979679107666,-2.386549774800436
1708442753.8169026,-2.1396942138671875,-1.3334552359632035,-2.5286782423602503,6.107226240425863,1.02091646194458,-2.387454096470968
1708442753.8188949,-2.139549970626831,-1.3334310960820694,-2.5287004152881067,6.106912362366476,1.0210111141204834,-2.3884764353381556
1708442753.8208838,-2.139435291290283,-1.333472267990448,-2.5287516752826136,6.106641757279196,1.021085262298584,-2.3893917242633265
1708442753.8229067,-2.1393275260925293,-1.3333999675563355,-2.528799835835592,6.1063400385673425,1.0212470293045044,-2.390390698109762
1708442753.8249335,-2.139167547225952,-1.333327831034996,-2.5288763681994837,6.106076824456014,1.0213632583618164,-2.3913918177234095
1708442753.8269587,-2.138991117477417,-1.3333321523717423,-2.528923813496725,6.105873334198751,1.0215327739715576,-2.392481867467062
1708442753.8289208,-2.138852596282959,-1.3332792979529877,-2.5289631525622767,6.105626690178671,1.0216397047042847,-2.393606726323263
1708442753.830917,-2.138700008392334,-1.3332930517247696,-2.529085938130514,6.1052602408225916,1.0217970609664917,-2.3947063128100794
1708442753.8329113,-2.138516902923584,-1.3332442206195374,-2.529111687337057,6.10492097118453,1.0219579935073853,-2.3959677855121058
1708442753.8349369,-2.138357639312744,-1.3332731288722535,-2.5292468706714075,6.104583370476522,1.0220439434051514,-2.3972130457507532
1708442753.8369014,-2.1381497383117676,-1.333191917543747,-2.5292721430407923,6.104241120606222,1.022262692451477,-2.3984933535205286
1708442753.8389075,-2.1379528045654297,-1.3331690293601532,-2.529348675404684,6.103906023293295,1.0223984718322754,-2.399789873753683
1708442753.8408964,-2.137749433517456,-1.3331158471158524,-2.5294488112079065,6.103543269425192,1.022566318511963,-2.401086393986837
1708442753.8429098,-2.137544870376587,-1.33306738853965,-2.5295165220843714,6.103109228401937,1.0227023363113403,-2.4024768511401575
1708442753.8449018,-2.1374120712280273,-1.3330930185369034,-2.5296245257007044,6.1027705548103235,1.0229003429412842,-2.403759304677145
1708442753.846918,-2.1372077465057373,-1.3330367517522355,-2.529696528111593,6.102381574898519,1.0230355262756348,-2.405229632054464
1708442753.8489044,-2.1370036602020264,-1.3330203008702775,-2.529801670704977,6.101965772896566,1.0231919288635254,-2.4066861311541956
1708442753.8509104,-2.136723279953003,-1.332988829617836,-2.5298765341388147,6.1015756008918665,1.0233796834945679,-2.4081628958331507
1708442753.8528998,-2.136512041091919,-1.3330059212497254,-2.53001314798464,6.101149427681722,1.0236090421676636,-2.4096432367907923
1708442753.8549378,-2.1362857818603516,-1.3329332929900666,-2.5300548712359827,6.100678550987997,1.0238029956817627,-2.4112284819232386
1708442753.8569078,-2.136033773422241,-1.332957999115326,-2.5301690737353724,6.10024522522048,1.0239626169204712,-2.4127777258502405
1708442753.8589015,-2.135847330093384,-1.3328853857568284,-2.530285898839132,6.099731075554647,1.0241910219192505,-2.4143171946154993
1708442753.8609006,-2.135611057281494,-1.332873449926712,-2.5304086844073694,6.0992482779319666,1.0243548154830933,-2.4158921877490442
1708442753.862903,-2.1353354454040527,-1.3328215193799515,-2.5304792563067835,6.098754870682516,1.0245665311813354,-2.4175472895251673
1708442753.8649004,-2.1350998878479004,-1.3328144711307068,-2.5306265989886683,6.09824954250411,1.0247831344604492,-2.4192209879504603
1708442753.8669126,-2.134885787963867,-1.3327250492623826,-2.5307207743274134,6.097759711533346,1.0249593257904053,-2.420854632054464
1708442753.8688896,-2.1346182823181152,-1.332697482114174,-2.5308528582202356,6.0972410319145105,1.0251801013946533,-2.422581974660055
1708442753.8708954,-2.1343133449554443,-1.3326651614955445,-2.5309651533709925,6.096686112671652,1.0254217386245728,-2.4243643919574183
1708442753.8729193,-2.134033679962158,-1.3326786023429413,-2.53108793893923,6.096118199616232,1.0256129503250122,-2.426161591206686
1708442753.8749201,-2.1338038444519043,-1.3326018762639542,-2.5312169233905237,6.0955861685569666,1.0258708000183105,-2.4280572573291224
1708442753.8768916,-2.133500099182129,-1.3325539541295548,-2.531335417424337,6.095017897873678,1.0261309146881104,-2.430028740559713
1708442753.8789113,-2.133176565170288,-1.3325259548476716,-2.5314419905291956,6.094339597016134,1.0263428688049316,-2.431980911885397
1708442753.880894,-2.1328728199005127,-1.3325310510447999,-2.5315800348864954,6.093747603684225,1.0265834331512451,-2.4339421431170862
1708442753.8829021,-2.132606029510498,-1.3324779731086274,-2.5318034330951136,6.093102919846334,1.0268532037734985,-2.4359541575061243
1708442753.8848927,-2.1322579383850098,-1.3324427914670487,-2.531898085271017,6.092553245812216,1.0270403623580933,-2.438058916722433
1708442753.8869057,-2.131963014602661,-1.3324512404254456,-2.532020870839254,6.0918487189109705,1.0273005962371826,-2.4402359167682093
1708442753.8889132,-2.1316311359405518,-1.3323789250901719,-2.5321529547320765,6.091129410057821,1.027527928352356,-2.4423731009112757
1708442753.8909137,-2.1312952041625977,-1.3323437732509156,-2.532316271458761,6.090560900955953,1.0278054475784302,-2.4445467630969446
1708442753.8929079,-2.130919933319092,-1.3323123318007966,-2.5324364344226282,6.089754569321432,1.028062343597412,-2.4466827551471155
1708442753.8948941,-2.13057017326355,-1.332215816979744,-2.5326088110553187,6.0890986798103235,1.0283750295639038,-2.4488804976092737
1708442753.896906,-2.130218505859375,-1.332245187168457,-2.532736364995138,6.088305580406942,1.0286856889724731,-2.4511337916003626
1708442753.8988965,-2.1298351287841797,-1.3320783984712143,-2.5328968206988733,6.0876067755515955,1.0289276838302612,-2.453362051640646
1708442753.9009137,-2.1294517517089844,-1.3320757311633606,-2.5330334345446985,6.0867968676383875,1.0291916131973267,-2.4556716124164026
1708442753.902923,-2.1290481090545654,-1.3320571941188355,-2.533246103917257,6.086060154228964,1.029553771018982,-2.4580252806292933
1708442753.9049268,-2.128669261932373,-1.331927866940834,-2.5333555380450647,6.085264789849081,1.029817819595337,-2.460425917302267
1708442753.906912,-2.1282787322998047,-1.33188450456176,-2.533553425465719,6.084500419884481,1.030098557472229,-2.462931219731466
1708442753.9089048,-2.127863883972168,-1.3318896454623719,-2.5336645285235804,6.083686220436849,1.0303707122802734,-2.4653919378863733
1708442753.9108994,-2.1274733543395996,-1.3318213087371369,-2.533844534550802,6.082791435509481,1.0306715965270996,-2.467996422444479
1708442753.9129062,-2.127042055130005,-1.3317081940225144,-2.5340469519244593,6.0819750902946375,1.030947208404541,-2.4707463423358362
1708442753.9149203,-2.1265945434570312,-1.3316692125848313,-2.534189287816183,6.081057178765096,1.031288504600525,-2.4733503500567835
1708442753.9168992,-2.126143455505371,-1.3315846782973786,-2.5343290011035364,6.080177056580343,1.0315524339675903,-2.476016346608297
1708442753.9189155,-2.1257362365722656,-1.331541360621788,-2.5345447699176233,6.0792919276054285,1.031877040863037,-2.4785624186145228
1708442753.9208894,-2.125322103500366,-1.3314490926316758,-2.5347097555743616,6.078419077187338,1.0322386026382446,-2.481227699910299
1708442753.9229167,-2.124887466430664,-1.3314378422549744,-2.5348804632769983,6.07753478267745,1.0324937105178833,-2.483922545109884
1708442753.9249043,-2.1243996620178223,-1.3313744825175782,-2.535024706517355,6.076616275101461,1.0328481197357178,-2.4866703192340296
1708442753.9269068,-2.1238839626312256,-1.3313473177007218,-2.5352163950549524,6.0756462691123865,1.033141016960144,-2.4894374052630823
1708442753.9289167,-2.1234495639801025,-1.3313079935363312,-2.535363737736837,6.074664222985067,1.0335062742233276,-2.4923434893237513
1708442753.9309304,-2.1229910850524902,-1.3311711263707657,-2.53554350534548,6.0737055418785,1.0338099002838135,-2.4952309767352503
1708442753.932912,-2.122483491897583,-1.3310910624316712,-2.5357864538775843,6.072684395104208,1.0341269969940186,-2.498166624699728
1708442753.9349167,-2.1220169067382812,-1.3310185235789795,-2.535916868840353,6.071712720185079,1.0344754457473755,-2.5011916796313685
1708442753.936912,-2.1215009689331055,-1.331048311000206,-2.5360801855670374,6.070682751923361,1.0347423553466797,-2.5043492952929896
1708442753.9389205,-2.120985984802246,-1.3309038591435929,-2.536269489918844,6.069672214775839,1.035096287727356,-2.5073447863208216
1708442753.9409058,-2.1205246448516846,-1.3308368039182206,-2.5364161173449915,6.068546521454611,1.0354331731796265,-2.510433022175924
1708442753.9429195,-2.1200478076934814,-1.3307807606509705,-2.536584202443258,6.067493784218588,1.0358068943023682,-2.513498846684591
1708442753.9449153,-2.119535446166992,-1.3307374280742188,-2.536743227635519,6.066440450936117,1.036131501197815,-2.516578976308004
1708442753.9469173,-2.118959665298462,-1.330677555208542,-2.5369728247271937,6.0653728125389,1.0364503860473633,-2.519749943410055
1708442753.948913,-2.1184771060943604,-1.3305572879365464,-2.5371151606189173,6.064268100052633,1.0368173122406006,-2.522940222417013
1708442753.9509072,-2.11792254447937,-1.3304926317981263,-2.537356678639547,6.06314097621993,1.037165880203247,-2.5261486212359827
1708442753.9529169,-2.117387533187866,-1.330489696269371,-2.5375333468066614,6.062094914704122,1.0375064611434937,-2.5294233004199427
1708442753.954915,-2.1168346405029297,-1.330413432126381,-2.537671152745382,6.060978877335348,1.0378140211105347,-2.532780710850851
1708442753.95691,-2.116307020187378,-1.3303547662547608,-2.537908140813009,6.059788095742025,1.038183569908142,-2.536279026662008
1708442753.9589257,-2.1157386302948,-1.3302743148854752,-2.538079563771383,6.058671819954672,1.0385363101959229,-2.5396724382983606
1708442753.9609072,-2.115156412124634,-1.3301745516112824,-2.5381937662707728,6.05751000621871,1.0388569831848145,-2.5429943243609827
1708442753.9629178,-2.114579439163208,-1.3300779473832627,-2.5384238401996058,6.05635832527236,1.0392426252365112,-2.5463748613940638
1708442753.964901,-2.1139750480651855,-1.3300181043199082,-2.5385993162738245,6.055241215019979,1.0395419597625732,-2.5498130957232874
1708442753.9669037,-2.1133861541748047,-1.329943062072136,-2.5387261549579065,6.053995477944174,1.039903998374939,-2.553269926701681
1708442753.9689057,-2.11283016204834,-1.3298464578441163,-2.5388854185687464,6.05286585071639,1.0401915311813354,-2.5566697756396692
1708442753.9709048,-2.11226749420166,-1.3297866147807618,-2.53908616701235,6.051676499634542,1.0405116081237793,-2.5601776281939905
1708442753.972901,-2.111664056777954,-1.3297072064927598,-2.5392985979663294,6.050438868790426,1.040808081626892,-2.5637596289264124
1708442753.9749074,-2.1111059188842773,-1.3296311658671875,-2.539499107991354,6.0493072150047205,1.0411651134490967,-2.567406717930929
1708442753.9768977,-2.1105592250823975,-1.3296089184335251,-2.5396466890918177,6.048132288246908,1.0414689779281616,-2.5709391275988978
1708442753.9788954,-2.1100006103515625,-1.3295047593167801,-2.539830986653463,6.04689787605361,1.0417981147766113,-2.574418608342306
1708442753.9808989,-2.109381914138794,-1.3294168722680588,-2.539969507847921,6.045738327294149,1.0421390533447266,-2.5779455343829554
1708442753.9829326,-2.108794927597046,-1.3293334257653733,-2.540189806615011,6.044543492584982,1.0424518585205078,-2.5814805666552942
1708442753.9848936,-2.10821270942688,-1.329269991522171,-2.5403338114367884,6.043297874718466,1.0427929162979126,-2.5851474444018763
1708442753.986906,-2.107569932937622,-1.3292061400464554,-2.5404775778399866,6.042113530426779,1.0430848598480225,-2.58875018755068
1708442753.9888954,-2.1070146560668945,-1.3291310679963608,-2.540649954472677,6.040875899582662,1.0434213876724243,-2.5923951307879847
1708442753.9908936,-2.106412649154663,-1.32904705524955,-2.540837351475851,6.0396602032478235,1.0436846017837524,-2.596126143132345
1708442753.9928923,-2.1057980060577393,-1.3289580804160614,-2.5410221258746546,6.038474190026083,1.043989658355713,-2.599903170262472
1708442753.9949064,-2.1052439212799072,-1.3289071184447785,-2.541189972554342,6.037244307785787,1.0443110466003418,-2.6035149733172815
1708442753.9969006,-2.1046407222747803,-1.3287959110787888,-2.541314188634054,6.0360474465186975,1.0446105003356934,-2.607241932545797
1708442753.9989057,-2.1040425300598145,-1.3287602376988907,-2.5414777437793177,6.034768807678976,1.0449239015579224,-2.6108294169055384
1708442754.000906,-2.1034677028656006,-1.328676552777626,-2.5416250864612024,6.033585536270895,1.045175552368164,-2.614567581807272
1708442754.0029235,-2.102876663208008,-1.3286121052554627,-2.54179293314089,6.032393085747518,1.0455043315887451,-2.618237558995382
1708442754.004918,-2.102360963821411,-1.3285413396409531,-2.5420220533954065,6.0311771509941,1.045796275138855,-2.6219850222217005
1708442754.0069184,-2.101792573928833,-1.3284484159997483,-2.542161528264181,6.030011999398031,1.0460491180419922,-2.6257506052600306
1708442754.0089214,-2.1011810302734375,-1.3284466576627274,-2.542277161275045,6.0288299200828455,1.0463671684265137,-2.629617516194479
1708442754.0108864,-2.1006317138671875,-1.3283210110715409,-2.5424462000476282,6.027582514076986,1.04657781124115,-2.6332793871508997
1708442754.0128922,-2.100069284439087,-1.3282493215850373,-2.542549435292379,6.026460516243734,1.0468302965164185,-2.6370537916766565
1708442754.0149,-2.099489688873291,-1.3281980466893692,-2.5427213350879114,6.0252572176750085,1.0471071004867554,-2.6407445112811487
1708442754.016909,-2.0988543033599854,-1.3281261932900925,-2.54283315340151,6.024047839432516,1.0473593473434448,-2.644528929387228
1708442754.0189204,-2.0983293056488037,-1.328082637195923,-2.543013397847311,6.022837745934286,1.0476478338241577,-2.6483715216266077
1708442754.0208921,-2.0977938175201416,-1.3280349534801026,-2.5431864897357386,6.021723735123434,1.0478841066360474,-2.6521573702441614
1708442754.0229158,-2.0971903800964355,-1.327950583105423,-2.5433056990252894,6.020505058556356,1.0481690168380737,-2.6559818426715296
1708442754.024928,-2.0966455936431885,-1.3278742146543046,-2.543389145527975,6.019382703095236,1.0484055280685425,-2.6599624792682093
1708442754.0269337,-2.0960657596588135,-1.3278599393418808,-2.5435238520251673,6.018134581833639,1.048669457435608,-2.6638055483447474
1708442754.0289118,-2.0955259799957275,-1.3277233701995392,-2.5436444918261927,6.017013180046835,1.0488282442092896,-2.667537514363424
1708442754.0309038,-2.0950167179107666,-1.3276545715383072,-2.543756071721212,6.015855300217428,1.0490448474884033,-2.671323601399557
1708442754.0328963,-2.094503164291382,-1.3276278239539643,-2.5438969771014612,6.014760005265035,1.049323320388794,-2.675058190022604
1708442754.0349123,-2.093942642211914,-1.3275926870158692,-2.54398757616152,6.0136839030082605,1.0495232343673706,-2.6788488070117396
1708442754.0369146,-2.0934534072875977,-1.3274557900479813,-2.544128481541769,6.01254020908431,1.0496785640716553,-2.6827109495746058
1708442754.03894,-2.0929226875305176,-1.3274201166680832,-2.5442402998553675,6.011377441674032,1.049863576889038,-2.686626974736349
1708442754.0409138,-2.092374086380005,-1.3273479503444214,-2.5443595091449183,6.010330903321066,1.050084114074707,-2.6904762426959437
1708442754.0429065,-2.091893196105957,-1.3272680354169388,-2.5445011297809046,6.009137975960531,1.050270915031433,-2.69438606897463
1708442754.044897,-2.091395139694214,-1.3272318553975602,-2.5446205774890345,6.00812720039443,1.0504884719848633,-2.6981738249408167
1708442754.0468926,-2.09084415435791,-1.3272543412498017,-2.5447004477130335,6.006973731308737,1.0506973266601562,-2.701961342488424
1708442754.0488918,-2.0904102325439453,-1.3271501821330567,-2.54480487505068,6.005950081139364,1.0508687496185303,-2.7056339422809046
1708442754.0509102,-2.0898704528808594,-1.327053577905037,-2.544870678578512,6.004909026413717,1.051073431968689,-2.709545914326803
1708442754.0528998,-2.089388847351074,-1.3270330888083954,-2.5450363794909876,6.0038068173225305,1.0512701272964478,-2.713301960621969
1708442754.0549014,-2.0888607501983643,-1.3269828122905274,-2.545107905064718,6.002811538964071,1.0513968467712402,-2.717196051274435
1708442754.0568936,-2.0883686542510986,-1.3269252491048356,-2.5451751391040247,6.001786100655355,1.0516101121902466,-2.7210591475116175
1708442754.0589235,-2.087902307510376,-1.3269108098796387,-2.545321051274435,6.000803816109457,1.0517704486846924,-2.7250149885760706
1708442754.0609295,-2.087423086166382,-1.326765925889351,-2.5453549067126673,5.999827372818746,1.0519390106201172,-2.7287223974811
1708442754.0629253,-2.0869944095611572,-1.3267579537681122,-2.5454521814929407,5.9988558171089075,1.052087664604187,-2.7325153986560267
1708442754.0649,-2.0865464210510254,-1.3267066788724442,-2.5455437342273157,5.99783073642806,1.0521785020828247,-2.7362335363971155
1708442754.0669112,-2.0861241817474365,-1.3267066788724442,-2.545619074498312,5.996882664948263,1.052294373512268,-2.7400031725512903
1708442754.0689127,-2.0856685638427734,-1.3266437959722062,-2.545699659978048,5.9959730980689905,1.0524516105651855,-2.743825976048605
1708442754.0709476,-2.0851898193359375,-1.3265955460122605,-2.545799795781271,5.995087969094076,1.052605152130127,-2.7476030031787317
1708442754.0729213,-2.0847949981689453,-1.3265558344176789,-2.545842711125509,5.994186150818624,1.0527535676956177,-2.7514377276050013
1708442754.074958,-2.0843665599823,-1.3265154671720047,-2.545870844517843,5.9933098433311365,1.0528570413589478,-2.7554343382464808
1708442754.076907,-2.083944082260132,-1.3264516603997727,-2.54592210451235,5.992323505669393,1.0529569387435913,-2.7591219584094446
1708442754.0789192,-2.0835862159729004,-1.32643178225074,-2.546018902455465,5.991502153664388,1.0530363321304321,-2.7628381888019007
1708442754.0809326,-2.0831210613250732,-1.3263997447541733,-2.546051327382223,5.990726339607992,1.0530955791473389,-2.7664945761310022
1708442754.0828986,-2.0828042030334473,-1.326393411760666,-2.5460901896106165,5.989897954254904,1.0532209873199463,-2.7701695601092737
1708442754.0849195,-2.082475185394287,-1.326300175195076,-2.546170775090353,5.989057886391439,1.0532429218292236,-2.7738874594317835
1708442754.0869133,-2.082062005996704,-1.3263175350478669,-2.5462055842029017,5.988304602890768,1.0533239841461182,-2.777623716984884
1708442754.088907,-2.0816593170166016,-1.3262610596469422,-2.5462995211230677,5.987454521446981,1.053396224975586,-2.7814651171313685
1708442754.0909429,-2.081336259841919,-1.3261996072581788,-2.546307627354757,5.98671721199111,1.0533950328826904,-2.7852986494647425
1708442754.0928962,-2.0809366703033447,-1.3261966717294236,-2.5463584105121058,5.9859210131462,1.0535085201263428,-2.7891276518451136
1708442754.0949113,-2.0805981159210205,-1.3262145531228562,-2.546398703251974,5.985161053925314,1.0535491704940796,-2.7927125136004847
1708442754.0969064,-2.080308675765991,-1.3261606705239792,-2.5464513937579554,5.984551417618551,1.053579568862915,-2.796328608189718
1708442754.0989037,-2.080012083053589,-1.326108456855156,-2.5464664141284388,5.983903991967001,1.0536158084869385,-2.799903694783346
1708442754.1009285,-2.0797293186187744,-1.3260724556497117,-2.546490255986349,5.983236777573385,1.053680181503296,-2.803372923527853
1708442754.1029208,-2.0794014930725098,-1.3260441583446045,-2.5465591589557093,5.98260925987319,1.0537163019180298,-2.8069284597979944
1708442754.1049242,-2.0791430473327637,-1.326050118809082,-2.5465295950519007,5.981953966408529,1.0537688732147217,-2.8105412165271204
1708442754.1069229,-2.078839063644409,-1.326050118809082,-2.546591107045309,5.981339084893026,1.0537925958633423,-2.8141806761371058
1708442754.10891,-2.078580379486084,-1.3260066372207184,-2.546577755604879,5.9807907221610925,1.0538244247436523,-2.8179336229907435
1708442754.1109202,-2.078333854675293,-1.3260319989970704,-2.5466178099261683,5.980156528740682,1.0538289546966553,-2.8215399424182337
1708442754.1128943,-2.0780980587005615,-1.326008067732193,-2.5466087500201624,5.979606973915853,1.0538363456726074,-2.8249619642840784
1708442754.1149528,-2.077850103378296,-1.3259661954692383,-2.5466702620135706,5.97902940490798,1.0537996292114258,-2.8283916155444544
1708442754.1168976,-2.077599287033081,-1.3259616655162354,-2.5466583410846155,5.978553044586935,1.0537995100021362,-2.8318305651294153
1708442754.1189082,-2.0774009227752686,-1.3259498339942475,-2.5466540495501917,5.977975237160482,1.0538082122802734,-2.835205856953756
1708442754.120902,-2.077131986618042,-1.3259425920299073,-2.5466464201556605,5.977467524796285,1.0537469387054443,-2.838661495839254
1708442754.1229117,-2.0769364833831787,-1.3259661954692383,-2.546621624623434,5.977009165077963,1.053722858428955,-2.8420961538897913
1708442754.1249564,-2.0767385959625244,-1.3259452891400834,-2.546637837086813,5.976569640427389,1.0537281036376953,-2.84560472169985
1708442754.1269345,-2.076525926589966,-1.3259363931468506,-2.5466421286212366,5.976182925492086,1.053675889968872,-2.8491984049426478
1708442754.128913,-2.076404333114624,-1.3259498339942475,-2.5466089884387415,5.975734340935507,1.053675889968872,-2.852705780659811
1708442754.1309216,-2.0762155055999756,-1.3259662103703995,-2.546605888997213,5.97537790515975,1.0536028146743774,-2.856023613606588
1708442754.1328914,-2.076014757156372,-1.3259218645146866,-2.5466013590442103,5.974980222969808,1.0535588264465332,-2.85938007036318
1708442754.1349006,-2.07590913772583,-1.3259572100690384,-2.546572987233297,5.974634277611532,1.053546667098999,-2.862662378941671
1708442754.1369126,-2.075749158859253,-1.3260156226209183,-2.5466390291797083,5.9742387411888025,1.053529143333435,-2.866002146397726
1708442754.1389213,-2.075608491897583,-1.3260110926679154,-2.546553913746969,5.973943698197164,1.0535392761230469,-2.869286600743429
1708442754.1409047,-2.075538396835327,-1.3259858351996918,-2.5465505758868616,5.9736366150672815,1.0535478591918945,-2.8726499716388147
1708442754.14291,-2.075443744659424,-1.326066480284073,-2.5465338865863245,5.97338484504775,1.053552269935608,-2.8759763876544397
1708442754.1449022,-2.075326681137085,-1.3260218364051362,-2.546469513569967,5.9730876562889,1.053499698638916,-2.8794668356524866
1708442754.1468992,-2.075181722640991,-1.326082856660225,-2.546457592641012,5.972934829979696,1.0534594058990479,-2.8828068415271204
1708442754.1488926,-2.0751399993896484,-1.3261022430709382,-2.5464099089251917,5.972640979080953,1.0533051490783691,-2.886082951222555
1708442754.1509078,-2.0750246047973633,-1.3261472296765824,-2.5464261213885706,5.972438800125875,1.053245186805725,-2.889277760182516
1708442754.1528883,-2.074911117553711,-1.326092080479004,-2.546366039906637,5.972237932472982,1.0531851053237915,-2.8924647013293665
1708442754.1549144,-2.0748751163482666,-1.3261590164950867,-2.546325747166769,5.972131478577413,1.0531424283981323,-2.8956754843341272
1708442754.1569047,-2.0748486518859863,-1.3261382442763825,-2.5462597052203577,5.971993553429403,1.0530329942703247,-2.898857657109396
1708442754.1588905,-2.07480788230896,-1.3262066555074234,-2.5462570826159876,5.971857178002157,1.0529860258102417,-2.902111832295553
1708442754.1609044,-2.0747954845428467,-1.3262639802745362,-2.5462332407580774,5.971749412804403,1.0528690814971924,-2.9053898493396204
1708442754.1629055,-2.0747733116149902,-1.3262415689281006,-2.546213452016012,5.971693861275472,1.0527642965316772,-2.9086254278766077
1708442754.1649323,-2.0747733116149902,-1.3262624752572556,-2.5461939016925257,5.971605050354757,1.0526515245437622,-2.9119885603534144
1708442754.1669168,-2.0747408866882324,-1.3263098162463685,-2.5461981932269495,5.9715919373329065,1.052592396736145,-2.9151268641101282
1708442754.1688907,-2.074704647064209,-1.3262926203063508,-2.546161953602926,5.971499073296346,1.0524638891220093,-2.9182375113116663
1708442754.1708963,-2.0747170448303223,-1.3263577383807679,-2.5461052099811,5.971487152367391,1.0523685216903687,-2.9213557879077356
1708442754.1728885,-2.07474946975708,-1.3264234823039551,-2.5460978190051478,5.971478211670675,1.05229651927948,-2.924420181904928
1708442754.1748915,-2.074801445007324,-1.3263567251018067,-2.54607063928713,5.9715767977531335,1.0521348714828491,-2.9274845759021204
1708442754.1768978,-2.074857234954834,-1.3264585447362442,-2.5460215250598353,5.971642839699545,1.0519815683364868,-2.9306932131396692
1708442754.17893,-2.074917793273926,-1.3264575612596055,-2.5459616819964808,5.971671330719747,1.05191171169281,-2.9337554613696497
1708442754.1809192,-2.0749735832214355,-1.3264645052007218,-2.5459046999560755,5.97177933433608,1.0517293214797974,-2.936930004750387
1708442754.1829126,-2.0750370025634766,-1.3265326631120224,-2.545938316975729,5.971947181015768,1.0516295433044434,-2.9401665369616907
1708442754.1849108,-2.0751023292541504,-1.3265607816031952,-2.545840565358297,5.972022282868185,1.0514887571334839,-2.943334166203634
1708442754.186905,-2.075178384780884,-1.3265838784030457,-2.5458579699145716,5.972080695420065,1.0513936281204224,-2.946364466344015
1708442754.188909,-2.0752203464508057,-1.3265882295421143,-2.545814339314596,5.972275364189901,1.0512775182724,-2.9493284861194056
1708442754.190893,-2.0752930641174316,-1.3266480726054688,-2.5457542578326624,5.972377407341757,1.0511332750320435,-2.9523876349078577
1708442754.192895,-2.0754008293151855,-1.326619715695717,-2.5457096735583704,5.9725756523902795,1.0510047674179077,-2.955395523701803
1708442754.1949136,-2.0754847526550293,-1.3267417264035721,-2.545649830495016,5.972746121674337,1.0508514642715454,-2.9584694544421595
1708442754.196903,-2.0755810737609863,-1.3267482084086915,-2.5456059614764612,5.972984540253439,1.0507116317749023,-2.961445156727926
1708442754.1989262,-2.075732946395874,-1.3267066192677994,-2.54555327097048,5.973227131157675,1.0505716800689697,-2.9644597212420862
1708442754.2009025,-2.075852870941162,-1.3268002432635804,-2.5454850832568567,5.973425256996908,1.050406813621521,-2.967482630406515
1708442754.2029488,-2.07600474357605,-1.326831893329956,-2.545461956654684,5.973764049797811,1.050278902053833,-2.9705308119403284
1708442754.2048886,-2.076075792312622,-1.3268586260131379,-2.5454021135913294,5.974032747536459,1.050179362297058,-2.9736643473254603
1708442754.206907,-2.076249361038208,-1.3268948060325165,-2.545394245778219,5.974320041924276,1.0500141382217407,-2.976567331944601
1708442754.2088993,-2.0764286518096924,-1.3269482266953965,-2.5453057924853724,5.974630224495687,1.0498502254486084,-2.9795590082751673
1708442754.2109046,-2.0765068531036377,-1.3270292443088074,-2.545225207005636,5.974984276085653,1.0496699810028076,-2.982338253651754
1708442754.2129295,-2.0767438411712646,-1.3269783717444916,-2.54518968263735,5.975393163948812,1.04954195022583,-2.9852073828326624
1708442754.2149081,-2.0768754482269287,-1.326972411280014,-2.545203510914938,5.975744354515829,1.049414038658142,-2.9880686442004603
1708442754.2169142,-2.077054023742676,-1.3270991903594513,-2.545081440602438,5.976201283722677,1.0492295026779175,-2.990870539342062
1708442754.2189114,-2.0771965980529785,-1.3271679145148774,-2.545013491307394,5.976562607079305,1.0490403175354004,-2.9936934153186243
1708442754.2209084,-2.0774660110473633,-1.3272368174842377,-2.5449700991259974,5.977033483773031,1.0489379167556763,-2.9965861479388636
1708442754.2229176,-2.0776689052581787,-1.3272442680648346,-2.54488188425173,5.977448570519247,1.0487114191055298,-2.999498430882589
1708442754.2249157,-2.0778934955596924,-1.327295185332634,-2.5448339621173304,5.977908837586202,1.0485508441925049,-3.002404276524679
1708442754.2269142,-2.0781219005584717,-1.3273145270398636,-2.544769350682394,5.9783446667488,1.048414945602417,-3.00527006784548
1708442754.2289155,-2.078303337097168,-1.327374131684639,-2.5447378794299524,5.978788482933798,1.0482466220855713,-3.008108679448263
1708442754.2309246,-2.078547954559326,-1.327480049138405,-2.544694248829977,5.97928940036849,1.0480784177780151,-3.01086932817568
1708442754.2329054,-2.0787792205810547,-1.3274699759534379,-2.544581715260641,5.979702818184652,1.0479341745376587,-3.0135913530932825
1708442754.234911,-2.0790224075317383,-1.3275462698987504,-2.5445380846606653,5.980305301934042,1.0477163791656494,-3.016367022191183
1708442754.2369108,-2.079277276992798,-1.327625424867012,-2.544490162526266,5.980774748116293,1.0475525856018066,-3.0190463701831263
1708442754.2389157,-2.079573154449463,-1.3276492667249222,-2.5443812052356165,5.981373178749838,1.0473887920379639,-3.0218187014209192
1708442754.2408986,-2.0798206329345703,-1.3277653467706223,-2.544330898915426,5.98191391208724,1.0472368001937866,-3.024522129689352
1708442754.2429092,-2.0801444053649902,-1.3278452169946213,-2.544213358555929,5.982443082123556,1.0470675230026245,-3.027186457310812
1708442754.2449083,-2.0804283618927,-1.3278768223575135,-2.544161621724264,5.983032929688253,1.0469201803207397,-3.029898230229513
1708442754.2469473,-2.0807275772094727,-1.3280063283494492,-2.544076983128683,5.983615386276998,1.046735167503357,-3.0325942675219935
1708442754.2488952,-2.080988883972168,-1.3280813556960602,-2.544042174016134,5.984248149185934,1.0465550422668457,-3.0354695955859583
1708442754.2509108,-2.0813188552856445,-1.3281561893275757,-2.543917719517843,5.984864103585043,1.0464521646499634,-3.038346830998556
1708442754.2529268,-2.08170223236084,-1.3282067638686677,-2.5438371340381067,5.9854339239890955,1.0461689233779907,-3.0410707632647913
1708442754.2549257,-2.081993341445923,-1.3283230674317856,-2.543813769017355,5.986120331078329,1.046030044555664,-3.043745819722311
1708442754.2569096,-2.0823071002960205,-1.3283862930587311,-2.543722454701559,5.986770736962118,1.0458499193191528,-3.0463345686541956
1708442754.2589247,-2.0826640129089355,-1.3284744930318375,-2.5436211268054407,5.987451660424032,1.0456933975219727,-3.0489311853991907
1708442754.2609015,-2.083014488220215,-1.3285581928542634,-2.543553415928976,5.988138067513265,1.0454802513122559,-3.0515525976764124
1708442754.2629297,-2.0833699703216553,-1.328679011469223,-2.5435336271869105,5.988842475205221,1.0452955961227417,-3.054004971181051
1708442754.2649202,-2.0837252140045166,-1.3288195741227646,-2.5433931986438196,5.98962830284194,1.0451445579528809,-3.056709591542379
1708442754.2669284,-2.084078788757324,-1.3289062690785904,-2.5433505217181605,5.990388023644247,1.0449275970458984,-3.0593369642840784
1708442754.268913,-2.0844967365264893,-1.3289780181697388,-2.543246094380514,5.991109835892477,1.0447601079940796,-3.062143866215841
1708442754.2709103,-2.08492112159729,-1.329045371418335,-2.5431576410876673,5.991865026741781,1.0445098876953125,-3.0648089090930384
1708442754.2729137,-2.085266590118408,-1.329132319693901,-2.5431063810931605,5.992645013123312,1.0443590879440308,-3.0674808661090296
1708442754.2749174,-2.0856332778930664,-1.3291993004134675,-2.5429895559894007,5.9934648154075525,1.0441139936447144,-3.0700300375567835
1708442754.2769203,-2.086036205291748,-1.3292990040830155,-2.542950455342428,5.994335281639852,1.0439499616622925,-3.0725272337542933
1708442754.278939,-2.086402654647827,-1.3294273626855393,-2.5428128878222864,5.995083677559652,1.0437623262405396,-3.0750723520862024
1708442754.2809265,-2.0868661403656006,-1.3295325201800843,-2.5427737871753138,5.995865690499105,1.0435209274291992,-3.0776377359973353
1708442754.2829406,-2.087245225906372,-1.329656646852829,-2.5426817576037806,5.99673472621993,1.0433087348937988,-3.080139938985006
1708442754.2849276,-2.0876681804656982,-1.3296700429967423,-2.542609755192892,5.9976714728172205,1.0430550575256348,-3.0826852957354944
1708442754.286919,-2.0881187915802,-1.3298076850226899,-2.5425053278552454,5.998632418900289,1.0428462028503418,-3.0852890650378626
1708442754.2889187,-2.0885822772979736,-1.3299136769822617,-2.5424419085132044,5.999523269921102,1.0426583290100098,-3.087928120289938
1708442754.2909255,-2.089017868041992,-1.3299806428006669,-2.542325560246603,6.0004628775413416,1.0424010753631592,-3.0903759638415735
1708442754.292915,-2.089444637298584,-1.330129252081253,-2.542281691228048,6.001306998520651,1.0422637462615967,-3.0930281321154993
1708442754.2949178,-2.0898022651672363,-1.330256314282753,-2.542151991521017,6.002264129906454,1.0420135259628296,-3.0956316629992884
1708442754.2969277,-2.090261459350586,-1.3303036999753495,-2.54208213487734,6.003165590554037,1.0418338775634766,-3.0981724897967737
1708442754.298912,-2.0907340049743652,-1.330467389231064,-2.5419979731189173,6.00419698932723,1.0416549444198608,-3.100762907658712
1708442754.3009224,-2.091135025024414,-1.3306152534535904,-2.5419228712665003,6.00517367103652,1.041420817375183,-3.103356424962179
1708442754.302952,-2.091606616973877,-1.3307350736907502,-2.5417898336993616,6.00621377208785,1.0411806106567383,-3.1058667341815394
1708442754.304918,-2.092142105102539,-1.3308666360429307,-2.5416980425464075,6.007191049843588,1.040910243988037,-3.108272139226095
1708442754.306934,-2.092569351196289,-1.3309770983508606,-2.541593615208761,6.008351909905233,1.040727972984314,-3.1107643286334437
1708442754.3089135,-2.0930235385894775,-1.3311661046794434,-2.541510883961813,6.009420144348898,1.0405117273330688,-3.1132100264178675
1708442754.310931,-2.093506336212158,-1.3312480312636872,-2.541405979787008,6.01046251037673,1.0402908325195312,-3.1156142393695276
1708442754.3129084,-2.0940191745758057,-1.3313796830228348,-2.5413056055652063,6.011518466263571,1.0400538444519043,-3.1180108229266565
1708442754.31493,-2.0945019721984863,-1.3315597039512177,-2.5411773363696497,6.01264904716567,1.0398218631744385,-3.1205065886126917
1708442754.3169158,-2.09499192237854,-1.331707702284195,-2.541093889866964,6.013766753464498,1.0396009683609009,-3.1230085531817835
1708442754.318943,-2.0955708026885986,-1.3318188798478623,-2.5409818331347864,6.014846670418539,1.0393813848495483,-3.1256950537311
1708442754.3209152,-2.0960497856140137,-1.33201518774543,-2.5408573786364954,6.015959012299337,1.0391082763671875,-3.128165308629171
1708442754.3229458,-2.0965957641601562,-1.3320808869651337,-2.5407496134387415,6.0170795796211145,1.0388513803482056,-3.130719010029928
1708442754.3249238,-2.0971405506134033,-1.332221047287323,-2.540666405354635,6.018303620606222,1.0386229753494263,-3.1331425348864954
1708442754.32695,-2.0977120399475098,-1.3324449521354218,-2.5405824820147913,6.019476282387533,1.0384033918380737,-3.1356523672686976
1708442754.328909,-2.098256826400757,-1.332613007431366,-2.5404420534717005,6.020659076958456,1.03811776638031,-3.1379860083209437
1708442754.3309107,-2.0988008975982666,-1.332784743314125,-2.540342394505636,6.021882283478536,1.0378893613815308,-3.1403968969928187
1708442754.3328986,-2.0993635654449463,-1.3329311919263382,-2.5402260462390345,6.023041236191549,1.0376209020614624,-3.1426785627948206
1708442754.3349268,-2.0999183654785156,-1.3331314784339447,-2.5401464144336146,6.024251568108358,1.0373975038528442,-3.1450472513781946
1708442754.3369427,-2.100513458251953,-1.333250255589821,-2.54002553621401,6.025531399040975,1.0371037721633911,-3.14734918275942
1708442754.3389142,-2.1010067462921143,-1.3334906858256836,-2.539945665990011,6.026694047241964,1.0368558168411255,-3.1496971289264124
1708442754.3409028,-2.1015782356262207,-1.3336330515197297,-2.5398834387408655,6.028003084450521,1.0366109609603882,-3.1520660559283655
1708442754.3429275,-2.102217435836792,-1.33376860738311,-2.539705816899435,6.029307234078207,1.0363386869430542,-3.154482666646139
1708442754.3448992,-2.10273814201355,-1.3339681190303345,-2.539642397557394,6.030640828400411,1.0360865592956543,-3.156938139592306
1708442754.3469136,-2.103374481201172,-1.3341633093408127,-2.539461676274435,6.031922566681661,1.035821795463562,-3.1592870394336146
1708442754.3488994,-2.1039602756500244,-1.3342654717019578,-2.539398256932394,6.033224212914266,1.035548448562622,-3.161691490803854
1708442754.3509097,-2.104527235031128,-1.3345177334598084,-2.5392096678363245,6.034471976547994,1.0352646112442017,-3.163978640233175
1708442754.3528957,-2.10510516166687,-1.3346889925054093,-2.5391791502581995,6.03585301616744,1.0349833965301514,-3.1663363615619105
1708442754.3549056,-2.1057374477386475,-1.334889368419983,-2.5390501658069056,6.037112939148702,1.0347309112548828,-3.168657128010885
1708442754.3569062,-2.10634708404541,-1.3350355935147782,-2.53892690340151,6.0384724018867395,1.0344992876052856,-3.1708503405200403
1708442754.3589265,-2.106912612915039,-1.3352353286794205,-2.538806978856222,6.0398820517356775,1.034190058708191,-3.1731107870685022
1708442754.3609014,-2.107576370239258,-1.3354389679482956,-2.5386784712420862,6.04137014129714,1.0339252948760986,-3.1753507296191614
1708442754.3629107,-2.108238697052002,-1.335662455563881,-2.538513724003927,6.042810427933492,1.0336414575576782,-3.177588764821188
1708442754.3648987,-2.108815908432007,-1.3358291250518342,-2.5383992830859583,6.044254410057821,1.0333606004714966,-3.1798346678363245
1708442754.3669112,-2.109470844268799,-1.3359873604825516,-2.5382867495166224,6.045600998192587,1.0331251621246338,-3.182107988988058
1708442754.3689244,-2.1101393699645996,-1.336263657813408,-2.5381341616259974,6.047042953758993,1.0327926874160767,-3.184331480656759
1708442754.3709006,-2.1107349395751953,-1.3364226532033463,-2.538037363682882,6.048449146538534,1.0325685739517212,-3.186700169240133
1708442754.372896,-2.1113719940185547,-1.336649940615036,-2.5379472414599817,6.049817311554708,1.0322265625,-3.188965145741598
1708442754.3749158,-2.112013578414917,-1.3368651580861588,-2.537776056920187,6.051350462227621,1.0320073366165161,-3.191275421773092
1708442754.376907,-2.112708568572998,-1.337081031208374,-2.5376654306994837,6.052836167603292,1.0316829681396484,-3.1934502760516565
1708442754.3789296,-2.113370895385742,-1.3372632724097748,-2.537542168294088,6.0544179556663416,1.0313526391983032,-3.19563872018923
1708442754.380908,-2.1140854358673096,-1.3375110042146225,-2.5374222437488,6.055915581970968,1.0310404300689697,-3.19792610803713
1708442754.3829238,-2.1147143840789795,-1.3376980882934113,-2.537269417439596,6.057407724648275,1.030764102935791,-3.2000630537616175
1708442754.3849013,-2.11543345451355,-1.337959499364235,-2.537140194569723,6.059006798058309,1.0304468870162964,-3.202266518269674
1708442754.386917,-2.116096019744873,-1.3382150095752259,-2.537046019230978,6.060561167984762,1.0301584005355835,-3.20445686975588
1708442754.3889074,-2.116758346557617,-1.3384381395629426,-2.536900822316305,6.062083232193746,1.029918909072876,-3.206571165715353
1708442754.390946,-2.117501974105835,-1.3386680793813248,-2.536778990422384,6.063673603325643,1.0295650959014893,-3.208775822316305
1708442754.3928962,-2.118215799331665,-1.3389368665269394,-2.536584202443258,6.065314996033468,1.0293419361114502,-3.2109196821795862
1708442754.3949215,-2.118922472000122,-1.3391996634057541,-2.5364611784564417,6.066931354790487,1.0289671421051025,-3.213135544453756
1708442754.396905,-2.1196448802948,-1.3394063276103516,-2.5362961927997034,6.0685466406639,1.0286304950714111,-3.215266529713766
1708442754.3989062,-2.120359420776367,-1.3396874976209183,-2.5361807982074183,6.070321547776022,1.0283745527267456,-3.2175560633288782
1708442754.4009204,-2.121077299118042,-1.3399175864509125,-2.536102596913473,6.071965086251058,1.0279918909072876,-3.2197752634631556
1708442754.4029374,-2.1218068599700928,-1.3402013939670105,-2.535895888005392,6.073623406677999,1.0277296304702759,-3.2219436804400843
1708442754.4049237,-2.1224913597106934,-1.340480924849846,-2.5358100573169153,6.075362193375387,1.0273600816726685,-3.224053208027975
1708442754.406933,-2.123239278793335,-1.3407068413547059,-2.535703961049215,6.077069151192465,1.0270715951919556,-3.226215902959005
1708442754.4089127,-2.1239161491394043,-1.3409609955600281,-2.535525623952047,6.078822719841757,1.0267798900604248,-3.228387180958883
1708442754.410928,-2.124669075012207,-1.3412655007890244,-2.5353694597827356,6.0805197832878015,1.0263984203338623,-3.2305811087237757
1708442754.4128997,-2.1254031658172607,-1.3415886026671906,-2.535201374684469,6.08220528343276,1.0260498523712158,-3.232654396687643
1708442754.4149396,-2.126124143600464,-1.3418234449676056,-2.5350950399981897,6.0840914128120325,1.0257209539413452,-3.234788481389181
1708442754.4169075,-2.1269195079803467,-1.342130885725357,-2.5349181334124964,6.085875856667318,1.0253632068634033,-3.2368481794940394
1708442754.4189126,-2.12772536277771,-1.3423897934011002,-2.5347662607776087,6.087673771172323,1.025043249130249,-3.23890191713442
1708442754.4209337,-2.128398895263672,-1.34266913056884,-2.534604612980978,6.089479553490438,1.0246824026107788,-3.240985695515768
1708442754.422922,-2.1292338371276855,-1.3429846328547974,-2.534441057835714,6.091395962029257,1.0243371725082397,-3.242995087300436
1708442754.4249232,-2.130000352859497,-1.343292624955513,-2.534309212361471,6.093225943833151,1.0240373611450195,-3.2451375166522425
1708442754.4269562,-2.1307852268218994,-1.3435408037951966,-2.5341346899615687,6.095053899079122,1.0237009525299072,-3.2472670714007776
1708442754.4289148,-2.131564140319824,-1.3439138543656846,-2.5339775721179407,6.096967208176412,1.0233720541000366,-3.2495408693896692
1708442754.4309413,-2.1323490142822266,-1.3441714656404038,-2.53381854692568,6.098914611130514,1.0229829549789429,-3.2517531553851526
1708442754.4329076,-2.133148193359375,-1.3444420409253617,-2.533686939870016,6.100944387703695,1.022626519203186,-3.253864828740255
1708442754.4349408,-2.1339924335479736,-1.3447854083827515,-2.5335262457477015,6.102866160660543,1.0222491025924683,-3.255873743687765
1708442754.4369195,-2.134809970855713,-1.3450801086476822,-2.533358637486593,6.104863154679098,1.0218929052352905,-3.2577572504626673
1708442754.438943,-2.135558843612671,-1.345391036277153,-2.5332143942462366,6.106816160469808,1.0215083360671997,-3.259921137486593
1708442754.44093,-2.1363863945007324,-1.3457212013057251,-2.5330660978900355,6.1087790606315515,1.0211344957351685,-3.2619169394122522
1708442754.4429576,-2.137205123901367,-1.346107081776001,-2.53291899362673,6.110810267716207,1.0207782983779907,-3.2638943831073206
1708442754.4449081,-2.138038396835327,-1.3464132410338898,-2.5327165762530726,6.112839805870809,1.0203982591629028,-3.2659526507007044
1708442754.4469748,-2.1389412879943848,-1.3467435401729126,-2.532586399708883,6.114820110588827,1.0200533866882324,-3.2680137793170374
1708442754.448909,-2.1397716999053955,-1.3469974857619782,-2.532435719166891,6.1168826697166345,1.0196242332458496,-3.2700160185443323
1708442754.4509475,-2.140629529953003,-1.347398505812027,-2.532274309788839,6.119023310929098,1.0192679166793823,-3.2720349470721644
1708442754.4529061,-2.141495943069458,-1.3477333349040528,-2.5321274439441126,6.121044385224142,1.0189307928085327,-3.2741037050830286
1708442754.454961,-2.142317533493042,-1.3480799955180665,-2.531945768986837,6.123079764633932,1.018640160560608,-3.2761197725879114
1708442754.4569151,-2.1431469917297363,-1.3483728182366868,-2.5317614714251917,6.125048506050863,1.0182350873947144,-3.2781787554370325
1708442754.458907,-2.1440253257751465,-1.3487347972444077,-2.531597916279928,6.1270720837409876,1.0178617238998413,-3.280203644429342
1708442754.4609463,-2.1447906494140625,-1.3490994435599823,-2.531464163457052,6.129075991898336,1.0175094604492188,-3.2822662035571497
1708442754.4629028,-2.1455955505371094,-1.3494700354388733,-2.5313146750079554,6.13111840465621,1.0171362161636353,-3.284154717122213
1708442754.4649377,-2.146470308303833,-1.3498379451087494,-2.5311346689807337,6.1332106468971155,1.0167068243026733,-3.2861252466784876
1708442754.466918,-2.1473817825317383,-1.3501592439464112,-2.530966583882467,6.1352648613746545,1.0163538455963135,-3.288044516240255
1708442754.4689016,-2.1481735706329346,-1.3505250823548813,-2.5307822863208216,6.137496697693624,1.015980839729309,-3.290130678807394
1708442754.470957,-2.149125099182129,-1.3509737265161057,-2.530639712010519,6.139603960305013,1.0155842304229736,-3.2920811812030237
1708442754.4728968,-2.1499249935150146,-1.3513028037599106,-2.5304399172412317,6.141715276032247,1.0152415037155151,-3.2939966360675257
1708442754.4749377,-2.1507959365844727,-1.3517224353602906,-2.5302544275866907,6.14378713348464,1.0148550271987915,-3.2957609335528772
1708442754.4769144,-2.151629686355591,-1.352106751208641,-2.53011924425234,6.145933615952291,1.0144256353378296,-3.2976866404162806
1708442754.4789088,-2.152536153793335,-1.3524638277343293,-2.5299394766436976,6.148060309677877,1.0141186714172363,-3.299530331288473
1708442754.4809322,-2.153381586074829,-1.3528301280787964,-2.529795233403341,6.150216328888693,1.0137685537338257,-3.301405970250265
1708442754.482923,-2.1541872024536133,-1.3531874281219025,-2.5296033064471644,6.152313220291891,1.0133929252624512,-3.3032363096820276
1708442754.4849367,-2.1550397872924805,-1.3535716098598023,-2.5293694178210657,6.154432165413656,1.0130277872085571,-3.3050838152514856
1708442754.4869387,-2.1559464931488037,-1.3539737474969407,-2.5292344729052942,6.15659116485671,1.0125982761383057,-3.306967560444967
1708442754.4889245,-2.1567611694335938,-1.3543846172145386,-2.5290637652026575,6.158763038903036,1.0122339725494385,-3.308903757725851
1708442754.4909263,-2.1576006412506104,-1.3547803324512024,-2.528921190892355,6.1608914015586755,1.0118048191070557,-3.3108959833728235
1708442754.4928992,-2.15842866897583,-1.3551633071950455,-2.5287004152881067,6.162987458496847,1.0114977359771729,-3.3128042856799524
1708442754.494933,-2.159294843673706,-1.3554907006076355,-2.5285149256335657,6.165192353516378,1.0110186338424683,-3.3145719210254114
1708442754.4969125,-2.1601412296295166,-1.3559691470912476,-2.52834660211672,6.167392480164327,1.0107039213180542,-3.3163722197162073
1708442754.498926,-2.1609668731689453,-1.3563277137330552,-2.528196159993307,6.169600355416097,1.0102986097335815,-3.3181725184070032
1708442754.5009522,-2.1618425846099854,-1.3566565376571198,-2.5279536882983606,6.171678292542257,1.009867787361145,-3.3199484984027308
1708442754.5029478,-2.1626322269439697,-1.3570344907096406,-2.527824942265646,6.1738717434699915,1.0094726085662842,-3.321791950856344
1708442754.5049434,-2.163511276245117,-1.357478217487671,-2.5276106039630335,6.176059591561117,1.0090996026992798,-3.3236148993121546
1708442754.5069149,-2.1643824577331543,-1.357792319064476,-2.5274394194232386,6.178194391518392,1.0086992979049683,-3.3254290262805384
1708442754.5089114,-2.1652157306671143,-1.358194188480713,-2.527276102696554,6.180330264359274,1.008342981338501,-3.327099386845724
1708442754.510937,-2.1659927368164062,-1.3585904699615021,-2.5270913282977503,6.182452428131857,1.0079256296157837,-3.328850332890646
1708442754.5129201,-2.1668384075164795,-1.358977587228157,-2.526923720036642,6.184556233673849,1.007541537284851,-3.330608908330099
1708442754.5149186,-2.167661666870117,-1.3592987221530457,-2.52671987215151,6.186742889672079,1.0070700645446777,-3.332262102757589
1708442754.5169053,-2.1684513092041016,-1.3596278888038178,-2.526511255894796,6.188799965172567,1.0067195892333984,-3.333921257649557
1708442754.518897,-2.1692440509796143,-1.3600356143764039,-2.5262981096850794,6.190863239556112,1.0063178539276123,-3.335755173360006
1708442754.520925,-2.1700851917266846,-1.360336573129036,-2.5260775724994105,6.192991483002462,1.0058729648590088,-3.337482754384176
1708442754.5229082,-2.170875310897827,-1.3607337486794968,-2.525935236607687,6.19509385803298,1.0054969787597656,-3.3392375151263636
1708442754.5249293,-2.1717259883880615,-1.3611375850490113,-2.5257194677936,6.197205054550924,1.0051002502441406,-3.341006104146139
1708442754.5269299,-2.172548770904541,-1.3614515972188492,-2.525532070790426,6.1992695210273645,1.004737377166748,-3.34269363084902
1708442754.5289245,-2.1732890605926514,-1.361828015451767,-2.52533990541567,6.2013659355934045,1.0043439865112305,-3.3443923632251185
1708442754.5309045,-2.1740620136260986,-1.3621806067279358,-2.5251598993884485,6.203269469528951,1.003902554512024,-3.3459728399859827
1708442754.5329213,-2.174848794937134,-1.3625436884215851,-2.5248904863940638,6.2053648112113855,1.0034985542297363,-3.3475967089282435
1708442754.5349448,-2.1756486892700195,-1.3628711861423035,-2.5247085730182093,6.20740436294631,1.0030697584152222,-3.349273983632223
1708442754.5369246,-2.176466941833496,-1.3632179510644455,-2.5244956652270716,6.20935486534194,1.0026421546936035,-3.350870196019308
1708442754.5389447,-2.177175998687744,-1.363503174190857,-2.524329487477438,6.211335170059957,1.002200722694397,-3.352518383656637
1708442754.5409312,-2.1779258251190186,-1.3638051760247727,-2.524055067692892,6.213322508126058,1.0018013715744019,-3.354201141987936
1708442754.5429635,-2.178626537322998,-1.3641895216754456,-2.5238269011126917,6.215268838196554,1.001360297203064,-3.355767790471212
1708442754.5449476,-2.1794064044952393,-1.3645573121360322,-2.523606602345602,6.2172067044074915,1.000892162322998,-3.357274595891134
1708442754.5469089,-2.180103302001953,-1.3648501199534913,-2.5233786741839808,6.219103204994955,1.0004318952560425,-3.3587330023394983
1708442754.5489035,-2.1808784008026123,-1.365158037548401,-2.523191038762228,6.220925795822897,1.000048041343689,-3.3602731863604944
1708442754.5509417,-2.1815671920776367,-1.3654975456050416,-2.5229602495776575,6.222808348923483,0.9996727705001831,-3.3617568651782435
1708442754.5529208,-2.1823227405548096,-1.3657482725432892,-2.5226977507220667,6.2245898125465295,0.9992274045944214,-3.3632527033435267
1708442754.5549202,-2.1829795837402344,-1.3660297107747574,-2.522525135670797,6.22646330574111,0.9987742304801941,-3.3647077719317835
