Eg3-git/Classifiers/Data Collection/u8/u8cir2_ur3e_joint_states.csv
time,elbow_joint,shoulder_lift_joint,shoulder_pan_joint,wrist_1_joint,wrist_2_joint,wrist_3_joint
1708443173.7910643,-2.1413118839263916,-1.3335879159024735,-2.5271785894977015,6.109961974411764,1.0183038711547852,-2.2131174246417444
1708443173.793073,-2.141315221786499,-1.3336116683534165,-2.5271320978747767,6.109953152924337,1.018308162689209,-2.2131593863116663
1708443173.7950268,-2.1412858963012695,-1.3336072725108643,-2.5272162596331995,6.109936702042379,1.018308162689209,-2.2131503264056605
1708443173.797036,-2.141298294067383,-1.3335623902133484,-2.5271998087512415,6.109953033715048,1.01829195022583,-2.2131474653827112
1708443173.7990465,-2.1413073539733887,-1.3335789901069184,-2.5271785894977015,6.109894621163168,1.018296480178833,-2.2131012121783655
1708443173.801039,-2.141265630722046,-1.333586649303772,-2.5271573702441614,6.109920012741842,1.0182795524597168,-2.2131012121783655
1708443173.803055,-2.1413073539733887,-1.3335923117450257,-2.5271785894977015,6.109894740372457,1.0182558298110962,-2.2131384054767054
1708443173.8050778,-2.1413161754608154,-1.3335460287383576,-2.5271619001971644,6.109890210419454,1.0183051824569702,-2.2131522337542933
1708443173.8071105,-2.1413161754608154,-1.3335746389678498,-2.5271831194507044,6.109932172089376,1.018320083618164,-2.213076893483297
1708443173.809094,-2.1412746906280518,-1.333579034810402,-2.52717096010317,6.110007035523214,1.0182795524597168,-2.2131431738482874
1708443173.8110442,-2.1413073539733887,-1.3336029660752793,-2.5271785894977015,6.109936702042379,1.0183051824569702,-2.2131174246417444
1708443173.8130429,-2.1412789821624756,-1.3335623902133484,-2.5272162596331995,6.1099411127860925,1.0182795524597168,-2.2131174246417444
1708443173.8150272,-2.1412994861602783,-1.333590955739357,-2.5271740595446985,6.109920012741842,1.0182381868362427,-2.2131217161761683
1708443173.8170342,-2.1413118839263916,-1.3336276572993775,-2.5271619001971644,6.109928953438558,1.0183007717132568,-2.2131384054767054
1708443173.8190625,-2.1412904262542725,-1.33359848082576,-2.5272088686572474,6.109854566841879,1.0182380676269531,-2.213126007710592
1708443173.8210297,-2.141258716583252,-1.3336042326739808,-2.5271998087512415,6.109924423485555,1.0183050632476807,-2.2130888144122522
1708443173.823052,-2.1413354873657227,-1.3336072725108643,-2.5271952787982386,6.109896170883932,1.0183128118515015,-2.2131102720843714
1708443173.8250241,-2.1413118839263916,-1.3336116683534165,-2.5271876494037073,6.109924423485555,1.0182838439941406,-2.213069740925924
1708443173.827051,-2.141328811645508,-1.3335703176311036,-2.5271952787982386,6.109915482788839,1.0182557106018066,-2.213090244923727
1708443173.8290524,-2.1412789821624756,-1.3335997474244614,-2.5271740595446985,6.1099575636680505,1.0182307958602905,-2.213095013295309
1708443173.8310478,-2.141319751739502,-1.333657593732216,-2.5271664301501673,6.1099411127860925,1.0182632207870483,-2.213045899068014
1708443173.8330777,-2.1413402557373047,-1.3335416626981278,-2.5272281805621546,6.109879839211263,1.0182632207870483,-2.2130287329303187
1708443173.8350248,-2.141319751739502,-1.3336205643466492,-2.5271952787982386,6.109915482788839,1.01826012134552,-2.2130215803729456
1708443173.8370314,-2.1412994861602783,-1.3335997474244614,-2.5272162596331995,6.109899151116171,1.0182719230651855,-2.2130659262286585
1708443173.8390453,-2.1412858963012695,-1.333566741352417,-2.5271573702441614,6.109887230187216,1.0182307958602905,-2.213050190602438
1708443173.8410392,-2.141263246536255,-1.3336365532926102,-2.5271907488452356,6.109887230187216,1.0182676315307617,-2.213050190602438
1708443173.8430443,-2.1412835121154785,-1.3335997474244614,-2.5271785894977015,6.1099456427390955,1.0182307958602905,-2.2130215803729456
1708443173.8450336,-2.1412994861602783,-1.333579034810402,-2.5272236506091517,6.109924423485555,1.0182795524597168,-2.2130377928363245
1708443173.847035,-2.1412746906280518,-1.3335549396327515,-2.5271907488452356,6.1099411127860925,1.0182526111602783,-2.213018242512838
1708443173.8490233,-2.141298294067383,-1.3336249601892014,-2.5272372404681605,6.109894621163168,1.0182838439941406,-2.2130096594439905
1708443173.8510542,-2.1412792205810547,-1.3335504692843934,-2.527181927357809,6.109936702042379,1.01826012134552,-2.2130468527423304
1708443173.8530324,-2.141265630722046,-1.3336072725108643,-2.5272117296801966,6.109920012741842,1.0182807445526123,-2.2129858175860804
1708443173.8550792,-2.141263246536255,-1.3336160641959687,-2.5272327105151575,6.109932172089376,1.0182600021362305,-2.213051144276754
1708443173.8570282,-2.1412949562072754,-1.3335460287383576,-2.52717096010317,6.109981286316671,1.018194317817688,-2.2129972616778772
1708443173.8590536,-2.1412904262542725,-1.333549128179886,-2.5271573702441614,6.109950053482809,1.0182600021362305,-2.2129882017718714
1708443173.8610659,-2.141254186630249,-1.3335726422122498,-2.5272236506091517,6.109932172089376,1.0182437896728516,-2.2130377928363245
1708443173.8630307,-2.1413118839263916,-1.333579034810402,-2.5271411577807825,6.109887230187216,1.0182437896728516,-2.213027302418844
1708443173.8650773,-2.141328811645508,-1.3335953515819092,-2.5272043387042444,6.109924423485555,1.018288254737854,-2.213010613118307
1708443173.8670597,-2.141303777694702,-1.3335967522910614,-2.5271411577807825,6.109908091812887,1.0182557106018066,-2.2130149046527308
1708443173.8690257,-2.1413207054138184,-1.3335746389678498,-2.5272207895862024,6.109902131348409,1.0182557106018066,-2.2129858175860804
1708443173.8710392,-2.1413161754608154,-1.333559350376465,-2.5271876494037073,6.1099456427390955,1.0182526111602783,-2.213053051625387
1708443173.873032,-2.1413118839263916,-1.33355367303405,-2.52717096010317,6.109920012741842,1.0182688236236572,-2.2129858175860804
1708443173.8750467,-2.1413333415985107,-1.3336072725108643,-2.5271619001971644,6.109882700234213,1.018276333808899,-2.21299916902651
1708443173.8770187,-2.1412699222564697,-1.333586649303772,-2.5271998087512415,6.1099575636680505,1.0182557106018066,-2.212977711354391
1708443173.8790424,-2.141296863555908,-1.3336042326739808,-2.5272250811206263,6.109903681069174,1.018227219581604,-2.212940518056051
1708443173.8810644,-2.1412994861602783,-1.333616093998291,-2.5271907488452356,6.1098917601402185,1.0182557106018066,-2.212994400654928
1708443173.8830307,-2.1412746906280518,-1.3335623902133484,-2.5272043387042444,6.109917032509603,1.0182360410690308,-2.212994400654928
1708443173.8850577,-2.1412994861602783,-1.3336205643466492,-2.5271831194507044,6.109896170883932,1.01826012134552,-2.2130149046527308
1708443173.8870275,-2.1412463188171387,-1.3335297417691727,-2.5271831194507044,6.109924423485555,1.0182316303253174,-2.21299916902651
1708443173.8890276,-2.1413118839263916,-1.3335667711547394,-2.5272162596331995,6.109896170883932,1.0182154178619385,-2.212977711354391
1708443173.891066,-2.1412904262542725,-1.3335997623256226,-2.5271785894977015,6.109887349396505,1.01826012134552,-2.212965790425436
1708443173.893053,-2.1413028240203857,-1.33361308396373,-2.5271952787982386,6.109932172089376,1.018227219581604,-2.212973419819967
1708443173.8950307,-2.1412699222564697,-1.3335866195014496,-2.5271785894977015,6.109920012741842,1.0182437896728516,-2.212944809590475
1708443173.8970401,-2.1412699222564697,-1.3335416179946442,-2.52717096010317,6.109920012741842,1.0181825160980225,-2.212994400654928
1708443173.8990462,-2.1413073539733887,-1.33357127130542,-2.5272250811206263,6.109924423485555,1.018194317817688,-2.212961498891012
1708443173.9010527,-2.1412949562072754,-1.3336086732200165,-2.5272207895862024,6.109924423485555,1.0182154178619385,-2.2129700819598597
1708443173.9030545,-2.1413376331329346,-1.3336276572993775,-2.5271664301501673,6.109906542092123,1.0182316303253174,-2.2129324118243616
1708443173.905104,-2.141263246536255,-1.3335834306529541,-2.52717096010317,6.109920012741842,1.0182241201400757,-2.2129910627948206
1708443173.9071069,-2.141254186630249,-1.3335997623256226,-2.5271785894977015,6.109908091812887,1.0182316303253174,-2.213008228932516
1708443173.909053,-2.1413207054138184,-1.3336276871016999,-2.5271619001971644,6.109887230187216,1.0182075500488281,-2.2129414717303675
1708443173.911062,-2.1413333415985107,-1.3335866195014496,-2.52717096010317,6.109915482788839,1.0182404518127441,-2.2129791418658655
1708443173.9130285,-2.141258716583252,-1.3335252863219758,-2.5272043387042444,6.109948503762045,1.0182031393051147,-2.212925736104147
1708443173.9150708,-2.1412508487701416,-1.3335953515819092,-2.5271831194507044,6.109911072045126,1.0181913375854492,-2.2129133383380335
1708443173.9170268,-2.1413333415985107,-1.3336042624763031,-2.5271785894977015,6.109927761345663,1.0182119607925415,-2.2129414717303675
1708443173.919054,-2.1413073539733887,-1.333616093998291,-2.527154509221212,6.109936702042379,1.0182154178619385,-2.2129629294024866
1708443173.9210577,-2.1412835121154785,-1.3335460287383576,-2.52717096010317,6.109924423485555,1.0182075500488281,-2.212921921406881
1708443173.9230206,-2.1413118839263916,-1.3335296970656891,-2.5272162596331995,6.109985935478964,1.0182075500488281,-2.2129176298724573
1708443173.925049,-2.1412789821624756,-1.333562360411026,-2.5272207895862024,6.109948503762045,1.0182000398635864,-2.2129300276385706
1708443173.927028,-2.1412904262542725,-1.3336365979960938,-2.5271619001971644,6.10997091510848,1.0181825160980225,-2.2129343191729944
1708443173.929025,-2.1413490772247314,-1.3335341078094025,-2.5271876494037073,6.109920012741842,1.018195629119873,-2.2129176298724573
1708443173.931075,-2.1412789821624756,-1.3335834306529541,-2.5271998087512415,6.1098753092582605,1.0181868076324463,-2.2129457632647913
1708443173.9330482,-2.1412835121154785,-1.3336042624763031,-2.5271785894977015,6.109903681069174,1.0181790590286255,-2.2129085699664515
1708443173.9350667,-2.1413333415985107,-1.333625004892685,-2.5272043387042444,6.109915482788839,1.0182329416275024,-2.2129057089435022
1708443173.9370484,-2.1413333415985107,-1.333550439482071,-2.527175490056173,6.109920012741842,1.0181825160980225,-2.212935749684469
1708443173.9390388,-2.141303777694702,-1.3336365979960938,-2.527154509221212,6.109911072045126,1.018195629119873,-2.212863270436422
1708443173.9410672,-2.1412994861602783,-1.3336116683534165,-2.5272162596331995,6.109917032509603,1.0182000398635864,-2.2129457632647913
1708443173.9430287,-2.1413161754608154,-1.3336232614568253,-2.5272162596331995,6.109924423485555,1.0182000398635864,-2.212921921406881
1708443173.9450738,-2.141303777694702,-1.333557979469635,-2.527175490056173,6.109920012741842,1.0181509256362915,-2.2129014174090784
1708443173.9470272,-2.1412949562072754,-1.3335504841855546,-2.52717096010317,6.109896170883932,1.018195629119873,-2.2129481474505823
1708443173.9490197,-2.141237258911133,-1.3336365979960938,-2.5271876494037073,6.109861957817831,1.0181509256362915,-2.2129343191729944
1708443173.9510255,-2.1412789821624756,-1.333586649303772,-2.5271454493152063,6.109917032509603,1.0181834697723389,-2.2129133383380335
1708443173.9530668,-2.141263246536255,-1.3336072725108643,-2.5272071997271937,6.109903681069174,1.0181596279144287,-2.2128804365741175
1708443173.9550328,-2.1413073539733887,-1.3335997623256226,-2.5272088686572474,6.109896170883932,1.0181509256362915,-2.2129481474505823
1708443173.957028,-2.1412994861602783,-1.3335703176311036,-2.5271921793567103,6.109936702042379,1.0181758403778076,-2.212895218526022
1708443173.9590328,-2.1413161754608154,-1.3336072725108643,-2.52717096010317,6.109936702042379,1.0181552171707153,-2.212868038808004
1708443173.9610279,-2.1412994861602783,-1.3336205643466492,-2.5271785894977015,6.109944093018331,1.0181552171707153,-2.2128923575030726
1708443173.9630516,-2.1412949562072754,-1.3336116683534165,-2.5271499792682093,6.1099125025566,1.0181715488433838,-2.212921921406881
1708443173.9650214,-2.1412994861602783,-1.3335219335607071,-2.527154509221212,6.109879839211263,1.018164038658142,-2.2128966490374964
1708443173.9670177,-2.141303777694702,-1.3336072725108643,-2.5272043387042444,6.1098753092582605,1.0181387662887573,-2.2129672209369105
1708443173.9690428,-2.141254186630249,-1.333557979469635,-2.527175490056173,6.109903681069174,1.0181386470794678,-2.2129457632647913
1708443173.9710472,-2.1412858963012695,-1.3335953217795868,-2.5272162596331995,6.109899151116171,1.0181684494018555,-2.2129390875445765
1708443173.9730504,-2.1413333415985107,-1.333579034810402,-2.5271619001971644,6.109903681069174,1.018134355545044,-2.212925736104147
1708443173.9750545,-2.1413333415985107,-1.3335866791060944,-2.5271831194507044,6.109896170883932,1.0181684494018555,-2.2128894964801233
1708443173.9770362,-2.141263246536255,-1.3336205941489716,-2.527159039174215,6.1099125025566,1.018180251121521,-2.2128847281085413
1708443173.979039,-2.1412880420684814,-1.3336042326739808,-2.52717096010317,6.109878289490499,1.0181386470794678,-2.2129057089435022
1708443173.9810393,-2.1412835121154785,-1.3336249452880402,-2.527163569127218,6.109933364182272,1.018164038658142,-2.212844196950094
1708443173.9830394,-2.1413028240203857,-1.3335756969502945,-2.5272043387042444,6.109972345619955,1.0181803703308105,-2.2129176298724573
1708443173.9850216,-2.1412949562072754,-1.3336116683534165,-2.5271998087512415,6.1099411127860925,1.0181264877319336,-2.2128966490374964
1708443173.9870381,-2.1413118839263916,-1.3335460287383576,-2.52717096010317,6.109896170883932,1.0181596279144287,-2.212860886250631
1708443173.989034,-2.1412949562072754,-1.333592341547348,-2.5272043387042444,6.109879839211263,1.0181803703308105,-2.212926689778463
1708443173.991026,-2.1413118839263916,-1.333557979469635,-2.5271831194507044,6.109903681069174,1.0181553363800049,-2.212893788014547
1708443173.9930253,-2.1413252353668213,-1.3336130392602463,-2.5272088686572474,6.109937774925985,1.0181474685668945,-2.2129176298724573
1708443173.9950197,-2.1412949562072754,-1.333541752105095,-2.5271499792682093,6.109878289490499,1.0181386470794678,-2.21287709871401
1708443173.9970326,-2.1412746906280518,-1.333595336680748,-2.52717096010317,6.109903681069174,1.0181715488433838,-2.212926689778463
1708443173.9990783,-2.1412720680236816,-1.33354605854068,-2.5272133986102503,6.109953033715048,1.0181553363800049,-2.2129057089435022
1708443174.0010376,-2.1413073539733887,-1.333587886100151,-2.5271876494037073,6.10988866069869,1.018164038658142,-2.2129176298724573
1708443174.003079,-2.1412880420684814,-1.333559350376465,-2.5271921793567103,6.1099575636680505,1.0181715488433838,-2.212860886250631
1708443174.0050256,-2.14129376411438,-1.3335580390742798,-2.5271409193622034,6.109882700234213,1.0181684494018555,-2.212954823170797
1708443174.0071075,-2.1412789821624756,-1.3335667860559006,-2.5271664301501673,6.109915482788839,1.0181553363800049,-2.212868038808004
1708443174.0090542,-2.1412949562072754,-1.333590955739357,-2.527180020009176,6.109906542092123,1.018096923828125,-2.212926689778463
1708443174.0110438,-2.1412746906280518,-1.3336232614568253,-2.5271619001971644,6.109915482788839,1.0181803703308105,-2.2128756682025355
1708443174.013033,-2.1412746906280518,-1.3335130375674744,-2.52717096010317,6.109908091812887,1.0181553363800049,-2.212968174611227
1708443174.0150168,-2.1413421630859375,-1.3335746389678498,-2.527175490056173,6.109915482788839,1.018130898475647,-2.212868038808004
1708443174.0170484,-2.1412746906280518,-1.3335834306529541,-2.5271785894977015,6.109882700234213,1.018130898475647,-2.2129014174090784
1708443174.0190399,-2.141303777694702,-1.3335372668555756,-2.5271785894977015,6.109870898514547,1.0181145668029785,-2.2128847281085413
1708443174.021047,-2.1412904262542725,-1.3335834306529541,-2.5271952787982386,6.109896170883932,1.018164038658142,-2.2129057089435022
1708443174.0230486,-2.1413118839263916,-1.3335834306529541,-2.5271907488452356,6.109924423485555,1.018130898475647,-2.212914768849508
1708443174.0250332,-2.1412835121154785,-1.33357127130542,-2.5272162596331995,6.109920012741842,1.018164038658142,-2.2129457632647913
1708443174.0270314,-2.1412880420684814,-1.3336294156363984,-2.5271952787982386,6.109882700234213,1.018184781074524,-2.2129176298724573
1708443174.0290287,-2.1412904262542725,-1.3335623902133484,-2.5271876494037073,6.1098917601402185,1.018164038658142,-2.2129014174090784
1708443174.0310278,-2.141242027282715,-1.333587886100151,-2.527175490056173,6.109905111580648,1.0181758403778076,-2.2129433790790003
1708443174.0330596,-2.1412789821624756,-1.3335834008506318,-2.5272207895862024,6.1099575636680505,1.0181553363800049,-2.2129057089435022
1708443174.0350416,-2.1412789821624756,-1.333590955739357,-2.52717096010317,6.109920012741842,1.0181553363800049,-2.212898079548971
1708443174.037041,-2.1412463188171387,-1.3335790050080796,-2.52717096010317,6.1099456427390955,1.018151879310608,-2.2129014174090784
1708443174.039035,-2.1413333415985107,-1.3335879308036347,-2.5272043387042444,6.109973895340719,1.0181145668029785,-2.2128475348102015
1708443174.0410268,-2.1413161754608154,-1.3335790646127244,-2.5271664301501673,6.109961974411764,1.0181386470794678,-2.212930981312887
1708443174.0430324,-2.1412789821624756,-1.333557979469635,-2.52717096010317,6.109973895340719,1.018114686012268,-2.2128966490374964
1708443174.045026,-2.141263246536255,-1.3336249154857178,-2.527142588292257,6.1098753092582605,1.0181386470794678,-2.2129433790790003
1708443174.0470312,-2.141328811645508,-1.3335790199092408,-2.5271998087512415,6.109890329628744,1.0181965827941895,-2.212926689778463
1708443174.0490246,-2.1412746906280518,-1.3335756969502945,-2.5272117296801966,6.109953033715048,1.0181430578231812,-2.212835137044088
1708443174.0510323,-2.1412835121154785,-1.333559350376465,-2.52717096010317,6.109908091812887,1.018164038658142,-2.2129390875445765
1708443174.0530353,-2.141310930252075,-1.3335997623256226,-2.527159039174215,6.1099456427390955,1.0181299448013306,-2.2129057089435022
1708443174.0550327,-2.1412949562072754,-1.3335879159024735,-2.5271921793567103,6.109936702042379,1.0181877613067627,-2.212926689778463
1708443174.0570378,-2.1412675380706787,-1.333599717622139,-2.5271876494037073,6.109903681069174,1.018134355545044,-2.212893788014547
1708443174.059069,-2.141324520111084,-1.3335953217795868,-2.527163569127218,6.109884249954977,1.0181264877319336,-2.2129133383380335
1708443174.0610263,-2.1413073539733887,-1.3336072725108643,-2.527142588292257,6.109911072045126,1.01816725730896,-2.212935749684469
1708443174.0630727,-2.1412746906280518,-1.3335834306529541,-2.52717096010317,6.109936702042379,1.018164038658142,-2.212926689778463
1708443174.0650275,-2.1413118839263916,-1.333590955739357,-2.5271664301501673,6.109927761345663,1.0181474685668945,-2.2129481474505823
1708443174.0670316,-2.1412789821624756,-1.3335580390742798,-2.5271876494037073,6.109920012741842,1.0181684494018555,-2.2129042784320276
1708443174.0690477,-2.1412463188171387,-1.33354605854068,-2.5271619001971644,6.109933364182272,1.018134355545044,-2.2128847281085413
1708443174.0710125,-2.1412699222564697,-1.3336116832545777,-2.5272043387042444,6.109932172089376,1.018164038658142,-2.2129390875445765
1708443174.0730143,-2.141303777694702,-1.3336160641959687,-2.52717096010317,6.109936702042379,1.0181596279144287,-2.2129505316363733
1708443174.075037,-2.141357183456421,-1.333616093998291,-2.5271454493152063,6.109906542092123,1.0181758403778076,-2.212893788014547
1708443174.0770183,-2.1413447856903076,-1.3336410087398072,-2.5271499792682093,6.109903681069174,1.0181803703308105,-2.212898079548971
1708443174.0790138,-2.141328811645508,-1.333550439482071,-2.527180020009176,6.1099902270133875,1.0181803703308105,-2.212893788014547
1708443174.0810125,-2.1412994861602783,-1.3335756820491333,-2.5271921793567103,6.109903681069174,1.0181299448013306,-2.212910000477926
1708443174.0830576,-2.1412858963012695,-1.333586649303772,-2.5271785894977015,6.109924423485555,1.0182044506072998,-2.2129057089435022
1708443174.0850456,-2.1412994861602783,-1.3335909408381958,-2.527154509221212,6.109932172089376,1.0181386470794678,-2.2129457632647913
1708443174.0870333,-2.1412994861602783,-1.3335703325322648,-2.527175490056173,6.109924423485555,1.018192172050476,-2.2129014174090784
1708443174.0890326,-2.1413161754608154,-1.3335997474244614,-2.5271831194507044,6.1098917601402185,1.018192172050476,-2.212898079548971
1708443174.0910544,-2.1413073539733887,-1.33357127130542,-2.52717096010317,6.109936702042379,1.0181474685668945,-2.212863270436422
1708443174.0930262,-2.1412949562072754,-1.3336072576097031,-2.5271664301501673,6.109870898514547,1.0181715488433838,-2.212898079548971
1708443174.095046,-2.1413073539733887,-1.3335834455541153,-2.5271619001971644,6.109973895340719,1.0182000398635864,-2.212952438985006
1708443174.0970442,-2.141324281692505,-1.3335790199092408,-2.527142588292257,6.109936702042379,1.018195629119873,-2.212848488484518
1708443174.0990202,-2.141303777694702,-1.3335579496673127,-2.527184549962179,6.109920012741842,1.0182000398635864,-2.212848488484518
1708443174.1010664,-2.1412949562072754,-1.3335790199092408,-2.5271664301501673,6.109903681069174,1.0181790590286255,-2.212919060383932
1708443174.103029,-2.1412789821624756,-1.3335624200156708,-2.5271876494037073,6.109920012741842,1.018228530883789,-2.212860886250631
1708443174.1050496,-2.1412746906280518,-1.3336042624763031,-2.5271785894977015,6.109915482788839,1.0181834697723389,-2.2128499189959925
1708443174.1070814,-2.1412816047668457,-1.333579034810402,-2.527154509221212,6.109894621163168,1.0181913375854492,-2.212764565144674
1708443174.1090953,-2.1413118839263916,-1.333632082944252,-2.5271876494037073,6.1099575636680505,1.0182044506072998,-2.212782684956686
1708443174.11106,-2.1412994861602783,-1.333625004892685,-2.5272043387042444,6.109956013947286,1.0182162523269653,-2.2127211729632776
1708443174.1130404,-2.1412699222564697,-1.33357127130542,-2.5271664301501673,6.109961974411764,1.0181912183761597,-2.2126806418048304
1708443174.1150322,-2.1413118839263916,-1.3335579496673127,-2.5272627512561243,6.109908091812887,1.0181825160980225,-2.212632481251852
1708443174.117038,-2.1413376331329346,-1.3335549396327515,-2.5271952787982386,6.109924542694845,1.018211841583252,-2.2125752607928675
1708443174.1190348,-2.141303777694702,-1.333616093998291,-2.5272043387042444,6.109858977585592,1.0182569026947021,-2.2125771681415003
1708443174.1210544,-2.1412789821624756,-1.3335866344026108,-2.5271664301501673,6.109953033715048,1.0181987285614014,-2.212519947682516
1708443174.123033,-2.1412880420684814,-1.333602951174118,-2.5271831194507044,6.109908091812887,1.0182359218597412,-2.2124837080584925
1708443174.1250346,-2.1412463188171387,-1.3336232763579865,-2.5271664301501673,6.109878289490499,1.018228530883789,-2.2124927679644983
1708443174.1270368,-2.1412858963012695,-1.3335504841855546,-2.5271831194507044,6.109936702042379,1.0182316303253174,-2.212423626576559
1708443174.1290188,-2.141328811645508,-1.3335211288980027,-2.5271921793567103,6.109961974411764,1.0182570219039917,-2.2123850027667444
1708443174.1310582,-2.141263246536255,-1.3335746091655274,-2.5272117296801966,6.109932172089376,1.0182197093963623,-2.212348763142721
1708443174.1330323,-2.1412994861602783,-1.333550439482071,-2.5272372404681605,6.109899151116171,1.0182394981384277,-2.2122839132892054
1708443174.1350563,-2.1412880420684814,-1.3335834306529541,-2.5271831194507044,6.109927761345663,1.018248200416565,-2.2122557798968714
1708443174.137051,-2.1412551403045654,-1.3336320680430909,-2.5271831194507044,6.1099411127860925,1.0182719230651855,-2.212158505116598
1708443174.1390347,-2.141328811645508,-1.333607242708542,-2.5272191206561487,6.109899031906881,1.0182600021362305,-2.212139908467428
1708443174.1410713,-2.1413161754608154,-1.3336487424424668,-2.5272043387042444,6.109937894135275,1.018227219581604,-2.2120707670794886
1708443174.1430533,-2.141258716583252,-1.333595336680748,-2.5271831194507044,6.109915482788839,1.0182645320892334,-2.212015453969137
1708443174.1451352,-2.1412699222564697,-1.3336276423982163,-2.5272088686572474,6.109924423485555,1.0182470083236694,-2.211919609700338
1708443174.1470373,-2.1413118839263916,-1.333616093998291,-2.5271952787982386,6.109942304878988,1.0182706117630005,-2.2118638197528284
1708443174.1490247,-2.1412746906280518,-1.3335997623256226,-2.5271831194507044,6.109896170883932,1.0183038711547852,-2.2117140928851526
1708443174.1510444,-2.1412949562072754,-1.333602951174118,-2.52717096010317,6.109841096192159,1.0183038711547852,-2.2116764227496546
1708443174.1530306,-2.1412904262542725,-1.3335790199092408,-2.5271664301501673,6.109921562462606,1.0183452367782593,-2.211561981831686
1708443174.15504,-2.1412596702575684,-1.3335461032441636,-2.527159039174215,6.109870898514547,1.018312692642212,-2.2114794890033167
1708443174.1570394,-2.141301393508911,-1.3335579496673127,-2.5271998087512415,6.109872329026022,1.018296480178833,-2.21134597459902
1708443174.1590264,-2.1412808895111084,-1.3335834306529541,-2.5271998087512415,6.109810936241903,1.0183038711547852,-2.2112138907061976
1708443174.1610575,-2.1412508487701416,-1.3335460287383576,-2.5271664301501673,6.10982762554244,1.0183398723602295,-2.211081329976217
1708443174.1630542,-2.1412642002105713,-1.3335997623256226,-2.52717096010317,6.109791624336996,1.018323302268982,-2.210954014454977
1708443174.1650836,-2.1412808895111084,-1.3335386526635666,-2.5271695295916956,6.109792816429891,1.0183355808258057,-2.2107885519610804
1708443174.1670232,-2.1412200927734375,-1.3336072725108643,-2.527193609868185,6.109805094986715,1.0183805227279663,-2.210636917744772
1708443174.1690285,-2.141242742538452,-1.333616093998291,-2.5271740595446985,6.1097720740135095,1.0183850526809692,-2.2104719320880335
1708443174.1710546,-2.1412384510040283,-1.333616093998291,-2.5271528402911585,6.109767424851217,1.0183385610580444,-2.210287872944967
1708443174.1730301,-2.141273021697998,-1.3335909408381958,-2.5272236506091517,6.109806287079611,1.0183223485946655,-2.210114304219381
1708443174.1750057,-2.141233444213867,-1.333554984336235,-2.5272191206561487,6.109825837403097,1.0183837413787842,-2.20991021791567
1708443174.1770115,-2.141273021697998,-1.3336276871016999,-2.527177158986227,6.1097603915031335,1.018388032913208,-2.2097275892840784
1708443174.1790528,-2.141233444213867,-1.333595336680748,-2.5272520224200647,6.109728801041403,1.0184240341186523,-2.2095068136798304
1708443174.1810496,-2.141170024871826,-1.3336042624763031,-2.5272684733020228,6.109674799233236,1.0184284448623657,-2.2092698256122034
1708443174.1830394,-2.141179323196411,-1.3335997623256226,-2.527250353490011,6.109712469368734,1.018452525138855,-2.209041420613424
1708443174.185077,-2.141179323196411,-1.333635614519455,-2.527304712926046,6.1097168801124475,1.0184556245803833,-2.208834473286764
1708443174.1870236,-2.1412198543548584,-1.333616093998291,-2.527304712926046,6.109676348954,1.018484115600586,-2.2086103598224085
1708443174.1890235,-2.1412129402160645,-1.3335866195014496,-2.5272792021380823,6.109586941986837,1.0185003280639648,-2.208296600972311
1708443174.1910505,-2.1412243843078613,-1.3335790199092408,-2.5272894541369837,6.109567391663351,1.0185335874557495,-2.2080896536456507
1708443174.1930242,-2.141192674636841,-1.3335879308036347,-2.5273240248309534,6.109574782639303,1.0185586214065552,-2.2077963987933558
1708443174.1950412,-2.1411757469177246,-1.3335746091655274,-2.5273314158069056,6.109588134079733,1.0185047388076782,-2.2075279394732874
1708443174.19703,-2.1411969661712646,-1.3336086732200165,-2.5273435751544397,6.1095852730567834,1.0185003280639648,-2.2072113196002405
1708443174.1990383,-2.141134023666382,-1.3335536283305665,-2.527317825947897,6.109618294029989,1.0185365676879883,-2.2069218794452112
1708443174.201054,-2.1411802768707275,-1.3336276871016999,-2.527339045201437,6.109512316971578,1.0185203552246094,-2.2066553274737757
1708443174.2030647,-2.141172170639038,-1.3335746091655274,-2.527376715336935,6.109615194588461,1.0185726881027222,-2.2062323729144495
1708443174.2050478,-2.141127109527588,-1.3335834306529541,-2.527372185383932,6.109537589340963,1.0185890197753906,-2.205916706715719
1708443174.207102,-2.1410861015319824,-1.333562360411026,-2.52735406557192,6.109544861107626,1.0185682773590088,-2.205574337636129
1708443174.2091005,-2.1411359310150146,-1.333616093998291,-2.527372185383932,6.109598743706503,1.0185967683792114,-2.205235306416647
1708443174.2110395,-2.1411359310150146,-1.3335997623256226,-2.5273450056659144,6.109544861107626,1.0186370611190796,-2.204850975667135
1708443174.2130275,-2.1410953998565674,-1.3335997623256226,-2.5274110476123255,6.1094761965568445,1.0186402797698975,-2.2044079939471644
1708443174.215023,-2.141108512878418,-1.3335997325233002,-2.5274065176593226,6.109555589943685,1.018677830696106,-2.2040045897113245
1708443174.2170503,-2.1411447525024414,-1.3335746091655274,-2.5274232069598597,6.109426724701681,1.0186645984649658,-2.2036126295672815
1708443174.2190497,-2.1410634517669678,-1.3335536283305665,-2.5274019877063196,6.109435665398397,1.0186470746994019,-2.2032082716571253
1708443174.221043,-2.141080379486084,-1.3335834604552765,-2.5274186770068567,6.109482276230612,1.0187036991119385,-2.2027714888202112
1708443174.2230244,-2.14103627204895,-1.3335416477969666,-2.5274606386767786,6.1094045517738245,1.0187443494796753,-2.202348057423727
1708443174.2250419,-2.1410768032073975,-1.3335492026856919,-2.527405087147848,6.109398591309347,1.0187768936157227,-2.2019041220294397
1708443174.22704,-2.141045093536377,-1.3336398613503953,-2.527428929005758,6.109328138619222,1.018796682357788,-2.2014668623553675
1708443174.2290368,-2.14103627204895,-1.3335460287383576,-2.527449909840719,6.10935519912795,1.018796682357788,-2.2010014692889612
1708443174.231065,-2.141045093536377,-1.3335667711547394,-2.5274997393237513,6.109314787178793,1.0188076496124268,-2.2004507223712366
1708443174.2330494,-2.141029119491577,-1.3335756820491333,-2.5275161902057093,6.109298455506124,1.01888108253479,-2.199962917958395
1708443174.235076,-2.1409752368927,-1.3335909408381958,-2.5275281111346644,6.10930751541213,1.0188974142074585,-2.1994970480548304
1708443174.2370486,-2.1409308910369873,-1.3335712862065812,-2.5275309721576136,6.10930751541213,1.0189658403396606,-2.1988723913775843
1708443174.2390258,-2.1409523487091064,-1.3336409044316788,-2.5275638739215296,6.1092415926750085,1.018945336341858,-2.1983850638019007
1708443174.2410471,-2.140920400619507,-1.3335790646127244,-2.5275684038745325,6.109189259796896,1.0189114809036255,-2.1977956930743616
1708443174.2430484,-2.140920400619507,-1.3336205941489716,-2.527600113545553,6.109259593277731,1.0189815759658813,-2.1972678343402308
1708443174.2450268,-2.140970230102539,-1.3335834306529541,-2.5276029745685022,6.109232413559713,1.0190140008926392,-2.1966498533831995
1708443174.2470622,-2.1409294605255127,-1.3336042624763031,-2.5275774637805384,6.109157907753744,1.0190460681915283,-2.1960352102862757
1708443174.2490437,-2.1408913135528564,-1.3336116832545777,-2.5276811758624476,6.109136688500204,1.019074559211731,-2.1954215208636683
1708443174.2510524,-2.1408841609954834,-1.3335879308036347,-2.527642075215475,6.1091219065483,1.0190982818603516,-2.1947391668902796
1708443174.2530296,-2.14090895652771,-1.3335460883430024,-2.527691427861349,6.109123456269064,1.019097089767456,-2.1941073576556605
1708443174.2550273,-2.140841007232666,-1.3335667711547394,-2.5277286211596888,6.109062301903524,1.0191543102264404,-2.193390194569723
1708443174.2570527,-2.140836477279663,-1.3336249452880402,-2.527670447026388,6.109035241394796,1.0191903114318848,-2.192728821431295
1708443174.2590148,-2.140791416168213,-1.3335537177375336,-2.5277140776263636,6.1090561030204675,1.0192232131958008,-2.1920726935016077
1708443174.2610168,-2.140784502029419,-1.3335879308036347,-2.5277844111071985,6.109053122788229,1.0192055702209473,-2.1913145224200647
1708443174.2630162,-2.1407675743103027,-1.3335909408381958,-2.5277634302722376,6.109011161118307,1.0192625522613525,-2.190622154866354
1708443174.2650182,-2.1407392024993896,-1.3335579347661515,-2.527803961430685,6.108926164894857,1.019310474395752,-2.189812962208883
1708443174.2670326,-2.140723466873169,-1.3336042624763031,-2.5278354326831263,6.1089678881462,1.0193345546722412,-2.1890228430377405
1708443174.2690315,-2.1407277584075928,-1.3335909408381958,-2.5278926531421106,6.108972418099203,1.0193748474121094,-2.188221279774801
1708443174.2710607,-2.140676736831665,-1.3335713160089036,-2.5278881231891077,6.10888563373641,1.0194032192230225,-2.1874035040484827
1708443174.273047,-2.140648126602173,-1.3335879308036347,-2.52791935602297,6.108903634339132,1.0194264650344849,-2.1865723768817347
1708443174.2750359,-2.140685558319092,-1.3335834455541153,-2.5278893152820032,6.108866083412924,1.0194790363311768,-2.185709778462545
1708443174.2770205,-2.1406166553497314,-1.333620549445488,-2.5279765764819544,6.108855950623312,1.0195225477218628,-2.1848700682269495
1708443174.2790241,-2.140571355819702,-1.333627612595894,-2.5279839674579065,6.108803498535909,1.0195300579071045,-2.183920685444967
1708443174.2810156,-2.1405892372131348,-1.3335997474244614,-2.5279913584338587,6.108782398491659,1.019566297531128,-2.1830528418170374
1708443174.283033,-2.1405351161956787,-1.3336042624763031,-2.528039518986837,6.108763086586752,1.0196396112442017,-2.182166878377096
1708443174.285037,-2.1404874324798584,-1.3336232614568253,-2.5280662218676966,6.1087392447288416,1.0197323560714722,-2.1812461058246058
1708443174.2870233,-2.140493869781494,-1.3335865896991272,-2.5280829111682337,6.108674871712484,1.0197924375534058,-2.180317227040426
1708443174.2890208,-2.1405177116394043,-1.3335623753121872,-2.528151814137594,6.108643281250753,1.0197584629058838,-2.1793749968158167
1708443174.2910337,-2.140455484390259,-1.3335667562535782,-2.5281761328326624,6.10863624790267,1.0198472738265991,-2.1784055868731897
1708443174.2930179,-2.1404337882995605,-1.3335909408381958,-2.5281835238086146,6.108597147255697,1.0199158191680908,-2.177413288746969
1708443174.2950084,-2.1404011249542236,-1.333616093998291,-2.52821928659548,6.10858832576827,1.0199761390686035,-2.1764243284808558
1708443174.2970126,-2.1403648853302,-1.3335624200156708,-2.5282238165484827,6.108528721123495,1.0199871063232422,-2.1753867308246058
1708443174.2990136,-2.140324115753174,-1.333574579363205,-2.5282583872424524,6.108497130661764,1.0201212167739868,-2.1743038336383265
1708443174.3010237,-2.140288829803467,-1.333574579363205,-2.5283334890948694,6.108489739685812,1.0201191902160645,-2.1731727758990687
1708443174.3030443,-2.1402649879455566,-1.3335790199092408,-2.528327290211813,6.108440267830648,1.0202001333236694,-2.172126595173971
1708443174.3050208,-2.140287160873413,-1.3335702580264588,-2.528351370488302,6.108427035599508,1.0202765464782715,-2.1710036436664026
1708443174.3070996,-2.140275716781616,-1.3335548800281067,-2.528379742299215,6.108320581703939,1.020357608795166,-2.1698997656451624
1708443174.3091455,-2.14021372795105,-1.333599717622139,-2.5284817854510706,6.108275878220358,1.0204206705093384,-2.168834988270895
1708443174.3110743,-2.1401784420013428,-1.3336409640363236,-2.5284562746631067,6.1082684872444055,1.0204724073410034,-2.1677144209491175
1708443174.3130388,-2.140104055404663,-1.3336100739291687,-2.528508965169088,6.108166801720419,1.0205529928207397,-2.166610066090719
1708443174.3150315,-2.1401174068450928,-1.3335790646127244,-2.5285237471209925,6.108189213066854,1.0205762386322021,-2.1655219236956995
1708443174.3170466,-2.140103578567505,-1.3336232614568253,-2.528546396886007,6.10817431190566,1.0207184553146362,-2.1644633452044886
1708443174.3190503,-2.1400513648986816,-1.3336072725108643,-2.528576437626974,6.1081546423728845,1.0207620859146118,-2.1633432547198694
1708443174.3210268,-2.1399972438812256,-1.3336519610932847,-2.5286319891559046,6.108061897545614,1.0207762718200684,-2.1621959845172327
1708443174.3230321,-2.1399903297424316,-1.3336116683534165,-2.5287004152881067,6.108038174896993,1.0209064483642578,-2.160990540181295
1708443174.325038,-2.1399788856506348,-1.3336311739734192,-2.528720204030172,6.107973563462057,1.0209993124008179,-2.159790341054098
1708443174.3270354,-2.139906644821167,-1.3335866195014496,-2.5287397543536585,6.107945668488302,1.0210667848587036,-2.158637348805563
1708443174.3290758,-2.139899492263794,-1.3336726141026993,-2.528762165700094,6.107914078026571,1.0211586952209473,-2.1574891249286097
1708443174.3310697,-2.1398518085479736,-1.3336029809764405,-2.5288520495044153,6.1078423140342615,1.0212551355361938,-2.156233612691061
1708443174.3330464,-2.139831304550171,-1.3336519610932847,-2.528846327458517,6.10789583900527,1.021294355392456,-2.1550405661212366
1708443174.335074,-2.1398041248321533,-1.3336889457753678,-2.528891150151388,6.107857215195455,1.0213990211486816,-2.153708283101217
1708443174.3370466,-2.13970947265625,-1.3336072725108643,-2.5290053526507776,6.107783901482382,1.021462321281433,-2.152405087147848
1708443174.339035,-2.139711380004883,-1.3336028915694733,-2.528996292744772,6.107648122101583,1.0215840339660645,-2.1511619726764124
1708443174.341038,-2.1396703720092773,-1.3336356294206162,-2.5290306250201624,6.1076838848884485,1.0216963291168213,-2.149830166493551
1708443174.3430276,-2.1396069526672363,-1.333577812915184,-2.52911621729006,6.1076451418693445,1.0217806100845337,-2.148519817982809
1708443174.345019,-2.1395955085754395,-1.333684579735138,-2.52918512025942,6.10755072811202,1.0218405723571777,-2.147189442311422
1708443174.3470263,-2.139552354812622,-1.3336549413255234,-2.529228750859396,6.107510554581442,1.021899700164795,-2.14590293565859
1708443174.349011,-2.1394753456115723,-1.333619014625885,-2.5292392412768763,6.107458102494039,1.0219751596450806,-2.1445143858539026
1708443174.3510482,-2.1394717693328857,-1.3336320680430909,-2.5293121973620813,6.107412087708273,1.022059679031372,-2.1431363264666956
1708443174.3530412,-2.139383316040039,-1.3336056482842942,-2.529363457356588,6.1073505757148645,1.0222012996673584,-2.141818348561422
1708443174.3550553,-2.1393730640411377,-1.3336399358562012,-2.5293906370746058,6.1073235152061365,1.022276759147644,-2.140477482472555
1708443174.3570163,-2.139331340789795,-1.3336100739291687,-2.5295284430133265,6.107287752419271,1.0224014520645142,-2.1391127745257776
1708443174.3590345,-2.139296054840088,-1.3336519610932847,-2.5295451323138636,6.107268440514364,1.0224769115447998,-2.137695614491598
1708443174.3610578,-2.1392111778259277,-1.3336800795844574,-2.5295944849597376,6.107191908150472,1.0226505994796753,-2.136362377797262
1708443174.36304,-2.1392006874084473,-1.3336144548705597,-2.529667917882101,6.107153284340658,1.022697925567627,-2.1349199453936976
1708443174.3650334,-2.1391372680664062,-1.3336879324964066,-2.5297189394580286,6.107030856400289,1.0227817296981812,-2.1335609594928187
1708443174.367028,-2.1390762329101562,-1.3336594116738816,-2.529767100011007,6.107069599419393,1.0228946208953857,-2.1321542898761194
1708443174.3690288,-2.139014959335327,-1.3336623770049592,-2.5298479239093226,6.106960284500875,1.0230265855789185,-2.1308143774615687
1708443174.371048,-2.1390187740325928,-1.3337086898139496,-2.5298989454852503,6.106966483383932,1.0231099128723145,-2.129341427479879
1708443174.3730083,-2.1389806270599365,-1.3337532740882416,-2.5300009886371058,6.106869089394369,1.0232309103012085,-2.1279600302325647
1708443174.3750489,-2.138887882232666,-1.3336623919061203,-2.5300563017474573,6.106854307442465,1.0233962535858154,-2.1264222303973597
1708443174.3770192,-2.1388516426086426,-1.3337073040059586,-2.530104462300436,6.1067988751228235,1.0235031843185425,-2.124932114277975
1708443174.3790193,-2.138855457305908,-1.333698497419693,-2.5301600138293665,6.106713998108663,1.0236122608184814,-2.1234458128558558
1708443174.3810458,-2.138803482055664,-1.3337015819600602,-2.530182186757223,6.106637465744772,1.0237358808517456,-2.121866051350729
1708443174.3830473,-2.1387336254119873,-1.3337593388608475,-2.5302467981921595,6.106622564583578,1.023851990699768,-2.1203153769122522
1708443174.385023,-2.1386475563049316,-1.3337505620769043,-2.53030234972109,6.106597053795614,1.0239554643630981,-2.118904415761129
1708443174.3870234,-2.1385998725891113,-1.3337716621211548,-2.5303788820849817,6.106540071755209,1.0241206884384155,-2.1174381414996546
1708443174.3890378,-2.138610601425171,-1.3337539297393342,-2.5304763952838343,6.106484997063436,1.0242290496826172,-2.115824524556295
1708443174.3910763,-2.1384966373443604,-1.3337910187295456,-2.5305455366717737,6.106401192932882,1.0243403911590576,-2.1143057982074183
1708443174.3933663,-2.13850998878479,-1.3337909591249009,-2.5305843989001673,6.106298315316,1.0244652032852173,-2.112771813069479
1708443174.395027,-2.1384472846984863,-1.3338029098561783,-2.530663553868429,6.106243002205648,1.0246213674545288,-2.111141029988424
1708443174.3970385,-2.138411045074463,-1.3337702614120026,-2.5307026545154017,6.106232511788168,1.0247536897659302,-2.109556500111715
1708443174.399058,-2.1383678913116455,-1.3337539297393342,-2.530767265950338,6.106139766960897,1.024903655052185,-2.1079214254962366
1708443174.4010491,-2.1382503509521484,-1.3337865781835099,-2.530888621007101,6.106130587845602,1.025055170059204,-2.1064375082599085
1708443174.4030292,-2.1382431983947754,-1.333819569354393,-2.5309396425830286,6.105984079628744,1.0251294374465942,-2.1048668066607874
1708443174.4050279,-2.1381752490997314,-1.3337645095637818,-2.530975643788473,6.105985629349508,1.025298833847046,-2.1033571402179163
1708443174.4070256,-2.138122081756592,-1.3337975156358262,-2.531092707310812,6.105900394707479,1.0254313945770264,-2.101826016102926
1708443174.409094,-2.138066530227661,-1.3337895435145875,-2.5311973730670374,6.105845320015707,1.0255471467971802,-2.1002381483661097
1708443174.4111042,-2.1380391120910645,-1.3338182282498856,-2.531199041997091,6.105747806816854,1.0257463455200195,-2.098666016255514
1708443174.4130301,-2.1379170417785645,-1.3338182431510468,-2.531295124684469,6.105664241104879,1.0258417129516602,-2.0970729033099573
1708443174.415035,-2.137908458709717,-1.3338093620589753,-2.531379048024313,6.105665790825643,1.0259768962860107,-2.0955408255206507
1708443174.4170306,-2.1378281116485596,-1.3338672679713746,-2.531431500111715,6.105573165207662,1.0261090993881226,-2.0939138571368616
1708443174.4190316,-2.1377625465393066,-1.3338792038014908,-2.531515661870138,6.105553734093466,1.0262818336486816,-2.09226638475527
1708443174.4210477,-2.1377317905426025,-1.3338416826776047,-2.531602446232931,6.105502831726827,1.0263855457305908,-2.090555493031637
1708443174.4230509,-2.1376919746398926,-1.3338182431510468,-2.5316954294787806,6.105431186943807,1.0265384912490845,-2.0888527075396937
1708443174.4250524,-2.1376168727874756,-1.3338593405536194,-2.5317793528186243,6.105395304947653,1.0266371965408325,-2.0872014204608362
1708443174.4270437,-2.137532949447632,-1.3338582974723359,-2.53186804453005,6.105417716294088,1.0267657041549683,-2.0855515638934534
1708443174.4290397,-2.1374382972717285,-1.3338583272746583,-2.531947437916891,6.10529504993514,1.026968240737915,-2.083803955708639
1708443174.4310439,-2.1374082565307617,-1.333831475382187,-2.532074753438131,6.1052846787269495,1.0270826816558838,-2.0821083227740687
1708443174.433024,-2.1373536586761475,-1.3338474792293091,-2.5321438948260706,6.105123150139608,1.027239441871643,-2.080383602772848
1708443174.4350405,-2.137317419052124,-1.3338405799916764,-2.5322352091418665,6.105087148934164,1.027395486831665,-2.0786741415606897
1708443174.437032,-2.1372334957122803,-1.3338583272746583,-2.5323403517352503,6.105079757958212,1.0275979042053223,-2.077022377644674
1708443174.4390378,-2.1371729373931885,-1.3338821840337296,-2.53239876428713,6.104991662293234,1.027679681777954,-2.0753920714007776
1708443174.441032,-2.1371169090270996,-1.333868847494461,-2.532487455998556,6.1049067852790735,1.0278204679489136,-2.073770825062887
1708443174.4430127,-2.1370816230773926,-1.3338777732900162,-2.5325759092914026,6.104888665467062,1.0280053615570068,-2.0721729437457483
1708443174.4450228,-2.137038469314575,-1.33393149197612,-2.5326479117022913,6.104852545052328,1.0281486511230469,-2.0705235640155237
1708443174.4470062,-2.136990785598755,-1.3338896048120041,-2.532731835042135,6.104789960175314,1.0283170938491821,-2.0688865820514124
1708443174.4490154,-2.1368322372436523,-1.3339062345078965,-2.532827679310934,6.104707824974813,1.0285314321517944,-2.067231003438131
1708443174.45104,-2.136813163757324,-1.333889589910843,-2.532902542744772,6.1046403525169275,1.0286864042282104,-2.065523926411764
1708443174.453026,-2.136782169342041,-1.3338931065848847,-2.5329836050616663,6.10463427284316,1.028826355934143,-2.063906971608297
1708443174.4550474,-2.1367547512054443,-1.3339049530080338,-2.533042017613546,6.104571449547567,1.0290061235427856,-2.0622013250934046
1708443174.4570382,-2.1366991996765137,-1.3339300912669678,-2.5331440607654017,6.104493963509359,1.0291218757629395,-2.0605505148517054
1708443174.459033,-2.1366515159606934,-1.3339455288699646,-2.533210102711813,6.104459392815389,1.0292859077453613,-2.058826748524801
1708443174.461074,-2.136517286300659,-1.3339946579984208,-2.5332911650287073,6.104368674546041,1.029471755027771,-2.0571277777301233
1708443174.4630432,-2.1365323066711426,-1.3339777749827881,-2.5333991686450403,6.104351985245504,1.0296553373336792,-2.0554307142840784
1708443174.4650598,-2.1364586353302,-1.3339819771102448,-2.533466641102926,6.104274260788717,1.0297961235046387,-2.0537307898150843
1708443174.4670544,-2.136413812637329,-1.333989904528,-2.533604447041647,6.104272711067953,1.0299681425094604,-2.0520313421832483
1708443174.4690087,-2.136375904083252,-1.3340018552592774,-2.533695999776022,6.104190575867452,1.030088186264038,-2.050283733998434
1708443174.471074,-2.1363487243652344,-1.3340421479991456,-2.5337560812579554,6.104118692665853,1.0302848815917969,-2.048577610646383
1708443174.4730222,-2.136291980743408,-1.3340421479991456,-2.5338309446917933,6.104141104012289,1.0304533243179321,-2.04678184190859
1708443174.4750464,-2.1361474990844727,-1.3340095740607758,-2.5339627901660364,6.103994595795431,1.030600666999817,-2.045126263295309
1708443174.4770365,-2.136155843734741,-1.3340536814979096,-2.534031931553976,6.103960144310751,1.0307780504226685,-2.0434497038470667
1708443174.479032,-2.1361083984375,-1.334033728843071,-2.534139935170309,6.103927719383993,1.0309253931045532,-2.0418365637408655
1708443174.4810548,-2.1360721588134766,-1.3340410900167008,-2.5342331568347376,6.103885280876913,1.0311273336410522,-2.040243450795309
1708443174.4830313,-2.135972499847412,-1.3340656620315094,-2.5342822710620325,6.103791463166036,1.0312261581420898,-2.0385668913470667
1708443174.4850717,-2.1359121799468994,-1.334085540180542,-2.5343919436084192,6.103739130287924,1.0314074754714966,-2.0369375387774866
1708443174.4870439,-2.1358799934387207,-1.3341220927289505,-2.534513298665182,6.103671777039327,1.031566858291626,-2.0352686087237757
1708443174.4890409,-2.135869026184082,-1.3341170114329834,-2.534546200429098,6.103730070381918,1.0317559242248535,-2.033665482197897
1708443174.4910488,-2.135788917541504,-1.334125505094864,-2.534646813069479,6.103670346527853,1.0319231748580933,-2.0319955984698694
1708443174.4930215,-2.13572096824646,-1.334141955976822,-2.5347185770617884,6.103625404625692,1.0321089029312134,-2.030276123677389
1708443174.4950612,-2.135657548904419,-1.334068627362587,-2.5348477999316614,6.10354911068038,1.032293677330017,-2.0286386648761194
1708443174.4970322,-2.135605573654175,-1.3341696125319977,-2.534985605870382,6.103529798775472,1.0324163436889648,-2.0268619696246546
1708443174.499034,-2.1355373859405518,-1.3341292601874848,-2.534982744847433,6.103444564133444,1.0326215028762817,-2.025119129811422
1708443174.50108,-2.135505199432373,-1.3341818463853379,-2.5350828806506556,6.1034713862235925,1.0327612161636353,-2.0233657995807093
1708443174.503031,-2.1354660987854004,-1.3341443550637742,-2.5352001825915735,6.103369819908895,1.0329140424728394,-2.0216148535357874
1708443174.5050821,-2.13541841506958,-1.33416502297435,-2.5352841059314173,6.103383171349325,1.0331354141235352,-2.0198710600482386
1708443174.507015,-2.1353988647460938,-1.3341853481582184,-2.5353785196887415,6.1033233282859705,1.0332757234573364,-2.018085781727926
1708443174.5090344,-2.1352856159210205,-1.3341608059457322,-2.535455052052633,6.10321735122756,1.033414363861084,-2.0162819067584437
1708443174.5110722,-2.1352150440216064,-1.3341930669597168,-2.535501543675558,6.103209841042318,1.0335872173309326,-2.014613930379049
1708443174.5130486,-2.135206937789917,-1.3341803562692185,-2.5356348196612757,6.10316680648879,1.0337514877319336,-2.012915913258688
1708443174.515053,-2.1351380348205566,-1.334245191221573,-2.53572661081423,6.103138196259298,1.0339043140411377,-2.0112279097186487
1708443174.5170407,-2.1350257396698,-1.334257112150528,-2.5358150641070765,6.103069412499227,1.0340765714645386,-2.009559933339254
1708443174.519073,-2.1350224018096924,-1.334285171037056,-2.5358899275409144,6.103033768921652,1.0342657566070557,-2.0078967253314417
1708443174.5210328,-2.135012149810791,-1.3342732352069397,-2.5360024611102503,6.103042590409078,1.0344048738479614,-2.0061753431903284
1708443174.523044,-2.1349313259124756,-1.334297091966011,-2.536107126866476,6.103040802269735,1.0345566272735596,-2.0045369307147425
1708443174.525033,-2.134920120239258,-1.334256411795952,-2.5361462275134485,6.10294662693099,1.0346890687942505,-2.0028494040118616
1708443174.5270233,-2.1348557472229004,-1.3343047958663483,-2.5362423102008265,6.102935182839193,1.0348660945892334,-2.001112763081686
1708443174.529032,-2.134852647781372,-1.33428447068248,-2.5363503138171595,6.1028960821922205,1.0350548028945923,-1.9994490782367151
1708443174.5310223,-2.1347196102142334,-1.3343127530864258,-2.5363968054400843,6.102843630104818,1.0352193117141724,-1.9977501074420374
1708443174.5330307,-2.134699821472168,-1.3343288761428376,-2.536534611378805,6.102816808014669,1.0353914499282837,-1.9959924856769007
1708443174.5350182,-2.1346399784088135,-1.334393398170807,-2.536618773137228,6.102854120522299,1.035526156425476,-1.994195286427633
1708443174.5370512,-2.1346077919006348,-1.3343404245427628,-2.5367074648486536,6.102785217552938,1.0357111692428589,-1.992521111165182
1708443174.5390234,-2.134568452835083,-1.3343849790147324,-2.5367911497699183,6.102691161423483,1.0358511209487915,-1.990742031727926
1708443174.5410345,-2.134549140930176,-1.334404931669571,-2.536886994038717,6.102679359703817,1.0360114574432373,-1.9890239874469202
1708443174.5430675,-2.1345129013061523,-1.3343926084092637,-2.536933724080221,6.102622377663412,1.036167860031128,-1.9873293081866663
1708443174.5450335,-2.134441375732422,-1.3344244819930573,-2.537046019230978,6.102677809983053,1.036353349685669,-1.9855573813067835
1708443174.5470262,-2.1344330310821533,-1.334416077738144,-2.5371225515948694,6.102613436966696,1.0364998579025269,-1.9837334791766565
1708443174.5490227,-2.1343655586242676,-1.3344570708325882,-2.5371854940997522,6.1026461003120325,1.0366531610488892,-1.9821127096759241
1708443174.5510342,-2.134333610534668,-1.3344924312881012,-2.537248436604635,6.102609026222982,1.0368260145187378,-1.9804170767413538
1708443174.5530274,-2.1342649459838867,-1.3344840121320267,-2.537398640309469,6.102490651398458,1.0370017290115356,-1.9787557760821741
1708443174.5550308,-2.134173631668091,-1.3344724041274567,-2.5373953024493616,6.1025744555290125,1.037145972251892,-1.9771087805377405
1708443174.5570345,-2.134190559387207,-1.3344713908484955,-2.5375664869891565,6.102541672974386,1.0372980833053589,-1.9755337874041956
1708443174.5590475,-2.1340761184692383,-1.334496335392334,-2.537668291722433,6.102513062744894,1.0374960899353027,-1.973830525075094
1708443174.5610275,-2.134056329727173,-1.3345158857158204,-2.5376773516284388,6.102472770005026,1.0375984907150269,-1.9722250143634241
1708443174.5630376,-2.13399338722229,-1.334547684793808,-2.537780825291769,6.102460849076071,1.0377429723739624,-1.9705985228167933
1708443174.5650394,-2.1340341567993164,-1.334576429133751,-2.5379160086261194,6.102394926338949,1.0379440784454346,-1.9689214865313929
1708443174.567027,-2.1339333057403564,-1.33458764970813,-2.5379203001605433,6.102413046150961,1.038072109222412,-1.9672215620623987
1708443174.56902,-2.133938789367676,-1.3345995408347626,-2.5380385557757776,6.1024547694023035,1.0382119417190552,-1.9655864874469202
1708443174.5710282,-2.1339097023010254,-1.3345434677651902,-2.5381136576281946,6.1024547694023035,1.0383812189102173,-1.9637916723834437
1708443174.573031,-2.133805751800537,-1.3346037727645417,-2.538178030644552,6.102381813317098,1.0385127067565918,-1.962198559437887
1708443174.5750363,-2.1338140964508057,-1.334619940524437,-2.538307491933004,6.1024056551750085,1.038677453994751,-1.960484806691305
1708443174.5770328,-2.1337697505950928,-1.3346363616040726,-2.538349215184347,6.102456319123068,1.0388216972351074,-1.9587844053851526
1708443174.5790412,-2.133730411529541,-1.334667832856514,-2.5384379068957728,6.102381813317098,1.0389529466629028,-1.9570849577533167
1708443174.5810206,-2.133718967437744,-1.3346720349839707,-2.538469139729635,6.102384793549337,1.039093017578125,-1.9553597609149378
1708443174.58301,-2.133671283721924,-1.3346594137004395,-2.538614813481466,6.102408516197958,1.0392740964889526,-1.9536517302142542
1708443174.5850146,-2.1336350440979004,-1.334615246658661,-2.5386746565448206,6.102410065918722,1.0393736362457275,-1.9519856611834925
1708443174.5870435,-2.1335790157318115,-1.334650994544365,-2.5387468973742884,6.102459180146017,1.0395432710647583,-1.9503815809832972
1708443174.5890253,-2.133542537689209,-1.3346993786147614,-2.538750950490133,6.1023892042930505,1.0396708250045776,-1.9487178961383265
1708443174.5910144,-2.1334822177886963,-1.334719256763794,-2.538898293172018,6.1023937342460535,1.0397988557815552,-1.947141472493307
1708443174.5930269,-2.1334712505340576,-1.3346824657968064,-2.5389490763293665,6.10240255573348,1.0399028062820435,-1.945470158253805
1708443174.5950189,-2.1334221363067627,-1.3347722601941605,-2.539037529622213,6.102414476662435,1.040063500404358,-1.9438703695880335
1708443174.5970345,-2.1334068775177,-1.3347269755652924,-2.539129082356588,6.1023772833640955,1.0402120351791382,-1.9422500769244593
1708443174.5990207,-2.133443593978882,-1.3347790998271485,-2.539189163838522,6.10240255573348,1.0402907133102417,-1.94066030183901
1708443174.601015,-2.133383274078369,-1.3347991120866318,-2.5392850081073206,6.102369892388143,1.0404480695724487,-1.9391000906573694
1708443174.6030185,-2.1333072185516357,-1.3347864908031006,-2.539353911076681,6.102381813317098,1.04058039188385,-1.9375022093402308
1708443174.6050322,-2.133319854736328,-1.3347749722054978,-2.539419953023092,6.102386224060812,1.0407084226608276,-1.9357793966876429
1708443174.6070204,-2.133247137069702,-1.3348233562758942,-2.5395055452929896,6.10242639759139,1.0408536195755005,-1.9341777006732386
1708443174.6090548,-2.13325572013855,-1.3348225814155121,-2.539581839238302,6.102381813317098,1.0409846305847168,-1.9324725309955042
1708443174.6111152,-2.1332287788391113,-1.3348471236279984,-2.539652411137716,6.102401125222006,1.041129231452942,-1.9308212439166468
1708443174.6130695,-2.13317608833313,-1.3348267835429688,-2.5397425333606165,6.1024056551750085,1.0412417650222778,-1.929211441670553
1708443174.6150563,-2.1332039833068848,-1.3349196773818512,-2.53976017633547,6.1023772833640955,1.0413817167282104,-1.9275758902179163
1708443174.6170645,-2.133132219314575,-1.3348992478898545,-2.539882008229391,6.10240255573348,1.0414974689483643,-1.9258611837970179
1708443174.6190393,-2.133115530014038,-1.334918887620308,-2.5398786703692835,6.102369892388143,1.0416789054870605,-1.9241936842547815
1708443174.6210437,-2.133087635040283,-1.3348705035499115,-2.5399614016162317,6.1024383185203455,1.0417710542678833,-1.922577206288473
1708443174.6230505,-2.1330723762512207,-1.3349104684642334,-2.5400481859790247,6.10240255573348,1.0419358015060425,-1.9208477179156702
1708443174.6250312,-2.1331005096435547,-1.3349633824876328,-2.540084425603048,6.102435338288107,1.0420230627059937,-1.919246021901266
1708443174.627068,-2.1330318450927734,-1.3349380505136033,-2.5401774088488978,6.1023937342460535,1.04214346408844,-1.917647663746969
1708443174.6290352,-2.133028984069824,-1.3349910241416474,-2.5402327219592493,6.10240255573348,1.0422383546829224,-1.9160645643817347
1708443174.6310477,-2.1330037117004395,-1.334966019993164,-2.540255133305685,6.102372872620382,1.042392611503601,-1.914511505757467
1708443174.633045,-2.1329853534698486,-1.3350186955979844,-2.5403316656695765,6.102398144989767,1.0424998998641968,-1.9129064718829554
1708443174.6350338,-2.1329407691955566,-1.3350018721869965,-2.540384117756979,6.102410065918722,1.0426454544067383,-1.9113648573504847
1708443174.6370652,-2.132887601852417,-1.335050569181778,-2.5404892603503626,6.1023892042930505,1.042744517326355,-1.9097555319415491
1708443174.6390347,-2.1329379081726074,-1.3350259524634858,-2.540462080632345,6.102351891785421,1.0428080558776855,-1.9082210699664515
1708443174.6410525,-2.132856845855713,-1.3350539964488526,-2.5406015555011194,6.1024056551750085,1.04299795627594,-1.9065964857684534
1708443174.6430578,-2.1328859329223633,-1.335049794321396,-2.54063326517214,6.102401125222006,1.0430978536605835,-1.905048672352926
1708443174.6450732,-2.1328816413879395,-1.335082323556282,-2.5406931082354944,6.102429497032919,1.0431894063949585,-1.9034321943866175
1708443174.647035,-2.1328036785125732,-1.335045502786972,-2.540748659764425,6.102392184525289,1.043281078338623,-1.901710335408346
1708443174.649033,-2.1328248977661133,-1.3351425689509888,-2.5408130327807825,6.102478968888082,1.0433655977249146,-1.900062386189596
1708443174.6510231,-2.132793426513672,-1.3350611639073868,-2.540906016026632,6.102453577309408,1.0434856414794922,-1.8984559218036097
1708443174.653034,-2.1328415870666504,-1.3350934994271775,-2.540924135838644,6.102493989258566,1.043553352355957,-1.8968289534198206
1708443174.6550364,-2.1327645778656006,-1.3351622235826035,-2.5410097281085413,6.102523910790243,1.04368257522583,-1.8951733748065394
1708443174.6570773,-2.1327896118164062,-1.335170255308487,-2.541006390248434,6.102550732880392,1.043766736984253,-1.893625561391012
1708443174.659044,-2.1327896118164062,-1.335096926694252,-2.5411084334002894,6.1025640843208215,1.043842077255249,-1.891935173665182
1708443174.6610742,-2.1327857971191406,-1.3351580214551468,-2.5411821047412317,6.102562653809347,1.0439294576644897,-1.8902424017535608
1708443174.6630445,-2.1327531337738037,-1.3351496022990723,-2.5412254969226282,6.102528321533956,1.0440747737884521,-1.8886397520648401
1708443174.665019,-2.132709503173828,-1.3352144372514267,-2.5412569681750696,6.1025580046470544,1.0441831350326538,-1.8871524969684046
1708443174.6670601,-2.132675886154175,-1.3351778847030182,-2.5413199106799524,6.102559673577108,1.0442553758621216,-1.885576073323385
1708443174.6690252,-2.1327409744262695,-1.3352059435895463,-2.5413604418383997,6.102620589524069,1.0443633794784546,-1.8839972654925745
1708443174.6710768,-2.132725238800049,-1.3352017265609284,-2.541412893925802,6.102637278824606,1.0444549322128296,-1.8825562636004847
1708443174.6730428,-2.132713794708252,-1.3352055561593552,-2.5414400736438196,6.102677809983053,1.0445315837860107,-1.880991284047262
1708443174.67502,-2.132664918899536,-1.335249440079071,-2.541516367589132,6.102698671608724,1.0445904731750488,-1.8794668356524866
1708443174.6770277,-2.1327097415924072,-1.3352248233607789,-2.5415552298175257,6.102685200959005,1.0447165966033936,-1.8779929319964808
1708443174.6790125,-2.1327013969421387,-1.3352573674968262,-2.541640822087423,6.10275815704421,1.0448170900344849,-1.8764799276935022
1708443174.6810293,-2.1326732635498047,-1.335244746213295,-2.5416467825519007,6.102761137276449,1.0448683500289917,-1.8749430815326136
1708443174.6830099,-2.132697343826294,-1.3352404546788712,-2.541736904774801,6.102764475136556,1.0449613332748413,-1.873315159474508
1708443174.6850274,-2.1326661109924316,-1.3353057515672226,-2.541678253804342,6.102862942009725,1.0450291633605957,-1.8718140761004847
1708443174.687023,-2.132661819458008,-1.335329921250679,-2.5417428652392786,6.102852570801534,1.0450998544692993,-1.8702314535724085
1708443174.6890473,-2.132661819458008,-1.3352884513190766,-2.541828457509176,6.102836239128866,1.0452009439468384,-1.8686540762530726
1708443174.6910484,-2.1326494216918945,-1.3354020577720185,-2.541884962712423,6.102921354561605,1.045317530632019,-1.8671553770648401
1708443174.693024,-2.1326661109924316,-1.335352973347046,-2.541903320943014,6.102903473168173,1.0453613996505737,-1.865629021321432
1708443174.6950283,-2.1326284408569336,-1.3353937280229111,-2.541964832936422,6.102964508324423,1.0454167127609253,-1.8640878836261194
1708443174.6970334,-2.1326370239257812,-1.335352973347046,-2.5420172850238245,6.102976429253378,1.04554283618927,-1.862603012715475
1708443174.6990166,-2.132662296295166,-1.3353974682143708,-2.5420246759997767,6.103021490364828,1.0455691814422607,-1.861044708882467
1708443174.7010272,-2.1326537132263184,-1.3353402626565476,-2.5420518557177942,6.103044020920553,1.045636773109436,-1.8595135847674769
1708443174.703069,-2.1326704025268555,-1.3353683215430756,-2.5420756975757044,6.103084194451132,1.0456968545913696,-1.8579233328448694
1708443174.7050517,-2.1326904296875,-1.335421235566475,-2.5421610514270228,6.103091704636373,1.04579758644104,-1.8564541975604456
1708443174.7070332,-2.1326284408569336,-1.3354416352561493,-2.5422046820269983,6.103132235794821,1.0458773374557495,-1.8549798170672815
1708443174.7090554,-2.13266921043396,-1.3353798550418396,-2.5422168413745325,6.10318015792922,1.04593825340271,-1.853523079548971
1708443174.7111168,-2.132718324661255,-1.3354527813247223,-2.5422242323504847,6.103208052902975,1.0460227727890015,-1.8521044890033167
1708443174.7130754,-2.132661819458008,-1.335476667886116,-2.542293135319845,6.103259312897482,1.046086072921753,-1.850736443196432
1708443174.7150664,-2.1326775550842285,-1.3355006736567994,-2.5422661940204065,6.103242623596945,1.0461057424545288,-1.8492510954486292
1708443174.7170243,-2.132678985595703,-1.3355211329511185,-2.5423110167132776,6.103315937310018,1.0461986064910889,-1.8477943579303187
1708443174.7190247,-2.1326732635498047,-1.3354766231826325,-2.5423665682422083,6.1033517000968835,1.0462380647659302,-1.8463605085956019
1708443174.7210433,-2.1326904296875,-1.3355290752700348,-2.5424161593066614,6.103387701302328,1.046306848526001,-1.844926659260885
1708443174.7230186,-2.1326537132263184,-1.3355452132276078,-2.5424357096301478,6.103402840882101,1.0463879108428955,-1.8434699217425745
1708443174.7250385,-2.132645606994629,-1.3355482530644913,-2.5424144903766077,6.1034055826957605,1.046431303024292,-1.8419674078570765
1708443174.7270155,-2.132685899734497,-1.3355399829200287,-2.54254657426943,6.103474366455831,1.0464664697647095,-1.8405440489398401
1708443174.7290187,-2.1326746940612793,-1.3355724823525925,-2.542483631764547,6.103469836502828,1.0465065240859985,-1.839024845753805
1708443174.7310655,-2.1326212882995605,-1.335535691385605,-2.5425737539874476,6.103550541191854,1.0465787649154663,-1.8375776449786585
1708443174.7330287,-2.1326370239257812,-1.3355686527541657,-2.542621437703268,6.103628265648641,1.0466554164886475,-1.836151425038473
1708443174.7350378,-2.132658004760742,-1.3355399829200287,-2.5425706545459192,6.103716361313619,1.046654224395752,-1.8346274534808558
1708443174.737023,-2.1326327323913574,-1.3355682653239747,-2.5426486174212855,6.103674757271566,1.0466904640197754,-1.833207909260885
1708443174.7390676,-2.1326284408569336,-1.3355921071818848,-2.5426395575152796,6.103730070381918,1.046766757965088,-1.8317015806781214
1708443174.7410522,-2.132620096206665,-1.3355921071818848,-2.542659107838766,6.103782284050741,1.0468236207962036,-1.8302767912494105
1708443174.7430203,-2.1326169967651367,-1.335596279507019,-2.5426951090442103,6.103839146881857,1.0467809438705444,-1.8287556807147425
1708443174.7450287,-2.132658004760742,-1.3355836135200043,-2.5427146593676966,6.1038867113883875,1.0468947887420654,-1.8272765318499964
1708443174.7470064,-2.1326704025268555,-1.3356527400067826,-2.542733971272604,6.103918421059408,1.046939492225647,-1.8258283774005335
1708443174.7490222,-2.132685899734497,-1.3356323105147858,-2.542804781590597,6.103904950409689,1.0469551086425781,-1.8245003859149378
1708443174.751036,-2.1326494216918945,-1.3356569421342392,-2.5428150335894983,6.103994238167562,1.047019362449646,-1.8231304327594202
1708443174.7530262,-2.132658004760742,-1.3356850010207673,-2.5428479353534144,6.104022729187765,1.0470390319824219,-1.8216941992389124
1708443174.7550442,-2.132662296295166,-1.3356366020492096,-2.5428298155414026,6.104029166489401,1.04707932472229,-1.8203251997577112
1708443174.7570221,-2.1326284408569336,-1.3356527400067826,-2.542858425770895,6.10409044006423,1.0471243858337402,-1.8189309279071253
1708443174.75903,-2.13264536857605,-1.3356638711741944,-2.542882506047384,6.104091751366415,1.0472010374069214,-1.817529026662008
1708443174.761068,-2.1326284408569336,-1.3356884133866807,-2.5429185072528284,6.104127752571859,1.0472042560577393,-1.8161667029010218
1708443174.7630453,-2.1326818466186523,-1.3356554520181199,-2.5429230372058313,6.1042412398155115,1.0472322702407837,-1.8147996107684534
1708443174.765048,-2.1326661109924316,-1.335696132188179,-2.5429845491992396,6.104193556099691,1.04732084274292,-1.8133991400348108
1708443174.7670262,-2.132664918899536,-1.3356638711741944,-2.5429709593402308,6.10429202297286,1.0472990274429321,-1.812005345021383
1708443174.7690275,-2.132661819458008,-1.3357041639140625,-2.542957369481222,6.104327785759725,1.047357201576233,-1.810566250477926
1708443174.7710645,-2.132636785507202,-1.3357279163650055,-2.542957369481222,6.104335295944967,1.0473724603652954,-1.8091557661639612
1708443174.7730262,-2.1326775550842285,-1.3356834214976807,-2.542981211339132,6.1043786881263635,1.0473756790161133,-1.8076985518084925
1708443174.7750373,-2.13264536857605,-1.3357567650130768,-2.543028179799215,6.104452001839437,1.0474519729614258,-1.8063934485064905
1708443174.7770271,-2.13266921043396,-1.3357237142375489,-2.5430174509631556,6.104507314949789,1.0474971532821655,-1.80497914949526
1708443174.7790442,-2.13269305229187,-1.3357559752515336,-2.543044630681173,6.104502904206075,1.047528624534607,-1.8035338560687464
1708443174.7810216,-2.1327335834503174,-1.3357559752515336,-2.5430339018451136,6.104543077736654,1.0475813150405884,-1.802178684865133
1708443174.7830536,-2.132725238800049,-1.335747556095459,-2.5430548826800745,6.104640471726217,1.0475561618804932,-1.8007391134845179
1708443174.7850463,-2.132713794708252,-1.335792438392975,-2.543074433003561,6.10463427284316,1.0476378202438354,-1.7992847601519983
1708443174.7870536,-2.1327366828918457,-1.3358081889203568,-2.5430548826800745,6.10468219497756,1.0476325750350952,-1.7979133764850062
1708443174.7890391,-2.132777214050293,-1.3357230138829728,-2.5430083910571497,6.104768860131063,1.0476934909820557,-1.7964447180377405
1708443174.791048,-2.132777214050293,-1.3357636791518708,-2.5430548826800745,6.1047658798988245,1.047680377960205,-1.7950399557696741
1708443174.7930467,-2.1328060626983643,-1.3358243119767685,-2.5430668036090296,6.104818212776937,1.04766845703125,-1.7936371008502405
1708443174.7950711,-2.132776975631714,-1.3358073991588135,-2.543145004902975,6.104891168862142,1.0477222204208374,-1.7923415342914026
1708443174.7970386,-2.1328060626983643,-1.3358073991588135,-2.543124024068014,6.104946958809652,1.0476716756820679,-1.791098419819967
1708443174.7990253,-2.132793426513672,-1.3357828569463273,-2.543119494115011,6.104996073036947,1.047703504562378,-1.789734188710348
1708443174.8010502,-2.1328091621398926,-1.335815117960312,-2.543149534855978,6.105005013733663,1.0477526187896729,-1.7884648481952112
1708443174.8030121,-2.132842540740967,-1.3358561110547562,-2.543095413838522,6.105085956841268,1.0477288961410522,-1.7871368567096155
1708443174.8050325,-2.1328539848327637,-1.335867704158165,-2.543065373097555,6.105072605400839,1.0477159023284912,-1.7858579794513147
1708443174.807024,-2.1328539848327637,-1.335810826425888,-2.543103043233053,6.105124699860372,1.0477319955825806,-1.7845962683307093
1708443174.8090398,-2.132869243621826,-1.3358143281987687,-2.54309851328005,6.105200874596395,1.0477277040481567,-1.7832320372210901
1708443174.8111145,-2.1328859329223633,-1.33587962508712,-2.543140474949972,6.10521279552535,1.0477321147918701,-1.7819016615497034
1708443174.8130486,-2.132856845855713,-1.3358392727426072,-2.5430684725390833,6.1053024409110925,1.0477639436721802,-1.7805874983416956
1708443174.8150082,-2.1329243183135986,-1.335879163151123,-2.543131415043966,6.1053247330482385,1.0477771759033203,-1.7792390028582972
1708443174.8170168,-2.1329283714294434,-1.3358392727426072,-2.54307729402651,6.105386125832357,1.0477802753448486,-1.777954403554098
1708443174.8190236,-2.132920265197754,-1.3358995777419587,-2.543131415043966,6.105384933739462,1.0478171110153198,-1.7765825430499476
1708443174.8210304,-2.132920980453491,-1.3358423721841355,-2.543135944996969,6.105472790985861,1.0477921962738037,-1.775226895009176
1708443174.8230367,-2.1329689025878906,-1.335833953028061,-2.543126885090963,6.105582105904379,1.0477888584136963,-1.7739656607257288
1708443174.8250468,-2.132981300354004,-1.3358585101417084,-2.543110434209005,6.105564224510946,1.0478140115737915,-1.7725980917560022
1708443174.8270676,-2.1329853534698486,-1.3359233450940629,-2.543131415043966,6.105567204743185,1.0477964878082275,-1.7712867895709437
1708443174.8290336,-2.1329727172851562,-1.3358910840800782,-2.543140474949972,6.1056121466453455,1.0477964878082275,-1.7699454466449183
1708443174.831046,-2.1330246925354004,-1.335919128065445,-2.5430849234210413,6.105695593148031,1.0477714538574219,-1.768635098134176
1708443174.8330352,-2.1329801082611084,-1.3358833950809021,-2.5431554953204554,6.105776178627767,1.0477888584136963,-1.7672494093524378
1708443174.8350043,-2.133060932159424,-1.3358580333045502,-2.5430849234210413,6.10582851150588,1.047829270362854,-1.766003433858053
1708443174.8370128,-2.133023500442505,-1.3359275472215195,-2.5431178251849573,6.105900394707479,1.0478171110153198,-1.7647140661822718
1708443174.8390248,-2.1330723762512207,-1.3359149259379883,-2.5431509653674524,6.105916726380148,1.0477877855300903,-1.7634409109698694
1708443174.8410146,-2.1330440044403076,-1.3359190982631226,-2.5431178251849573,6.1059138653571985,1.0477921962738037,-1.7621853987323206
1708443174.8430119,-2.1330838203430176,-1.3359106344035645,-2.5431674162494105,6.105970966606893,1.0478336811065674,-1.7610128561602991
1708443174.8450208,-2.133140802383423,-1.335987390284874,-2.5430925528155726,6.106043803482809,1.0477802753448486,-1.7596924940692347
1708443174.847054,-2.1331491470336914,-1.3359432083419343,-2.543143335972921,6.106047022133627,1.0478127002716064,-1.7584798971759241
1708443174.8490183,-2.133213520050049,-1.3358980876258393,-2.5431509653674524,6.106130587845602,1.0478007793426514,-1.7573187986956995
1708443174.851081,-2.1332168579101562,-1.3359432083419343,-2.5430880228625696,6.106190430908956,1.0478007793426514,-1.7561138311969202
1708443174.853061,-2.1331968307495117,-1.3359064322761078,-2.5430970827685755,6.106177079468527,1.0478541851043701,-1.7548163572894495
1708443174.8550467,-2.1332039833068848,-1.3359831881574173,-2.5430970827685755,6.106189238816061,1.0477802753448486,-1.7536242643939417
1708443174.857022,-2.1332287788391113,-1.3359794479659577,-2.5431297461139124,6.106232511788168,1.0477683544158936,-1.7524130980121058
1708443174.859064,-2.1332807540893555,-1.3359383058599015,-2.5431342760669153,6.106296765595236,1.0477845668792725,-1.7511346975909632
1708443174.861046,-2.1332807540893555,-1.3359831881574173,-2.5431059042560022,6.106356370240011,1.0478140115737915,-1.749941651021139
1708443174.8630517,-2.1333367824554443,-1.3359583181193848,-2.5431059042560022,6.106408703118124,1.0477802753448486,-1.7486570517169397
1708443174.8650265,-2.133352518081665,-1.3359581542066117,-2.543126885090963,6.106431114464559,1.0477877855300903,-1.7473810354815882
1708443174.867023,-2.1333324909210205,-1.3359626096538086,-2.543110434209005,6.10651324966506,1.0477964878082275,-1.7461708227740687
1708443174.8690124,-2.133338689804077,-1.3359582883170624,-2.543114964162008,6.106573092728414,1.0477802753448486,-1.7448647657977503
1708443174.8710113,-2.13340425491333,-1.3359508377364655,-2.54309851328005,6.106597053795614,1.0477964878082275,-1.7437074820147913
1708443174.8730247,-2.133443593978882,-1.3360027980855484,-2.543152395878927,6.106615173607626,1.0477683544158936,-1.7425015608416956
1708443174.8750355,-2.1334152221679688,-1.335965560083725,-2.5431645552264612,6.106680619507589,1.0477683544158936,-1.7411978880511683
1708443174.8770318,-2.133418083190918,-1.3360565167716523,-2.543103043233053,6.106719600945272,1.0477726459503174,-1.7399681250201624
1708443174.8790305,-2.1334962844848633,-1.335973934536316,-2.543093983327047,6.106762873917379,1.0477683544158936,-1.7387264410602015
1708443174.8810272,-2.1335232257843018,-1.3359944236329575,-2.543124024068014,6.106836426049032,1.0477440357208252,-1.7375124136554163
1708443174.8830564,-2.1335315704345703,-1.3360226911357422,-2.5430894533740442,6.1068423865135095,1.047720193862915,-1.736258331929342
1708443174.8850281,-2.133559465408325,-1.3360105466893692,-2.543135944996969,6.1070114252860925,1.0477079153060913,-1.7349804083453577
1708443174.8870478,-2.133584499359131,-1.3360020381263276,-2.543135944996969,6.106966483383932,1.0476961135864258,-1.7337349096881312
1708443174.8898087,-2.1336002349853516,-1.3360515248826523,-2.543093983327047,6.107035028725424,1.0476672649383545,-1.7325590292560022
1708443174.8910706,-2.1336238384246826,-1.3360105466893692,-2.543124024068014,6.107017028122701,1.047704815864563,-1.7313240210162562
1708443174.893015,-2.133615493774414,-1.3359978210977097,-2.543095413838522,6.107118713646688,1.0476360321044922,-1.7301257292376917
1708443174.895025,-2.133660316467285,-1.3360634458116074,-2.5430713335620325,6.107141363411703,1.0476281642913818,-1.7289956251727503
1708443174.8970711,-2.1337037086486816,-1.336046577697136,-2.5430548826800745,6.107238518982687,1.0475834608078003,-1.7277725378619593
1708443174.8990462,-2.1336910724639893,-1.336078794007637,-2.5430668036090296,6.107278573303976,1.0475800037384033,-1.7266400496112269
1708443174.9010143,-2.133723258972168,-1.3359978210977097,-2.5430293718921106,6.107298362046041,1.0475186109542847,-1.7254894415484827
1708443174.9030538,-2.1337428092956543,-1.3360219907811661,-2.5430548826800745,6.107371198921957,1.047548770904541,-1.7242539564715784
1708443174.9050317,-2.1337344646453857,-1.3360142719796677,-2.5430219809161585,6.107368576317587,1.0475361347198486,-1.7231324354754847
1708443174.9070194,-2.1337780952453613,-1.3360346120646973,-2.5430293718921106,6.107429969101705,1.047479510307312,-1.7220070997821253
1708443174.9090044,-2.1338071823120117,-1.335993618970253,-2.5429888407336634,6.107497203141012,1.0475168228149414,-1.720870319996969
1708443174.911055,-2.133887529373169,-1.3360745918801804,-2.5430310408221644,6.107501733094015,1.0474598407745361,-1.7197416464435022
1708443174.913051,-2.1338348388671875,-1.3360261929086228,-2.543023649846212,6.107594001084127,1.0474238395690918,-1.7185915152179163
1708443174.9150167,-2.1339266300201416,-1.336099089389183,-2.54297382036318,6.107624041825094,1.047444462776184,-1.7174895445453089
1708443174.9170222,-2.1339223384857178,-1.3360388588956376,-2.5429709593402308,6.107640731125631,1.0474084615707397,-1.71629506746401
1708443174.919041,-2.133923053741455,-1.3360381436399003,-2.54294997850527,6.10766755321578,1.0473341941833496,-1.7151249090777796
1708443174.9210274,-2.133958578109741,-1.3360703748515625,-2.5429590384112757,6.107698666840353,1.0473147630691528,-1.713982407246725
1708443174.9230208,-2.133941650390625,-1.3360991340926667,-2.5429185072528284,6.107797372132101,1.0473244190216064,-1.7128904501544397
1708443174.9250174,-2.1340105533599854,-1.3360991340926667,-2.5428808371173304,6.10786913612441,1.0472466945648193,-1.7117283979998987
1708443174.927017,-2.134006977081299,-1.3360458326390763,-2.5429440180407923,6.107875096588888,1.047240138053894,-1.7105992476092737
1708443174.9290233,-2.1340672969818115,-1.3360339117101212,-2.5429154078113,6.107957350998678,1.0471867322921753,-1.7095077673541468
1708443174.931025,-2.1340017318725586,-1.3360415411046525,-2.542858425770895,6.107963430672445,1.0471622943878174,-1.7084034124957483
1708443174.9330342,-2.134150266647339,-1.3360864979079743,-2.5428629557238978,6.108015644341268,1.047147274017334,-1.7072699705706995
1708443174.9350727,-2.1341588497161865,-1.3360907149365921,-2.5428388754474085,6.108096706658163,1.0471231937408447,-1.706169907246725
1708443174.9370184,-2.1342031955718994,-1.3360829961350937,-2.542873207722799,6.108099686890402,1.0470781326293945,-1.7049711386310022
1708443174.939043,-2.134202003479004,-1.3360703748515625,-2.542791191731588,6.108156192093649,1.0470837354660034,-1.7038524786578577
1708443174.9410162,-2.134209156036377,-1.3360415411046525,-2.542779032384054,6.108105170517721,1.0469987392425537,-1.7027424017535608
1708443174.9430573,-2.1342453956604004,-1.336061955695488,-2.542774502431051,6.10817431190566,1.0469821691513062,-1.701649014149801
1708443174.9450219,-2.1342649459838867,-1.336078093653061,-2.542712990437643,6.108207094460287,1.046938180923462,-1.700589958821432
1708443174.9470632,-2.1343183517456055,-1.3360626560500641,-2.5427311102496546,6.108257996826925,1.0469145774841309,-1.6995490233050745
1708443174.9490101,-2.134340763092041,-1.336078093653061,-2.5426364580737513,6.108272778778829,1.0468947887420654,-1.6985214392291468
1708443174.951043,-2.134385585784912,-1.336061955695488,-2.542657438908712,6.1083176014717,1.0468260049819946,-1.6974638144122522
1708443174.9530334,-2.134385108947754,-1.3360864979079743,-2.542659107838766,6.10840271690444,1.0467822551727295,-1.6964195410357874
1708443174.9550366,-2.134441375732422,-1.336078093653061,-2.5426350275622767,6.108459341316976,1.0467462539672852,-1.6954105536090296
1708443174.9570293,-2.1344807147979736,-1.3361026358655472,-2.5425854364978235,6.108470189362325,1.0466935634613037,-1.6943824926959437
1708443174.9590204,-2.134472370147705,-1.3361063462546845,-2.542563263569967,6.108529794007101,1.0466904640197754,-1.6933534781085413
1708443174.9610465,-2.1345086097717285,-1.3360738021186371,-2.542532984410421,6.108520972519674,1.0466020107269287,-1.6922839323626917
1708443174.9630184,-2.1345362663269043,-1.3360907149365921,-2.5424776713000696,6.108580815583029,1.0466151237487793,-1.6913045088397425
1708443174.9650302,-2.1345815658569336,-1.3360822957805176,-2.5425196329699915,6.108612048416891,1.046509027481079,-1.690286938344137
1708443174.96702,-2.134572744369507,-1.3360492450049897,-2.542471472417013,6.108718263893881,1.0464890003204346,-1.6893122831927698
1708443174.9690244,-2.134673833847046,-1.3360738021186371,-2.5424533526050013,6.108721363335409,1.046400785446167,-1.688242260609762
1708443174.971043,-2.1346487998962402,-1.3361026358655472,-2.5423858801471155,6.108769404679098,1.0463404655456543,-1.6872265974627894
1708443174.9730108,-2.1346356868743896,-1.3360822957805176,-2.5424144903766077,6.10877953746871,1.0462925434112549,-1.6862061659442347
1708443174.9750156,-2.1346960067749023,-1.3360984188369294,-2.542363707219259,6.108905064850607,1.0462487936019897,-1.6851485411273401
1708443174.9770072,-2.134777545928955,-1.3360822957805176,-2.542309586201803,6.108855950623312,1.0462127923965454,-1.6841324011432093
1708443174.9789984,-2.1347687244415283,-1.3360695850900193,-2.542297426854269,6.109009730606832,1.046149492263794,-1.6831682364093226
1708443174.981047,-2.1347718238830566,-1.336123214369156,-2.5422616640674036,6.108976948052206,1.0460313558578491,-1.6821773687945765
1708443174.9830387,-2.1348204612731934,-1.336050034766533,-2.5422752539264124,6.1089738486106775,1.0460453033447266,-1.6811345259295862
1708443174.9850116,-2.1348557472229004,-1.3361026358655472,-2.542239014302389,6.109105574875631,1.0459526777267456,-1.6801217238055628
1708443174.9870293,-2.1348838806152344,-1.3360584539226075,-2.542194191609518,6.109066831856527,1.0458511114120483,-1.6791098753558558
1708443174.989027,-2.134891986846924,-1.3360661727241059,-2.5421534220324915,6.109139907151022,1.0458203554153442,-1.6780508200274866
1708443174.9910688,-2.134943962097168,-1.3360822957805176,-2.542122189198629,6.109130847245016,1.0457556247711182,-1.677058521901266
1708443174.9930153,-2.1349427700042725,-1.3360991340926667,-2.542152229939596,6.109244334488668,1.0457003116607666,-1.6760667006122034
1708443174.9950325,-2.1349997520446777,-1.3361195188811799,-2.542111937199728,6.109238374024191,1.0456640720367432,-1.6751311461078089
1708443174.9970207,-2.1350557804107666,-1.3360822957805176,-2.5420547167407435,6.109304177552023,1.0455634593963623,-1.6741178671466272
1708443174.9990277,-2.135117292404175,-1.3360864979079743,-2.542035166417257,6.109328257828512,1.0454825162887573,-1.6730926672564905
1708443175.0010486,-2.135124683380127,-1.336102620964386,-2.5419707934008997,6.109346139221945,1.0454474687576294,-1.672190014516012
1708443175.0030832,-2.1351232528686523,-1.3360542517951508,-2.5419586340533655,6.109349119454183,1.0453338623046875,-1.671159569417135
1708443175.0050483,-2.135179281234741,-1.336073787217476,-2.541922632847921,6.109425651818075,1.0453064441680908,-1.6701777617083948
1708443175.0070226,-2.135204315185547,-1.3360822957805176,-2.541891400014059,6.109413373261251,1.045192837715149,-1.6692207495318812
1708443175.0090208,-2.135251522064209,-1.3360907298377533,-2.5417969862567347,6.10948525646285,1.0451545715332031,-1.668342415486471
1708443175.0110476,-2.1352505683898926,-1.3360500496676941,-2.541786257420675,6.109525668412008,1.0451273918151855,-1.667356316243307
1708443175.0130458,-2.135286808013916,-1.336078093653061,-2.5417171160327356,6.109549271851339,1.045017957687378,-1.666504208241598
1708443175.0150788,-2.135335683822632,-1.3360458326390763,-2.5417683760272425,6.109601604729452,1.0449457168579102,-1.6656110922442835
1708443175.0170295,-2.135350227355957,-1.3360991340926667,-2.54167086282839,6.109618413239279,1.0448858737945557,-1.6646493116961878
1708443175.0190337,-2.135411262512207,-1.3360584539226075,-2.5416680018054407,6.1096287844474695,1.0448139905929565,-1.663785759602682
1708443175.021034,-2.1354758739471436,-1.3360584539226075,-2.5416107813464563,6.1097601530845544,1.0447293519973755,-1.662884537373678
1708443175.0230265,-2.135495662689209,-1.3360584390214463,-2.541591469441549,6.109704959183492,1.0446574687957764,-1.6619952360736292
1708443175.0250542,-2.135474681854248,-1.3360745769790192,-2.5415313879596155,6.109801637917318,1.0445730686187744,-1.6610329786883753
1708443175.0270247,-2.1355106830596924,-1.3360864979079743,-2.5415239969836634,6.109780895500936,1.0444923639297485,-1.6601937452899378
1708443175.0290177,-2.1355628967285156,-1.3360381138375779,-2.541454855595724,6.109821545868673,1.044379711151123,-1.6593506971942347
1708443175.0310307,-2.135594606399536,-1.3360787344029923,-2.5413783232318323,6.109845626145162,1.044348955154419,-1.6584566275226038
1708443175.0330236,-2.1356496810913086,-1.3360584539226075,-2.5413618723498743,6.109823214798727,1.044236660003662,-1.6576083342181605
1708443175.0350296,-2.135662317276001,-1.3361068826964875,-2.5412898699389856,6.109879720001974,1.044176697731018,-1.6566899458514612
1708443175.0370178,-2.13567852973938,-1.3360710752061387,-2.541262690220968,6.109936702042379,1.0441043376922607,-1.6557930151568812
1708443175.0390365,-2.1357223987579346,-1.3360703748515625,-2.541238848363058,6.109953152924337,1.0440157651901245,-1.6549246946917933
1708443175.0410414,-2.13570499420166,-1.3360829961350937,-2.5411954561816614,6.109994637757101,1.0439479351043701,-1.6540511290179651
1708443175.0430384,-2.135798215866089,-1.336021975880005,-2.5411177317248743,6.110044228821554,1.0438519716262817,-1.6531904379474085
1708443175.0450463,-2.1358299255371094,-1.3360465478948136,-2.5410738627063196,6.109997975617208,1.04374361038208,-1.652341667805807
1708443175.047023,-2.1358299255371094,-1.3360017550042649,-2.5410710016833704,6.110112893372335,1.043699860572815,-1.6514714399920862
1708443175.0490189,-2.1358256340026855,-1.336042345767357,-2.541055981312887,6.110103952675619,1.0435752868652344,-1.6506064573871058
1708443175.0510352,-2.135869026184082,-1.3360423308661957,-2.5409720579730433,6.1101605770881555,1.0434868335723877,-1.6497677008258265
1708443175.0530188,-2.135885715484619,-1.336026207809784,-2.540889326726095,6.110171305924215,1.043402910232544,-1.6489713827716272
1708443175.0550566,-2.1359176635742188,-1.336038814192154,-2.540881935750143,6.110269892006674,1.0433349609375,-1.6481412092791956
1708443175.0570426,-2.1359739303588867,-1.3360142719796677,-2.54081899324526,6.1102309105689905,1.0432047843933105,-1.6473000685321253
1708443175.059072,-2.1359739303588867,-1.3360105466893692,-2.5407829920398157,6.110283243447103,1.043170690536499,-1.6464579741107386
1708443175.0610375,-2.136056900024414,-1.3360096377185364,-2.540744129811422,6.110290992050924,1.043049693107605,-1.6456525961505335
1708443175.0630128,-2.136101484298706,-1.336010531788208,-2.5406463781939905,6.110377537995138,1.0429580211639404,-1.6449316183673304
1708443175.0650544,-2.1360483169555664,-1.3360113066485901,-2.5406180063830774,6.110329735070028,1.042869210243225,-1.644040886555807
1708443175.0670447,-2.1361169815063477,-1.3359954220107575,-2.540532652531759,6.110383617668905,1.0428025722503662,-1.6432231108294886
1708443175.0690026,-2.136153221130371,-1.3360028129867096,-2.540517870579855,6.110411989479818,1.0426901578903198,-1.642458740864889
1708443175.071038,-2.136181354522705,-1.3359954965165635,-2.540494982396261,6.110452401428976,1.0425760746002197,-1.641658131276266
1708443175.073023,-2.136183977127075,-1.3359790456346055,-2.5404351393329065,6.110471355706014,1.0425008535385132,-1.640848461781637
1708443175.0750775,-2.136216163635254,-1.3359172207168122,-2.5403946081744593,6.110486614495077,1.0424211025238037,-1.6400964895831507
1708443175.07702,-2.1362648010253906,-1.335914046769478,-2.5402899424182337,6.110453593521871,1.0423251390457153,-1.6393430868731897
1708443175.079046,-2.1363365650177,-1.335949422126152,-2.5402703920947474,6.110503065377035,1.0422571897506714,-1.6386116186725062
1708443175.0810502,-2.136385679244995,-1.3359061640552063,-2.5402477423297327,6.110542046814718,1.0421655178070068,-1.6378663221942347
1708443175.0830145,-2.136364459991455,-1.3359425377896805,-2.5401950518237513,6.110616433411398,1.041978120803833,-1.637104336415426
1708443175.0850272,-2.136416435241699,-1.3359712225249787,-2.540093247090475,6.110633241921224,1.0419031381607056,-1.6364052931415003
1708443175.0870278,-2.1364777088165283,-1.3359509420445939,-2.5401082674609583,6.11065565326766,1.0418643951416016,-1.635688606892721
1708443175.0890226,-2.136443853378296,-1.335951716904976,-2.539989773427145,6.110654341965475,1.041747808456421,-1.6350210348712366
1708443175.0910392,-2.1365163326263428,-1.3359270703843613,-2.5399747530566614,6.110621320992269,1.0416316986083984,-1.6342914740191858
1708443175.093027,-2.1365888118743896,-1.3359104853919526,-2.539893452321188,6.110652553826132,1.0415313243865967,-1.6335738340960901
1708443175.095053,-2.1365630626678467,-1.335899831061699,-2.5398758093463343,6.110709416657247,1.041414737701416,-1.63283616701235
1708443175.0970316,-2.13661527633667,-1.3358826798251648,-2.5398111979113978,6.110725748329916,1.0413016080856323,-1.632132355366842
1708443175.099013,-2.1366817951202393,-1.3359022301486512,-2.5396974722491663,6.110725748329916,1.0411981344223022,-1.6314752737628382
1708443175.1010234,-2.1366822719573975,-1.3358778816512604,-2.5396209398852747,6.110806572228231,1.0411269664764404,-1.630726162587301
1708443175.103017,-2.1367409229278564,-1.3359030199101944,-2.539581600819723,6.1108213541801355,1.0409772396087646,-1.6300619284259241
1708443175.10504,-2.1367478370666504,-1.335907371049263,-2.5395053068744105,6.110825884133138,1.0408568382263184,-1.6293571631061
1708443175.107043,-2.1367433071136475,-1.3358462911895295,-2.5394707361804407,6.1108529446418665,1.0408055782318115,-1.6286643187152308
1708443175.1090376,-2.136836051940918,-1.3359117370894928,-2.5394020716296595,6.110833632736959,1.040701985359192,-1.6279895941363733
1708443175.111078,-2.1368069648742676,-1.3358585101417084,-2.5393388907061976,6.110894906311788,1.040597677230835,-1.627310578023092
1708443175.1130579,-2.1368749141693115,-1.335863785152771,-2.539262358342306,6.110948312073507,1.040522575378418,-1.6266453901873987
1708443175.1150675,-2.136857032775879,-1.33589223146949,-2.5392068068133753,6.110921489983358,1.0403894186019897,-1.6259601751910608
1708443175.1170254,-2.136956214904785,-1.335826964383461,-2.539182964955465,6.1109529612358,1.0402764081954956,-1.6253460089312952
1708443175.1190453,-2.1369500160217285,-1.3358399730971833,-2.53909141222109,6.110981690674581,1.040144443511963,-1.62468129793276
1708443175.1210134,-2.136990785598755,-1.335770146255829,-2.539034430180685,6.111011492996969,1.0400362014770508,-1.6239832083331507
1708443175.1230369,-2.1370270252227783,-1.3357911270907898,-2.538938824330465,6.111005055695333,1.0399737358093262,-1.623385254536764
1708443175.1250322,-2.137031316757202,-1.3357833188823243,-2.5388651529895228,6.111033665924825,1.0398035049438477,-1.6226614157306116
1708443175.127029,-2.1370959281921387,-1.3357833188823243,-2.5388005415545862,6.111041176110067,1.0397114753723145,-1.6219962278949183
1708443175.1290095,-2.137110948562622,-1.3357833188823243,-2.5387702623950403,6.111036646157064,1.0395662784576416,-1.621363941823141
1708443175.1310453,-2.137117862701416,-1.3358293932727356,-2.538718287144796,6.111008393555441,1.039487361907959,-1.620746914540426
1708443175.1330388,-2.1371710300445557,-1.3357682091048737,-2.538676087056295,6.111077296524801,1.0393716096878052,-1.6200903097735804
1708443175.1350899,-2.137190341949463,-1.335735635166504,-2.5385950247394007,6.1110936281974695,1.0392305850982666,-1.6195314566241663
1708443175.137026,-2.137197256088257,-1.3357475709966202,-2.538527552281515,6.11104296424941,1.0390938520431519,-1.618842903767721
1708443175.1390266,-2.1372833251953125,-1.335719348197319,-2.5384345690356653,6.111132252007284,1.038953185081482,-1.6182363669024866
1708443175.14102,-2.1372811794281006,-1.3356955212405701,-2.5384045282946985,6.111157643585958,1.0388504266738892,-1.6176484266864222
1708443175.1430278,-2.1372883319854736,-1.335729331975319,-2.538340155278341,6.111148702889242,1.0387496948242188,-1.61705190340151
1708443175.145026,-2.13735032081604,-1.3356626492789765,-2.5382052103625696,6.111102449684896,1.0385682582855225,-1.6164434591876429
1708443175.1470242,-2.137381076812744,-1.3356964451125641,-2.5381706396686,6.111193644791403,1.0384852886199951,-1.6158292929278772
1708443175.1490192,-2.1374058723449707,-1.3356154573014756,-2.538077418004171,6.11115192154006,1.03834867477417,-1.6152709166156214
1708443175.151076,-2.1374871730804443,-1.3356385839036484,-2.5380478541003626,6.111180174141683,1.038264513015747,-1.6146777311908167
1708443175.1530118,-2.137526035308838,-1.335616187458374,-2.537987772618429,6.1111910221870325,1.0381202697753906,-1.6141045729266565
1708443175.1550126,-2.137559652328491,-1.335644395356514,-2.537887159978048,6.111207353859701,1.0380041599273682,-1.6135037581073206
1708443175.1570196,-2.1375465393066406,-1.3356381219676514,-2.537818257008688,6.111178982048788,1.0378918647766113,-1.6129191557513636
1708443175.1590178,-2.1375527381896973,-1.3356040132096787,-2.53776723543276,6.1112356064613245,1.0377638339996338,-1.6124265829669397
1708443175.161008,-2.137650728225708,-1.3356127601912995,-2.5376952330218714,6.111244547158041,1.0376558303833008,-1.6118281523333948
1708443175.1630216,-2.1376655101776123,-1.3355845373919983,-2.537626091633932,6.1112475273902795,1.0375148057937622,-1.6112764517413538
1708443175.1650224,-2.1376805305480957,-1.3355222952416916,-2.5375662485705774,6.1113014099891565,1.0374031066894531,-1.610711399708883
1708443175.1670141,-2.137716770172119,-1.3355963093093415,-2.5374448935138147,6.11129258850173,1.0372951030731201,-1.610175911580221
1708443175.169021,-2.137749433517456,-1.3356052798083802,-2.53737718263735,6.111274587899008,1.037125587463379,-1.6096108595477503
1708443175.1710093,-2.137805938720703,-1.3355282110026856,-2.5373788515674036,6.111340033798971,1.0369889736175537,-1.6091392675982874
1708443175.1730173,-2.1378121376037598,-1.3355690997890015,-2.537257258092062,6.111302959709921,1.036914348602295,-1.6086090246783655
1708443175.175019,-2.137807607650757,-1.3355368983796616,-2.537222925816671,6.111282098084249,1.0368064641952515,-1.6080806891070765
1708443175.1770325,-2.137848377227783,-1.335487650041916,-2.5371421019183558,6.111286508827963,1.0366979837417603,-1.6075390020953577
1708443175.1790175,-2.1379005908966064,-1.3354516935399552,-2.537103001271383,6.111343133240499,1.0365287065505981,-1.6070554892169397
1708443175.181013,-2.1379570960998535,-1.335489035849907,-2.5370760599719446,6.111355054169454,1.0364259481430054,-1.6065385977374476
1708443175.1830273,-2.1379730701446533,-1.3354933571866532,-2.537004057561056,6.111308920174398,1.0362601280212402,-1.6060875097857874
1708443175.185035,-2.1380083560943604,-1.3353941899589081,-2.5369020144092005,6.1113717434699915,1.0361734628677368,-1.6056187788592737
1708443175.1870358,-2.1380321979522705,-1.3354442131570359,-2.5368240515338343,6.111399996071615,1.0360242128372192,-1.6051257292376917
1708443175.1890264,-2.1380844116210938,-1.3354128164104004,-2.5367475191699427,6.1113672135169885,1.0359036922454834,-1.6046488920794886
1708443175.1910288,-2.138136386871338,-1.335439847116806,-2.536704126988546,6.111440527230062,1.0357800722122192,-1.6041668097125452
1708443175.193028,-2.138127565383911,-1.3353996586850663,-2.5366066137896937,6.111444937973776,1.0356477499008179,-1.6037152449237269
1708443175.1950123,-2.138197422027588,-1.3354052615216752,-2.536579434071676,6.111398446350851,1.0355113744735718,-1.6032822767840784
1708443175.1970057,-2.138171672821045,-1.335420386200287,-2.5364835898028772,6.1113895056541345,1.0353955030441284,-1.602809254323141
1708443175.1990566,-2.138211488723755,-1.3354097467711945,-2.5364447275744837,6.111464011460104,1.035263180732727,-1.6023691336261194
1708443175.201037,-2.138256549835205,-1.3353605282357712,-2.5363755861865442,6.111453878670492,1.035122275352478,-1.601950470601217
1708443175.2030523,-2.1383121013641357,-1.3353934299996872,-2.5363126436816614,6.111437189369955,1.034989833831787,-1.6015222708331507
1708443175.205038,-2.138327121734619,-1.3353455078652878,-2.536227289830343,6.111467349320211,1.0348862409591675,-1.6010239760028284
1708443175.2070367,-2.1383697986602783,-1.335349754696228,-2.536156717930929,6.111500251084127,1.0347496271133423,-1.6006153265582483
1708443175.2090383,-2.1384243965148926,-1.335295395260193,-2.5360832850085657,6.111449467926779,1.0346258878707886,-1.6002329031573694
1708443175.2110274,-2.1383862495422363,-1.335272343163826,-2.53601581255068,6.111462819367208,1.0345057249069214,-1.5998032728778284
1708443175.2130468,-2.138439416885376,-1.3353061837008973,-2.5359273592578333,6.1114776013191126,1.0343691110610962,-1.5993898550616663
1708443175.2150593,-2.138465642929077,-1.335301862364151,-2.535895649586813,6.111446130066671,1.0342236757278442,-1.5989521185504358
1708443175.217048,-2.1385152339935303,-1.3353194010308762,-2.535804335271017,6.11155246475295,1.0340968370437622,-1.5985797087298792
1708443175.2190576,-2.1385560035705566,-1.3352573674968262,-2.5357487837420862,6.111489522248068,1.0339802503585815,-1.598154369984762
1708443175.2210329,-2.1386239528656006,-1.3352364164641877,-2.535691801701681,6.111497270851888,1.0338194370269775,-1.5977285544024866
1708443175.2230492,-2.1386284828186035,-1.3352573674968262,-2.5355911890613,6.111527073174276,1.0337165594100952,-1.5973809401141565
1708443175.2250245,-2.138676166534424,-1.3352582168630143,-2.5355313459979456,6.111538994103231,1.0335590839385986,-1.5969837347613733
1708443175.2270343,-2.1386919021606445,-1.335217000251152,-2.5354471842395228,6.111540543823995,1.0334467887878418,-1.5965936819659632
1708443175.2290134,-2.1386830806732178,-1.3352376532605668,-2.535354200993673,6.111522662430563,1.0333144664764404,-1.5962041060077112
1708443175.2310302,-2.1387219429016113,-1.335164950495102,-2.5353079477893274,6.111522662430563,1.0331908464431763,-1.595844570790426
1708443175.2330177,-2.1387600898742676,-1.3351649802974244,-2.535264555607931,6.111560213356771,1.033087134361267,-1.5954864660846155
1708443175.2350202,-2.1387650966644287,-1.3351451468518754,-2.535114351903097,6.111527073174276,1.032938838005066,-1.5950759092914026
1708443175.2370293,-2.138805866241455,-1.3351943355849762,-2.5350633303271692,6.111538994103231,1.032797932624817,-1.5947521368609827
1708443175.239016,-2.1388297080993652,-1.335095078950264,-2.5349913279162806,6.111567365914144,1.0326861143112183,-1.5944121519671839
1708443175.241016,-2.1388421058654785,-1.3351333153298874,-2.5349555651294153,6.111628639488973,1.0325781106948853,-1.5940168539630335
1708443175.2430089,-2.1389482021331787,-1.3350931865027924,-2.5348807016955774,6.111495840340414,1.0323890447616577,-1.5937255064593714
1708443175.2450147,-2.1389214992523193,-1.335158334379532,-2.534782950078146,6.1114598391349695,1.0322765111923218,-1.5933755079852503
1708443175.2470152,-2.138944387435913,-1.3351019036820908,-2.534720007573263,6.111558425217428,1.0322015285491943,-1.5930097738849085
1708443175.2490063,-2.138970136642456,-1.3350943636945267,-2.534642044697897,6.111542331963339,1.0320204496383667,-1.5927189032184046
1708443175.2510457,-2.1390187740325928,-1.3350583177855988,-2.5346136728869837,6.111530053406515,1.0318922996520996,-1.5923894087420862
1708443175.253014,-2.13901686668396,-1.3351031702807923,-2.5345280806170862,6.111542331963339,1.0317308902740479,-1.5920198599444788
1708443175.2550094,-2.139045238494873,-1.3350420755198975,-2.5345101992236536,6.111562835961141,1.031586766242981,-1.5917266050921839
1708443175.2570176,-2.1390984058380127,-1.3350715351155777,-2.534372154866354,6.111555802613058,1.0315120220184326,-1.591398064290182
1708443175.259022,-2.139130115509033,-1.3349972677281876,-2.534262720738546,6.1115866778190515,1.0314373970031738,-1.5910852591144007
1708443175.2610285,-2.1391122341156006,-1.3349409413388749,-2.5342071692096155,6.111524450569906,1.0312596559524536,-1.5907858053790491
1708443175.2630293,-2.139148473739624,-1.33495286226783,-2.534126106892721,6.111562835961141,1.03110671043396,-1.5905450026141565
1708443175.2650146,-2.139209508895874,-1.3349901151708146,-2.534072224293844,6.111595499306478,1.0309743881225586,-1.5902484099017542
1708443175.2670538,-2.139237880706787,-1.3349901151708146,-2.5339911619769495,6.111561286240377,1.030862808227539,-1.5899551550494593
1708443175.2690191,-2.1392414569854736,-1.334970311527588,-2.5339072386371058,6.111512172013082,1.0307179689407349,-1.5896571318255823
1708443175.2710252,-2.139288902282715,-1.334921495323517,-2.5338967482196253,6.111594426422872,1.0305780172348022,-1.5893967787372034
1708443175.273035,-2.139289140701294,-1.3349746775678177,-2.5337706247912806,6.111533510475912,1.0304738283157349,-1.5891531149493616
1708443175.275034,-2.139308452606201,-1.3349104684642334,-2.533728901539938,6.11157916763381,1.0303370952606201,-1.588846508656637
1708443175.277066,-2.1393818855285645,-1.3348822605660935,-2.5336507002459925,6.111484038620748,1.0301756858825684,-1.5886066595660608
1708443175.2790248,-2.1393659114837646,-1.3349029135755082,-2.5335968176471155,6.111509310990133,1.030089259147644,-1.5883649031268519
