Eg3-git/Classifiers/Data Collection/u8/u8cir1_ur3e_joint_states.csv
time,elbow_joint,shoulder_lift_joint,shoulder_pan_joint,wrist_1_joint,wrist_2_joint,wrist_3_joint
1708443140.8993163,-2.142332077026367,-1.3336593818715592,-2.5266597906695765,6.111885773926534,1.017397403717041,-2.8484633604632776
1708443140.9013534,-2.142307758331299,-1.3336144399693985,-2.5266416708575647,6.111917960434713,1.0174381732940674,-2.8485081831561487
1708443140.9033105,-2.1422626972198486,-1.3336638075164338,-2.5266552607165735,6.111877310066976,1.017418622970581,-2.8484838644610804
1708443140.9053514,-2.142332077026367,-1.3336055737784882,-2.5266385714160364,6.1118695614631555,1.0174546241760254,-2.8485334555255335
1708443140.9073517,-2.142353057861328,-1.3336549562266846,-2.5266056696521204,6.111962663918295,1.0174050331115723,-2.84851581255068
1708443140.9093168,-2.1423091888427734,-1.333617852335312,-2.5266671816455286,6.111832487374105,1.0174262523651123,-2.84849197069277
1708443140.9113522,-2.1423659324645996,-1.3336638075164338,-2.5266221205340784,6.111888873368063,1.0173838138580322,-2.8484633604632776
1708443140.9133344,-2.142332077026367,-1.3336460006288071,-2.5266929308520716,6.111848699837484,1.0174063444137573,-2.8484862486468714
1708443140.9153526,-2.142333507537842,-1.3336474311402817,-2.5266671816455286,6.111872899323263,1.0174472332000732,-2.84843355814089
1708443140.9174018,-2.1423449516296387,-1.333680124287941,-2.5266853014575403,6.111897337227621,1.0174006223678589,-2.8485081831561487
1708443140.9193223,-2.142324924468994,-1.3336444211057206,-2.5266340414630335,6.111873972206869,1.0174140930175781,-2.848483149205343
1708443140.9213264,-2.1423277854919434,-1.3336222630790253,-2.5266552607165735,6.1118695614631555,1.0173765420913696,-2.8484788576709192
1708443140.9233718,-2.142357349395752,-1.333638609652855,-2.5266762415515345,6.111808645516195,1.0174140930175781,-2.8484633604632776
1708443140.9253216,-2.142353057861328,-1.33365053058181,-2.5266762415515345,6.111828195839681,1.0174353122711182,-2.848483149205343
1708443140.927359,-2.1423449516296387,-1.3336801391891022,-2.5266643206225794,6.111890184670248,1.0173720121383667,-2.8484795729266565
1708443140.9293208,-2.142329216003418,-1.333646060233452,-2.5266552607165735,6.111854064255514,1.0174140930175781,-2.8485081831561487
1708443140.9313269,-2.1423449516296387,-1.3336178076318284,-2.5266462008105677,6.111861693650045,1.017418622970581,-2.848503891621725
1708443140.9333425,-2.142324924468994,-1.3336519759944458,-2.5266597906695765,6.111935245781698,1.0174798965454102,-2.84849197069277
1708443140.9353185,-2.142374038696289,-1.3336056035808106,-2.5266385714160364,6.111856686859884,1.017397403717041,-2.848483149205343
1708443140.9373472,-2.1423487663269043,-1.3335922819427033,-2.5266974608050745,6.111861693650045,1.0174425840377808,-2.84849197069277
1708443140.9393597,-2.142396926879883,-1.333638609652855,-2.5267048517810267,6.111812937050619,1.0174262523651123,-2.84849197069277
1708443140.941324,-2.1423654556274414,-1.3336100739291687,-2.5266462008105677,6.111828315048971,1.0174095630645752,-2.8484705130206507
1708443140.9433634,-2.1423659324645996,-1.3336178970387955,-2.5266462008105677,6.111861693650045,1.0174140930175781,-2.8485291639911097
1708443140.9453256,-2.1423654556274414,-1.3336266887239,-2.5267048517810267,6.11184440830306,1.0174381732940674,-2.8484788576709192
1708443140.9473386,-2.142353057861328,-1.3336879771998902,-2.5266671816455286,6.111817347794332,1.0174307823181152,-2.848527733479635
1708443140.9493477,-2.1423697471618652,-1.3336845946362992,-2.5266688505755823,6.111842262535848,1.0174381732940674,-2.8484795729266565
1708443140.9513218,-2.1423206329345703,-1.3336356294206162,-2.5266462008105677,6.111836778908529,1.0174353122711182,-2.8485081831561487
1708443140.9533217,-2.1423277854919434,-1.3336593818715592,-2.5266974608050745,6.1118249771888635,1.017417311668396,-2.8484838644610804
1708443140.9553175,-2.142353057861328,-1.3336713028005143,-2.5266807715045374,6.111845481186666,1.017421841621399,-2.848499600087301
1708443140.9573565,-2.1423697471618652,-1.3336222630790253,-2.526712242756979,6.111829268723287,1.0174262523651123,-2.8484965006457728
1708443140.9593456,-2.142336368560791,-1.333638609652855,-2.5266552607165735,6.11184977272109,1.0174561738967896,-2.8484795729266565
1708443140.961359,-2.142332077026367,-1.3336430352977295,-2.526691261922018,6.111803638726034,1.0173629522323608,-2.8484795729266565
1708443140.9633207,-2.142332077026367,-1.3336757284453888,-2.5266431013690394,6.1118130562599084,1.0174307823181152,-2.8484795729266565
1708443140.9653466,-2.1423206329345703,-1.33367574334655,-2.5266884008990687,6.111870395928182,1.0174262523651123,-2.8485246340381067
1708443140.967349,-2.142357349395752,-1.333641604786255,-2.5266462008105677,6.111793267517843,1.017421841621399,-2.848499600087301
1708443140.9693143,-2.142296314239502,-1.3337043535760422,-2.5266597906695765,6.111842262535848,1.0174129009246826,-2.8485246340381067
1708443140.9713445,-2.1423487663269043,-1.3336549562266846,-2.5266884008990687,6.111797559052267,1.0174590349197388,-2.848503891621725
1708443140.9733257,-2.1423487663269043,-1.3336132925799866,-2.5266462008105677,6.1117766974265955,1.0174381732940674,-2.8484676519977015
1708443140.9753323,-2.1423206329345703,-1.3336593818715592,-2.5266295115100306,6.111782657891073,1.0174353122711182,-2.8484795729266565
1708443140.977348,-2.142332077026367,-1.3336835515550156,-2.5266416708575647,6.111818420677938,1.0174472332000732,-2.84849197069277
1708443140.97933,-2.142296314239502,-1.3336683076671143,-2.5266884008990687,6.11180208900527,1.017417311668396,-2.848461929951803
1708443140.9813523,-2.142357349395752,-1.3336549562266846,-2.5266671816455286,6.111766207009115,1.0174262523651123,-2.848483149205343
1708443140.9833448,-2.1423449516296387,-1.3336266887239,-2.5266385714160364,6.111720669060507,1.0174262523651123,-2.848454300557272
1708443140.9853356,-2.142361640930176,-1.333675668840744,-2.5266671816455286,6.1117379544074915,1.017417311668396,-2.848483149205343
1708443140.9873347,-2.142336368560791,-1.3336594116738816,-2.5266838709460657,6.111705171852865,1.0174590349197388,-2.8485069910632532
1708443140.9893258,-2.142336368560791,-1.3336356592229386,-2.5266476313220423,6.111668336182394,1.0174500942230225,-2.8485541979419153
1708443140.9913244,-2.1423234939575195,-1.3336296540549775,-2.5266626516925257,6.111726033478536,1.0174006223678589,-2.8484965006457728
1708443140.9933195,-2.142357349395752,-1.3336222630790253,-2.5266671816455286,6.111758458405294,1.0174472332000732,-2.8485081831561487
1708443140.9953268,-2.1423048973083496,-1.3336801689914246,-2.5266416708575647,6.11165617683486,1.0174472332000732,-2.84849197069277
1708443140.997342,-2.142357349395752,-1.3336669367602845,-2.5266552607165735,6.111681449204244,1.0174307823181152,-2.848503891621725
1708443140.9993343,-2.142329216003418,-1.3336189550212403,-2.5266552607165735,6.111735093384542,1.0174381732940674,-2.8485127131091517
1708443141.0013394,-2.142336368560791,-1.333605558877327,-2.5267136732684534,6.111677038460531,1.0174517631530762,-2.8485007921801966
1708443141.0033424,-2.142333507537842,-1.3336222034743805,-2.5266838709460657,6.111677038460531,1.0174500942230225,-2.848487679158346
1708443141.0053651,-2.14229679107666,-1.333613396888115,-2.5266884008990687,6.111717450409689,1.017421841621399,-2.848499600087301
1708443141.007343,-2.1423449516296387,-1.3336549562266846,-2.5266884008990687,6.111701953202047,1.0174262523651123,-2.8485081831561487
1708443141.0093455,-2.1423697471618652,-1.3336968582919617,-2.5266597906695765,6.111706244736471,1.0174050331115723,-2.8485291639911097
1708443141.0113487,-2.142361640930176,-1.3336189550212403,-2.5266597906695765,6.111767279892721,1.017466425895691,-2.8485291639911097
1708443141.0133412,-2.142357349395752,-1.3336593967727204,-2.5266884008990687,6.11169325092391,1.0174590349197388,-2.8485127131091517
1708443141.015361,-2.142374038696289,-1.3336623472026368,-2.526686731969015,6.111739027291097,1.0174425840377808,-2.8484788576709192
1708443141.0173385,-2.142332077026367,-1.3336924326470871,-2.5266626516925257,6.111705171852865,1.0174425840377808,-2.8485081831561487
1708443141.0193233,-2.1423492431640625,-1.3336386245540162,-2.5266929308520716,6.111767279892721,1.0173927545547485,-2.848520104085104
1708443141.0213618,-2.142353057861328,-1.3336099994233628,-2.5266221205340784,6.111684548645773,1.0174545049667358,-2.848520104085104
1708443141.0233226,-2.14229679107666,-1.333656297331192,-2.526686731969015,6.111713874131002,1.017429232597351,-2.848483149205343
1708443141.0253482,-2.1423134803771973,-1.333596633081772,-2.5266552607165735,6.111758458405294,1.0173962116241455,-2.848487679158346
1708443141.027338,-2.142329216003418,-1.3336296838572999,-2.5266717115985315,6.11172245719985,1.0174753665924072,-2.848511521016256
1708443141.0293427,-2.142292022705078,-1.3336430352977295,-2.5266762415515345,6.111685740738668,1.0174590349197388,-2.848487679158346
1708443141.0313475,-2.1423697471618652,-1.3336474609426041,-2.5266431013690394,6.1116734621818445,1.0174620151519775,-2.8484573999988
1708443141.0333345,-2.1423449516296387,-1.3336222630790253,-2.5266581217395228,6.111713874131002,1.0174590349197388,-2.8485246340381067
1708443141.0353496,-2.1423163414001465,-1.3336879921010514,-2.5266717115985315,6.111694443016805,1.0174500942230225,-2.848466221486227
1708443141.037356,-2.142329216003418,-1.3336549562266846,-2.5266507307635706,6.11172245719985,1.017445683479309,-2.8485127131091517
1708443141.039325,-2.142324924468994,-1.3336222481778641,-2.5266130606280726,6.1117509482200525,1.0174620151519775,-2.8484745661364954
1708443141.0413387,-2.1422712802886963,-1.3336713177016755,-2.5266838709460657,6.111718165665426,1.0174620151519775,-2.848536554967062
1708443141.0433085,-2.142301082611084,-1.3336056035808106,-2.5266416708575647,6.111697661667623,1.017417311668396,-2.848457638417379
1708443141.0453537,-2.1423134803771973,-1.3336713028005143,-2.5266462008105677,6.111641275673666,1.0174753665924072,-2.848495070134298
1708443141.0473442,-2.1423163414001465,-1.3336222630790253,-2.5266462008105677,6.111697661667623,1.017433762550354,-2.848487679158346
1708443141.04938,-2.1423659324645996,-1.3336144250682374,-2.5266581217395228,6.111670124321737,1.017433762550354,-2.848520104085104
1708443141.0513692,-2.14229679107666,-1.3336593967727204,-2.5266671816455286,6.111718284874716,1.0174545049667358,-2.8485615889178675
1708443141.0533311,-2.1423206329345703,-1.3336801838925858,-2.5266552607165735,6.111677872925558,1.0174247026443481,-2.848536554967062
1708443141.0553675,-2.14229679107666,-1.3336519759944458,-2.5266717115985315,6.111699092179098,1.0174381732940674,-2.848527733479635
1708443141.0573606,-2.1423380374908447,-1.333638609652855,-2.5266040007220667,6.111658561020651,1.0174590349197388,-2.848536554967062
1708443141.0593498,-2.142324924468994,-1.3336801838925858,-2.5266507307635706,6.111646759300985,1.0174709558486938,-2.8485408465014856
1708443141.061357,-2.142340660095215,-1.3336968582919617,-2.5266626516925257,6.111642348557272,1.0174545049667358,-2.848503891621725
1708443141.0633419,-2.142336368560791,-1.33367574334655,-2.5266597906695765,6.111651050835409,1.0174620151519775,-2.848536554967062
1708443141.0653527,-2.142336368560791,-1.3336099994233628,-2.5266295115100306,6.111564266472616,1.017429232597351,-2.848543945943014
1708443141.0673504,-2.1423048973083496,-1.33367574334655,-2.526670281087057,6.111687290459432,1.017445683479309,-2.8484907785998743
1708443141.0693495,-2.1422712802886963,-1.3336549562266846,-2.5266717115985315,6.111634480744161,1.0174500942230225,-2.848520104085104
1708443141.071359,-2.1423206329345703,-1.333643065100052,-2.52667481104006,6.1115901348884485,1.017466425895691,-2.84849197069277
1708443141.0733368,-2.1422882080078125,-1.3336011332324524,-2.5267093817340296,6.111615049629965,1.017445683479309,-2.8485081831561487
1708443141.0753546,-2.1423163414001465,-1.3336549562266846,-2.5266838709460657,6.111594426422872,1.017429232597351,-2.8485527674304407
1708443141.0773761,-2.1423048973083496,-1.3336266738227387,-2.5266838709460657,6.111647593766012,1.0174545049667358,-2.8485572973834437
1708443141.0793228,-2.142279863357544,-1.3336968582919617,-2.5266597906695765,6.111562597542562,1.017429232597351,-2.8485127131091517
1708443141.0813828,-2.142317771911621,-1.3336385947516938,-2.5266884008990687,6.111651885300436,1.0174590349197388,-2.848511521016256
1708443141.083335,-2.14227557182312,-1.3336385947516938,-2.5267167727099817,6.111577856331625,1.0174500942230225,-2.848483149205343
1708443141.085369,-2.1423048973083496,-1.333690957432129,-2.5266385714160364,6.111623751908102,1.0174709558486938,-2.8485246340381067
1708443141.0873573,-2.1422924995422363,-1.3336144101670762,-2.5266507307635706,6.111557352333822,1.0174529552459717,-2.84847075143923
1708443141.0893068,-2.142333507537842,-1.3336056631854554,-2.526637379323141,6.1115912077720544,1.0174753665924072,-2.8484788576709192
1708443141.0913432,-2.1423492431640625,-1.3336144399693985,-2.5266626516925257,6.111615526467123,1.0174574851989746,-2.848520104085104
1708443141.093317,-2.1423048973083496,-1.3336252731135865,-2.5266011396991175,6.111643183022299,1.017433762550354,-2.848527733479635
1708443141.0953362,-2.142244338989258,-1.3336341691068192,-2.5266462008105677,6.11154984214858,1.017466425895691,-2.848527733479635
1708443141.097354,-2.1423134803771973,-1.3336846244386216,-2.5266462008105677,6.11159514167861,1.017429232597351,-2.848495070134298
1708443141.0993266,-2.14227557182312,-1.333638609652855,-2.52665359178652,6.111600148468771,1.0174083709716797,-2.848536554967062
1708443141.101356,-2.142279863357544,-1.3335895401290436,-2.5267048517810267,6.111545431404867,1.017466425895691,-2.8485246340381067
1708443141.1033309,-2.1422841548919678,-1.3335877370885392,-2.5266762415515345,6.111509668618002,1.0174620151519775,-2.8485069910632532
1708443141.105355,-2.142279863357544,-1.3336683523705979,-2.5266507307635706,6.111586558609762,1.0174500942230225,-2.848532025014059
1708443141.1073513,-2.142329216003418,-1.3336144250682374,-2.5266462008105677,6.111582267075338,1.0174753665924072,-2.8485246340381067
1708443141.1093268,-2.142317771911621,-1.3336474758437653,-2.5266929308520716,6.111583339958944,1.0174798965454102,-2.8485081831561487
1708443141.1113293,-2.1422841548919678,-1.3336296391538163,-2.526691261922018,6.111521589546957,1.017466425895691,-2.848511521016256
1708443141.1133285,-2.14229679107666,-1.3336099994233628,-2.5266507307635706,6.1115712998206995,1.0174620151519775,-2.8485127131091517
1708443141.115361,-2.1423099040985107,-1.3336311143687745,-2.5266581217395228,6.1115866778190515,1.0174620151519775,-2.8485129515277308
1708443141.1173515,-2.142326593399048,-1.3336846989444275,-2.5266884008990687,6.111496674805441,1.017429232597351,-2.848536554967062
1708443141.119323,-2.14227294921875,-1.3336549562266846,-2.5266671816455286,6.111538874893942,1.0174709558486938,-2.848520104085104
1708443141.121358,-2.142333507537842,-1.3336099994233628,-2.5266671816455286,6.111497747689047,1.0174129009246826,-2.848503891621725
1708443141.1233265,-2.1423306465148926,-1.3336222481778641,-2.526670281087057,6.111535656243124,1.0174129009246826,-2.84849197069277
1708443141.1253605,-2.1422641277313232,-1.3336144548705597,-2.5266762415515345,6.111551153450765,1.0174709558486938,-2.8484788576709192
1708443141.127343,-2.1423182487487793,-1.3336801689914246,-2.5266671816455286,6.111481177597799,1.0174620151519775,-2.84851581255068
1708443141.1293356,-2.1422812938690186,-1.3336998385242005,-2.5267332235919397,6.111522662430563,1.0174741744995117,-2.848520104085104
1708443141.1313567,-2.1423423290252686,-1.3336342138103028,-2.5266297499286097,6.111489879875936,1.0174500942230225,-2.8485081831561487
1708443141.1333234,-2.1422970294952393,-1.3336505156806489,-2.5266507307635706,6.11156057098464,1.0174381732940674,-2.8484750429736536
1708443141.1353524,-2.142245054244995,-1.3336356741240998,-2.5266462008105677,6.111433374672689,1.0174500942230225,-2.8485780397998255
1708443141.1373289,-2.1423139572143555,-1.3336385947516938,-2.5266385714160364,6.111538874893942,1.0174410343170166,-2.848532025014059
1708443141.1393614,-2.14227294921875,-1.3335984212211152,-2.5266507307635706,6.111477958946981,1.0174574851989746,-2.84847075143923
1708443141.141332,-2.1422362327575684,-1.3336638075164338,-2.5266838709460657,6.111510741501608,1.0174247026443481,-2.84851581255068
1708443141.1433196,-2.1423099040985107,-1.3336056482842942,-2.526637140904562,6.111482369690695,1.0174320936203003,-2.84851581255068
1708443141.1453276,-2.1422533988952637,-1.3336399805596848,-2.5266581217395228,6.111526953964987,1.0174620151519775,-2.848499600087301
1708443141.1473472,-2.142265796661377,-1.333663822417595,-2.5266838709460657,6.111506449967184,1.0174500942230225,-2.8485127131091517
1708443141.149351,-2.142268419265747,-1.3336072725108643,-2.526637140904562,6.111473667412557,1.0174709558486938,-2.84851581255068
1708443141.1513565,-2.142277240753174,-1.333683506851532,-2.5267046133624476,6.111474740296163,1.0174381732940674,-2.8485453764544886
1708443141.1533487,-2.1422617435455322,-1.3336505156806489,-2.5266552607165735,6.111473667412557,1.0174620151519775,-2.848495070134298
1708443141.1555398,-2.14227294921875,-1.3337132197669526,-2.52667481104006,6.11147021034316,1.0174574851989746,-2.8485243956195276
1708443141.1573482,-2.142277240753174,-1.3336056482842942,-2.526691261922018,6.1114996550376794,1.0174500942230225,-2.8485291639911097
1708443141.1593945,-2.1422855854034424,-1.333635614519455,-2.5266838709460657,6.111519443779745,1.0174500942230225,-2.8484795729266565
1708443141.1613486,-2.1422901153564453,-1.333638609652855,-2.5266838709460657,6.111486661225118,1.0174574851989746,-2.8485453764544886
1708443141.1633265,-2.1422533988952637,-1.333622233276703,-2.526679340993063,6.111524450569906,1.017466425895691,-2.84851581255068
1708443141.165352,-2.142270088195801,-1.3336222928813477,-2.5266671816455286,6.111486661225118,1.017429232597351,-2.84847075143923
1708443141.167363,-2.14224910736084,-1.3336100590280076,-2.526632610951559,6.111548769264974,1.017487645149231,-2.8485215345965784
1708443141.1693969,-2.14224910736084,-1.3336341989091416,-2.5266717115985315,6.111474740296163,1.0174500942230225,-2.848487679158346
1708443141.171312,-2.1422338485717773,-1.333651990895607,-2.5266552607165735,6.111528146057882,1.017466425895691,-2.8484423796283167
1708443141.1733434,-2.1422617435455322,-1.3336399805596848,-2.5266552607165735,6.111487734108724,1.017466425895691,-2.848511521016256
1708443141.1753201,-2.1422367095947266,-1.333651990895607,-2.5266416708575647,6.111434805184164,1.0174787044525146,-2.8485053221331995
1708443141.1774018,-2.1422324180603027,-1.3336801540902634,-2.5266507307635706,6.111458527832784,1.0174381732940674,-2.848438088093893
1708443141.1794019,-2.142270088195801,-1.3336846989444275,-2.5266462008105677,6.111450660019674,1.0174500942230225,-2.8484469095813196
1708443141.181336,-2.1422576904296875,-1.3336385947516938,-2.5266507307635706,6.111507165222921,1.0174620151519775,-2.8484676519977015
1708443141.1833563,-2.1422410011291504,-1.3336055290750046,-2.5266416708575647,6.111467230110922,1.0173962116241455,-2.848492685948507
1708443141.1853385,-2.142265796661377,-1.3336233061603089,-2.5266671816455286,6.111425983696737,1.0174620151519775,-2.8484750429736536
1708443141.1873155,-2.142249584197998,-1.3336099994233628,-2.5266552607165735,6.1114022610481165,1.0174545049667358,-2.8484395186053675
1708443141.1893706,-2.142216682434082,-1.3336712580970307,-2.5266462008105677,6.111437666207113,1.0174620151519775,-2.848454300557272
1708443141.1913023,-2.142220973968506,-1.3336519461921235,-2.5266717115985315,6.111419546395101,1.017445683479309,-2.8484588305102747
1708443141.1933596,-2.1422743797302246,-1.333634154205658,-2.5266626516925257,6.111451971321859,1.0174620151519775,-2.8484719435321253
1708443141.1953,-2.1422829627990723,-1.3336474758437653,-2.5266462008105677,6.111487734108724,1.017433762550354,-2.8485141436206263
1708443141.1973443,-2.1422009468078613,-1.333605558877327,-2.5266507307635706,6.111353266030111,1.0174006223678589,-2.8484438101397913
1708443141.19937,-2.1421916484832764,-1.3336144399693985,-2.5266717115985315,6.111475813179769,1.0174620151519775,-2.8484514395343226
1708443141.2013185,-2.1422367095947266,-1.3336190444282074,-2.5266416708575647,6.111463534622946,1.0173883438110352,-2.848448101674215
1708443141.2033231,-2.1421959400177,-1.3336637777141114,-2.5266175905810755,6.111438977509298,1.0174500942230225,-2.8484438101397913
1708443141.2053425,-2.142216682434082,-1.333601177935936,-2.5266807715045374,6.111464011460104,1.017429232597351,-2.848448101674215
1708443141.2073421,-2.1422324180603027,-1.3336099845222016,-2.5266385714160364,6.1113858101661584,1.017429232597351,-2.8483861128436487
1708443141.2093706,-2.1422367095947266,-1.3336055737784882,-2.5266884008990687,6.111397254257955,1.0174201726913452,-2.848448101674215
1708443141.2113361,-2.1422367095947266,-1.3336311143687745,-2.5266597906695765,6.111463534622946,1.0174262523651123,-2.848429028187887
1708443141.2133389,-2.142213821411133,-1.333638609652855,-2.5266416708575647,6.11140655258254,1.0174665451049805,-2.848407570515768
1708443141.2153506,-2.1422576904296875,-1.33367574334655,-2.5266671816455286,6.111349928170004,1.0174709558486938,-2.8483861128436487
1708443141.2173107,-2.1422576904296875,-1.3336311143687745,-2.5266717115985315,6.111422765045919,1.0174425840377808,-2.8484166304217737
1708443141.2193525,-2.1422619819641113,-1.3336800944856186,-2.5266762415515345,6.111407267838278,1.0174262523651123,-2.84843618074526
1708443141.2213538,-2.1422410011291504,-1.3336311143687745,-2.5266476313220423,6.111415135651388,1.0174500942230225,-2.848440710698263
1708443141.2233505,-2.1421873569488525,-1.3336277169040223,-2.526670281087057,6.111427056580343,1.0174500942230225,-2.8484163920031946
1708443141.2253428,-2.1422533988952637,-1.3336189550212403,-2.5266552607165735,6.11143575885848,1.017421841621399,-2.8483579794513147
1708443141.22733,-2.1422829627990723,-1.3336189103177567,-2.5266626516925257,6.111443269043722,1.0174620151519775,-2.8483994642840784
1708443141.2293422,-2.142249584197998,-1.3336399656585236,-2.5266340414630335,6.111476528435507,1.0174680948257446,-2.8483875433551233
1708443141.2313523,-2.142213821411133,-1.333617852335312,-2.5266552607165735,6.111378061562338,1.0174545049667358,-2.8483875433551233
1708443141.2333305,-2.1422295570373535,-1.333656297331192,-2.5266762415515345,6.111454832344808,1.017429232597351,-2.8483875433551233
1708443141.2353532,-2.1422410011291504,-1.3335776639035721,-2.5266178289996546,6.111415135651388,1.017421841621399,-2.8483639399157923
1708443141.2373724,-2.142205238342285,-1.3335984212211152,-2.5266552607165735,6.111440050392904,1.017421841621399,-2.848368231450216
1708443141.2393746,-2.1422576904296875,-1.3336311143687745,-2.5266507307635706,6.1113823530967615,1.0174262523651123,-2.8484039942370813
1708443141.2413576,-2.1422324180603027,-1.3335940104774018,-2.5266717115985315,6.111410844116964,1.0174590349197388,-2.848356310521261
1708443141.2433329,-2.1422367095947266,-1.3336683076671143,-2.5266717115985315,6.111407267838278,1.017421841621399,-2.848307434712545
1708443141.2453563,-2.142209529876709,-1.3336029064706345,-2.52667481104006,6.1113823530967615,1.017418622970581,-2.848335568104879
1708443141.24732,-2.142270803451538,-1.3336356294206162,-2.526679340993063,6.1114022610481165,1.0174472332000732,-2.848365132008688
1708443141.2493918,-2.1422181129455566,-1.3336607229760666,-2.5266626516925257,6.111407267838278,1.0174425840377808,-2.848327938710348
1708443141.251328,-2.1422367095947266,-1.3336814951947709,-2.5266671816455286,6.1114022610481165,1.0174500942230225,-2.848327938710348
1708443141.253315,-2.1421802043914795,-1.3336144399693985,-2.5266671816455286,6.111436831742086,1.0174262523651123,-2.848294798527853
1708443141.2553298,-2.142254114151001,-1.3336968135884781,-2.5266221205340784,6.111422765045919,1.0174546241760254,-2.8483124415027063
1708443141.2573442,-2.142242670059204,-1.333610014324524,-2.5266643206225794,6.111444341927328,1.0174425840377808,-2.848229710255758
1708443141.259351,-2.1422312259674072,-1.3336189550212403,-2.5266688505755823,6.111423837929525,1.017421841621399,-2.8482962290393274
1708443141.2613423,-2.1422252655029297,-1.333689109688141,-2.5266597906695765,6.111447560578146,1.0174353122711182,-2.8482354323016565
1708443141.2633412,-2.142205238342285,-1.3336189550212403,-2.5266552607165735,6.111402976303854,1.0174095630645752,-2.8482754866229456
1708443141.2653763,-2.1422338485717773,-1.3336189550212403,-2.5266101996051233,6.111480104714193,1.0174140930175781,-2.8482916990863245
1708443141.2673454,-2.142209529876709,-1.333617852335312,-2.5266552607165735,6.111419546395101,1.017401933670044,-2.84831673303713
1708443141.2693317,-2.142254114151001,-1.3336266887239,-2.5266552607165735,6.111410844116964,1.01737642288208,-2.8482635656939905
1708443141.2713306,-2.142266273498535,-1.3336519759944458,-2.5266385714160364,6.111385690956869,1.0174307823181152,-2.8482843081103724
1708443141.273323,-2.1422576904296875,-1.3336355996182938,-2.5266221205340784,6.111415135651388,1.0174050331115723,-2.8482516447650355
1708443141.2753487,-2.142209529876709,-1.333610014324524,-2.5266221205340784,6.111370551377096,1.0174095630645752,-2.8482397238360804
1708443141.2773316,-2.1422181129455566,-1.3336519759944458,-2.5266762415515345,6.111463534622946,1.0174517631530762,-2.8482354323016565
1708443141.2793307,-2.142270803451538,-1.3336801391891022,-2.5266805330859583,6.111423837929525,1.0174140930175781,-2.8482235113727015
1708443141.2813303,-2.1422338485717773,-1.333598406319954,-2.5266221205340784,6.111415135651388,1.017380952835083,-2.848210875188009
1708443141.2833045,-2.1421802043914795,-1.3336519759944458,-2.5266266504870813,6.111419546395101,1.0174063444137573,-2.8482235113727015
1708443141.2853239,-2.142209529876709,-1.3336311292699357,-2.5266056696521204,6.111407267838278,1.017401933670044,-2.848203484212057
1708443141.2873278,-2.1422619819641113,-1.3336189699224015,-2.5266552607165735,6.111389982491293,1.0173568725585938,-2.8481901327716272
1708443141.2893283,-2.1422226428985596,-1.3336029213717957,-2.5266643206225794,6.1113823530967615,1.017385482788086,-2.848215405141012
1708443141.2913666,-2.1422338485717773,-1.3336814951947709,-2.526652161275045,6.111476528435507,1.017397403717041,-2.848187271748678
1708443141.2933288,-2.142258405685425,-1.3336189550212403,-2.5266476313220423,6.111418473511495,1.0173990726470947,-2.848219696675436
1708443141.2953203,-2.1422338485717773,-1.3336116981557389,-2.5266221205340784,6.111393558769979,1.0173945426940918,-2.8482077757464808
1708443141.297375,-2.1422533988952637,-1.3336266887239,-2.5266597906695765,6.111360776215353,1.0173778533935547,-2.84817082086672
1708443141.2993436,-2.14224910736084,-1.3336144250682374,-2.5266221205340784,6.11143575885848,1.0174199342727661,-2.8482077757464808
1708443141.301375,-2.142171621322632,-1.333602936272957,-2.5266056696521204,6.111418473511495,1.0173615217208862,-2.848158899937765
1708443141.3033347,-2.1421916484832764,-1.3336638075164338,-2.526644770299093,6.111487734108724,1.0173945426940918,-2.848203484212057
1708443141.3053398,-2.1422252655029297,-1.3336072576097031,-2.526602808629171,6.111497390061178,1.0173450708389282,-2.848154608403341
1708443141.3073392,-2.142249584197998,-1.3336341840079804,-2.5266311804400843,6.1114141819770715,1.0173659324645996,-2.84817082086672
1708443141.3093457,-2.1422252655029297,-1.3336232912591477,-2.5266311804400843,6.111407267838278,1.0173659324645996,-2.8481958548175257
1708443141.3113453,-2.1422252655029297,-1.3335865598968049,-2.52664024034609,6.111410844116964,1.017370343208313,-2.8481839338885706
1708443141.3133242,-2.142209529876709,-1.3336311143687745,-2.5266476313220423,6.111419546395101,1.0173420906066895,-2.84817082086672
1708443141.315333,-2.1422410011291504,-1.3336356443217774,-2.526644770299093,6.111415135651388,1.0173041820526123,-2.8482077757464808
1708443141.3173497,-2.1422367095947266,-1.333578960304596,-2.526623789464132,6.111454832344808,1.017317771911621,-2.8482285181628626
1708443141.3193135,-2.1422295570373535,-1.333602936272957,-2.5265937487231653,6.111427056580343,1.0173313617706299,-2.848163429890768
1708443141.321383,-2.142209529876709,-1.3336474907449265,-2.526578728352682,6.111418592720785,1.0172518491744995,-2.848203484212057
1708443141.3233435,-2.1422786712646484,-1.3335908961347123,-2.526583258305685,6.111422765045919,1.0173028707504272,-2.8482328096972864
1708443141.3253732,-2.142216682434082,-1.3336726290038605,-2.52661639848818,6.111471402436056,1.0172772407531738,-2.848151508961813
1708443141.3273444,-2.1422786712646484,-1.3336116981557389,-2.526637140904562,6.111459243088522,1.0172412395477295,-2.8481677214251917
1708443141.3293178,-2.142245292663574,-1.333656297331192,-2.526595417653219,6.111427056580343,1.0172653198242188,-2.84817082086672
1708443141.3313596,-2.1421830654144287,-1.33367574334655,-2.526628319417135,6.111418473511495,1.0172245502471924,-2.848236624394552
1708443141.3333662,-2.1422410011291504,-1.3336072725108643,-2.526587788258688,6.111471402436056,1.0172245502471924,-2.8482165972339075
1708443141.3353777,-2.1422619819641113,-1.3336144399693985,-2.526545588170187,6.111520159035482,1.0172367095947266,-2.8481720129596155
1708443141.337319,-2.1422410011291504,-1.3336144399693985,-2.5265637079821985,6.11147569397048,1.0172712802886963,-2.848210875188009
1708443141.3393452,-2.142249584197998,-1.3336356294206162,-2.5265756289111536,6.111467349320211,1.0172425508499146,-2.848179642354147
1708443141.3413873,-2.1422410011291504,-1.3335776639035721,-2.526545588170187,6.111438977509298,1.017209768295288,-2.8481677214251917
1708443141.343318,-2.142209529876709,-1.333644376402237,-2.5265710989581507,6.1114834425743005,1.0172548294067383,-2.848187271748678
1708443141.3453617,-2.142270088195801,-1.3336801391891022,-2.5265381971942347,6.111418473511495,1.0172336101531982,-2.8481958548175257
1708443141.3473463,-2.1422252655029297,-1.3336277169040223,-2.5265756289111536,6.111385690956869,1.0171796083450317,-2.84817082086672
1708443141.3493323,-2.1422410011291504,-1.3335909259370347,-2.5265429655658167,6.111463534622946,1.0172233581542969,-2.848130766545431
1708443141.3513527,-2.1422533988952637,-1.3336356294206162,-2.526587788258688,6.1114845154579065,1.0172216892242432,-2.8481438795672815
1708443141.3533287,-2.1422181129455566,-1.3336189550212403,-2.5265336672412317,6.111418473511495,1.017214298248291,-2.8481395880328577
1708443141.3554373,-2.1422619819641113,-1.3335984212211152,-2.5265756289111536,6.111449825554647,1.017214298248291,-2.8481765429126185
1708443141.3573759,-2.1421830654144287,-1.3336116981557389,-2.5265591780291956,6.111437666207113,1.017218828201294,-2.848135058079855
1708443141.3593402,-2.1422533988952637,-1.3335939359715958,-2.5265710989581507,6.111449825554647,1.017193078994751,-2.8481927553759974
1708443141.3613772,-2.1422617435455322,-1.3335865598968049,-2.5265517870532435,6.1115208742912195,1.017176628112793,-2.8481319586383265
1708443141.3633192,-2.1422743797302246,-1.3336116981557389,-2.5265427271472376,6.111438977509298,1.017209768295288,-2.8480899969684046
1708443141.3653588,-2.1422533988952637,-1.333644376402237,-2.5265217463122767,6.111520039826193,1.0171644687652588,-2.848107639943258
1708443141.367333,-2.142249584197998,-1.33357127130542,-2.5265262762652796,6.111474740296163,1.0171902179718018,-2.848100248967306
1708443141.3693247,-2.1422367095947266,-1.3336519759944458,-2.526511255894796,6.111466157227316,1.017181158065796,-2.8480432669269007
1708443141.3713515,-2.1422324180603027,-1.3336277169040223,-2.5265563170062464,6.111479031830587,1.017226219177246,-2.8480351606952112
1708443141.3733165,-2.142265796661377,-1.3335623306087037,-2.5265472571002405,6.111490952759542,1.017209768295288,-2.848032061253683
1708443141.3753407,-2.14224910736084,-1.3336757284453888,-2.5265353361712855,6.111548054009237,1.0172021389007568,-2.8479581514941614
1708443141.3773296,-2.142220973968506,-1.3336144399693985,-2.5265889803515833,6.1115431664283655,1.0171735286712646,-2.8479462305652063
1708443141.3793526,-2.142245292663574,-1.3336072725108643,-2.5265472571002405,6.111485111504354,1.0172233581542969,-2.8479231039630335
1708443141.381333,-2.1422743797302246,-1.3336144399693985,-2.5265308062182825,6.111501800804891,1.0172020196914673,-2.847842041646139
1708443141.383319,-2.142265796661377,-1.3335623753121872,-2.5265472571002405,6.111538874893942,1.0172066688537598,-2.8478391806231897
1708443141.3853738,-2.1423099040985107,-1.3336232912591477,-2.5265682379352015,6.111538159638204,1.0171735286712646,-2.8477957884417933
1708443141.3873303,-2.1422901153564453,-1.3336189550212403,-2.5265472571002405,6.111571776657858,1.0171644687652588,-2.847783867512838
1708443141.389331,-2.1422743797302246,-1.3336189699224015,-2.5265472571002405,6.111549484520712,1.0171481370925903,-2.8477395216571253
1708443141.3913386,-2.1422410011291504,-1.333618925218918,-2.5265846888171595,6.111574637680807,1.0171947479248047,-2.8477113882647913
1708443141.393348,-2.1422574520111084,-1.3336399358562012,-2.5265472571002405,6.111619341164388,1.017197608947754,-2.847687546406881
1708443141.3953612,-2.1422743797302246,-1.3336474758437653,-2.5265637079821985,6.111581551819601,1.0171616077423096,-2.847586218510763
1708443141.3973157,-2.1422533988952637,-1.3335909259370347,-2.5265279451953333,6.111601936608114,1.0171599388122559,-2.8475704828845423
1708443141.3993149,-2.142265796661377,-1.333590955739357,-2.5265067259417933,6.111602055817404,1.0171313285827637,-2.8474932352649134
1708443141.401345,-2.142277240753174,-1.3336232763579865,-2.5265234152423304,6.111610638886251,1.0171689987182617,-2.8474915663348597
1708443141.4033446,-2.142301321029663,-1.3335866195014496,-2.5265443960772913,6.111609566002645,1.0171571969985962,-2.8474672476397913
1708443141.4053564,-2.1422786712646484,-1.333557979469635,-2.5265308062182825,6.1116301892097376,1.017181158065796,-2.847386185322897
1708443141.4073324,-2.142298460006714,-1.333602936272957,-2.5265067259417933,6.111663329392233,1.0171689987182617,-2.8473175207721155
1708443141.4093318,-2.1422533988952637,-1.3336189550212403,-2.5265279451953333,6.111667740135946,1.0171689987182617,-2.8472779432879847
1708443141.4113579,-2.1422410011291504,-1.3336356443217774,-2.5265546480761927,6.1116214869316,1.0171902179718018,-2.8472467104541224
1708443141.4133387,-2.1422743797302246,-1.3336399656585236,-2.5265021959887903,6.11165868022994,1.017177939414978,-2.8472147623645228
1708443141.4153485,-2.14227294921875,-1.333601177935936,-2.5264976660357874,6.1115890620048425,1.0171856880187988,-2.8470731417285364
1708443141.4173543,-2.142228364944458,-1.3336277169040223,-2.526511255894796,6.111642348557272,1.0171644687652588,-2.8470550219165247
1708443141.4193485,-2.14224910736084,-1.333644376402237,-2.5264933745013636,6.111677872925558,1.017181158065796,-2.8469625155078333
1708443141.421345,-2.1422529220581055,-1.3335702133229752,-2.5264902750598353,6.1116453287895105,1.0172277688980103,-2.8468814531909388
1708443141.4233544,-2.142244815826416,-1.3336399656585236,-2.526548687611715,6.111670124321737,1.0172233581542969,-2.8468809763537806
1708443141.4253933,-2.142265796661377,-1.3336311143687745,-2.5265262762652796,6.111726867943563,1.0171735286712646,-2.8467300573932093
1708443141.427347,-2.142301559448242,-1.333618925218918,-2.5265308062182825,6.111697661667623,1.017181158065796,-2.846649948750631
1708443141.4293528,-2.1422812938690186,-1.3336072725108643,-2.5265398661242884,6.111710655480184,1.0171525478363037,-2.846562925969259
1708443141.43134,-2.1422812938690186,-1.333586574797966,-2.5265770594226282,6.111701953202047,1.0172066688537598,-2.8464463392840784
1708443141.4333665,-2.142220973968506,-1.333602936272957,-2.5265279451953333,6.111701953202047,1.0171644687652588,-2.8463431040393274
1708443141.435347,-2.14227294921875,-1.333651990895607,-2.5265234152423304,6.111706244736471,1.0172110795974731,-2.8462472597705286
1708443141.4373426,-2.1422617435455322,-1.3335940104774018,-2.5265563170062464,6.111681449204244,1.017214298248291,-2.8460543791400355
1708443141.4393706,-2.142270088195801,-1.3336683076671143,-2.5265234152423304,6.111734735756674,1.0171735286712646,-2.845933977757589
1708443141.4413457,-2.1423099040985107,-1.3336232912591477,-2.5265353361712855,6.111705171852865,1.0171902179718018,-2.8457544485675257
1708443141.4433155,-2.14227294921875,-1.3336189550212403,-2.5265234152423304,6.111717450409689,1.017177939414978,-2.845614735280172
1708443141.4453576,-2.142224073410034,-1.3335909259370347,-2.5265770594226282,6.111729371338644,1.0171616077423096,-2.8454869429217737
1708443141.4473495,-2.142270088195801,-1.333574579363205,-2.5265381971942347,6.1117379544074915,1.0171722173690796,-2.845245901738302
1708443141.4493415,-2.1422743797302246,-1.3335745495608826,-2.526511255894796,6.111770379334249,1.0171358585357666,-2.8451183477984827
1708443141.4513533,-2.142265796661377,-1.3335667562535782,-2.5265472571002405,6.111745583802023,1.017181158065796,-2.844893995915548
1708443141.4533339,-2.1422576904296875,-1.333610014324524,-2.5265188852893274,6.111770379334249,1.0171947479248047,-2.8447023073779505
1708443141.4553518,-2.1422529220581055,-1.3335895848325272,-2.5265188852893274,6.11175416687087,1.0171434879302979,-2.8444443384753626
1708443141.4573598,-2.1422886848449707,-1.333618925218918,-2.5265188852893274,6.111751425057211,1.0171812772750854,-2.8442702929126185
1708443141.459321,-2.142301321029663,-1.3336474609426041,-2.5265517870532435,6.111733662873068,1.0171525478363037,-2.844008986149923
1708443141.461382,-2.1422743797302246,-1.3336189550212403,-2.5265381971942347,6.111770379334249,1.0171947479248047,-2.8438623587237757
1708443141.4633374,-2.14227294921875,-1.3335612279227753,-2.5265188852893274,6.111762869149008,1.017197608947754,-2.843560759221212
1708443141.4653451,-2.1423182487487793,-1.3335909259370347,-2.5265262762652796,6.111720669060507,1.0171599388122559,-2.8434041182147425
1708443141.467338,-2.1422743797302246,-1.3336519759944458,-2.5265563170062464,6.111802923470297,1.0171722173690796,-2.843109909688131
1708443141.4693413,-2.1422886848449707,-1.3336144399693985,-2.5265563170062464,6.111769664078512,1.017209768295288,-2.8428295294391077
1708443141.4713535,-2.1422367095947266,-1.3335820895484467,-2.5265398661242884,6.111733662873068,1.017181158065796,-2.842569891606466
1708443141.4733317,-2.142265796661377,-1.3336399656585236,-2.5265427271472376,6.111745583802023,1.0172381401062012,-2.8422544638263147
1708443141.4753332,-2.142244815826416,-1.3336189550212403,-2.5265517870532435,6.11172496059493,1.0172425508499146,-2.8419130484210413
1708443141.4773445,-2.142265796661377,-1.3336189550212403,-2.5265637079821985,6.1117087481315515,1.0172126293182373,-2.841536823903219
1708443141.4793358,-2.142301321029663,-1.3335953515819092,-2.5265756289111536,6.111717450409689,1.0172381401062012,-2.841254774724142
1708443141.4813526,-2.142305612564087,-1.3336519759944458,-2.5265756289111536,6.111770379334249,1.0172457695007324,-2.840881649647848
1708443141.483335,-2.142228126525879,-1.3336144399693985,-2.5265801588641565,6.11179136016921,1.0172621011734009,-2.840562168751852
1708443141.4853141,-2.142245054244995,-1.3336321276477356,-2.526611868535177,6.111782657891073,1.0172743797302246,-2.8401697317706507
1708443141.48733,-2.1423139572143555,-1.3336443615010758,-2.5266013781176966,6.111814725189962,1.0172863006591797,-2.8397367636310022
1708443141.489321,-2.1422574520111084,-1.333568812613823,-2.526587788258688,6.1117379544074915,1.0173267126083374,-2.8393662611590784
1708443141.4913602,-2.1422574520111084,-1.333638609652855,-2.526609007512228,6.11173044422225,1.0173132419586182,-2.8389421145068567
1708443141.4933152,-2.1422886848449707,-1.333556891684868,-2.526620928441183,6.111763345986166,1.017346739768982,-2.8384974638568323
1708443141.4953237,-2.142228364944458,-1.3336321276477356,-2.526557509099142,6.111704814224996,1.0173704624176025,-2.838078562413351
1708443141.4973423,-2.1422929763793945,-1.333610014324524,-2.5265710989581507,6.11172245719985,1.017386794090271,-2.8376625219928187
1708443141.499302,-2.142277240753174,-1.3336232912591477,-2.526620928441183,6.1117217419441126,1.0173615217208862,-2.837186876927511
1708443141.501327,-2.142270088195801,-1.3336968135884781,-2.526628319417135,6.111700880318441,1.0173615217208862,-2.8367386499988
1708443141.5033638,-2.1423306465148926,-1.3335776639035721,-2.526620928441183,6.111721622734823,1.0173945426940918,-2.8361650148974817
1708443141.5053506,-2.1422407627105713,-1.3335702580264588,-2.526595417653219,6.111726033478536,1.0174262523651123,-2.8356407324420374
1708443141.5073338,-2.142265796661377,-1.3336144250682374,-2.5266643206225794,6.111730563431539,1.0174140930175781,-2.835200850163595
1708443141.509322,-2.142301559448242,-1.3336232912591477,-2.526677910481588,6.11171983459548,1.0174381732940674,-2.834573809300558
1708443141.5113533,-2.1422576904296875,-1.3336144399693985,-2.526635710393087,6.111662971764364,1.0174472332000732,-2.834066692982809
1708443141.5133107,-2.1422410011291504,-1.3336399656585236,-2.5266011396991175,6.11156855800704,1.017433762550354,-2.833592955266134
1708443141.5153236,-2.1422576904296875,-1.3336311143687745,-2.5266597906695765,6.1115691540534876,1.0174953937530518,-2.832992140446798
1708443141.5173411,-2.142213821411133,-1.333610014324524,-2.5266266504870813,6.11156581619338,1.017486333847046,-2.8324161211596888
1708443141.519306,-2.1421966552734375,-1.333610014324524,-2.5266929308520716,6.111577737122335,1.0175477266311646,-2.83185321489443
1708443141.5213356,-2.142266273498535,-1.3336519759944458,-2.5266838709460657,6.111530053406515,1.0175342559814453,-2.831158701573507
1708443141.5233402,-2.142204761505127,-1.333574579363205,-2.5266929308520716,6.111567127495565,1.0175673961639404,-2.8305230776416224
1708443141.5253203,-2.1421916484832764,-1.3336399656585236,-2.526677672063009,6.111543404846945,1.0175704956054688,-2.8298843542682093
1708443141.5273328,-2.1422269344329834,-1.3336266887239,-2.526686731969015,6.1114412424858,1.0176032781600952,-2.8292248884784144
1708443141.5293028,-2.1422133445739746,-1.3336189550212403,-2.526715103779928,6.111456858902731,1.0176485776901245,-2.828580443059103
1708443141.531326,-2.14219331741333,-1.3336488020471116,-2.526710573826925,6.111491071968832,1.0176682472229004,-2.8278263250934046
1708443141.5333416,-2.14216947555542,-1.3336519759944458,-2.526706043873922,6.11140655258254,1.0176502466201782,-2.827090088521139
1708443141.5353131,-2.1421737670898438,-1.3336232912591477,-2.5267391840564173,6.111418473511495,1.0177010297775269,-2.8264175097094935
1708443141.5373516,-2.1421256065368652,-1.3336144399693985,-2.5267513434039515,6.111358630448141,1.017681360244751,-2.825721565877096
1708443141.5393457,-2.1421613693237305,-1.333656297331192,-2.5267542044269007,6.111330139427938,1.0177356004714966,-2.825022045766012
1708443141.5413136,-2.142091989517212,-1.3336277169040223,-2.526825014744894,6.111314880638876,1.0177103281021118,-2.8242245356189173
1708443141.5433354,-2.1420891284942627,-1.3335997772267838,-2.526836935673849,6.111299741059103,1.0177340507507324,-2.823437754307882
1708443141.545333,-2.1420979499816895,-1.333610014324524,-2.526815954838888,6.111206042557516,1.0177793502807617,-2.8226574102984827
1708443141.5473423,-2.142073154449463,-1.3336189550212403,-2.52682334581484,6.111255156784811,1.0177613496780396,-2.8218327204333704
1708443141.5493114,-2.142033100128174,-1.3336356294206162,-2.526835266743795,6.111150371819296,1.0178017616271973,-2.821026388798849
1708443141.5513675,-2.1420416831970215,-1.3335820895484467,-2.5268426577197474,6.111148345261373,1.0178635120391846,-2.820202652608053
1708443141.5533395,-2.1420254707336426,-1.3336726439050217,-2.5268846193896692,6.111165392189779,1.01787531375885,-2.8193629423724573
1708443141.5553114,-2.1419973373413086,-1.3336189550212403,-2.526890579854147,6.111063825875082,1.0179158449172974,-2.818498675023214
1708443141.5573616,-2.1420016288757324,-1.333574579363205,-2.5268786589251917,6.111008393555441,1.017883062362671,-2.817648235951559
1708443141.559319,-2.1419734954833984,-1.3336189550212403,-2.526952091847555,6.110910641938009,1.0179522037506104,-2.816751543675558
1708443141.5613172,-2.141982078552246,-1.3335984212211152,-2.526910130177633,6.1108752367790125,1.0179803371429443,-2.815852228795187
1708443141.563344,-2.14193058013916,-1.333601177935936,-2.526968781148092,6.110864150315084,1.0179836750030518,-2.8149126211749476
1708443141.5653524,-2.1418542861938477,-1.3335865896991272,-2.5269838015185755,6.110811698227682,1.0180617570877075,-2.8139060179339808
1708443141.5673697,-2.1418631076812744,-1.3336533170989533,-2.5269716421710413,6.110793101578512,1.0180273056030273,-2.8129802385913294
1708443141.5693126,-2.1418137550354004,-1.3336072725108643,-2.5270405451404017,6.110708343773641,1.018082857131958,-2.8119519392596644
1708443141.5713232,-2.141753673553467,-1.3336321276477356,-2.5270348230945032,6.110639083176412,1.018087387084961,-2.8109856287585657
1708443141.5733209,-2.141741991043091,-1.3336232763579865,-2.527055803929464,6.110641228943624,1.0181519985198975,-2.8099568525897425
1708443141.575319,-2.1417086124420166,-1.3336638075164338,-2.5270660559283655,6.110585200577535,1.0182254314422607,-2.808922831212179
1708443141.5773711,-2.141674041748047,-1.3336144399693985,-2.5271034876452845,6.110542046814718,1.0182451009750366,-2.807845656071798
1708443141.5793324,-2.141645669937134,-1.3336072725108643,-2.5270989576922815,6.110445129662313,1.0182316303253174,-2.806748930607931
1708443141.5813522,-2.1416149139404297,-1.333651990895607,-2.527163569127218,6.110389458924093,1.0182602405548096,-2.805680815373556
1708443141.5833168,-2.1416068077087402,-1.3336116981557389,-2.5271289984332483,6.110300409584799,1.0183366537094116,-2.804539744053976
1708443141.585314,-2.1415624618530273,-1.3336577427438279,-2.5271573702441614,6.110270130425253,1.0183895826339722,-2.803363625203268
1708443141.5873353,-2.1414732933044434,-1.333565742974617,-2.5271695295916956,6.1101910946662805,1.0184134244918823,-2.8022940794574183
1708443141.5893254,-2.141458034515381,-1.3335953515819092,-2.5272191206561487,6.110117900162496,1.0184617042541504,-2.8011277357684534
1708443141.591363,-2.1413934230804443,-1.3336056035808106,-2.527221981679098,6.110000955849447,1.0184690952301025,-2.8000782171832483
1708443141.5933342,-2.141357183456421,-1.3336161238006135,-2.5273121039019983,6.109954583435812,1.0185920000076294,-2.798880402241842
1708443141.595343,-2.1413588523864746,-1.3336277318051835,-2.5273359457599085,6.109915601998129,1.018593668937683,-2.797751490269796
1708443141.597326,-2.1413183212280273,-1.3335579198649903,-2.527381245289938,6.109856116562643,1.0185834169387817,-2.796575133000509
1708443141.5993235,-2.141263484954834,-1.333520994787552,-2.527391497288839,6.109751808434286,1.0186446905136108,-2.795384232197897
1708443141.601349,-2.1411736011505127,-1.3335909110358735,-2.5273991266833704,6.109676587372579,1.0187379121780396,-2.7941365877734583
1708443141.6033537,-2.141188144683838,-1.3335263145020981,-2.5274277369128626,6.109605777054586,1.018786072731018,-2.7928593794452112
1708443141.6053321,-2.1411476135253906,-1.3335712862065812,-2.527430597935812,6.109528767853536,1.0187712907791138,-2.7916789690600794
1708443141.6073728,-2.1410393714904785,-1.3335923862508317,-2.527508799229757,6.109395372658529,1.0188730955123901,-2.7904205957995813
1708443141.609328,-2.1410889625549316,-1.3335757118514557,-2.5275443235980433,6.109312283783712,1.018946886062622,-2.7890995184527796
1708443141.6113565,-2.1409554481506348,-1.3335549396327515,-2.5275400320636194,6.109192836075582,1.0190205574035645,-2.787828032170431
1708443141.6133335,-2.1409358978271484,-1.333542988901474,-2.5275593439685267,6.109157907753744,1.0190463066101074,-2.7865451017962855
1708443141.6153553,-2.1409125328063965,-1.3335978996804734,-2.527571503316061,6.1090712426002405,1.019073247909546,-2.7852023283587855
1708443141.617367,-2.140864849090576,-1.3335474294475098,-2.5276406447040003,6.108966457634725,1.01915442943573,-2.7837823073016565
1708443141.6193612,-2.1407933235168457,-1.333547444348671,-2.5276361147509974,6.108821618347921,1.0192264318466187,-2.7824333349811
1708443141.6213613,-2.1407525539398193,-1.3335519594005127,-2.5276675860034388,6.108707177429952,1.0192910432815552,-2.7810493151294153
1708443141.623327,-2.1406939029693604,-1.333544136290886,-2.527691427861349,6.108652341156759,1.0193257331848145,-2.7796438376056116
1708443141.6253648,-2.1406097412109375,-1.3335233491710206,-2.5277469793902796,6.108547794609823,1.019394874572754,-2.7782016436206263
1708443141.6273599,-2.140561103820801,-1.3334667098573227,-2.52779204050173,6.108399379044332,1.019454836845398,-2.776764694844381
1708443141.6293314,-2.1405091285705566,-1.3334712100080033,-2.527803961430685,6.108287203102865,1.0195724964141846,-2.7751899401294153
1708443141.6313443,-2.1404294967651367,-1.3334396195462723,-2.5278518835650843,6.10816656330184,1.0196157693862915,-2.773672882710592
1708443141.6333456,-2.1403326988220215,-1.333472655420639,-2.52789551416506,6.108117568283834,1.0196549892425537,-2.7720707098590296
1708443141.6353695,-2.1402482986450195,-1.3334593337825318,-2.527935806904928,6.108034837036886,1.019760012626648,-2.770602528248922
1708443141.6373546,-2.1402459144592285,-1.3335054379752656,-2.5279884974109095,6.1079057333763025,1.019831895828247,-2.7690938154803675
1708443141.6393301,-2.1401872634887695,-1.3334396493485947,-2.5280121008502405,6.107760059624471,1.0198923349380493,-2.76756722131838
1708443141.6413517,-2.140101909637451,-1.333468185072281,-2.528073851262228,6.107653605728903,1.019943356513977,-2.76609975496401
1708443141.643316,-2.140004873275757,-1.3334321838668366,-2.5280798117267054,6.107562410622396,1.0200574398040771,-2.764581267033712
1708443141.6453528,-2.1399502754211426,-1.3334277731231232,-2.5281038920031946,6.107398021012106,1.0200684070587158,-2.7630308310138147
1708443141.6473908,-2.1398863792419434,-1.3333371591619034,-2.528168265019552,6.107368695526876,1.0201690196990967,-2.7615848223315638
1708443141.6493213,-2.1398191452026367,-1.3333863776973267,-2.5282209555255335,6.107204186707296,1.0202033519744873,-2.7599785963641565
1708443141.6513708,-2.1397011280059814,-1.3334086698344727,-2.52826434770693,6.10705457904891,1.0202797651290894,-2.7584434191333216
1708443141.6533194,-2.139711380004883,-1.3333963763764878,-2.528247896824972,6.106903540879049,1.0204228162765503,-2.7568002382861536
1708443141.655358,-2.1395950317382812,-1.3333787483027955,-2.5283198992358606,6.106758463173666,1.020472526550293,-2.755277697240011
1708443141.657335,-2.1394786834716797,-1.333384485249855,-2.528355900441305,6.106672990113058,1.0205579996109009,-2.7536192576037806
1708443141.6593254,-2.1394195556640625,-1.3333681386760254,-2.5284085909472864,6.10656629779891,1.0206331014633179,-2.7520106474505823
1708443141.661364,-2.1393792629241943,-1.3333559197238465,-2.5284069220172327,6.106365430146017,1.0207291841506958,-2.7503398100482386
1708443141.663305,-2.1392743587493896,-1.3333845001510163,-2.528546396886007,6.106238114624777,1.020789623260498,-2.74866229692568
1708443141.665345,-2.139207124710083,-1.3333592277816315,-2.5285356680499476,6.106070744782247,1.0208860635757446,-2.747016731892721
1708443141.6673164,-2.1391444206237793,-1.3333470237306138,-2.528567377720968,6.105970847397604,1.0210119485855103,-2.7452693621264856
1708443141.6693187,-2.1390938758850098,-1.3333948415568848,-2.5286150614367884,6.105852234154501,1.0210989713668823,-2.743554655705587
1708443141.6713433,-2.1389310359954834,-1.3333035719445725,-2.528646771107809,6.1056967852409265,1.0211923122406006,-2.741796080266134
1708443141.6733105,-2.1389243602752686,-1.3332946014455338,-2.5287066141711634,6.105561840325155,1.02127206325531,-2.739997450505392
1708443141.6753516,-2.1388378143310547,-1.333336592917778,-2.5287802855121058,6.105378377228536,1.0213518142700195,-2.738265577946798
1708443141.6773446,-2.1387128829956055,-1.333254874949791,-2.5288780371295374,6.105206358223715,1.0214341878890991,-2.736490551625387
1708443141.679329,-2.1386287212371826,-1.333242655997612,-2.5289302507983606,6.104974257736959,1.0215728282928467,-2.7347620169269007
1708443141.681376,-2.1386022567749023,-1.3332830232432862,-2.528928581868307,6.104858624726095,1.0216147899627686,-2.7331133524524134
1708443141.6833,-2.1385233402252197,-1.3333141070655365,-2.529008213673727,6.1047366736228845,1.0216944217681885,-2.731392208729879
1708443141.6853411,-2.138402223587036,-1.3332888793996354,-2.529032293950216,6.104503023415365,1.0218658447265625,-2.7296252886401575
1708443141.6873262,-2.1383140087127686,-1.3332800281098862,-2.529078785573141,6.1044009802635095,1.0219244956970215,-2.727914873753683
1708443141.6893673,-2.138242721557617,-1.3332276803306122,-2.5291431585894983,6.104217278748312,1.0220533609390259,-2.726128880177633
1708443141.6913784,-2.138097047805786,-1.3332814586213608,-2.5291627089129847,6.104082095413961,1.0221664905548096,-2.724299971257345
1708443141.6933196,-2.1380467414855957,-1.333240957265236,-2.529243771229879,6.103870379715719,1.022253394126892,-2.7225094477282923
1708443141.695371,-2.137913703918457,-1.333273635511734,-2.5292659441577356,6.103714573174276,1.022337555885315,-2.7207191626178187
1708443141.6973274,-2.137876033782959,-1.3332201850465317,-2.5294294993029993,6.1036287424858,1.0224745273590088,-2.7188783327685755
1708443141.699315,-2.137775182723999,-1.3332202148488541,-2.52943998972048,6.103408562927999,1.022557020187378,-2.7171097437488
1708443141.7013416,-2.1376473903656006,-1.333257333641388,-2.5295539538012903,6.103233444481649,1.0226832628250122,-2.7152722517596644
1708443141.7033048,-2.137554883956909,-1.33323788762603,-2.529604975377218,6.103053796082296,1.0228066444396973,-2.713299338017599
1708443141.705356,-2.1374645233154297,-1.333216906791069,-2.5296276251422327,6.10280071476058,1.0229401588439941,-2.7113376299487513
1708443141.7073457,-2.137356758117676,-1.3331916195205231,-2.52969199815859,6.102646338730612,1.0230305194854736,-2.7093845049487513
1708443141.7093184,-2.1372528076171875,-1.3331692081740876,-2.529788080845968,6.102501380234518,1.0231807231903076,-2.7074227968799036
1708443141.7113383,-2.1371819972991943,-1.3331858825734635,-2.5298360029803675,6.102352010994711,1.0232212543487549,-2.7054718176471155
1708443141.7133636,-2.1370978355407715,-1.3331528466990967,-2.529879395161764,6.102157223015585,1.0234047174453735,-2.70361572900881
1708443141.715348,-2.1369125843048096,-1.3331691932729264,-2.5299633185016077,6.101946699410238,1.0234917402267456,-2.701738421116964
1708443141.7173555,-2.1367921829223633,-1.3331063997796555,-2.5299904982196253,6.1018338082130334,1.0235939025878906,-2.699787203465597
1708443141.7193043,-2.1366844177246094,-1.3331124049476166,-2.53005034128298,6.101575839310446,1.0237488746643066,-2.6978870073901575
1708443141.7213585,-2.136634349822998,-1.3331168305924912,-2.5301268736468714,6.1013773558433435,1.0238616466522217,-2.6959200541125696
1708443141.723314,-2.13653826713562,-1.333130122428276,-2.5302110354052942,6.101202356606283,1.0239893198013306,-2.693925682698385
1708443141.7253563,-2.1364471912384033,-1.3330929738334198,-2.530327860509054,6.101018655091085,1.0241467952728271,-2.6920433680163782
1708443141.7273374,-2.1363182067871094,-1.3330974292806168,-2.5303834120379847,6.1009185192878626,1.0242583751678467,-2.6900067965136927
1708443141.7293313,-2.1362242698669434,-1.33303955317054,-2.530457083378927,6.100709068566122,1.024390697479248,-2.688005034123556
1708443141.7313342,-2.136119842529297,-1.3330394637635727,-2.530536476765768,6.100428092270651,1.024534821510315,-2.685890022908346
1708443141.7333248,-2.1359963417053223,-1.3330364984324952,-2.5306158701526087,6.100288736611166,1.024662733078003,-2.6839101950274866
1708443141.7353454,-2.135920763015747,-1.3330242049745102,-2.530642573033468,6.100102054863729,1.0247901678085327,-2.6818013826953333
1708443141.737338,-2.1358211040496826,-1.3330331307700654,-2.5307191053973597,6.099883782654562,1.0249524116516113,-2.679722849522726
1708443141.7393239,-2.1357293128967285,-1.3330286306193848,-2.5307911078082483,6.099714982300558,1.0250335931777954,-2.67760140100588
1708443141.7413456,-2.1355650424957275,-1.3330376011184235,-2.530891720448629,6.099470960884847,1.0252082347869873,-2.675528113042013
1708443141.7433095,-2.1355385780334473,-1.3330004525235672,-2.530937973652975,6.099359142571249,1.0253405570983887,-2.673431698475973
1708443141.7453616,-2.135368824005127,-1.33298413575206,-2.5310431162463587,6.099074709206381,1.0254756212234497,-2.6713743845569056
1708443141.7473435,-2.135254144668579,-1.3330182445100327,-2.5311482588397425,6.098924624710836,1.0256199836730957,-2.6692703405963343
1708443141.7493072,-2.135133743286133,-1.3329929572394867,-2.53117806116213,6.0986623642738245,1.0257898569107056,-2.6672945658313196
1708443141.7513568,-2.135042667388916,-1.3329692345908661,-2.531271282826559,6.098451840668478,1.0259206295013428,-2.6651797930346888
1708443141.7533414,-2.1349027156829834,-1.3330183041146775,-2.5313716570483606,6.098232257157125,1.0260976552963257,-2.663139883671896
1708443141.7553287,-2.1348037719726562,-1.3329316240600129,-2.531485621129171,6.098041045456686,1.026267647743225,-2.6610782782184046
1708443141.757338,-2.13466215133667,-1.332976297741272,-2.5315633455859583,6.097830045014181,1.0264055728912354,-2.6589959303485315
1708443141.7593246,-2.13458251953125,-1.3330183041146775,-2.531673018132345,6.097684013634481,1.0265260934829712,-2.6568484942065638
1708443141.7613866,-2.1344597339630127,-1.3329868626645585,-2.531736199055807,6.097497212677755,1.0266659259796143,-2.6546950976001185
1708443141.7633092,-2.1343319416046143,-1.3329571944526215,-2.5317674318896692,6.097273337631979,1.0268100500106812,-2.6525352636920374
1708443141.7653468,-2.134204626083374,-1.3330062937787552,-2.5318663755999964,6.09700487831191,1.0270038843154907,-2.650299612675802
1708443141.7673125,-2.1340548992156982,-1.3329868924668808,-2.5319834391223353,6.096895324974813,1.0271227359771729,-2.648083273564474
1708443141.7693465,-2.1340017318725586,-1.3329661202481766,-2.532083813344137,6.0966752646263025,1.0272926092147827,-2.6458962599383753
1708443141.7713408,-2.1339051723480225,-1.332928554420807,-2.5321512858020228,6.096496093064108,1.0274488925933838,-2.6437578837024134
1708443141.7733417,-2.133782148361206,-1.3329167825034638,-2.5322518984424036,6.096280801087179,1.0276051759719849,-2.641656462346212
1708443141.77531,-2.133605480194092,-1.3329627227834244,-2.5323222319232386,6.0960885165031335,1.0277162790298462,-2.6395674387561243
1708443141.7773607,-2.1335256099700928,-1.3329464060119172,-2.5324319044696253,6.0959099409873865,1.0279011726379395,-2.6374099890338343
1708443141.7793548,-2.133399724960327,-1.3328717362931748,-2.532490317021505,6.095669853478231,1.0280697345733643,-2.6352770964251917
1708443141.781363,-2.1332905292510986,-1.3328761768392106,-2.532637421284811,6.095446932106771,1.0282707214355469,-2.6331539789782923
1708443141.7833838,-2.1331419944763184,-1.3328806918910523,-2.532728974019186,6.095312344818868,1.0283939838409424,-2.6310928503619593
1708443141.785339,-2.13303542137146,-1.3328599494746705,-2.5328038374530237,6.095104682236471,1.0285505056381226,-2.629012409840719
1708443141.7873385,-2.1329238414764404,-1.332873286013939,-2.5329161326037806,6.094848263054647,1.0287278890609741,-2.62682015100588
1708443141.7893221,-2.1327598094940186,-1.3328896176866074,-2.5329297224627894,6.094735014229574,1.028891682624817,-2.6247664133654993
1708443141.7913363,-2.1327123641967773,-1.3328616631082078,-2.5330436865436,6.094535934716024,1.0290515422821045,-2.6225672403918665
1708443141.7933214,-2.1325693130493164,-1.3328329038671036,-2.5331483522998255,6.094347584038534,1.029191493988037,-2.6203771273242396
1708443141.7953246,-2.132420301437378,-1.332923637037613,-2.533247772847311,6.094168412476339,1.029350757598877,-2.618160072957174
1708443141.7973256,-2.1323280334472656,-1.332837463622429,-2.5333614985095423,6.093957769661703,1.0295401811599731,-2.6159325281726282
1708443141.7993371,-2.1321964263916016,-1.332807944422104,-2.5334036985980433,6.093749987870016,1.029675841331482,-2.613706413899557
1708443141.8013117,-2.1320974826812744,-1.3328464043191453,-2.5335159937488,6.093489157944479,1.0298231840133667,-2.611462656651632
1708443141.803361,-2.131937026977539,-1.332874984746315,-2.533599917088644,6.09327386596755,1.0300542116165161,-2.6093035379992884
1708443141.805323,-2.1318750381469727,-1.332816721206047,-2.5336583296405237,6.093110668450155,1.0302014350891113,-2.607170645390646
1708443141.807352,-2.131734609603882,-1.3328671616366883,-2.5337846914874476,6.093002068787374,1.0303456783294678,-2.605027739201681
1708443141.809354,-2.1316213607788086,-1.3327763092568894,-2.533835474644796,6.0927618620689294,1.0305500030517578,-2.6028853098498743
1708443141.8113177,-2.131474018096924,-1.3328014326146622,-2.5339553991900843,6.092560636788168,1.0306942462921143,-2.600766722355978
1708443141.8133426,-2.131394386291504,-1.3328180474093934,-2.534039322529928,6.092336642533102,1.030862808227539,-2.598654333745138
1708443141.8153267,-2.131279945373535,-1.3327806305936356,-2.534130875264303,6.092179047852316,1.0310343503952026,-2.5964887777911585
1708443141.8173766,-2.131179094314575,-1.3327896308949967,-2.5342028776751917,6.091935503273763,1.0312036275863647,-2.594292465840475
1708443141.8192983,-2.131092071533203,-1.332834468489029,-2.5342944304095667,6.091818082123556,1.0313434600830078,-2.592168633137838
1708443141.8213246,-2.1309878826141357,-1.3328359735063096,-2.5344067255603235,6.0916247246559045,1.0315239429473877,-2.589977804814474
1708443141.8233654,-2.1308231353759766,-1.3328014028123398,-2.5345280806170862,6.091426002770223,1.0317013263702393,-2.5877586046801966
1708443141.825319,-2.1307239532470703,-1.332822636967041,-2.5345822016345423,6.091315972595968,1.0318440198898315,-2.58547026315798
1708443141.8273609,-2.1306204795837402,-1.332822636967041,-2.534687344227926,6.091127621918478,1.032041072845459,-2.583252493535177
1708443141.829341,-2.13055682182312,-1.3328029823354264,-2.5347638765918177,6.0908745405967615,1.0322091579437256,-2.581003491078512
1708443141.8313167,-2.1304657459259033,-1.3327286106399079,-2.5348625818835657,6.090736377030172,1.032341480255127,-2.578830067311422
1708443141.8333416,-2.1303422451019287,-1.3327850711396714,-2.534987274800436,6.090507375984945,1.0324681997299194,-2.5766380468951624
1708443141.8353052,-2.1302106380462646,-1.3328314584544678,-2.5350831190692347,6.0903851864631555,1.0326993465423584,-2.5744741598712366
1708443141.837345,-2.130119800567627,-1.3327821058085938,-2.5351296106921595,6.090232956200399,1.0328425168991089,-2.5722997824298304
1708443141.839322,-2.1299989223480225,-1.3327820909074326,-2.5352419058429163,6.090070235520162,1.0330528020858765,-2.5702441374408167
1708443141.841332,-2.1298627853393555,-1.3327520352653046,-2.5353215376483362,6.089923131256857,1.0331956148147583,-2.568054978047506
1708443141.8433924,-2.1297664642333984,-1.33273600161586,-2.535443131123678,6.089755761414327,1.0333218574523926,-2.5659223238574427
1708443141.8453226,-2.1296844482421875,-1.33273600161586,-2.535468403493063,6.089575397759237,1.0335488319396973,-2.5637269655810755
1708443141.8473434,-2.1295254230499268,-1.332737610941269,-2.5356064478503626,6.089445698052206,1.0336930751800537,-2.561570707951681
1708443141.849373,-2.129516363143921,-1.332807333474495,-2.5356739203082483,6.089277612953939,1.0338119268417358,-2.5593045393573206
1708443141.8513465,-2.1293928623199463,-1.332777665262558,-2.5358360449420374,6.089105474739828,1.034032940864563,-2.557074848805563
1708443141.8533235,-2.1292595863342285,-1.332741917376854,-2.535870377217428,6.088910090714254,1.0341771841049194,-2.5548344294177454
1708443141.8553357,-2.1291561126708984,-1.3328029823354264,-2.5359800497638147,6.088770854264059,1.0343648195266724,-2.552553955708639
1708443141.8573132,-2.129117965698242,-1.3327732545188447,-2.5360549131976526,6.088626134186544,1.034558892250061,-2.550356690083639
1708443141.8593488,-2.128957748413086,-1.3327732396176835,-2.5361433664904993,6.088520872383871,1.0347390174865723,-2.548087183629171
1708443141.8613188,-2.1288936138153076,-1.332782120709755,-2.5362349192248743,6.088340270310201,1.0349031686782837,-2.5460291544543665
1708443141.8633046,-2.1287736892700195,-1.3327940118363877,-2.536294762288229,6.088209616928854,1.0350593328475952,-2.5438221136676233
1708443141.8653293,-2.1287074089050293,-1.3327197146466752,-2.5364025274859827,6.088013160019674,1.0352559089660645,-2.5416374842273157
1708443141.8674188,-2.1285669803619385,-1.332823635344841,-2.5364823977099817,6.087931263237753,1.0354365110397339,-2.5394490400897425
1708443141.8693142,-2.1285157203674316,-1.3327699464610596,-2.5365946928607386,6.087750899582662,1.035538673400879,-2.537381712590353
1708443141.871334,-2.128399133682251,-1.3327375811389466,-2.5366695562945765,6.0876561281974695,1.0357117652893066,-2.5351720491992396
1708443141.8733072,-2.128347873687744,-1.3327940267375489,-2.536779228840963,6.087516176491537,1.0358965396881104,-2.5330005327807825
1708443141.8753014,-2.128268241882324,-1.3327984523824234,-2.536837641392843,6.087348806649008,1.0360525846481323,-2.5308213869677942
1708443141.877318,-2.128155469894409,-1.3328029674342652,-2.536978546773092,6.087277042656698,1.0362224578857422,-2.528653923665182
1708443141.8792996,-2.128145217895508,-1.3328029823354264,-2.5370715300189417,6.087105023651876,1.0363818407058716,-2.5264468828784388
1708443141.8813062,-2.1280357837677,-1.3328103733113785,-2.5371180216418665,6.08693693855361,1.0365382432937622,-2.5242441336261194
1708443141.8833654,-2.1279828548431396,-1.332790957098343,-2.5372183958636683,6.086882221489706,1.0366976261138916,-2.521925989781515
1708443141.8853207,-2.1278436183929443,-1.3327940267375489,-2.5372725168811243,6.086706506996908,1.036874771118164,-2.5197771231280726
1708443141.887363,-2.1277496814727783,-1.3327609908631821,-2.53741962114443,6.08670066574172,1.037017583847046,-2.5174976030932825
1708443141.889337,-2.1276814937591553,-1.3328360182097931,-2.53750187555422,6.086466300278463,1.0371454954147339,-2.5153847376452845
1708443141.891357,-2.1276183128356934,-1.3327520352653046,-2.537607018147604,6.086343276291647,1.0373305082321167,-2.5131996313678187
1708443141.8933365,-2.127455711364746,-1.3328270626119156,-2.5376368204699915,6.086296546250143,1.0374910831451416,-2.5111284891711634
1708443141.8953419,-2.1274380683898926,-1.3327493977597733,-2.5377162138568323,6.086217868119039,1.0376595258712769,-2.5089972654925745
1708443141.8973403,-2.1273462772369385,-1.332768754368164,-2.537847105656759,6.086061703949728,1.0377918481826782,-2.5069387594806116
1708443141.8993468,-2.127291202545166,-1.332777665262558,-2.537879769002096,6.0859670517738245,1.0379687547683716,-2.5048657099353235
1708443141.9013548,-2.1271872520446777,-1.332805947666504,-2.5379727522479456,6.085809576302328,1.038116216659546,-2.50279409090151
1708443141.9033186,-2.12709903717041,-1.332768754368164,-2.5380941073047083,6.085778939514913,1.0382487773895264,-2.500650469456808
1708443141.9053533,-2.1269781589508057,-1.3328103733113785,-2.538178269063131,6.085630047112264,1.038379430770874,-2.498542610798971
1708443141.9073443,-2.1269381046295166,-1.3327850711396714,-2.538191620503561,6.085556018143453,1.038577675819397,-2.49636155763735
1708443141.90936,-2.126887798309326,-1.3327940118363877,-2.5383132139789026,6.0854928372199915,1.0387462377548218,-2.494232718144552
1708443141.911346,-2.1267995834350586,-1.3328014028123398,-2.538422409688131,6.085364448815145,1.0388785600662231,-2.4921091238604944
1708443141.913305,-2.1267356872558594,-1.332809255724289,-2.538477961217062,6.085259544640341,1.0390795469284058,-2.4899354616748255
1708443141.9153678,-2.126627206802368,-1.3328103882125397,-2.5385411421405237,6.0852123377616785,1.0392074584960938,-2.487858835850851
1708443141.9173522,-2.12654709815979,-1.3328136217645188,-2.5386579672442835,6.085091936379232,1.0393229722976685,-2.4857757727252405
1708443141.9193347,-2.1265130043029785,-1.3328059625676651,-2.538668696080343,6.0849883435066126,1.0394505262374878,-2.4837117830859583
1708443141.9213927,-2.1264328956604004,-1.3328136962703248,-2.5387571493731897,6.084957945137777,1.0396206378936768,-2.481689993535177
1708443141.9233298,-2.1263885498046875,-1.3328136962703248,-2.5388575235949915,6.084918725281515,1.039801001548767,-2.479679886494772
1708443141.9253485,-2.1263206005096436,-1.3328389835408707,-2.5389445463763636,6.0848015425498865,1.0398626327514648,-2.4775825182544153
1708443141.9273553,-2.126286029815674,-1.3328211915544053,-2.539037529622213,6.084688651352682,1.0400205850601196,-2.4756012598620813
1708443141.9293349,-2.126152992248535,-1.3329087656787415,-2.539100472127096,6.084666597634115,1.0401692390441895,-2.4736743609057825
1708443141.9313452,-2.126112222671509,-1.332841919069626,-2.53920561472048,6.084575402527609,1.0403120517730713,-2.471722427998678
1708443141.9333253,-2.126028060913086,-1.332792581324913,-2.5393059889422815,6.08448206165389,1.040432333946228,-2.469682041798727
1708443141.9353604,-2.1260457038879395,-1.332858295445778,-2.539374891911642,6.084435093193807,1.040614128112793,-2.4677420298205774
1708443141.9373667,-2.125969648361206,-1.332902969127037,-2.539461676274435,6.084347116738119,1.040701150894165,-2.4656642119037073
1708443141.9393308,-2.1259098052978516,-1.332871602182724,-2.5395219961749476,6.084303486138143,1.0408529043197632,-2.463510338460104
1708443141.9413471,-2.125805139541626,-1.332885206942894,-2.539581839238302,6.0842240927513025,1.0409941673278809,-2.4615104834186
1708443141.9433377,-2.125760793685913,-1.3328450185111542,-2.539677683507101,6.084184157639303,1.0411176681518555,-2.459484879170553
1708443141.9453585,-2.125791072845459,-1.3328705442002793,-2.5397542158709925,6.084136116295614,1.0412243604660034,-2.457395855580465
1708443141.9473348,-2.1257147789001465,-1.3328896474889298,-2.539734665547506,6.084077584534445,1.0414108037948608,-2.455350939427511
1708443141.9493232,-2.1256351470947266,-1.332885206942894,-2.5398908297168177,6.083984005242147,1.0415265560150146,-2.453350607548849
1708443141.9513745,-2.125607490539551,-1.332914726143219,-2.5399373213397425,6.0839741108711145,1.0416874885559082,-2.4514790217029017
1708443141.953358,-2.1255555152893066,-1.3329226684621354,-2.540030304585592,6.083941685944357,1.0417790412902832,-2.449514691029684
1708443141.9553514,-2.125473737716675,-1.3329345744899292,-2.540043656026022,6.083898055344381,1.0419771671295166,-2.4475751558886927
1708443141.9573398,-2.125474452972412,-1.3329137724689026,-2.5401127974139612,6.083809125214376,1.04203462600708,-2.4455724398242396
1708443141.9593341,-2.1253573894500732,-1.3329449605992814,-2.54018479982485,6.0837851641471765,1.0421968698501587,-2.4437413851367396
1708443141.961345,-2.125351667404175,-1.3329331290772934,-2.5402281920062464,6.083729731827535,1.0423215627670288,-2.4418347517596644
1708443141.9633102,-2.1253647804260254,-1.3329286140254517,-2.540300194417135,6.083758818894186,1.0423784255981445,-2.439887348805563
1708443141.9653697,-2.1252923011779785,-1.332966150050499,-2.5403900782214563,6.08371518829421,1.042528748512268,-2.437950674687521
1708443141.9673126,-2.1252598762512207,-1.3329528731158753,-2.540462319050924,6.083697902947225,1.0426247119903564,-2.436045233403341
1708443141.9693778,-2.125227928161621,-1.332977981572487,-2.5404847303973597,6.083614694863119,1.0427738428115845,-2.4341073671924036
1708443141.9713676,-2.12516713142395,-1.3329896044782181,-2.5406134764300745,6.083639371186056,1.0428686141967773,-2.432112995778219
1708443141.973326,-2.1251678466796875,-1.3330300611308594,-2.540607515965597,6.0836195824439905,1.042985439300537,-2.4301627318011683
1708443141.9753418,-2.125131607055664,-1.333004893069603,-2.5406554380999964,6.083554374962606,1.0430985689163208,-2.4281814734088343
1708443141.9773245,-2.125096321105957,-1.3329885464957734,-2.540744129811422,6.083525168686666,1.043197512626648,-2.4262409845935267
1708443141.9793184,-2.125056266784668,-1.3330183041146775,-2.5408130327807825,6.083525168686666,1.0432970523834229,-2.424284044896261
1708443141.9813523,-2.1250898838043213,-1.3330498349717637,-2.5408640543567103,6.083575951844015,1.0434139966964722,-2.422366205845968
1708443141.983312,-2.124995708465576,-1.3330705922893067,-2.5408833662616175,6.083502518921652,1.0435177087783813,-2.4205146471606653
1708443141.9853609,-2.12499737739563,-1.3330616664937516,-2.540938917790548,6.083568322449484,1.0435928106307983,-2.4186106363879603
1708443141.9873085,-2.124925136566162,-1.3330331605723877,-2.5410080591784876,6.083499181061544,1.0436815023422241,-2.416781250630514
1708443141.9893277,-2.1249046325683594,-1.3330332201770325,-2.541109863911764,6.083552109986105,1.043818473815918,-2.4149606863604944
1708443141.9913242,-2.1248726844787598,-1.3330854636481781,-2.5411537329303187,6.08345781543807,1.0439308881759644,-2.41313082376589
1708443141.9933336,-2.1248726844787598,-1.3331345331719895,-2.5412376562701624,6.08354018905715,1.0440140962600708,-2.411233965550558
1708443141.9953554,-2.124816417694092,-1.3330647361329575,-2.541259829198019,6.083498227387228,1.0441473722457886,-2.409506384526388
1708443141.9973176,-2.1247966289520264,-1.3330930036357422,-2.5413454214679163,6.083462106972494,1.0442677736282349,-2.407670323048727
1708443141.9993079,-2.124784469604492,-1.333130107527115,-2.541405264531271,6.0834905979926965,1.0443143844604492,-2.4058542887317103
1708443142.0013423,-2.124749183654785,-1.3330930334380646,-2.541429106389181,6.083534943848409,1.044472098350525,-2.4040241877185267
1708443142.003312,-2.124725341796875,-1.3331750494292756,-2.5415146986590784,6.083555447846212,1.0445727109909058,-2.402208391820089
1708443142.0053258,-2.1247003078460693,-1.3331409257701416,-2.541511837636129,6.08356403091506,1.0446735620498657,-2.4003542105304163
1708443142.0073276,-2.1246819496154785,-1.333149866466858,-2.5415900389300745,6.083515393524923,1.0447156429290771,-2.3984788099872034
1708443142.009324,-2.1246485710144043,-1.3331750494292756,-2.541628901158468,6.083539235382833,1.0448496341705322,-2.3967154661761683
1708443142.0113263,-2.124657154083252,-1.3331735891154786,-2.5417054335223597,6.083543526917257,1.044908046722412,-2.3948996702777308
1708443142.0133226,-2.1246163845062256,-1.3331932735494156,-2.541687313710348,6.083547818451681,1.0450011491775513,-2.393031899129049
1708443142.0153372,-2.124584913253784,-1.3332182329944153,-2.5418055693255823,6.083543526917257,1.0450735092163086,-2.3912416140185755
1708443142.0173373,-2.124629497528076,-1.3331320744803925,-2.5418089071856897,6.083563077240743,1.0452194213867188,-2.3894718329059046
1708443142.0193133,-2.1246252059936523,-1.3332795065692444,-2.5418432394610804,6.083607661515035,1.0452278852462769,-2.3877363840686243
1708443142.0213284,-2.124622344970703,-1.3331888777068635,-2.541895929967062,6.083616363793173,1.0453091859817505,-2.386059824620382
1708443142.0233176,-2.1245288848876953,-1.3331961047700425,-2.541931692753927,6.083607661515035,1.0454297065734863,-2.384336296712057
1708443142.0253003,-2.1245899200439453,-1.3332246106914063,-2.5419843832599085,6.083668219834127,1.0454820394515991,-2.382622543965475
1708443142.0273323,-2.1245813369750977,-1.3332201850465317,-2.5420246759997767,6.083639371186056,1.0456067323684692,-2.3810346762286585
1708443142.0293226,-2.1246466636657715,-1.33329030991111,-2.5420637766467493,6.083688008576193,1.045678973197937,-2.3793566862689417
1708443142.0313342,-2.1245574951171875,-1.3332888644984742,-2.5421043078051966,6.083626615792074,1.0457301139831543,-2.377676312123434
1708443142.033337,-2.1245856285095215,-1.3332263392261048,-2.542175833378927,6.0837511894996545,1.0458351373672485,-2.3760200182544153
1708443142.035333,-2.124573230743408,-1.3332963746837159,-2.542159620915548,6.08372317531661,1.045883297920227,-2.374232594166891
1708443142.0373652,-2.1245813369750977,-1.3332636815360566,-2.5422032515155237,6.083718764572897,1.04596745967865,-2.3726347128497522
1708443142.0393116,-2.1245617866516113,-1.3332831722548981,-2.5422843138324183,6.083791243820944,1.0460188388824463,-2.3708868662463587
1708443142.0412922,-2.124594211578369,-1.3333247315934678,-2.5422752539264124,6.083766448288717,1.0460785627365112,-2.369185749684469
1708443142.0433438,-2.1246137619018555,-1.3333069545081635,-2.542365376149313,6.083802449494161,1.0461630821228027,-2.367477003728048
1708443142.0453284,-2.1245899200439453,-1.333378092651703,-2.542368237172262,6.083806860237875,1.0462349653244019,-2.3658092657672327
1708443142.0473404,-2.124593734741211,-1.3333113652518769,-2.5424206892596644,6.0838262913520715,1.0462995767593384,-2.3640671412097376
1708443142.0493221,-2.1245899200439453,-1.3334264916232605,-2.5424357096301478,6.083923923760214,1.0463342666625977,-2.362452570592062
1708443142.0513194,-2.1245689392089844,-1.3334086549333115,-2.5424431006061,6.083967673569479,1.0464273691177368,-2.3607731501208704
1708443142.053359,-2.1246180534362793,-1.333445430999138,-2.542483631764547,6.083925473480978,1.0464589595794678,-2.359026018773214
1708443142.0553217,-2.1246066093444824,-1.3334086549333115,-2.5424869696246546,6.083941685944357,1.0465476512908936,-2.357438389454977
1708443142.0573409,-2.124541997909546,-1.3334188026240845,-2.5425224939929407,6.084005582123556,1.0466034412384033,-2.355919901524679
1708443142.0593193,-2.124577522277832,-1.3334441047957917,-2.542596165333883,6.084034669190206,1.0466889142990112,-2.3543482462512415
1708443142.061322,-2.124622344970703,-1.3334396493485947,-2.5426273981677454,6.084078299790182,1.0467277765274048,-2.352673117314474
1708443142.0633116,-2.124594211578369,-1.333439664249756,-2.542708698903219,6.084080564766683,1.0467219352722168,-2.351201836262838
1708443142.0653203,-2.124629497528076,-1.3334934425405045,-2.542692009602682,6.084206688195028,1.0468330383300781,-2.349616352711813
1708443142.06736,-2.124589443206787,-1.3334681701711197,-2.542699638997213,6.084205615311422,1.0468841791152954,-2.3480477968799036
1708443142.0693302,-2.1246180534362793,-1.3334875863841553,-2.5427594820605677,6.0842251656349084,1.0468616485595703,-2.346475903187887
1708443142.0713155,-2.1245856285095215,-1.333471195106842,-2.54276687303652,6.084301221161642,1.0469307899475098,-2.344954792653219
1708443142.07332,-2.1245856285095215,-1.3335321259549637,-2.542828623448507,6.0843578455741785,1.0469789505004883,-2.3433778921710413
1708443142.0753055,-2.1246423721313477,-1.3335202795318146,-2.5428224245654505,6.084380614548483,1.0470480918884277,-2.34181791940798
1708443142.0773447,-2.1246066093444824,-1.3334830713323136,-2.542858425770895,6.084420907288351,1.047100305557251,-2.3402109781848353
1708443142.0793016,-2.124584913253784,-1.3334909838489075,-2.54289156595339,6.084452378540792,1.0471322536468506,-2.3385697046863
1708443142.0813324,-2.124596357345581,-1.3335114282420655,-2.542932097111837,6.084577071457662,1.047234296798706,-2.3369904200183313
1708443142.0833175,-2.124605178833008,-1.3334865731051941,-2.5429652372943323,6.084580647736349,1.04727041721344,-2.3354490439044397
1708443142.085311,-2.1246163845062256,-1.3335263443044205,-2.543003861104147,6.084648120194235,1.0473049879074097,-2.333905283604757
1708443142.0873213,-2.1246256828308105,-1.3335549247315903,-2.5429754892932337,6.084687220841207,1.0472959280014038,-2.332271401082174
1708443142.089333,-2.1246120929718018,-1.333559350376465,-2.543011490498678,6.084783780365743,1.047339677810669,-2.330756727849142
1708443142.091295,-2.1246819496154785,-1.333574579363205,-2.5430310408221644,6.084806906967916,1.0473593473434448,-2.329237763081686
1708443142.0933475,-2.124673843383789,-1.333557979469635,-2.5430758635150355,6.084919678955831,1.0473952293395996,-2.3277116457568567
1708443142.095291,-2.124673843383789,-1.3335909259370347,-2.5430174509631556,6.084954726486959,1.0474765300750732,-2.326254192982809
1708443142.0973456,-2.12471342086792,-1.3336232912591477,-2.543053213750021,6.085027205735006,1.0474883317947388,-2.3247838656054896
1708443142.0993042,-2.124713897705078,-1.333618940120079,-2.543103043233053,6.085110890656271,1.047553300857544,-2.3232699076281946
1708443142.1013134,-2.12471342086792,-1.3336726439050217,-2.543119494115011,6.085158216744222,1.0475770235061646,-2.321808163319723
1708443142.1033325,-2.12471342086792,-1.3336638075164338,-2.543103043233053,6.085242497711935,1.0475844144821167,-2.3202670256244105
1708443142.105315,-2.124713897705078,-1.3336549562266846,-2.5431464354144495,6.085261332779684,1.0476160049438477,-2.318890158330099
1708443142.1073568,-2.1247167587280273,-1.3336923879436036,-2.5431841055499476,6.08538709858016,1.0476940870285034,-2.317385498677389
1708443142.1093535,-2.1248035430908203,-1.3336998981288453,-2.543177906666891,6.085381018906393,1.0477017164230347,-2.315927807484762
1708443142.1113503,-2.1247572898864746,-1.3337192249349137,-2.5431795755969446,6.085412490158834,1.0477303266525269,-2.314458433781759
1708443142.1133173,-2.124833822250366,-1.3336953830770035,-2.543128554021017,6.085558044701376,1.0477200746536255,-2.312890116368429
1708443142.1153548,-2.124816417694092,-1.3337236505797883,-2.5432124773608606,6.085617530136862,1.0478025674819946,-2.311404291783468
1708443142.1173546,-2.1248459815979004,-1.3337474924376984,-2.543182436619894,6.085661279946127,1.0477756261825562,-2.309852663670675
1708443142.1193118,-2.1248769760131836,-1.3336776953986664,-2.543173376713888,6.085724341660299,1.0478250980377197,-2.308402125035421
1708443142.121392,-2.1248929500579834,-1.3337638241103669,-2.543218199406759,6.085845935135641,1.047865629196167,-2.306875769292013
1708443142.1233096,-2.124913454055786,-1.3337716621211548,-2.543194357548849,6.085908996849813,1.0478520393371582,-2.3053816000567835
1708443142.1253161,-2.1249423027038574,-1.3337236654809494,-2.543239418660299,6.085967767029562,1.0479182004928589,-2.3039024511920374
1708443142.1273384,-2.1249170303344727,-1.333771677022316,-2.5432091395007532,6.085986363678732,1.047951340675354,-2.3024161497699183
1708443142.129326,-2.124969005584717,-1.3337538701346894,-2.543260637913839,6.086038577347555,1.0479332208633423,-2.3009629885302942
1708443142.1313472,-2.124985694885254,-1.3337372106364747,-2.5432091395007532,6.086147057801046,1.047936201095581,-2.2995451132403772
1708443142.1333447,-2.124985694885254,-1.3337984693101426,-2.543227259312765,6.086259114533224,1.0480237007141113,-2.2981565634356897
1708443142.1353166,-2.125016689300537,-1.3338359606317063,-2.5432425181018274,6.086310374527731,1.0479979515075684,-2.2967456022845667
1708443142.137325,-2.125051975250244,-1.333782122736313,-2.5432561079608362,6.086321341782369,1.0479648113250732,-2.2953131834613245
1708443142.1393695,-2.1250643730163574,-1.3337282699397583,-2.543239418660299,6.086470949440756,1.0479934215545654,-2.2939427534686487
1708443142.14135,-2.1250767707824707,-1.3338196289590378,-2.5432303587542933,6.086526858597555,1.0480055809020996,-2.2925708929644983
1708443142.1433015,-2.1251137256622314,-1.333798499112465,-2.5432499090777796,6.086580979615011,1.0479921102523804,-2.2911725679980677
1708443142.145346,-2.1251401901245117,-1.3338062179139634,-2.543218199406759,6.086648690491476,1.0480010509490967,-2.2898224035846155
1708443142.1473556,-2.125148296356201,-1.3338582974723359,-2.5432918707477015,6.086672293930807,1.0480085611343384,-2.2884891668902796
1708443142.149329,-2.125180959701538,-1.3338342171958466,-2.5432303587542933,6.0868286965186975,1.0480175018310547,-2.2871792952166956
1708443142.1513362,-2.1251721382141113,-1.3338583272746583,-2.5432589689837855,6.086884605675497,1.047987699508667,-2.285811726246969
1708443142.1533337,-2.125180244445801,-1.3338416528752823,-2.5432499090777796,6.086932289391317,1.0480159521102905,-2.284483257924215
1708443142.1553571,-2.1252198219299316,-1.3338583421758194,-2.5432663599597376,6.087032067566671,1.0480010509490967,-2.2831547896014612
1708443142.1573436,-2.125256061553955,-1.3338702482036133,-2.5433037916766565,6.087071406632223,1.0480129718780518,-2.281863037739889
1708443142.1593215,-2.125244617462158,-1.3338416528752823,-2.5432918707477015,6.087107050209799,1.0480338335037231,-2.2804601828204554
1708443142.1613433,-2.125300884246826,-1.3338732731393357,-2.5432515780078333,6.087256061821737,1.0480713844299316,-2.279091183339254
1708443142.163313,-2.1253442764282227,-1.3339152050069352,-2.5432258288012903,6.08727918842391,1.0480293035507202,-2.277694050465719
1708443142.1653402,-2.1254005432128906,-1.3339461249164124,-2.5432544390307825,6.08737479427413,1.0480220317840576,-2.276317898427145
1708443142.1673248,-2.1253719329833984,-1.3339389574578782,-2.5432964007007044,6.087438928871908,1.0480129718780518,-2.2750089804278772
1708443142.1693285,-2.125448226928711,-1.3339539033225556,-2.5432992617236536,6.087538945465841,1.0479798316955566,-2.273680035267965
1708443142.1713295,-2.1254730224609375,-1.3339702647975464,-2.5432708899127405,6.0875658867652795,1.0479966402053833,-2.272306267415182
1708443142.1733263,-2.125455856323242,-1.333967224960663,-2.5432799498187464,6.087629306107321,1.0479754209518433,-2.2709859053241175
1708443142.17534,-2.125523567199707,-1.3339372438243409,-2.5432303587542933,6.087795364647665,1.0480010509490967,-2.269636933003561
1708443142.1773558,-2.1255483627319336,-1.3339614433101197,-2.5432844797717493,6.087809431343832,1.0480220317840576,-2.268296543751852
1708443142.179311,-2.1255273818969727,-1.333977760081627,-2.5432379881488245,6.087873923569479,1.0480501651763916,-2.2669194380389612
1708443142.1813474,-2.1256232261657715,-1.3339688193849106,-2.5432680288897913,6.087990152626791,1.0479966402053833,-2.265618626271383
1708443142.1833766,-2.125663995742798,-1.3340033304742356,-2.5432515780078333,6.088044512062826,1.0479965209960938,-2.2643664518939417
1708443142.1853452,-2.1256675720214844,-1.3339929592660447,-2.5432258288012903,6.088149416237631,1.0480412244796753,-2.2630608717547815
1708443142.1873348,-2.1256914138793945,-1.3339974892190476,-2.5432544390307825,6.08819733837203,1.0479966402053833,-2.261756245289938
1708443142.189339,-2.1257638931274414,-1.3340669882348557,-2.5431838671313685,6.088276731758871,1.0480055809020996,-2.2605088392840784
1708443142.1913793,-2.1257596015930176,-1.3340344291976471,-2.543243948613302,6.088355052262106,1.0480175018310547,-2.2592814604388636
1708443142.1933293,-2.125811815261841,-1.3340423119119187,-2.543218199406759,6.088488805084982,1.0479843616485596,-2.257974926625387
1708443142.19535,-2.125847816467285,-1.3340495389750977,-2.5432754198657435,6.088478076248922,1.0479798316955566,-2.256728474293844
1708443142.197353,-2.1258912086486816,-1.3340700727752228,-2.5432258288012903,6.088582861214437,1.0480129718780518,-2.2554548422442835
1708443142.1993203,-2.1259562969207764,-1.3340007227710267,-2.5432515780078333,6.088682400971212,1.0479440689086914,-2.254202191029684
1708443142.201376,-2.125938892364502,-1.334074543123581,-2.5432515780078333,6.088791477471151,1.0479934215545654,-2.252976719533102
1708443142.2033615,-2.125995397567749,-1.3340943467668076,-2.543234888707296,6.088854300766744,1.0479767322540283,-2.2516992727862757
1708443142.2053525,-2.126018524169922,-1.334057093863823,-2.543222729359762,6.088901030808248,1.0479811429977417,-2.2504056135760706
1708443142.2073343,-2.1260862350463867,-1.334089995627739,-2.543185297642843,6.0890023587043665,1.0479648113250732,-2.2491238752948206
1708443142.2093232,-2.1260986328125,-1.334101827149727,-2.543192688618795,6.089084970742025,1.0479902029037476,-2.247803036366598
1708443142.2113514,-2.1261138916015625,-1.3340974611094971,-2.543222729359762,6.089141237526693,1.0479451417922974,-2.2465060392962855
1708443142.2133207,-2.1261870861053467,-1.3340483170798798,-2.543218199406759,6.089220869332113,1.0479214191436768,-2.2452428976642054
1708443142.2153575,-2.126217842102051,-1.334089995627739,-2.543201748524801,6.089320885926046,1.0479047298431396,-2.2439497152911585
1708443142.2173383,-2.1262669563293457,-1.334113748078682,-2.543177906666891,6.089392292290487,1.0479015111923218,-2.242652718220846
1708443142.2193549,-2.1263341903686523,-1.3341181141189118,-2.543227259312765,6.089504468231954,1.047838568687439,-2.24143630663027
1708443142.2213366,-2.1263582706451416,-1.3340636950782319,-2.543206278477804,6.089624869614401,1.0478520393371582,-2.240084950123922
1708443142.2233124,-2.126398801803589,-1.33407677829776,-2.543206278477804,6.089590298920431,1.0478190183639526,-2.2387879530536097
1708443142.2253363,-2.1264350414276123,-1.3340931099704285,-2.543177906666891,6.089722978859701,1.0478324890136719,-2.2375310103045862
1708443142.227336,-2.1264545917510986,-1.3341570657542725,-2.5432124773608606,6.089810955315389,1.0477875471115112,-2.236267391835348
1708443142.2293653,-2.1265172958374023,-1.3341323298266907,-2.543186966572897,6.089919912606039,1.0477756261825562,-2.2349942366229456
1708443142.2313502,-2.1265509128570557,-1.3340962392142792,-2.543189827595846,6.089892494469442,1.0477347373962402,-2.233713452016012
1708443142.2333395,-2.12660551071167,-1.334161327486374,-2.543165985737936,6.090066301613607,1.0477319955825806,-2.232473675404684
1708443142.2353497,-2.126589775085449,-1.3341822636178513,-2.5431914965258997,6.090174186020651,1.0477077960968018,-2.2312782446490687
1708443142.2373312,-2.1266770362854004,-1.3341366213611145,-2.5431554953204554,6.090234029084005,1.0477335453033447,-2.2300475279437464
1708443142.2393086,-2.126730442047119,-1.3341290962747117,-2.5431087652789515,6.09034692028121,1.0477049350738525,-2.228879753743307
1708443142.2413466,-2.126741647720337,-1.3341779124787827,-2.5431342760669153,6.090368616371908,1.0476055145263672,-2.2276418844806116
1708443142.2432966,-2.126800775527954,-1.3341613423875351,-2.54309851328005,6.090432035713949,1.0476313829421997,-2.22638446489443
1708443142.2453659,-2.1268582344055176,-1.3341570657542725,-2.543093983327047,6.090539443283834,1.0476281642913818,-2.225213352833883
1708443142.2473564,-2.1268844604492188,-1.334200532441475,-2.543126885090963,6.090623128205099,1.0475573539733887,-2.224008862172262
1708443142.2493088,-2.1269078254699707,-1.3342259538224717,-2.54309851328005,6.090654837876119,1.0475800037384033,-2.2228344122516077
1708443142.2513433,-2.126944065093994,-1.334217147236206,-2.543152395878927,6.090815412789144,1.0475398302078247,-2.2215688864337366
1708443142.2533298,-2.126972198486328,-1.3342422407916565,-2.54309851328005,6.090879666596212,1.0475561618804932,-2.220343891774313
1708443142.2553713,-2.1270041465759277,-1.334252880220749,-2.5430503527270716,6.090935098915853,1.0474495887756348,-2.2191904226886194
1708443142.2573662,-2.127077102661133,-1.334200532441475,-2.5430503527270716,6.09098635891036,1.0475080013275146,-2.2179773489581507
1708443142.2593043,-2.127103805541992,-1.3342203360847016,-2.5430384317981165,6.091106879502096,1.0474883317947388,-2.2167595068561
1708443142.2613332,-2.1271753311157227,-1.3342366379550477,-2.5430384317981165,6.0911656496818445,1.0474148988723755,-2.215462032948629
1708443142.263308,-2.1272201538085938,-1.3342560988715668,-2.5430191198932093,6.091225373535909,1.0473997592926025,-2.214302364979879
1708443142.2653375,-2.127272367477417,-1.3342290681651612,-2.5430055300342005,6.09130476692275,1.0473920106887817,-2.213017288838522
1708443142.267306,-2.127246379852295,-1.3343017560294648,-2.542985741292135,6.091420995980062,1.0473381280899048,-2.2117627302752894
1708443142.2693222,-2.127286911010742,-1.3342930388501664,-2.542990271245138,6.091456997185507,1.047330617904663,-2.210550610219137
1708443142.271352,-2.12736439704895,-1.3342735779336472,-2.542957369481222,6.091537344246664,1.0472662448883057,-2.209381405507223
1708443142.2733333,-2.1273794174194336,-1.3343093556216736,-2.5429754892932337,6.091637360840597,1.0472583770751953,-2.2081669012652796
1708443142.275358,-2.1274313926696777,-1.3342635792544861,-2.5429049173938196,6.091651785164633,1.0472419261932373,-2.2069628874408167
1708443142.27734,-2.127502918243408,-1.3343619269183655,-2.5429139772998255,6.091764676361837,1.0472689867019653,-2.2057974974261683
1708443142.2792985,-2.127502202987671,-1.334291787152626,-2.5429139772998255,6.091835367470541,1.0471819639205933,-2.20461351076235
1708443142.2813418,-2.127554416656494,-1.3343334806016465,-2.542910877858297,6.091849672585287,1.047142744064331,-2.2033632437335413
1708443142.2833123,-2.1275906562805176,-1.3343290251544495,-2.542887036000387,6.092020022660055,1.0471546649932861,-2.202215019856588
1708443142.285324,-2.1276583671569824,-1.3343040210059662,-2.542820755635397,6.092017876892843,1.0470361709594727,-2.201111141835348
1708443142.2873232,-2.1276962757110596,-1.3343810004046937,-2.5427969137774866,6.0921461460884,1.0470631122589111,-2.199916664754049
1708443142.2893126,-2.127763509750366,-1.3343277883580704,-2.5428507963763636,6.092222320824423,1.047029972076416,-2.1986931006061
1708443142.2913408,-2.127762794494629,-1.3343809855035325,-2.5428178946124476,6.092289793282308,1.0469609498977661,-2.197610680256979
1708443142.2933207,-2.12782621383667,-1.334340126519539,-2.5427940527545374,6.092340934067526,1.0469534397125244,-2.1964290777789515
1708443142.2953277,-2.127866744995117,-1.3343158674291153,-2.542828623448507,6.092450725823202,1.0469216108322144,-2.195266071950094
1708443142.297313,-2.1278696060180664,-1.334332139497139,-2.542757813130514,6.0924885151679895,1.0469099283218384,-2.194176975880758
1708443142.299305,-2.127873420715332,-1.3343401116183777,-2.542720381413595,6.092579829483785,1.0468738079071045,-2.1930111090289515
1708443142.3013382,-2.1279871463775635,-1.3343766343644639,-2.5427640120135706,6.092644202500143,1.0468449592590332,-2.1918776671039026
1708443142.3032928,-2.127978563308716,-1.3343487542918702,-2.5426979700671595,6.092764842301168,1.0467971563339233,-2.190650765095846
1708443142.3053367,-2.1280574798583984,-1.3343650263598938,-2.5427025000201624,6.092820274620809,1.0468060970306396,-2.189464871083395
1708443142.307343,-2.128040075302124,-1.3343972724727173,-2.542640988026754,6.092888819962301,1.0467702150344849,-2.1883171240436
1708443142.309337,-2.1281344890594482,-1.3343723577312012,-2.542654577885763,6.092955219536581,1.0467414855957031,-2.1871236006366175
1708443142.311337,-2.1281583309173584,-1.3344183427146454,-2.5426469484912317,6.093047487526693,1.0467174053192139,-2.185972515736715
1708443142.31334,-2.1281447410583496,-1.3343606752208252,-2.5425718466388147,6.0930954096610925,1.0466978549957275,-2.184854332600729
1708443142.3153076,-2.1281938552856445,-1.3343563985875626,-2.5426064173327845,6.093166935234823,1.0466737747192383,-2.183650318776266
1708443142.317318,-2.1282575130462646,-1.3343798232129593,-2.5425406138049524,6.09327112415389,1.0466018915176392,-2.182465378438131
1708443142.3192844,-2.128272533416748,-1.3343766343644639,-2.542575184498922,6.093322622566976,1.0465943813323975,-2.1812503973590296
1708443142.321333,-2.128357172012329,-1.3343798232129593,-2.542542044316427,6.093409526139059,1.0465492010116577,-2.1800859610186976
1708443142.323302,-2.1283371448516846,-1.3343754720738907,-2.5425060431109827,6.093482482224264,1.0464797019958496,-2.1788767019854944
1708443142.3253343,-2.1284172534942627,-1.3343964380076905,-2.542513434086935,6.093570458679952,1.046445369720459,-2.1777122656451624
1708443142.327316,-2.1283953189849854,-1.3344289523414155,-2.5424700419055384,6.093629228859701,1.046445369720459,-2.1765177885638636
1708443142.3293245,-2.1284403800964355,-1.3344127249768754,-2.542457882558004,6.093717920571127,1.0464049577713013,-2.1753652731524866
1708443142.3313236,-2.1284916400909424,-1.334399626856186,-2.542471472417013,6.093752968102255,1.046344518661499,-2.1742332617389124
1708443142.333364,-2.128565549850464,-1.3343833547881623,-2.542422119771139,6.093775975495138,1.0462828874588013,-2.172924820576803
1708443142.3353226,-2.128584861755371,-1.3344322007945557,-2.542431179677145,6.093917357712545,1.046284794807434,-2.171777073537008
1708443142.337311,-2.128640651702881,-1.33443999410186,-2.542464081441061,6.093931185990133,1.0462321043014526,-2.170612637196676
1708443142.3393023,-2.128675937652588,-1.3344158989242096,-2.5423813501941126,6.094028103142538,1.0461913347244263,-2.169460121785299
1708443142.3413372,-2.1286957263946533,-1.334395171408989,-2.5423455874072474,6.094046580582418,1.046173334121704,-2.1683014074908655
1708443142.343314,-2.128772258758545,-1.3344365519336243,-2.542338196431295,6.094106304436483,1.0461159944534302,-2.167119805012838
1708443142.3453326,-2.128800630569458,-1.3344928932240983,-2.542396608983175,6.09422396400527,1.0461041927337646,-2.166051689778463
1708443142.3473363,-2.1288270950317383,-1.334456281071045,-2.5422855059253138,6.094278085022726,1.0461176633834839,-2.164898697529928
1708443142.3493347,-2.128809690475464,-1.3344928634217759,-2.542276446019308,6.094371783524313,1.046044111251831,-2.1637027899371546
1708443142.3513057,-2.128899574279785,-1.33443999410186,-2.5422707239734095,6.094373690872946,1.0460127592086792,-2.162567440663473
1708443142.3533783,-2.1289560794830322,-1.3344400090030213,-2.5422073046313685,6.094490039139547,1.0460245609283447,-2.1614306608783167
1708443142.3553677,-2.1289923191070557,-1.334468202,-2.5422421137439173,6.09454237201766,1.0459600687026978,-2.1602304617511194
1708443142.3573349,-2.1290063858032227,-1.3344725531390687,-2.542239014302389,6.094597565918722,1.0459240674972534,-2.159097973500387
1708443142.3593216,-2.129031181335449,-1.3344841462424775,-2.542198721562521,6.094725954323568,1.045851707458496,-2.157903496419088
1708443142.3613122,-2.1290674209594727,-1.3344841462424775,-2.5421956221209925,6.094773995667257,1.0458893775939941,-2.1566923300372522
1708443142.3633356,-2.129122257232666,-1.3344964993051072,-2.5421415011035364,6.0948219178016565,1.0458157062530518,-2.155571762715475
1708443142.3653264,-2.1291351318359375,-1.3344920438579102,-2.5421176592456263,6.094881522446432,1.0457872152328491,-2.1544254461871546
1708443142.3673158,-2.1291542053222656,-1.3345127564719697,-2.542180601750509,6.094908821373739,1.045755386352539,-2.153207604085104
1708443142.3693216,-2.1292598247528076,-1.334468202,-2.542102877293722,6.0949838040168665,1.045727014541626,-2.1520217100726526
1708443142.3713129,-2.1292176246643066,-1.3344667118838807,-2.542086187993185,6.095072614937582,1.0456879138946533,-2.150872532521383
1708443142.373326,-2.12925386428833,-1.3344710779241105,-2.5420785585986536,6.09510754325942,1.045680284500122,-2.1496055761920374
1708443142.3753576,-2.1292943954467773,-1.3345051270774384,-2.5420456568347376,6.095176088600912,1.0456608533859253,-2.1484349409686487
1708443142.377345,-2.1293225288391113,-1.334536836748459,-2.5420592466937464,6.095231520920553,1.0456202030181885,-2.147248093281881
1708443142.3793185,-2.1293740272521973,-1.3345158857158204,-2.542018715535299,6.095315325051107,1.0456010103225708,-2.1460841337787073
1708443142.381332,-2.129431962966919,-1.3345095378211518,-2.541990105305807,6.095363127976217,1.0455315113067627,-2.144873921071188
1708443142.383339,-2.1294541358947754,-1.3344551485827942,-2.5420201460467737,6.095422017365255,1.0454790592193604,-2.1437252203570765
1708443142.3853128,-2.129453659057617,-1.3344951582005997,-2.5419917742358606,6.095531689911642,1.045475959777832,-2.1424973646747034
1708443142.387341,-2.1294844150543213,-1.3344920438579102,-2.5419285933123987,6.095533835678854,1.0454399585723877,-2.1412981192218226
1708443142.3893385,-2.129537582397461,-1.3344623011401673,-2.5419166723834437,6.095584738045492,1.045369267463684,-2.1401336828814905
