Eg3-git/Classifiers/Data Collection/u8/u8cir5_ur3e_joint_states.csv
time,elbow_joint,shoulder_lift_joint,shoulder_pan_joint,wrist_1_joint,wrist_2_joint,wrist_3_joint
1708443314.1326592,-2.143113851547241,-1.3341964495233078,-2.527337376271383,6.114548194199362,1.0186121463775635,-2.4221423308001917
1708443314.1346562,-2.143139362335205,-1.3342087131789704,-2.527379576359884,6.1145362732704065,1.0185872316360474,-2.4222005049334925
1708443314.136742,-2.1431057453155518,-1.3342418533614655,-2.527372185383932,6.114486801415243,1.01863694190979,-2.4222005049334925
1708443314.1386929,-2.1431360244750977,-1.3342376214316864,-2.527363125477926,6.114515411644735,1.0185959339141846,-2.4222038427936
1708443314.1406531,-2.1431527137756348,-1.3341565293124695,-2.527341906224386,6.114486801415243,1.0186207294464111,-2.4222167173968714
1708443314.1426494,-2.1431057453155518,-1.334209219818451,-2.527358595524923,6.11454068401412,1.0186402797698975,-2.4222167173968714
1708443314.1446452,-2.1431102752685547,-1.334237591629364,-2.527363125477926,6.114472019463339,1.0186240673065186,-2.4221835772143763
1708443314.1466618,-2.1431102752685547,-1.334209219818451,-2.527341906224386,6.114467489510336,1.0185872316360474,-2.422191921864645
1708443314.1486785,-2.1431190967559814,-1.3342006665519257,-2.527367655430929,6.114479410439291,1.0186402797698975,-2.4221962133990687
1708443314.1506393,-2.143089771270752,-1.3342214685729523,-2.527350966130392,6.1144927618797205,1.01860773563385,-2.4221749941455286
1708443314.1526575,-2.143139362335205,-1.3342503172210236,-2.527346436177389,6.1145211336906335,1.0186033248901367,-2.4222005049334925
1708443314.1546361,-2.1431236267089844,-1.334217147236206,-2.527375046406881,6.114495861321249,1.0186611413955688,-2.4222167173968714
1708443314.1566527,-2.1430728435516357,-1.3342384707978745,-2.527372185383932,6.114472019463339,1.0186283588409424,-2.4222448507892054
1708443314.1586323,-2.1431190967559814,-1.3342741590789338,-2.5273435751544397,6.114476430207052,1.0186240673065186,-2.4222286383258265
1708443314.1606615,-2.1430604457855225,-1.3341683608344574,-2.527341906224386,6.114436256676473,1.0186611413955688,-2.4222212473498743
1708443314.162649,-2.1431312561035156,-1.3341802817634125,-2.527358595524923,6.1144436476524255,1.0186078548431396,-2.4222212473498743
1708443314.1646628,-2.1430985927581787,-1.3342214685729523,-2.527329985295431,6.114422786026754,1.0186152458190918,-2.422253672276632
1708443314.1666508,-2.1431190967559814,-1.334212915306427,-2.527346436177389,6.114483821183004,1.0186402797698975,-2.4222329298602503
1708443314.1686459,-2.1431190967559814,-1.334217147236206,-2.527396027241842,6.114476430207052,1.0186002254486084,-2.4222610632525843
1708443314.1706433,-2.1431119441986084,-1.3341802817634125,-2.527358595524923,6.114424335747518,1.0186164379119873,-2.4221673647509974
1708443314.1726618,-2.1431360244750977,-1.3341888350299378,-2.527372185383932,6.114424216538229,1.0186489820480347,-2.4222081343280237
1708443314.1746757,-2.143095016479492,-1.3342299324325104,-2.527379576359884,6.114459740906515,1.0186196565628052,-2.4222093264209192
1708443314.1766496,-2.1430985927581787,-1.3341683608344574,-2.527379576359884,6.114459740906515,1.0186121463775635,-2.4222448507892054
1708443314.1786468,-2.1430695056915283,-1.3342006665519257,-2.5273600260363978,6.114459740906515,1.0186078548431396,-2.4222005049334925
1708443314.1806436,-2.1431686878204346,-1.334217147236206,-2.527367655430929,6.114463078766622,1.0186524391174316,-2.422170702611105
1708443314.1826568,-2.1431102752685547,-1.3341727268746872,-2.527346436177389,6.114459740906515,1.0186164379119873,-2.4222081343280237
1708443314.1846497,-2.1431145668029785,-1.3342257005027314,-2.527325455342428,6.1144481776054285,1.0186524391174316,-2.4222124258624476
1708443314.186692,-2.1430864334106445,-1.334217147236206,-2.527341906224386,6.114440667420187,1.0186402797698975,-2.4222329298602503
1708443314.1886437,-2.1431102752685547,-1.3342376214316864,-2.527396027241842,6.114440667420187,1.0186350345611572,-2.4221962133990687
1708443314.1906724,-2.1430864334106445,-1.334197298889496,-2.527350966130392,6.114468681603231,1.0186645984649658,-2.4222005049334925
1708443314.1926548,-2.1430773735046387,-1.334217147236206,-2.527372185383932,6.114461529045858,1.0186690092086792,-2.4221587816821497
1708443314.1946654,-2.1430649757385254,-1.3342333149961014,-2.527350966130392,6.114485370903768,1.0186808109283447,-2.4221749941455286
1708443314.1966367,-2.1431031227111816,-1.334197298889496,-2.527329985295431,6.114436256676473,1.0186314582824707,-2.422231976185934
1708443314.1986523,-2.1431074142456055,-1.3341692251018067,-2.527396027241842,6.114424335747518,1.018685221672058,-2.4221749941455286
1708443314.2006445,-2.1431145668029785,-1.3342128855041047,-2.527363125477926,6.114427315979757,1.0186402797698975,-2.4222167173968714
1708443314.2026472,-2.1431119441986084,-1.334212915306427,-2.527363125477926,6.114489781647482,1.018656849861145,-2.422191921864645
1708443314.2046952,-2.1430623531341553,-1.334204987888672,-2.5273662249194544,6.114452588349142,1.018701434135437,-2.422249142323629
1708443314.206641,-2.143095016479492,-1.3341964197209855,-2.527391497288839,6.114452588349142,1.0186480283737183,-2.4222286383258265
1708443314.208656,-2.1430816650390625,-1.3342376214316864,-2.52735406557192,6.114457118302145,1.018622875213623,-2.4222329298602503
1708443314.2106616,-2.143078327178955,-1.3342006665519257,-2.527346436177389,6.114489900856771,1.018672227859497,-2.4222286383258265
1708443314.2126923,-2.143078327178955,-1.3342418533614655,-2.527375046406881,6.114424335747518,1.018610954284668,-2.4222448507892054
1708443314.214639,-2.1430492401123047,-1.3341726821712037,-2.527437988911764,6.114415395050802,1.0186808109283447,-2.4222081343280237
1708443314.2166386,-2.1431236267089844,-1.3342214685729523,-2.527396027241842,6.114456999092855,1.0186558961868286,-2.4221835772143763
1708443314.2186549,-2.1430819034576416,-1.3342050027898331,-2.527424399052755,6.114456999092855,1.018660306930542,-2.4221792856799524
1708443314.2206445,-2.1431119441986084,-1.334217147236206,-2.5273616949664515,6.114428746491232,1.0186808109283447,-2.422187630330221
1708443314.2226462,-2.1430649757385254,-1.3341641885093232,-2.5273779074298304,6.114407646446981,1.0186141729354858,-2.4222212473498743
1708443314.2246478,-2.1430816650390625,-1.334241808657982,-2.527358595524923,6.114424335747518,1.0186927318572998,-2.422192398701803
1708443314.2266574,-2.1430580615997314,-1.334172711973526,-2.5273450056659144,6.114466058998861,1.0186560153961182,-2.4222167173968714
1708443314.2286398,-2.1430816650390625,-1.3342341643622895,-2.527424399052755,6.114403116493978,1.0186350345611572,-2.4222005049334925
1708443314.2306588,-2.1430537700653076,-1.3342493635467072,-2.5273495356189173,6.114473092346945,1.0187081098556519,-2.4222405592547815
1708443314.2326682,-2.143099546432495,-1.3342257154038926,-2.527358595524923,6.114440667420187,1.0186840295791626,-2.4222005049334925
1708443314.2346354,-2.1430695056915283,-1.3342503172210236,-2.527341906224386,6.1144450781639,1.0186678171157837,-2.4222329298602503
1708443314.2367163,-2.1430740356445312,-1.3342418533614655,-2.527391497288839,6.114439117699423,1.0186797380447388,-2.4222081343280237
1708443314.23868,-2.1430740356445312,-1.3341683608344574,-2.5273733774768274,6.114461529045858,1.0187212228775024,-2.4222329298602503
1708443314.2406967,-2.1431403160095215,-1.3342580062201996,-2.5273495356189173,6.114468681603231,1.0187212228775024,-2.422188107167379
1708443314.2426531,-2.1431119441986084,-1.3342290681651612,-2.5273705164538782,6.114457118302145,1.0187575817108154,-2.4222005049334925
1708443314.244656,-2.1430864334106445,-1.334217132335045,-2.5274110476123255,6.114468681603231,1.0186920166015625,-2.422265593205587
1708443314.2466538,-2.1430695056915283,-1.3341684204391022,-2.5274081865893763,6.114464270859518,1.0187495946884155,-2.4222167173968714
1708443314.248659,-2.1430625915527344,-1.3342376214316864,-2.5274036566363733,6.114480960160055,1.0187737941741943,-2.4222524801837366
1708443314.2506795,-2.143094062805176,-1.3342050027898331,-2.5273705164538782,6.114468681603231,1.018766164779663,-2.422191921864645
1708443314.2526584,-2.1430423259735107,-1.334212915306427,-2.527424399052755,6.114440667420187,1.0187321901321411,-2.422191921864645
1708443314.2546709,-2.1431162357330322,-1.3341803413680573,-2.527424399052755,6.114452588349142,1.0187649726867676,-2.422225538884298
1708443314.2566357,-2.1431074142456055,-1.3342332553914567,-2.5273779074298304,6.114459621697225,1.0187321901321411,-2.4222081343280237
1708443314.2586474,-2.1431074142456055,-1.3341845136931916,-2.527379576359884,6.114428746491232,1.0187519788742065,-2.4222243467914026
1708443314.260658,-2.1430907249450684,-1.3342257005027314,-2.5274155775653284,6.114412057190695,1.0187768936157227,-2.4222286383258265
1708443314.2626424,-2.143099546432495,-1.3342333149961014,-2.5273705164538782,6.114452588349142,1.018753170967102,-2.4222374598132532
1708443314.2646582,-2.143087148666382,-1.3342418533614655,-2.527391497288839,6.114461529045858,1.0187726020812988,-2.4221790472613733
1708443314.2666376,-2.14312481880188,-1.334212915306427,-2.5273824373828333,6.11443184593276,1.0187519788742065,-2.4222448507892054
1708443314.2686234,-2.1430864334106445,-1.3342092347196122,-2.5274155775653284,6.114468681603231,1.0187638998031616,-2.4222167173968714
1708443314.270637,-2.1431162357330322,-1.3342006665519257,-2.5273824373828333,6.114477503090658,1.0187519788742065,-2.4222286383258265
1708443314.2726307,-2.143095016479492,-1.3342086535743256,-2.5274110476123255,6.114494311600485,1.018800973892212,-2.422166411076681
1708443314.2746603,-2.143095016479492,-1.3342376214316864,-2.5274277369128626,6.114468681603231,1.018784761428833,-2.4222124258624476
1708443314.2766347,-2.1430580615997314,-1.334217147236206,-2.5274232069598597,6.114476430207052,1.018796682357788,-2.4222005049334925
1708443314.2786243,-2.1430580615997314,-1.334208757882454,-2.527393166218893,6.1144436476524255,1.0188305377960205,-2.422191921864645
1708443314.2806265,-2.1430580615997314,-1.3341845136931916,-2.5274770895587366,6.114455210953512,1.0188175439834595,-2.4222081343280237
1708443314.2826204,-2.1430695056915283,-1.3341718775084992,-2.527458969746725,6.1145046828086755,1.018800973892212,-2.422191921864645
1708443314.2846563,-2.1430740356445312,-1.3342341643622895,-2.5275562445269983,6.1145211336906335,1.0187803506851196,-2.4222005049334925
1708443314.2866323,-2.1430864334106445,-1.3341922026923676,-2.5275161902057093,6.114459621697225,1.0187891721725464,-2.422253672276632
1708443314.288635,-2.1431074142456055,-1.33416003108535,-2.5275281111346644,6.114483940392294,1.0187768936157227,-2.4222124258624476
1708443314.2906477,-2.1431074142456055,-1.3342129302075882,-2.5275519529925745,6.114495861321249,1.0187804698944092,-2.4222448507892054
1708443314.2926433,-2.143078327178955,-1.3342376214316864,-2.5275428930865687,6.114456999092855,1.018740177154541,-2.4222613016711634
1708443314.29464,-2.1430695056915283,-1.3342375618270417,-2.5275309721576136,6.114476430207052,1.0188175439834595,-2.4222243467914026
1708443314.2966328,-2.1430864334106445,-1.3341607463410874,-2.5275474230395716,6.1145092127616785,1.018797755241394,-2.4221788088427942
1708443314.2986262,-2.1430740356445312,-1.3342298728278656,-2.5275147596942347,6.114495861321249,1.0188175439834595,-2.4222286383258265
1708443314.3006456,-2.1430740356445312,-1.3342417490533371,-2.5275264422046106,6.114488351136007,1.0188175439834595,-2.422231976185934
1708443314.3026347,-2.143082857131958,-1.3341649931720276,-2.5274818579303187,6.114495742111959,1.0188096761703491,-2.4222243467914026
1708443314.3046236,-2.143078327178955,-1.3341684204391022,-2.5275562445269983,6.1144704697425745,1.0188262462615967,-2.4222448507892054
1708443314.3066475,-2.1430511474609375,-1.3341972839883347,-2.5275428930865687,6.114500272064962,1.018796682357788,-2.4222124258624476
1708443314.3086395,-2.143082618713379,-1.3342460852912446,-2.5275145212756556,6.114507663040914,1.0188294649124146,-2.4222212473498743
1708443314.310638,-2.1431119441986084,-1.3342257005027314,-2.5275099913226526,6.114486682205953,1.0188337564468384,-2.4222286383258265
1708443314.3126378,-2.1431119441986084,-1.334217132335045,-2.5275474230395716,6.114531862526693,1.0187922716140747,-2.422220055256979
1708443314.3146255,-2.143095016479492,-1.3341930669597168,-2.5275355021106165,6.114573466568746,1.0188294649124146,-2.4221952597247522
1708443314.3167026,-2.1430907249450684,-1.3342376214316864,-2.5275309721576136,6.114511000901022,1.0188294649124146,-2.4222524801837366
1708443314.318646,-2.1430907249450684,-1.3342460256865998,-2.527489248906271,6.114531862526693,1.0188207626342773,-2.422249142323629
1708443314.3206384,-2.1430537700653076,-1.3342536401799698,-2.5275428930865687,6.114576446800985,1.0187879800796509,-2.422269884740011
1708443314.3226464,-2.143082618713379,-1.334193081860878,-2.5275026003467005,6.1145973084266565,1.0188077688217163,-2.4222362677203577
1708443314.324642,-2.143099546432495,-1.3341844987920304,-2.5274861494647425,6.114600288658895,1.018837332725525,-2.4222610632525843
1708443314.3266494,-2.1431119441986084,-1.3342290681651612,-2.5275145212756556,6.114592897682943,1.0188610553741455,-2.422231976185934
1708443314.3286445,-2.143078327178955,-1.3341964346221467,-2.5275071302997034,6.1146137593086145,1.0188243389129639,-2.4222286383258265
1708443314.3306293,-2.143082618713379,-1.334188849931099,-2.5274818579303187,6.114555585175314,1.0188077688217163,-2.4222448507892054
1708443314.3326328,-2.1430423259735107,-1.334212915306427,-2.5275145212756556,6.114592897682943,1.0188491344451904,-2.422183338795797
1708443314.33463,-2.143078327178955,-1.3341314804605027,-2.5275519529925745,6.114621150284567,1.0188653469085693,-2.4222524801837366
1708443314.3366814,-2.1430907249450684,-1.334241808657982,-2.5275726954089563,6.114600288658895,1.0187989473342896,-2.422215763722555
1708443314.3387187,-2.1431031227111816,-1.3342134219459076,-2.5275519529925745,6.114579546242513,1.0187835693359375,-2.4222081343280237
1708443314.3406684,-2.143099546432495,-1.3342014861157914,-2.5275190512286585,6.114607798844137,1.0188243389129639,-2.422195021306173
1708443314.3426585,-2.1430740356445312,-1.3341845136931916,-2.5275190512286585,6.114598738938131,1.0188286304473877,-2.4222081343280237
1708443314.3446336,-2.1431190967559814,-1.3342376214316864,-2.5275235811816614,6.114637958794393,1.0188740491867065,-2.4222405592547815
1708443314.3466628,-2.143103837966919,-1.3342376065305253,-2.5275281111346644,6.1145914671714685,1.0188567638397217,-2.4222038427936
1708443314.3486476,-2.1430625915527344,-1.33421345174823,-2.527489248906271,6.11458848693923,1.0188697576522827,-2.4222405592547815
1708443314.350621,-2.1430537700653076,-1.3342376065305253,-2.5275309721576136,6.114624488144674,1.0188567638397217,-2.4222362677203577
1708443314.3526504,-2.143095016479492,-1.3342417937568207,-2.5275474230395716,6.114629018097677,1.018831729888916,-2.422220055256979
1708443314.3546357,-2.1430907249450684,-1.3342375618270417,-2.5275803248034876,6.114624607353964,1.0188899040222168,-2.422220055256979
1708443314.3566506,-2.1430649757385254,-1.334265576010086,-2.5274980703936976,6.114629018097677,1.0188480615615845,-2.4222610632525843
1708443314.3586648,-2.1430695056915283,-1.3342332404902955,-2.5275638739215296,6.114603268891134,1.018897294998169,-2.4222524801837366
1708443314.3606384,-2.1430695056915283,-1.3342049729875107,-2.5275564829455774,6.114619958191671,1.0188729763031006,-2.4222524801837366
1708443314.3626392,-2.1430907249450684,-1.3342290681651612,-2.5275564829455774,6.114643800049581,1.0188524723052979,-2.4222071806537073
1708443314.3646405,-2.143099546432495,-1.334209219818451,-2.5275474230395716,6.114594328194418,1.0188941955566406,-2.4222233931170862
1708443314.366671,-2.1430816650390625,-1.3342290681651612,-2.5275519529925745,6.114585268288412,1.0188405513763428,-2.422243897114889
1708443314.3686788,-2.143099546432495,-1.3341879707625885,-2.5275071302997034,6.114624488144674,1.0188697576522827,-2.422231976185934
1708443314.3706565,-2.143087148666382,-1.3342002642205735,-2.5275474230395716,6.114627349167623,1.0188610553741455,-2.4222610632525843
1708443314.3726835,-2.1431236267089844,-1.3342418682626267,-2.5275190512286585,6.11468135097579,1.0187946557998657,-2.4222362677203577
1708443314.374628,-2.1431074142456055,-1.3342376214316864,-2.5275190512286585,6.11462281921462,1.018836259841919,-2.422298256550924
1708443314.3766365,-2.1431162357330322,-1.3341479909471055,-2.5275428930865687,6.114639150887289,1.018847942352295,-2.422239605580465
1708443314.3786652,-2.1430740356445312,-1.3342656207135697,-2.5275309721576136,6.114648330002584,1.0188567638397217,-2.422218624745504
1708443314.380646,-2.1430773735046387,-1.334188849931099,-2.5275474230395716,6.114709365158834,1.0188653469085693,-2.422272030507223
1708443314.38264,-2.1430864334106445,-1.3342299324325104,-2.5275593439685267,6.114700305252828,1.0188524723052979,-2.422234837208883
1708443314.3846383,-2.1431074142456055,-1.3341401380351563,-2.527571503316061,6.114693271904745,1.0188567638397217,-2.422220055256979
1708443314.3866405,-2.1431403160095215,-1.3341522079757233,-2.5275219122516077,6.114682423859396,1.0188567638397217,-2.4222686926471155
1708443314.3886337,-2.1430535316467285,-1.3341802817634125,-2.5275383631335657,6.114712583809652,1.0188854932785034,-2.422231976185934
1708443314.3906431,-2.1431074142456055,-1.334209219818451,-2.5275428930865687,6.114695894509115,1.018885612487793,-2.422276322041647
1708443314.3926582,-2.1431190967559814,-1.3342049580863495,-2.5275264422046106,6.114736425667562,1.0188405513763428,-2.422239605580465
1708443314.3946624,-2.1431190967559814,-1.3342214685729523,-2.5275190512286585,6.11471854427413,1.0188405513763428,-2.4222362677203577
1708443314.3966503,-2.1431162357330322,-1.3341921877912064,-2.5275805632220667,6.114739405899801,1.0188686847686768,-2.422276322041647
1708443314.398642,-2.1431031227111816,-1.3341565442136307,-2.5275805632220667,6.114794838219442,1.0188686847686768,-2.422260109578268
1708443314.4006324,-2.143059730529785,-1.3342341643622895,-2.527496639882223,6.1147605059440515,1.0188567638397217,-2.422298018132345
1708443314.4026644,-2.1430695056915283,-1.334204987888672,-2.5275519529925745,6.114760625153341,1.0188899040222168,-2.4222567717181605
1708443314.4046443,-2.143095016479492,-1.334212915306427,-2.5275519529925745,6.114748227387228,1.018885612487793,-2.422239605580465
1708443314.4066436,-2.1430864334106445,-1.334188849931099,-2.5275517145739954,6.11476348617629,1.0188524723052979,-2.4222806135760706
1708443314.408664,-2.143066883087158,-1.3342417937568207,-2.5275383631335657,6.114734875946798,1.01888108253479,-2.422276322041647
1708443314.4106348,-2.143095016479492,-1.334217147236206,-2.5275309721576136,6.114722955017843,1.0189018249511719,-2.4222644011126917
1708443314.4126954,-2.143103837966919,-1.3342176240733643,-2.5275607744800013,6.1147769568260095,1.018885612487793,-2.4222644011126917
1708443314.4146502,-2.1430580615997314,-1.3342571270516892,-2.5274937788592737,6.114756095200338,1.0188524723052979,-2.4222305456744593
1708443314.4166822,-2.1430819034576416,-1.334212915306427,-2.5275071302997034,6.114730345993795,1.0188686847686768,-2.422234837208883
1708443314.4186485,-2.1431236267089844,-1.3342087280801316,-2.5274980703936976,6.114722955017843,1.018847942352295,-2.422255818043844
1708443314.4206553,-2.143127918243408,-1.334131510262825,-2.5275593439685267,6.114760625153341,1.0188524723052979,-2.4222806135760706
1708443314.422646,-2.143127918243408,-1.3342376214316864,-2.5275235811816614,6.114769565850057,1.0188941955566406,-2.4222849051104944
1708443314.4246557,-2.1430907249450684,-1.3341964346221467,-2.5275400320636194,6.114739405899801,1.0188641548156738,-2.422272030507223
1708443314.426657,-2.1430985927581787,-1.3342375767282029,-2.5275355021106165,6.114702093392172,1.0188729763031006,-2.422314469014303
1708443314.4286613,-2.1431190967559814,-1.3341802668622513,-2.5275190512286585,6.114714014321127,1.018847942352295,-2.422310177479879
1708443314.4306555,-2.1430864334106445,-1.3342375767282029,-2.527505699788229,6.114742624550619,1.0188772678375244,-2.422267262135641
1708443314.4326806,-2.1431360244750977,-1.3342290681651612,-2.5275519529925745,6.1147814867790125,1.0188641548156738,-2.4222305456744593
1708443314.4346616,-2.1431312561035156,-1.3342134368470688,-2.5275099913226526,6.114723074227133,1.0187783241271973,-2.422255818043844
1708443314.4366913,-2.1430537700653076,-1.334241808657982,-2.5275219122516077,6.114702093392172,1.0188729763031006,-2.422251049672262
1708443314.4387147,-2.1430740356445312,-1.3341972392848511,-2.5275519529925745,6.114723074227133,1.0188524723052979,-2.4222939650165003
1708443314.4406722,-2.1430606842041016,-1.334212915306427,-2.5275607744800013,6.114727484970846,1.018843650817871,-2.422255818043844
1708443314.4426482,-2.1430740356445312,-1.334217683678009,-2.527505699788229,6.114715564041891,1.0188610553741455,-2.4222806135760706
1708443314.4446628,-2.143126964569092,-1.3342290681651612,-2.527505699788229,6.114772546082296,1.0188524723052979,-2.4222806135760706
1708443314.446656,-2.1431233882904053,-1.334196389918663,-2.5275400320636194,6.114732014923849,1.0188567638397217,-2.422310177479879
1708443314.4486496,-2.1430649757385254,-1.3342257005027314,-2.527505699788229,6.114688741951742,1.0188610553741455,-2.422272030507223
1708443314.4506478,-2.143127918243408,-1.3341887903264542,-2.5275474230395716,6.114760625153341,1.018815517425537,-2.4222849051104944
1708443314.4526618,-2.143078327178955,-1.3342006665519257,-2.5275562445269983,6.114751565247335,1.0188610553741455,-2.422251049672262
1708443314.4546506,-2.1431236267089844,-1.3341922175935288,-2.5275355021106165,6.114756095200338,1.0188729763031006,-2.422326389943258
1708443314.456645,-2.1431074142456055,-1.334245265727379,-2.5275219122516077,6.114767896920004,1.0188899040222168,-2.4223058859454554
1708443314.458667,-2.1431312561035156,-1.3342092347196122,-2.5275562445269983,6.114756095200338,1.018836259841919,-2.4222849051104944
1708443314.4606516,-2.143078327178955,-1.3342494529536744,-2.5275190512286585,6.114788877754965,1.0188524723052979,-2.4222849051104944
1708443314.462646,-2.1431100368499756,-1.334168405537941,-2.5274773279773157,6.114721405297079,1.018847942352295,-2.4222686926471155
1708443314.4646451,-2.1431615352630615,-1.3342006516507645,-2.5275893847094935,6.114768016129293,1.0188686847686768,-2.4223087469684046
1708443314.4666593,-2.1430816650390625,-1.3341718924096604,-2.527489248906271,6.114714014321127,1.018847942352295,-2.4222925345050257
1708443314.4686546,-2.1431190967559814,-1.334217147236206,-2.5275235811816614,6.114779817848959,1.0188899040222168,-2.422255818043844
1708443314.470669,-2.1430864334106445,-1.334225670700409,-2.5275474230395716,6.114730345993795,1.01888108253479,-2.4223292509662073
1708443314.4726694,-2.143127918243408,-1.334147961144783,-2.5275309721576136,6.114805328636923,1.0188729763031006,-2.4223173300372522
1708443314.4746423,-2.1430985927581787,-1.33421345174823,-2.5275309721576136,6.114772546082296,1.0188448429107666,-2.422243897114889
1708443314.4766493,-2.1430490016937256,-1.334180326466896,-2.5275638739215296,6.114734875946798,1.018831729888916,-2.422246758137838
1708443314.4786518,-2.1430907249450684,-1.334209219818451,-2.5275562445269983,6.1147769568260095,1.0188899040222168,-2.4222896734820765
1708443314.4806476,-2.1430907249450684,-1.3342290681651612,-2.5275145212756556,6.114788877754965,1.0188567638397217,-2.4222644011126917
1708443314.4826488,-2.1431074142456055,-1.3342134219459076,-2.5275026003467005,6.114730465203085,1.0188610553741455,-2.4222729841815394
1708443314.4846592,-2.1430864334106445,-1.3341802817634125,-2.5275562445269983,6.1147382138069055,1.0188860893249512,-2.422243897114889
1708443314.4866338,-2.1430695056915283,-1.3342006665519257,-2.5275116602527063,6.114756095200338,1.018803358078003,-2.422246758137838
1708443314.4886758,-2.143078327178955,-1.3342129302075882,-2.5274980703936976,6.114809739380636,1.0188610553741455,-2.4222806135760706
1708443314.4906545,-2.1431403160095215,-1.334204987888672,-2.5275264422046106,6.114747154503622,1.0188815593719482,-2.4222038427936
1708443314.4926562,-2.1431190967559814,-1.3341931414655228,-2.5274980703936976,6.114688741951742,1.0188729763031006,-2.422199551259176
1708443314.494647,-2.1431190967559814,-1.3342092347196122,-2.5275145212756556,6.114723074227133,1.0189104080200195,-2.4222686926471155
1708443314.4966495,-2.1431190967559814,-1.3342418533614655,-2.5275355021106165,6.114751565247335,1.0188610553741455,-2.4222729841815394
1708443314.498645,-2.1430649757385254,-1.3342494380525132,-2.5275190512286585,6.114752757340231,1.0188405513763428,-2.422220055256979
1708443314.500673,-2.1430773735046387,-1.3342409890941163,-2.5274692217456263,6.11471842506484,1.01888108253479,-2.4222124258624476
1708443314.5026448,-2.143095016479492,-1.334212915306427,-2.5275145212756556,6.114722955017843,1.0188859701156616,-2.4222081343280237
1708443314.5046709,-2.1431119441986084,-1.3342248064330597,-2.5275474230395716,6.114706623345175,1.0188610553741455,-2.4222005049334925
1708443314.5066648,-2.1431448459625244,-1.3341973584941407,-2.5274692217456263,6.114797818451681,1.01888108253479,-2.422180477772848
1708443314.5086708,-2.1430907249450684,-1.334180326466896,-2.5275190512286585,6.114709603577413,1.0188941955566406,-2.422184769307272
1708443314.5106502,-2.1431448459625244,-1.3341922026923676,-2.5275145212756556,6.11476348617629,1.0188287496566772,-2.422156635914938
1708443314.512649,-2.143127918243408,-1.334164099102356,-2.5274952093707483,6.114768016129293,1.018843650817871,-2.422062698994772
1708443314.5146663,-2.1430740356445312,-1.3342086684754868,-2.5275026003467005,6.114779937058248,1.0188524723052979,-2.422074858342306
1708443314.5167012,-2.143122434616089,-1.334176943903305,-2.5274997393237513,6.114756095200338,1.018770694732666,-2.422063414250509
1708443314.5186443,-2.1430816650390625,-1.3341930520585557,-2.5275026003467005,6.114706742554464,1.0188610553741455,-2.422039810811178
1708443314.520667,-2.1430773735046387,-1.3341930669597168,-2.5274861494647425,6.114743816643514,1.0188567638397217,-2.4219916502581995
1708443314.522707,-2.143094062805176,-1.334200696354248,-2.527489248906271,6.114702093392172,1.0188120603561401,-2.4219427744494837
1708443314.5246434,-2.143127918243408,-1.3341565889171143,-2.5275474230395716,6.114777076035299,1.0187914371490479,-2.421936337147848
1708443314.526674,-2.1431491374969482,-1.33422143877063,-2.5275264422046106,6.114706742554464,1.0188077688217163,-2.4218762556659144
1708443314.528638,-2.1430740356445312,-1.3341964793256302,-2.5274906794177454,6.114742624550619,1.018816351890564,-2.4218226114856165
1708443314.5306475,-2.1430740356445312,-1.3341853481582184,-2.5275099913226526,6.114817130356588,1.018846035003662,-2.4218037764178675
1708443314.5326357,-2.1430740356445312,-1.3342134219459076,-2.5274952093707483,6.114797818451681,1.0187879800796509,-2.4217429796801966
1708443314.5346448,-2.1430816650390625,-1.3342171770385285,-2.5275636355029505,6.114756095200338,1.018771767616272,-2.421682898198263
1708443314.5366364,-2.143094062805176,-1.3342257303050538,-2.5275190512286585,6.114751684456625,1.0188207626342773,-2.421638313923971
1708443314.538729,-2.143033266067505,-1.334225670700409,-2.5275235811816614,6.114751565247335,1.018796682357788,-2.4215553442584437
1708443314.5406697,-2.143136739730835,-1.3342417639544983,-2.5275026003467005,6.114736425667562,1.0187835693359375,-2.421445671712057
1708443314.542636,-2.1430695056915283,-1.3342050027898331,-2.527478281651632,6.114706623345175,1.0187551975250244,-2.421427075062887
1708443314.5446439,-2.143094062805176,-1.3341726821712037,-2.5275161902057093,6.114703643112936,1.018800973892212,-2.4213343302356165
1708443314.546637,-2.1430537700653076,-1.3342418235591431,-2.5275400320636194,6.114690291672506,1.0188053846359253,-2.421241823826925
1708443314.5486212,-2.1430864334106445,-1.3342092347196122,-2.5274997393237513,6.114684331208029,1.0187891721725464,-2.4211822191821497
1708443314.550631,-2.1431527137756348,-1.3342376214316864,-2.5275161902057093,6.114712583809652,1.0187681913375854,-2.4210339228259485
1708443314.552659,-2.1431190967559814,-1.334193081860878,-2.5275161902057093,6.114654409676351,1.0187681913375854,-2.4209652582751673
1708443314.5546505,-2.1430773735046387,-1.3342129302075882,-2.52747089067568,6.114630329399862,1.0187681913375854,-2.4208408037768763
1708443314.5566478,-2.1430985927581787,-1.3341442060521622,-2.527457300816671,6.114642607956686,1.018753170967102,-2.420724932347433
1708443314.5586684,-2.1431119441986084,-1.3341761243394394,-2.527478281651632,6.114688741951742,1.018720030784607,-2.4206462542163294
1708443314.5606797,-2.143082618713379,-1.3341761094382782,-2.527504269276754,6.114601957588949,1.0187156200408936,-2.4205735365497034
1708443314.562642,-2.1431162357330322,-1.334233285193779,-2.527466360722677,6.114640939026632,1.018753170967102,-2.420347277318136
1708443314.5646539,-2.1430623531341553,-1.3342257154038926,-2.52747089067568,6.114595877915182,1.0187410116195679,-2.4202728907214563
1708443314.566645,-2.143066883087158,-1.334241808657982,-2.5274906794177454,6.1145421145255945,1.018703818321228,-2.420218054448263
1708443314.5686681,-2.143099546432495,-1.3342134815505524,-2.527457300816671,6.114513861923971,1.0187005996704102,-2.4200971762286585
1708443314.5706666,-2.1430580615997314,-1.3342214536717911,-2.527487341557638,6.114503133087911,1.0186430215835571,-2.419908587132589
1708443314.5726645,-2.1430864334106445,-1.334241808657982,-2.527487341557638,6.11452733257369,1.0187135934829712,-2.4197524229632776
1708443314.5746677,-2.143132448196411,-1.3341485422900696,-2.5274961630450647,6.114537822991171,1.0186560153961182,-2.4196203390704554
1708443314.576642,-2.143095016479492,-1.3342418682626267,-2.52743369737734,6.114512192993917,1.018676519393921,-2.4194520155536097
1708443314.5786629,-2.1431162357330322,-1.3341853481582184,-2.527454439793722,6.114467489510336,1.0186240673065186,-2.4192147890674036
1708443314.5806482,-2.1430625915527344,-1.3341853630593796,-2.527478281651632,6.114439236908712,1.0186240673065186,-2.4191041628467005
1708443314.582647,-2.1430625915527344,-1.334225670700409,-2.527479950581686,6.1144378063972376,1.0186240673065186,-2.41888672510256
1708443314.584651,-2.1430907249450684,-1.3341888648322602,-2.527458969746725,6.114401805191793,1.0186002254486084,-2.4187474886523646
1708443314.5866573,-2.143132448196411,-1.3341853630593796,-2.527454439793722,6.114355075150289,1.0186251401901245,-2.418551031743185
1708443314.5886664,-2.143066883087158,-1.334172711973526,-2.5275006929980677,6.114427077561178,1.0185757875442505,-2.4183293024646204
1708443314.5906234,-2.143066883087158,-1.3341768991998215,-2.527421538029806,6.114311921387472,1.0185879468917847,-2.418150250111715
1708443314.592638,-2.143103837966919,-1.3341972839883347,-2.5274351278888147,6.114316451340475,1.0185757875442505,-2.418007198964254
1708443314.5946827,-2.1430864334106445,-1.3341570657542725,-2.5274396578418177,6.1142804501350305,1.0185682773590088,-2.417802158986227
1708443314.596654,-2.1430740356445312,-1.3341412407210846,-2.5274396578418177,6.114268529206075,1.018576979637146,-2.417574469243185
1708443314.5986426,-2.1430580615997314,-1.3341369789889832,-2.5273900667773646,6.114199983864584,1.0185691118240356,-2.4173210302936
1708443314.600656,-2.1430511474609375,-1.334142030482628,-2.527346436177389,6.114216434746542,1.0185160636901855,-2.4170551935779017
1708443314.6026454,-2.1430740356445312,-1.3341654402068635,-2.527329985295431,6.114237057953634,1.01853346824646,-2.4168434778796595
1708443314.604636,-2.143082618713379,-1.334121288066246,-2.527358595524923,6.114196646004476,1.018484115600586,-2.4165945688830774
1708443314.6066358,-2.143078327178955,-1.33411359906707,-2.5273600260363978,6.11413990238265,1.018467903137207,-2.4163270632373255
1708443314.608645,-2.143035411834717,-1.3340728294900437,-2.5273104349719446,6.11411606052474,1.0184884071350098,-2.4160829226123255
1708443314.6106265,-2.1430270671844482,-1.3340648722699662,-2.5272985140429896,6.11411343792037,1.0184884071350098,-2.4157806078540247
1708443314.612635,-2.1430554389953613,-1.3340813231519242,-2.5273059050189417,6.114072906761923,1.0184394121170044,-2.415509287511007
1708443314.6146393,-2.143014669418335,-1.3340564233115693,-2.5272911230670374,6.114032375603475,1.018431544303894,-2.4152403513537806
1708443314.616629,-2.143010139465332,-1.3340690594962616,-2.5272493998156946,6.114069926529684,1.0184074640274048,-2.4149606863604944
1708443314.6186392,-2.143031597137451,-1.3340733808330079,-2.5272865931140345,6.114047276764669,1.0183912515640259,-2.414684597645895
1708443314.6206465,-2.1429953575134277,-1.3340932440808793,-2.52733284631838,6.113969552307882,1.018416166305542,-2.4143479506122034
1708443314.6226625,-2.142986536026001,-1.3340940934470673,-2.5272672812091272,6.113948571472921,1.0184085369110107,-2.4140360991107386
1708443314.6246753,-2.1429953575134277,-1.334101678138115,-2.5272837320910853,6.113954770355978,1.0183675289154053,-2.4137640635119837
1708443314.6266568,-2.1430280208587646,-1.3340656918338318,-2.5272792021380823,6.113897907524862,1.018372654914856,-2.413410250340597
1708443314.6286302,-2.143003463745117,-1.3341102314046402,-2.527254883443014,6.113900649338522,1.018338680267334,-2.4131110350238245
1708443314.6306236,-2.142962694168091,-1.334041104917862,-2.527259413396017,6.113862144737997,1.0182952880859375,-2.4127453009234827
1708443314.632661,-2.1429996490478516,-1.3340495389750977,-2.527196709309713,6.113854634552755,1.0183027982711792,-2.4123697916613978
1708443314.6346314,-2.14298939704895,-1.3340656918338318,-2.527210060750143,6.113859164505758,1.0183038711547852,-2.4120169321643274
1708443314.6366432,-2.142951250076294,-1.3340240579894562,-2.527297321950094,6.113818633347311,1.0182790756225586,-2.411701742802755
1708443314.63873,-2.1429193019866943,-1.334065706734993,-2.5272117296801966,6.113791811257162,1.0182838439941406,-2.4112816492663782
1708443314.640659,-2.1429803371429443,-1.3340252798846741,-2.5271862188922327,6.113709556847372,1.0182514190673828,-2.4108553568469446
1708443314.642634,-2.1429309844970703,-1.334041104917862,-2.5272026697741907,6.11364113071517,1.018227219581604,-2.4105492273913782
1708443314.6446486,-2.142902374267578,-1.3340982806733628,-2.5271952787982386,6.113663422852316,1.0182067155838013,-2.4101279417621058
1708443314.6466703,-2.1429193019866943,-1.3340495389750977,-2.5271573702441614,6.113639342575826,1.0182197093963623,-2.409625832234518
1708443314.6486475,-2.1428980827331543,-1.3340818297914048,-2.5271785894977015,6.113594281464376,1.0182000398635864,-2.409217898045675
1708443314.650669,-2.142939805984497,-1.3340818148902436,-2.527180020009176,6.113567459374227,1.0181430578231812,-2.4087892214404505
1708443314.6526642,-2.142894744873047,-1.3340495389750977,-2.5272043387042444,6.113531815796652,1.018192172050476,-2.408387009297506
1708443314.654642,-2.1428744792938232,-1.3340495389750977,-2.527159039174215,6.113503205567159,1.0181221961975098,-2.407872740422384
1708443314.656639,-2.142915725708008,-1.3340337139419098,-2.527175490056173,6.113471734314718,1.0181190967559814,-2.407482687626974
1708443314.6586363,-2.142876148223877,-1.3340536963990708,-2.527163569127218,6.11345528343276,1.0181320905685425,-2.4069798628436487
1708443314.6606286,-2.142829418182373,-1.334033728843071,-2.527106587086813,6.113461720734396,1.0181235074996948,-2.4065452257739466
1708443314.662681,-2.1428849697113037,-1.3340294522098084,-2.52710205713381,6.113341796189108,1.0181035995483398,-2.4061127344714563
1708443314.664663,-2.142854928970337,-1.3340213906816025,-2.5270779768573206,6.113389479904928,1.0180916786193848,-2.4056132475482386
1708443314.6666586,-2.1428558826446533,-1.3340171587518235,-2.5271111170398157,6.113356816559591,1.0180141925811768,-2.4051416555987757
1708443314.668692,-2.1428604125976562,-1.3339975786260148,-2.5270870367633265,6.113287913590231,1.0180392265319824,-2.4045797030078333
1708443314.6706557,-2.142822027206421,-1.3340508353761216,-2.5270944277392786,6.113205659180441,1.0179945230484009,-2.404064957295553
1708443314.6726642,-2.1428353786468506,-1.3340137761882325,-2.5270825068103235,6.113251912384786,1.017974853515625,-2.403515879307882
1708443314.6746392,-2.1428275108337402,-1.334038497214653,-2.5270541349994105,6.113178956299581,1.017953872680664,-2.4029832522021692
1708443314.6766458,-2.1428470611572266,-1.333994300370552,-2.5271156469928187,6.113132583885946,1.0178970098495483,-2.4024718443499964
1708443314.6786919,-2.1427791118621826,-1.3339777749827881,-2.5271292368518274,6.113120662956991,1.0179142951965332,-2.4019394556628626
1708443314.6806662,-2.142807960510254,-1.3339572262815018,-2.5270467440234583,6.113136994629659,1.0179188251495361,-2.401375118886129
1708443314.6826477,-2.14280104637146,-1.3339813959649582,-2.527055803929464,6.113030898361959,1.0178743600845337,-2.4008172194110315
1708443314.6846392,-2.1427478790283203,-1.3339734089425583,-2.527072254811422,6.113081919937887,1.0178579092025757,-2.400245730076925
1708443314.686646,-2.1427268981933594,-1.3339582991651078,-2.5270260016070765,6.113011109619894,1.017879605293274,-2.3997064272509974
1708443314.6886415,-2.1427109241485596,-1.3339744818261643,-2.5270031134234827,6.112933742790975,1.0178502798080444,-2.3990898768054407
1708443314.6906464,-2.1427040100097656,-1.3339496713927765,-2.526973311101095,6.112965214043417,1.017863392829895,-2.398473087941305
1708443314.6926477,-2.1426501274108887,-1.3339010936072846,-2.5270076433764856,6.112926232605734,1.017773985862732,-2.397904698048727
1708443314.6946692,-2.142728567123413,-1.3339459610036393,-2.5269747416125696,6.112930643349447,1.0178065299987793,-2.397296969090597
1708443314.6966426,-2.1427135467529297,-1.3339787286571045,-2.5269416014300745,6.112883078842916,1.0177748203277588,-2.396716896687643
1708443314.6986566,-2.142639398574829,-1.3339459759048005,-2.526938501988546,6.1128424284751794,1.0177626609802246,-2.396087948475973
1708443314.7006297,-2.1426808834075928,-1.3339582991651078,-2.5269506613360804,6.112814175873556,1.0177092552185059,-2.395484511052267
1708443314.7026405,-2.142606735229492,-1.3339331311038514,-2.526938501988546,6.112749683647909,1.0177266597747803,-2.3948233763324183
1708443314.7046425,-2.142656087875366,-1.3339096915772934,-2.526881519948141,6.11270962932662,1.017730951309204,-2.394235674534933
1708443314.706633,-2.1426525115966797,-1.3339786541512986,-2.5269401709186,6.112617003708639,1.0176985263824463,-2.3935840765582483
1708443314.7086477,-2.1426782608032227,-1.3339417737773438,-2.526914660130636,6.112622725754537,1.0176784992218018,-2.3929100672351282
1708443314.7106287,-2.142608642578125,-1.3339871925166626,-2.5269208590136927,6.112540352135458,1.0176665782928467,-2.392357889805929
1708443314.7126667,-2.1426446437835693,-1.3339582991651078,-2.526803795491354,6.112518059998312,1.0176218748092651,-2.3916662375079554
1708443314.7146447,-2.1426331996917725,-1.333950237636902,-2.5268831888781946,6.112498867302694,1.0176184177398682,-2.391059700642721
1708443314.7166338,-2.142612934112549,-1.3339786988547822,-2.526835266743795,6.112479197769918,1.0176022052764893,-2.3904715220080774
1708443314.718655,-2.1426260471343994,-1.333953933124878,-2.526856247578756,6.112471806793966,1.0176109075546265,-2.389867369328634
1708443314.7206578,-2.1425678730010986,-1.3339310598424454,-2.5268681685077112,6.112358081131735,1.0175539255142212,-2.389212433491842
1708443314.722664,-2.142592668533325,-1.3338940900615235,-2.52682334581484,6.112350809365072,1.0175461769104004,-2.388566557561056
1708443314.724654,-2.142538547515869,-1.3339225065759202,-2.526802364979879,6.112280595093527,1.017525553703308,-2.3879054228412073
1708443314.7266562,-2.1425838470458984,-1.33391389370475,-2.526806894932882,6.112341987877645,1.017510175704956,-2.387275282536642
1708443314.7286477,-2.1426050662994385,-1.3338811856559296,-2.526815954838888,6.112313377648153,1.0174733400344849,-2.3865535894977015
1708443314.7306497,-2.142534017562866,-1.3338455122760315,-2.52675706544985,6.112259375839987,1.0175113677978516,-2.3859489599811
1708443314.7326481,-2.1425857543945312,-1.3338702035001297,-2.5267542044269007,6.11220275142745,1.0174381732940674,-2.385261360798971
1708443314.7346253,-2.142544746398926,-1.3339026433280488,-2.5267542044269007,6.112141239434042,1.0174262523651123,-2.384580675755636
1708443314.7366385,-2.142540454864502,-1.3339234304479142,-2.5267093817340296,6.112180459290304,1.0174140930175781,-2.38391358057131
1708443314.738732,-2.1425492763519287,-1.3338497293046494,-2.5267513434039515,6.112128007202902,1.0173484086990356,-2.383188788090841
1708443314.7406576,-2.1424546241760254,-1.3338299703649064,-2.5267391840564173,6.112075555115499,1.0173702239990234,-2.3825207392321985
1708443314.742652,-2.1424546241760254,-1.333849774008133,-2.5268052260028284,6.11207269409255,1.0173046588897705,-2.381799046193258
1708443314.7446675,-2.1424062252044678,-1.3338583272746583,-2.5267182032214563,6.112039911537924,1.0173089504241943,-2.3811453024493616
1708443314.7466438,-2.1423661708831787,-1.333846167927124,-2.526706043873922,6.111975657730856,1.0172655582427979,-2.3804078737842005
1708443314.748638,-2.1424202919006348,-1.3338632893613358,-2.5267391840564173,6.111989009171285,1.0172524452209473,-2.3797486464129847
1708443314.7506342,-2.1424450874328613,-1.3338583570769806,-2.526731793080465,6.111981498986044,1.0172698497772217,-2.379040066395895
1708443314.7526643,-2.142393112182617,-1.3338299703649064,-2.526694122944967,6.111941087036886,1.0172011852264404,-2.3783438841449183
1708443314.7546365,-2.142393112182617,-1.3338149946979065,-2.526694122944967,6.111900436669149,1.0172010660171509,-2.3776100317584437
1708443314.7566411,-2.1424458026885986,-1.333782286649086,-2.526691261922018,6.1118483422096155,1.0171561241149902,-2.37691837946047
1708443314.7586417,-2.1423726081848145,-1.3337607395699997,-2.526695791875021,6.111819970398702,1.0172019004821777,-2.376137081776754
1708443314.7606692,-2.1423611640930176,-1.3337779206088562,-2.5266581217395228,6.111817109375753,1.0171822309494019,-2.37543756166567
1708443314.762686,-2.1423487663269043,-1.333794118171074,-2.526712242756979,6.111752855568685,1.0171494483947754,-2.3746891657458704
1708443314.7646496,-2.1423768997192383,-1.333758444791176,-2.5266462008105677,6.1117498753364465,1.0171170234680176,-2.374026123677389
1708443314.7666452,-2.1423134803771973,-1.3337455105832596,-2.5266101996051233,6.111718404084005,1.017104983329773,-2.373293701802389
1708443314.7686505,-2.1423275470733643,-1.3337333512357255,-2.526602808629171,6.111668813019552,1.0171136856079102,-2.372511688862936
1708443314.7706816,-2.142361879348755,-1.3337461960366745,-2.5266147295581263,6.11165879943923,1.017068862915039,-2.371774975453512
1708443314.7726328,-2.14229679107666,-1.3337257516435166,-2.526644770299093,6.111568677216329,1.0170314311981201,-2.3710764090167444
1708443314.774675,-2.142361879348755,-1.3337627065232773,-2.526569668446676,6.111573207169332,1.0170525312423706,-2.370328489934103
1708443314.7766287,-2.142317771911621,-1.333689109688141,-2.526590887700216,6.111500131874838,1.017008662223816,-2.36961800256838
1708443314.7786357,-2.1422886848449707,-1.3338156950524827,-2.526599947606222,6.111551272660055,1.0170787572860718,-2.368923012410299
1708443314.7806811,-2.14229679107666,-1.3337386411479493,-2.5265546480761927,6.111461269646444,1.0170007944107056,-2.368108336125509
1708443314.7826643,-2.142261505126953,-1.3337105226567765,-2.526562039052145,6.111446010857382,1.017005205154419,-2.367387358342306
1708443314.7846818,-2.142305612564087,-1.3336975884488602,-2.5265546480761927,6.111393916397848,1.017001986503601,-2.3666473070727747
1708443314.7866337,-2.1422841548919678,-1.333754838710167,-2.5265472571002405,6.111344802170553,1.016977071762085,-2.365950409566061
1708443314.788632,-2.1422278881073,-1.333694265489914,-2.5265324751483362,6.111358272820272,1.0169451236724854,-2.3652451674090784
1708443314.7906601,-2.1422746181488037,-1.3337138307145615,-2.5265727678882044,6.111294019013204,1.016909122467041,-2.3644126097308558
1708443314.7926362,-2.1422410011291504,-1.3337267351201554,-2.5264902750598353,6.111286508827963,1.0169004201889038,-2.363680903111593
1708443314.7946708,-2.1422367095947266,-1.333763377075531,-2.526515785847799,6.111323821335592,1.0168886184692383,-2.362934652959005
1708443314.7966833,-2.1422338485717773,-1.3337190610221406,-2.5265188852893274,6.111245858460226,1.0168806314468384,-2.3622077147113245
1708443314.7986398,-2.142195701599121,-1.3336771142533799,-2.526515785847799,6.111231195717611,1.0168640613555908,-2.3614161650287073
1708443314.8006487,-2.1422314643859863,-1.3337028634599228,-2.526503864918844,6.111169922142782,1.016816258430481,-2.3607688585864466
1708443314.8026495,-2.14219331741333,-1.3337071549943467,-2.52649170557131,6.111154782563009,1.016816258430481,-2.3599496523486536
1708443314.8046582,-2.142200231552124,-1.3336866807988663,-2.526442352925436,6.111163842469015,1.016800880432129,-2.359262530003683
1708443314.8066535,-2.142165184020996,-1.333690957432129,-2.5264843145953577,6.111106979637899,1.0167800188064575,-2.3585692087756556
1708443314.808648,-2.142194986343384,-1.3336952340653916,-2.5264228026019495,6.111153113632955,1.0167930126190186,-2.357868496571676
1708443314.8106508,-2.142132520675659,-1.33366251111541,-2.5264347235309046,6.11108015754775,1.0167399644851685,-2.357133452092306
1708443314.812653,-2.142164945602417,-1.333690957432129,-2.5264139811145228,6.111024844437399,1.0167274475097656,-2.3564327398883265
1708443314.8146667,-2.142117500305176,-1.3336952340653916,-2.5264301935779017,6.110999452858724,1.01674485206604,-2.3557005564319056
1708443314.8166535,-2.1421003341674805,-1.3336344820312043,-2.5264106432544153,6.111008393555441,1.016732931137085,-2.3550151030169886
1708443314.8186417,-2.142117500305176,-1.3336354804090043,-2.5264437834369105,6.1109890816505334,1.016704797744751,-2.3542829195605677
1708443314.8206487,-2.1421308517456055,-1.3336796772531052,-2.5264106432544153,6.110944020539083,1.0166926383972168,-2.353554073964254
1708443314.82264,-2.1420767307281494,-1.3336146038821717,-2.5263822714435022,6.1108752367790125,1.0166882276535034,-2.3528781572925013
1708443314.8246417,-2.142064332962036,-1.3336473119309922,-2.526362959538595,6.110872614174642,1.0166969299316406,-2.3521249930011194
1708443314.826644,-2.142094373703003,-1.3336231422475358,-2.5263822714435022,6.1108906147773645,1.0166610479354858,-2.3514958063708704
1708443314.8286653,-2.142066240310669,-1.3336439591697236,-2.5263658205615442,6.110877024918356,1.016669750213623,-2.350765053425924
1708443314.8306391,-2.142033338546753,-1.3336274039796372,-2.526391331349508,6.110791432648458,1.016653060913086,-2.350028101597921
1708443314.8326817,-2.142054557800293,-1.3336145889810105,-2.526419703160421,6.110781180649557,1.0165886878967285,-2.3493576685534876
1708443314.8346584,-2.1420459747314453,-1.3336189550212403,-2.52637488046755,6.110823023110189,1.0165799856185913,-2.3485921064959925
1708443314.836668,-2.1420209407806396,-1.3336317104152222,-2.526362959538595,6.1107332585151575,1.0165364742279053,-2.347853962575094
1708443314.8387024,-2.1419761180877686,-1.3335791689208527,-2.5263553301440638,6.11071394661025,1.016593098640442,-2.3471744696246546
1708443314.8406801,-2.142000675201416,-1.3336231422475358,-2.5263341108905237,6.110684025078573,1.016515851020813,-2.3464906851397913
1708443314.8426638,-2.141947031021118,-1.3336396527341385,-2.5263477007495325,6.110661494522848,1.0165364742279053,-2.3457685152636927
1708443314.844655,-2.1420140266418457,-1.3336231422475358,-2.5263312498675745,6.110677945404806,1.016512155532837,-2.345116202031271
1708443314.846656,-2.1420254707336426,-1.3336189550212403,-2.5263057390796106,6.110579478531637,1.0165033340454102,-2.344402853642599
1708443314.8486419,-2.1420555114746094,-1.3336030852845688,-2.5263312498675745,6.110552298813619,1.016484022140503,-2.3437252680407923
1708443314.8506665,-2.1420023441314697,-1.3336072725108643,-2.5262983481036585,6.110491263657369,1.0164721012115479,-2.343069140111105
1708443314.852645,-2.141998052597046,-1.3336115342429657,-2.5263357798205774,6.110558140068807,1.0164763927459717,-2.342368189488546
1708443314.854649,-2.141932725906372,-1.3335910749486466,-2.526337210332052,6.110534536629476,1.0164512395858765,-2.341670815144674
1708443314.856651,-2.141970634460449,-1.3335834306529541,-2.5262954870807093,6.11044322231368,1.016497015953064,-2.3410301844226282
1708443314.8586712,-2.1419167518615723,-1.3336360317519684,-2.5263119379626673,6.110473263054647,1.0164436101913452,-2.3403664270984095
1708443314.8606374,-2.1419034004211426,-1.3335464310697098,-2.526287857686178,6.1104445336158655,1.016444444656372,-2.339710060750143
1708443314.862692,-2.141953945159912,-1.3335755330375214,-2.52627140680422,6.110455024033346,1.0164567232131958,-2.339020554219381
1708443314.8646348,-2.1419167518615723,-1.3336244833520432,-2.5262637774096888,6.110398518830099,1.0164488554000854,-2.338306252156393
1708443314.8666413,-2.141963005065918,-1.3336158257773896,-2.5262413660632532,6.110386597901144,1.0164282321929932,-2.3377237955676478
1708443314.8686645,-2.1419131755828857,-1.3335834306529541,-2.526233975087301,6.11039565780715,1.0163911581039429,-2.3370054403888147
1708443314.8706577,-2.141934394836426,-1.3335834306529541,-2.526242796574728,6.1103625176246545,1.016371250152588,-2.3363683859454554
1708443314.8726363,-2.141913414001465,-1.3335963499597092,-2.5262473265277308,6.110379326134481,1.016363501548767,-2.3356788794146937
1708443314.8746355,-2.1419010162353516,-1.333600715999939,-2.5262473265277308,6.1103341458137415,1.016387939453125,-2.3350792566882532
1708443314.8766634,-2.1419007778167725,-1.3335669201663514,-2.5262518564807337,6.110383736878195,1.0163800716400146,-2.334437672291891
1708443314.8786476,-2.141857862472534,-1.333587796693184,-2.526242796574728,6.110330927162924,1.0163384675979614,-2.3337724844561976
1708443314.8806565,-2.1418752670288086,-1.3335266423276444,-2.5262609163867396,6.110310303955831,1.0163756608963013,-2.33313233057131
1708443314.8826416,-2.141902446746826,-1.3335431677154084,-2.526254717503683,6.11027883270339,1.0163887739181519,-2.332475010548727
1708443314.8846495,-2.141846179962158,-1.333584190612175,-2.5262234846698206,6.1102250693138025,1.0163764953613281,-2.331817928944723
1708443314.886639,-2.141845464706421,-1.3335963499597092,-2.5262725988971155,6.110229599266805,1.0164302587509155,-2.3311856428729456
1708443314.888678,-2.1418416500091553,-1.3335636270097275,-2.5262234846698206,6.110246050148763,1.0163484811782837,-2.3305204550372522
1708443314.8906262,-2.1418585777282715,-1.3335603189519425,-2.5262189547168177,6.110243069916525,1.0163602828979492,-2.3298986593829554
1708443314.892652,-2.1418304443359375,-1.3335474294475098,-2.5262022654162806,6.110293853073873,1.0163319110870361,-2.3293195406543177
1708443314.8946345,-2.1418099403381348,-1.3335352700999756,-2.5262022654162806,6.1101698754127405,1.0163242816925049,-2.328742806111471
1708443314.8966727,-2.1418135166168213,-1.3335352700999756,-2.5261977354632776,6.110239851265707,1.0162959098815918,-2.328113857899801
1708443314.898631,-2.1418099403381348,-1.3335028749755402,-2.5261572043048304,6.110171305924215,1.0162872076034546,-2.3275533358203333
1708443314.9006774,-2.141805648803711,-1.3334747415832062,-2.5262189547168177,6.110216367035665,1.0162749290466309,-2.3269479910479944
1708443314.9026535,-2.1417782306671143,-1.3335233491710206,-2.5262113253222864,6.110133635788717,1.0163003206253052,-2.3264005819903772
1708443314.9046357,-2.141793966293335,-1.3335071516088028,-2.5261781851397913,6.110171305924215,1.0162793397903442,-2.3257208506213587
1708443314.9066775,-2.1418142318725586,-1.3334912669709702,-2.5262158552752894,6.110171305924215,1.016319990158081,-2.325165573750631
1708443314.908632,-2.1418099403381348,-1.333547980790474,-2.5262370745288294,6.110172855644979,1.0162880420684814,-2.324564043675558
1708443314.9106274,-2.1417739391326904,-1.3335114282420655,-2.5262609163867396,6.110147225647726,1.0162749290466309,-2.323987070714132
1708443314.9126372,-2.1418116092681885,-1.3334942174008866,-2.5261409918414515,6.110086071282186,1.016258716583252,-2.323448721562521
1708443314.9146438,-2.1417534351348877,-1.3335233491710206,-2.5262113253222864,6.110057818680563,1.0162467956542969,-2.322838370000021
1708443314.9166615,-2.1418027877807617,-1.3335689169219513,-2.5262487570392054,6.110102522164144,1.0162599086761475,-2.3222575823413294
1708443314.9186573,-2.1417791843414307,-1.3334870350411911,-2.5262158552752894,6.110045778542318,1.0162718296051025,-2.3216851393329065
1708443314.920642,-2.1417791843414307,-1.3334790480187912,-2.5262067953692835,6.110054838448324,1.0162599086761475,-2.3211281935321253
1708443314.9226446,-2.141765832901001,-1.3335446876338501,-2.5262067953692835,6.110030638962545,1.0162880420684814,-2.3205462137805384
1708443314.924653,-2.1417746543884277,-1.3334997457316895,-2.5262158552752894,6.110084759980001,1.0162436962127686,-2.3199906984912317
1708443314.9266357,-2.1417789459228516,-1.3335233491710206,-2.526187245045797,6.110059368401327,1.0162467956542969,-2.319475237523214
1708443314.92864,-2.141749143600464,-1.333536149268486,-2.5262158552752894,6.110027777939596,1.0162436962127686,-2.3189061323748987
1708443314.930648,-2.1418027877807617,-1.3334912669709702,-2.5261946360217493,6.110048639565267,1.0162523984909058,-2.318385903035299
1708443314.9326575,-2.1417789459228516,-1.3335028898767014,-2.526196304951803,6.110047089844503,1.0162642002105713,-2.3177884260760706
1708443314.9346364,-2.1417667865753174,-1.333515615468361,-2.526203695927755,6.11001883724288,1.0162718296051025,-2.317207161580221
1708443314.9366467,-2.1417958736419678,-1.3334714037230988,-2.5261946360217493,6.110072839051046,1.0162923336029053,-2.3166917006122034
1708443314.9386704,-2.1417746543884277,-1.333508388405182,-2.526208225880758,6.1099737761314294,1.0162923336029053,-2.3161547819720667
1708443314.940696,-2.1417791843414307,-1.3335603487542649,-2.5261991659747522,6.110023247986593,1.0162718296051025,-2.3155644575702112
1708443314.9426632,-2.1417789459228516,-1.333504096870758,-2.526203695927755,6.110023247986593,1.0162394046783447,-2.3150156180011194
1708443314.9446516,-2.141737461090088,-1.3335233491710206,-2.5261662642108362,6.110011327057638,1.0162394046783447,-2.3145371119128626
1708443314.9466486,-2.1417622566223145,-1.3335114282420655,-2.526187245045797,6.109960186272421,1.0162880420684814,-2.313990894948141
1708443314.9486432,-2.1417622566223145,-1.3334961247495194,-2.526203695927755,6.11001883724288,1.016304612159729,-2.3134587446795862
1708443314.9506502,-2.1417579650878906,-1.3334912967732926,-2.5262368361102503,6.11000822761611,1.0162959098815918,-2.312942091618673
1708443314.9526632,-2.1417746543884277,-1.333539531832077,-2.526203695927755,6.110044228821554,1.0162642002105713,-2.312446180974142
1708443314.9546463,-2.1417622566223145,-1.3334832352450867,-2.526203695927755,6.110057699471273,1.016230583190918,-2.3119481245623987
1708443314.95665,-2.1417667865753174,-1.3334747415832062,-2.526229206715719,6.1099902270133875,1.0163536071777344,-2.31142765680422
1708443314.9586415,-2.1417713165283203,-1.3334705096534272,-2.5261500517474573,6.11005316951827,1.0163089036941528,-2.3109594027148646
1708443314.96063,-2.1417622566223145,-1.3334912669709702,-2.526187245045797,6.110036837845602,1.016258716583252,-2.3104258219348353
1708443314.9626513,-2.141763925552368,-1.3335361939719697,-2.5261827150927942,6.110023367195883,1.0163003206253052,-2.309969727193014
1708443314.964661,-2.1417083740234375,-1.333527610903122,-2.5261781851397913,6.109978186875143,1.0162923336029053,-2.3094616572009485
1708443314.9666524,-2.1417462825775146,-1.3335438084653397,-2.526187245045797,6.110020386963644,1.0162793397903442,-2.3090155760394495
1708443314.9686446,-2.1417622566223145,-1.3334175062230607,-2.5261946360217493,6.110014307289877,1.0163003206253052,-2.308476511632101
1708443314.9706376,-2.1417083740234375,-1.333438978796341,-2.5261662642108362,6.109999167710104,1.016337513923645,-2.3079991976367396
1708443314.972681,-2.1417667865753174,-1.3334380698255082,-2.5262025038348597,6.109978186875143,1.0162793397903442,-2.3074947039233606
1708443314.974634,-2.1417622566223145,-1.3335395467332383,-2.5262158552752894,6.109996187477865,1.0162959098815918,-2.307074848805563
1708443314.9766393,-2.1417462825775146,-1.333515615468361,-2.5261827150927942,6.110035168915548,1.0163449048995972,-2.3066380659686487
1708443314.9786685,-2.1417622566223145,-1.3335352700999756,-2.5262325445758265,6.110051739006796,1.0163331031799316,-2.30615741411318
1708443314.9806368,-2.1417579650878906,-1.3334713888219376,-2.5261991659747522,6.110002505570211,1.0163404941558838,-2.3057051340686243
1708443314.9826727,-2.1417667865753174,-1.333495558505394,-2.5261946360217493,6.110020386963644,1.0162994861602783,-2.3052638212787073
1708443314.9846396,-2.1417462825775146,-1.3334585440209885,-2.5261977354632776,6.110060560494222,1.0163602828979492,-2.30483585992922
1708443314.9866507,-2.1417667865753174,-1.3334875863841553,-2.5262413660632532,6.1099902270133875,1.0163646936416626,-2.304316822682516
1708443314.9886498,-2.1417293548583984,-1.3335242730430146,-2.5262203852282923,6.110064971237936,1.0163484811782837,-2.3039725462542933
1708443314.990648,-2.141771078109741,-1.3335199666074296,-2.5262067953692835,6.110024916916647,1.016318917274475,-2.303457800542013
1708443314.992649,-2.1417789459228516,-1.3334543269923707,-2.52622634569277,6.110089289933004,1.0163559913635254,-2.303037230168478
1708443314.994643,-2.1417622566223145,-1.3334542673877259,-2.5261738936053675,6.110002505570211,1.0164010524749756,-2.3025973478900355
1708443314.9966512,-2.1417508125305176,-1.3334670227817078,-2.5262895266162317,6.110056149750509,1.016384482383728,-2.3021538893329065
1708443314.9986444,-2.1417579650878906,-1.3334912669709702,-2.526193443928854,6.110020506172933,1.0163966417312622,-2.3017526308642786
1708443315.0006344,-2.1417551040649414,-1.3335199815085907,-2.5262113253222864,6.109987246781149,1.0164084434509277,-2.3012548128711146
1708443315.002641,-2.1417293548583984,-1.3335041117719193,-2.5262771288501185,6.110002386360922,1.0164532661437988,-2.300821129475729
1708443315.0046399,-2.1417462825775146,-1.3335318279317399,-2.5262144247638147,6.110072839051046,1.0164531469345093,-2.300455156956808
1708443315.0066452,-2.1417462825775146,-1.3335395467332383,-2.5262473265277308,6.11006377914504,1.0164730548858643,-2.300112549458639
1708443315.008648,-2.1417622566223145,-1.333495558505394,-2.5262280146228235,6.110051619797506,1.0164151191711426,-2.2996936480151575
1708443315.0106554,-2.1417622566223145,-1.333515615468361,-2.5262637774096888,6.11012493351058,1.0164850950241089,-2.2992668787585657
1708443315.012644,-2.1417462825775146,-1.3335028898767014,-2.5262683073626917,6.11012493351058,1.0164555311203003,-2.298858944569723
1708443315.0146382,-2.1417622566223145,-1.333573193555214,-2.5262354055987757,6.110111462860861,1.0164555311203003,-2.2984679380999964
1708443315.0166402,-2.1417622566223145,-1.3334747415832062,-2.5262473265277308,6.110168444901266,1.0165164470672607,-2.298131767903463
1708443315.0186257,-2.1417667865753174,-1.3335114282420655,-2.5262067953692835,6.110130774765768,1.016512155532837,-2.2977197805987757
1708443315.0206516,-2.1417295932769775,-1.3335233491710206,-2.526242796574728,6.110198366432943,1.0165245532989502,-2.297319237385885
1708443315.0226254,-2.1417293548583984,-1.3335523468307038,-2.526242796574728,6.110213506012716,1.0165811777114868,-2.296959940587179
1708443315.0246186,-2.1417508125305176,-1.3335114282420655,-2.5262683073626917,6.110171305924215,1.0165854692459106,-2.2965953985797327
1708443315.0266366,-2.1417713165283203,-1.3335318279317399,-2.526238266621725,6.110232460289755,1.0165724754333496,-2.296222750340597
1708443315.0286384,-2.1417293548583984,-1.3334869903377076,-2.5262308756457728,6.110150444298544,1.0165681838989258,-2.29588228860964
1708443315.030658,-2.1417622566223145,-1.3335560721210022,-2.5262518564807337,6.110172855644979,1.0165965557098389,-2.295509163533346
1708443315.0326474,-2.1417462825775146,-1.3335276258042832,-2.526254717503683,6.110213029175558,1.0165886878967285,-2.295222345982687
1708443315.03463,-2.141775608062744,-1.3335114282420655,-2.52627140680422,6.110257851868429,1.0165799856185913,-2.2948489824878138
1708443315.0366569,-2.1417791843414307,-1.333519072537758,-2.526233975087301,6.110316502838888,1.0166293382644653,-2.2944958845721644
1708443315.038665,-2.1417295932769775,-1.3335318279317399,-2.526308838521139,6.1103566763694666,1.0166206359863281,-2.294151846562521
1708443315.0407445,-2.1417713165283203,-1.3335233491710206,-2.526287857686178,6.110282051354208,1.016648769378662,-2.2937751452075403
1708443315.0426624,-2.1417534351348877,-1.3335266423276444,-2.526278797780172,6.110380399018087,1.0166772603988647,-2.293426577244894
1708443315.0446866,-2.1417791843414307,-1.3335798245719452,-2.5263329187976282,6.110301363259115,1.0166653394699097,-2.2931390444384974
1708443315.046674,-2.141726016998291,-1.3335561019233246,-2.5262699762927454,6.1103882668311975,1.0166969299316406,-2.2927613894092005
1708443315.0486436,-2.1417622566223145,-1.3335927587798615,-2.5262864271747034,6.110428559571066,1.016701340675354,-2.292474095021383
1708443315.0506659,-2.1417579650878906,-1.333519072537758,-2.5263357798205774,6.110389458924093,1.0167092084884644,-2.292100493107931
1708443315.052691,-2.1417579650878906,-1.333495558505394,-2.5263357798205774,6.110434520035543,1.016732931137085,-2.291767422352926
1708443315.0546527,-2.1417622566223145,-1.3335517954877396,-2.5263689200030726,6.110455024033346,1.016794204711914,-2.2914355436908167
1708443315.0566442,-2.1417622566223145,-1.3335352700999756,-2.526296917592184,6.110453593521871,1.0167486667633057,-2.2911153475390833
1708443315.0586634,-2.1417789459228516,-1.333572195177414,-2.5263221899615687,6.110464083939352,1.0168017148971558,-2.290790859852926
1708443315.060644,-2.1417622566223145,-1.3335233491710206,-2.526400391255514,6.11051498630599,1.0167855024337769,-2.2905145327197474
1708443315.06263,-2.1418027877807617,-1.3335560721210022,-2.526428763066427,6.110533106118002,1.0167486667633057,-2.290178124104635
1708443315.0646577,-2.1417579650878906,-1.3334869754365464,-2.526391331349508,6.1105748293693445,1.0167887210845947,-2.2899020353900355
1708443315.0666537,-2.1418027877807617,-1.3335395467332383,-2.526403252278463,6.110559808998861,1.0168052911758423,-2.2896021048175257
1708443315.0686457,-2.141770362854004,-1.3335755479386826,-2.5263822714435022,6.110639202385702,1.016800880432129,-2.2893179098712366
1708443315.0706372,-2.1417789459228516,-1.3335028749755402,-2.526379410420553,6.110665905266561,1.016796588897705,-2.2889564673053187
1708443315.0726614,-2.141791343688965,-1.333519072537758,-2.526403252278463,6.1106688854988,1.016850233078003,-2.2887166182147425
1708443315.0746477,-2.1418275833129883,-1.3335276258042832,-2.5264018217669886,6.110694277077474,1.0168490409851074,-2.2884729544269007
1708443315.0766542,-2.1417746543884277,-1.3335518103889008,-2.526403252278463,6.110704886704244,1.0168205499649048,-2.288102690373556
1708443315.0786624,-2.1417789459228516,-1.3335517805865784,-2.5263987223254603,6.1107168076331995,1.0168728828430176,-2.287856165562765
1708443315.0806541,-2.1417746543884277,-1.3335147064975281,-2.5263987223254603,6.1107590077217,1.0168652534484863,-2.2875500361071985
1708443315.0826423,-2.141817808151245,-1.3335233491710206,-2.5264483133899134,6.110775339394369,1.0168771743774414,-2.2872336546527308
1708443315.0846655,-2.1418099403381348,-1.3335679930499573,-2.5264363924609583,6.110752808838644,1.01692533493042,-2.28698975244631
1708443315.0866652,-2.141744613647461,-1.3335276258042832,-2.5264228026019495,6.110788571625509,1.0169134140014648,-2.2866810003863733
1708443315.0886703,-2.1418073177337646,-1.3335722398808976,-2.5264228026019495,6.110829102783956,1.0169332027435303,-2.2864490191089075
1708443315.0906563,-2.141801118850708,-1.333530918960907,-2.5264228026019495,6.110841023712911,1.0169332027435303,-2.286206308995382
1708443315.0926347,-2.1417651176452637,-1.3335560721210022,-2.5264437834369105,6.110895025521078,1.0169857740402222,-2.2858365217791956
1708443315.094635,-2.141826629638672,-1.3335266274264832,-2.5264273325549524,6.110981571465292,1.0169657468795776,-2.2855852285968226
1708443315.096674,-2.141794204711914,-1.3335308891585846,-2.5264139811145228,6.110875117569723,1.0169692039489746,-2.285344187413351
1708443315.0986476,-2.1418347358703613,-1.333560363655426,-2.526463333760397,6.110957610398092,1.016939640045166,-2.2851083914386194
1708443315.1006567,-2.141826629638672,-1.333519072537758,-2.5265050570117396,6.1110116122062585,1.017001986503601,-2.2848601976977747
1708443315.1026466,-2.141818046569824,-1.3335798245719452,-2.5264347235309046,6.110969769745626,1.0169975757598877,-2.2845755259143274
1708443315.1046534,-2.141839027404785,-1.3335266274264832,-2.5264604727374476,6.1109890816505334,1.0170546770095825,-2.284323279057638
1708443315.1066325,-2.1418631076812744,-1.3335798245719452,-2.5264514128314417,6.110980140953817,1.0170379877090454,-2.2840426603900355
1708443315.1086383,-2.141846179962158,-1.3335626286319275,-2.526503864918844,6.1109890816505334,1.0170007944107056,-2.283762041722433
1708443315.110632,-2.141871929168701,-1.333587796693184,-2.526470724736349,6.111060845642843,1.017020583152771,-2.2835384050952356
1708443315.112666,-2.141904354095459,-1.3335679781487961,-2.526449743901388,6.111006724625387,1.0170371532440186,-2.2833274046527308
1708443315.114675,-2.141850471496582,-1.3335388761809845,-2.526482645665304,6.111065375595846,1.0170533657073975,-2.283069912587301
1708443315.116668,-2.14190673828125,-1.333566890364029,-2.526499334965841,6.11105631568984,1.0170663595199585,-2.2828949133502405
1708443315.1186502,-2.1418304443359375,-1.3335834008506318,-2.5264409224139612,6.111142861634054,1.0170371532440186,-2.2826412359820765
1708443315.1206467,-2.141915798187256,-1.333600715999939,-2.5265443960772913,6.111099827080526,1.0170118808746338,-2.282393757496969
1708443315.1226478,-2.141866683959961,-1.333609328871109,-2.526574436818258,6.111095416336813,1.0170612335205078,-2.2821624914752405
1708443315.1246715,-2.1418330669403076,-1.3335712564042588,-2.5264859835254114,6.111162173538961,1.0170893669128418,-2.2819464842425745
1708443315.1266446,-2.1418581008911133,-1.3336039942554017,-2.5265188852893274,6.111144292145529,1.0170525312423706,-2.2817509810077112
1708443315.128648,-2.141880750656128,-1.3335834306529541,-2.5264859835254114,6.111201512604513,1.0171055793762207,-2.2815268675433558
1708443315.1306329,-2.1418709754943848,-1.3335507375052948,-2.5265098253833216,6.111168372422018,1.017096757888794,-2.2812498251544397
1708443315.132677,-2.141902446746826,-1.333513767724373,-2.5265021959887903,6.111154901772299,1.017118215560913,-2.281037155781881
1708443315.1346667,-2.141918420791626,-1.3336125624230881,-2.5265443960772913,6.111171233444967,1.017134428024292,-2.2808411757098597
1708443315.1366382,-2.1418981552124023,-1.3336039942554017,-2.5265262762652796,6.11128185966567,1.0171006917953491,-2.2806251684771937
1708443315.1386447,-2.141930103302002,-1.3335996133140107,-2.5265188852893274,6.11129258850173,1.0171136856079102,-2.28037673631777
1708443315.1407409,-2.141902446746826,-1.3335626286319275,-2.5265637079821985,6.111301529198446,1.0171703100204468,-2.280185047780172
1708443315.1426325,-2.1419053077697754,-1.3335834455541153,-2.5265772978412073,6.111255037575521,1.017166018486023,-2.279985253010885
1708443315.1446543,-2.1418938636779785,-1.3336125624230881,-2.5265546480761927,6.111238586693563,1.0171213150024414,-2.2797887961017054
1708443315.1466374,-2.141934394836426,-1.3335834306529541,-2.5265472571002405,6.111278998642721,1.0171616077423096,-2.2795684973346155
1708443315.1486247,-2.1419503688812256,-1.333603025679924,-2.526562039052145,6.111278998642721,1.017145037651062,-2.2793481985675257
1708443315.1506195,-2.1419219970703125,-1.3335910600474854,-2.5265801588641565,6.111307370453634,1.0171778202056885,-2.279123131428854
1708443315.152626,-2.141930103302002,-1.333582566385605,-2.526587788258688,6.111323821335592,1.0171407461166382,-2.279012982045309
1708443315.154631,-2.141925573348999,-1.3336396378329773,-2.5265665690051478,6.11130582073287,1.0171573162078857,-2.278792206441061
1708443315.1566274,-2.141941547393799,-1.3336396676352997,-2.5265381971942347,6.111280309944906,1.0171616077423096,-2.27861196199526
1708443315.158676,-2.1418964862823486,-1.3336103123477479,-2.526604477559225,6.111359464913168,1.0171900987625122,-2.278436009083883
1708443315.1606584,-2.141953945159912,-1.3336711537889023,-2.5265679995166224,6.1113836643989465,1.017210602760315,-2.278260056172506
1708443315.16266,-2.141970634460449,-1.3336592328599473,-2.5265756289111536,6.111395585327902,1.017194390296936,-2.278050724660055
1708443315.1646714,-2.141979694366455,-1.33367474496875,-2.526611868535177,6.1113672135169885,1.0171769857406616,-2.2778599897967737
1708443315.1666343,-2.1419167518615723,-1.333642066722252,-2.526587788258688,6.111399996071615,1.017209768295288,-2.277626339589254
1708443315.1686604,-2.1419496536254883,-1.3336995554021378,-2.526583258305685,6.111402976303854,1.017209768295288,-2.277504269276754
1708443315.1706975,-2.141958236694336,-1.3336668771556397,-2.526595417653219,6.111416446953573,1.0171931982040405,-2.2773073355304163
1708443315.1726542,-2.141953229904175,-1.3337071549943467,-2.526553217564718,6.111415135651388,1.0172054767608643,-2.277134720479147
1708443315.1746268,-2.141982078552246,-1.333679051404335,-2.526553217564718,6.111402976303854,1.0171889066696167,-2.276963535939352
1708443315.1766632,-2.1419575214385986,-1.3336582791856308,-2.526529375706808,6.111406194954672,1.017242193222046,-2.2767627874957483
1708443315.1786356,-2.141998052597046,-1.333743841653206,-2.526637379323141,6.111427056580343,1.0172587633132935,-2.2766717115985315
1708443315.1806664,-2.1419646739959717,-1.333702878361084,-2.526595417653219,6.111413585930624,1.017209768295288,-2.276426140462057
1708443315.1826556,-2.141993522644043,-1.3336986017278214,-2.526590887700216,6.1114762900169275,1.0172544717788696,-2.276311699544088
1708443315.1846762,-2.1419928073883057,-1.333702878361084,-2.526623789464132,6.111438977509298,1.0172501802444458,-2.2760942617999476
1708443315.186666,-2.1419713497161865,-1.3337071549943467,-2.526569668446676,6.111434566765585,1.0172501802444458,-2.275954071675436
1708443315.1886733,-2.142038583755493,-1.3337233525565644,-2.526623789464132,6.111471760063925,1.017212986946106,-2.275773350392477
1708443315.1906514,-2.1419970989227295,-1.3336909723332901,-2.526635710393087,6.111434566765585,1.0172631740570068,-2.2756055037127894
1708443315.1926775,-2.1420342922210693,-1.3337190759233017,-2.5265665690051478,6.1114927408988855,1.0172011852264404,-2.2754786650287073
1708443315.1946466,-2.142054557800293,-1.3337190759233017,-2.5265982786761683,6.111500251084127,1.0172173976898193,-2.2753098646747034
1708443315.1966512,-2.1420254707336426,-1.3336952340653916,-2.526611868535177,6.111527192383566,1.0172457695007324,-2.2751787344561976
1708443315.1986558,-2.14200496673584,-1.3336453896811982,-2.526619259511129,6.111491191178121,1.0172336101531982,-2.275018040333883
1708443315.2006571,-2.142042398452759,-1.3336952191642304,-2.526578728352682,6.111515271454611,1.0172336101531982,-2.274918858204977
1708443315.2026732,-2.1420209407806396,-1.333698571925499,-2.5266266504870813,6.111527192383566,1.017275094985962,-2.2747085730182093
1708443315.2046635,-2.142042398452759,-1.333690957432129,-2.5266266504870813,6.111531722336569,1.0172619819641113,-2.2745488325702112
1708443315.206671,-2.1420140266418457,-1.3336661917022248,-2.5265939871417444,6.111543524056234,1.017212986946106,-2.2744134108172815
1708443315.2086537,-2.1420254707336426,-1.3336704832366486,-2.5266101996051233,6.111497151642599,1.0172291994094849,-2.2742813269244593
1708443315.210631,-2.142054557800293,-1.333715797667839,-2.5266266504870813,6.111516701966085,1.0172327756881714,-2.274153534566061
1708443315.2126467,-2.142042398452759,-1.3337114465287705,-2.526619259511129,6.111546742707052,1.017196774482727,-2.2740123907672327
1708443315.2146657,-2.1420254707336426,-1.333690957432129,-2.5266311804400843,6.111562835961141,1.0172663927078247,-2.2739175001727503
1708443315.2166505,-2.1420297622680664,-1.3337352734855195,-2.5266597906695765,6.111595618515768,1.0172457695007324,-2.273761574422018
1708443315.2186382,-2.1419928073883057,-1.33366251111541,-2.5266476313220423,6.111582267075338,1.0172576904296875,-2.273628060017721
1708443315.2206438,-2.1420164108276367,-1.3336661917022248,-2.5266311804400843,6.111586797028341,1.0172619819641113,-2.273463551198141
1708443315.2226985,-2.142063617706299,-1.33367474496875,-2.526635710393087,6.111519920616903,1.0172414779663086,-2.2733615080462855
1708443315.2246282,-2.142063617706299,-1.3336986017278214,-2.5266643206225794,6.11161087730483,1.0172619819641113,-2.2732742468463343
1708443315.2266996,-2.142042398452759,-1.333690957432129,-2.5266552607165735,6.111603486328878,1.0172544717788696,-2.273107353840963
1708443315.228625,-2.1420705318450928,-1.3336582344821473,-2.5266671816455286,6.111577737122335,1.017224907875061,-2.2729437986956995
1708443315.2306244,-2.1420202255249023,-1.3337514859488984,-2.5266178289996546,6.111549484520712,1.0172501802444458,-2.2728355566607874
1708443315.2326498,-2.142073154449463,-1.3337363016656418,-2.5266132990466517,6.111577737122335,1.0172619819641113,-2.272710625325338
1708443315.2346241,-2.14208984375,-1.3337224435857316,-2.5266643206225794,6.111639129906454,1.0172785520553589,-2.272616688405172
1708443315.2366288,-2.142064332962036,-1.3336704832366486,-2.5266643206225794,6.1116301892097376,1.0172576904296875,-2.272491757069723
1708443315.238629,-2.142122507095337,-1.333702878361084,-2.5266762415515345,6.111592876702108,1.0172576904296875,-2.272334400807516
1708443315.240702,-2.14211368560791,-1.333715797667839,-2.5266686121570032,6.111622679024496,1.0172532796859741,-2.272268597279684
1708443315.2426884,-2.1420888900756836,-1.3336824041656037,-2.5266266504870813,6.111672270088949,1.0172414779663086,-2.2720893065081995
1708443315.2446501,-2.142073154449463,-1.3337190610221406,-2.5266013781176966,6.111631738930502,1.0172587633132935,-2.2719934622394007
1708443315.2466464,-2.1421022415161133,-1.333702878361084,-2.5266671816455286,6.111598956375875,1.017224907875061,-2.2718961874591272
1708443315.2486377,-2.1421048641204834,-1.333702878361084,-2.5266850630389612,6.111573326378622,1.017224907875061,-2.2717579046832483
1708443315.2506347,-2.14211368560791,-1.3337114316276093,-2.5266552607165735,6.111667859345236,1.0172576904296875,-2.2716801802264612
1708443315.2526457,-2.1421217918395996,-1.3336747598699112,-2.5266688505755823,6.111588346749105,1.0172216892242432,-2.271522823964254
1708443315.2546837,-2.1420936584472656,-1.3336619150689621,-2.5266597906695765,6.1115643856819055,1.017274260520935,-2.271409336720602
1708443315.2566502,-2.1421475410461426,-1.3337190461209794,-2.526635710393087,6.111642348557272,1.0172785520553589,-2.2713316122638147
1708443315.258669,-2.1421263217926025,-1.333726705317833,-2.5266013781176966,6.111663329392233,1.0172086954116821,-2.2711814085589808
1708443315.2606492,-2.1420979499816895,-1.3336866807988663,-2.5266476313220423,6.111672270088949,1.017275094985962,-2.2710893789874476
1708443315.2626348,-2.142112970352173,-1.3336942952922364,-2.5266476313220423,6.111625540047445,1.0172128677368164,-2.271010224019186
1708443315.2646356,-2.1420888900756836,-1.3337600392154236,-2.5266597906695765,6.111571895867147,1.0172414779663086,-2.2709034124957483
1708443315.266679,-2.142129898071289,-1.333702878361084,-2.5266266504870813,6.111694562226095,1.0172173976898193,-2.2707493940936487
1708443315.2686527,-2.1421263217926025,-1.3336909723332901,-2.5266431013690394,6.1116454479988,1.0172457695007324,-2.2706831137286585
1708443315.2706568,-2.1421048641204834,-1.3336943250945588,-2.5266476313220423,6.111682402878561,1.0172576904296875,-2.2705658117877405
1708443315.2726343,-2.1421210765838623,-1.3337352734855195,-2.5266597906695765,6.111715423851766,1.0172501802444458,-2.2705190817462366
1708443315.274647,-2.1421499252319336,-1.3336986017278214,-2.5266056696521204,6.111670362740316,1.0172785520553589,-2.2703617254840296
1708443315.2766585,-2.1422038078308105,-1.333690957432129,-2.5266221205340784,6.111697542458334,1.017237901687622,-2.27024490038027
1708443315.278642,-2.142134189605713,-1.333767683511116,-2.5266552607165735,6.111692893296041,1.0172173976898193,-2.27016526857485
1708443315.2806587,-2.1421782970428467,-1.3336986017278214,-2.5266476313220423,6.111730563431539,1.0172544717788696,-2.270101849232809
1708443315.2826276,-2.142194986343384,-1.3337062460235138,-2.5266552607165735,6.111713874131002,1.0172011852264404,-2.270007912312643
1708443315.2846775,-2.142202138900757,-1.33369433999572,-2.5267062822925013,6.111697423249044,1.0172457695007324,-2.2699149290667933
1708443315.2866411,-2.142136812210083,-1.3337276440909882,-2.526689592991964,6.111721622734823,1.0172336101531982,-2.269782368336813
1708443315.2886398,-2.142112970352173,-1.3337514859488984,-2.5266431013690394,6.111747014313497,1.0172457695007324,-2.269672695790426
1708443315.2906394,-2.142197608947754,-1.333690957432129,-2.5266643206225794,6.111733543663778,1.017237901687622,-2.2695840040790003
1708443315.2926416,-2.142197847366333,-1.3337071549943467,-2.5266476313220423,6.111730682640829,1.0172011852264404,-2.2695420424090784
1708443315.294628,-2.142186164855957,-1.3337105226567765,-2.5266597906695765,6.111747014313497,1.0172141790390015,-2.2694218794452112
1708443315.2966375,-2.1422135829925537,-1.3336943250945588,-2.5266597906695765,6.11170648315505,1.017212986946106,-2.2693594137774866
1708443315.2986472,-2.1422271728515625,-1.3337028932622452,-2.5266221205340784,6.111740815430441,1.0172380208969116,-2.2691925207721155
1708443315.3006895,-2.142184257507324,-1.3336866807988663,-2.5266476313220423,6.111745345383444,1.017212986946106,-2.2691786924945276
1708443315.3026316,-2.1421914100646973,-1.3337190759233017,-2.5266476313220423,6.111778485565939,1.0172173976898193,-2.2690451780902308
1708443315.3046823,-2.142197608947754,-1.3337267202189942,-2.5266597906695765,6.111811029701986,1.0172291994094849,-2.2689808050738733
1708443315.306634,-2.1422181129455566,-1.333743841653206,-2.5266597906695765,6.11180208900527,1.0171889066696167,-2.268902603779928
1708443315.3086421,-2.1421914100646973,-1.3337471944144745,-2.5266059080706995,6.111769544869222,1.017197608947754,-2.2688139120685022
1708443315.3106225,-2.142249822616577,-1.3337062162211915,-2.5266056696521204,6.111827480583944,1.0172303915023804,-2.2686927954303187
1708443315.312656,-2.142204999923706,-1.3337267202189942,-2.5266643206225794,6.111830699234762,1.017225980758667,-2.2686131636248987
1708443315.3146594,-2.142204999923706,-1.3337394905141373,-2.5266311804400843,6.111868011742391,1.0171931982040405,-2.2685754934894007
1708443315.3166478,-2.1422712802886963,-1.3336985868266602,-2.5266431013690394,6.111809479981222,1.0172054767608643,-2.268444363270895
1708443315.318638,-2.142249822616577,-1.3337190610221406,-2.5266013781176966,6.111833560257711,1.0171931982040405,-2.268348519002096
1708443315.320637,-2.142244815826416,-1.3336747598699112,-2.5266266504870813,6.111857402115621,1.017160415649414,-2.2682645956622522
1708443315.3226426,-2.1422746181488037,-1.3337105226567765,-2.5265982786761683,6.111821639328756,1.0172303915023804,-2.2682932058917444
1708443315.3246558,-2.142261505126953,-1.3337233525565644,-2.5266311804400843,6.111854421883383,1.017181396484375,-2.268104378377096
1708443315.3266454,-2.14224910736084,-1.3336813908866425,-2.5266552607165735,6.111915576248922,1.0171889066696167,-2.268015209828512
1708443315.328645,-2.1422858238220215,-1.333702878361084,-2.526602808629171,6.1118860123451135,1.0172054767608643,-2.2679646650897425
1708443315.3306339,-2.1422321796417236,-1.3336943548968812,-2.5266147295581263,6.111895072251119,1.017197608947754,-2.2678549925433558
1708443315.3326318,-2.142305612564087,-1.3337105226567765,-2.526623789464132,6.111883151322164,1.017181396484375,-2.267808262501852
1708443315.3346334,-2.142268180847168,-1.3337514859488984,-2.526652161275045,6.111827599793234,1.0171648263931274,-2.267762009297506
1708443315.3366308,-2.1423141956329346,-1.3337309968522568,-2.526673142110006,6.111956226616659,1.0171442031860352,-2.2676733175860804
1708443315.338644,-2.142263889312744,-1.3336857569268723,-2.5265894571887415,6.111893164902487,1.017148494720459,-2.2675803343402308
1708443315.3406692,-2.142333745956421,-1.3337224435857316,-2.5266311804400843,6.111941087036886,1.0171945095062256,-2.267538372670309
1708443315.3426707,-2.1422815322875977,-1.3337471944144745,-2.526656452809469,6.111903655319967,1.0171616077423096,-2.267444912587301
1708443315.344653,-2.1422886848449707,-1.333714799290039,-2.526623789464132,6.111978757172384,1.0171735286712646,-2.267404858266012
1708443315.3466623,-2.142329216003418,-1.333706260924675,-2.5265894571887415,6.111927616387167,1.017145037651062,-2.267291847859518
1708443315.3486364,-2.142324924468994,-1.3336824041656037,-2.526665512715475,6.11197708824233,1.0171703100204468,-2.267179314290182
1708443315.350639,-2.1423091888427734,-1.3336986166289826,-2.526611868535177,6.111997949868002,1.0171616077423096,-2.2671406904803675
1708443315.35267,-2.1423091888427734,-1.3337028485587616,-2.52664024034609,6.111989009171285,1.0171537399291992,-2.2670396010028284
1708443315.3546662,-2.142329216003418,-1.3337028485587616,-2.5266104380237024,6.112026321678915,1.0171213150024414,-2.266987148915426
1708443315.356685,-2.1423654556274414,-1.3336900782636185,-2.5266476313220423,6.112041222840109,1.017122507095337,-2.266907517110006
1708443315.3586426,-2.142361879348755,-1.3336986166289826,-2.5266597906695765,6.112071382790365,1.017150640487671,-2.2668431440936487
1708443315.3606365,-2.142397165298462,-1.3336943250945588,-2.5266147295581263,6.112057912140646,1.017150640487671,-2.266853634511129
1708443315.3626587,-2.142388343811035,-1.3337190759233017,-2.5266311804400843,6.112057912140646,1.017129898071289,-2.2666991392718714
1708443315.36465,-2.1423840522766113,-1.3336618852666398,-2.526632849370138,6.112081634789266,1.017073154449463,-2.266700569783346
1708443315.3666627,-2.1423635482788086,-1.3337590855411072,-2.526644531880514,6.11207269409255,1.017085075378418,-2.2666075865374964
1708443315.36867,-2.142326593399048,-1.3336738359979172,-2.526644531880514,6.112093555718221,1.017080545425415,-2.2665727774249476
1708443315.3706443,-2.1423840522766113,-1.3336943250945588,-2.526607338582174,6.112018573075094,1.017085075378418,-2.2664387861834925
1708443315.3726487,-2.1423885822296143,-1.3337062460235138,-2.526607338582174,6.112142789154806,1.0170655250549316,-2.2664364019977015
1708443315.3746412,-2.142347812652588,-1.3337756109288712,-2.5265820662127894,6.112115847855367,1.017096757888794,-2.2663639227496546
1708443315.376647,-2.142366409301758,-1.3337386411479493,-2.526623789464132,6.112101423531332,1.0171055793762207,-2.266279999409811
1708443315.3786325,-2.142441511154175,-1.333747149710991,-2.526602808629171,6.1121535179908655,1.0170360803604126,-2.2662413755999964
1708443315.3806512,-2.142432689666748,-1.3336813908866425,-2.5266311804400843,6.112147319107809,1.0170817375183105,-2.2660988012896937
1708443315.3826423,-2.142453908920288,-1.3337713939002533,-2.526619259511129,6.112163769989767,1.0170774459838867,-2.266066853200094
1708443315.3846493,-2.142400026321411,-1.3337105375579377,-2.5266266504870813,6.112177240639486,1.017056941986084,-2.2659996191607874
1708443315.386639,-2.142458200454712,-1.333710477953293,-2.526611868535177,6.112267124443807,1.0170612335205078,-2.265918556843893
1708443315.3886485,-2.1424195766448975,-1.3337590855411072,-2.526599947606222,6.112220752030172,1.0170533657073975,-2.2658990065204065
1708443315.3906348,-2.1424477100372314,-1.3337505471757432,-2.526607338582174,6.1122310040290735,1.0170198678970337,-2.2658570448504847
1708443315.3926451,-2.1424407958984375,-1.3337386709502717,-2.526607338582174,6.112219202309408,1.0170327425003052,-2.265763584767477
1708443315.3946414,-2.142449378967285,-1.3337386113456269,-2.52661639848818,6.112244593888082,1.017004370689392,-2.2656992117511194
1708443315.3966475,-2.142493724822998,-1.33379182339225,-2.526595417653219,6.112256514817037,1.017020583152771,-2.265676800404684
1708443315.3986385,-2.142456531524658,-1.3337267202189942,-2.526578728352682,6.112299906998434,1.0170371532440186,-2.2655885855304163
1708443315.4006598,-2.142458915710449,-1.333771364097931,-2.526583258305685,6.112321126251974,1.0170007944107056,-2.2655399481402796
1708443315.4026313,-2.142483949661255,-1.3337951463511963,-2.526632610951559,6.112365472107687,1.017020583152771,-2.265442196522848
1708443315.4046464,-2.1425421237945557,-1.333771364097931,-2.5265756289111536,6.112321126251974,1.0170248746871948,-2.2654321829425257
1708443315.4066641,-2.142537832260132,-1.3337224286845704,-2.5265710989581507,6.112303125649252,1.0170130729675293,-2.265421692525045
1708443315.4086442,-2.1424927711486816,-1.3337505769780655,-2.526562039052145,6.112360942154684,1.017008662223816,-2.265315357838766
1708443315.4106398,-2.142529010772705,-1.3337461960366745,-2.526562039052145,6.112368809967794,1.017033576965332,-2.265264336262838
1708443315.4126437,-2.142529010772705,-1.3337299984744568,-2.5265710989581507,6.112385141640463,1.017033576965332,-2.2652366797076624
1708443315.4146547,-2.1425561904907227,-1.3337266904166718,-2.5265217463122767,6.112418043404379,1.017005205154419,-2.265163246785299
1708443315.4166474,-2.142540454864502,-1.3337746423533936,-2.5265710989581507,6.112353670388021,1.017005205154419,-2.2651031653033655
1708443315.4186537,-2.1425201892852783,-1.3337138307145615,-2.5265517870532435,6.11248670795516,1.017005205154419,-2.2650793234454554
1708443315.420641,-2.142590045928955,-1.3337832999280472,-2.5265756289111536,6.112379181175985,1.0169932842254639,-2.2649667898761194
1708443315.4226592,-2.1426048278808594,-1.3336857569268723,-2.5265517870532435,6.1124106524284265,1.0170139074325562,-2.2648962179767054
1708443315.4246485,-2.142536163330078,-1.3337918680957337,-2.5265546480761927,6.112497079163351,1.0170139074325562,-2.2648447195636194
1708443315.4266527,-2.142601490020752,-1.3337584894946595,-2.5265472571002405,6.1124271033103845,1.017001986503601,-2.264859978352682
1708443315.4286659,-2.1425812244415283,-1.333770365720131,-2.5265308062182825,6.112512337952413,1.0170183181762695,-2.2647908369647425
1708443315.4306457,-2.1426138877868652,-1.3337584894946595,-2.5265021959887903,6.112446415215292,1.0169857740402222,-2.264764134083883
1708443315.4326649,-2.1426005363464355,-1.3337505620769043,-2.5265489260302942,6.112561809807577,1.0169944763183594,-2.2647116819964808
1708443315.4346318,-2.1426172256469727,-1.3337505620769043,-2.52656060854067,6.11255573013381,1.0170137882232666,-2.26463491121401
1708443315.436654,-2.1426172256469727,-1.3337257665446778,-2.5265279451953333,6.112560260086813,1.0169932842254639,-2.2645705381976526
1708443315.4386475,-2.1426243782043457,-1.3337951314500351,-2.5264857451068323,6.112488257675924,1.0169439315795898,-2.2644923369037073
1708443315.4406636,-2.1426312923431396,-1.3337660890868683,-2.5264902750598353,6.112562882691183,1.0169494152069092,-2.2644832769977015
1708443315.4426987,-2.142604112625122,-1.3337376576713105,-2.5264976660357874,6.112619745522299,1.0169364213943481,-2.264405075703756
1708443315.4446578,-2.1426358222961426,-1.333754838710167,-2.526503864918844,6.112565743714132,1.0169779062271118,-2.2644036451922815
1708443315.4466412,-2.1426446437835693,-1.3337574166110535,-2.5264859835254114,6.11262725570754,1.0169376134872437,-2.2643302122699183
1708443315.448666,-2.1426174640655518,-1.3338112396052857,-2.526545826588766,6.112630355149069,1.0169451236724854,-2.264310661946432
1708443315.4506402,-2.1426525115966797,-1.3337823015502472,-2.5264902750598353,6.112625944405355,1.0169494152069092,-2.2642372290240687
1708443315.4526348,-2.1426737308502197,-1.3337789189866562,-2.526449743901388,6.112670409470358,1.0169408321380615,-2.2642234007464808
1708443315.4546366,-2.142648220062256,-1.333774672155716,-2.526515785847799,6.112732159882345,1.0169538259506226,-2.2641423384295862
1708443315.4566357,-2.142683506011963,-1.3337866079858323,-2.526503864918844,6.112710940628805,1.0169538259506226,-2.264073197041647
1708443315.4586365,-2.1425952911376953,-1.3338150095990677,-2.526487175618307,6.112767803459921,1.0169166326522827,-2.2640660444842737
1708443315.4606345,-2.1426877975463867,-1.3338312071612854,-2.526466194783346,6.112726080208578,1.01689612865448,-2.2640631834613245
1708443315.4626424,-2.142639398574829,-1.3338398498347779,-2.52645713487734,6.112735020905294,1.0169332027435303,-2.26395827928652
1708443315.4646387,-2.1426517963409424,-1.3337898415378113,-2.526482645665304,6.112756001740255,1.016921043395996,-2.2639339605914515
1708443315.4666638,-2.142704725265503,-1.333789811735489,-2.526503864918844,6.112758862763204,1.0169332027435303,-2.2639487425433558
1708443315.4686568,-2.1426808834075928,-1.3338384491256257,-2.526475254689352,6.1127874729926965,1.0169463157653809,-2.2638514677630823
1708443315.4706426,-2.142732858657837,-1.333846167927124,-2.526541296635763,6.112737881928243,1.0168806314468384,-2.263784710560934
1708443315.4726532,-2.142679214477539,-1.3338874292424698,-2.526438061391012,6.112806546479025,1.0168720483779907,-2.2638405005084437
1708443315.4746435,-2.14272403717041,-1.3338841658881684,-2.526499334965841,6.112764942436971,1.016909122467041,-2.263771359120504
1708443315.4766312,-2.1427488327026367,-1.3337978434613724,-2.52649170557131,6.11283956745223,1.016897201538086,-2.263669792805807
1708443315.4786386,-2.1427154541015625,-1.3338268262198945,-2.526508394871847,6.11282895782546,1.0168886184692383,-2.2636621634112757
1708443315.4806395,-2.1427197456359863,-1.3338461828282853,-2.526437822972433,6.112854468613424,1.016921043395996,-2.2636383215533655
1708443315.482642,-2.14274001121521,-1.3339149516871949,-2.526479784642355,6.112883078842916,1.016897201538086,-2.263587299977438
1708443315.4846442,-2.1427266597747803,-1.3338993352702637,-2.526503864918844,6.112866627960958,1.016892910003662,-2.2635377089129847
1708443315.486649,-2.1426994800567627,-1.333858312373497,-2.526479784642355,6.112871157913961,1.0168850421905518,-2.263531510029928
1708443315.488641,-2.1427345275878906,-1.3338744950345536,-2.5264723936664026,6.112915861397543,1.016897201538086,-2.2634504477130335
1708443315.490637,-2.1427605152130127,-1.3338951033404847,-2.52649170557131,6.112856137543478,1.0169048309326172,-2.2634428183185022
1708443315.4926445,-2.1427178382873535,-1.3338583421758194,-2.5264301935779017,6.112939703255453,1.0168850421905518,-2.263416115437643
1708443315.4946396,-2.1427674293518066,-1.3338820797256012,-2.5264559427844446,6.112926232605734,1.0169134140014648,-2.2633336226092737
1708443315.4966364,-2.1428213119506836,-1.3339026433280488,-2.5264468828784388,6.112987625389852,1.016897201538086,-2.263285462056295
1708443315.4986384,-2.142796516418457,-1.3338702631047745,-2.526454273854391,6.112915622978964,1.0169178247451782,-2.2632654348956507
1708443315.5006392,-2.14280104637146,-1.3339069348624726,-2.526442352925436,6.112950312882223,1.016909122467041,-2.2632463614093226
1708443315.5026436,-2.14280366897583,-1.3338745099357148,-2.526479784642355,6.112987625389852,1.0169060230255127,-2.2632177511798304
1708443315.5046456,-2.1427674293518066,-1.3338540357402344,-2.5264723936664026,6.112978565483846,1.0168771743774414,-2.2631362120257776
1708443315.506647,-2.142810821533203,-1.333821327691414,-2.526482645665304,6.113002764969625,1.0168894529342651,-2.2631171385394495
1708443315.5086455,-2.1427834033966064,-1.333862693314888,-2.526475254689352,6.113014328270712,1.0169016122817993,-2.26309043565859
1708443315.5106409,-2.142799139022827,-1.333862693314888,-2.526479784642355,6.113000857620992,1.016847848892212,-2.263078514729635
1708443315.5126565,-2.142831802368164,-1.333849774008133,-2.5264468828784388,6.113008248596945,1.0168566703796387,-2.2630255858050745
1708443315.5146549,-2.1428275108337402,-1.3338669550469895,-2.526449743901388,6.113038170128622,1.0168447494506836,-2.2630437056170862
1708443315.5166821,-2.1427948474884033,-1.3338627082160492,-2.526442352925436,6.11306523063735,1.0168609619140625,-2.262977425252096
1708443315.518659,-2.1428487300872803,-1.3337685775807877,-2.5264514128314417,6.113018977433004,1.0168894529342651,-2.262958351765768
1708443315.5206654,-2.1428275108337402,-1.333858312373497,-2.5265262762652796,6.113090979843893,1.016849160194397,-2.262914482747213
1708443315.5226448,-2.1428444385528564,-1.3338626784137269,-2.526463333760397,6.113081919937887,1.0168609619140625,-2.2629035154925745
1708443315.5246508,-2.1428771018981934,-1.3338418763927002,-2.526479784642355,6.113150465279379,1.0168850421905518,-2.2628210226642054
1708443315.5266447,-2.1428442001342773,-1.33382040381942,-2.526508394871847,6.1131101725395105,1.016893744468689,-2.262822930012838
1708443315.5286465,-2.1428487300872803,-1.3338455271771927,-2.526463333760397,6.113117682724752,1.0168359279632568,-2.262740437184469
1708443315.5306869,-2.1428637504577637,-1.333846167927124,-2.526442352925436,6.1131865856941126,1.0168609619140625,-2.2627795378314417
1708443315.5326428,-2.1428558826446533,-1.3338788461736222,-2.526487175618307,6.113139736443319,1.0168893337249756,-2.2627223173724573
1708443315.5346854,-2.1428184509277344,-1.3338788908771058,-2.526463333760397,6.113123404770651,1.0168652534484863,-2.262620274220602
1708443315.5366428,-2.1428680419921875,-1.3338583272746583,-2.5264468828784388,6.1132356999214075,1.0168360471725464,-2.262587372456686
1708443315.5386517,-2.14286470413208,-1.333886445765831,-2.526458803807394,6.113114583283224,1.0168609619140625,-2.2626054922686976
1708443315.5407095,-2.14286732673645,-1.3338907223990937,-2.526470724736349,6.1131759760673425,1.0168728828430176,-2.2625768820392054
1708443315.5427132,-2.1428849697113037,-1.333822638993599,-2.5264347235309046,6.113177644997396,1.0168652534484863,-2.262590233479635
1708443315.5446885,-2.142871856689453,-1.3339025390199204,-2.526454273854391,6.113196837693014,1.0168241262435913,-2.2625463644610804
1708443315.5466557,-2.142878770828247,-1.3338702482036133,-2.526496235524313,6.11320577838973,1.0168447494506836,-2.2625272909747522
1708443315.5486648,-2.142871856689453,-1.3338907223990937,-2.52640945116152,6.113238918572225,1.0168652534484863,-2.262461010609762
1708443315.5506768,-2.14288330078125,-1.3338455122760315,-2.5264723936664026,6.113229977875509,1.0168490409851074,-2.262425247822897
1708443315.552652,-2.142876148223877,-1.333837555055954,-2.526458803807394,6.113199817925253,1.0168328285217285,-2.262426201497213
1708443315.5546775,-2.1429202556610107,-1.3338583421758194,-2.526404682789938,6.113220917969503,1.0168894529342651,-2.262386147175924
1708443315.556634,-2.142936944961548,-1.3338659566691895,-2.5264468828784388,6.113183486252584,1.0168566703796387,-2.262345616017477
1708443315.5586565,-2.142932653427124,-1.3338498038104554,-2.5264514128314417,6.113183367043295,1.0169024467468262,-2.262333695088522
1708443315.5606496,-2.14286732673645,-1.333817110662796,-2.5264392534839075,6.113192307740011,1.0168771743774414,-2.2623260656939905
1708443315.5626407,-2.142894744873047,-1.3338462573340912,-2.5265098253833216,6.113240110665121,1.0168490409851074,-2.2623098532306116
1708443315.5646348,-2.142939805984497,-1.3338897389224549,-2.5264514128314417,6.11321901062087,1.0168980360031128,-2.262245003377096
1708443315.56663,-2.14290714263916,-1.3338540357402344,-2.526479784642355,6.113323914795675,1.016816258430481,-2.262308422719137
1708443315.5686378,-2.142948627471924,-1.3339027029326935,-2.5264812151538294,6.113260972290792,1.0168533325195312,-2.2621877829181116
1708443315.5706396,-2.142935276031494,-1.3338940751603623,-2.526479784642355,6.113325583725729,1.0168850421905518,-2.262214962636129
1708443315.5726418,-2.14290714263916,-1.3338531118682404,-2.5264468828784388,6.113309132843771,1.0168695449829102,-2.262181584035055
1708443315.5746546,-2.142902374267578,-1.3339026284268876,-2.5264843145953577,6.1132428524787805,1.0168447494506836,-2.262153450642721
1708443315.5766456,-2.142956495285034,-1.333906890158989,-2.526463333760397,6.113287913590231,1.0168609619140625,-2.262096707020895
1708443315.5786638,-2.142906904220581,-1.3339068752578278,-2.5264678637133997,6.113275992661276,1.0168371200561523,-2.2620227972613733
1708443315.580664,-2.1429264545440674,-1.3338573437980195,-2.5264347235309046,6.113309132843771,1.0168858766555786,-2.262040917073385
1708443315.5826254,-2.1429567337036133,-1.3339154881289979,-2.526496235524313,6.113316523819723,1.0168609619140625,-2.262019459401266
1708443315.5846326,-2.142939805984497,-1.3339062494090577,-2.526463333760397,6.113321053772726,1.0168771743774414,-2.262033287678854
1708443315.5866332,-2.1429433822631836,-1.3338497889092942,-2.526442352925436,6.113332974701681,1.0168533325195312,-2.2620256582843226
1708443315.588657,-2.1429433822631836,-1.3338907074979325,-2.526496235524313,6.113349306374349,1.0168403387069702,-2.26197320619692
1708443315.5906246,-2.1429688930511475,-1.3338572841933747,-2.526479784642355,6.11333583572463,1.0168241262435913,-2.26197320619692
1708443315.5926542,-2.1429388523101807,-1.3339516383460541,-2.5265007654773157,6.11340759971694,1.0168566703796387,-2.2619083563434046
1708443315.5946348,-2.1429643630981445,-1.3339069348624726,-2.526463333760397,6.113410460739889,1.0168447494506836,-2.2619460264789026
1708443315.5966573,-2.1429600715637207,-1.3339352917722245,-2.5264678637133997,6.1133731482322595,1.0168814659118652,-2.2618773619281214
1708443315.5986426,-2.1429433822631836,-1.3338573736003418,-2.526463333760397,6.113352286606588,1.0168404579162598,-2.2618892828570765
1708443315.6006305,-2.143000602722168,-1.3338583272746583,-2.5264559427844446,6.113385069161215,1.0168119668960571,-2.261829201375143
1708443315.602634,-2.1429600715637207,-1.333886445765831,-2.5264437834369105,6.113331424980917,1.0168533325195312,-2.261857334767477
1708443315.6046305,-2.1429646015167236,-1.3338455271771927,-2.526496235524313,6.113409268646993,1.0168652534484863,-2.2618592421161097
1708443315.6066651,-2.1429672241210938,-1.3338616800359269,-2.526496235524313,6.113368618279257,1.0168771743774414,-2.2617552916156214
1708443315.6086378,-2.1429221630096436,-1.3338864308646698,-2.5264468828784388,6.113425600319662,1.0168728828430176,-2.2617481390582483
1708443315.610626,-2.1429264545440674,-1.3338702482036133,-2.5264468828784388,6.1134047386939905,1.0168652534484863,-2.261761490498678
1708443315.612626,-2.142934560775757,-1.3339026284268876,-2.5264723936664026,6.113401520043173,1.016893744468689,-2.26179010072817
1708443315.614626,-2.1429758071899414,-1.3338897240212937,-2.5264347235309046,6.113371598511495,1.0168404579162598,-2.261716667805807
1708443315.616629,-2.1430041790008545,-1.3339105409434815,-2.5264514128314417,6.113392460137167,1.0168285369873047,-2.2617057005511683
1708443315.6186395,-2.1429381370544434,-1.333861694937088,-2.5264559427844446,6.113341796189108,1.0168360471725464,-2.2616851965533655
1708443315.6206512,-2.1429998874664307,-1.3338289570859452,-2.5264437834369105,6.113416540413656,1.0168533325195312,-2.261714760457174
