Eg3-git/Classifiers/Data Collection/u8/u8cir3_ur3e_joint_states.csv
time,elbow_joint,shoulder_lift_joint,shoulder_pan_joint,wrist_1_joint,wrist_2_joint,wrist_3_joint
1708443212.0968044,-2.142747163772583,-1.333758295779564,-2.526309076939718,6.1124493954475305,1.0166128873825073,-2.115067783986227
1708443212.0988028,-2.1427559852600098,-1.333761305814125,-2.526245657597677,6.112528669625082,1.016603946685791,-2.115054432545797
1708443212.1008437,-2.1427931785583496,-1.333754987721779,-2.526224915181295,6.1125032780464075,1.0166370868682861,-2.1150968710528772
1708443212.1028266,-2.1427559852600098,-1.333759383564331,-2.526275936757223,6.112528669625082,1.016608476638794,-2.1150386969195765
1708443212.1048346,-2.1427674293518066,-1.3337460619262238,-2.5262954870807093,6.112491118698873,1.016641616821289,-2.115021530781881
1708443212.1067967,-2.1427133083343506,-1.3337209236672898,-2.526309076939718,6.11248658874587,1.016603946685791,-2.1150429884540003
1708443212.1088011,-2.142730236053467,-1.3337865334800263,-2.526278797780172,6.1125032780464075,1.0166162252426147,-2.1150830427752894
1708443212.110818,-2.142754316329956,-1.3337342304042359,-2.526287857686178,6.112498867302694,1.0166116952896118,-2.1150744597064417
1708443212.112796,-2.1427674293518066,-1.3337953847697754,-2.526241127644674,6.112498867302694,1.016625165939331,-2.115086380635397
1708443212.11481,-2.1427719593048096,-1.3337372553399582,-2.526292387639181,6.112530457764425,1.0166206359863281,-2.1150906721698206
1708443212.1168091,-2.1427841186523438,-1.3337583553842087,-2.526278797780172,6.1125539419944666,1.016625165939331,-2.115077320729391
1708443212.1187997,-2.1427764892578125,-1.3337702465108414,-2.526266876851217,6.11255561092452,1.0166369676589966,-2.1151073614703577
1708443212.1208098,-2.142775535583496,-1.3337953847697754,-2.526278797780172,6.112579214363851,1.0166701078414917,-2.11512262025942
1708443212.1227927,-2.1427628993988037,-1.3337297600558777,-2.526262346898214,6.112574803620138,1.0166369676589966,-2.1151145140277308
1708443212.1247995,-2.142730236053467,-1.3337746274522324,-2.52625018755068,6.112551200180807,1.0166116952896118,-2.115110222493307
1708443212.1267817,-2.142763137817383,-1.3337450933507462,-2.526275936757223,6.11254237869338,1.016641616821289,-2.115089718495504
1708443212.1288168,-2.142754316329956,-1.3337715876153489,-2.5262697378741663,6.112633096962728,1.0166370868682861,-2.115187946950094
1708443212.130802,-2.1427435874938965,-1.3337372851422806,-2.526254717503683,6.112643945008077,1.0166116952896118,-2.115094010029928
1708443212.1328127,-2.1427886486053467,-1.3337702614120026,-2.526309076939718,6.112622725754537,1.0166162252426147,-2.115150753651754
1708443212.1347985,-2.142749786376953,-1.3337416511825104,-2.526325527821676,6.112679230957784,1.016592025756836,-2.115143124257223
1708443212.1368284,-2.142771005630493,-1.3337505173734208,-2.52625018755068,6.112665879517355,1.016625165939331,-2.115150753651754
1708443212.1387901,-2.1427886486053467,-1.3337583404830475,-2.526304546986715,6.112624513893881,1.016625165939331,-2.1151960531817835
1708443212.1408415,-2.1427764892578125,-1.3337716323188324,-2.526283327733175,6.112687098770895,1.0166206359863281,-2.1151416937457483
1708443212.1428003,-2.142805337905884,-1.3337866228869935,-2.526275936757223,6.112649786263265,1.0166444778442383,-2.1151416937457483
1708443212.144837,-2.1427435874938965,-1.3337416660836716,-2.526278797780172,6.112633454590597,1.016641616821289,-2.115149799977438
1708443212.1468413,-2.14277982711792,-1.3338028204492112,-2.52627140680422,6.1127275107200525,1.0166206359863281,-2.1151912848102015
1708443212.1488075,-2.142730236053467,-1.3337746423533936,-2.526304546986715,6.112719762116232,1.0166611671447754,-2.1151374022113245
1708443212.1507921,-2.14277982711792,-1.3338239651969452,-2.526284996663229,6.112687098770895,1.0166130065917969,-2.1151869932757776
1708443212.1528113,-2.142751693725586,-1.3337538850358506,-2.5262864271747034,6.1126736281211755,1.016608476638794,-2.1151912848102015
1708443212.1547935,-2.1427345275878906,-1.3337835234454651,-2.526283327733175,6.112706410675802,1.0166460275650024,-2.115149799977438
1708443212.1568081,-2.1427886486053467,-1.3337672364762803,-2.526275936757223,6.112776744156637,1.016608476638794,-2.1152032057391565
1708443212.1587822,-2.142749786376953,-1.3337627214244385,-2.526266876851217,6.112730490952291,1.0166162252426147,-2.1152241865741175
1708443212.1607969,-2.142805337905884,-1.3337583106807251,-2.52627140680422,6.1127275107200525,1.0166534185409546,-2.1151564756976526
1708443212.1627927,-2.142754316329956,-1.3337165874293824,-2.526259247456686,6.112751352577963,1.016599416732788,-2.115182701741354
1708443212.1648297,-2.1427559852600098,-1.333820642237999,-2.526221815739767,6.112719881325521,1.016625165939331,-2.1152079741107386
1708443212.1668339,-2.1427674293518066,-1.3336971265128632,-2.526280466710226,6.112710821419515,1.0166460275650024,-2.1151655356036585
1708443212.1688035,-2.142763137817383,-1.333767221575119,-2.526304546986715,6.112730490952291,1.0166206359863281,-2.115223232899801
1708443212.1708262,-2.142784357070923,-1.3337538999370118,-2.5262637774096888,6.112734901696005,1.0166656970977783,-2.115241352711813
1708443212.1728508,-2.142763137817383,-1.3337386113456269,-2.52631646791567,6.112701880722799,1.016603946685791,-2.1152151266681116
1708443212.174805,-2.142775535583496,-1.3337494891932984,-2.526287857686178,6.1126736281211755,1.016599416732788,-2.115227524434225
1708443212.1768317,-2.142751693725586,-1.3337865781835099,-2.526275936757223,6.1127275107200525,1.016641616821289,-2.1152151266681116
1708443212.1787987,-2.142810106277466,-1.3337790381959458,-2.526238266621725,6.112681019097128,1.016608476638794,-2.115228001271383
1708443212.1808228,-2.142751693725586,-1.3337909591249009,-2.526266876851217,6.112697350769796,1.0166116952896118,-2.115210835133688
1708443212.1828568,-2.142754316329956,-1.3337626618197937,-2.526304546986715,6.112758743553915,1.016608476638794,-2.115177933369772
1708443212.184846,-2.142805337905884,-1.3337909591249009,-2.5262578169452112,6.112738001137533,1.016625165939331,-2.115180794392721
1708443212.1868663,-2.142792224884033,-1.333758295779564,-2.526259247456686,6.112754332810201,1.0165921449661255,-2.1152365843402308
1708443212.1888342,-2.1427886486053467,-1.3337790381959458,-2.52627140680422,6.11270962932662,1.016608476638794,-2.1151655356036585
1708443212.1909056,-2.142808198928833,-1.3337910187295456,-2.52625018755068,6.1127052185829065,1.0166206359863281,-2.115189854298727
1708443212.192847,-2.1427628993988037,-1.333741695885994,-2.526278797780172,6.112784373551168,1.0166162252426147,-2.115244213734762
1708443212.1947966,-2.142763137817383,-1.3337626320174714,-2.52625018755068,6.112754332810201,1.0166369676589966,-2.1152151266681116
1708443212.1968427,-2.142812490463257,-1.333807335501053,-2.526278797780172,6.112798917084493,1.0166162252426147,-2.115241352711813
1708443212.1987953,-2.14277982711792,-1.3337372106364747,-2.526259247456686,6.112766492157736,1.016603946685791,-2.1151703039752405
1708443212.2008278,-2.14275860786438,-1.333783508544304,-2.526266876851217,6.112798917084493,1.0165830850601196,-2.1152151266681116
1708443212.202822,-2.142807960510254,-1.3337865781835099,-2.526300017033712,6.1128108380134485,1.016608476638794,-2.115210835133688
1708443212.2048447,-2.142796754837036,-1.3338073205998917,-2.526287857686178,6.112823116570272,1.0166534185409546,-2.1152365843402308
1708443212.206811,-2.142775535583496,-1.3338283163360138,-2.526283327733175,6.1128108380134485,1.0165590047836304,-2.1151989142047327
1708443212.2088335,-2.142747163772583,-1.3337865781835099,-2.5262637774096888,6.1128543494041345,1.0165740251541138,-2.115177933369772
1708443212.2108297,-2.142807960510254,-1.3337835383466263,-2.52625018755068,6.112871157913961,1.0166161060333252,-2.115185562764303
1708443212.212849,-2.14277982711792,-1.333746076827385,-2.52625018755068,6.112824547081747,1.0165544748306274,-2.115173641835348
1708443212.2147958,-2.142807960510254,-1.3337627065232773,-2.526346508656637,6.112883078842916,1.0166010856628418,-2.115185562764303
1708443212.216817,-2.142730236053467,-1.333767221575119,-2.526254717503683,6.112838017731466,1.0165798664093018,-2.1151869932757776
1708443212.218794,-2.142751455307007,-1.3337416809848328,-2.52627140680422,6.112838017731466,1.0165438652038574,-2.1152151266681116
1708443212.2208192,-2.142763137817383,-1.333774672155716,-2.526262346898214,6.112869608193197,1.0166010856628418,-2.115189854298727
1708443212.2228003,-2.142812490463257,-1.3337253344110032,-2.526208225880758,6.112906801491537,1.0166219472885132,-2.115206543599264
1708443212.2248316,-2.1427674293518066,-1.3338042360595246,-2.526337210332052,6.112853157311239,1.0165634155273438,-2.115147415791647
1708443212.2268035,-2.14280366897583,-1.3337539297393342,-2.526259247456686,6.112862098007955,1.0165889263153076,-2.115206543599264
1708443212.2288175,-2.142747163772583,-1.3337790828994294,-2.526259247456686,6.112869608193197,1.0165724754333496,-2.1151989142047327
1708443212.2307963,-2.142796516418457,-1.333786593084671,-2.526309076939718,6.112890350609579,1.0165724754333496,-2.1152151266681116
1708443212.2328272,-2.14280366897583,-1.3337910038283844,-2.5262637774096888,6.112918722420492,1.0165965557098389,-2.1152241865741175
1708443212.2348268,-2.1427834033966064,-1.3337505620769043,-2.526313606892721,6.112853157311239,1.0166056156158447,-2.115189854298727
1708443212.2368395,-2.14280366897583,-1.3337702465108414,-2.526241127644674,6.112943994789877,1.0165724754333496,-2.1151869932757776
1708443212.238794,-2.1428213119506836,-1.3337252897075196,-2.526266876851217,6.112869608193197,1.0165724754333496,-2.1152241865741175
1708443212.240807,-2.142840623855591,-1.333741621380188,-2.526262346898214,6.112853157311239,1.016588807106018,-2.1152032057391565
1708443212.2427938,-2.142812490463257,-1.3337909591249009,-2.52625018755068,6.112812626152792,1.0165798664093018,-2.115206543599264
1708443212.244841,-2.142836332321167,-1.3338328164866944,-2.526229206715719,6.112838017731466,1.016588807106018,-2.115189854298727
1708443212.2467964,-2.1427993774414062,-1.3337821674397965,-2.52631646791567,6.112821686058798,1.0165557861328125,-2.115253273640768
1708443212.2488775,-2.1427993774414062,-1.3337583255818863,-2.526275936757223,6.112862098007955,1.0165467262268066,-2.115253273640768
1708443212.250807,-2.142810821533203,-1.3337865632823487,-2.526300017033712,6.112824547081747,1.016543984413147,-2.115269486104147
1708443212.2528203,-2.1427993774414062,-1.3338072907975693,-2.526292387639181,6.1128156063850305,1.0165815353393555,-2.1152241865741175
1708443212.2548072,-2.1427993774414062,-1.333835856323578,-2.526233736668722,6.112906801491537,1.0165483951568604,-2.115177933369772
1708443212.2568145,-2.1427903175354004,-1.333810643558838,-2.526309076939718,6.112827527313986,1.0165557861328125,-2.115210835133688
1708443212.258833,-2.1428451538085938,-1.3337746423533936,-2.52625018755068,6.11287401893691,1.016527533531189,-2.1152079741107386
1708443212.260834,-2.142812490463257,-1.3337416511825104,-2.52625018755068,6.1128859398658655,1.016495704650879,-2.115194622670309
1708443212.2628145,-2.142819404602051,-1.3337909591249009,-2.5262308756457728,6.112918722420492,1.016532063484192,-2.1151703039752405
1708443212.264823,-2.142792224884033,-1.3337909591249009,-2.5262637774096888,6.112909781723776,1.0165483951568604,-2.115177933369772
1708443212.2668593,-2.142792224884033,-1.3337821674397965,-2.526254717503683,6.112840997963705,1.0165292024612427,-2.1151655356036585
1708443212.2688377,-2.1427788734436035,-1.33377160251651,-2.52627140680422,6.11291121223525,1.0165619850158691,-2.1152032057391565
1708443212.270865,-2.142840623855591,-1.333779053097107,-2.526233975087301,6.112906920700826,1.0165075063705444,-2.1152151266681116
1708443212.272856,-2.1428487300872803,-1.3337702465108414,-2.526275936757223,6.112876999169149,1.016533613204956,-2.115182701741354
1708443212.2748914,-2.142792224884033,-1.3337835234454651,-2.5262637774096888,6.112914192467489,1.0165075063705444,-2.1152032057391565
1708443212.276832,-2.142771005630493,-1.3337790381959458,-2.526296679173605,6.112909781723776,1.016512155532837,-2.1152198950396937
1708443212.2787974,-2.14280366897583,-1.3337777268937607,-2.526292387639181,6.112959253578939,1.0165619850158691,-2.1151869932757776
1708443212.2808475,-2.142831802368164,-1.3338328164866944,-2.526318136845724,6.112972605019369,1.016495704650879,-2.1151869932757776
1708443212.2827911,-2.1428487300872803,-1.333704636698105,-2.526259247456686,6.112893450051107,1.016533613204956,-2.1152151266681116
1708443212.2848346,-2.142807960510254,-1.3337539297393342,-2.526309076939718,6.11292456367568,1.0165047645568848,-2.1152151266681116
1708443212.286819,-2.14274525642395,-1.3337539297393342,-2.526301447545187,6.112972605019369,1.0165091753005981,-2.1152036825763147
1708443212.2888258,-2.14280366897583,-1.3337998700192948,-2.526292387639181,6.112948763161459,1.016474723815918,-2.115182701741354
1708443212.2908962,-2.142819404602051,-1.33371655762706,-2.5262637774096888,6.112950312882223,1.0165046453475952,-2.1151912848102015
1708443212.2928162,-2.142819404602051,-1.3337372702411194,-2.526217285786764,6.113007056504049,1.0164883136749268,-2.1151703039752405
1708443212.2947972,-2.142836332321167,-1.3337702316096802,-2.526259247456686,6.1129740355308435,1.0165210962295532,-2.115189854298727
1708443212.2968163,-2.142831802368164,-1.3337835383466263,-2.526254717503683,6.11294578292922,1.0164719820022583,-2.1151564756976526
1708443212.298804,-2.1427621841430664,-1.3337539297393342,-2.526309076939718,6.11296962478713,1.0165002346038818,-2.115210835133688
1708443212.3008358,-2.14284086227417,-1.3338072758964081,-2.526292387639181,6.112965214043417,1.0164763927459717,-2.115177933369772
1708443212.3028002,-2.1427948474884033,-1.3337746423533936,-2.526292387639181,6.112981545716085,1.0164718627929688,-2.115149799977438
1708443212.3048022,-2.1428282260894775,-1.3337538999370118,-2.526238266621725,6.112965214043417,1.0164839029312134,-2.1151703039752405
1708443212.3068135,-2.142810821533203,-1.3337702465108414,-2.526296917592184,6.113018739014425,1.0164432525634766,-2.1151703039752405
1708443212.3088176,-2.142831802368164,-1.333779053097107,-2.526259247456686,6.112960564881124,1.0164568424224854,-2.1151989142047327
1708443212.3108015,-2.142831802368164,-1.3337627214244385,-2.526266876851217,6.112998235016622,1.0164462327957153,-2.1152198950396937
1708443212.3128216,-2.1428487300872803,-1.3337746423533936,-2.526254717503683,6.112965214043417,1.0164927244186401,-2.1152241865741175
1708443212.314767,-2.1427834033966064,-1.3337583255818863,-2.526259247456686,6.112957703858175,1.0164973735809326,-2.1151989142047327
1708443212.3168268,-2.142815113067627,-1.3337702763131638,-2.526320997868673,6.112972605019369,1.0164854526519775,-2.1152032057391565
1708443212.3188286,-2.14284086227417,-1.3337865632823487,-2.5262637774096888,6.112977015763082,1.0164597034454346,-2.1151869932757776
1708443212.3208532,-2.1427948474884033,-1.3337746423533936,-2.526233736668722,6.112965214043417,1.0164642333984375,-2.1151912848102015
1708443212.322805,-2.142832040786743,-1.3337746274522324,-2.5262473265277308,6.11294578292922,1.0164686441421509,-2.11513597169985
1708443212.3248677,-2.1428399085998535,-1.333782137637474,-2.526259247456686,6.112948763161459,1.0164597034454346,-2.1151655356036585
1708443212.326825,-2.1428232192993164,-1.3337909591249009,-2.526242796574728,6.112962114601888,1.0164432525634766,-2.1152241865741175
1708443212.3288405,-2.1427857875823975,-1.3337865632823487,-2.52625018755068,6.112985956459799,1.0164477825164795,-2.1151655356036585
1708443212.330833,-2.142869234085083,-1.3337746572545548,-2.526238266621725,6.112966763764181,1.0164477825164795,-2.1151745955096644
1708443212.3328192,-2.1428062915802,-1.3337297153523942,-2.526233975087301,6.112941372185507,1.0164809226989746,-2.1151540915118616
1708443212.3348162,-2.1428604125976562,-1.3337715876153489,-2.5262473265277308,6.112915742188253,1.0164763927459717,-2.1152079741107386
1708443212.3368027,-2.1428558826446533,-1.333741695885994,-2.5262308756457728,6.112983095436849,1.0164388418197632,-2.1151416937457483
1708443212.3388367,-2.1428558826446533,-1.3337583255818863,-2.526238266621725,6.1129904864128015,1.016513705253601,-2.115182701741354
1708443212.340846,-2.142831802368164,-1.333820567732193,-2.526280466710226,6.113007175713339,1.0164687633514404,-2.1151869932757776
1708443212.3427818,-2.14280366897583,-1.3337672066739579,-2.5262637774096888,6.112978565483846,1.0164642333984375,-2.1151464621173304
1708443212.3448427,-2.1428275108337402,-1.3337716323188324,-2.52625018755068,6.113039600640096,1.0164356231689453,-2.1151655356036585
1708443212.3467767,-2.14286470413208,-1.3337865632823487,-2.526233736668722,6.112948763161459,1.0164687633514404,-2.1151540915118616
1708443212.3487952,-2.1428232192993164,-1.3338283461383362,-2.526242796574728,6.1129904864128015,1.0164432525634766,-2.1152036825763147
1708443212.3508275,-2.142836332321167,-1.3337658506682892,-2.526259247456686,6.112978565483846,1.0164809226989746,-2.1151326338397425
1708443212.3528028,-2.14284086227417,-1.333734245305397,-2.5262728373156946,6.113009798317709,1.016414761543274,-2.1151207129107874
1708443212.3548548,-2.142810821533203,-1.3337715578130265,-2.526233736668722,6.112948763161459,1.0164973735809326,-2.1151283423053187
1708443212.3568237,-2.142815113067627,-1.3337297451547165,-2.526259247456686,6.112965214043417,1.0164854526519775,-2.1151540915118616
1708443212.3588405,-2.1428184509277344,-1.3337821674397965,-2.526221815739767,6.1129562733467,1.0164597034454346,-2.1151540915118616
1708443212.360802,-2.1428275108337402,-1.3337416809848328,-2.5262189547168177,6.1129904864128015,1.0164401531219482,-2.1151960531817835
1708443212.3627956,-2.142869234085083,-1.333795354967453,-2.526259247456686,6.112985956459799,1.0164477825164795,-2.1151912848102015
1708443212.3647962,-2.1428442001342773,-1.333828331237175,-2.5262489954577845,6.113014328270712,1.0164523124694824,-2.1151540915118616
1708443212.3668215,-2.1427700519561768,-1.3337702465108414,-2.5262518564807337,6.113002764969625,1.0164899826049805,-2.1151674429522913
1708443212.3688254,-2.1428487300872803,-1.3337538701346894,-2.5262203852282923,6.113018739014425,1.0164568424224854,-2.1151703039752405
1708443212.3708076,-2.142810821533203,-1.3338073056987305,-2.5262067953692835,6.11304401138381,1.0164477825164795,-2.1151283423053187
1708443212.3728106,-2.142832040786743,-1.3337253046086808,-2.5261572043048304,6.1129517433936975,1.0164777040481567,-2.115150753651754
1708443212.3747952,-2.142831802368164,-1.3337865483811875,-2.526208225880758,6.112944233208456,1.0164445638656616,-2.11518365541567
1708443212.3768303,-2.1428275108337402,-1.333795354967453,-2.526212755833761,6.1129904864128015,1.0164192914962769,-2.1151416937457483
1708443212.3788667,-2.14286470413208,-1.3337208789638062,-2.526175324116842,6.1129740355308435,1.016449213027954,-2.115149799977438
1708443212.3808303,-2.1428239345550537,-1.3337835681489487,-2.5261917749988,6.113002764969625,1.0164445638656616,-2.1151254812823694
1708443212.3827975,-2.1428444385528564,-1.3337328147939225,-2.52616793314089,6.112965214043417,1.0164282321929932,-2.1151722113238733
1708443212.3848202,-2.14286470413208,-1.3337998700192948,-2.5261216799365442,6.112957703858175,1.0164356231689453,-2.115192715321676
1708443212.386836,-2.1428604125976562,-1.3337702465108414,-2.526200834904806,6.113032209664144,1.0164401531219482,-2.1151588598834437
1708443212.3888311,-2.142810821533203,-1.3337253344110032,-2.526170794163839,6.112983095436849,1.0163787603378296,-2.115150753651754
1708443212.3908608,-2.1428017616271973,-1.3337746423533936,-2.526184384022848,6.112915742188253,1.016411542892456,-2.115155045186178
1708443212.3928866,-2.142831802368164,-1.3337208789638062,-2.526175324116842,6.112994897156515,1.016416072845459,-2.115105454121725
1708443212.3949323,-2.1428604125976562,-1.3337746274522324,-2.526135031376974,6.112957703858175,1.0163755416870117,-2.115147892628805
1708443212.3968856,-2.1428062915802,-1.3337984842113038,-2.526179854069845,6.112985956459799,1.0163710117340088,-2.1150816122638147
1708443212.3988974,-2.142831802368164,-1.3337505471757432,-2.526187245045797,6.112936842232504,1.0163755416870117,-2.11513597169985
1708443212.4008875,-2.142815113067627,-1.33379981041465,-2.526130501423971,6.112941372185507,1.0163755416870117,-2.115098301564352
1708443212.4029026,-2.1428229808807373,-1.3337909591249009,-2.526179854069845,6.112941372185507,1.0163666009902954,-2.115107838307516
1708443212.4048514,-2.1427791118621826,-1.3337702465108414,-2.526184384022848,6.112963664322653,1.0163633823394775,-2.1151326338397425
1708443212.4068537,-2.142826557159424,-1.3337626618197937,-2.52620512643923,6.112917291909017,1.0163967609405518,-2.1151073614703577
1708443212.4088461,-2.142832040786743,-1.3337835532477875,-2.526200834904806,6.112911093025961,1.0163922309875488,-2.1150816122638147
1708443212.4108346,-2.1428184509277344,-1.3337583255818863,-2.526212517415182,6.112921702652731,1.0163755416870117,-2.1151121298419397
1708443212.4128673,-2.1428513526916504,-1.3337998402169724,-2.526196304951803,6.112978565483846,1.0163922309875488,-2.1150997320758265
1708443212.4148462,-2.1428442001342773,-1.3338072758964081,-2.5261500517474573,6.112900841027059,1.016404151916504,-2.1150744597064417
1708443212.4168572,-2.1428353786468506,-1.33370894313369,-2.526196304951803,6.112942564278402,1.0163469314575195,-2.1150668303119105
1708443212.4188542,-2.1428353786468506,-1.3338195395520707,-2.526142422352926,6.112902271538534,1.0164130926132202,-2.1151235739337366
1708443212.4208426,-2.1428399085998535,-1.3338117462447663,-2.52616793314089,6.112938034325399,1.0163514614105225,-2.1150711218463343
1708443212.4228523,-2.1428558826446533,-1.3338116717389603,-2.526139561329977,6.112860667496481,1.0163755416870117,-2.1150172392474573
1708443212.424778,-2.1427745819091797,-1.3337909591249009,-2.526188675557272,6.112950312882223,1.0163768529891968,-2.1150878111468714
1708443212.4267807,-2.1428487300872803,-1.3337583404830475,-2.526137892399923,6.112914192467489,1.0163499116897583,-2.1150577704059046
1708443212.4287944,-2.1427972316741943,-1.3337460619262238,-2.526146952305929,6.112893450051107,1.0164012908935547,-2.1150339285479944
1708443212.430769,-2.1428513526916504,-1.3337416809848328,-2.526196304951803,6.112893450051107,1.016404151916504,-2.1150577704059046
1708443212.432818,-2.1428470611572266,-1.3338106584599991,-2.526170794163839,6.112893330841818,1.0163800716400146,-2.1151211897479456
1708443212.4348156,-2.1428442001342773,-1.3338072907975693,-2.526142422352926,6.1128543494041345,1.0163588523864746,-2.115021530781881
1708443212.436767,-2.1428275108337402,-1.3337998551181336,-2.526179854069845,6.112871157913961,1.0163469314575195,-2.115054432545797
1708443212.438797,-2.1428184509277344,-1.3337790381959458,-2.52616793314089,6.112862098007955,1.016387701034546,-2.1150758902179163
1708443212.4407887,-2.1428399085998535,-1.3337672066739579,-2.526158873234884,6.112806546479025,1.0164085626602173,-2.1150758902179163
1708443212.4427822,-2.1427948474884033,-1.333795354967453,-2.526142422352926,6.112776624947347,1.0163922309875488,-2.115063492451803
1708443212.44477,-2.142853260040283,-1.3337372702411194,-2.526158873234884,6.112802016526022,1.0163755416870117,-2.115014378224508
1708443212.4467866,-2.1428399085998535,-1.3337835234454651,-2.526170794163839,6.112802016526022,1.0164086818695068,-2.1149914900409144
1708443212.4487948,-2.1428849697113037,-1.3337909591249009,-2.526196304951803,6.1128320572669885,1.0164132118225098,-2.1150386969195765
1708443212.450786,-2.1428062915802,-1.3337865632823487,-2.526184384022848,6.112827527313986,1.0163755416870117,-2.11501390138735
1708443212.4527638,-2.1428275108337402,-1.3337328743985672,-2.526196304951803,6.1127943871314905,1.0163633823394775,-2.115001980458395
1708443212.454796,-2.1428558826446533,-1.3337909591249009,-2.52616793314089,6.112823235779562,1.0163755416870117,-2.1150077025042933
1708443212.4568079,-2.1428353786468506,-1.3338042509606858,-2.526158873234884,6.112830507546224,1.0163800716400146,-2.114973847066061
1708443212.4588,-2.1428442001342773,-1.3337416809848328,-2.526142422352926,6.112818705826559,1.0163967609405518,-2.1149871985064905
1708443212.460761,-2.1428275108337402,-1.3337134283832093,-2.526172463093893,6.1127532599265955,1.016404151916504,-2.1149404684649866
1708443212.462784,-2.1428062915802,-1.3337539297393342,-2.526229206715719,6.112757670670309,1.016404151916504,-2.114962879811422
1708443212.4647958,-2.1428275108337402,-1.3337998551181336,-2.5261171499835413,6.112785565644064,1.016404151916504,-2.1149185339557093
1708443212.466788,-2.1428442001342773,-1.3337583255818863,-2.52616793314089,6.112748610764303,1.0163967609405518,-2.114950958882467
1708443212.4688203,-2.142853021621704,-1.3337835234454651,-2.526146952305929,6.112790095597067,1.016416072845459,-2.114889446889059
1708443212.470803,-2.1427814960479736,-1.3338371527246018,-2.526158873234884,6.112736451416769,1.0163922309875488,-2.1149027983294886
1708443212.4727783,-2.1427664756774902,-1.3338195246509095,-2.526137892399923,6.11279188373641,1.016437292098999,-2.1148412863360804
1708443212.4747705,-2.142819404602051,-1.3337909591249009,-2.526163403187887,6.11274682262496,1.0164250135421753,-2.114805046712057
1708443212.4767983,-2.142819404602051,-1.333704636698105,-2.526135031376974,6.112754332810201,1.016420602798462,-2.1148307959186
1708443212.4787827,-2.1427834033966064,-1.3337998551181336,-2.52616793314089,6.1127052185829065,1.0164371728897095,-2.1147826353656214
1708443212.4807675,-2.142836332321167,-1.333734245305397,-2.52616793314089,6.11270962932662,1.0164282321929932,-2.1147783438311976
1708443212.482781,-2.142815113067627,-1.3337045770934601,-2.526154343281881,6.112751352577963,1.0164070129394531,-2.114730183278219
1708443212.4848032,-2.1427876949310303,-1.3337658506682892,-2.526205364857809,6.112647998123922,1.016432762145996,-2.1146567503558558
1708443212.4867792,-2.142819404602051,-1.3338116866401215,-2.526203695927755,6.112654316216268,1.016432762145996,-2.1145995298968714
1708443212.4887786,-2.1428282260894775,-1.3337297600558777,-2.526209894810812,6.112704860955038,1.016432762145996,-2.114596668873922
1708443212.490837,-2.142810821533203,-1.3337835234454651,-2.526175324116842,6.112604844361105,1.0164732933044434,-2.114610020314352
1708443212.4928656,-2.142831802368164,-1.3337495189956208,-2.526179854069845,6.112618195801534,1.0164238214492798,-2.1145079771624964
1708443212.4947991,-2.1427788734436035,-1.3337583255818863,-2.526217047368185,6.112576472550192,1.0164777040481567,-2.1145508925067347
1708443212.4967823,-2.142808198928833,-1.3337702465108414,-2.5261991659747522,6.11265121677474,1.0164523124694824,-2.11442214647402
1708443212.4987826,-2.142810821533203,-1.3337658208659668,-2.5261781851397913,6.112594473152914,1.0164629220962524,-2.114387814198629
1708443212.5007744,-2.1427879333496094,-1.3337495189956208,-2.526187245045797,6.112601744919576,1.016501784324646,-2.1143277327166956
1708443212.5027792,-2.14280366897583,-1.3337549579194565,-2.5261662642108362,6.112601864128866,1.0165002346038818,-2.114274803792135
1708443212.5047789,-2.1427788734436035,-1.3337835234454651,-2.526203695927755,6.1126348851020715,1.0165046453475952,-2.114232842122213
1708443212.5067756,-2.1427791118621826,-1.3337790381959458,-2.526187245045797,6.112652766495504,1.0164837837219238,-2.114185158406393
1708443212.50877,-2.1427948474884033,-1.3337223094752808,-2.526175324116842,6.112589943199911,1.016533613204956,-2.1140831152545374
1708443212.5107863,-2.1428284645080566,-1.3337627214244385,-2.526224915181295,6.112586962967672,1.016538143157959,-2.1140645186053675
1708443212.5127628,-2.142815113067627,-1.3337984842113038,-2.5261917749988,6.112591492920675,1.016538143157959,-2.11393386522402
1708443212.5147703,-2.1427948474884033,-1.333795354967453,-2.526170794163839,6.112596022873678,1.0165455341339111,-2.1138466040240687
1708443212.5167747,-2.1428494453430176,-1.3337539297393342,-2.5261917749988,6.112607943802633,1.0165245532989502,-2.11377460161318
1708443212.518767,-2.142819404602051,-1.3337804091027756,-2.526175324116842,6.112603294640341,1.0165364742279053,-2.1136754194842737
1708443212.5207589,-2.14280366897583,-1.3337627214244385,-2.5262113253222864,6.112570273667135,1.016527533531189,-2.113591019307272
1708443212.5227897,-2.1427841186523438,-1.3337416511825104,-2.5261781851397913,6.112551200180807,1.0164985656738281,-2.113412682210104
1708443212.5247672,-2.14277982711792,-1.3338073056987305,-2.5261736551867884,6.112595903664388,1.0165770053863525,-2.1133087317096155
1708443212.5268056,-2.142807960510254,-1.3337865632823487,-2.5261991659747522,6.1125526306922815,1.016597867012024,-2.1132095495807093
1708443212.5287614,-2.14280104637146,-1.3337865632823487,-2.5262280146228235,6.112470137863912,1.0166101455688477,-2.113086525593893
1708443212.5307612,-2.1427674293518066,-1.33377160251651,-2.5263105074511927,6.11242555358962,1.0166010856628418,-2.112962071095602
1708443212.5328,-2.142775535583496,-1.3337702465108414,-2.5262234846698206,6.112450945168295,1.016625165939331,-2.1127799193011683
1708443212.5347612,-2.142763137817383,-1.333802880053856,-2.5262518564807337,6.112368690758505,1.0166534185409546,-2.1126073042498987
1708443212.5368195,-2.1427841186523438,-1.3337746274522324,-2.52627140680422,6.112440454750814,1.0166534185409546,-2.112427059804098
1708443212.5387833,-2.1427717208862305,-1.333767221575119,-2.5262954870807093,6.112473237305441,1.0166776180267334,-2.1122377554522913
1708443212.540777,-2.14280104637146,-1.333746076827385,-2.526278797780172,6.112406241684713,1.0167062282562256,-2.1121118704425257
1708443212.5427632,-2.1427764892578125,-1.3337790381959458,-2.526287857686178,6.112424123078146,1.0166685581207275,-2.1119359175311487
1708443212.5447567,-2.142763137817383,-1.3337835234454651,-2.526283327733175,6.112435924797811,1.0166807174682617,-2.11171800294985
1708443212.5467653,-2.142747163772583,-1.3338130426457901,-2.5263028780566614,6.112390982895651,1.0166594982147217,-2.111542050038473
1708443212.5488052,-2.142763137817383,-1.3337539297393342,-2.5263448397265833,6.112447845726766,1.0167347192764282,-2.1113136450396937
1708443212.5507932,-2.14277982711792,-1.3337746423533936,-2.5263477007495325,6.112386452942648,1.016725778579712,-2.1110265890704554
1708443212.5527692,-2.142751693725586,-1.3337539297393342,-2.5263147989856165,6.112374651222982,1.0167286396026611,-2.110774342213766
1708443212.5547683,-2.1427478790283203,-1.3337209087661286,-2.5263312498675745,6.112407672196188,1.016757607460022,-2.1104887167560022
1708443212.556773,-2.1427040100097656,-1.3337209534696122,-2.526367489491598,6.112395512848654,1.0167529582977295,-2.1102455298053187
1708443212.5588124,-2.1426870822906494,-1.3337460619262238,-2.5263477007495325,6.112374651222982,1.016800880432129,-2.110022846852438
1708443212.5607712,-2.14274001121521,-1.3337120872787018,-2.526376549397604,6.112388121872701,1.0168143510818481,-2.109745804463522
1708443212.5627747,-2.142674684524536,-1.3337909591249009,-2.5263477007495325,6.112376081734457,1.016829490661621,-2.1094606558429163
1708443212.5647533,-2.1426703929901123,-1.3337550175241013,-2.526379410420553,6.112298714905538,1.016829490661621,-2.109196488057272
1708443212.5667706,-2.1426587104797363,-1.3337416511825104,-2.5263822714435022,6.112307536392965,1.016893982887268,-2.108887497578756
1708443212.5687785,-2.142695903778076,-1.3337539297393342,-2.526403252278463,6.1122625944908044,1.0168862342834473,-2.108587090169088
1708443212.5708106,-2.1426632404327393,-1.333790974026062,-2.5264528433429163,6.112238514214315,1.0169017314910889,-2.1082051436053675
1708443212.5727973,-2.1426587104797363,-1.3337821674397965,-2.526428763066427,6.112234103470602,1.0168715715408325,-2.1079300085650843
1708443212.5747585,-2.1426544189453125,-1.3337627214244385,-2.5264723936664026,6.112235653191366,1.0169135332107544,-2.107539955769674
1708443212.5767622,-2.1426563262939453,-1.3337834936431427,-2.5264604727374476,6.112205731659689,1.0169615745544434,-2.1072166601764124
1708443212.578771,-2.1426525115966797,-1.3337373745492478,-2.52651292482485,6.112293946533956,1.0169451236724854,-2.106856171284811
1708443212.5807745,-2.142648220062256,-1.3337327998927613,-2.5264888445483606,6.112237083702841,1.0169646739959717,-2.106467072163717
1708443212.5827723,-2.142615556716919,-1.3337133985808869,-2.526503864918844,6.112223732262411,1.017005205154419,-2.10602313676943
1708443212.584825,-2.1426358222961426,-1.3337702614120026,-2.526515785847799,6.112171518593588,1.0169932842254639,-2.1056469122516077
1708443212.5867653,-2.1426243782043457,-1.3337209087661286,-2.526520315800802,6.112180459290304,1.0170173645019531,-2.1052268187152308
1708443212.5887685,-2.1426243782043457,-1.3338238906911393,-2.5265308062182825,6.112147319107809,1.0170714855194092,-2.1048272291766565
1708443212.5908291,-2.1425793170928955,-1.3337865632823487,-2.5265381971942347,6.112135517388143,1.0170685052871704,-2.104377571736471
1708443212.5928552,-2.1425633430480957,-1.3337328743985672,-2.5265756289111536,6.112119185715475,1.017063856124878,-2.1038673559771937
1708443212.5948093,-2.1425297260284424,-1.3338239055923005,-2.526578728352682,6.112099754601278,1.0170848369598389,-2.1034134070025843
1708443212.5967648,-2.1425812244415283,-1.3337716323188324,-2.526604477559225,6.112140047341146,1.0171256065368652,-2.102974239979879
1708443212.5988092,-2.142597198486328,-1.3337835234454651,-2.526623789464132,6.112075674324789,1.0171570777893066,-2.1025026480304163
1708443212.6008022,-2.142573118209839,-1.3337297600558777,-2.526623789464132,6.112080085068502,1.0172234773635864,-2.1019795576678675
1708443212.6027749,-2.1425247192382812,-1.3337672066739579,-2.5266385714160364,6.112038481026449,1.017230749130249,-2.101522747670309
1708443212.6048357,-2.142529010772705,-1.333844707613327,-2.5266643206225794,6.112113106041708,1.0172667503356934,-2.1009977499591272
1708443212.6068008,-2.142533302307129,-1.3337939840606232,-2.5266671816455286,6.112060773163595,1.0172908306121826,-2.1004231611834925
1708443212.6088204,-2.1424386501312256,-1.3338072758964081,-2.526703182850973,6.112041103630819,1.017346739768982,-2.0998790899859827
1708443212.6108472,-2.1424431800842285,-1.3337658208659668,-2.526691261922018,6.111996519356527,1.017386794090271,-2.099283997212545
1708443212.6128235,-2.1424362659454346,-1.3337297600558777,-2.526724163685934,6.112044083863058,1.0174533128738403,-2.098748032246725
1708443212.6147819,-2.142460823059082,-1.3338028651526947,-2.526740852986471,6.111857402115621,1.0174354314804077,-2.098163906727926
1708443212.6168392,-2.142437219619751,-1.3337405782989045,-2.5267604033099573,6.111971246987142,1.0174709558486938,-2.097614590321676
1708443212.6187954,-2.142441511154175,-1.3337583106807251,-2.5267346541034144,6.111879694252767,1.0174999237060547,-2.0969365278827112
1708443212.6208444,-2.1424460411071777,-1.3337495189956208,-2.5267468134509485,6.111834990769186,1.0175026655197144,-2.0963476339923304
1708443212.6227977,-2.1423726081848145,-1.3337922555259247,-2.526841465626852,6.111820089607992,1.0175342559814453,-2.095682922993795
1708443212.6248493,-2.1424107551574707,-1.3337539446404953,-2.526832405720846,6.111829149513998,1.0175750255584717,-2.094984833394186
1708443212.6267848,-2.1423232555389404,-1.3337538999370118,-2.5268262068377894,6.111763226776876,1.0175492763519287,-2.094313446675436
1708443212.6288066,-2.1423003673553467,-1.3337538999370118,-2.526911799107687,6.1117931483085535,1.0176604986190796,-2.093574825917379
1708443212.6307771,-2.142331838607788,-1.3337746423533936,-2.526907269154684,6.111844050675192,1.017663598060608,-2.0928667227374476
1708443212.63281,-2.142275333404541,-1.333799884920456,-2.5269401709186,6.111740815430441,1.0176576375961304,-2.092219654713766
1708443212.634807,-2.14227294921875,-1.3337297898582001,-2.526968781148092,6.111729013710775,1.0177191495895386,-2.0914529005633753
1708443212.6368375,-2.14224910736084,-1.3338042956641694,-2.5270121733294886,6.111726033478536,1.0177717208862305,-2.0906270186053675
1708443212.6387973,-2.142212152481079,-1.3337450337461014,-2.5270031134234827,6.111673342972555,1.0177371501922607,-2.0898993651019495
1708443212.64078,-2.142195701599121,-1.3337627214244385,-2.5270360151873987,6.1116454479988,1.017815351486206,-2.0890873114215296
1708443212.6427968,-2.142139434814453,-1.3337746423533936,-2.5270677248584192,6.1116524813468835,1.0178558826446533,-2.0882628599749964
1708443212.6448028,-2.142197608947754,-1.3337939840606232,-2.5271201769458216,6.1115959761436365,1.0178741216659546,-2.0874202887164515
1708443212.646788,-2.1420960426330566,-1.3337732416442414,-2.5271487871753138,6.111616837769308,1.0179893970489502,-2.086616341267721
1708443212.6487968,-2.142117500305176,-1.333795354967453,-2.52714711824526,6.111619818001547,1.018009066581726,-2.0856197516070765
1708443212.6507657,-2.1421217918395996,-1.3337090772441407,-2.527196709309713,6.111500251084127,1.0180408954620361,-2.084794823323385
1708443212.6528306,-2.1420774459838867,-1.333782137637474,-2.5271619001971644,6.111530053406515,1.018093466758728,-2.0839226881610315
1708443212.6547844,-2.1420254707336426,-1.3337494891932984,-2.5271921793567103,6.111485111504354,1.0181368589401245,-2.083041493092672
1708443212.6568115,-2.1419670581817627,-1.333770216708519,-2.5272520224200647,6.111461269646444,1.0181307792663574,-2.082156006489889
1708443212.6587906,-2.1419644355773926,-1.333832861190178,-2.527250353490011,6.1114210961158655,1.0182377099990845,-2.0812719503985804
1708443212.6607935,-2.1419284343719482,-1.3337373000434418,-2.527254883443014,6.111413705139913,1.018272042274475,-2.0803688208209437
1708443212.6627846,-2.141995668411255,-1.3337702316096802,-2.5273194948779505,6.111402976303854,1.018341064453125,-2.0793283621417444
1708443212.6648347,-2.1419010162353516,-1.3337494891932984,-2.527339045201437,6.111386644631185,1.0183806419372559,-2.078393284474508
1708443212.6667752,-2.1418371200561523,-1.3337538999370118,-2.527379576359884,6.11132966259078,1.0184494256973267,-2.077449623738424
1708443212.6688364,-2.141843557357788,-1.3337953847697754,-2.5273869673358362,6.111341583519735,1.0184721946716309,-2.076484028493063
1708443212.6707969,-2.1417651176452637,-1.3337746423533936,-2.5273991266833704,6.111302959709921,1.0185458660125732,-2.0755422751056116
1708443212.6728394,-2.1417746543884277,-1.3337373000434418,-2.527463499699728,6.1112791178520105,1.0186059474945068,-2.0745418707477015
1708443212.67478,-2.1417622566223145,-1.333762751226761,-2.527475420628683,6.11127136924819,1.0186614990234375,-2.073566261922018
1708443212.6768284,-2.1417429447174072,-1.3337746423533936,-2.5275071302997034,6.111227857857504,1.0187140703201294,-2.072498623524801
1708443212.6787758,-2.141723394393921,-1.3337953847697754,-2.5274980703936976,6.111157882004537,1.0187815427780151,-2.0714319388019007
1708443212.6808083,-2.141674041748047,-1.3337909591249009,-2.5275474230395716,6.1111429808433435,1.0188374519348145,-2.0703848044024866
1708443212.6828277,-2.1416916847229004,-1.333799884920456,-2.5275548140155237,6.111114370613851,1.018861174583435,-2.069296185170309
1708443212.684814,-2.1416237354278564,-1.333790974026062,-2.5276451746570032,6.11108015754775,1.0189878940582275,-2.0682714621173304
1708443212.6868587,-2.141587495803833,-1.333790974026062,-2.5276389757739466,6.1110350964363,1.019035816192627,-2.067155663167135
1708443212.6888275,-2.1415581703186035,-1.3338073056987305,-2.527700487767355,6.110999452858724,1.0191031694412231,-2.0660789648639124
1708443212.6908066,-2.1415185928344727,-1.3338250380805512,-2.527710739766256,6.111005055695333,1.0191230773925781,-2.0649951140033167
1708443212.6928568,-2.1414787769317627,-1.3338028949550171,-2.5277815500842493,6.110965359001913,1.019170880317688,-2.063876454030172
1708443212.6948316,-2.141462802886963,-1.3337613207152863,-2.5277515093432825,6.110882627754965,1.0192809104919434,-2.0627921263324183
1708443212.6968048,-2.141406297683716,-1.3338151437095185,-2.527787510548727,6.110814320832052,1.0192865133285522,-2.061646286641256
1708443212.6988246,-2.141374349594116,-1.3337984842113038,-2.527839962636129,6.1108484146888635,1.0193634033203125,-2.0605595747577112
1708443212.7008007,-2.1414036750793457,-1.3338358861259003,-2.5278428236590784,6.110776650696554,1.0194189548492432,-2.059331719075338
1708443212.7027812,-2.141343593597412,-1.3337702465108414,-2.52789551416506,6.110719787865438,1.0195406675338745,-2.058154884968893
1708443212.7047784,-2.141324281692505,-1.3337702316096802,-2.5279510656939905,6.110693084984579,1.0195798873901367,-2.056903664265768
1708443212.7068083,-2.141328811645508,-1.3337821525386353,-2.5279465357409876,6.110652553826132,1.0196022987365723,-2.0557168165790003
1708443212.708794,-2.1412596702575684,-1.3337702316096802,-2.5279839674579065,6.110625731735983,1.0197241306304932,-2.054563347493307
1708443212.710779,-2.1412315368652344,-1.3337939840606232,-2.528036419545309,6.110588538437643,1.0197166204452515,-2.053366009389059
1708443212.7128112,-2.141179323196411,-1.333811716442444,-2.5280678907977503,6.110540258675375,1.019893765449524,-2.05214769044985
1708443212.7147722,-2.1411757469177246,-1.3337865632823487,-2.5281084219561976,6.110496985703268,1.0199283361434937,-2.050913159047262
1708443212.716801,-2.1411561965942383,-1.3337865632823487,-2.528118912373678,6.1104925749595544,1.0200247764587402,-2.049709145222799
1708443212.718808,-2.1410999298095703,-1.3337538999370118,-2.528163735066549,6.110458123474874,1.0201220512390137,-2.0484960714923304
1708443212.720775,-2.141084671020508,-1.3338314604810257,-2.52821928659548,6.110373127251425,1.0201400518417358,-2.0472314993487757
1708443212.7227845,-2.141056537628174,-1.3338151437095185,-2.528250757847921,6.1103612063224695,1.0202336311340332,-2.0459616819964808
1708443212.724781,-2.141036033630371,-1.3337984842113038,-2.5283153692828577,6.110296952515402,1.0203132629394531,-2.044814411793844
1708443212.726791,-2.1409311294555664,-1.3338283759406586,-2.52832276025881,6.110246050148763,1.020349144935608,-2.043581787739889
1708443212.7287807,-2.140894651412964,-1.3338028949550171,-2.5284205118762415,6.11019395568923,1.020421028137207,-2.0423668066607874
1708443212.7307718,-2.140855312347412,-1.3337362569621583,-2.528376881276266,6.110205518990316,1.0204843282699585,-2.041116539631979
1708443212.7328157,-2.140843391418457,-1.3337984842113038,-2.528442684804098,6.110162246018209,1.020570158958435,-2.039863411580221
1708443212.7347803,-2.140836715698242,-1.3337865632823487,-2.5285208860980433,6.110130774765768,1.0206711292266846,-2.0386017004596155
1708443212.7368097,-2.1408047676086426,-1.3338358861259003,-2.52855092683901,6.110069739609518,1.020738124847412,-2.0373571554767054
1708443212.738851,-2.140768527984619,-1.3338269752315064,-2.5286529699908655,6.110068309098043,1.0207850933074951,-2.036072556172506
1708443212.7407663,-2.1406893730163574,-1.3338269752315064,-2.52866775194277,6.110032307892599,1.020885944366455,-2.034797016774313
1708443212.7428565,-2.1406962871551514,-1.3338029247573395,-2.528696123753683,6.109993564873495,1.0209836959838867,-2.0335281530963343
1708443212.7448046,-2.1406404972076416,-1.3338062328151246,-2.5287848154651087,6.109948503762045,1.0210375785827637,-2.0322774092303675
1708443212.7467995,-2.140625476837158,-1.333810643558838,-2.528762165700094,6.109928834229269,1.0211188793182373,-2.030924145375387
1708443212.7487676,-2.1405599117279053,-1.3338117462447663,-2.5288355986224573,6.10986481884078,1.0212239027023315,-2.029620949422018
1708443212.7507877,-2.1405563354492188,-1.3337821525386353,-2.5289092699633997,6.109812485962667,1.0213488340377808,-2.0283005873309534
1708443212.7528005,-2.140521287918091,-1.3337776523879548,-2.5289557615863245,6.109690177231588,1.021390676498413,-2.0268920103656214
1708443212.7547863,-2.1404592990875244,-1.3337732714465638,-2.5290172735797327,6.10976921299056,1.021484136581421,-2.025431458150045
1708443212.7568445,-2.140446186065674,-1.3338019114783783,-2.529027763997213,6.109697210579672,1.0215846300125122,-2.024000946675436
1708443212.758804,-2.140366554260254,-1.3338429790786286,-2.5290589968310755,6.109631764679708,1.021673321723938,-2.022630039845602
1708443212.7607965,-2.140371799468994,-1.3338759702495118,-2.529111687337057,6.1095852730567834,1.0217349529266357,-2.0212724844561976
1708443212.7627838,-2.1403040885925293,-1.3338062328151246,-2.5291550795184534,6.109525668412008,1.0218039751052856,-2.0198662916766565
1708443212.7648206,-2.1403260231018066,-1.3338283759406586,-2.529228750859396,6.109546649246969,1.0219045877456665,-2.0184672514544886
1708443212.7667713,-2.140253782272339,-1.3338182431510468,-2.5292301813708704,6.109494077950277,1.0219992399215698,-2.0171573797809046
1708443212.7688117,-2.140254497528076,-1.3338385385325928,-2.5293079058276575,6.109396922379293,1.0220879316329956,-2.015641991292135
1708443212.7707987,-2.1402058601379395,-1.3338548851064225,-2.529351536427633,6.10934458950118,1.022231101989746,-2.014336887990133
1708443212.7728193,-2.1401617527008057,-1.3338592958501359,-2.5293951670276087,6.10929702499465,1.022306203842163,-2.0129264036761683
1708443212.774785,-2.140125274658203,-1.3338549447110672,-2.529414478932516,6.109260904579916,1.0223780870437622,-2.011550251637594
1708443212.7768402,-2.140134334564209,-1.3338834953359147,-2.5295165220843714,6.109250533371725,1.0224533081054688,-2.010136429463522
1708443212.7787838,-2.140077829360962,-1.3338628125241776,-2.5295913855182093,6.109255063324728,1.0225614309310913,-2.0087516943561
1708443212.7808068,-2.140015125274658,-1.3338298958591004,-2.5295990149127405,6.10916684845046,1.0226452350616455,-2.007455650960104
1708443212.7828023,-2.139974594116211,-1.3338372570327302,-2.529663387929098,6.109072792321005,1.0227386951446533,-2.0060370604144495
1708443212.7848458,-2.139902114868164,-1.3338941049626847,-2.5297189394580286,6.109104025154867,1.0228140354156494,-2.004629913960592
1708443212.7868042,-2.1399240493774414,-1.333889589910843,-2.529804531727926,6.109042751580038,1.0228981971740723,-2.003218475972311
1708443212.7888145,-2.139845371246338,-1.33393448710952,-2.5298433939563196,6.108969318657675,1.0230273008346558,-2.0017998854266565
1708443212.790831,-2.139822483062744,-1.3338689070991059,-2.529874865208761,6.10895453670577,1.0231071710586548,-2.000342671071188
1708443212.7928586,-2.1398322582244873,-1.333827556376793,-2.5299065748797815,6.1089022038276575,1.0231943130493164,-1.9989503065692347
1708443212.7948315,-2.1397430896759033,-1.3339181405356904,-2.530008618031637,6.108866083412924,1.0233038663864136,-1.9975393454181116
1708443212.7967992,-2.1397182941436768,-1.3339461398175736,-2.5300398508654993,6.108818399697103,1.0234031677246094,-1.996124569569723
1708443212.7987733,-2.139678716659546,-1.3339384657195588,-2.530128542576925,6.108777868538656,1.0234962701797485,-1.9946020285235804
1708443212.800831,-2.1396255493164062,-1.3339139384082337,-2.5301268736468714,6.108743655472555,1.023608684539795,-1.9931748549090784
1708443212.8027902,-2.1396431922912598,-1.3339582097581406,-2.530191246663229,6.108648049622335,1.0236918926239014,-1.9917672316180628
1708443212.80479,-2.1395912170410156,-1.333941788678505,-2.5302558580981653,6.108709203987875,1.0238251686096191,-1.9902809301959437
1708443212.8067877,-2.1395673751831055,-1.3339819771102448,-2.530339781438009,6.108664500504293,1.023904800415039,-1.9888041655169886
1708443212.808789,-2.1394996643066406,-1.3339329075864335,-2.5304043928729456,6.108570444374838,1.0240298509597778,-1.9873617331134241
1708443212.810808,-2.1394762992858887,-1.3339332056096573,-2.530390803013937,6.108489858895101,1.024100422859192,-1.985983673726217
1708443212.8128145,-2.1394155025482178,-1.3339373630336304,-2.5304299036609095,6.108540284424581,1.0242387056350708,-1.984546963368551
1708443212.8147743,-2.139392375946045,-1.3339248609593888,-2.53047758737673,6.108504521637716,1.0242854356765747,-1.9831045309649866
1708443212.8167813,-2.139357089996338,-1.333999590282776,-2.5305376688586634,6.108456718712606,1.0244356393814087,-1.981673542653219
1708443212.8187797,-2.1393489837646484,-1.3339821708253403,-2.5305872599231165,6.108432519226827,1.0244895219802856,-1.9803560415851038
1708443212.8208187,-2.139345645904541,-1.3340018552592774,-2.530633513127462,6.108392584114828,1.0245722532272339,-1.978842560444967
1708443212.8227782,-2.139228105545044,-1.3339942258647461,-2.5306862036334437,6.1083446619804285,1.0246806144714355,-1.9774921576129358
1708443212.824778,-2.1391592025756836,-1.3340106916478653,-2.530776325856344,6.1082836268241785,1.0248024463653564,-1.9761174360858362
1708443212.8267624,-2.1391441822052,-1.3339616519263764,-2.5308318773852747,6.108277308731832,1.0249104499816895,-1.9747174421893519
1708443212.828796,-2.1391687393188477,-1.333957017665245,-2.530854050313131,6.108249056130209,1.0249853134155273,-1.9733131567584437
1708443212.8307655,-2.1391007900238037,-1.3339887124351044,-2.5309067408191126,6.108205306320944,1.0251076221466064,-1.971855942402975
1708443212.8328083,-2.1390857696533203,-1.333985598092415,-2.5310447851764124,6.10815309265212,1.0252156257629395,-1.970496956502096
1708443212.8347826,-2.139066696166992,-1.3340300482562562,-2.5310385862933558,6.108150231629171,1.025297999382019,-1.9691036383258265
1708443212.8367918,-2.139009952545166,-1.3339682084373017,-2.531091038380758,6.108141171723165,1.0253914594650269,-1.9676912466632288
1708443212.838802,-2.138965606689453,-1.3340300631574173,-2.531174961720602,6.108074295311727,1.0254920721054077,-1.9662192503558558
1708443212.8407793,-2.138937473297119,-1.3340344440988083,-2.5312112013446253,6.108017074852743,1.0255762338638306,-1.9647906462298792
1708443212.8428123,-2.1388652324676514,-1.334074543123581,-2.5312803427325647,6.107969271927633,1.0257130861282349,-1.963292423878805
1708443212.8448238,-2.1388916969299316,-1.3340169799378891,-2.531360928212301,6.1079993126686,1.0258046388626099,-1.9618166128741663
1708443212.846784,-2.1388509273529053,-1.3340495389750977,-2.531395498906271,6.107984411507406,1.0258797407150269,-1.9603584448443812
1708443212.84879,-2.138805866241455,-1.3340538007071991,-2.531426970158712,6.107912528305807,1.0259957313537598,-1.9588411490069788
1708443212.850816,-2.138798475265503,-1.3340538156083603,-2.53149921098818,6.107877957611837,1.0261456966400146,-1.9574349562274378
1708443212.8527694,-2.138725757598877,-1.3340495389750977,-2.531560484563009,6.107830273896017,1.0261954069137573,-1.955926243458883
1708443212.854813,-2.1386990547180176,-1.3340526235154648,-2.531585995350973,6.107806551247396,1.0262842178344727,-1.9546111265765589
1708443212.856775,-2.138608932495117,-1.3340529811433335,-2.5316384474383753,6.107795941620626,1.0264301300048828,-1.9531376997577112
1708443212.8587549,-2.138568162918091,-1.3340204519084473,-2.5317285696612757,6.107743727951803,1.0265142917633057,-1.9516952673541468
1708443212.8608048,-2.1386196613311768,-1.3341312569430848,-2.5317793528186243,6.107722866326132,1.0266222953796387,-1.9502704779254358
1708443212.8627837,-2.1385622024536133,-1.3340899807265778,-2.5318530241595667,6.107757198601522,1.026723027229309,-1.9488018194781702
1708443212.8647752,-2.1385514736175537,-1.334162951712944,-2.5318694750415247,6.107676493912496,1.0268640518188477,-1.9474499861346644
1708443212.8668177,-2.1384949684143066,-1.3341419261744996,-2.53197151819338,6.107624041825094,1.026906132698059,-1.945986572896139
1708443212.868815,-2.1383888721466064,-1.3341379028609772,-2.5320146719561976,6.107624041825094,1.027010202407837,-1.9445746580706995
1708443212.870777,-2.138443946838379,-1.3341379177621384,-2.5321033636676233,6.107567059784689,1.0271271467208862,-1.94318133989443
1708443212.8727977,-2.138411045074463,-1.3341656786254426,-2.532113854085104,6.107540356903829,1.02724027633667,-1.9418004194842737
1708443212.874762,-2.1383633613586426,-1.3341701340726395,-2.5321949164019983,6.107556688576498,1.0273391008377075,-1.9403718153582972
1708443212.8767736,-2.138273239135742,-1.334141121511795,-2.5322306791888636,6.107537376671591,1.0274550914764404,-1.9389079252826136
1708443212.8787832,-2.138259172439575,-1.3341823828271409,-2.532307211552755,6.107447731285848,1.0275393724441528,-1.9374783674823206
1708443212.8807666,-2.1382555961608887,-1.3341736805490036,-2.5323343912707728,6.107467043190756,1.0276352167129517,-1.9360011259662073
1708443212.8827553,-2.1382555961608887,-1.3341811460307618,-2.5324109236346644,6.107419121056356,1.0277299880981445,-1.9345515410052698
1708443212.8847675,-2.1381664276123047,-1.3342093539289017,-2.5324631373034876,6.107380378037252,1.0278469324111938,-1.9330809752093714
1708443212.8867648,-2.138146162033081,-1.3341779571822663,-2.5325186888324183,6.1074209091956995,1.0279356241226196,-1.9316123167621058
1708443212.888769,-2.138093948364258,-1.3341767948916932,-2.5325713793383997,6.1073729870613,1.0280516147613525,-1.9301064650165003
1708443212.8907635,-2.1380419731140137,-1.334160493021347,-2.532593552266256,6.107365596085348,1.0281685590744019,-1.9286816755877894
1708443212.8928187,-2.138059616088867,-1.3342541319182892,-2.5326746145831507,6.107336985855856,1.0282890796661377,-1.9272063414203089
1708443212.8947983,-2.1380233764648438,-1.3342093539289017,-2.5327017943011683,6.107265221863546,1.0284348726272583,-1.9257281462298792
1708443212.8967638,-2.1379711627960205,-1.3342529100230713,-2.5327780882464808,6.10727738121108,1.0285292863845825,-1.9241765181170862
1708443212.8987548,-2.1379384994506836,-1.3342203807881852,-2.5328787008868616,6.107223379402914,1.0286378860473633,-1.9227379004107874
1708443212.9007986,-2.1378872394561768,-1.334245355134346,-2.532931152974264,6.107250439911642,1.0287097692489624,-1.9212372938739222
1708443212.902779,-2.1378633975982666,-1.3342692267945786,-2.5330167452441614,6.107208239823141,1.0288797616958618,-1.919812027608053
1708443212.9048042,-2.137848377227783,-1.3342691969922562,-2.5330436865436,6.107209789543905,1.0289217233657837,-1.9183977285968226
1708443212.9067895,-2.137828826904297,-1.3343180429986496,-2.5331037680255335,6.107127773552694,1.0290757417678833,-1.9169357458697718
1708443212.9087777,-2.1377882957458496,-1.334285483961441,-2.533081118260519,6.1072027561958215,1.0291048288345337,-1.9154966513263147
1708443212.910791,-2.1377062797546387,-1.3343334806016465,-2.5332070032702845,6.107162105828085,1.0292878150939941,-1.914058033620016
1708443212.912799,-2.137716770172119,-1.3342801493457337,-2.5332205931292933,6.107157695084371,1.0294034481048584,-1.912586514149801
1708443212.9147835,-2.137622117996216,-1.3343005937388916,-2.5333598295794886,6.10715018489913,1.0294997692108154,-1.911166016255514
1708443212.9167676,-2.1376566886901855,-1.3343541336110611,-2.533358399068014,6.107097852021017,1.0295747518539429,-1.9097240606891077
1708443212.9187808,-2.1376125812530518,-1.3343247038177033,-2.5333974997149866,6.107068049698629,1.0296671390533447,-1.9082840124713343
1708443212.9208217,-2.137547492980957,-1.334332139497139,-2.53345758119692,6.1071157334144495,1.0297421216964722,-1.90680438676943
1708443212.9227936,-2.1375393867492676,-1.3343738478473206,-2.5335477034198206,6.107096302300253,1.0298711061477661,-1.90540057817568
1708443212.9247665,-2.137528657913208,-1.3343591851047059,-2.533586327229635,6.107044207840719,1.0300240516662598,-1.9040053526507776
1708443212.9267757,-2.1375012397766113,-1.3343606752208252,-2.533653799687521,6.107090341835775,1.0301445722579956,-1.902475659047262
1708443212.9287949,-2.1374359130859375,-1.3344258528998871,-2.5337470213519495,6.1070546982581995,1.030240535736084,-1.9009736219989222
1708443212.930771,-2.137442111968994,-1.3343842786601563,-2.533787552510397,6.10702000835494,1.0303654670715332,-1.8995268980609339
1708443212.9327946,-2.137403964996338,-1.334363506441452,-2.5338431040393274,6.107033479004659,1.0304454565048218,-1.8979700247394007
1708443212.9347692,-2.1374146938323975,-1.334371106033661,-2.533893887196676,6.1070289490516565,1.0305655002593994,-1.896437946950094
1708443212.9367967,-2.1373608112335205,-1.3344039928964158,-2.5339794794665735,6.10697220542983,1.0306977033615112,-1.8950141111956995
1708443212.9387715,-2.1373085975646973,-1.334399626856186,-2.534051243458883,6.107038008957662,1.0308070182800293,-1.893505875264303
1708443212.9407623,-2.137279510498047,-1.334408388738968,-2.5340903441058558,6.106948721199789,1.0308932065963745,-1.8919289747821253
1708443212.942759,-2.1372971534729004,-1.3344531667283555,-2.5341668764697474,6.107002246170797,1.0309817790985107,-1.8905451933490198
1708443212.9447825,-2.13729190826416,-1.334456281071045,-2.5341818968402308,6.107015597611227,1.0311033725738525,-1.8889969030963343
1708443212.946767,-2.1372203826904297,-1.3344488155892869,-2.53422981897463,6.106960284500875,1.031177282333374,-1.887562100087301
1708443212.9487667,-2.1372218132019043,-1.33444436014209,-2.5343437830554407,6.106954562454977,1.0312855243682861,-1.8860819975482386
1708443212.9507802,-2.1372103691101074,-1.3344488155892869,-2.5343874136554163,6.1069737551505945,1.0314433574676514,-1.8846238295184534
1708443212.9527583,-2.137178897857666,-1.334468276505806,-2.53447133699526,6.1069737551505945,1.0315481424331665,-1.8831542173968714
1708443212.954756,-2.1371259689331055,-1.3345127713731308,-2.534534279500143,6.1069915173347376,1.0316429138183594,-1.8816874662982386
1708443212.9567766,-2.137106418609619,-1.3344551187804718,-2.534558121358053,6.1069737551505945,1.0317140817642212,-1.8804047743426722
1708443212.9587789,-2.1371355056762695,-1.3345114302686234,-2.5346182028399866,6.106978165894308,1.03190016746521,-1.8788188139544886
1708443212.9607992,-2.137032985687256,-1.3344995987466355,-2.53467828432192,6.107007849007406,1.0319602489471436,-1.8773625532733362
1708443212.9628031,-2.1370506286621094,-1.3345443320325394,-2.5347848574267786,6.106946813851156,1.0320924520492554,-1.8758953253375452
1708443212.9647703,-2.137059450149536,-1.3345725399306794,-2.5347982088672083,6.106979954033651,1.0322171449661255,-1.874432388936178
1708443212.9667852,-2.136949062347412,-1.3345813614181061,-2.534895722066061,6.106970894127645,1.032304286956787,-1.872965161000387
1708443212.9687943,-2.136970281600952,-1.3345724952271958,-2.5349841753589075,6.106966483383932,1.0324288606643677,-1.871375862752096
1708443212.9707732,-2.136962413787842,-1.3345507246306916,-2.534994665776388,6.106926071434774,1.0325374603271484,-1.8698995749102991
1708443212.9727967,-2.1368980407714844,-1.3346419495395203,-2.5349958578692835,6.106943952828207,1.032645344734192,-1.8683841864215296
1708443212.9747689,-2.1368908882141113,-1.3345963817885895,-2.535102669392721,6.107012378960409,1.032720685005188,-1.866802994404928
1708443212.9767723,-2.136887311935425,-1.3345963817885895,-2.5351744333850306,6.106966483383932,1.0329036712646484,-1.8652995268451136
1708443212.9787748,-2.136854648590088,-1.33458764970813,-2.5352044741259974,6.106975543289938,1.0329447984695435,-1.8637998739825647
1708443212.980807,-2.1368069648742676,-1.3346070361188431,-2.535290066395895,6.106933343201437,1.0331276655197144,-1.8622897307025355
1708443212.9828103,-2.136791229248047,-1.3346312207034607,-2.5353665987597864,6.10688995102004,1.033206582069397,-1.8607671896563929
1708443212.9847796,-2.1367788314819336,-1.3346026253751297,-2.535409990941183,6.107015597611227,1.033326268196106,-1.8592847029315394
1708443212.986806,-2.1367664337158203,-1.3346474927714844,-2.5354624430285853,6.106942403107443,1.033427119255066,-1.8577469030963343
1708443212.988779,-2.1367478370666504,-1.3346149188331147,-2.535522524510519,6.10693787315444,1.0335264205932617,-1.8562834898578089
1708443212.9907813,-2.13671875,-1.3346832555583497,-2.5356062094317835,6.1069620726402185,1.0336313247680664,-1.8547552267657679
1708443212.9928422,-2.13664174079895,-1.3346300435117264,-2.535650078450338,6.106951343804159,1.033754825592041,-1.8532593886004847
1708443212.9947789,-2.136691093444824,-1.3347487163594742,-2.5356932322131556,6.1069304821784876,1.0338720083236694,-1.851755444203512
1708443212.996798,-2.136659622192383,-1.3346939247897645,-2.5357700029956263,6.106923091202535,1.033980369567871,-1.8503096739398401
1708443212.9987872,-2.1366145610809326,-1.3347803515246888,-2.5357895533191126,6.106954562454977,1.0341167449951172,-1.8488414923297327
1708443213.000803,-2.1366240978240967,-1.3347552579692383,-2.535924498234884,6.107000577240743,1.0342251062393188,-1.8473570982562464
1708443213.0027971,-2.1366240978240967,-1.3347342920354386,-2.535961929951803,6.106982576638021,1.03438138961792,-1.845814053212301
1708443213.0048106,-2.1366002559661865,-1.3348160249045868,-2.5360143820392054,6.10694574096755,1.0344523191452026,-1.8442748228656214
1708443213.0067887,-2.1365411281585693,-1.334764064555504,-2.5360878149615687,6.106978165894308,1.0345886945724487,-1.8428128401385706
1708443213.0088,-2.1365323066711426,-1.3348203909448166,-2.5360923449145716,6.1069915173347376,1.0347418785095215,-1.841208283101217
1708443213.0108037,-2.136500358581543,-1.3348442328027268,-2.5361583868609827,6.106897699623861,1.034859299659729,-1.8396795431720179
1708443213.0128374,-2.136479377746582,-1.334802971487381,-2.5362213293658655,6.106951343804159,1.0349494218826294,-1.8381179014789026
1708443213.0147827,-2.1364712715148926,-1.334851787691452,-2.536264721547262,6.1069960472877405,1.03509521484375,-1.8365057150470179
1708443213.016801,-2.136439800262451,-1.334876002078392,-2.5363953749286097,6.106994497566976,1.035207986831665,-1.8349512259112757
1708443213.0187864,-2.136399030685425,-1.334851787691452,-2.5364719072925013,6.106978165894308,1.0353028774261475,-1.8333528677569788
1708443213.0207813,-2.136425018310547,-1.3348866266063233,-2.536494318638937,6.1069620726402185,1.0354351997375488,-1.8317225615130823
1708443213.022782,-2.1363558769226074,-1.3348627847484131,-2.5365873018847864,6.10699890831069,1.0355552434921265,-1.8301170508014124
1708443213.0247934,-2.136353015899658,-1.3348703396371384,-2.536605183278219,6.107014167099752,1.0356873273849487,-1.8285930792437952
1708443213.0268116,-2.136364459991455,-1.3348690879395981,-2.5366817156421106,6.106990086823263,1.0357760190963745,-1.82701284090151
1708443213.028803,-2.136308193206787,-1.3348778945258637,-2.5367746988879603,6.107014167099752,1.035875678062439,-1.8254464308368128
1708443213.0307803,-2.136308193206787,-1.334885374908783,-2.536825482045309,6.106984245568075,1.036004662513733,-1.823944393788473
1708443213.032795,-2.136345624923706,-1.3349552762559433,-2.5369141737567347,6.107017028122701,1.0361202955245972,-1.8224075476275843
1708443213.0347826,-2.1362805366516113,-1.3349583756974717,-2.5369859377490442,6.107057559281149,1.0362329483032227,-1.8209150473224085
1708443213.036823,-2.136282205581665,-1.3349790436080475,-2.537025038396017,6.107085931092062,1.036336898803711,-1.8194225470172327
1708443213.0387797,-2.136240005493164,-1.334986926322319,-2.5370805899249476,6.10713957527236,1.0364450216293335,-1.8178866545306605
1708443213.0408065,-2.1362242698669434,-1.3350191575339814,-2.5371781031238,6.10712610462264,1.0365530252456665,-1.8163970152484339
1708443213.04281,-2.136237144470215,-1.3349901151708146,-2.5372260252581995,6.107129323273458,1.0366735458374023,-1.8148520628558558
1708443213.0448065,-2.136216163635254,-1.3350180250457306,-2.537307087575094,6.10717402675704,1.0368012189865112,-1.813321892415182
1708443213.0467975,-2.1361684799194336,-1.3350420606187363,-2.537403170262472,6.107157695084371,1.0368975400924683,-1.81175405183901
1708443213.0487967,-2.1361894607543945,-1.3349682104638596,-2.5373924414264124,6.107193696289816,1.0370630025863647,-1.8101704756366175
1708443213.0508077,-2.136164665222168,-1.335095615392067,-2.537494484578268,6.107230651169576,1.0371590852737427,-1.8087123076068323
1708443213.0527968,-2.136140823364258,-1.3351401102593918,-2.5376158396350306,6.107253300934591,1.0372790098190308,-1.8070867697345179
1708443213.0547836,-2.136140823364258,-1.335135744219162,-2.537610117589132,6.107227909355917,1.0374326705932617,-1.8055036703692835
1708443213.0567827,-2.1361212730407715,-1.335089997654297,-2.5376773516284388,6.107319223671713,1.0375242233276367,-1.8038247267352503
1708443213.0587845,-2.136105537414551,-1.3351551306298752,-2.537751022969381,6.107296812325277,1.0376067161560059,-1.8023408094989222
1708443213.0608134,-2.1360976696014404,-1.3350888353637238,-2.53780180612673,6.1073622582252405,1.0377150774002075,-1.8007224241839808
1708443213.062795,-2.136085033416748,-1.3351626855186005,-2.5378544966327112,6.107365596085348,1.0378472805023193,-1.799126927052633
1708443213.064821,-2.1360526084899902,-1.3351705533317109,-2.5379355589496058,6.1073354361350916,1.0379585027694702,-1.7974966208087366
1708443213.0668054,-2.136040210723877,-1.3351617616466065,-2.5379367510425013,6.107384907990255,1.0381163358688354,-1.7959850470172327
1708443213.0688136,-2.1360244750976562,-1.3352031421712418,-2.5380449930774134,6.107491004257955,1.038224458694458,-1.7943580786334437
1708443213.070811,-2.1360416412353516,-1.3351975244334717,-2.5380688349353235,6.107522594719686,1.0383161306381226,-1.792846981679098
1708443213.0727794,-2.136030435562134,-1.335176796918251,-2.538161818181173,6.1075090048606775,1.0384454727172852,-1.7912843863116663
1708443213.0747912,-2.135969638824463,-1.3351930689862748,-2.5381978193866175,6.107528435974874,1.0385730266571045,-1.789795223866598
1708443213.0767808,-2.135969638824463,-1.3352419298938294,-2.5382729212390345,6.1076180813606165,1.0386604070663452,-1.788224999104635
1708443213.0787737,-2.135969638824463,-1.335301862364151,-2.538337055836813,6.107559788018026,1.0387927293777466,-1.7866886297809046
1708443213.0807896,-2.135944128036499,-1.335199461584427,-2.5384133497821253,6.107665765076437,1.0389173030853271,-1.7851827780352991
1708443213.0827835,-2.13594913482666,-1.335273654466011,-2.5384705702411097,6.107689845352926,1.0390015840530396,-1.783689324055807
1708443213.0847886,-2.1359176635742188,-1.3353331697038193,-2.5385380426989954,6.107647883683004,1.039166808128357,-1.7821357885943812
1708443213.086795,-2.1359219551086426,-1.3353617501309891,-2.538593355809347,6.107674944191732,1.0392704010009766,-1.7805874983416956
1708443213.0887942,-2.1359376907348633,-1.3353410524180909,-2.5386534372912806,6.1077273962791345,1.0393786430358887,-1.7790182272540491
1708443213.090764,-2.135918378829956,-1.335352973347046,-2.5387137571917933,6.107784020691671,1.0395065546035767,-1.7774351278888147
1708443213.0928192,-2.1358768939971924,-1.3353397709182282,-2.5388017336474817,6.107848274498739,1.0395952463150024,-1.7758281866656702
1708443213.0948257,-2.135885715484619,-1.3353354346803208,-2.5388456026660364,6.107834923058309,1.0397692918777466,-1.7740843931781214
1708443213.0968022,-2.135890007019043,-1.3353605282357712,-2.538893763219015,6.107966291695394,1.0398476123809814,-1.7724688688861292
1708443213.0987835,-2.135873317718506,-1.3354247373393555,-2.5389776865588587,6.107948291092672,1.0399391651153564,-1.7708342711078089
1708443213.1008027,-2.135852336883545,-1.3354072880795975,-2.5390542189227503,6.107960569649496,1.0400477647781372,-1.7691691557513636
1708443213.1027775,-2.135840892791748,-1.3354679656079789,-2.5390899817096155,6.108024585037985,1.0401512384414673,-1.767524544392721
1708443213.1047938,-2.135873317718506,-1.3355096739581604,-2.53914982477297,6.1080394861991785,1.0402636528015137,-1.7659991423236292
1708443213.1067758,-2.1358566284179688,-1.3354802143624802,-2.53920561472048,6.1080394861991785,1.0404306650161743,-1.7643750349627894
1708443213.1087656,-2.1358089447021484,-1.335479052071907,-2.5392940680133265,6.1080877659614465,1.0405209064483643,-1.762808624898092
1708443213.110787,-2.135829448699951,-1.3354833287051697,-2.539311949406759,6.108151781349935,1.0406006574630737,-1.7612388769732874
1708443213.1128078,-2.1358466148376465,-1.3355075728944321,-2.5393853823291224,6.108195292740621,1.0407629013061523,-1.7596209684955042
1708443213.1147687,-2.135795831680298,-1.3355516505292435,-2.53943640390505,6.108230936318197,1.0408618450164795,-1.7580822149859827
1708443213.1167693,-2.1358256340026855,-1.3356337261250992,-2.539503876362936,6.108241307526388,1.0409495830535889,-1.756519619618551
1708443213.1187687,-2.1357507705688477,-1.335587741141655,-2.5395758787738245,6.108281838684835,1.0410335063934326,-1.7549713293658655
1708443213.1208115,-2.1358132362365723,-1.3356357526830216,-2.539645020161764,6.108333933144369,1.0411162376403809,-1.7534282843219202
1708443213.1227753,-2.1357929706573486,-1.3356369149735947,-2.5397093931781214,6.108398306160726,1.0412662029266357,-1.7518399397479456
1708443213.124764,-2.1357851028442383,-1.3356931966594239,-2.539755646382467,6.1084716198738,1.0413744449615479,-1.750261131917135
1708443213.126772,-2.1357812881469727,-1.3356801581433793,-2.5397873560534876,6.108452069550314,1.0415114164352417,-1.7487285772906702
1708443213.1287704,-2.135810375213623,-1.3356551390937348,-2.539882008229391,6.108468520432272,1.041648268699646,-1.7470806280719202
1708443213.1308124,-2.135814905166626,-1.3357117933085938,-2.5399490038501185,6.108561265259542,1.041735291481018,-1.7454784552203577
1708443213.1327794,-2.135776996612549,-1.3357324463180085,-2.539976183568136,6.1085853455360315,1.0418270826339722,-1.743784252797262
1708443213.134775,-2.135810375213623,-1.3357117933085938,-2.54008132616152,6.108689772873678,1.0419187545776367,-1.742204491292135
1708443213.1368532,-2.135776996612549,-1.335707427268364,-2.5400918165790003,6.108691203385153,1.0419893264770508,-1.7405527273761194
1708443213.1387684,-2.1357243061065674,-1.3357519221356888,-2.5401395002948206,6.108713853150167,1.0421110391616821,-1.7389105002032679
1708443213.1408033,-2.1357812881469727,-1.3358280074647446,-2.540241543446676,6.108854281693258,1.042244791984558,-1.7373765150653284
1708443213.1427667,-2.1357812881469727,-1.3357844960740586,-2.5402522722827356,6.108865010529318,1.0423365831375122,-1.7357085386859339
1708443213.1447706,-2.1357455253601074,-1.3358368587544938,-2.540300194417135,6.108970987587728,1.0424535274505615,-1.734103027974264
1708443213.146794,-2.135733127593994,-1.3358205717853089,-2.5403555075274866,6.10902618148879,1.0424795150756836,-1.7323787848102015
1708443213.148767,-2.1357243061065674,-1.3358312410167237,-2.540403668080465,6.108990180283346,1.0426247119903564,-1.7308247725116175
1708443213.1507814,-2.1357076168060303,-1.3358149540475388,-2.5404515902148646,6.1090561030204675,1.0427659749984741,-1.7292135397540491
1708443213.1528118,-2.135758399963379,-1.3358434003642579,-2.540565792714254,6.109136807709493,1.0428203344345093,-1.72758657137026
1708443213.1547527,-2.1358110904693604,-1.3358347576907654,-2.5405967871295374,6.109168040543356,1.0429376363754272,-1.7261136213885706
1708443213.1567714,-2.135758399963379,-1.3358419102481385,-2.540682379399435,6.10922788360671,1.0430711507797241,-1.72455341020693
1708443213.1587856,-2.1357505321502686,-1.3358391237309952,-2.5406962076770228,6.109317648201742,1.0431180000305176,-1.7230241934405726
1708443213.160772,-2.135754108428955,-1.3359324646047135,-2.540753189717428,6.109339940338888,1.043192982673645,-1.7215407530414026
1708443213.162795,-2.1357293128967285,-1.3359149259379883,-2.5408008734332483,6.1093506691749475,1.043268084526062,-1.719961945210592
1708443213.1647763,-2.1357250213623047,-1.335923658018448,-2.540811363850729,6.109423863678732,1.0434274673461914,-1.7184489409076136
1708443213.1667826,-2.135733127593994,-1.3359402579120179,-2.5409136454211634,6.109437334328451,1.0434650182724,-1.7169154326068323
1708443213.1687691,-2.135758399963379,-1.3359668862870713,-2.5409496466266077,6.1095313904579065,1.0435916185379028,-1.7153351942645472
1708443213.1708145,-2.1356966495513916,-1.335964099769928,-2.540959898625509,6.109552132874288,1.0436623096466064,-1.7136948744403284
1708443213.1728075,-2.1357460021972656,-1.335987852220871,-2.5410409609424036,6.109670388489523,1.043785572052002,-1.7121670881854456
1708443213.1747842,-2.1357250213623047,-1.3360236150077363,-2.541055981312887,6.1096123335655115,1.0438109636306763,-1.710616413746969
1708443213.1767752,-2.1357901096343994,-1.3360139590552826,-2.5411112944232386,6.10977982261733,1.043889045715332,-1.7089913527118128
1708443213.1787665,-2.135741710662842,-1.3360017252019425,-2.5411234537707728,6.109778272896566,1.0440349578857422,-1.7074359099017542
1708443213.1808035,-2.135728597640991,-1.3360139590552826,-2.5412166754352015,6.109854566841879,1.0441068410873413,-1.7059243361102503
1708443213.1827927,-2.135758399963379,-1.3360715371421357,-2.5412150065051478,6.109873878746786,1.0442078113555908,-1.7042973677264612
1708443213.1847703,-2.1357626914978027,-1.3360878241113205,-2.5413289705859583,6.109936702042379,1.0442752838134766,-1.7028115431415003
1708443213.1867747,-2.135716438293457,-1.3360866618207474,-2.5413978735553187,6.109956013947286,1.0443475246429443,-1.701212231312887
1708443213.1887789,-2.135737419128418,-1.3361151826432724,-2.541405264531271,6.109996187477865,1.0444810390472412,-1.6997011343585413
1708443213.1907933,-2.1357672214508057,-1.3360779297402878,-2.5413828531848353,6.110098111420431,1.0445563793182373,-1.6981642881976526
1708443213.1928432,-2.1357672214508057,-1.336130217914917,-2.541496817265646,6.110120403557577,1.0445996522903442,-1.6966875235186976
1708443213.1947927,-2.135737419128418,-1.3361552220634003,-2.541478697453634,6.110168444901266,1.0446465015411377,-1.6952460447894495
1708443213.1968074,-2.13578724861145,-1.3361552220634003,-2.541511837636129,6.11024426200942,1.044769525527954,-1.6937888304339808
1708443213.198821,-2.1357741355895996,-1.3361587536386033,-2.541583840047018,6.110250580101766,1.0448161363601685,-1.6922629515277308
1708443213.2008164,-2.135704755783081,-1.3361456555179139,-2.5416227022754114,6.110380399018087,1.044859766960144,-1.6908400694476526
1708443213.2028213,-2.135720729827881,-1.3362282526544114,-2.5416889826404017,6.110374676972189,1.0449321269989014,-1.6893509070025843
1708443213.2048025,-2.135798692703247,-1.3361779016307374,-2.541696373616354,6.110434520035543,1.0450416803359985,-1.6878865400897425
1708443213.2069855,-2.135741710662842,-1.3361542981914063,-2.5417307058917444,6.110519397049703,1.0450881719589233,-1.686354939137594
1708443213.2089868,-2.1357288360595703,-1.3362345558455964,-2.5417638460742396,6.110527264862814,1.0451409816741943,-1.6848881880389612
1708443213.2107973,-2.1357812881469727,-1.336276264195778,-2.541823927556173,6.110606419831075,1.045267105102539,-1.683340851460592
1708443213.2127788,-2.1357855796813965,-1.336193249826767,-2.5418670813189905,6.110637652664938,1.0453091859817505,-1.6818750540362757
1708443213.2147763,-2.135733127593994,-1.3362421107343216,-2.5419004599200647,6.110697495728292,1.0453195571899414,-1.6803363005267542
1708443213.2167997,-2.135741710662842,-1.3362139028361817,-2.541957203541891,6.110757338791647,1.0454342365264893,-1.6787832419024866
1708443213.2188213,-2.1357898712158203,-1.3362662208131333,-2.542014185582296,6.110854494362631,1.045465350151062,-1.677300755177633
1708443213.2208102,-2.1357979774475098,-1.336266191010811,-2.5419586340533655,6.110931980400839,1.0455663204193115,-1.6757596174823206
1708443213.222829,-2.135793685913086,-1.3362574589303513,-2.542027775441305,6.1109574911888025,1.0456022024154663,-1.6742261091815394
1708443213.2248158,-2.1357979774475098,-1.3362856668284913,-2.5420683065997522,6.111087667732992,1.0456626415252686,-1.6726768652545374
1708443213.226802,-2.135761260986328,-1.3362856668284913,-2.5420876185046595,6.111044156342306,1.0457255840301514,-1.6712501684771937
1708443213.2287984,-2.1357901096343994,-1.3362932217172165,-2.542102877293722,6.111162054329672,1.045765995979309,-1.6696942488299769
1708443213.230808,-2.1358025074005127,-1.3363007021001359,-2.5421012083636683,6.111168253212728,1.0458126068115234,-1.6682518164264124
1708443213.2327728,-2.1358067989349365,-1.3363138747266312,-2.542131249104635,6.111220705300131,1.0458742380142212,-1.6667736212359827
1708443213.2348163,-2.135768413543701,-1.3363335889628907,-2.5421837011920374,6.111268389015951,1.0459718704223633,-1.6652782599078577
1708443213.236776,-2.135769844055176,-1.3363661629012604,-2.5421865622149866,6.111286508827963,1.0460079908370972,-1.6638920942889612
1708443213.2387807,-2.135789394378662,-1.3363661629012604,-2.542269293461935,6.111386644631185,1.0459837913513184,-1.6624420324908655
1708443213.240818,-2.135768413543701,-1.336341143851616,-2.542321507130758,6.111480700760641,1.046081781387329,-1.6610124746905726
1708443213.242818,-2.1358017921447754,-1.3363780838302155,-2.5422917048083704,6.111527073174276,1.0461387634277344,-1.6595752874957483
1708443213.2447803,-2.1358089447021484,-1.3363903176835557,-2.542344395314352,6.111546742707052,1.0461540222167969,-1.6581366697894495
1708443213.246784,-2.1358344554901123,-1.3363772344640275,-2.542323176060812,6.1115866778190515,1.0462260246276855,-1.6567133108722132
1708443213.2488105,-2.135859966278076,-1.336421401505806,-2.542351786290304,6.111634599953451,1.0462455749511719,-1.6552370230304163
1708443213.2507892,-2.1358554363250732,-1.3364466440728684,-2.5423994700061243,6.111691105156698,1.0462982654571533,-1.6537583510028284
1708443213.2527695,-2.1358864307403564,-1.3364082288793107,-2.5423830191241663,6.11175428608016,1.046355128288269,-1.6523812452899378
1708443213.25478,-2.1358213424682617,-1.3364248287728806,-2.5424521605121058,6.111790048867025,1.046386957168579,-1.6507895628558558
1708443213.256812,-2.1358695030212402,-1.3364159923842927,-2.5424431006061,6.111900913506307,1.0464094877243042,-1.6492555777179163
1708443213.2587874,-2.1358423233032227,-1.3364485812238236,-2.54248816171755,6.111918318062582,1.0464800596237183,-1.6477988401996058
1708443213.2608018,-2.135840892791748,-1.3364814829877396,-2.54248816171755,6.112008321076193,1.0464948415756226,-1.646264378224508
1708443213.2628155,-2.135894298553467,-1.3364902895740052,-2.5424941221820276,6.111971127777853,1.0465431213378906,-1.644782845173971
1708443213.2647789,-2.13590145111084,-1.3364651960185547,-2.542555634175436,6.112045633583822,1.0465909242630005,-1.6433599630938929
1708443213.2667892,-2.135897159576416,-1.336489037876465,-2.542572323475973,6.112077104836263,1.0466079711914062,-1.6418684164630335
1708443213.2687733,-2.135897159576416,-1.3364847612432023,-2.542605225239889,6.112141477852621,1.046627163887024,-1.6404393354998987
1708443213.270811,-2.1358814239501953,-1.3365248006633301,-2.5426200071917933,6.112205850868978,1.0466722249984741,-1.6390050093280237
1708443213.2728326,-2.1359376907348633,-1.3365336072495957,-2.5426183382617396,6.112207281380453,1.046675443649292,-1.6376083532916468
1708443213.274788,-2.135892629623413,-1.3365783405354996,-2.5426273981677454,6.112287986069479,1.0467232465744019,-1.6362231413470667
1708443213.2767742,-2.1359219551086426,-1.3365498197129746,-2.5426650683032435,6.112337457924642,1.046718716621399,-1.6348021666156214
1708443213.278765,-2.1359376907348633,-1.3365235489657898,-2.5427008310901087,6.112352120667257,1.0467264652252197,-1.6334098021136683
1708443213.2807765,-2.135951042175293,-1.336532400255539,-2.542637888585226,6.1123835919196985,1.0467668771743774,-1.6320260206805628
1708443213.2827795,-2.1359009742736816,-1.3365564358285447,-2.542704168950216,6.112440454750814,1.0467984676361084,-1.6306026617633265
1708443213.2847955,-2.135924816131592,-1.33656960845504,-2.542633358632223,6.112473237305441,1.0468437671661377,-1.6292131582843226
1708443213.286772,-2.135892629623413,-1.336581529383995,-2.5426648298846644,6.112506139069357,1.0467894077301025,-1.6278765837298792
1708443213.2887704,-2.1359333992004395,-1.33659219861541,-2.542682949696676,6.112536060601034,1.046858549118042,-1.6265538374530237
1708443213.2907894,-2.1359870433807373,-1.3366009306958695,-2.542666498814718,6.112619745522299,1.0468993186950684,-1.6251629034625452
1708443213.2928,-2.1359448432922363,-1.3365846437266846,-2.5427237192737024,6.112630474358358,1.0469516515731812,-1.6237972418414515
1708443213.2948298,-2.13594913482666,-1.3366204065135499,-2.5427101294146937,6.112703549652853,1.0469188690185547,-1.6223371664630335
1708443213.2968054,-2.135953426361084,-1.3365802776864548,-2.5426905790912073,6.112723099976339,1.0469878911972046,-1.620955769215719
1708443213.2987778,-2.135908842086792,-1.336604119544365,-2.5427191893206995,6.1127498028571985,1.0469878911972046,-1.6195128599749964
1708443213.3008406,-2.1359176635742188,-1.3366366934827347,-2.5427220503436487,6.112766492157736,1.046953558921814,-1.6180837790118616
1708443213.3027952,-2.1359376907348633,-1.336632327442505,-2.542668167744772,6.112781035691061,1.0469908714294434,-1.6167152563678187
1708443213.3048174,-2.135970115661621,-1.336639792924263,-2.54276687303652,6.112846958428182,1.0470149517059326,-1.6153510252581995
1708443213.3067899,-2.1359405517578125,-1.3366683286479493,-2.5427220503436487,6.112896430283346,1.0470075607299805,-1.6139105002032679
1708443213.3088365,-2.1359291076660156,-1.3366757941297074,-2.542733971272604,6.112894880562582,1.0470390319824219,-1.6125715414630335
1708443213.3107982,-2.1359291076660156,-1.3366476756385346,-2.542791191731588,6.112865078240194,1.0470390319824219,-1.6111114660846155
1708443213.312797,-2.1359009742736816,-1.3367290955832978,-2.542804781590597,6.112902271538534,1.047034502029419,-1.609852139149801
1708443213.3147955,-2.1359703540802,-1.3367409420064469,-2.542774502431051,6.112923133164205,1.0470675230026245,-1.6084135214435022
1708443213.3168004,-2.1359009742736816,-1.3367116463235398,-2.542750422154562,6.112839805870809,1.0470223426818848,-1.6069663206683558
1708443213.318829,-2.1359219551086426,-1.3366868805936356,-2.542795721684591,6.112926113396444,1.0470631122589111,-1.6056755224811
1708443213.3208125,-2.1359009742736816,-1.3367445480874558,-2.542769972478048,6.112955915718832,1.0470675230026245,-1.6042636076556605
1708443213.3227868,-2.1358883380889893,-1.336752013569214,-2.5427866617785853,6.1129424450691126,1.0470794439315796,-1.6029885450946253
1708443213.3247828,-2.1359176635742188,-1.336763934498169,-2.5428031126605433,6.112954723625936,1.0470585823059082,-1.6016610304461878
1708443213.3267736,-2.1358814239501953,-1.3367270094207306,-2.5428150335894983,6.112914192467489,1.0470210313796997,-1.6003230253802698
1708443213.3287783,-2.135852336883545,-1.3367551279119034,-2.5428031126605433,6.112926113396444,1.0470958948135376,-1.5989955107318323
1708443213.3307629,-2.135885715484619,-1.3368202608874817,-2.5428720156299036,6.1128201363380334,1.0471203327178955,-1.5977018515216272
1708443213.3328087,-2.135812520980835,-1.3367956590703507,-2.5428059736834925,6.112840878754415,1.0471036434173584,-1.5964134375201624
1708443213.3347816,-2.1358537673950195,-1.3368401539376755,-2.5428598562823694,6.112776624947347,1.0471231937408447,-1.5951221624957483
1708443213.336808,-2.1357972621917725,-1.336840109234192,-2.5428269545184534,6.112776624947347,1.0471444129943848,-1.5937803427325647
1708443213.3388119,-2.1357717514038086,-1.336810366516449,-2.5428088347064417,6.112766492157736,1.0471203327178955,-1.5924189726458948
1708443213.3407948,-2.135806083679199,-1.336838812833168,-2.542837206517355,6.112742411881246,1.0471398830413818,-1.5911405722247522
1708443213.342755,-2.1357524394989014,-1.3368761551431199,-2.542903486882345,6.112672078400411,1.047135353088379,-1.5897300879107874
1708443213.3448179,-2.135741710662842,-1.3368344467929383,-2.54289156595339,6.112645375519552,1.0471891164779663,-1.5884221235858362
1708443213.3467646,-2.1357011795043945,-1.3368550849011918,-2.5429440180407923,6.112597453385153,1.0471925735473633,-1.5870636145221155
1708443213.3487828,-2.135629653930664,-1.336895541553833,-2.5429726282702845,6.112535941391744,1.047234296798706,-1.5856531302081507
1708443213.3507676,-2.135584592819214,-1.3369193834117432,-2.5429680983172815,6.1125467894370935,1.0471745729446411,-1.584325138722555
1708443213.35278,-2.1355254650115967,-1.3369443875602265,-2.5429754892932337,6.1125151989753626,1.047211766242981,-1.5829523245440882
1708443213.354757,-2.1354823112487793,-1.336997927432396,-2.5429709593402308,6.112455355912008,1.0471954345703125,-1.5816658178912562
1708443213.3567996,-2.135495185852051,-1.3368974787047883,-2.5430145899402063,6.1123403189475916,1.047211766242981,-1.5803573767291468
1708443213.3588054,-2.1353559494018555,-1.336992399101593,-2.543028179799215,6.112334120064535,1.0471910238265991,-1.5789430777179163
1708443213.360776,-2.135359287261963,-1.336941973572113,-2.5429933706866663,6.112290847092428,1.0471864938735962,-1.5777214209186
1708443213.3627908,-2.1352174282073975,-1.3370011311820527,-2.5430548826800745,6.112153637200155,1.0472568273544312,-1.5763309637652796
1708443213.3647988,-2.135162115097046,-1.3369835925153275,-2.5430834929095667,6.1121370671089075,1.047255516052246,-1.57501727739443
1708443213.3667822,-2.135021209716797,-1.3370030683330079,-2.543053213750021,6.11195324638442,1.0472795963287354,-1.5737126509295862
1708443213.368763,-2.13492488861084,-1.3369955134442826,-2.543147865925924,6.111896025925436,1.0473005771636963,-1.5724571386920374
1708443213.370758,-2.1348183155059814,-1.3370065850070496,-2.5431342760669153,6.111725914269247,1.0473368167877197,-1.571202580128805
1708443213.3727627,-2.1347341537475586,-1.3370225441506882,-2.5431795755969446,6.1116299507911584,1.047345757484436,-1.569974724446432
1708443213.3747513,-2.1346476078033447,-1.3370356422713776,-2.543198887501852,6.111536133080282,1.047339677810669,-1.5687287489520472
1708443213.3767588,-2.1345229148864746,-1.3370300245336075,-2.543227259312765,6.11141203620986,1.047372817993164,-1.5675113836871546
1708443213.378783,-2.1344032287597656,-1.3370422583869477,-2.543213669453756,6.111292350083151,1.047347068786621,-1.5662420431720179
1708443213.380771,-2.134258270263672,-1.3370509904674073,-2.5432799498187464,6.1111745713050745,1.0474164485931396,-1.5650141874896448
1708443213.382788,-2.1341395378112793,-1.337112085228302,-2.5432902018176478,6.110927808075704,1.0474777221679688,-1.5637519995318812
1708443213.38476,-2.13397216796875,-1.3371314865401764,-2.543342892323629,6.110808002739706,1.0474765300750732,-1.5624855200396937
1708443213.3867748,-2.1338720321655273,-1.337090180521347,-2.5434299151050013,6.110651004105367,1.0474883317947388,-1.5613306204425257
1708443213.3887622,-2.133667469024658,-1.337106467490532,-2.5433576742755335,6.110474693566122,1.0474748611450195,-1.5600360075580042
1708443213.3907926,-2.1335811614990234,-1.3371299815228959,-2.543435875569479,6.110320675164022,1.0475080013275146,-1.5588129202472132
1708443213.3927605,-2.1334047317504883,-1.3371108335307618,-2.543438736592428,6.110057699471273,1.0475271940231323,-1.5575559774981897
1708443213.3948188,-2.133246898651123,-1.3371673238328476,-2.543509546910421,6.109858739167013,1.0476012229919434,-1.5562618414508265
1708443213.3967955,-2.1330463886260986,-1.337158517246582,-2.5435243288623255,6.109722840576925,1.0475921630859375,-1.5549572149859827
1708443213.3987553,-2.1328983306884766,-1.337186725144722,-2.5435257593738,6.109408962517538,1.047682285308838,-1.5537570158587855
1708443213.4007645,-2.1326491832733154,-1.3372076910785218,-2.5435918013202112,6.109151947289266,1.047656774520874,-1.5525291601764124
1708443213.4027593,-2.132469654083252,-1.337248147731163,-2.5435946623431605,6.108869421273031,1.047646164894104,-1.5512898604022425
1708443213.4047618,-2.1322665214538574,-1.337209628229477,-2.543671194707052,6.108627187996664,1.0477408170700073,-1.5500677267657679
1708443213.4067652,-2.13211989402771,-1.3372334700873871,-2.5436695257769983,6.108362662583151,1.0477951765060425,-1.5488551298724573
1708443213.4087756,-2.131891965866089,-1.3372913759997864,-2.5437403360949915,6.10811601856307,1.0477756261825562,-1.5476439634906214
1708443213.4107728,-2.1316802501678467,-1.3373599511436005,-2.543750588093893,6.107866275101461,1.0478250980377197,-1.5465148130999964
1708443213.4127767,-2.1314804553985596,-1.3372857135585328,-2.5438242594348353,6.107591378479757,1.047818899154663,-1.5453346411334437
1708443213.4147685,-2.131211996078491,-1.3373095107129593,-2.5438392798053187,6.107311713486471,1.0479060411453247,-1.5441678206073206
1708443213.4168062,-2.131005048751831,-1.337386892443039,-2.543912474309103,6.106984007149496,1.0479587316513062,-1.5429900328265589
1708443213.41877,-2.130802869796753,-1.337300882940628,-2.5439112822162073,6.106676566391744,1.0479979515075684,-1.5418756643878382
1708443213.4208221,-2.130504846572876,-1.3373738092235108,-2.5439680258380335,6.10634611824111,1.0480412244796753,-1.5408018271075647
1708443213.4228044,-2.1302530765533447,-1.3374305379441758,-2.544044796620504,6.106070983200826,1.0480988025665283,-1.53965932527651
1708443213.4248078,-2.1299867630004883,-1.3374139380506058,-2.544079367314474,6.105707633286276,1.0481200218200684,-1.538530174885885
1708443213.426789,-2.129730224609375,-1.3374139380506058,-2.5442007223712366,6.105352031975546,1.0482593774795532,-1.5374892393695276
1708443213.4287753,-2.129488229751587,-1.3374412071755906,-2.544203583394186,6.105012523918905,1.048310399055481,-1.5364216009723108
1708443213.430774,-2.1291959285736084,-1.3374813360026856,-2.5442877451526087,6.104660141258993,1.04837167263031,-1.5353944937335413
1708443213.4328232,-2.1289100646972656,-1.33755116284404,-2.544281546269552,6.104316222458639,1.048352837562561,-1.5343144575702112
1708443213.4347773,-2.1285970211029053,-1.337529258137085,-2.5444212595569056,6.103908049851217,1.0484473705291748,-1.5332706610309046
1708443213.4368107,-2.1282942295074463,-1.3375577938607712,-2.544455591832296,6.103510606079855,1.0484906435012817,-1.5321953932391565
1708443213.4387999,-2.1279752254486084,-1.3375606548837204,-2.5445202032672327,6.103047239571371,1.0486037731170654,-1.5311482588397425
1708443213.440804,-2.127697229385376,-1.3375987571528931,-2.5446208159076136,6.10262297370986,1.0486712455749512,-1.5301278273211878
1708443213.4428174,-2.1273086071014404,-1.3375966560891648,-2.544713560734884,6.1022528288658044,1.0487687587738037,-1.5291464964496058
1708443213.4447944,-2.12699294090271,-1.337592290048935,-2.544788662587301,6.101823913842001,1.048824429512024,-1.5280917326556605
1708443213.4467924,-2.1266255378723145,-1.3376160574010392,-2.544868055974142,6.101326334267416,1.0489085912704468,-1.5270732084857386
1708443213.4487765,-2.126281976699829,-1.3376637411168595,-2.5449281374560755,6.100889789849081,1.0490046739578247,-1.5260193983661097
1708443213.4507818,-2.1259572505950928,-1.3376966279796143,-2.544983450566427,6.100436556130209,1.0491235256195068,-1.5250170866595667
1708443213.4527822,-2.125520706176758,-1.3377709102681656,-2.545141045247213,6.09990023353652,1.0491728782653809,-1.5239952246295374
1708443213.4547722,-2.125101089477539,-1.3377370846322556,-2.545225207005636,6.099369632988729,1.0492573976516724,-1.5230310598956507
1708443213.456826,-2.124669075012207,-1.3378009659102936,-2.5452972094165247,6.09882281997756,1.049434781074524,-1.521928612385885
1708443213.4587867,-2.1242833137512207,-1.337780312900879,-2.545473877583639,6.098345982819357,1.0495790243148804,-1.5210889021502894
1708443213.4607759,-2.123880624771118,-1.3378028732589264,-2.5454991499530237,6.097784030228414,1.0496991872787476,-1.5200980345355433
1708443213.4627824,-2.1234042644500732,-1.3378565621427079,-2.545673433934347,6.097253429680624,1.049869179725647,-1.5192068258868616
1708443213.4648006,-2.122945785522461,-1.3379164946130295,-2.545760456715719,6.096658098488607,1.0499964952468872,-1.5182254950152796
1708443213.4668307,-2.1224851608276367,-1.3379042458585282,-2.5459147135363978,6.09611593463973,1.0501124858856201,-1.517303768788473
1708443213.468794,-2.12200665473938,-1.3379852932742615,-2.546004835759298,6.095472562104025,1.0502114295959473,-1.5164087454425257
1708443213.4707997,-2.1215643882751465,-1.3379431080869217,-2.5461414496051233,6.094831454544821,1.050400972366333,-1.5154855887042444
1708443213.4728277,-2.120945453643799,-1.3380464327386399,-2.5462401548968714,6.094160663872518,1.0505856275558472,-1.5146296660052698
1708443213.4747877,-2.1204986572265625,-1.338078038101532,-2.5464006106006067,6.093448745995321,1.0507662296295166,-1.5137270132647913
1708443213.4768002,-2.1199352741241455,-1.3380927306464692,-2.5465460459338587,6.0927923796470544,1.0509419441223145,-1.5128486792193812
1708443213.4787903,-2.1193997859954834,-1.3380658489516755,-2.5466929117785853,6.0920952437217615,1.0510698556900024,-1.5120561758624476
1708443213.48081,-2.1188366413116455,-1.3381031316569825,-2.5468578974353235,6.091389047890463,1.0512336492538452,-1.5112298170672815
1708443213.4828053,-2.118295907974243,-1.3381134432605286,-2.547030512486593,6.0906622288520715,1.0514469146728516,-1.51044208208193
1708443213.4848003,-2.1176633834838867,-1.338212178354599,-2.5471938292132776,6.089958297997274,1.051693320274353,-1.5095818678485315
1708443213.4867823,-2.1170358657836914,-1.338227392440178,-2.547333065663473,6.089134800225057,1.0518934726715088,-1.5087931791888636
1708443213.488828,-2.116375684738159,-1.3382797998240967,-2.5475178400622767,6.088288652687826,1.052154779434204,-1.5079596678363245
1708443213.4907866,-2.115722417831421,-1.3383241903832932,-2.5476930777179163,6.087459313660421,1.0523786544799805,-1.5072286764727991
1708443213.4928055,-2.1150145530700684,-1.3383557957461854,-2.5478971640216272,6.086635815888204,1.0525877475738525,-1.506486717854635
1708443213.4947958,-2.1143481731414795,-1.3383917969516297,-2.548067871724264,6.085836636811056,1.0528311729431152,-1.5056641737567347
1708443213.4967985,-2.1136536598205566,-1.3384095442346116,-2.5482974688159388,6.084912407189169,1.0530927181243896,-1.5049002806292933
1708443213.498785,-2.1129696369171143,-1.338450015788414,-2.5484352747546595,6.084121572762289,1.0533405542373657,-1.5041888395892542
1708443213.5008056,-2.112269878387451,-1.3384767335704346,-2.548666540776388,6.0831689713294885,1.0535649061203003,-1.5034473578082483
1708443213.5027819,-2.111499071121216,-1.3385784488967438,-2.548906389866964,6.0823110220725916,1.053866982460022,-1.5027902762042444
1708443213.5048194,-2.110740900039673,-1.3385980439237137,-2.549094025288717,6.081246602326193,1.0541549921035767,-1.5020611921893519
1708443213.5067918,-2.109975576400757,-1.3386755746654053,-2.5493341127978724,6.080263602524557,1.054427146911621,-1.5013464132892054
1708443213.5088005,-2.1091272830963135,-1.338702679877617,-2.5495765844928187,6.079207765847006,1.054752230644226,-1.5006726423846644
1708443213.5107982,-2.1083061695098877,-1.3388071817210694,-2.5498104731189173,6.078252661019125,1.0550947189331055,-1.4999249617206019
1708443213.5127978,-2.107495069503784,-1.3388667863658448,-2.5500293413745325,6.077221143036642,1.0553548336029053,-1.4993522802936
1708443213.5147953,-2.106649875640869,-1.3389147383025666,-2.5502527395831507,6.076151597290792,1.0556533336639404,-1.4986532370196741
1708443213.516808,-2.1057634353637695,-1.3389135164073487,-2.5505016485797327,6.075157868653097,1.0559513568878174,-1.4979446570025843
1708443213.5187788,-2.10490083694458,-1.3389521402171631,-2.5507658163653772,6.074074852257528,1.0562831163406372,-1.4972737471209925
1708443213.5207775,-2.1039860248565674,-1.3390239042094727,-2.5510087648974817,6.072999226837911,1.0566291809082031,-1.4966428915606897
1708443213.5227728,-2.1031084060668945,-1.339137540464737,-2.551286284123556,6.0718774674232385,1.0569700002670288,-1.49603778520693
1708443213.5247614,-2.102262258529663,-1.3391884130290528,-2.55151874223818,6.070828664093771,1.0572692155838013,-1.4955022970782679
1708443213.5267937,-2.101311683654785,-1.3392288249782105,-2.5518065134631556,6.069638120919027,1.057667851448059,-1.494788948689596
1708443213.5287707,-2.100321054458618,-1.3393498671105881,-2.5521186033831995,6.068407881050863,1.057981252670288,-1.494253937398092
1708443213.530765,-2.0993878841400146,-1.3394093823483963,-2.5524304548846644,6.067162859230795,1.0584126710891724,-1.4936068693744105
1708443213.532808,-2.0983948707580566,-1.3394438487342377,-2.552652422581808,6.065931784897604,1.0587736368179321,-1.4930623213397425
1708443213.5347855,-2.0974252223968506,-1.3395140928081055,-2.5529852549182337,6.064679491310873,1.0591703653335571,-1.4925058523761194
1708443213.5367773,-2.096442937850952,-1.3395902526429673,-2.5533269087420862,6.06350194194869,1.0596286058425903,-1.4919784704791468
1708443213.5388167,-2.095396041870117,-1.3396907609752198,-2.5536180178271692,6.062320816307821,1.0599920749664307,-1.491403881703512
1708443213.5408018,-2.094378709793091,-1.3396798533252259,-2.5539310614215296,6.061012613564291,1.0603727102279663,-1.4909027258502405
1708443213.542769,-2.09332537651062,-1.339895413523056,-2.554274622594015,6.059709536820211,1.0608025789260864,-1.4902938047992151
1708443213.5447698,-2.092219114303589,-1.3400077533772965,-2.5545788447009485,6.058377253800192,1.061227798461914,-1.4898565451251429
1708443213.5467823,-2.091114044189453,-1.3400090050748368,-2.5548983255969446,6.0570177910621545,1.0616801977157593,-1.4893386999713343
1708443213.5487742,-2.0900232791900635,-1.3401464533856888,-2.5552549997912806,6.055647361069479,1.0621626377105713,-1.4888742605792444
1708443213.5507786,-2.0888991355895996,-1.3402747970870514,-2.5555856863604944,6.054195630341329,1.0625908374786377,-1.488321606312887
1708443213.5527778,-2.08774733543396,-1.3403539967587967,-2.5559874216662806,6.0527533171470544,1.0630717277526855,-1.4878562132464808
1708443213.5547912,-2.0865402221679688,-1.3404081475785752,-2.5563018957721155,6.051251756935873,1.063519835472107,-1.4873693625079554
1708443213.5568197,-2.085296869277954,-1.3405082684806366,-2.556619946156637,6.049836742668905,1.0640052556991577,-1.4869683424579065
1708443213.5587857,-2.084099769592285,-1.3406398308328171,-2.557005230580465,6.048280942230978,1.0644903182983398,-1.4865143934832972
1708443213.560806,-2.082854986190796,-1.3407325905612488,-2.5574258009540003,6.046861874848165,1.064962387084961,-1.4860690275775355
1708443213.5627801,-2.081648111343384,-1.3409176033786316,-2.5578330198871058,6.045292722969808,1.0654796361923218,-1.4856227079974573
1708443213.564777,-2.0803091526031494,-1.340983585720398,-2.5581932703601282,6.043778407364645,1.0660340785980225,-1.4851949850665491
1708443213.5667965,-2.0790271759033203,-1.3411225986531754,-2.5585694948779505,6.042136537819662,1.0665587186813354,-1.4848054091082972
1708443213.568808,-2.077674388885498,-1.3412013810924073,-2.5590177218066614,6.040558445244589,1.067152976989746,-1.4843719641314905
1708443213.5707893,-2.076381206512451,-1.3413375628045578,-2.559425655995504,6.0389782069023035,1.0677173137664795,-1.4840334097491663
1708443213.5727706,-2.0750174522399902,-1.341539354329445,-2.559854332600729,6.037255871086874,1.0682791471481323,-1.4836276213275355
1708443213.5747826,-2.0736751556396484,-1.3416665506413956,-2.5602176825152796,6.035675632744589,1.0687800645828247,-1.4832380453692835
1708443213.5768182,-2.0722575187683105,-1.3417907369187851,-2.5606208483325403,6.0339945433433435,1.069406270980835,-1.4828155676471155
1708443213.5787756,-2.0708937644958496,-1.341875748043396,-2.561045233403341,6.032376277237692,1.0699706077575684,-1.4824469725238245
1708443213.5808003,-2.0694541931152344,-1.3419909191182633,-2.5615366140948694,6.030695068627157,1.0706011056900024,-1.4820993582354944
1708443213.5827978,-2.068009376525879,-1.3421344471028824,-2.5619052092181605,6.028974044113912,1.0711400508880615,-1.4817588965045374
1708443213.5848038,-2.0665411949157715,-1.342312441473343,-2.5624001661883753,6.027182090073385,1.0717535018920898,-1.4813607374774378
1708443213.586796,-2.0650882720947266,-1.3424094182303925,-2.5628483931170862,6.02537094333724,1.072330355644226,-1.4810946623431605
