Eg3-git/Classifiers/Data Collection/u8/u8cir4_ur3e_joint_states.csv
time,elbow_joint,shoulder_lift_joint,shoulder_pan_joint,wrist_1_joint,wrist_2_joint,wrist_3_joint
1708443250.2687042,-2.141591787338257,-1.3329015386155625,-2.524975601826803,6.108074176102438,1.0144232511520386,-3.1927829424487513
1708443250.2706835,-2.141594409942627,-1.3328852516463776,-2.525013271962301,6.108045565872946,1.0144321918487549,-3.1927998701678675
1708443250.2727015,-2.141566038131714,-1.3328316819718857,-2.524930779133932,6.108106720238485,1.0144157409667969,-3.1927998701678675
1708443250.2746546,-2.141591787338257,-1.3329182130149384,-2.5249889532672327,6.108120190888204,1.0144321918487549,-3.1928089300738733
1708443250.2766602,-2.141594409942627,-1.3328776818564911,-2.524980131779806,6.108132111817159,1.014423131942749,-3.1927910486804407
1708443250.278651,-2.141591787338257,-1.3328733009151001,-2.525001112614767,6.108054625778951,1.0144741535186768,-3.192782227193014
1708443250.2806704,-2.1415581703186035,-1.3328896325877686,-2.524980131779806,6.1080771563346765,1.014448881149292,-3.192787472401754
1708443250.2826548,-2.1415581703186035,-1.3329103750041504,-2.524972740803854,6.108090626984396,1.014427661895752,-3.1928370634662073
1708443250.2846756,-2.1415538787841797,-1.332894043331482,-2.5249443689929407,6.108144271164694,1.0144068002700806,-3.1927622000323694
1708443250.2866848,-2.1415493488311768,-1.3328896027854462,-2.524984661732809,6.108095156937399,1.0143948793411255,-3.1927622000323694
1708443250.2886763,-2.141587495803833,-1.332905964260437,-2.525008742009298,6.108036744385519,1.014448881149292,-3.1928072611438196
1708443250.2906504,-2.1415493488311768,-1.3328777116588135,-2.524959150944845,6.108102309494772,1.014427661895752,-3.1928399244891565
1708443250.292653,-2.141591787338257,-1.3329389554313202,-2.524968210850851,6.108072745590963,1.0144411325454712,-3.1928280035602015
1708443250.2946558,-2.141570568084717,-1.3329191964915772,-2.524963680897848,6.108090626984396,1.0144321918487549,-3.1929150263415735
1708443250.2966597,-2.1415493488311768,-1.3328733307174225,-2.524933640156881,6.108090626984396,1.014411211013794,-3.1928651968585413
1708443250.2986455,-2.141570568084717,-1.3328851920417328,-2.524992052708761,6.108081805496969,1.014448881149292,-3.1928191820727747
1708443250.3006759,-2.141598701477051,-1.3328406673720856,-2.524963680897848,6.108180153160848,1.014448881149292,-3.192822281514303
1708443250.3026564,-2.1415538787841797,-1.3329389852336426,-2.524975601826803,6.108166682511129,1.0144321918487549,-3.192859474812643
1708443250.3046718,-2.1415960788726807,-1.3329059791615983,-2.524930779133932,6.108244526177206,1.014448881149292,-3.1929240862475794
1708443250.3066506,-2.141619920730591,-1.332894043331482,-2.524959150944845,6.1081817028816126,1.0144578218460083,-3.192866865788595
1708443250.3086517,-2.141538143157959,-1.3328600388816376,-2.524966541920797,6.108184683113851,1.0144202709197998,-3.192871395741598
1708443250.3106868,-2.141591787338257,-1.3328528565219422,-2.525055233632223,6.1081817028816126,1.0144366025924683,-3.1929240862475794
1708443250.312653,-2.1415493488311768,-1.332894043331482,-2.524950091038839,6.1081862328346155,1.0144202709197998,-3.1929076353656214
1708443250.3146489,-2.1416075229644775,-1.3329028648189087,-2.525013271962301,6.108177411347189,1.0144157409667969,-3.1928911844836634
1708443250.3166676,-2.1415538787841797,-1.3328896176866074,-2.524942700062887,6.108193743019857,1.0144321918487549,-3.1929238478290003
1708443250.318691,-2.141594409942627,-1.332873286013939,-2.524992052708761,6.108218657761373,1.014448881149292,-3.1928868929492396
1708443250.320675,-2.141587495803833,-1.332901583319046,-2.5249608198748987,6.108221995621481,1.0144158601760864,-3.1928957144366663
1708443250.322737,-2.1415581703186035,-1.3329059493592759,-2.524996582661764,6.108242976456442,1.0144532918930054,-3.1929121653186243
1708443250.3246572,-2.1416242122650146,-1.332870529299118,-2.524938170109884,6.1082098362739465,1.014448881149292,-3.1928914229022425
1708443250.3266585,-2.141611099243164,-1.3329059791615983,-2.52494723001589,6.10821424701766,1.0144354104995728,-3.1928749720202845
1708443250.3286784,-2.141591787338257,-1.3329313558391114,-2.5249784628497522,6.108189213066854,1.0144532918930054,-3.1928957144366663
1708443250.3306832,-2.141566038131714,-1.3328405928662796,-2.524926487599508,6.108193743019857,1.0144321918487549,-3.1929031054126185
1708443250.3326936,-2.141545057296753,-1.3328528714231034,-2.524975601826803,6.1082098362739465,1.014427661895752,-3.1928957144366663
1708443250.3346395,-2.1415748596191406,-1.3328896027854462,-2.525008742009298,6.108242976456442,1.0144399404525757,-3.1929031054126185
1708443250.3366628,-2.1415960788726807,-1.332959697847702,-2.524950091038839,6.108205306320944,1.014448881149292,-3.1928795019732874
1708443250.338649,-2.1416118144989014,-1.3328749400428315,-2.525001112614767,6.1082026837165735,1.0144366025924683,-3.1929238478290003
1708443250.340653,-2.1415960788726807,-1.3328643453172226,-2.524980131779806,6.108193743019857,1.01446533203125,-3.1929195562945765
1708443250.3426905,-2.141566038131714,-1.3328689199737092,-2.524951759968893,6.108193743019857,1.014448881149292,-3.1928446928607386
1708443250.3446445,-2.14158296585083,-1.3328660142472764,-2.524963680897848,6.1082098362739465,1.0144321918487549,-3.1928914229022425
1708443250.3466406,-2.1416032314300537,-1.3328820329955597,-2.524942700062887,6.108218657761373,1.014427661895752,-3.192920986806051
1708443250.3486502,-2.141587495803833,-1.3328659397414704,-2.524980131779806,6.10821162441329,1.0144411325454712,-3.192965571080343
1708443250.35064,-2.1415538787841797,-1.332886503343918,-2.524950091038839,6.108189213066854,1.0144366025924683,-3.1928957144366663
1708443250.352651,-2.141591787338257,-1.3329028648189087,-2.524968210850851,6.1082026837165735,1.014444351196289,-3.192911926900045
1708443250.354663,-2.141566038131714,-1.3329059940627594,-2.524975601826803,6.108221995621481,1.0144623517990112,-3.1928492228137415
1708443250.356665,-2.1416285037994385,-1.3328820329955597,-2.524984661732809,6.108198153763571,1.0144292116165161,-3.1928957144366663
1708443250.358692,-2.1415960788726807,-1.3329270047000428,-2.524959150944845,6.108226525574484,1.0144246816635132,-3.1929076353656214
1708443250.3606439,-2.141545057296753,-1.332885206942894,-2.525022093449728,6.108251797943868,1.0143948793411255,-3.1929240862475794
1708443250.3626723,-2.1415748596191406,-1.3329182428172608,-2.524980131779806,6.108190762787618,1.0144068002700806,-3.1929283777820032
1708443250.3646395,-2.1416118144989014,-1.3328970533660431,-2.5249710718738,6.108165371208944,1.0144532918930054,-3.1929195562945765
1708443250.3667033,-2.1416118144989014,-1.3329059195569535,-2.52494723001589,6.10815309265212,1.0144321918487549,-3.1929314772235315
1708443250.3687263,-2.1416032314300537,-1.3328896474889298,-2.524984661732809,6.1081817028816126,1.0143994092941284,-3.1929522196399134
1708443250.3706572,-2.141615390777588,-1.332910345201828,-2.524987522755758,6.1082026837165735,1.014444351196289,-3.1929195562945765
1708443250.3726823,-2.14158296585083,-1.33280801892791,-2.524939839039938,6.108223187714376,1.0144039392471313,-3.1929195562945765
1708443250.3746731,-2.141587495803833,-1.3328733009151001,-2.5249174276935022,6.108148562699117,1.0144039392471313,-3.1929360071765345
1708443250.376668,-2.1415293216705322,-1.332868905072548,-2.5250054041491907,6.108162152558126,1.0143704414367676,-3.1929107348071497
1708443250.3786602,-2.141591787338257,-1.3328689199737092,-2.525004212056295,6.108251797943868,1.0144455432891846,-3.1929195562945765
1708443250.3807354,-2.1416075229644775,-1.3329103750041504,-2.524954620991842,6.1082098362739465,1.0143918991088867,-3.1929152647601526
1708443250.3826811,-2.1416032314300537,-1.3329059493592759,-2.524963680897848,6.10821424701766,1.0144158601760864,-3.192878071461813
1708443250.3847232,-2.141591787338257,-1.3329147112420578,-2.5249889532672327,6.108193743019857,1.014427661895752,-3.1929238478290003
1708443250.3866527,-2.141542434692383,-1.3328763407519837,-2.524992052708761,6.108181822090902,1.0144338607788086,-3.1929195562945765
1708443250.38864,-2.141591787338257,-1.3328865331462403,-2.524959150944845,6.108148562699117,1.0144246816635132,-3.1929522196399134
1708443250.3906932,-2.141587495803833,-1.3328689199737092,-2.524930779133932,6.108199822693624,1.014448881149292,-3.1929238478290003
1708443250.3926582,-2.141533613204956,-1.332889662390091,-2.524984661732809,6.108260857849874,1.0144246816635132,-3.192932907735006
1708443250.394667,-2.141570568084717,-1.3328492951444169,-2.524980131779806,6.108221995621481,1.0144366025924683,-3.1928914229022425
1708443250.3966465,-2.141591787338257,-1.332864449625351,-2.524905268345968,6.108183371811666,1.014412760734558,-3.1929033438311976
1708443250.3986833,-2.141587495803833,-1.3329270494035264,-2.524951759968893,6.108157622605123,1.0144202709197998,-3.1928914229022425
1708443250.4006827,-2.141538143157959,-1.3328940582326432,-2.525001112614767,6.108198153763571,1.0144010782241821,-3.1928580443011683
1708443250.4026453,-2.14158296585083,-1.3328983944705506,-2.524942700062887,6.108165371208944,1.0143994092941284,-3.1929031054126185
1708443250.4047034,-2.141566038131714,-1.332894043331482,-2.524938170109884,6.108190762787618,1.0144158601760864,-3.1929076353656214
1708443250.406677,-2.141533613204956,-1.3328733009151001,-2.524959150944845,6.108165371208944,1.01438307762146,-3.1929152647601526
1708443250.4086537,-2.1415250301361084,-1.3328940284303208,-2.52494723001589,6.108160960465231,1.0144039392471313,-3.1929402987109583
1708443250.4106834,-2.141587495803833,-1.3329357963851471,-2.524984661732809,6.108239877014913,1.0144083499908447,-3.19296104112734
1708443250.412728,-2.1415748596191406,-1.3329103750041504,-2.524966541920797,6.108190762787618,1.0143964290618896,-3.1929314772235315
1708443250.414689,-2.141538143157959,-1.332898349767067,-2.524905268345968,6.1081862328346155,1.0144158601760864,-3.1929357687579554
1708443250.4166856,-2.1415538787841797,-1.332873286013939,-2.524987522755758,6.108183371811666,1.0144290924072266,-3.1929152647601526
1708443250.4186609,-2.1415011882781982,-1.3329346191934128,-2.524963680897848,6.108156430512228,1.0144083499908447,-3.192922655736105
1708443250.4206913,-2.141557455062866,-1.3329211932471772,-2.524963680897848,6.108162152558126,1.0144039392471313,-3.1929522196399134
1708443250.4226444,-2.141591787338257,-1.3328362119248887,-2.524951759968893,6.108157622605123,1.0144219398498535,-3.19296104112734
1708443250.4246664,-2.14158296585083,-1.3329192113927384,-2.5249889532672327,6.108165371208944,1.0144411325454712,-3.1929283777820032
1708443250.426651,-2.141587495803833,-1.3328983646682282,-2.524975601826803,6.108169901161947,1.0144083499908447,-3.192949120198385
1708443250.4286935,-2.141611099243164,-1.3329103153995057,-2.524951759968893,6.108165371208944,1.0143704414367676,-3.1929195562945765
1708443250.4306393,-2.1415748596191406,-1.3329146665385743,-2.524963680897848,6.10815309265212,1.0144039392471313,-3.192944590245382
1708443250.4326708,-2.1415493488311768,-1.3328983795693894,-2.524938170109884,6.108265387802877,1.0143964290618896,-3.1928492228137415
1708443250.4346588,-2.1415493488311768,-1.3328777265599747,-2.524996582661764,6.108145701676168,1.0143964290618896,-3.19296104112734
1708443250.4366465,-2.1416075229644775,-1.3329313558391114,-2.524959150944845,6.108165371208944,1.0143964290618896,-3.1929076353656214
1708443250.4386435,-2.141591787338257,-1.332910345201828,-2.52494723001589,6.1081817028816126,1.0144246816635132,-3.192932907735006
1708443250.4406734,-2.141591787338257,-1.332938940530159,-2.5250054041491907,6.108207094460287,1.014412760734558,-3.1928942839251917
1708443250.4426692,-2.141591787338257,-1.3328733009151001,-2.524987522755758,6.1081817028816126,1.0144083499908447,-3.1929271856891077
1708443250.4446464,-2.141570568084717,-1.3328852218440552,-2.524968210850851,6.108172762184896,1.0143840312957764,-3.1929195562945765
1708443250.4466577,-2.1415748596191406,-1.3328733009151001,-2.524939839039938,6.108123290329733,1.0143964290618896,-3.1928911844836634
1708443250.448679,-2.141538143157959,-1.3329477322152634,-2.525038782750265,6.108223187714376,1.0143840312957764,-3.1929271856891077
1708443250.450648,-2.1415538787841797,-1.3329059493592759,-2.524980131779806,6.1081817028816126,1.0143994092941284,-3.1929238478290003
1708443250.4526489,-2.1415493488311768,-1.332927019601204,-2.524938170109884,6.1082098362739465,1.0143601894378662,-3.1928914229022425
1708443250.4546475,-2.141570568084717,-1.332873286013939,-2.524968210850851,6.108230936318197,1.0143765211105347,-3.1928988138781946
1708443250.4566884,-2.1415135860443115,-1.3328940284303208,-2.524956289921896,6.108169901161947,1.01435124874115,-3.1929240862475794
1708443250.4586635,-2.141570568084717,-1.3328407120755692,-2.524951759968893,6.10815309265212,1.0143601894378662,-3.1929360071765345
1708443250.460656,-2.141570568084717,-1.332870514397957,-2.524926249180929,6.108218657761373,1.0144189596176147,-3.1929269472705286
1708443250.4626927,-2.141591787338257,-1.332845078115799,-2.524980131779806,6.108178841858663,1.014397382736206,-3.1929238478290003
1708443250.4646811,-2.141616106033325,-1.3328617376140137,-2.524950091038839,6.108148681908407,1.0143964290618896,-3.1928988138781946
1708443250.466675,-2.141591787338257,-1.3329136830619355,-2.524930779133932,6.108132231026449,1.0143793821334839,-3.1929195562945765
1708443250.468686,-2.1415250301361084,-1.3328983795693894,-2.524963680897848,6.108145701676168,1.014367699623108,-3.192878071461813
1708443250.4706528,-2.141545057296753,-1.332885206942894,-2.524939839039938,6.108145701676168,1.0143884420394897,-3.1928868929492396
1708443250.4726913,-2.1415538787841797,-1.3328777265599747,-2.524951759968893,6.1082354662712,1.0143885612487793,-3.1929360071765345
1708443250.4746497,-2.1416118144989014,-1.3328573119691391,-2.524968210850851,6.1081817028816126,1.0144010782241821,-3.1929033438311976
1708443250.4766548,-2.1415791511535645,-1.3329269301942368,-2.524930779133932,6.108148681908407,1.0143601894378662,-3.1929195562945765
1708443250.4786441,-2.1415493488311768,-1.3329181683114548,-2.5249231497394007,6.1081862328346155,1.014327049255371,-3.1929033438311976
1708443250.480654,-2.1416032314300537,-1.3329269897988816,-2.52494723001589,6.108165371208944,1.0143929719924927,-3.192911926900045
1708443250.4826615,-2.1415748596191406,-1.3329300594380875,-2.5249322096454065,6.108148562699117,1.0143393278121948,-3.1929150263415735
1708443250.4846818,-2.141566038131714,-1.3328852367452164,-2.524956289921896,6.1081862328346155,1.0143393278121948,-3.1929107348071497
1708443250.486646,-2.1415493488311768,-1.332910345201828,-2.524939839039938,6.108211743622579,1.0143647193908691,-3.1929402987109583
1708443250.4886906,-2.1415624618530273,-1.3328777116588135,-2.5249651114093226,6.1082026837165735,1.014336109161377,-3.19296104112734
1708443250.4906535,-2.1416118144989014,-1.3328733009151001,-2.5249608198748987,6.108190762787618,1.0143438577651978,-3.1928868929492396
1708443250.4926686,-2.1415538787841797,-1.3328940284303208,-2.524935309086935,6.10817431190566,1.014357328414917,-3.192906443272726
1708443250.494646,-2.1415467262268066,-1.3329270494035264,-2.524935309086935,6.10821424701766,1.014336109161377,-3.1929522196399134
1708443250.49668,-2.1415178775787354,-1.3328600388816376,-2.524951759968893,6.108177411347189,1.014352798461914,-3.1929031054126185
1708443250.4986775,-2.14158296585083,-1.3329225939563294,-2.524939839039938,6.1082354662712,1.0143033266067505,-3.192918125783102
1708443250.5006676,-2.1415748596191406,-1.3328807365945359,-2.524972740803854,6.1082098362739465,1.0143197774887085,-3.1929271856891077
1708443250.5026526,-2.1415748596191406,-1.3328983348659058,-2.524935309086935,6.108151900559225,1.0143241882324219,-3.1929033438311976
1708443250.5046682,-2.141587495803833,-1.3329136979630967,-2.5250099341021937,6.108218657761373,1.0142955780029297,-3.1928988138781946
1708443250.5066776,-2.141557455062866,-1.3328820180943985,-2.52494723001589,6.1082098362739465,1.0143450498580933,-3.192878071461813
1708443250.5086658,-2.141591787338257,-1.3328529310277482,-2.524959150944845,6.108165371208944,1.0143241882324219,-3.1929522196399134
1708443250.5106542,-2.1416075229644775,-1.3328909140876313,-2.524939839039938,6.108204233437338,1.0142879486083984,-3.1929402987109583
1708443250.5126634,-2.141591787338257,-1.3328940731338044,-2.5249772707568567,6.1081862328346155,1.0142834186553955,-3.1929357687579554
1708443250.514687,-2.141542434692383,-1.332870514397957,-2.524972740803854,6.108178841858663,1.0142743587493896,-3.1929283777820032
1708443250.5166898,-2.1415960788726807,-1.3329345148852845,-2.524956289921896,6.108199822693624,1.0143078565597534,-3.1929522196399134
1708443250.5186493,-2.141598701477051,-1.332873286013939,-2.524939839039938,6.108178841858663,1.014309048652649,-3.1929402987109583
1708443250.520673,-2.141615390777588,-1.3328733158162613,-2.524939839039938,6.108141171723165,1.0142834186553955,-3.1929195562945765
1708443250.5226526,-2.141566038131714,-1.3328940284303208,-2.5249443689929407,6.10821424701766,1.0142699480056763,-3.1929076353656214
1708443250.5246491,-2.141598701477051,-1.3329015684178849,-2.5249608198748987,6.1081697819526575,1.0143122673034668,-3.1928826014148157
1708443250.5266654,-2.141627788543701,-1.332914726143219,-2.524956289921896,6.1082354662712,1.0143122673034668,-3.192894522343771
1708443250.5286634,-2.141566038131714,-1.3328940284303208,-2.5249772707568567,6.108181822090902,1.0143046379089355,-3.1929107348071497
1708443250.5306504,-2.1416032314300537,-1.3328528565219422,-2.524942700062887,6.108211743622579,1.0143001079559326,-3.1929686705218714
1708443250.5326545,-2.141619920730591,-1.3329225939563294,-2.524914089833395,6.108207094460287,1.0143629312515259,-3.1929238478290003
1708443250.5346572,-2.141587495803833,-1.3328689199737092,-2.5249443689929407,6.108123290329733,1.0143001079559326,-3.1928868929492396
1708443250.5366518,-2.1415786743164062,-1.3329059791615983,-2.5249772707568567,6.108177411347189,1.0143213272094727,-3.1929033438311976
1708443250.5386496,-2.141533613204956,-1.3329146665385743,-2.5249889532672327,6.108227717667379,1.0142834186553955,-3.192956511174337
1708443250.5406632,-2.141587495803833,-1.3328896027854462,-2.524930779133932,6.108111488610067,1.0142879486083984,-3.192911926900045
1708443250.5426803,-2.1415538787841797,-1.33290287972007,-2.5249608198748987,6.108218657761373,1.0143167972564697,-3.1929033438311976
1708443250.5446546,-2.141594409942627,-1.3328896325877686,-2.524996582661764,6.1081697819526575,1.0142911672592163,-3.1929238478290003
1708443250.5466611,-2.141557455062866,-1.3329182279160996,-2.524905268345968,6.1081817028816126,1.0143001079559326,-3.1929076353656214
1708443250.5486543,-2.141590118408203,-1.3329015535167237,-2.5249231497394007,6.108165371208944,1.0142879486083984,-3.1929283777820032
1708443250.5506628,-2.14156174659729,-1.3329313111356278,-2.5249186197863978,6.108165371208944,1.0143465995788574,-3.1928868929492396
1708443250.5526643,-2.1415581703186035,-1.3328660291484375,-2.524951759968893,6.108165371208944,1.0143213272094727,-3.1928988138781946
1708443250.5546556,-2.141545057296753,-1.332910345201828,-2.524956289921896,6.108216154366293,1.0143078565597534,-3.192949120198385
1708443250.5566568,-2.141598701477051,-1.3329028350165864,-2.524930779133932,6.108148562699117,1.0143046379089355,-3.192989174519674
1708443250.5586524,-2.141636610031128,-1.3328970682672043,-2.524909559880392,6.108216154366293,1.0143001079559326,-3.1929195562945765
1708443250.5606544,-2.141594409942627,-1.332839549784996,-2.524938170109884,6.108156430512228,1.0143046379089355,-3.1929271856891077
1708443250.562653,-2.141538143157959,-1.3328983348659058,-2.524972740803854,6.108177411347189,1.0143046379089355,-3.1928706804858606
1708443250.5646718,-2.141557455062866,-1.3328733158162613,-2.5249934832202356,6.108223187714376,1.0142536163330078,-3.1929684321032923
1708443250.5666747,-2.1415364742279053,-1.3328733158162613,-2.52494723001589,6.108230936318197,1.01427161693573,-3.1929107348071497
1708443250.568714,-2.1416523456573486,-1.3328689199737092,-2.524939839039938,6.108136760979452,1.014267086982727,-3.1929357687579554
1708443250.570674,-2.141587495803833,-1.3328573268703003,-2.5249608198748987,6.108207094460287,1.0143167972564697,-3.1929152647601526
1708443250.5726569,-2.1415531635284424,-1.332868905072548,-2.524951759968893,6.108223187714376,1.0143167972564697,-3.1928826014148157
1708443250.5746515,-2.141594409942627,-1.3329059493592759,-2.5249276796924036,6.108177411347189,1.0142834186553955,-3.1929195562945765
1708443250.5766554,-2.141598701477051,-1.3328820180943985,-2.524926249180929,6.108230936318197,1.0142834186553955,-3.1928449312793177
1708443250.5786545,-2.141615390777588,-1.332880751495697,-2.5249488989459437,6.1081817028816126,1.0143285989761353,-3.1928868929492396
1708443250.5806737,-2.1415531635284424,-1.3328660291484375,-2.524914089833395,6.10821162441329,1.0143122673034668,-3.1929033438311976
1708443250.582647,-2.1415743827819824,-1.3328896325877686,-2.5249534288989466,6.1081697819526575,1.0142788887023926,-3.1929314772235315
1708443250.5846438,-2.141590118408203,-1.3328689199737092,-2.5249534288989466,6.108230936318197,1.014259696006775,-3.1929238478290003
1708443250.5866387,-2.1415786743164062,-1.3328852218440552,-2.5249651114093226,6.108230936318197,1.01427161693573,-3.192869488392965
1708443250.5886464,-2.14158296585083,-1.3328573268703003,-2.5249231497394007,6.10817431190566,1.0142834186553955,-3.1929271856891077
1708443250.5906706,-2.141611099243164,-1.3328852367452164,-2.5249276796924036,6.108198153763571,1.01427161693573,-3.1928988138781946
1708443250.5926821,-2.141598701477051,-1.3328573268703003,-2.5249443689929407,6.108127820282736,1.0142879486083984,-3.1928868929492396
1708443250.594677,-2.14158296585083,-1.3328940284303208,-2.524935309086935,6.1081697819526575,1.0142879486083984,-3.1928988138781946
1708443250.5966773,-2.1415700912475586,-1.3328763407519837,-2.524972740803854,6.108198153763571,1.0142879486083984,-3.1929150263415735
1708443250.5986865,-2.1416192054748535,-1.3328644198230286,-2.52494723001589,6.1081817028816126,1.0142923593521118,-3.1928826014148157
1708443250.6006768,-2.1416025161743164,-1.3328940284303208,-2.524951759968893,6.1082098362739465,1.0143001079559326,-3.1929314772235315
1708443250.6026473,-2.141643524169922,-1.3328896474889298,-2.524939839039938,6.108205306320944,1.0142923593521118,-3.192878309880392
1708443250.604681,-2.1415858268737793,-1.332857297067978,-2.5249066988574427,6.1082026837165735,1.0142834186553955,-3.1929152647601526
1708443250.60665,-2.141627788543701,-1.3328820180943985,-2.5249276796924036,6.108221995621481,1.0142834186553955,-3.1928914229022425
1708443250.608649,-2.141557455062866,-1.3329059493592759,-2.5249066988574427,6.108200776367941,1.014309048652649,-3.1929033438311976
1708443250.6106777,-2.141639232635498,-1.3328733158162613,-2.5249231497394007,6.108229505806722,1.0142879486083984,-3.192889992390768
1708443250.6127174,-2.141632080078125,-1.3328852367452164,-2.5249443689929407,6.108168351441183,1.014267086982727,-3.1929271856891077
1708443250.6146793,-2.141557455062866,-1.3328733158162613,-2.5249534288989466,6.108242976456442,1.0142923593521118,-3.1929433981524866
1708443250.6166754,-2.1415700912475586,-1.3328573268703003,-2.5249157587634485,6.108236777573385,1.0142669677734375,-3.192911926900045
1708443250.6186364,-2.141611099243164,-1.3329059493592759,-2.5249276796924036,6.108230936318197,1.0142788887023926,-3.1929150263415735
1708443250.6206493,-2.1415858268737793,-1.3328573268703003,-2.5249231497394007,6.108229386597433,1.0142788887023926,-3.1929195562945765
1708443250.6226583,-2.1415743827819824,-1.3328689199737092,-2.5249276796924036,6.108245837479391,1.0143001079559326,-3.192866388951437
1708443250.6246643,-2.141590118408203,-1.3329181981137772,-2.524972740803854,6.108292567520895,1.0143001079559326,-3.192911926900045
1708443250.6266623,-2.1416068077087402,-1.332880751495697,-2.5249066988574427,6.108265387802877,1.0142834186553955,-3.1928957144366663
1708443250.6286523,-2.141632080078125,-1.332880751495697,-2.5249322096454065,6.10826991775588,1.01427161693573,-3.192848507558004
1708443250.6306849,-2.1415815353393555,-1.3329059493592759,-2.5249157587634485,6.108241307526388,1.014267086982727,-3.1928988138781946
1708443250.6327004,-2.141639232635498,-1.3328733158162613,-2.524939839039938,6.10826991775588,1.01427161693573,-3.1928914229022425
1708443250.63467,-2.1416220664978027,-1.3328484308770676,-2.5249231497394007,6.108274447708883,1.0143046379089355,-3.1928957144366663
1708443250.6367095,-2.141634941101074,-1.3328688901713868,-2.5249772707568567,6.108262526779928,1.0142804384231567,-3.1929314772235315
1708443250.6386554,-2.1415982246398926,-1.3329181981137772,-2.524914089833395,6.108236777573385,1.0143046379089355,-3.1929357687579554
1708443250.6406672,-2.1416068077087402,-1.3329059493592759,-2.5249231497394007,6.108257996826925,1.01427161693573,-3.1929283777820032
1708443250.6426806,-2.1415939331054688,-1.3329015535167237,-2.5249186197863978,6.108215915947714,1.014255166053772,-3.192956511174337
1708443250.6446593,-2.1416306495666504,-1.3328896325877686,-2.524902407323019,6.108227836876669,1.0142834186553955,-3.1929522196399134
1708443250.646667,-2.1416068077087402,-1.3328573268703003,-2.524972740803854,6.1082520363624475,1.0143046379089355,-3.1929641405688685
1708443250.6487064,-2.1416192054748535,-1.3328852367452164,-2.5249488989459437,6.108310448914327,1.014233946800232,-3.1929033438311976
1708443250.6506453,-2.141634941101074,-1.3329104048064728,-2.524956289921896,6.108272778778829,1.0142686367034912,-3.1929271856891077
1708443250.6526997,-2.1416192054748535,-1.3328896325877686,-2.5249443689929407,6.108301508217611,1.0142968893051147,-3.1929314772235315
1708443250.654659,-2.1416234970092773,-1.332905964260437,-2.524956289921896,6.108354675560751,1.014330267906189,-3.1928957144366663
1708443250.6566544,-2.1416587829589844,-1.3328983646682282,-2.524956289921896,6.108277308731832,1.0142669677734375,-3.1929152647601526
1708443250.658676,-2.1416549682617188,-1.3328852367452164,-2.5249608198748987,6.108323919564047,1.01427161693573,-3.1929476896869105
1708443250.6606584,-2.1416068077087402,-1.3328763109496613,-2.5249186197863978,6.108272778778829,1.01427161693573,-3.1928661505328577
1708443250.6626754,-2.1416149139404297,-1.3328688901713868,-2.5249112288104456,6.1083176014717,1.0142430067062378,-3.192878071461813
1708443250.6646607,-2.1416306495666504,-1.3328940135291596,-2.5248735586749476,6.108363854676046,1.01427161693573,-3.1929357687579554
1708443250.6666617,-2.1416263580322266,-1.332894043331482,-2.5249248186694544,6.108263957291403,1.014267086982727,-3.1929402987109583
1708443250.6686985,-2.141606330871582,-1.3328970533660431,-2.524930779133932,6.108341443329611,1.014259696006775,-3.192956511174337
1708443250.6706583,-2.1416068077087402,-1.3329182130149384,-2.5249367395984095,6.108383524208822,1.0142669677734375,-3.1929033438311976
1708443250.6726522,-2.1416192054748535,-1.3329191517880936,-2.524897638951437,6.1083176014717,1.0142760276794434,-3.1929283777820032
1708443250.6746752,-2.141639232635498,-1.3328852218440552,-2.5249157587634485,6.10832046249465,1.0142923593521118,-3.192894522343771
1708443250.6766584,-2.1416501998901367,-1.3329103750041504,-2.524939839039938,6.1083176014717,1.0142894983291626,-3.1929107348071497
1708443250.6786566,-2.141646385192871,-1.332870529299118,-2.524930779133932,6.1083655236061,1.014255166053772,-3.1928795019732874
1708443250.6807084,-2.1416420936584473,-1.3328970682672043,-2.5248900095569056,6.108299600868978,1.0143091678619385,-3.1929929892169397
1708443250.682674,-2.1415772438049316,-1.3328733158162613,-2.5249186197863978,6.1083295224006555,1.0142804384231567,-3.1928988138781946
1708443250.6846962,-2.1416501998901367,-1.3329270047000428,-2.5249231497394007,6.108304011612692,1.0142760276794434,-3.1929357687579554
1708443250.6866696,-2.1416914463043213,-1.3328733009151001,-2.5249066988574427,6.108338343888082,1.0142309665679932,-3.1929152647601526
1708443250.6886594,-2.141606330871582,-1.3328733009151001,-2.5249322096454065,6.108353602677145,1.0142686367034912,-3.1929076353656214
1708443250.6906495,-2.141663074493408,-1.3329182130149384,-2.5249367395984095,6.108395445137777,1.0142356157302856,-3.1929848829852503
1708443250.6926978,-2.141645669937134,-1.3328733158162613,-2.5248945395099085,6.108353602677145,1.0142143964767456,-3.1929357687579554
1708443250.6946754,-2.1416420936584473,-1.3328970533660431,-2.5249322096454065,6.108398306160726,1.0142731666564941,-3.1928826014148157
1708443250.6966505,-2.1416549682617188,-1.3328896325877686,-2.5248945395099085,6.108358132630148,1.0142894983291626,-3.1929314772235315
1708443250.698687,-2.141666889190674,-1.3328852367452164,-2.5248990694629114,6.108369934349813,1.0142760276794434,-3.192922655736105
1708443250.70069,-2.1416914463043213,-1.3328852218440552,-2.5249035994159144,6.108360993653097,1.0142641067504883,-3.1929433981524866
1708443250.702672,-2.141646385192871,-1.3328599792769928,-2.5249367395984095,6.108370053559103,1.0142923593521118,-3.1929553190814417
1708443250.704647,-2.1416544914245605,-1.332905964260437,-2.5248990694629114,6.108381974488058,1.0142384767532349,-3.192901913319723
1708443250.7066605,-2.1416754722595215,-1.3329146963408967,-2.5249202887164515,6.108402836113729,1.014233946800232,-3.192894522343771
1708443250.7086923,-2.1416797637939453,-1.3328733009151001,-2.5249248186694544,6.108370053559103,1.0142474174499512,-3.192922655736105
1708443250.7106383,-2.1416289806365967,-1.332905964260437,-2.5248945395099085,6.108374583512106,1.014259696006775,-3.1929271856891077
1708443250.7126546,-2.1416263580322266,-1.3328643900207062,-2.5249066988574427,6.108336913376608,1.014255166053772,-3.1929553190814417
1708443250.7146678,-2.1416378021240234,-1.332831786280014,-2.5249412695514124,6.108386385231771,1.0142474174499512,-3.1929195562945765
1708443250.7166443,-2.141613245010376,-1.3328865331462403,-2.5248900095569056,6.108301508217611,1.014214277267456,-3.1929684321032923
1708443250.7186794,-2.1416289806365967,-1.3328896325877686,-2.5249248186694544,6.108374583512106,1.0142686367034912,-3.1929522196399134
1708443250.7206395,-2.1416335105895996,-1.3328617227128525,-2.5249322096454065,6.1083459732826135,1.014259696006775,-3.1929596106158655
1708443250.7226524,-2.141601800918579,-1.332913727765419,-2.5249322096454065,6.108327853470602,1.0142641067504883,-3.1929684321032923
1708443250.7246706,-2.1416420936584473,-1.332905964260437,-2.5249081293689173,6.108360993653097,1.0142428874969482,-3.1929433981524866
1708443250.7266455,-2.141645669937134,-1.332857297067978,-2.5248661676989954,6.108360993653097,1.0142428874969482,-3.192939106618063
1708443250.7286532,-2.1416289806365967,-1.3328820180943985,-2.5249035994159144,6.108384835511007,1.0142760276794434,-3.1929641405688685
1708443250.7306468,-2.141662359237671,-1.3328983646682282,-2.5249035994159144,6.108435976296224,1.0142474174499512,-3.1929152647601526
1708443250.7326586,-2.1416842937469482,-1.3328820329955597,-2.5248871485339563,6.108374583512106,1.014214277267456,-3.192967240010397
1708443250.734678,-2.1416263580322266,-1.3328896325877686,-2.5249231497394007,6.108384835511007,1.0142176151275635,-3.1929760614978235
1708443250.7366574,-2.1416914463043213,-1.3328896325877686,-2.5249066988574427,6.108304011612692,1.014214277267456,-3.1930092016803187
1708443250.7386694,-2.1417038440704346,-1.3328983944705506,-2.5248780886279505,6.1083565829093835,1.014218807220459,-3.1929708162890833
1708443250.740663,-2.1416501998901367,-1.3328896325877686,-2.5248916784869593,6.1083446619804285,1.0142731666564941,-3.192941967641012
1708443250.7426715,-2.1416420936584473,-1.3328617227128525,-2.5249202887164515,6.10838936546401,1.0142641067504883,-3.19297963777651
1708443250.7447314,-2.141688346862793,-1.3329433661750336,-2.5248990694629114,6.108349072724142,1.014235496520996,-3.19297963777651
1708443250.7466793,-2.1416378021240234,-1.3328940135291596,-2.5249157587634485,6.108396994858541,1.0142686367034912,-3.19300347963442
1708443250.7486615,-2.1416378021240234,-1.3328852218440552,-2.5249081293689173,6.1083401320274255,1.0142563581466675,-3.193044964467184
1708443250.750686,-2.1416537761688232,-1.3329388958266755,-2.5249035994159144,6.108372914582052,1.0142115354537964,-3.1930230299579065
1708443250.7526584,-2.1416501998901367,-1.3328777116588135,-2.5249488989459437,6.1083655236061,1.0142322778701782,-3.193007771168844
1708443250.7547054,-2.1417038440704346,-1.3328970533660431,-2.5248945395099085,6.10841058471755,1.0142356157302856,-3.1930065790759485
1708443250.756688,-2.141666889190674,-1.3328807067922135,-2.5249157587634485,6.108427035599508,1.0142384767532349,-3.1929784456836146
1708443250.7586644,-2.1416828632354736,-1.332905964260437,-2.5249157587634485,6.108398306160726,1.0142309665679932,-3.1930154005633753
1708443250.7606819,-2.1416544914245605,-1.3328617227128525,-2.5249367395984095,6.108393895417013,1.0142850875854492,-3.1930111090289515
1708443250.7626657,-2.1416587829589844,-1.332909272318222,-2.5249035994159144,6.1083446619804285,1.0142563581466675,-3.1929991880999964
1708443250.7646935,-2.141662359237671,-1.332905964260437,-2.5248916784869593,6.108341443329611,1.0142309665679932,-3.193031613026754
1708443250.7666752,-2.1416378021240234,-1.3329182130149384,-2.5248916784869593,6.108402836113729,1.0142115354537964,-3.1930022875415247
1708443250.7687268,-2.141663074493408,-1.3328733009151001,-2.5249157587634485,6.108406054764547,1.0142699480056763,-3.1930273214923304
1708443250.7706804,-2.1416797637939453,-1.3328970533660431,-2.524896208439962,6.108349072724142,1.014244556427002,-3.1930435339557093
1708443250.7726772,-2.141666889190674,-1.3328852516463776,-2.524926249180929,6.108324992447653,1.0142563581466675,-3.1930392424212855
1708443250.7746577,-2.1416335105895996,-1.3328529012254258,-2.52491265932192,6.108402836113729,1.014244556427002,-3.1930392424212855
1708443250.7766726,-2.1416501998901367,-1.332905964260437,-2.5249293486224573,6.108419525414266,1.0142563581466675,-3.1930154005633753
1708443250.7786777,-2.1416501998901367,-1.3328983646682282,-2.5248871485339563,6.108372914582052,1.0142866373062134,-3.1930435339557093
1708443250.780704,-2.141666889190674,-1.3328777116588135,-2.524838987980978,6.1083565829093835,1.0142278671264648,-3.1930392424212855
1708443250.7826777,-2.1416828632354736,-1.3328406375697632,-2.5248916784869593,6.108402836113729,1.01426100730896,-3.1930554548846644
1708443250.784677,-2.1416544914245605,-1.332905964260437,-2.524860207234518,6.108344542771139,1.0142309665679932,-3.193031613026754
1708443250.786643,-2.1416871547698975,-1.3328688603690644,-2.524818007146017,6.108370053559103,1.0142580270767212,-3.1930845419513147
1708443250.7886603,-2.141695022583008,-1.3328896325877686,-2.5248525778399866,6.1083655236061,1.014223337173462,-3.1930392424212855
1708443250.7906983,-2.1416711807250977,-1.3328807216933747,-2.5248525778399866,6.108377444535055,1.0142322778701782,-3.1930349508868616
1708443250.7926476,-2.1416871547698975,-1.3328599643758317,-2.5248451868640345,6.108377444535055,1.0142356157302856,-3.1930554548846644
1708443250.7946782,-2.1416335105895996,-1.3328362268260499,-2.5247839132892054,6.108398306160726,1.0142115354537964,-3.1930258909808558
1708443250.796647,-2.141658067703247,-1.3329103750041504,-2.5247958342181605,6.108368384629049,1.0141992568969727,-3.1930349508868616
1708443250.7986395,-2.141695737838745,-1.3329521876624604,-2.5248077551471155,6.108386385231771,1.014223337173462,-3.1930301825152796
1708443250.8006392,-2.1416289806365967,-1.332935855989792,-2.524750534688131,6.108386385231771,1.014206886291504,-3.1930680910693567
1708443250.8026426,-2.141663074493408,-1.3328153950027009,-2.5247913042651575,6.108372914582052,1.014240026473999,-3.1930349508868616
1708443250.804659,-2.1416289806365967,-1.3328896325877686,-2.5247414747821253,6.108345854073324,1.0142894983291626,-3.1930185000049036
1708443250.80665,-2.1416544914245605,-1.3328852218440552,-2.5247414747821253,6.108353602677145,1.0142278671264648,-3.1930258909808558
1708443250.8087173,-2.1416420936584473,-1.332857297067978,-2.5247581640826624,6.108351933747091,1.0142699480056763,-3.1930301825152796
1708443250.8107066,-2.1416783332824707,-1.3328881871751328,-2.5247884432422083,6.108315932541647,1.014240026473999,-3.1930511633502405
1708443250.8126714,-2.14164137840271,-1.3329137128642579,-2.524750534688131,6.1083565829093835,1.0142114162445068,-3.1931124369250696
1708443250.8146408,-2.141645669937134,-1.3329182130149384,-2.524771753941671,6.108374583512106,1.014244556427002,-3.193070952092306
1708443250.8167052,-2.1416289806365967,-1.3329476875117798,-2.5247839132892054,6.108386385231771,1.0142490863800049,-3.1930466333972376
1708443250.8186352,-2.1416220664978027,-1.3328852367452164,-2.5248048941241663,6.108360993653097,1.0142278671264648,-3.1930931250201624
1708443250.8206472,-2.141662359237671,-1.3328688901713868,-2.524750534688131,6.108349072724142,1.014240026473999,-3.1930511633502405
1708443250.8226428,-2.1416828632354736,-1.3328439754298707,-2.5247839132892054,6.108336913376608,1.0142369270324707,-3.193037811909811
1708443250.8246448,-2.1416378021240234,-1.332905964260437,-2.5247884432422083,6.108341443329611,1.0141947269439697,-3.1930797735797327
1708443250.8266559,-2.141613245010376,-1.3329093021205445,-2.5248258749591272,6.108358132630148,1.0142070055007935,-3.1930843035327356
1708443250.8286443,-2.1416289806365967,-1.3328896474889298,-2.5247958342181605,6.108336913376608,1.0141992568969727,-3.1931007544146937
1708443250.830657,-2.141666889190674,-1.3329685193351288,-2.5247793833362024,6.108308660774984,1.0141738653182983,-3.1930511633502405
1708443250.8326433,-2.141674041748047,-1.332877741461136,-2.524771753941671,6.108390915184774,1.014244556427002,-3.1930962244616907
1708443250.8346736,-2.1416378021240234,-1.3328733009151001,-2.5248242060290735,6.10832046249465,1.014241337776184,-3.193099323903219
1708443250.8366756,-2.141658067703247,-1.3328643900207062,-2.5247581640826624,6.108362543373861,1.0141947269439697,-3.193087402974264
1708443250.838679,-2.1416914463043213,-1.3328599792769928,-2.524755064641134,6.10837613323287,1.014240026473999,-3.1931334177600306
1708443250.8406615,-2.1416501998901367,-1.332864375119545,-2.5247958342181605,6.108341443329611,1.014241337776184,-3.193103615437643
1708443250.8426492,-2.141645669937134,-1.3329313707402726,-2.5247748533831995,6.108323442726888,1.0141947269439697,-3.193091694508688
1708443250.8446794,-2.141601800918579,-1.3328528863242646,-2.5247414747821253,6.10835479477004,1.0142580270767212,-3.193075482045309
1708443250.846684,-2.141662359237671,-1.3329299700311203,-2.5247460047351282,6.1083340523536584,1.0142232179641724,-3.193066660557882
1708443250.848665,-2.141613245010376,-1.3328660291484375,-2.524771753941671,6.108341443329611,1.0142490863800049,-3.193066660557882
1708443250.850671,-2.141617774963379,-1.3328896325877686,-2.524743143712179,6.108362662583151,1.0142490863800049,-3.193071190510885
1708443250.8526497,-2.141666889190674,-1.3329389554313202,-2.5248048941241663,6.108371484070577,1.0142115354537964,-3.1930504480945032
1708443250.8546524,-2.1416420936584473,-1.332914651637413,-2.524755064641134,6.108338343888082,1.0141992568969727,-3.193063561116354
1708443250.8567133,-2.1416335105895996,-1.3329146963408967,-2.524750534688131,6.108350384026327,1.0142115354537964,-3.193063561116354
1708443250.858658,-2.141666889190674,-1.3329015535167237,-2.5247672239886683,6.108289229660787,1.0142536163330078,-3.1930466333972376
1708443250.86068,-2.1416501998901367,-1.3329146963408967,-2.524755064641134,6.1083176014717,1.0142115354537964,-3.1931286493884485
1708443250.8626516,-2.1416797637939453,-1.3328777116588135,-2.5248003641711634,6.108268368035116,1.0141992568969727,-3.1930466333972376
1708443250.8646672,-2.1416871547698975,-1.332905964260437,-2.524750534688131,6.108277308731832,1.0141873359680176,-3.193091694508688
1708443250.8666563,-2.141662359237671,-1.3329027903131028,-2.524759594594137,6.108281838684835,1.0142159461975098,-3.19305926958193
1708443250.8687015,-2.141666889190674,-1.332889662390091,-2.5248048941241663,6.108280288964071,1.0141664743423462,-3.1930888334857386
1708443250.8706856,-2.14164137840271,-1.3328777116588135,-2.5248048941241663,6.108301508217611,1.0142024755477905,-3.193066660557882
1708443250.8726673,-2.1416544914245605,-1.3328688901713868,-2.524750534688131,6.108260977059164,1.014224886894226,-3.1931093374835413
1708443250.8746727,-2.14164137840271,-1.332905964260437,-2.524797503148214,6.108335482865133,1.0142204761505127,-3.1931124369250696
1708443250.876662,-2.1416797637939453,-1.3329146963408967,-2.5247839132892054,6.108284818917074,1.0142204761505127,-3.193054739628927
1708443250.8786495,-2.1416754722595215,-1.3328896325877686,-2.5248077551471155,6.108257996826925,1.014208197593689,-3.1931405703174036
1708443250.880672,-2.1416754722595215,-1.3328660142472764,-2.5248003641711634,6.108272778778829,1.014208197593689,-3.193066660557882
1708443250.882664,-2.1417036056518555,-1.3328362268260499,-2.524771753941671,6.108236777573385,1.0141710042953491,-3.1931169668780726
1708443250.8846676,-2.141663074493408,-1.3328317266753693,-2.5248287359820765,6.108213054924764,1.0142204761505127,-3.193127457295553
1708443250.886676,-2.1416220664978027,-1.3328896325877686,-2.5248048941241663,6.108233916550436,1.0141783952713013,-3.193054739628927
1708443250.888658,-2.1416263580322266,-1.3328896325877686,-2.5248287359820765,6.1082039950187585,1.0142250061035156,-3.19308311143984
1708443250.8907096,-2.1416306495666504,-1.3328820329955597,-2.524734083806173,6.108160960465231,1.0141992568969727,-3.1931169668780726
1708443250.89266,-2.1416335105895996,-1.3328616929105301,-2.5247958342181605,6.1082098362739465,1.0142322778701782,-3.193139378224508
1708443250.8946683,-2.1416378021240234,-1.3328762960485,-2.524750534688131,6.108195292740621,1.014241337776184,-3.193115536366598
1708443250.8966696,-2.1416797637939453,-1.3328330379775544,-2.524780813847677,6.108227717667379,1.0142204761505127,-3.193108145390646
1708443250.8986533,-2.1416263580322266,-1.3328644347241898,-2.5248032251941126,6.108211743622579,1.0141874551773071,-3.193099323903219
1708443250.9006784,-2.1416220664978027,-1.332894043331482,-2.5247250239001673,6.108190762787618,1.0141992568969727,-3.193120066319601
1708443250.9026783,-2.141585111618042,-1.3329226237586518,-2.5247884432422083,6.108160960465231,1.0142204761505127,-3.19308311143984
1708443250.9046674,-2.141666889190674,-1.3328528863242646,-2.5247884432422083,6.108151900559225,1.014175534248352,-3.193099323903219
1708443250.9066737,-2.1416754722595215,-1.3328643900207062,-2.5247672239886683,6.108160960465231,1.0141992568969727,-3.193095032368795
1708443250.9086537,-2.1416544914245605,-1.3328528863242646,-2.5247748533831995,6.108148681908407,1.0141799449920654,-3.1931069532977503
1708443250.9106436,-2.1416192054748535,-1.3328406375697632,-2.5247913042651575,6.108198153763571,1.0141962766647339,-3.193095032368795
1708443250.912654,-2.141606330871582,-1.3328896325877686,-2.5247703234301966,6.108120310097494,1.0141918659210205,-3.193095032368795
1708443250.9146554,-2.1416711807250977,-1.3328820329955597,-2.524771753941671,6.108133780747213,1.014159083366394,-3.193078581486837
1708443250.9166656,-2.1416544914245605,-1.3328777116588135,-2.5248375574695032,6.108075248986044,1.014212727546692,-3.1930623690234583
1708443250.9186807,-2.141610622406006,-1.332861678009369,-2.5248332659350794,6.1081293700035,1.0141962766647339,-3.193111244832174
1708443250.9206553,-2.1416220664978027,-1.3329146963408967,-2.5247913042651575,6.108121979027548,1.0141829252243042,-3.193120066319601
1708443250.9226613,-2.141666889190674,-1.3328573417714615,-2.5247536341296595,6.108117449074545,1.014208197593689,-3.193099323903219
1708443250.924662,-2.1416544914245605,-1.3328896325877686,-2.5247793833362024,6.1081756232078455,1.0141962766647339,-3.193120066319601
1708443250.9266944,-2.1416335105895996,-1.3328660291484375,-2.5248497168170374,6.108117449074545,1.014208197593689,-3.193087402974264
1708443250.928666,-2.1416220664978027,-1.332877741461136,-2.5247867743121546,6.108108389168539,1.0141992568969727,-3.193111244832174
1708443250.9306667,-2.1416587829589844,-1.332894043331482,-2.5247793833362024,6.108150231629171,1.0141828060150146,-3.1931243578540247
1708443250.932671,-2.141602039337158,-1.3329191964915772,-2.5248168150531214,6.108171212464132,1.0141918659210205,-3.1931243578540247
1708443250.9346988,-2.1416192054748535,-1.3328287166408082,-2.5247703234301966,6.108147370606222,1.0142171382904053,-3.1930905024157923
1708443250.9366636,-2.1415939331054688,-1.332857297067978,-2.5248032251941126,6.10816382148818,1.0141918659210205,-3.193131987248556
1708443250.938659,-2.1416378021240234,-1.3328896325877686,-2.524771753941671,6.108093249588766,1.0142037868499756,-3.193131987248556
1708443250.94069,-2.1416263580322266,-1.3328538698009034,-2.524759594594137,6.108145701676168,1.0141680240631104,-3.193099323903219
1708443250.942664,-2.141617774963379,-1.3328688901713868,-2.5248213450061243,6.108156192093649,1.014229416847229,-3.19308311143984
1708443250.9446957,-2.1415975093841553,-1.3328909438899537,-2.5248077551471155,6.108121859818258,1.0141711235046387,-3.193148199711935
1708443250.9466658,-2.1416378021240234,-1.3328450483134766,-2.5248406569110315,6.108138310700216,1.0141874551773071,-3.193115536366598
1708443250.9486725,-2.141634941101074,-1.332857297067978,-2.5247703234301966,6.108051883965292,1.014175534248352,-3.193103615437643
1708443250.95065,-2.1416263580322266,-1.3328330975821991,-2.5248330275165003,6.108109700470724,1.0141680240631104,-3.193071190510885
1708443250.952662,-2.141589641571045,-1.3328733009151001,-2.5248122851001185,6.108093249588766,1.0142008066177368,-3.1931007544146937
1708443250.9546638,-2.1416420936584473,-1.3328807365945359,-2.5248077551471155,6.108097898751058,1.014159083366394,-3.193108145390646
1708443250.9566963,-2.1415815353393555,-1.3329313558391114,-2.5248168150531214,6.108078706055441,1.0141844749450684,-3.193075482045309
1708443250.9586983,-2.141634941101074,-1.3328660291484375,-2.5247657934771937,6.108041155129232,1.0141918659210205,-3.193028990422384
1708443250.9606633,-2.1415858268737793,-1.3328865331462403,-2.5247958342181605,6.108035075455465,1.014155626296997,-3.193054739628927
1708443250.962677,-2.1416192054748535,-1.3328776967576523,-2.5248451868640345,6.108027565270223,1.014163613319397,-3.1930623690234583
1708443250.9646688,-2.1416192054748535,-1.3328865480474015,-2.5248032251941126,6.1079993126686,1.0141918659210205,-3.19305926958193
1708443250.9666765,-2.1415939331054688,-1.3328852218440552,-2.5247793833362024,6.1079620001609705,1.0141799449920654,-3.1930962244616907
1708443250.9687066,-2.1416025161743164,-1.3328865331462403,-2.5247867743121546,6.107950198441305,1.0141918659210205,-3.19308311143984
1708443250.9706776,-2.1416149139404297,-1.3328896325877686,-2.5247703234301966,6.107987034111776,1.014159083366394,-3.193071190510885
1708443250.9726675,-2.1416306495666504,-1.3329103750041504,-2.5247493425952356,6.107995974808492,1.014163613319397,-3.193103615437643
1708443250.974691,-2.1416068077087402,-1.332837538128235,-2.5247793833362024,6.1079914448554895,1.0142261981964111,-3.1930797735797327
1708443250.9766886,-2.141663074493408,-1.3328896176866074,-2.5247793833362024,6.107982623368063,1.0141918659210205,-3.193103615437643
1708443250.978693,-2.141610622406006,-1.3329270345023652,-2.5248377958880823,6.107966530113973,1.0141918659210205,-3.193075482045309
1708443250.9806657,-2.141646385192871,-1.332857297067978,-2.5247986952411097,6.107979881554403,1.0141465663909912,-3.1930504480945032
1708443250.9826906,-2.1415982246398926,-1.3328896325877686,-2.5248168150531214,6.107959019928732,1.0141799449920654,-3.193099323903219
1708443250.9846551,-2.1416025161743164,-1.3328896325877686,-2.5247660318957728,6.107918488770284,1.014163613319397,-3.1931243578540247
1708443250.9866726,-2.1416306495666504,-1.332947702412941,-2.5247703234301966,6.1079561589057825,1.0141962766647339,-3.193087402974264
1708443250.9886632,-2.1416068077087402,-1.3329236072352906,-2.5248242060290735,6.107894766121664,1.0141592025756836,-3.193078581486837
1708443250.9906852,-2.141639232635498,-1.3328896325877686,-2.5247839132892054,6.1079726097877405,1.0141592025756836,-3.1930962244616907
1708443250.9926665,-2.141556978225708,-1.332894043331482,-2.5247958342181605,6.107976901322164,1.0141962766647339,-3.193123165761129
1708443250.9946785,-2.1416025161743164,-1.3328406375697632,-2.5248613993274134,6.107943880348959,1.0141843557357788,-3.193078581486837
1708443250.996667,-2.1416068077087402,-1.3329072755626221,-2.5248168150531214,6.1079245684440515,1.0141465663909912,-3.193108145390646
1708443250.9986558,-2.1415321826934814,-1.3328983944705506,-2.5248077551471155,6.107902037888326,1.0141843557357788,-3.193099323903219
1708443251.0006618,-2.141634941101074,-1.3328617078116913,-2.5248122851001185,6.107859003334799,1.0141465663909912,-3.19305926958193
1708443251.0026777,-2.141639232635498,-1.3328617227128525,-2.5247793833362024,6.107899176865377,1.0141509771347046,-3.193054739628927
1708443251.0046682,-2.1416242122650146,-1.332857297067978,-2.5247958342181605,6.107915627747335,1.0141843557357788,-3.193108145390646
1708443251.0066562,-2.141643524169922,-1.3328865331462403,-2.5248315970050257,6.107863414078512,1.0141726732254028,-3.193108145390646
1708443251.0086944,-2.14156174659729,-1.3328573119691391,-2.5248077551471155,6.107877957611837,1.014175534248352,-3.193099323903219
1708443251.010661,-2.1416409015655518,-1.332914726143219,-2.5247839132892054,6.107879507332601,1.014175534248352,-3.193075482045309
1708443251.0126662,-2.141598701477051,-1.3328896325877686,-2.5248902479754847,6.107884037285604,1.0141890048980713,-3.193103615437643
1708443251.0146787,-2.1415493488311768,-1.3329072904637833,-2.5248151461230677,6.107863414078512,1.0141890048980713,-3.193127457295553
1708443251.016653,-2.1415786743164062,-1.332857297067978,-2.5248213450061243,6.107850062638082,1.0141680240631104,-3.1931124369250696
1708443251.0186503,-2.1416478157043457,-1.3328749251416703,-2.5248525778399866,6.107887017517843,1.0141392946243286,-3.1930905024157923
1708443251.0206568,-2.141598701477051,-1.3328582656434556,-2.5247958342181605,6.107899176865377,1.014159083366394,-3.1931243578540247
1708443251.0226603,-2.141632080078125,-1.3329103750041504,-2.5248242060290735,6.107891547470846,1.0141346454620361,-3.193078581486837
1708443251.02467,-2.1415786743164062,-1.3328287166408082,-2.5248287359820765,6.107861506729879,1.0141465663909912,-3.1931069532977503
1708443251.0266707,-2.14158296585083,-1.3328820329955597,-2.5247793833362024,6.107875096588888,1.0141183137893677,-3.1930699984179896
1708443251.028663,-2.141591787338257,-1.332907186155655,-2.5248494783984583,6.107841002732076,1.0141935348510742,-3.193071190510885
1708443251.0306501,-2.141632080078125,-1.3328406673720856,-2.5248077551471155,6.107899176865377,1.0142008066177368,-3.193033520375387
1708443251.0327022,-2.14158296585083,-1.3328538847020646,-2.5247536341296595,6.1078423140342615,1.0141843557357788,-3.19308311143984
1708443251.0346704,-2.1415655612945557,-1.332886518245079,-2.5247822443591517,6.1078213331993005,1.0141962766647339,-3.193103615437643
1708443251.036674,-2.141636610031128,-1.332837538128235,-2.5247538725482386,6.107884037285604,1.014163613319397,-3.193099323903219
1708443251.0386777,-2.1416075229644775,-1.332846300011017,-2.5248168150531214,6.10789583900527,1.014163613319397,-3.193071190510885
1708443251.040656,-2.1415493488311768,-1.3328582805446167,-2.5248242060290735,6.107908236771383,1.0141301155090332,-3.193037811909811
1708443251.0426617,-2.1416032314300537,-1.3328375232270737,-2.52476150194277,6.107863414078512,1.014155626296997,-3.193071190510885
1708443251.0446496,-2.141590118408203,-1.3328749549439927,-2.5248003641711634,6.107828843384542,1.014155626296997,-3.1930511633502405
1708443251.046681,-2.1416592597961426,-1.332905964260437,-2.5248122851001185,6.107863414078512,1.0141934156417847,-3.1930230299579065
1708443251.0486846,-2.14158296585083,-1.3329072904637833,-2.5247986952411097,6.107793080597677,1.0141257047653198,-3.1930349508868616
1708443251.0506651,-2.141619920730591,-1.3328374934247513,-2.5248330275165003,6.107899176865377,1.0141726732254028,-3.1930139700519007
1708443251.0526657,-2.1415743827819824,-1.3329103750041504,-2.5248332659350794,6.107854592591085,1.0141137838363647,-3.193009678517477
1708443251.0546646,-2.1415748596191406,-1.3328528863242646,-2.5248077551471155,6.1078258631523035,1.0141843557357788,-3.193009678517477
1708443251.0566685,-2.141566038131714,-1.3328167361072083,-2.5247867743121546,6.107859003334799,1.0141726732254028,-3.1929991880999964
1708443251.0586734,-2.141619920730591,-1.3328617078116913,-2.5248077551471155,6.1079081175620935,1.0142008066177368,-3.193007771168844
1708443251.0606499,-2.141587495803833,-1.3328079742244263,-2.5248451868640345,6.107830273896017,1.0141509771347046,-3.192962710057394
1708443251.0626855,-2.141591787338257,-1.3328660291484375,-2.5248451868640345,6.107924687653341,1.0141509771347046,-3.19295841852297
1708443251.0646536,-2.1415467262268066,-1.3328865331462403,-2.524750534688131,6.107854592591085,1.0141799449920654,-3.19293457666506
1708443251.066676,-2.1415467262268066,-1.332837463622429,-2.5248077551471155,6.107827412873068,1.0141392946243286,-3.1929195562945765
1708443251.0686836,-2.1416046619415283,-1.3328660291484375,-2.5247913042651575,6.107830393105306,1.0141257047653198,-3.1928868929492396
1708443251.0706854,-2.14158296585083,-1.3328300279429932,-2.5248330275165003,6.107863414078512,1.014175534248352,-3.192846123372213
1708443251.0726738,-2.141619920730591,-1.3328793358853837,-2.5248122851001185,6.107879507332601,1.0141890048980713,-3.192826811467306
1708443251.07466,-2.141616106033325,-1.3329072755626221,-2.5248003641711634,6.107854592591085,1.0141890048980713,-3.192798678074972
1708443251.076675,-2.1415834426879883,-1.33282125115905,-2.5248122851001185,6.107806551247396,1.0141799449920654,-3.192787472401754
1708443251.078656,-2.1415467262268066,-1.3328212064555665,-2.5248242060290735,6.107845532685079,1.0141962766647339,-3.19275933900942
1708443251.0806544,-2.1415748596191406,-1.3328330379775544,-2.5247793833362024,6.107827412873068,1.014175534248352,-3.1927159468280237
1708443251.0826604,-2.141591787338257,-1.3327960532954712,-2.5247493425952356,6.107888567238607,1.014163613319397,-3.192655150090353
1708443251.0846715,-2.141591787338257,-1.3328538698009034,-2.5247839132892054,6.107813823014059,1.014175534248352,-3.1926520506488245
1708443251.0866835,-2.141505479812622,-1.332837538128235,-2.5248242060290735,6.107863414078512,1.0142008066177368,-3.192625109349386
1708443251.0886962,-2.1415135860443115,-1.3329072755626221,-2.5247986952411097,6.107846724777975,1.014155626296997,-3.192563597355978
1708443251.0907106,-2.141542434692383,-1.3328793507865448,-2.5248525778399866,6.107879507332601,1.014155626296997,-3.1925724188434046
1708443251.0926638,-2.1415467262268066,-1.3328003746322175,-2.5248003641711634,6.107888567238607,1.0141600370407104,-3.1925247351275843
1708443251.0946739,-2.141526699066162,-1.332870529299118,-2.5248571077929896,6.107830273896017,1.0141465663909912,-3.1924427191363733
1708443251.096667,-2.1416075229644775,-1.3329028648189087,-2.524794403706686,6.107839333802023,1.0141257047653198,-3.19237190881838
1708443251.0986476,-2.1415224075317383,-1.3328660142472764,-2.5248480478869837,6.107924687653341,1.0141843557357788,-3.192286793385641
1708443251.1006508,-2.1415834426879883,-1.3328166765025635,-2.5248151461230677,6.1078377840812585,1.0141465663909912,-3.1922805945025843
1708443251.102651,-2.1415834426879883,-1.3328003001264115,-2.52482253709902,6.107842194824972,1.0141770839691162,-3.1922040621386927
1708443251.1046677,-2.1415624618530273,-1.3328626465848465,-2.5248032251941126,6.107879507332601,1.0141918659210205,-3.1921890417682093
1708443251.1066945,-2.141545057296753,-1.3328123849681397,-2.5248242060290735,6.1078258631523035,1.014137625694275,-3.1920562426196497
1708443251.1086495,-2.1415748596191406,-1.3328256171992798,-2.5248525778399866,6.107928979187765,1.014175534248352,-3.1919873396502894
1708443251.110679,-2.141533613204956,-1.3328256171992798,-2.5248003641711634,6.107867944031515,1.014212727546692,-3.1919241587268274
1708443251.1126437,-2.141587495803833,-1.332853839998581,-2.5247748533831995,6.107879507332601,1.0141890048980713,-3.191824261342184
1708443251.1146867,-2.141591787338257,-1.3328669977239151,-2.5248361269580286,6.107846724777975,1.014150857925415,-3.1917195955859583
1708443251.116668,-2.1415581703186035,-1.332862676387169,-2.5248106161700647,6.107877957611837,1.014208197593689,-3.1916075388537806
1708443251.118664,-2.141591787338257,-1.3328287166408082,-2.5248077551471155,6.107926118164816,1.0141874551773071,-3.1915739218341272
1708443251.1206703,-2.141542434692383,-1.3328749251416703,-2.5248406569110315,6.107843863755026,1.014241337776184,-3.191321913396017
1708443251.1226382,-2.141545057296753,-1.3328660291484375,-2.5248406569110315,6.107833254128256,1.0141664743423462,-3.191289488469259
1708443251.12469,-2.1415791511535645,-1.3328463298133393,-2.5248571077929896,6.107912647515096,1.0142624378204346,-3.1911373774157923
1708443251.1266935,-2.141545057296753,-1.3328582507422944,-2.5248525778399866,6.107908236771383,1.0142037868499756,-3.190986220036642
1708443251.1286638,-2.1416118144989014,-1.3328494143537064,-2.5248568693744105,6.107867944031515,1.0142323970794678,-3.1908538977252405
1708443251.1306791,-2.1415748596191406,-1.3328733009151001,-2.5248525778399866,6.107870566635885,1.0142024755477905,-3.190681759511129
1708443251.1326482,-2.1415467262268066,-1.3329072755626221,-2.52482253709902,6.1078377840812585,1.0142310857772827,-3.1905131975757044
1708443251.1346743,-2.1415834426879883,-1.3329042953303833,-2.524808947240011,6.107924687653341,1.0142474174499512,-3.190329615269796
1708443251.1366937,-2.1415624618530273,-1.3328626614860077,-2.524902407323019,6.107885706215658,1.014259696006775,-3.190195624028341
1708443251.138652,-2.1415834426879883,-1.3328450632146378,-2.524881426488058,6.107836591988363,1.0142309665679932,-3.190059010182516
1708443251.1406822,-2.141526699066162,-1.3328776967576523,-2.5249081293689173,6.107915508538046,1.0142309665679932,-3.189838949834005
1708443251.1426916,-2.141545057296753,-1.3328660291484375,-2.5248990694629114,6.107887017517843,1.0142850875854492,-3.1896830240832728
1708443251.14465,-2.141566753387451,-1.332907260661461,-2.5249157587634485,6.107877957611837,1.01427161693573,-3.1894994417773646
1708443251.146674,-2.1415293216705322,-1.3329103601029892,-2.524930779133932,6.107877957611837,1.0142669677734375,-3.189201895390646
1708443251.1486633,-2.1415834426879883,-1.3328749549439927,-2.524938170109884,6.107877957611837,1.0143167972564697,-3.18903094926943
1708443251.1506548,-2.141530990600586,-1.332853839998581,-2.524972740803854,6.107881176262655,1.0142834186553955,-3.188833777104513
1708443251.1527,-2.141505718231201,-1.3328330528787156,-2.52500564256777,6.107931959420004,1.014250636100769,-3.1886046568499964
1708443251.1546788,-2.141587495803833,-1.332870514397957,-2.524996582661764,6.1079304096992395,1.0143046379089355,-3.188319269810812
1708443251.156682,-2.1415624618530273,-1.3328852665475388,-2.5250073114978235,6.1079304096992395,1.0142955780029297,-3.1880632082568567
1708443251.1586442,-2.141566038131714,-1.3328820627978821,-2.5249784628497522,6.108003723412313,1.0143167972564697,-3.187899653111593
1708443251.1606896,-2.141542434692383,-1.3328776967576523,-2.5249996821032923,6.1079620001609705,1.0143437385559082,-3.187626902257101
1708443251.1626747,-2.141530990600586,-1.3328660291484375,-2.5250163714038294,6.108006703644552,1.0143572092056274,-3.187249247227804
1708443251.164658,-2.141570568084717,-1.33279603839431,-2.5250328222857874,6.107997762947836,1.0143810510635376,-3.1869853178607386
1708443251.166684,-2.1415352821350098,-1.3328983646682282,-2.5250402132617396,6.108015763550558,1.0144472122192383,-3.1866777578936976
1708443251.1686604,-2.1415493488311768,-1.3328135770610352,-2.5250640551196497,6.10802589634017,1.0144503116607666,-3.1863670984851282
1708443251.1706643,-2.141570568084717,-1.3328820329955597,-2.5251060167895716,6.108018624573507,1.0144202709197998,-3.1859541575061243
1708443251.172653,-2.141538143157959,-1.3328689199737092,-2.5250521341906946,6.108035075455465,1.0144202709197998,-3.1856518427478235
1708443251.174651,-2.1415061950683594,-1.332882047896721,-2.525059525166647,6.108072626381674,1.014448881149292,-3.1852713266955774
1708443251.1766696,-2.1415019035339355,-1.3329147112420578,-2.525059525166647,6.108014094620504,1.0144847631454468,-3.1849125067340296
1708443251.178648,-2.1415834426879883,-1.3328983348659058,-2.525088135396139,6.108014094620504,1.014517903327942,-3.184589687977926
1708443251.1806672,-2.141559600830078,-1.3328582358411332,-2.52509576479067,6.108016955643453,1.0144881010055542,-3.184197727833883
1708443251.1826518,-2.141530990600586,-1.3328983646682282,-2.52509576479067,6.108059155731954,1.0145362615585327,-3.183765236531393
1708443251.1846607,-2.141530990600586,-1.3328493547490616,-2.525104824696676,6.108005034714498,1.0144745111465454,-3.1833437124835413
1708443251.1866655,-2.141542434692383,-1.3328361970237275,-2.5250912348376673,6.108071076660909,1.0145734548568726,-3.1829403082477015
1708443251.18868,-2.1415438652038574,-1.3328529310277482,-2.5251031557666224,6.1080877659614465,1.0146005153656006,-3.1824291388141077
1708443251.1906488,-2.1415438652038574,-1.332840622668602,-2.5250912348376673,6.1080877659614465,1.014647364616394,-3.1818955580340784
1708443251.1926901,-2.141559600830078,-1.3329146963408967,-2.5251768271075647,6.1080078957374475,1.0146158933639526,-3.1814406553851526
1708443251.194689,-2.1414947509765625,-1.3328493547490616,-2.525151077901022,6.108071076660909,1.0146650075912476,-3.180995051060812
1708443251.1966605,-2.1414947509765625,-1.332848386173584,-2.5251601378070276,6.108083236008444,1.0146985054016113,-3.1805644671069544
1708443251.1986907,-2.1415228843688965,-1.3329059940627594,-2.5251436869250696,6.108074295311727,1.0146803855895996,-3.179972473775045
1708443251.2006614,-2.141514301300049,-1.3328970831683655,-2.525175158177511,6.1080500958259485,1.0147209167480469,-3.1794500986682337
1708443251.2026544,-2.1414833068847656,-1.332871989612915,-2.525158707295553,6.108017074852743,1.0147491693496704,-3.1788819471942347
1708443251.2046728,-2.1414947509765625,-1.3328896325877686,-2.525241200123922,6.1080500958259485,1.0147781372070312,-3.1783269087420862
1708443251.2066624,-2.14150333404541,-1.3329269897988816,-2.5252321402179163,6.108038174896993,1.0148062705993652,-3.17774469057192
1708443251.2086668,-2.1415443420410156,-1.3329345148852845,-2.5251944700824183,6.108014094620504,1.014833688735962,-3.1771937052356165
1708443251.2107027,-2.1414947509765625,-1.3329226088574906,-2.5252109209643763,6.1080922959144495,1.0148169994354248,-3.176587168370382
1708443251.2126637,-2.141535758972168,-1.3328807365945359,-2.5252442995654505,6.108071076660909,1.0149283409118652,-3.1759868303882044
1708443251.2146578,-2.14150333404541,-1.3329147112420578,-2.5252063910113733,6.108059155731954,1.0148969888687134,-3.1753116289721888
1708443251.2166908,-2.141496181488037,-1.3328820329955597,-2.5252726713763636,6.108036744385519,1.0149133205413818,-3.1747053305255335
1708443251.2186627,-2.1414670944213867,-1.332845078115799,-2.5252681414233606,6.108054625778951,1.0149701833724976,-3.1739564577685755
1708443251.2206614,-2.1414670944213867,-1.3328776818564911,-2.5253055731402796,6.108030545502462,1.0149656534194946,-3.1732659975634974
1708443251.2226698,-2.141423225402832,-1.3328688901713868,-2.5252636114703577,6.108038174896993,1.0149946212768555,-3.1725593248950403
1708443251.2246602,-2.14145565032959,-1.3329389554313202,-2.52531606355776,6.108009564667501,1.0150257349014282,-3.1718130747424524
1708443251.2266634,-2.1414124965667725,-1.3328617376140137,-2.525332752858297,6.108016955643453,1.01505446434021,-3.171126190816061
1708443251.2286856,-2.141350030899048,-1.332873286013939,-2.5253565947162073,6.108035075455465,1.0150620937347412,-3.170379702244894
1708443251.230659,-2.1414124965667725,-1.3328776967576523,-2.5253024736987513,6.107993232994833,1.0150742530822754,-3.1696041266070765
1708443251.232668,-2.1413917541503906,-1.3328896325877686,-2.5253685156451624,6.108021485596456,1.0150787830352783,-3.168861452733175
1708443251.2346828,-2.141404151916504,-1.3328688603690644,-2.525383536015646,6.107993232994833,1.0151221752166748,-3.168065373097555
1708443251.2366652,-2.1413803100585938,-1.3328660291484375,-2.5253458658801478,6.107997762947836,1.015134334564209,-3.1672943274127405
1708443251.2386744,-2.141360282897949,-1.3328896325877686,-2.525424067174093,6.10802315452651,1.0151461362838745,-3.166459385548727
1708443251.2406788,-2.1413733959198,-1.332880751495697,-2.52541953722109,6.1079410193260095,1.0151536464691162,-3.165642325078146
1708443251.2426896,-2.1413328647613525,-1.332886503343918,-2.525452438985006,6.1079455492790125,1.0151777267456055,-3.164755646382467
1708443251.2446709,-2.14132022857666,-1.3328896325877686,-2.525431458150045,6.1079620001609705,1.0152230262756348,-3.1638463179217737
1708443251.2466712,-2.1412806510925293,-1.3329389256289979,-2.5254467169391077,6.1079304096992395,1.0152302980422974,-3.162907663975851
1708443251.2486832,-2.141244649887085,-1.3328644198230286,-2.525470558797018,6.107923018723287,1.0152586698532104,-3.1620221773730677
1708443251.2506664,-2.141244649887085,-1.3328777116588135,-2.525503460560934,6.107931959420004,1.0152740478515625,-3.161048475896017
1708443251.2526822,-2.1411995887756348,-1.3328763407519837,-2.525545660649435,6.107859003334799,1.015321969985962,-3.1600967089282435
1708443251.2546782,-2.1411547660827637,-1.3329225939563294,-2.5255606810199183,6.10783480384902,1.0153553485870361,-3.159053627644674
1708443251.2566657,-2.1411519050598145,-1.3329059493592759,-2.5255919138537806,6.1078529236610315,1.0153745412826538,-3.158055130635397
1708443251.25871,-2.141122579574585,-1.3329300594380875,-2.5255590120898646,6.107763159066,1.0154016017913818,-3.1569750944720667
1708443251.26067,-2.141119956970215,-1.3328896325877686,-2.5256009737597864,6.107779490738668,1.0154346227645874,-3.1559765974627894
1708443251.2626648,-2.1410889625549316,-1.332914651637413,-2.5255919138537806,6.107706415444174,1.0154918432235718,-3.154954497014181
1708443251.2646914,-2.141084671020508,-1.332901583319046,-2.525649134312765,6.107716667443075,1.0154995918273926,-3.1539116541491907
1708443251.2666569,-2.14104962348938,-1.3328659546426316,-2.5256100336657923,6.107618319779196,1.015526533126831,-3.152763907109396
1708443251.2686825,-2.141017436981201,-1.3328896325877686,-2.5256639162646692,6.107586729317465,1.0155837535858154,-3.1517191568957728
1708443251.2707155,-2.1409482955932617,-1.3328983348659058,-2.5256972948657435,6.107588279038229,1.0156164169311523,-3.1505754629718226
1708443251.2727232,-2.140965461730957,-1.332935855989792,-2.5256956259356897,6.107491123467245,1.015634536743164,-3.1493387858020228
1708443251.2746658,-2.1408872604370117,-1.3328940284303208,-2.525686566029684,6.107455003052511,1.0156753063201904,-3.14817458788027
1708443251.276664,-2.1408557891845703,-1.3329028350165864,-2.5257554689990442,6.107401358872213,1.0156826972961426,-3.146987501774923
1708443251.2786582,-2.140847682952881,-1.332845078115799,-2.525747839604513,6.10733853557662,1.015739917755127,-3.1458216349231165
1708443251.2806776,-2.140798807144165,-1.3328573268703003,-2.525726858769552,6.107305753021993,1.0157877206802368,-3.1447296778308313
1708443251.282673,-2.1408205032348633,-1.3328330677798768,-2.5257719198810022,6.107241380005636,1.0157787799835205,-3.1435814539538782
1708443251.284689,-2.1407766342163086,-1.3328852814487,-2.5257673899279993,6.107070910721578,1.015815019607544,-3.142428461705343
1708443251.28665,-2.1407482624053955,-1.3328896176866074,-2.525827471409933,6.107023346215048,1.0158419609069824,-3.1412320772754114
1708443251.2886686,-2.1406922340393066,-1.3328406673720856,-2.525827471409933,6.107003557472982,1.015917181968689,-3.1399686972247522
1708443251.2906492,-2.1406402587890625,-1.3328896325877686,-2.525851551686422,6.106936681061544,1.015944480895996,-3.138714615498678
1708443251.2926593,-2.1406326293945312,-1.3328733009151001,-2.52586800256838,6.106806266098776,1.0159354209899902,-3.1374486128436487
1708443251.2946718,-2.140596866607666,-1.3328573268703003,-2.5259161631213587,6.10671232917861,1.0159952640533447,-3.1361478010760706
1708443251.296659,-2.140601634979248,-1.332898349767067,-2.5258901754962366,6.106685268669882,1.0159984827041626,-3.13481051126589
1708443251.2986534,-2.1405084133148193,-1.332870514397957,-2.525923554097311,6.1065688011939905,1.0160343647003174,-3.133484427128927
1708443251.3006701,-2.140472173690796,-1.3328940284303208,-2.525951925908224,6.106489765435018,1.0161381959915161,-3.1321664492236536
1708443251.3027306,-2.140455961227417,-1.332853839998581,-2.5259879271136683,6.106446134835043,1.0161728858947754,-3.130833689366476
1708443251.3046653,-2.140404224395752,-1.3328617078116913,-2.5259743372546595,6.106308567314901,1.0162129402160645,-3.1293941179858606
1708443251.306674,-2.1404144763946533,-1.3328749698451539,-2.5260284582721155,6.106299388199606,1.0162327289581299,-3.1279783884631556
1708443251.3086643,-2.140320301055908,-1.3328330379775544,-2.526026789342062,6.1061919806297205,1.0162479877471924,-3.126540009175436
1708443251.3106527,-2.140289306640625,-1.332819790845253,-2.526017729436056,6.106087314873495,1.0163171291351318,-3.125049654637472
1708443251.31266,-2.1401965618133545,-1.3328463745168229,-2.52610952058901,6.105955707817831,1.016319990158081,-3.123620335255758
1708443251.314675,-2.140177011489868,-1.3328450930169602,-2.5261407534228724,6.105829822808065,1.0163486003875732,-3.1221137682544153
1708443251.316684,-2.1401212215423584,-1.332818092112877,-2.5261316935168665,6.10569857338027,1.0163755416870117,-3.1205666700946253
1708443251.3186688,-2.1400609016418457,-1.332818092112877,-2.5261977354632776,6.105586755066671,1.016437292098999,-3.1190369764911097
1708443251.3206635,-2.1400866508483887,-1.3327687245658417,-2.526205364857809,6.105504262238302,1.0164657831192017,-3.1175065676318567
1708443251.3226764,-2.1399855613708496,-1.3327610355666657,-2.526187245045797,6.105384814530172,1.0165091753005981,-3.1160112063037317
1708443251.3247066,-2.1399831771850586,-1.332789571290352,-2.526208225880758,6.10529791095809,1.0165455341339111,-3.1144641081439417
1708443251.3266668,-2.139915704727173,-1.3327494126609345,-2.5262158552752894,6.105187523155966,1.0165737867355347,-3.112885300313131
1708443251.3286655,-2.1398255825042725,-1.3327582788518448,-2.5262609163867396,6.105047213822164,1.016641616821289,-3.1113408247577112
1708443251.3306937,-2.1397995948791504,-1.332722232942917,-2.526238266621725,6.104943978577413,1.0166490077972412,-3.1098230520831507
1708443251.332653,-2.1396827697753906,-1.3327177476933976,-2.526275936757223,6.104786860733785,1.016704797744751,-3.108281675969259
1708443251.3346484,-2.1396703720092773,-1.3326984208873291,-2.5263147989856165,6.104689585953512,1.0167123079299927,-3.1066835562335413
1708443251.3367171,-2.139586925506592,-1.3326312762549897,-2.5263193289386194,6.10453878620223,1.016769289970398,-3.1051469484912317
1708443251.3386643,-2.139554977416992,-1.332665429716446,-2.5263975302325647,6.10445665100173,1.016834020614624,-3.103605333958761
1708443251.340694,-2.1394238471984863,-1.3326123815825959,-2.526358429585592,6.104287493019857,1.0168653726577759,-3.101931397114889
1708443251.3426409,-2.139375686645508,-1.3326464605382462,-2.526367489491598,6.104193436890402,1.016913652420044,-3.100405518208639
1708443251.3446455,-2.1392953395843506,-1.3326743257096787,-2.5263987223254603,6.104057299881735,1.0169332027435303,-3.09873873392214
1708443251.3466551,-2.1392269134521484,-1.3326286685517807,-2.5264483133899134,6.103914129524984,1.0169858932495117,-3.096999470387594
1708443251.3486447,-2.1391682624816895,-1.332630069260933,-2.526437822972433,6.103765713959493,1.0170427560806274,-3.095389191304342
1708443251.3506634,-2.139124870300293,-1.3326266717961808,-2.526437822972433,6.103629934578695,1.0170623064041138,-3.0936346689807337
1708443251.3526492,-2.139028549194336,-1.3326477122357865,-2.5265398661242884,6.103523719101705,1.0171056985855103,-3.0919154326068323
1708443251.3547678,-2.1389400959014893,-1.3325939935496827,-2.526586119328634,6.10330222824172,1.0171750783920288,-3.0901857058154505
1708443251.3566883,-2.1389098167419434,-1.3326028299382706,-2.5265517870532435,6.103229272156515,1.0172144174575806,-3.08836275735964
1708443251.35865,-2.138777256011963,-1.3325787347606202,-2.5265682379352015,6.103036510735311,1.0172457695007324,-3.0865541140185755
1708443251.360661,-2.1387510299682617,-1.332566798930504,-2.52661639848818,6.102890002518453,1.0173075199127197,-3.0846901575671595
1708443251.362662,-2.1386289596557617,-1.332599477177002,-2.526661221181051,6.102671968727865,1.0173250436782837,-3.0828755537616175
1708443251.364657,-2.1385860443115234,-1.3325831604054947,-2.5266431013690394,6.102470981865682,1.0174078941345215,-3.0811386744128626
1708443251.3666584,-2.138461112976074,-1.3326172095588227,-2.5266838709460657,6.102449047356405,1.017483115196228,-3.079367462788717
1708443251.368659,-2.13838529586792,-1.332563654785492,-2.526728693638937,6.102226364403524,1.0175236463546753,-3.077627960835592
1708443251.370685,-2.1383464336395264,-1.3325399172357102,-2.526719633732931,6.102067696839132,1.01753568649292,-3.075784508381979
1708443251.3726845,-2.1382508277893066,-1.3324817282012482,-2.526727263127462,6.101822483330526,1.0175987482070923,-3.0740581194507044
1708443251.374653,-2.1381494998931885,-1.332457886343338,-2.5268171469317835,6.101667034416952,1.0176424980163574,-3.072171990071432
1708443251.3767004,-2.138105630874634,-1.3324178022197266,-2.5268340746508997,6.101487386017599,1.0176740884780884,-3.0702953974353235
1708443251.3786497,-2.1379902362823486,-1.332454876308777,-2.526802364979879,6.101288783341207,1.017723798751831,-3.0684121290790003
1708443251.3806634,-2.1379222869873047,-1.3324558597854157,-2.5268591086017054,6.10110222080306,1.0178123712539673,-3.066491429005758
1708443251.382673,-2.1378467082977295,-1.3324514490417023,-2.5269132296191614,6.100948083191671,1.01786470413208,-3.0646405855761927
1708443251.3846471,-2.137770891189575,-1.3324558448842545,-2.526886049901144,6.100723731308737,1.017883062362671,-3.0626660029040735
1708443251.38664,-2.137688159942627,-1.3323949438384552,-2.526973311101095,6.10056089141921,1.0179232358932495,-3.060739580784933
1708443251.3886454,-2.137608528137207,-1.332358942633011,-2.5269883314715784,6.100414383202352,1.0180256366729736,-3.058749024068014
1708443251.390638,-2.137495279312134,-1.3323456209949036,-2.5269747416125696,6.100248801499166,1.0179897546768188,-3.0567665735827845
1708443251.3926613,-2.1374335289001465,-1.3323634427836915,-2.5270512739764612,6.100002038269796,1.0180633068084717,-3.054786984120504
1708443251.3946843,-2.1373372077941895,-1.3323678535274048,-2.5270467440234583,6.099864589958944,1.0181070566177368,-3.052786175404684
1708443251.3966806,-2.1371915340423584,-1.332360253935196,-2.5271080175982874,6.099652159004965,1.0181654691696167,-3.050873581563131
1708443251.398671,-2.137096405029297,-1.3323069375804444,-2.52714711824526,6.099497782974996,1.018200159072876,-3.0488629976855677
1708443251.4006636,-2.136993885040283,-1.3322579574636002,-2.527130667363302,6.099206912308492,1.0182557106018066,-3.0469511190997522
1708443251.4026673,-2.1369385719299316,-1.3323007983020325,-2.52717096010317,6.099054085999288,1.0183322429656982,-3.044946018849508
1708443251.4046822,-2.1367855072021484,-1.3323052388480683,-2.5272117296801966,6.098886716156759,1.0184179544448853,-3.0430312792407435
1708443251.4066784,-2.136669158935547,-1.3322528165629883,-2.527231041585104,6.098609912186422,1.0184868574142456,-3.0411229769336146
1708443251.4086554,-2.136589288711548,-1.332241253261902,-2.52727181116213,6.098439681320944,1.0185095071792603,-3.039083782826559
1708443251.4106681,-2.1365551948547363,-1.332215667968132,-2.5273450056659144,6.098211514740743,1.0185846090316772,-3.0371907393084925
1708443251.4126568,-2.1364314556121826,-1.332163320188858,-2.527313295994894,6.098007547646322,1.0186253786087036,-3.0351911226855677
1708443251.4146812,-2.136287212371826,-1.332172231083252,-2.527405087147848,6.09780894496993,1.0186854600906372,-3.0331862608539026
1708443251.4166665,-2.136247158050537,-1.3321602952531357,-2.5273688475238245,6.097614514618673,1.0187920331954956,-3.031106774006979
1708443251.418685,-2.136160135269165,-1.3321202260306855,-2.5274561087237757,6.097411501198568,1.0188010931015015,-3.029076878224508
1708443251.4206634,-2.136035442352295,-1.3321007055095215,-2.527534071599142,6.097217070847311,1.018877625465393,-3.0269740263568323
1708443251.4226685,-2.135944366455078,-1.3320854765227814,-2.527478281651632,6.096985327988424,1.018987774848938,-3.024888340626852
1708443251.4246716,-2.1358437538146973,-1.3321216118386765,-2.5275355021106165,6.096729504853048,1.0190143585205078,-3.0228355566607874
1708443251.4266572,-2.135732889175415,-1.3320691150477906,-2.527583662663595,6.096508490830221,1.01907479763031,-3.0208032766925257
1708443251.4287193,-2.1356759071350098,-1.3320361089757462,-2.5275729338275355,6.096318471222677,1.0191304683685303,-3.0187416712390345
1708443251.4306471,-2.1355373859405518,-1.3320037883571167,-2.5276601950274866,6.096103536873617,1.01915442943573,-3.016759697590963
1708443251.4326758,-2.1354405879974365,-1.3319544357112427,-2.527684036885397,6.095895397454061,1.0192461013793945,-3.0146921316729944
1708443251.43467,-2.135300397872925,-1.3320626777461548,-2.5277276674853724,6.095693456917562,1.0193195343017578,-3.012655560170309
1708443251.4366846,-2.135249137878418,-1.3320062321475525,-2.5277560392962855,6.095445501595297,1.0193378925323486,-3.0106199423419397
1708443251.438702,-2.135105609893799,-1.3319899302772065,-2.527808491383688,6.095197665482321,1.0194400548934937,-3.0085747877704065
1708443251.4406924,-2.1350386142730713,-1.3318796914866944,-2.527823511754171,6.095019328385153,1.0195164680480957,-3.006461207066671
1708443251.4426644,-2.134929895401001,-1.331904799943306,-2.5278053919421595,6.094764101296224,1.0195181369781494,-3.004317108784811
1708443251.444677,-2.134838819503784,-1.3319167655757447,-2.5278759638415735,6.094516026764669,1.0196443796157837,-3.00230580965151
1708443251.4466987,-2.134728193283081,-1.3318854731372376,-2.527978245412008,6.094337689667501,1.0196504592895508,-3.000085417424337
1708443251.448685,-2.134614944458008,-1.3318480116179963,-2.5279420057879847,6.094094383507528,1.0197973251342773,-2.997997824345724
1708443251.4506924,-2.134507179260254,-1.3318854135325928,-2.5280123392688196,6.093846308975973,1.0198081731796265,-2.9957883993731897
1708443251.4526792,-2.1343765258789062,-1.331824169760086,-2.528031889592306,6.093632447510519,1.0198997259140015,-2.9936052004443567
1708443251.4546769,-2.1343092918395996,-1.3318255704692383,-2.5280543009387415,6.093391883164205,1.0199763774871826,-2.9913747946368616
1708443251.4566653,-2.13419771194458,-1.331788496380188,-2.5280993620501917,6.093210923462667,1.0200529098510742,-2.989168707524435
1708443251.45866,-2.1340250968933105,-1.3318017435124894,-2.528111521397726,6.092901336937704,1.020141363143921,-2.9871137777911585
1708443251.4606779,-2.1339495182037354,-1.33178103089843,-2.528168265019552,6.092620003014364,1.0201311111450195,-2.9849749247180384
1708443251.4626677,-2.1338493824005127,-1.3317613166621705,-2.5282300154315394,6.092479693680563,1.0202454328536987,-2.9828727881061
1708443251.4646902,-2.1337339878082275,-1.3317463856986542,-2.528226677571432,6.092243540077963,1.0202932357788086,-2.980837885533468
1708443251.4666674,-2.133589744567871,-1.3317163747600098,-2.5283003489123743,6.092020737915792,1.0203731060028076,-2.9788084665881556
1708443251.4686875,-2.1335225105285645,-1.3316970777562638,-2.5283363501178187,6.091789233475485,1.0203957557678223,-2.9766834417926233
1708443251.4706652,-2.133373975753784,-1.331701473598816,-2.528388802205221,6.091587292938986,1.020500659942627,-2.974579397832052
1708443251.4726822,-2.1332695484161377,-1.3316524785808106,-2.5284250418292444,6.091336357384481,1.0205775499343872,-2.972431484852926
1708443251.4746633,-2.133211851119995,-1.3316493791392823,-2.5284770170794886,6.091086613922872,1.0206494331359863,-2.970309082661764
1708443251.4766653,-2.133070707321167,-1.3316088777831574,-2.5284908453570765,6.090893733292379,1.02067232131958,-2.9681418577777308
1708443251.4786553,-2.132962942123413,-1.3316058677485962,-2.5285735766040247,6.090675580292501,1.0207536220550537,-2.9660237471209925
1708443251.4806635,-2.1328563690185547,-1.331668422823288,-2.528583828602926,6.090446817665853,1.0208300352096558,-2.963764731084005
1708443251.4826531,-2.1327853202819824,-1.3315776151469727,-2.5286648909198206,6.090249287873068,1.0208932161331177,-2.9615500609027308
1708443251.4846687,-2.1326072216033936,-1.3315952581218262,-2.528700653706686,6.090029704361715,1.0210280418395996,-2.9592610041247767
1708443251.4866729,-2.1325063705444336,-1.3315341037562867,-2.5287066141711634,6.08978151062087,1.021107792854309,-2.95714241663088
1708443251.4886653,-2.132387161254883,-1.3315759164145966,-2.5287607351886194,6.089533436089315,1.0211503505706787,-2.954914156590597
1708443251.4906633,-2.1322672367095947,-1.3315429252437134,-2.5288026968585413,6.089310753136434,1.0212466716766357,-2.9527395407306116
1708443251.492665,-2.132126569747925,-1.3315025132945557,-2.5288475195514124,6.089104282646932,1.021327257156372,-2.950630013142721
1708443251.4946785,-2.1320607662200928,-1.33152790487323,-2.528867308293478,6.088839995651998,1.0214611291885376,-2.948432270680563
1708443251.496661,-2.131932258605957,-1.3315191727927704,-2.5289483706103724,6.088636386185446,1.0214669704437256,-2.946311060582296
1708443251.4986668,-2.131850242614746,-1.331429587011673,-2.52903396288027,6.08836458900527,1.0215920209884644,-2.944225613270895
1708443251.5006583,-2.131716728210449,-1.331471474175789,-2.5290232340442103,6.088137376099386,1.021647572517395,-2.9420536200152796
1708443251.5026631,-2.1316113471984863,-1.331426591878273,-2.5290589968310755,6.0879355547721765,1.0217692852020264,-2.9398890177356165
1708443251.5046656,-2.1314685344696045,-1.331406907444336,-2.529093567525045,6.087675320893087,1.0218039751052856,-2.9376142660724085
1708443251.506661,-2.1314048767089844,-1.3314099174788971,-2.529173199330465,6.0874884007270715,1.0218549966812134,-2.9354432264911097
1708443251.5086575,-2.131270170211792,-1.331418828373291,-2.5291836897479456,6.087250935822286,1.0219677686691284,-2.9331634680377405
1708443251.5106735,-2.1311631202697754,-1.3313816648772736,-2.529257122670309,6.086953747063436,1.0220940113067627,-2.9308109919177454
1708443251.5126543,-2.131087064743042,-1.3313993972590943,-2.5292778650866907,6.08674584606246,1.0222153663635254,-2.9285624662982386
1708443251.5146563,-2.1309351921081543,-1.3313415807536622,-2.529360596333639,6.086572515755453,1.022236704826355,-2.926307980214254
1708443251.5166728,-2.1308557987213135,-1.331372545366623,-2.5294087568866175,6.086378085404196,1.022333025932312,-2.924112383519308
1708443251.5186832,-2.1307730674743652,-1.3313562136939545,-2.529435459767477,6.0861419318015955,1.0224502086639404,-2.9220402876483362
1708443251.5207503,-2.130622386932373,-1.3313769561103364,-2.5295329729663294,6.085926997452535,1.0224965810775757,-2.919898811970846
1708443251.5226674,-2.1305041313171387,-1.3313232225230713,-2.529531542454855,6.085699903755941,1.0225765705108643,-2.9177749792682093
1708443251.5246508,-2.130445718765259,-1.3313487035087128,-2.5295749346362513,6.085521328240194,1.022653341293335,-2.9156442324267786
1708443251.5266576,-2.130288600921631,-1.3313232225230713,-2.529630486165182,6.085264670639791,1.0227820873260498,-2.913457695637838
1708443251.5286474,-2.1302270889282227,-1.3312503856471558,-2.529658857976095,6.085001575737753,1.0228499174118042,-2.911245886479513
1708443251.5306544,-2.130093574523926,-1.3312459749034424,-2.5297353903399866,6.0848965523536584,1.0229339599609375,-2.909051005040304
1708443251.5326748,-2.12998104095459,-1.3313170236400147,-2.529788080845968,6.084627854615011,1.02303946018219,-2.9068802038775843
1708443251.5346625,-2.129884719848633,-1.3312142801335831,-2.5298314730273646,6.084412562638082,1.0231101512908936,-2.9047041575061243
1708443251.53668,-2.129793882369995,-1.3312263053706666,-2.529908005391256,6.084159838944235,1.0232077836990356,-2.9024136702166956
1708443251.538667,-2.1297078132629395,-1.3312023741057892,-2.5299349466906946,6.084025251656332,1.0233200788497925,-2.900113884602682
1708443251.54065,-2.1295862197875977,-1.3312232059291382,-2.530008618031637,6.083853471070089,1.023414969444275,-2.8978334108935755
1708443251.5426486,-2.1294333934783936,-1.3311905425838013,-2.5300846735583704,6.083567607193746,1.0235291719436646,-2.8954480330096644
1708443251.5446465,-2.1293365955352783,-1.331208274965622,-2.5300336519824427,6.083358633309164,1.0236207246780396,-2.8933520952807825
1708443251.5466616,-2.1292154788970947,-1.3311516803554078,-2.5301645437823694,6.083135711937704,1.0236873626708984,-2.8910988012896937
1708443251.5486612,-2.1291565895080566,-1.3311724227717896,-2.530174795781271,6.082965123444357,1.0238161087036133,-2.8888571898089808
1708443251.5506542,-2.1290292739868164,-1.3311560910991211,-2.5302394072162073,6.082778680115499,1.0239157676696777,-2.8866992632495325
1708443251.5526567,-2.128916025161743,-1.3311929267695923,-2.530320469533102,6.082652675896444,1.024020791053772,-2.8845048586474817
1708443251.5546694,-2.1288001537323,-1.3311276000789185,-2.5303428808795374,6.082379209786215,1.0240836143493652,-2.8823660055743616
1708443251.5566983,-2.1286981105804443,-1.3311483424953003,-2.5304163138019007,6.0821101544196985,1.0241724252700806,-2.880099121724264
1708443251.5586622,-2.128610610961914,-1.3311605912498017,-2.5304883162127894,6.081945645600118,1.0242853164672852,-2.8778279463397425
1708443251.5606747,-2.1284830570220947,-1.331099347477295,-2.530552689229147,6.081691610604086,1.0243483781814575,-2.8756113688098353
1708443251.5626688,-2.1283986568450928,-1.3310751777938385,-2.53056770959963,6.081534731179037,1.0245150327682495,-2.8732309977160853
1708443251.564663,-2.128270149230957,-1.3311048311046143,-2.530647102986471,6.081310379296102,1.0246233940124512,-2.8709562460528772
1708443251.5666597,-2.128145694732666,-1.331100420360901,-2.5307043234454554,6.081105816155233,1.0247223377227783,-2.868584934865133
1708443251.5686717,-2.1281239986419678,-1.3310473424247284,-2.530713144932882,6.080965029984274,1.0248591899871826,-2.866378370915548
1708443251.5706866,-2.1279866695404053,-1.3310693961432953,-2.5307896772967737,6.08070336559371,1.0248684883117676,-2.864082638417379
1708443251.5726967,-2.1279356479644775,-1.3310604852489014,-2.530821148549215,6.080556976586141,1.0250682830810547,-2.8617666403399866
1708443251.5747159,-2.1277949810028076,-1.3309990030578156,-2.5309322516070765,6.080365288048544,1.025167465209961,-2.8594687620746058
1708443251.5766628,-2.127695083618164,-1.3310408157161255,-2.530996863042013,6.080177294998922,1.025226354598999,-2.857239548360006
1708443251.5786574,-2.1275839805603027,-1.3310497266105195,-2.531017605458395,6.079975354462423,1.0253552198410034,-2.854966465626852
1708443251.5806937,-2.127493143081665,-1.331012324695923,-2.531091038380758,6.079791533737936,1.0254848003387451,-2.852744166051046
1708443251.5826771,-2.127385377883911,-1.331012324695923,-2.531174961720602,6.079628813057699,1.025595784187317,-2.850412909184591
1708443251.5846596,-2.1272482872009277,-1.3310200732997437,-2.5312395731555384,6.079411971360006,1.0256922245025635,-2.8482123056994837
1708443251.5866556,-2.1271982192993164,-1.330988497739174,-2.531269613896505,6.079278933792867,1.025791049003601,-2.8459883371936243
1708443251.5886672,-2.12705659866333,-1.3309677851251145,-2.5313172976123255,6.0791430352027795,1.0259205102920532,-2.8436763922320765
1708443251.5907063,-2.126986503601074,-1.330959902410843,-2.531410519276754,6.078935014992513,1.0260285139083862,-2.8413599173175257
1708443251.5926695,-2.126889944076538,-1.3309438985637208,-2.53147799173464,6.078793394356527,1.0261608362197876,-2.839046303425924
1708443251.5946944,-2.126753568649292,-1.3309677851251145,-2.531576697026388,6.078522789269247,1.026278018951416,-2.83659273782839
1708443251.5966601,-2.1266696453094482,-1.330959902410843,-2.531606976185934,6.078377473145284,1.0263862609863281,-2.834268395100729
1708443251.5986488,-2.126568078994751,-1.3309928935817261,-2.5316551367389124,6.078222143441,1.026476263999939,-2.831918780003683
1708443251.6006577,-2.1264426708221436,-1.3309811067632218,-2.531748119984762,6.078009950905599,1.0266011953353882,-2.82961613336672
1708443251.6026695,-2.12636137008667,-1.3309483987144013,-2.5317912737475794,6.077843892365255,1.0267348289489746,-2.827292029057638
1708443251.604683,-2.126284122467041,-1.3308990758708497,-2.531884495412008,6.077594268112936,1.0268504619598389,-2.8250871340381067
1708443251.6066527,-2.1261844635009766,-1.3309121888927002,-2.5319400469409388,6.077440249710836,1.0269379615783691,-2.8228066603290003
1708443251.6086707,-2.126044511795044,-1.3309333485415955,-2.5320163408862513,6.077244508057394,1.0271002054214478,-2.820557181035177
1708443251.6106663,-2.1259641647338867,-1.3308958125165482,-2.532116715108053,6.077081548958578,1.0272111892700195,-2.818183724080221
1708443251.6126804,-2.125828981399536,-1.3309078079513093,-2.532142225896017,6.0769094107444666,1.027306318283081,-2.815876070653097
1708443251.6146579,-2.125757932662964,-1.33087211967025,-2.5321977774249476,6.076725709229269,1.0274715423583984,-2.8134709040271204
1708443251.6166608,-2.1256396770477295,-1.3308587980321427,-2.5322817007647913,6.076591121941366,1.0276128053665161,-2.811120573674337
1708443251.6186588,-2.1255664825439453,-1.3309092384627839,-2.5323267618762415,6.076428639679708,1.0277372598648071,-2.808729950581686
1708443251.620654,-2.1254453659057617,-1.3308721345714112,-2.5324364344226282,6.0762131092842,1.0278277397155762,-2.8062663714038294
1708443251.62268,-2.125351905822754,-1.33085551977668,-2.532508436833517,6.076127755432882,1.0279854536056519,-2.8039212862597864
1708443251.6246572,-2.12524151802063,-1.330880956058838,-2.5325186888324183,6.075943815499105,1.0281010866165161,-2.8015955130206507
1708443251.6266632,-2.1251752376556396,-1.3308642965606232,-2.532628361378805,6.0757542727287195,1.02824068069458,-2.7992830912219446
1708443251.6286855,-2.125113010406494,-1.3308611524156113,-2.5327256361590784,6.075604545861044,1.028377652168274,-2.7970357576953333
1708443251.6306872,-2.125065326690674,-1.3308854562095185,-2.532710854207174,6.075473296433248,1.028485894203186,-2.794737164174215
1708443251.632679,-2.124877452850342,-1.330807925467827,-2.532790247594015,6.075293767243185,1.0286345481872559,-2.7924941221820276
1708443251.6346736,-2.124796152114868,-1.3308524948409577,-2.5328713099109095,6.075120436936178,1.0287619829177856,-2.7901609579669397
1708443251.63666,-2.1247615814208984,-1.3308285486749192,-2.532947603856222,6.0749724982078455,1.0288691520690918,-2.787905518208639
1708443251.6386504,-2.1245949268341064,-1.3308121871999283,-2.533022705708639,6.07484124878005,1.0290744304656982,-2.785628143941061
1708443251.640655,-2.1245040893554688,-1.3308122021010895,-2.5331037680255335,6.074714171677389,1.0291374921798706,-2.783342425023214
1708443251.6426635,-2.124419927597046,-1.3308408719352265,-2.533146921788351,6.07454668262557,1.0292941331863403,-2.7811008135425013
1708443251.6446486,-2.1243371963500977,-1.3308656972697754,-2.533226553593771,6.074419486313619,1.0294392108917236,-2.778740469609396
1708443251.6466491,-2.1242575645446777,-1.3308479946902771,-2.5333271662341517,6.0742848990257166,1.029486060142517,-2.7764208952533167
1708443251.648693,-2.1241822242736816,-1.3308408719352265,-2.533387009297506,6.0741532919700525,1.0296550989151,-2.7739694754229944
1708443251.65069,-2.1240994930267334,-1.3308418554118653,-2.5334065596209925,6.07398139217452,1.0297991037368774,-2.771651808415548
1708443251.6526601,-2.1239986419677734,-1.3308365058949967,-2.5334904829608362,6.073830473213949,1.029927372932434,-2.7693198362933558
1708443251.6546671,-2.1238818168640137,-1.3308656972697754,-2.5336313883410853,6.073657142906942,1.030084252357483,-2.767038647328512
1708443251.6566837,-2.123847484588623,-1.3308657121709366,-2.5336554686175745,6.073515164643087,1.0301471948623657,-2.7648451964007776
1708443251.658676,-2.1237099170684814,-1.330804781322815,-2.5337920824633997,6.073386418610372,1.0302913188934326,-2.7625702063189905
1708443251.660647,-2.1236190795898438,-1.3308451932719727,-2.5338521639453333,6.073244321137228,1.0304691791534424,-2.7603169123279017
1708443251.6626654,-2.1235101222991943,-1.3308343899301072,-2.5338624159442347,6.073127615242758,1.030580759048462,-2.7580698172198694
1708443251.6646674,-2.1234347820281982,-1.3307895225337525,-2.5339673201190394,6.072968113213339,1.0307010412216187,-2.755831543599264
1708443251.6666625,-2.1233437061309814,-1.3308299344829102,-2.534046475087301,6.072836506157675,1.0308327674865723,-2.753540817891256
1708443251.6686506,-2.1232681274414062,-1.3308462661555787,-2.5340903441058558,6.07271825054244,1.030981183052063,-2.7512169520007532
1708443251.670661,-2.1232011318206787,-1.3308211427978058,-2.5341532866107386,6.072594153672018,1.031150460243225,-2.748823944722311
1708443251.6726885,-2.1230714321136475,-1.3308211129954834,-2.534213368092672,6.072507369309225,1.0312175750732422,-2.746488157902853
1708443251.67468,-2.1230077743530273,-1.3307762008956452,-2.53432280222048,6.0723891136939905,1.031374454498291,-2.744164530430929
1708443251.6766634,-2.1229448318481445,-1.33079286039386,-2.5343857447253626,6.072163927346029,1.0315144062042236,-2.7417665163623255
1708443251.678671,-2.1228160858154297,-1.3308003705791016,-2.5345192591296595,6.072118747025289,1.0315943956375122,-2.7394729296313685
1708443251.6806877,-2.1227569580078125,-1.33085851491008,-2.534516159688131,6.071953046112814,1.0317713022232056,-2.7371345202075403
1708443251.6826758,-2.1226744651794434,-1.3308418554118653,-2.5346556345569056,6.071840989380636,1.0319315195083618,-2.7348099390613
1708443251.6846828,-2.1225974559783936,-1.3308299344829102,-2.5347185770617884,6.071709382324972,1.0320401191711426,-2.7325130144702356
1708443251.6866605,-2.1225249767303467,-1.33085851491008,-2.534811798726217,6.071589696198263,1.0322047472000122,-2.7303102652179163
1708443251.688696,-2.1224632263183594,-1.33079286039386,-2.5348296801196497,6.071434604912557,1.0323121547698975,-2.728025023137228
1708443251.6906624,-2.122325897216797,-1.33081670225177,-2.5349226633654993,6.071274506836691,1.0324280261993408,-2.725795094166891
1708443251.6926956,-2.122248888015747,-1.3308330339244385,-2.5350351969348353,6.071153867035665,1.032551884651184,-2.7235263029681605
1708443251.6946833,-2.1222028732299805,-1.33079286039386,-2.5350621382342737,6.071071374207296,1.0327125787734985,-2.7212815920459192
1708443251.6966677,-2.1221346855163574,-1.3308285039714356,-2.5351596514331263,6.070996629982748,1.0328500270843506,-2.7190735975848597
1708443251.6986892,-2.122082471847534,-1.3307674688151856,-2.535255495701925,6.070857512741842,1.0329945087432861,-2.71680194536318
1708443251.7006633,-2.1219871044158936,-1.330804781322815,-2.5352614561664026,6.07073329666213,1.0331549644470215,-2.714552704487936
1708443251.702678,-2.1219482421875,-1.33079286039386,-2.5354157129870813,6.070621359139242,1.0332536697387695,-2.7122533957110804
1708443251.7046652,-2.1218924522399902,-1.3308374297669907,-2.535476032887594,6.07055555561141,1.0333904027938843,-2.709956232701437
1708443251.7066615,-2.1217830181121826,-1.330841825609543,-2.535522524510519,6.070394146233358,1.0335806608200073,-2.7077041308032435
1708443251.7086778,-2.121720314025879,-1.3308409017375489,-2.5355616251574915,6.070209014206686,1.0336840152740479,-2.705359999333517
1708443251.7106752,-2.1216318607330322,-1.3308584702065964,-2.535642449055807,6.070145952492513,1.033839225769043,-2.703156057988302
1708443251.7126567,-2.1215226650238037,-1.3308255237391968,-2.535724941884176,6.070063698082723,1.0339922904968262,-2.700874630604879
1708443251.7146478,-2.121476650238037,-1.3307915490916749,-2.5358315149890345,6.070013987808981,1.034121036529541,-2.6987271944629114
1708443251.7166595,-2.121363878250122,-1.3308451932719727,-2.5359063784228724,6.069857108383932,1.034286379814148,-2.6964245478259485
1708443251.7186427,-2.1213088035583496,-1.3308687967113038,-2.535954538975851,6.069728958397665,1.034376859664917,-2.6942902247058313
1708443251.7206597,-2.1212117671966553,-1.3308497381261368,-2.5360339323626917,6.069677579193868,1.03452467918396,-2.6919878164874476
1708443251.722664,-2.1211323738098145,-1.3308611673167725,-2.536098305379049,6.06956564167098,1.0346810817718506,-2.6897593180285853
1708443251.7246437,-2.1210927963256836,-1.3308568906835099,-2.536170307789938,6.069445955544271,1.034811019897461,-2.6874197165118616
1708443251.7266695,-2.120945453643799,-1.3308320057443161,-2.5362468401538294,6.069317924767294,1.0348924398422241,-2.6851781050311487
1708443251.7286553,-2.12085223197937,-1.3308731776526947,-2.5363503138171595,6.069230901985922,1.0350451469421387,-2.6828017870532435
1708443251.7306623,-2.1207797527313232,-1.3308408719352265,-2.536435667668478,6.069118726044454,1.0351614952087402,-2.6805289427386683
1708443251.7326577,-2.1206889152526855,-1.330901787882187,-2.536477867756979,6.069052684098043,1.035330891609192,-2.6782217661487024
1708443251.7346506,-2.120600461959839,-1.3308643114617844,-2.5365663210498255,6.068936335831442,1.035531997680664,-2.675931517277853
1708443251.7366734,-2.120509624481201,-1.330906168823578,-2.5366502443896692,6.068852650910177,1.0356436967849731,-2.6735969225512903
1708443251.738663,-2.1204097270965576,-1.3309389066747208,-2.536717478428976,6.0686871884162805,1.0358240604400635,-2.6713908354388636
1708443251.740664,-2.1203181743621826,-1.3308480095914383,-2.5368316809283655,6.068576204567709,1.0359418392181396,-2.669097963963644
1708443251.742689,-2.1202805042266846,-1.3309104901603241,-2.5368481318103235,6.068485009461202,1.0360395908355713,-2.666987959538595
1708443251.7446845,-2.120126724243164,-1.330868811612465,-2.536982838307516,6.068377601891317,1.036222219467163,-2.664711062108175
1708443251.7466848,-2.1200015544891357,-1.3309211146882554,-2.537062470112936,6.068266618042745,1.036337971687317,-2.66249663034548
1708443251.7486649,-2.1199357509613037,-1.33092554033313,-2.53713304201235,6.06815921047286,1.0364494323730469,-2.6602800528155726
1708443251.750658,-2.1198267936706543,-1.3309421700290223,-2.5372138659106653,6.068063246994772,1.0365644693374634,-2.658100668584005
1708443251.7526658,-2.1197190284729004,-1.3309167188457032,-2.537286106740133,6.067927467613973,1.0367248058319092,-2.6559022108661097
1708443251.754668,-2.1196200847625732,-1.3309643876603623,-2.537344519292013,6.067765939026632,1.036820650100708,-2.6536973158465784
1708443251.756691,-2.119544267654419,-1.33094076931987,-2.5374539534198206,6.067679154663839,1.0369529724121094,-2.651404682789938
1708443251.7586915,-2.119399070739746,-1.3309929084828873,-2.5375095049487513,6.067577707558431,1.0371556282043457,-2.649130884801046
