Eg3-git/Classifiers/Data Collection/u8/u8star4_ur3e_joint_states.csv
time,elbow_joint,shoulder_lift_joint,shoulder_pan_joint,wrist_1_joint,wrist_2_joint,wrist_3_joint
1708443074.0556073,-2.142037868499756,-1.333592267041542,-2.5263386408435267,6.110885727196493,1.0166010856628418,-2.3234759012805384
1708443074.057567,-2.1420342922210693,-1.333575652246811,-2.5262909571277063,6.110832321434774,1.016566276550293,-2.3234489599811
1708443074.0595891,-2.1420300006866455,-1.3335430485061188,-2.5263074080096644,6.110903131752767,1.016608476638794,-2.323465172444479
1708443074.0616004,-2.1419970989227295,-1.3335474294475098,-2.5263074080096644,6.110869157105245,1.0166161060333252,-2.323444430028097
1708443074.0636103,-2.1419804096221924,-1.333550513987877,-2.526262346898214,6.110849725991049,1.0166128873825073,-2.323456350957052
1708443074.065602,-2.1420342922210693,-1.3335220527699967,-2.5263074080096644,6.1108367321784876,1.0165830850601196,-2.323418680821554
1708443074.0675771,-2.14200496673584,-1.333596647982933,-2.5262954870807093,6.11085723617629,1.016603946685791,-2.323447291051046
1708443074.069559,-2.1420300006866455,-1.333596647982933,-2.5262776056872767,6.1108529446418665,1.0166460275650024,-2.3234804312335413
1708443074.0716076,-2.1419758796691895,-1.333596647982933,-2.52631646791567,6.11089442947463,1.0166128873825073,-2.323444430028097
1708443074.0736153,-2.1419970989227295,-1.3335264337113877,-2.5262818972217005,6.110799538880148,1.016570806503296,-2.323411289845602
1708443074.075648,-2.1420514583587646,-1.333559350376465,-2.5263283888446253,6.110808241158285,1.016603946685791,-2.323447291051046
1708443074.0775714,-2.1420469284057617,-1.333529846077301,-2.5263357798205774,6.110841023712911,1.0166175365447998,-2.323406759892599
1708443074.0796096,-2.1420185565948486,-1.333621771340706,-2.5263147989856165,6.11089442947463,1.0165921449661255,-2.3234263102160853
1708443074.0816157,-2.1419928073883057,-1.333566815858223,-2.5263074080096644,6.110832321434774,1.0165830850601196,-2.3234098593341272
1708443074.0836108,-2.1420016288757324,-1.33357127130542,-2.5263403097735804,6.110844242363729,1.016603946685791,-2.323439900075094
1708443074.0856066,-2.1419928073883057,-1.333624855881073,-2.5263028780566614,6.110787617951193,1.0166128873825073,-2.323468271886007
1708443074.0876,-2.1420185565948486,-1.3335342121175309,-2.5263825098620813,6.11085723617629,1.0165965557098389,-2.3234804312335413
1708443074.089647,-2.1420140266418457,-1.333546133046486,-2.5263119379626673,6.110848653107443,1.016608476638794,-2.32347280183901
1708443074.0916216,-2.1419928073883057,-1.333575652246811,-2.5262983481036585,6.1108529446418665,1.016625165939331,-2.323447291051046
1708443074.093596,-2.1420254707336426,-1.3335474294475098,-2.5263074080096644,6.110832440644064,1.0166550874710083,-2.323456350957052
1708443074.0956354,-2.1420342922210693,-1.333559350376465,-2.5263028780566614,6.11089442947463,1.016625165939331,-2.323423210774557
1708443074.097603,-2.1420094966888428,-1.3335341972163697,-2.5263119379626673,6.1108248112495325,1.016629695892334,-2.323439900075094
1708443074.099638,-2.142042398452759,-1.3335790497115632,-2.5263357798205774,6.110848653107443,1.0166206359863281,-2.323418680821554
1708443074.1016169,-2.1420140266418457,-1.3335145127824326,-2.5263493696795862,6.110783326416769,1.0165785551071167,-2.323418680821554
1708443074.1035829,-2.1420514583587646,-1.3335189682296296,-2.5263329187976282,6.11085723617629,1.0166460275650024,-2.323489491139547
1708443074.1056309,-2.14200496673584,-1.3335342121175309,-2.5263283888446253,6.110873567848959,1.0166265964508057,-2.323456350957052
1708443074.1075792,-2.1420185565948486,-1.33357127130542,-2.5263119379626673,6.110829102783956,1.0166162252426147,-2.323444430028097
1708443074.1095915,-2.1419970989227295,-1.3335101318410416,-2.5263448397265833,6.1107919094856165,1.0166624784469604,-2.3234849611865442
1708443074.111629,-2.1420469284057617,-1.3335834306529541,-2.5263028780566614,6.110827910691061,1.016625165939331,-2.323430840169088
1708443074.1135795,-2.1420300006866455,-1.3335430485061188,-2.5262938181506556,6.110882270127096,1.016641616821289,-2.323460880910055
1708443074.115613,-2.1420140266418457,-1.333538682465889,-2.5263238588916224,6.110829102783956,1.0166369676589966,-2.323453489934103
1708443074.11758,-2.1420185565948486,-1.3335057658008118,-2.5263448397265833,6.110860454827108,1.0165965557098389,-2.323415819798605
1708443074.1195853,-2.1420342922210693,-1.3336085689118882,-2.5262954870807093,6.110845315247335,1.0166206359863281,-2.3234427610980433
1708443074.1216033,-2.1420388221740723,-1.3335800182870408,-2.5263522307025355,6.110877859383383,1.016608476638794,-2.323439900075094
1708443074.1235797,-2.1420094966888428,-1.33357127130542,-2.5262773672686976,6.110816943436422,1.016566276550293,-2.323498312626974
1708443074.1256208,-2.1420273780822754,-1.3335681867650528,-2.5263074080096644,6.110812532692709,1.016629695892334,-2.32347280183901
1708443074.1275907,-2.1420140266418457,-1.3335175973227997,-2.5263522307025355,6.11083351352767,1.016641616821289,-2.323447291051046
1708443074.1295922,-2.1419928073883057,-1.333538682465889,-2.52631646791567,6.110808241158285,1.0166206359863281,-2.323376719151632
1708443074.1316104,-2.14200496673584,-1.3335189682296296,-2.5263431707965296,6.1108248112495325,1.0166130065917969,-2.323444430028097
1708443074.1335945,-2.14200496673584,-1.3335834306529541,-2.5262954870807093,6.110866057663717,1.0166369676589966,-2.323402229939596
1708443074.135603,-2.142037868499756,-1.3335800182870408,-2.5262909571277063,6.110877859383383,1.0166325569152832,-2.323444430028097
1708443074.1375742,-2.1419713497161865,-1.3335834306529541,-2.5262742678271692,6.11083351352767,1.016625165939331,-2.323456350957052
1708443074.1396263,-2.142042398452759,-1.3335264337113877,-2.5263283888446253,6.1108248112495325,1.016603946685791,-2.323418680821554
1708443074.1416328,-2.14200496673584,-1.33357127130542,-2.526278797780172,6.110825645714559,1.0166460275650024,-2.323460880910055
1708443074.1435778,-2.1420164108276367,-1.3335667860559006,-2.5263057390796106,6.110841023712911,1.0166116952896118,-2.3234742323504847
1708443074.145602,-2.1420185565948486,-1.3336085689118882,-2.5263329187976282,6.11085723617629,1.016603946685791,-2.3234263102160853
1708443074.1476076,-2.1420300006866455,-1.3335342121175309,-2.5263147989856165,6.110788810044088,1.0166370868682861,-2.323432270680563
1708443074.149582,-2.1420300006866455,-1.333584488635399,-2.5262983481036585,6.110841023712911,1.0166370868682861,-2.3234489599811
1708443074.1516032,-2.1419804096221924,-1.333559350376465,-2.5262864271747034,6.110808241158285,1.0166369676589966,-2.323493782673971
1708443074.1535769,-2.1420841217041016,-1.3335997325233002,-2.5263119379626673,6.1108248112495325,1.0165950059890747,-2.323468271886007
1708443074.155606,-2.1420185565948486,-1.333629236822464,-2.5263028780566614,6.110808241158285,1.016625165939331,-2.3234489599811
1708443074.157559,-2.1419837474823,-1.33357127130542,-2.5263448397265833,6.110805022507467,1.0166162252426147,-2.323456350957052
1708443074.1595821,-2.1420016288757324,-1.333538682465889,-2.5263329187976282,6.110776889115133,1.0166162252426147,-2.3234489599811
1708443074.1616101,-2.1420185565948486,-1.333529846077301,-2.5262983481036585,6.110788810044088,1.0166206359863281,-2.323423210774557
1708443074.1635723,-2.1419599056243896,-1.3335474294475098,-2.5262954870807093,6.110726940422811,1.0166369676589966,-2.323444430028097
1708443074.165609,-2.1420342922210693,-1.3335057658008118,-2.5263312498675745,6.110728847771444,1.0165965557098389,-2.323444430028097
1708443074.167565,-2.142031669616699,-1.3335145127824326,-2.5263477007495325,6.110754239350118,1.0166162252426147,-2.323411289845602
1708443074.1695595,-2.1419928073883057,-1.3335834306529541,-2.5263238588916224,6.110709416657247,1.0166206359863281,-2.323418680821554
1708443074.1715975,-2.1420209407806396,-1.3335308146527787,-2.5263147989856165,6.110680925637045,1.0166206359863281,-2.3234849611865442
1708443074.1735888,-2.1420185565948486,-1.3335800182870408,-2.5263448397265833,6.110713708191671,1.0166488885879517,-2.323460880910055
1708443074.175602,-2.1420300006866455,-1.3335606467774888,-2.526341740285055,6.1107181189353845,1.0165950059890747,-2.323439900075094
1708443074.1775985,-2.142059326171875,-1.3335800182870408,-2.5263193289386194,6.110648500710287,1.016599416732788,-2.323423210774557
1708443074.1796103,-2.1420228481292725,-1.333508850341179,-2.5263147989856165,6.110701906472006,1.0166234970092773,-2.323439900075094
1708443074.1816366,-2.1420094966888428,-1.333596647982933,-2.5263238588916224,6.110697495728292,1.0166116952896118,-2.323460880910055
1708443074.1836424,-2.1420094966888428,-1.3335101318410416,-2.5262818972217005,6.110697495728292,1.0166488885879517,-2.323406759892599
1708443074.1855943,-2.1420557498931885,-1.3335101318410416,-2.5263119379626673,6.110673415451803,1.0166071653366089,-2.323465172444479
1708443074.1875708,-2.1419553756713867,-1.333575652246811,-2.5262697378741663,6.110696303635397,1.0166281461715698,-2.32342774072756
1708443074.1896038,-2.1420140266418457,-1.3335264337113877,-2.5262983481036585,6.110754954605856,1.0166206359863281,-2.323439900075094
1708443074.1916234,-2.1420514583587646,-1.333538682465889,-2.5263238588916224,6.110713708191671,1.0166234970092773,-2.323439900075094
1708443074.193574,-2.1420094966888428,-1.3335562360337754,-2.5262864271747034,6.110669123917379,1.0166534185409546,-2.323402229939596
1708443074.1955965,-2.142059326171875,-1.3335800182870408,-2.5262954870807093,6.11072992065505,1.0166490077972412,-2.3234489599811
1708443074.197569,-2.142037868499756,-1.3336085242084046,-2.5263312498675745,6.110669123917379,1.0166656970977783,-2.323439900075094
1708443074.1995811,-2.1419880390167236,-1.3335474294475098,-2.5263267199145716,6.110669123917379,1.0166611671447754,-2.323463741933004
1708443074.201593,-2.1420469284057617,-1.3335132163814087,-2.5263312498675745,6.110710489540853,1.0166325569152832,-2.323411289845602
1708443074.2035806,-2.142059326171875,-1.3336010587266465,-2.5263193289386194,6.110673415451803,1.0166325569152832,-2.323460880910055
1708443074.2055857,-2.142037868499756,-1.333596647982933,-2.5263074080096644,6.1107181189353845,1.016641616821289,-2.323432270680563
1708443074.2075796,-2.1420016288757324,-1.3335386973670502,-2.5262983481036585,6.110676514893331,1.0166566371917725,-2.323456350957052
1708443074.2096007,-2.141984701156616,-1.3335386973670502,-2.5263283888446253,6.110685336380758,1.016619086265564,-2.323451821004049
1708443074.2116177,-2.1420094966888428,-1.333554984336235,-2.5263357798205774,6.110697495728292,1.016608476638794,-2.323423210774557
1708443074.2135913,-2.1420388221740723,-1.3335145276835938,-2.5263357798205774,6.1107008335884,1.0166325569152832,-2.323418680821554
1708443074.2155874,-2.1420094966888428,-1.333587886100151,-2.5263477007495325,6.1107051251228235,1.0166116952896118,-2.323448721562521
1708443074.217581,-2.1420185565948486,-1.3335624647191544,-2.5262983481036585,6.110734450608053,1.0166444778442383,-2.3234368006335657
1708443074.2196472,-2.1420185565948486,-1.333514542584755,-2.5263329187976282,6.110693204193868,1.0166776180267334,-2.323439900075094
1708443074.2216275,-2.1420209407806396,-1.3335474294475098,-2.5262983481036585,6.110709416657247,1.0166566371917725,-2.323423210774557
1708443074.2235866,-2.1420140266418457,-1.333538682465889,-2.5262983481036585,6.110697495728292,1.0166774988174438,-2.323415819798605
1708443074.2256324,-2.142075300216675,-1.3335844737342377,-2.5263312498675745,6.110652911454,1.0166234970092773,-2.32342774072756
1708443074.2275805,-2.1420094966888428,-1.3335637313178559,-2.5263074080096644,6.110702621727743,1.0166399478912354,-2.32342774072756
1708443074.2296307,-2.1420094966888428,-1.3335966032794495,-2.5263102690326136,6.110738742142477,1.0166325569152832,-2.323418680821554
1708443074.2316196,-2.1420469284057617,-1.3335549247315903,-2.5263267199145716,6.110684501915731,1.0166656970977783,-2.323447291051046
1708443074.2335846,-2.1419928073883057,-1.3335681867650528,-2.5263357798205774,6.110669123917379,1.0166534185409546,-2.323415819798605
1708443074.2356317,-2.1420185565948486,-1.333559350376465,-2.5263193289386194,6.110657202988424,1.0166161060333252,-2.323439900075094
1708443074.2376006,-2.1420185565948486,-1.3335725230029603,-2.5263283888446253,6.110669123917379,1.0166475772857666,-2.323465172444479
1708443074.2395875,-2.141984701156616,-1.333514542584755,-2.5263312498675745,6.110741841584005,1.0166820287704468,-2.323402468358175
1708443074.2415843,-2.1420254707336426,-1.3335430485061188,-2.5262983481036585,6.110664713173666,1.0166566371917725,-2.323448721562521
1708443074.2435744,-2.142010450363159,-1.3335682165673752,-2.5263193289386194,6.110676634102621,1.0166640281677246,-2.3234489599811
1708443074.2455897,-2.1420342922210693,-1.33357127130542,-2.5263267199145716,6.110713708191671,1.0167195796966553,-2.323439900075094
1708443074.2476172,-2.1420388221740723,-1.3335308146527787,-2.5263028780566614,6.110697495728292,1.0166852474212646,-2.323439900075094
1708443074.2496295,-2.1420342922210693,-1.3335637313178559,-2.5262776056872767,6.11073003986434,1.0166988372802734,-2.323411289845602
1708443074.25161,-2.1420514583587646,-1.333538682465889,-2.5263312498675745,6.110694038658895,1.0166070461273193,-2.323432270680563
1708443074.253581,-2.1419804096221924,-1.3335800033858796,-2.5263074080096644,6.110680091172018,1.0166521072387695,-2.3233934084521692
1708443074.255675,-2.14200496673584,-1.3335922372392197,-2.5263312498675745,6.1107181189353845,1.0166730880737305,-2.323439900075094
1708443074.257587,-2.142037868499756,-1.3335800182870408,-2.5263312498675745,6.1107051251228235,1.0167016983032227,-2.323439900075094
1708443074.2596195,-2.1420185565948486,-1.3335637313178559,-2.5263312498675745,6.1106369374092,1.0166807174682617,-2.323411289845602
1708443074.2615986,-2.1419804096221924,-1.3334925037673493,-2.5263734499560755,6.1107181189353845,1.0167016983032227,-2.3234742323504847
1708443074.2635915,-2.1420342922210693,-1.333596647982933,-2.5263312498675745,6.110660302429952,1.0167183876037598,-2.32347280183901
1708443074.265594,-2.1420016288757324,-1.3335234236768265,-2.5263734499560755,6.110722529679098,1.0166807174682617,-2.323477093373434
1708443074.267567,-2.1420254707336426,-1.333550513987877,-2.5263312498675745,6.110652792244711,1.0166685581207275,-2.323430840169088
1708443074.2695918,-2.1420273780822754,-1.333550513987877,-2.5263312498675745,6.1107332585151575,1.0167585611343384,-2.323456350957052
1708443074.2716305,-2.1420514583587646,-1.3335562658360978,-2.5263431707965296,6.1107462523277185,1.0167211294174194,-2.323463741933004
1708443074.2735944,-2.1420254707336426,-1.3335474294475098,-2.5263477007495325,6.110667931824484,1.0166716575622559,-2.323406759892599
1708443074.2755978,-2.1420228481292725,-1.3336174053004761,-2.5263267199145716,6.110676634102621,1.0167123079299927,-2.323468271886007
1708443074.2775812,-2.1420185565948486,-1.333529846077301,-2.5263312498675745,6.110709416657247,1.0166881084442139,-2.3234098593341272
1708443074.2796195,-2.1420254707336426,-1.3335474592498322,-2.5263312498675745,6.110725629120626,1.0167211294174194,-2.323456350957052
1708443074.2816055,-2.1419928073883057,-1.3335790497115632,-2.5263643900500696,6.11070071437911,1.0167077779769897,-2.323465410863058
1708443074.2836134,-2.141993761062622,-1.33352646351371,-2.5263477007495325,6.110755073815145,1.0167405605316162,-2.323418680821554
1708443074.28561,-2.1419970989227295,-1.3335342866233368,-2.5263147989856165,6.110660421639242,1.01677405834198,-2.323430840169088
1708443074.2875764,-2.1420061588287354,-1.333612934952118,-2.5263193289386194,6.110675799637594,1.0167529582977295,-2.323468271886007
1708443074.289585,-2.1420185565948486,-1.3335844439319153,-2.5263357798205774,6.1107051251228235,1.0167484283447266,-2.323447291051046
1708443074.291604,-2.1419928073883057,-1.333587886100151,-2.5263689200030726,6.1107051251228235,1.016757607460022,-2.323463741933004
1708443074.2935743,-2.1419758796691895,-1.333518923526146,-2.5263477007495325,6.110713708191671,1.0167739391326904,-2.323439900075094
1708443074.2956443,-2.1420140266418457,-1.3335418117097397,-2.5263567606555384,6.110667931824484,1.0167224407196045,-2.3234759012805384
1708443074.297607,-2.1419758796691895,-1.3335342568210145,-2.5263386408435267,6.110676634102621,1.0167604684829712,-2.3234832922564905
1708443074.2996018,-2.1420061588287354,-1.3335637313178559,-2.5263431707965296,6.110746133118429,1.016785740852356,-2.323451821004049
1708443074.301591,-2.142042398452759,-1.333616004591324,-2.5262864271747034,6.110656010895529,1.0168020725250244,-2.323460880910055
1708443074.3035748,-2.1420388221740723,-1.3335996729186554,-2.5263312498675745,6.110680925637045,1.0167485475540161,-2.323489491139547
1708443074.305612,-2.1420228481292725,-1.33352546513591,-2.5263522307025355,6.1107008335884,1.0167440176010132,-2.323468271886007
1708443074.307594,-2.1420094966888428,-1.3335430485061188,-2.5263312498675745,6.110656010895529,1.016785740852356,-2.323451821004049
1708443074.309583,-2.1419644355773926,-1.3335342121175309,-2.5263267199145716,6.110743033676901,1.0167269706726074,-2.3234427610980433
1708443074.311596,-2.1419928073883057,-1.333596647982933,-2.5263267199145716,6.110737550049581,1.0167559385299683,-2.3235297838794153
1708443074.3136132,-2.1419970989227295,-1.333587886100151,-2.5263221899615687,6.110725629120626,1.0167484283447266,-2.3234832922564905
1708443074.3156445,-2.1420300006866455,-1.3335681122592469,-2.526372019444601,6.110709416657247,1.016781210899353,-2.3234849611865442
1708443074.3176181,-2.1420061588287354,-1.333546133046486,-2.5263312498675745,6.110667931824484,1.016797661781311,-2.3234668413745325
1708443074.3196032,-2.1420140266418457,-1.3335342568210145,-2.5263689200030726,6.110712635308065,1.0167887210845947,-2.3234832922564905
1708443074.3216276,-2.1420209407806396,-1.3336173456958313,-2.5263477007495325,6.110721337586202,1.0167932510375977,-2.3235343138324183
1708443074.3236012,-2.1420016288757324,-1.333592267041542,-2.5263553301440638,6.110725629120626,1.0167887210845947,-2.3235090414630335
1708443074.3256369,-2.142010450363159,-1.3335341972163697,-2.5263312498675745,6.110750663071432,1.016806721687317,-2.3234713713275355
1708443074.3275993,-2.1420228481292725,-1.333596647982933,-2.5263357798205774,6.110701906472006,1.0167559385299683,-2.3234339396106165
1708443074.329585,-2.1420300006866455,-1.333554984336235,-2.5263431707965296,6.110701906472006,1.0167841911315918,-2.3234759012805384
1708443074.3316119,-2.1420185565948486,-1.3335474592498322,-2.5263553301440638,6.110725629120626,1.0167529582977295,-2.3234923521624964
1708443074.3335807,-2.1419804096221924,-1.3335430932096024,-2.5263553301440638,6.110688912659445,1.0168054103851318,-2.3234427610980433
1708443074.3355684,-2.1420228481292725,-1.3335341972163697,-2.526329580937521,6.110741841584005,1.0167440176010132,-2.3234787623034876
1708443074.3375876,-2.1419713497161865,-1.3335834306529541,-2.5263856093036097,6.110709416657247,1.016769289970398,-2.3235090414630335
1708443074.3396065,-2.1419777870178223,-1.333559350376465,-2.5263431707965296,6.11070071437911,1.0168263912200928,-2.3234713713275355
1708443074.3415737,-2.1420273780822754,-1.333575652246811,-2.5262938181506556,6.110737550049581,1.0167841911315918,-2.3234968821154993
1708443074.3435726,-2.141989231109619,-1.3335637313178559,-2.526329580937521,6.1107332585151575,1.016797661781311,-2.3234759012805384
1708443074.3456032,-2.1419689655303955,-1.3335800182870408,-2.5263810793506067,6.110696303635397,1.0167514085769653,-2.3234759012805384
1708443074.3476012,-2.1420061588287354,-1.333538682465889,-2.5263176600085657,6.110754120140829,1.016793131828308,-2.3234787623034876
1708443074.3495789,-2.1420016288757324,-1.3336159598878403,-2.526313130055563,6.110734450608053,1.0168055295944214,-2.323510233555929
1708443074.3515964,-2.1420273780822754,-1.3335102212480088,-2.5263553301440638,6.1107332585151575,1.0167633295059204,-2.323463741933004
1708443074.3535705,-2.1419575214385986,-1.333575652246811,-2.5263598600970667,6.110688912659445,1.016781210899353,-2.3234923521624964
1708443074.3555965,-2.1420016288757324,-1.3335637313178559,-2.526393000279562,6.110688912659445,1.016817331314087,-2.3234923521624964
1708443074.3576078,-2.1420140266418457,-1.3335220974734803,-2.5263643900500696,6.1107332585151575,1.016800880432129,-2.3234923521624964
1708443074.359573,-2.1419928073883057,-1.3336041879704972,-2.526346270238058,6.110709416657247,1.0167813301086426,-2.3234878222094935
1708443074.3616252,-2.141984701156616,-1.33357127130542,-2.526358429585592,6.110669123917379,1.0168054103851318,-2.3235090414630335
1708443074.363598,-2.1420273780822754,-1.333550513987877,-2.5263386408435267,6.1107051251228235,1.0168172121047974,-2.3234787623034876
1708443074.36558,-2.1420061588287354,-1.3335505437901993,-2.526346270238058,6.1107462523277185,1.0168172121047974,-2.3234878222094935
1708443074.3675904,-2.141989231109619,-1.333529846077301,-2.5263312498675745,6.110745417862692,1.016812801361084,-2.3235283533679407
1708443074.369581,-2.1420185565948486,-1.333554984336235,-2.5263341108905237,6.110713708191671,1.0168172121047974,-2.3235014120685022
1708443074.37159,-2.1420061588287354,-1.3335505437901993,-2.526367489491598,6.11072992065505,1.0167964696884155,-2.3234668413745325
1708443074.373583,-2.141993761062622,-1.333559350376465,-2.5263477007495325,6.11067150810317,1.0167841911315918,-2.323486391698019
1708443074.3755877,-2.1420061588287354,-1.3335637015155335,-2.526388470326559,6.110725629120626,1.0168172121047974,-2.323486391698019
1708443074.3776317,-2.142010450363159,-1.3335505437901993,-2.526376549397604,6.110749828606405,1.0167723894119263,-2.323490921651022
1708443074.3795993,-2.141982316970825,-1.3335221421769639,-2.526372019444601,6.110737550049581,1.0168054103851318,-2.32350737253298
1708443074.381613,-2.1419804096221924,-1.3335176420262833,-2.52640945116152,6.110741841584005,1.016775131225586,-2.323556963597433
1708443074.383581,-2.141989231109619,-1.3335220527699967,-2.526358429585592,6.110750663071432,1.0168172121047974,-2.323547903691427
1708443074.3856022,-2.1419663429260254,-1.333534227018692,-2.526372019444601,6.110664713173666,1.0168218612670898,-2.3235705534564417
1708443074.387582,-2.1420094966888428,-1.333583415751793,-2.526404921208517,6.110685336380758,1.0167632102966309,-2.323547903691427
1708443074.3895962,-2.1419529914855957,-1.3335593354753037,-2.526367489491598,6.1107332585151575,1.016808271408081,-2.3235600630389612
1708443074.3916125,-2.1419804096221924,-1.3335799437812348,-2.526383940373556,6.110667931824484,1.0167964696884155,-2.323581043873922
1708443074.393594,-2.1420185565948486,-1.33354306340728,-2.526379410420553,6.110749828606405,1.0168218612670898,-2.3235915342914026
1708443074.3956327,-2.1420140266418457,-1.3335175675204773,-2.526388470326559,6.110721337586202,1.016808271408081,-2.3235929648028772
1708443074.3976457,-2.141984701156616,-1.3335725230029603,-2.5264409224139612,6.110709416657247,1.0167841911315918,-2.3235252539264124
1708443074.399588,-2.1419970989227295,-1.333522082572319,-2.526412312184469,6.1107051251228235,1.016829490661621,-2.323585573826925
1708443074.4016194,-2.141989231109619,-1.3335299056819458,-2.5263822714435022,6.110717046051779,1.0168249607086182,-2.3235555330859583
1708443074.4035928,-2.1419405937194824,-1.333575652246811,-2.52637488046755,6.1107462523277185,1.0168416500091553,-2.3235960642444056
1708443074.4056256,-2.1419732570648193,-1.3336010587266465,-2.526407782231466,6.110758530884542,1.0168581008911133,-2.3235960642444056
1708443074.407607,-2.142047643661499,-1.3335518848947068,-2.5264318625079554,6.110684501915731,1.0168653726577759,-2.3235960642444056
1708443074.409602,-2.1419732570648193,-1.333538682465889,-2.5263896624194544,6.110696303635397,1.0168371200561523,-2.3236125151263636
1708443074.411626,-2.1419732570648193,-1.3335623902133484,-2.5264061133014124,6.110684501915731,1.0168535709381104,-2.3235629240619105
1708443074.4135923,-2.142014980316162,-1.3335430038026352,-2.5264514128314417,6.110725629120626,1.0168249607086182,-2.3236051241504114
1708443074.415621,-2.1419732570648193,-1.3335834306529541,-2.5264483133899134,6.110741841584005,1.0168581008911133,-2.3236170450793665
1708443074.417595,-2.1419732570648193,-1.3335298311761399,-2.526463333760397,6.110709416657247,1.016834020614624,-2.3235629240619105
1708443074.4195986,-2.142019510269165,-1.3336318594268342,-2.5264182726489466,6.110680925637045,1.0168462991714478,-2.3235884348498743
1708443074.4216053,-2.142010450363159,-1.33354306340728,-2.5264347235309046,6.110709416657247,1.0168416500091553,-2.3235960642444056
1708443074.423617,-2.141989231109619,-1.3335504990867157,-2.526475254689352,6.110697495728292,1.016800880432129,-2.3236005941974085
1708443074.4256377,-2.1419777870178223,-1.3335756224444886,-2.5264092127429407,6.110696303635397,1.016808271408081,-2.3235657850848597
1708443074.4276085,-2.141998052597046,-1.333558053975441,-2.526479784642355,6.110737550049581,1.0168037414550781,-2.323581043873922
1708443074.429595,-2.1420061588287354,-1.3335593354753037,-2.5264843145953577,6.110734331398763,1.0167872905731201,-2.3236337343799036
1708443074.431627,-2.1419777870178223,-1.3335342568210145,-2.5264228026019495,6.110669123917379,1.0168462991714478,-2.3235703150378626
1708443074.4335983,-2.141993761062622,-1.3335637313178559,-2.5265007654773157,6.1107462523277185,1.016811490058899,-2.3235839048968714
1708443074.435622,-2.1419663429260254,-1.3335681867650528,-2.526517454777853,6.11070071437911,1.016811490058899,-2.3235884348498743
1708443074.4375892,-2.1419360637664795,-1.3335637164166947,-2.5264514128314417,6.110676634102621,1.0168204307556152,-2.3235884348498743
1708443074.4396167,-2.142014980316162,-1.33357127130542,-2.526437822972433,6.1107061980064294,1.0168699026107788,-2.3235884348498743
1708443074.4416223,-2.1419405937194824,-1.333518998031952,-2.526479784642355,6.110761630326071,1.0168249607086182,-2.3235748449908655
1708443074.4435868,-2.1419708728790283,-1.3336128306439896,-2.5264514128314417,6.110726821213522,1.0168461799621582,-2.3235793749438685
1708443074.4456232,-2.1419575214385986,-1.33357127130542,-2.5264843145953577,6.11070071437911,1.0168159008026123,-2.3235793749438685
1708443074.4476342,-2.1419663429260254,-1.3335637313178559,-2.526449743901388,6.110725629120626,1.0168237686157227,-2.3235555330859583
1708443074.44965,-2.141982316970825,-1.3335431081107636,-2.5264256636248987,6.1107051251228235,1.0168490409851074,-2.3235793749438685
1708443074.4516237,-2.141953945159912,-1.3335966628840943,-2.526437822972433,6.110693204193868,1.0168490409851074,-2.3235915342914026
1708443074.453601,-2.1419618129730225,-1.3335681569627305,-2.5264843145953577,6.1107008335884,1.016828179359436,-2.3236337343799036
1708443074.4556277,-2.1419708728790283,-1.3335800033858796,-2.5264392534839075,6.1107672331626794,1.0168581008911133,-2.3235629240619105
1708443074.4575887,-2.141932725906372,-1.3335461628488083,-2.526421133671896,6.110709416657247,1.0168237686157227,-2.3235748449908655
1708443074.459604,-2.141963005065918,-1.3335562360337754,-2.526437822972433,6.110750663071432,1.0168941020965576,-2.323581043873922
1708443074.4616215,-2.141953945159912,-1.33354306340728,-2.52649170557131,6.110667931824484,1.0168490409851074,-2.3236425558673304
1708443074.463585,-2.141895294189453,-1.333505780701973,-2.526458803807394,6.110741841584005,1.0168581008911133,-2.3235839048968714
1708443074.4656038,-2.1419529914855957,-1.3335637313178559,-2.5264301935779017,6.110787856369772,1.016844630241394,-2.3235839048968714
1708443074.4676166,-2.1419663429260254,-1.3335474294475098,-2.52643329301943,6.110709416657247,1.0168862342834473,-2.3235765139209192
1708443074.469583,-2.1419708728790283,-1.3335755628398438,-2.5264843145953577,6.110688912659445,1.0168249607086182,-2.3235674540149134
1708443074.471613,-2.141928195953369,-1.3335800182870408,-2.5264514128314417,6.110728847771444,1.0168325901031494,-2.3235555330859583
1708443074.4735932,-2.1420071125030518,-1.333554969435074,-2.526454273854391,6.110750663071432,1.0168744325637817,-2.3235748449908655
1708443074.475603,-2.1419689655303955,-1.3335594099811097,-2.5264678637133997,6.110746133118429,1.0168249607086182,-2.3236005941974085
1708443074.4775894,-2.1419618129730225,-1.3335505437901993,-2.526442352925436,6.11073003986434,1.0168654918670654,-2.3235960642444056
1708443074.4795923,-2.1419663429260254,-1.3335712564042588,-2.526470724736349,6.110741841584005,1.0168490409851074,-2.3236005941974085
1708443074.4816036,-2.141975164413452,-1.3335757118514557,-2.5264769236194056,6.110651719361105,1.016806960105896,-2.3235510031329554
1708443074.4835768,-2.1419451236724854,-1.3335387420705338,-2.5265098253833216,6.110693204193868,1.016828179359436,-2.3235765139209192
1708443074.4856138,-2.141963005065918,-1.3335518848947068,-2.526463333760397,6.110721337586202,1.0168626308441162,-2.3236005941974085
1708443074.4875774,-2.1420068740844727,-1.3335395467332383,-2.5264347235309046,6.110737550049581,1.0168609619140625,-2.3236005941974085
1708443074.4895885,-2.141982316970825,-1.333611638551094,-2.526458803807394,6.110712635308065,1.0168774127960205,-2.3235793749438685
1708443074.4916055,-2.141991138458252,-1.333566815858223,-2.526475254689352,6.1107332585151575,1.0168654918670654,-2.3235929648028772
1708443074.493573,-2.141986608505249,-1.3335549396327515,-2.52651292482485,6.110737550049581,1.0168728828430176,-2.3235839048968714
1708443074.4956145,-2.141953945159912,-1.333587886100151,-2.5265219847308558,6.110726821213522,1.0168581008911133,-2.3235583941089075
1708443074.4975872,-2.141932725906372,-1.3335756224444886,-2.5264347235309046,6.1107672331626794,1.016844630241394,-2.3235583941089075
1708443074.4996216,-2.141958475112915,-1.3336085689118882,-2.526442352925436,6.110701906472006,1.0168325901031494,-2.3236215750323694
1708443074.5016217,-2.141921043395996,-1.3335342121175309,-2.5264228026019495,6.110680091172018,1.016844630241394,-2.3236051241504114
1708443074.503581,-2.141984224319458,-1.3335997325233002,-2.526479784642355,6.1107181189353845,1.0168371200561523,-2.3235748449908655
1708443074.5055988,-2.141932725906372,-1.3336160641959687,-2.5264468828784388,6.110741960793295,1.0168699026107788,-2.3235555330859583
1708443074.5075743,-2.141967535018921,-1.3335418117097397,-2.526479784642355,6.110685336380758,1.0168204307556152,-2.3235793749438685
1708443074.5095825,-2.141937017440796,-1.3336291027120133,-2.5264468828784388,6.110692012100973,1.0168699026107788,-2.3235793749438685
1708443074.5116096,-2.141932725906372,-1.3335550141385575,-2.52649170557131,6.110721337586202,1.016832709312439,-2.3236170450793665
1708443074.5135875,-2.141932725906372,-1.3335386675647278,-2.5264559427844446,6.110741960793295,1.0168744325637817,-2.3235748449908655
1708443074.5156043,-2.141979932785034,-1.3335418117097397,-2.5265007654773157,6.110684501915731,1.0168159008026123,-2.3236215750323694
1708443074.5175767,-2.141982316970825,-1.3335844439319153,-2.526479784642355,6.110741960793295,1.0168581008911133,-2.3236096541034144
1708443074.5195813,-2.1420116424560547,-1.3335712862065812,-2.5264468828784388,6.1107672331626794,1.016832709312439,-2.3235839048968714
1708443074.5216482,-2.141986608505249,-1.3335725230029603,-2.526479784642355,6.110667931824484,1.0168371200561523,-2.3235583941089075
1708443074.5235758,-2.14190411567688,-1.3335624498179932,-2.52649170557131,6.1107061980064294,1.0168461799621582,-2.323522392903463
1708443074.5256577,-2.141963005065918,-1.333554984336235,-2.526463333760397,6.110664713173666,1.0168371200561523,-2.3236261049853724
1708443074.5276203,-2.141958475112915,-1.333514542584755,-2.526463333760397,6.110762822418966,1.0168445110321045,-2.3235960642444056
1708443074.5296285,-2.141953945159912,-1.3335624647191544,-2.526479784642355,6.110713708191671,1.0168204307556152,-2.3235583941089075
1708443074.5316298,-2.141953945159912,-1.333624855881073,-2.5264092127429407,6.110684501915731,1.016828179359436,-2.3236096541034144
1708443074.5335813,-2.141921043395996,-1.3335550141385575,-2.526449743901388,6.110713708191671,1.0167992115020752,-2.3235839048968714
1708443074.5356104,-2.141975164413452,-1.3336204451373597,-2.5264678637133997,6.110701906472006,1.0168204307556152,-2.3235510031329554
1708443074.5375981,-2.141916513442993,-1.3335353297046204,-2.5264468828784388,6.110726702004232,1.0168581008911133,-2.3235464731799524
1708443074.5395913,-2.1419496536254883,-1.333579958682396,-2.5264256636248987,6.110709416657247,1.016812801361084,-2.3235583941089075
1708443074.5416257,-2.1419506072998047,-1.333592177634575,-2.5264392534839075,6.110688793450155,1.016829490661621,-2.3235960642444056
1708443074.5436032,-2.141953945159912,-1.3335342419198533,-2.5264256636248987,6.110758530884542,1.0168416500091553,-2.3236005941974085
1708443074.5456355,-2.14190411567688,-1.3335563105395813,-2.526442352925436,6.110722410469808,1.0168037414550781,-2.3235555330859583
1708443074.5476313,-2.141895294189453,-1.3335624796203156,-2.5264301935779017,6.110664713173666,1.0167992115020752,-2.3235600630389612
1708443074.549616,-2.141953945159912,-1.3335800033858796,-2.5264256636248987,6.110685336380758,1.0168172121047974,-2.323547903691427
1708443074.5516253,-2.141928195953369,-1.3335800033858796,-2.526442352925436,6.110701906472006,1.016796350479126,-2.3235719839679163
1708443074.5536203,-2.141949415206909,-1.3335997772267838,-2.5264766852008265,6.110697495728292,1.0168461799621582,-2.3235510031329554
1708443074.555609,-2.141979932785034,-1.3335800629905243,-2.5265095869647425,6.110669123917379,1.016829490661621,-2.323564592991964
1708443074.5575855,-2.141967535018921,-1.3335220974734803,-2.526463333760397,6.110660302429952,1.016791820526123,-2.323578182850973
1708443074.5595896,-2.1419131755828857,-1.3335264188102265,-2.5264766852008265,6.110660302429952,1.0167841911315918,-2.3235343138324183
1708443074.5616226,-2.141963005065918,-1.3335834455541153,-2.5264514128314417,6.110713708191671,1.0168099403381348,-2.32350737253298
1708443074.5635927,-2.141979932785034,-1.33357127130542,-2.5264301935779017,6.110693204193868,1.0167841911315918,-2.323514763508932
1708443074.5656054,-2.141932725906372,-1.3336041283658524,-2.5264347235309046,6.110676634102621,1.0167841911315918,-2.323535982762472
1708443074.567591,-2.141941547393799,-1.3335965734771271,-2.5264392534839075,6.110726821213522,1.0167677402496338,-2.3235164324389856
1708443074.569582,-2.1419506072998047,-1.3335790795138855,-2.5264559427844446,6.110660302429952,1.0167633295059204,-2.3235283533679407
1708443074.5716243,-2.141958475112915,-1.3335518848947068,-2.526463333760397,6.1107061980064294,1.016793131828308,-2.3235495726214808
1708443074.5736098,-2.141930103302002,-1.3335298311761399,-2.5264678637133997,6.110774624138632,1.0167768001556396,-2.3234832922564905
1708443074.5756173,-2.141941547393799,-1.3335888546756287,-2.5264106432544153,6.110713708191671,1.0167559385299683,-2.3234759012805384
1708443074.5776088,-2.1419708728790283,-1.333563671713211,-2.5264483133899134,6.110710489540853,1.0167768001556396,-2.3234968821154993
1708443074.5795953,-2.141908645629883,-1.3335712862065812,-2.5264106432544153,6.110669123917379,1.0167396068572998,-2.323447291051046
1708443074.5815992,-2.141986608505249,-1.3335014295629044,-2.5265095869647425,6.110664713173666,1.0167396068572998,-2.3234849611865442
1708443074.583579,-2.141958475112915,-1.3335102212480088,-2.5264392534839075,6.1107181189353845,1.016757607460022,-2.3234427610980433
1708443074.5856023,-2.141932725906372,-1.3335712117007752,-2.5264106432544153,6.110709416657247,1.0167694091796875,-2.323456350957052
1708443074.5876086,-2.141953945159912,-1.3335549992373963,-2.5264650026904505,6.110693919449606,1.0167529582977295,-2.3234968821154993
1708443074.5895827,-2.141937017440796,-1.333534227018692,-2.526475254689352,6.110693204193868,1.0167440176010132,-2.3234427610980433
1708443074.5916147,-2.141908645629883,-1.3335220974734803,-2.5264273325549524,6.110619532852926,1.0167405605316162,-2.323460880910055
1708443074.593588,-2.1419663429260254,-1.3335386675647278,-2.5264151732074183,6.110771524697103,1.0167723894119263,-2.3234546820269983
1708443074.595633,-2.141953945159912,-1.3335637164166947,-2.5264483133899134,6.110689627915182,1.0167529582977295,-2.3234489599811
1708443074.5975947,-2.141979932785034,-1.3335343313268204,-2.5264061133014124,6.110676634102621,1.0167529582977295,-2.323423210774557
1708443074.5995612,-2.141967535018921,-1.333601028924324,-2.5264015833484095,6.1107592461402795,1.0166987180709839,-2.323435370122091
1708443074.6016068,-2.141908645629883,-1.3335298758796235,-2.5264182726489466,6.110648500710287,1.0167195796966553,-2.3234203497516077
1708443074.6035814,-2.14190411567688,-1.3335966032794495,-2.5264273325549524,6.110722529679098,1.0167359113693237,-2.3234368006335657
1708443074.6055896,-2.1419460773468018,-1.3335342568210145,-2.5264061133014124,6.110684501915731,1.0167449712753296,-2.323432270680563
1708443074.6076226,-2.1418919563293457,-1.3335844439319153,-2.5264228026019495,6.1107061980064294,1.0167449712753296,-2.3233991304980677
1708443074.6095998,-2.1419708728790283,-1.3335518699935456,-2.5264228026019495,6.11072992065505,1.0167449712753296,-2.3234203497516077
1708443074.6116288,-2.141953945159912,-1.333563671713211,-2.5264015833484095,6.110681998520651,1.0167241096496582,-2.3234368006335657
1708443074.6136017,-2.141937255859375,-1.3335504990867157,-2.5264318625079554,6.110652911454,1.0167077779769897,-2.3233826796161097
1708443074.6156287,-2.1419460773468018,-1.333522082572319,-2.5264151732074183,6.110685336380758,1.0167330503463745,-2.3234458605395716
1708443074.6176193,-2.1418964862823486,-1.33357127130542,-2.5263987223254603,6.110676634102621,1.0167330503463745,-2.3234413305865687
1708443074.6196232,-2.141979694366455,-1.3335473549417038,-2.526386801396505,6.110688912659445,1.0167449712753296,-2.3234248797046106
1708443074.6216114,-2.141934633255005,-1.3335550141385575,-2.526346270238058,6.1107181189353845,1.0167123079299927,-2.3234036604510706
1708443074.623617,-2.1419732570648193,-1.3335461777499695,-2.526358429585592,6.110686409264364,1.0167286396026611,-2.3233843485461634
1708443074.6256285,-2.141963005065918,-1.33357127130542,-2.526367489491598,6.110676634102621,1.0167003870010376,-2.3233662287341517
1708443074.6276014,-2.1419663429260254,-1.3335549992373963,-2.526376549397604,6.110738742142477,1.0167003870010376,-2.3233540693866175
1708443074.629607,-2.1419708728790283,-1.3336041581681748,-2.5263477007495325,6.110697495728292,1.016709327697754,-2.3233781496631067
1708443074.631636,-2.141930103302002,-1.33354306340728,-2.5263386408435267,6.110680925637045,1.0167077779769897,-2.3233872095691126
1708443074.633593,-2.141941547393799,-1.3335799735835572,-2.526346270238058,6.110701906472006,1.016709327697754,-2.3233421484576624
1708443074.6356292,-2.141979932785034,-1.3336041581681748,-2.5263386408435267,6.1107061980064294,1.0167077779769897,-2.3234127203570765
1708443074.6375847,-2.141941547393799,-1.3335996729186554,-2.5263267199145716,6.110738742142477,1.0167195796966553,-2.3233421484576624
1708443074.639627,-2.1419460773468018,-1.3335474294475098,-2.5262938181506556,6.110664713173666,1.0167242288589478,-2.3234036604510706
1708443074.6416013,-2.1419618129730225,-1.3335386973670502,-2.5263431707965296,6.110660421639242,1.0167211294174194,-2.3234203497516077
1708443074.6435788,-2.141975164413452,-1.3335668307593842,-2.5262983481036585,6.110701906472006,1.0167495012283325,-2.3233917395221155
1708443074.6456146,-2.141925573348999,-1.3335756373456498,-2.5263329187976282,6.110656010895529,1.0166958570480347,-2.3233585993396204
1708443074.6476002,-2.1419506072998047,-1.333592267041542,-2.5263267199145716,6.1107181189353845,1.0167003870010376,-2.3233752886401575
1708443074.649604,-2.141899824142456,-1.3335879010013123,-2.5262654463397425,6.1107061980064294,1.016704797744751,-2.3233631292926233
1708443074.6516097,-2.1419451236724854,-1.3335341972163697,-2.5263147989856165,6.110665786057272,1.0167211294174194,-2.3234036604510706
1708443074.653594,-2.141930103302002,-1.333559350376465,-2.526361052189962,6.110672342568197,1.016704797744751,-2.3234081904040735
1708443074.6555934,-2.141953945159912,-1.3336054247668763,-2.5262938181506556,6.110657202988424,1.0166971683502197,-2.3233631292926233
1708443074.6576018,-2.141979932785034,-1.3335637164166947,-2.526284996663229,6.110680925637045,1.0166716575622559,-2.3233843485461634
1708443074.6595838,-2.141934394836426,-1.3335756224444886,-2.5263221899615687,6.110689747124471,1.0166431665420532,-2.3233466784106653
1708443074.6616323,-2.141967535018921,-1.3334779304317017,-2.5263102690326136,6.110677706986227,1.0166807174682617,-2.3233512083636683
1708443074.6635997,-2.1419708728790283,-1.3335474592498322,-2.5262983481036585,6.110722410469808,1.0166354179382324,-2.3233888784991663
1708443074.6655972,-2.141958475112915,-1.3335264337113877,-2.5263643900500696,6.110701787262716,1.0166776180267334,-2.3234036604510706
1708443074.6676252,-2.1419460773468018,-1.3335966032794495,-2.5263012091266077,6.110685336380758,1.0166444778442383,-2.3234127203570765
1708443074.6695988,-2.141958475112915,-1.3335800033858796,-2.5263267199145716,6.110727894097128,1.0166655778884888,-2.3234203497516077
1708443074.6715872,-2.1419460773468018,-1.3335550141385575,-2.5263057390796106,6.110710608750143,1.0166611671447754,-2.3234489599811
1708443074.6736033,-2.141908645629883,-1.33357127130542,-2.5262983481036585,6.110656010895529,1.0166444778442383,-2.3233946005450647
1708443074.675625,-2.141949415206909,-1.3335637015155335,-2.5263477007495325,6.110673415451803,1.0166566371917725,-2.3235436121570032
1708443074.6775823,-2.1420071125030518,-1.3335799735835572,-2.5263312498675745,6.110685336380758,1.0166444778442383,-2.32347280183901
1708443074.679596,-2.141928195953369,-1.3335768443397065,-2.5263477007495325,6.110743033676901,1.016602635383606,-2.3234954516040247
1708443074.6816242,-2.141932725906372,-1.333559350376465,-2.5263147989856165,6.110652792244711,1.0166566371917725,-2.323523823414938
1708443074.6835887,-2.141934633255005,-1.3335549247315903,-2.5263357798205774,6.1106982109840295,1.0166656970977783,-2.323514763508932
1708443074.6855824,-2.141925573348999,-1.333518923526146,-2.5263074080096644,6.110633241921224,1.0166566371917725,-2.323564592991964
1708443074.687619,-2.1418964862823486,-1.3335430783084412,-2.5263238588916224,6.110681879311361,1.016619086265564,-2.3235960642444056
1708443074.689587,-2.1419460773468018,-1.3335725379041214,-2.5263028780566614,6.110664713173666,1.0166116952896118,-2.3235870043383997
1708443074.6916358,-2.141963005065918,-1.3335145276835938,-2.5263267199145716,6.110661494522848,1.0166611671447754,-2.3236246744738978
1708443074.6935723,-2.141941547393799,-1.3335132759860535,-2.5263312498675745,6.110702621727743,1.016625165939331,-2.32369834581484
1708443074.6955814,-2.14190411567688,-1.333554969435074,-2.5263689200030726,6.110657202988424,1.0166701078414917,-2.3236921469317835
1708443074.6976404,-2.141908645629883,-1.3335593354753037,-2.5262938181506556,6.110677826195516,1.016641616821289,-2.323735777531759
1708443074.699599,-2.1419460773468018,-1.3335800182870408,-2.5263553301440638,6.110661494522848,1.0166534185409546,-2.3238213698016565
1708443074.701599,-2.141930103302002,-1.3335681569627305,-2.5263341108905237,6.110637652664938,1.0166655778884888,-2.323895041142599
1708443074.7035701,-2.141930103302002,-1.3335233491710206,-2.5263477007495325,6.110593187599935,1.0166534185409546,-2.3239341417895716
1708443074.7055955,-2.1419596672058105,-1.333535299902298,-2.5263643900500696,6.110625731735983,1.0165950059890747,-2.3239896933185022
1708443074.7075896,-2.1419551372528076,-1.3335605722716828,-2.5263431707965296,6.110606300621786,1.016625165939331,-2.324052635823385
1708443074.7095814,-2.141967535018921,-1.3335518848947068,-2.5262983481036585,6.110582101136007,1.0166280269622803,-2.3241665999041956
1708443074.7116053,-2.1419460773468018,-1.3335756820491333,-2.5263357798205774,6.110573518067159,1.0166281461715698,-2.3242390791522425
1708443074.7136366,-2.1419548988342285,-1.3335725230029603,-2.5263238588916224,6.110553729325094,1.0165830850601196,-2.3243559042560022
1708443074.7156305,-2.1419010162353516,-1.3335308146527787,-2.5263403097735804,6.110595214157858,1.0166071653366089,-2.324440066014425
1708443074.717603,-2.141975164413452,-1.3335474294475098,-2.5263221899615687,6.110542046814718,1.016603946685791,-2.3245316187488
1708443074.7195895,-2.1419310569763184,-1.3335562509349366,-2.5263267199145716,6.110508549004354,1.0166943073272705,-2.3246429602252405
1708443074.7216136,-2.1419506072998047,-1.3335233491710206,-2.5263312498675745,6.110530125885763,1.0166444778442383,-2.324838463460104
1708443074.7235873,-2.1419098377227783,-1.3335189831307908,-2.5262983481036585,6.110526907234945,1.0166162252426147,-2.3249314467059534
1708443074.7256126,-2.1419007778167725,-1.333510161643364,-2.5263643900500696,6.1104973433311365,1.0166730880737305,-2.325158421193258
1708443074.727643,-2.1418893337249756,-1.333510161643364,-2.5263431707965296,6.110514628678121,1.0166566371917725,-2.3252769152270716
1708443074.729582,-2.1418938636779785,-1.3335518550923844,-2.52631646791567,6.110408532410421,1.0166162252426147,-2.325442139302389
1708443074.731631,-2.1419265270233154,-1.3335725230029603,-2.5263312498675745,6.110437500267782,1.0166656970977783,-2.3256076017962855
1708443074.7336078,-2.141914129257202,-1.3335440021804352,-2.5263312498675745,6.110470998078146,1.0166490077972412,-2.3257878462420862
1708443074.735619,-2.141922950744629,-1.3335395914367218,-2.5263598600970667,6.110397445946493,1.0166444778442383,-2.3259392420398157
1708443074.737608,-2.141845464706421,-1.3335396361402054,-2.5263221899615687,6.110410439759054,1.0166281461715698,-2.3261359373675745
1708443074.739593,-2.1418416500091553,-1.3335070622018357,-2.5263431707965296,6.110394227295675,1.0166611671447754,-2.3263402620898646
1708443074.7416062,-2.1418585777282715,-1.3335114133409043,-2.5263553301440638,6.110358106880941,1.016619086265564,-2.3265493551837366
1708443074.7435856,-2.1418585777282715,-1.3335562956384202,-2.5263312498675745,6.110346305161276,1.0166701078414917,-2.3267670313464563
1708443074.7456124,-2.1418912410736084,-1.3335396510413666,-2.5263477007495325,6.110359418183126,1.0166611671447754,-2.3269906679736536
1708443074.7476363,-2.1418585777282715,-1.3335070622018357,-2.5263102690326136,6.1102943299110315,1.0166444778442383,-2.327174250279562
1708443074.7496085,-2.1418585777282715,-1.3335277152112504,-2.5263689200030726,6.110307204514303,1.0166490077972412,-2.327397886906759
1708443074.7516198,-2.1418721675872803,-1.333520160322525,-2.5263477007495325,6.110259282379904,1.0166189670562744,-2.3276711145984095
1708443074.753608,-2.141876459121704,-1.3334876012853165,-2.5263448397265833,6.110185730248251,1.0166308879852295,-2.327949110661642
1708443074.7556195,-2.141880989074707,-1.3334831309369584,-2.5263810793506067,6.110203015595236,1.0166971683502197,-2.3281849066363733
1708443074.7575972,-2.141843557357788,-1.3334954690984269,-2.5263553301440638,6.110175597458639,1.0166685581207275,-2.3284478823291224
1708443074.7596056,-2.141843557357788,-1.3334843975356598,-2.5263102690326136,6.110162603646078,1.0166685581207275,-2.32876164117922
1708443074.7616286,-2.1417782306671143,-1.3334725511125107,-2.5263238588916224,6.110176789551534,1.0167466402053833,-2.329104248677389
1708443074.763614,-2.1418118476867676,-1.333456279044487,-2.5263267199145716,6.110148417740621,1.016721248626709,-2.329428736363546
1708443074.7656002,-2.1417534351348877,-1.3334756654552002,-2.5263598600970667,6.110075700073995,1.0167242288589478,-2.3297184149371546
1708443074.7676253,-2.1417534351348877,-1.3334668588689347,-2.5263176600085657,6.110075700073995,1.0167710781097412,-2.3300731817828577
1708443074.7695851,-2.1417622566223145,-1.3334264916232605,-2.5263357798205774,6.1099984524543665,1.0167359113693237,-2.330405060444967
1708443074.7716072,-2.1417667865753174,-1.3334637445262452,-2.5263312498675745,6.109996068268575,1.01677405834198,-2.330772940312521
1708443074.773609,-2.1417338848114014,-1.33345182359729,-2.5263102690326136,6.109934317856588,1.0167440176010132,-2.3311455885516565
1708443074.7756052,-2.141721487045288,-1.3334756654552002,-2.526388470326559,6.1099398014839075,1.0167194604873657,-2.331576649342672
1708443074.77764,-2.1416943073272705,-1.333456279044487,-2.5263267199145716,6.109944093018331,1.0167768001556396,-2.3320258299456995
1708443074.7795863,-2.141690731048584,-1.333456279044487,-2.5263522307025355,6.109928715019979,1.0167887210845947,-2.33242375055422
1708443074.7816136,-2.141662359237671,-1.333439664249756,-2.5263386408435267,6.109826910286703,1.0167768001556396,-2.3329151312457483
1708443074.7836134,-2.1416285037994385,-1.333439664249756,-2.5263221899615687,6.109815704613485,1.0167396068572998,-2.3333099524127405
1708443074.7856371,-2.1416351795196533,-1.3334308576634903,-2.526379410420553,6.109807002335348,1.0168262720108032,-2.3338494936572474
1708443074.7876003,-2.1415979862213135,-1.3334483963302155,-2.5263643900500696,6.109707104950704,1.016817331314087,-2.334337298070089
1708443074.7896,-2.1416068077087402,-1.3333788973144074,-2.5263553301440638,6.109733092575826,1.0168371200561523,-2.334839407597677
1708443074.79163,-2.141561508178711,-1.3334200990251084,-2.526388470326559,6.109655964165487,1.0168699026107788,-2.335367504750387
1708443074.7936041,-2.141500473022461,-1.3334041398814698,-2.5263341108905237,6.109640824585714,1.0168728828430176,-2.3359161059008997
1708443074.7956233,-2.1414856910705566,-1.333411456351616,-2.526367489491598,6.109568941384115,1.0168895721435547,-2.336496893559591
1708443074.797622,-2.1414990425109863,-1.333338351254799,-2.526362959538595,6.109564649849691,1.0168882608413696,-2.337045494710104
1708443074.7996013,-2.1415035724639893,-1.3333427918008347,-2.526407782231466,6.109475600510397,1.016904592514038,-2.3376222292529505
1708443074.801587,-2.1414706707000732,-1.3334007424167176,-2.5263598600970667,6.109456884651937,1.016909122467041,-2.3382437864886683
1708443074.8035753,-2.141451358795166,-1.333342806701996,-2.526416842137472,6.109404909401693,1.0169587135314941,-2.338825050984518
1708443074.8056033,-2.1413745880126953,-1.3333844554475327,-2.5263822714435022,6.1093201515968225,1.0169270038604736,-2.339430634175436
1708443074.8075798,-2.1414127349853516,-1.3333559793284913,-2.5264678637133997,6.109297382622518,1.0169978141784668,-2.3400560061084192
1708443074.8095748,-2.1413514614105225,-1.3333594065955658,-2.5264769236194056,6.109213340073385,1.0170187950134277,-2.3407049814807337
1708443074.8116362,-2.141326665878296,-1.3333800596049805,-2.5264137426959437,6.109198319702902,1.017021894454956,-2.341337267552511
1708443074.813602,-2.1412746906280518,-1.3333725941232224,-2.526529375706808,6.1091134426887415,1.0170369148254395,-2.3420549074756067
1708443074.8156395,-2.1412835121154785,-1.3333352518132706,-2.52649170557131,6.10902105548934,1.0170865058898926,-2.3427253405200403
1708443074.8175812,-2.141247272491455,-1.3333725792220612,-2.526499334965841,6.108965503960409,1.0170577764511108,-2.3434792200671595
1708443074.8195848,-2.141247272491455,-1.3333440583995362,-2.526499334965841,6.108942973404684,1.0170655250549316,-2.34418231645693
1708443074.8216221,-2.141233444213867,-1.3332701039365311,-2.5265489260302942,6.108874428063192,1.0171228647232056,-2.344944779072897
1708443074.8236206,-2.1411712169647217,-1.333311454658844,-2.5265324751483362,6.108815657883444,1.0171301364898682,-2.345663372670309
1708443074.8256323,-2.141131639480591,-1.333320216541626,-2.5265217463122767,6.108767735749044,1.0172038078308105,-2.346468512211935
1708443074.827625,-2.1411359310150146,-1.3333690625480195,-2.5265308062182825,6.10865472534255,1.0171284675598145,-2.347205940877096
1708443074.8296072,-2.141099691390991,-1.3332920980504532,-2.526609007512228,6.108607160836019,1.017197608947754,-2.347989622746603
1708443074.8316197,-2.141080379486084,-1.3332638007453461,-2.526632849370138,6.10854052284316,1.0172216892242432,-2.3488152662860315
1708443074.8336225,-2.141052007675171,-1.3333289486220856,-2.526578728352682,6.108440506249227,1.0172502994537354,-2.3496597448932093
1708443074.835653,-2.1410632133483887,-1.3332963746837159,-2.526607338582174,6.108351337700643,1.0172698497772217,-2.3505211512195032
1708443074.8376164,-2.1409637928009033,-1.333235279922821,-2.5266147295581263,6.10826455333785,1.0173296928405762,-2.3513999621020716
1708443074.8396316,-2.1408989429473877,-1.3333095473102112,-2.5266884008990687,6.108220922737875,1.017370343208313,-2.352178398762838
1708443074.8416393,-2.140859365463257,-1.3332769882730027,-2.5266385714160364,6.108198153763571,1.0173614025115967,-2.353100124989645
1708443074.8435833,-2.1408143043518066,-1.333280087714531,-2.5266838709460657,6.10805772522048,1.0174230337142944,-2.3540285269366663
1708443074.8456435,-2.140791416168213,-1.3332769882730027,-2.526695791875021,6.107984888344564,1.0174517631530762,-2.354960266743795
1708443074.847605,-2.140829563140869,-1.3332528185895463,-2.526703182850973,6.1079187271888635,1.0174590349197388,-2.355919901524679
1708443074.8496604,-2.140707492828369,-1.3332484525493165,-2.5267604033099573,6.1078306315238855,1.0174953937530518,-2.356868092213766
1708443074.8516476,-2.1406757831573486,-1.33319045722995,-2.5267301241504114,6.107742655068197,1.0175223350524902,-2.3579211870776575
1708443074.8535995,-2.1406946182250977,-1.3332365316203614,-2.5267677942859095,6.107679593354025,1.0175641775131226,-2.3588483969317835
1708443074.8556666,-2.140658140182495,-1.3332202446511765,-2.5267661253558558,6.107522952347555,1.0175868272781372,-2.359889809285299
1708443074.8576279,-2.1405234336853027,-1.3332254600575943,-2.526832405720846,6.107545840531149,1.0175780057907104,-2.3610101381884974
1708443074.8596082,-2.1404848098754883,-1.3331639182618638,-2.526789967213766,6.1073717949684045,1.0176184177398682,-2.3620124498950403
1708443074.8616185,-2.140437364578247,-1.333245338206627,-2.5268216768847864,6.107292640000143,1.0176305770874023,-2.363087002431051
1708443074.8636336,-2.1403753757476807,-1.333200530414917,-2.5269086996661585,6.107177364617147,1.0176993608474731,-2.364196840916769
1708443074.8656383,-2.1403276920318604,-1.3331682843020936,-2.526923720036642,6.107068526535787,1.017740249633789,-2.365349833165304
1708443074.8675838,-2.14031720161438,-1.3331528466990967,-2.5269041697131556,6.10698567607955,1.0177552700042725,-2.3665831724749964
1708443074.8696077,-2.1402580738067627,-1.3330993068269272,-2.526931111012594,6.106864082604208,1.0177748203277588,-2.367751185094015
1708443074.8716023,-2.1402173042297363,-1.3331691336682816,-2.526943031941549,6.106753337174215,1.0178227424621582,-2.3689830938922327
1708443074.8735862,-2.1401662826538086,-1.3331528466990967,-2.5270167032824915,6.106624948769369,1.0179084539413452,-2.370216671620504
1708443074.8756373,-2.1400768756866455,-1.3331212115338822,-2.527078453694479,6.106542455941,1.0179113149642944,-2.371493403111593
1708443074.8775973,-2.140038013458252,-1.3331212115338822,-2.5270348230945032,6.10649989822463,1.0179849863052368,-2.372685496007101
1708443074.8795953,-2.139981508255005,-1.3330886375955124,-2.5270915667163294,6.106342541962423,1.0179955959320068,-2.3739100138293665
1708443074.8816204,-2.1398987770080566,-1.3331299287131806,-2.5270615259753626,6.106215345650472,1.0181262493133545,-2.375282351170675
1708443074.8836353,-2.139840841293335,-1.333097369675972,-2.5270853678332728,6.106107461243429,1.0181277990341187,-2.376582686101095
1708443074.885613,-2.1397933959960938,-1.3330941659263154,-2.527097527180807,6.105999934464254,1.018204689025879,-2.3779216448413294
1708443074.88764,-2.1397385597229004,-1.3330735278180619,-2.527151648198263,6.105893242150106,1.0182242393493652,-2.379310433064596
1708443074.889594,-2.1396749019622803,-1.3330322367003937,-2.5272088686572474,6.105749714165487,1.018317461013794,-2.380618397389547
1708443074.891651,-2.139618396759033,-1.3330243539861222,-2.5271740595446985,6.105605351715841,1.0183863639831543,-2.382019821797506
1708443074.893635,-2.1395211219787598,-1.3330584925464173,-2.5272401014911097,6.105383503227987,1.018441915512085,-2.383310858403341
1708443074.8956516,-2.139437437057495,-1.3330418926528473,-2.527191940938131,6.1052898047264,1.0184571743011475,-2.384733263646261
1708443074.8976154,-2.1394240856170654,-1.3329604727080842,-2.527309242879049,6.105169284134664,1.0185621976852417,-2.386146132146017
1708443074.8996036,-2.139331340789795,-1.3330299717238923,-2.5273600260363978,6.105002033501425,1.0186059474945068,-2.3875554243670862
1708443074.9015963,-2.139241933822632,-1.3329973977855225,-2.5273435751544397,6.104871380120077,1.0186659097671509,-2.388999048863546
1708443074.9036422,-2.1392154693603516,-1.3329973977855225,-2.527363125477926,6.104747402458944,1.0187424421310425,-2.390437904988424
1708443074.9055912,-2.1390902996063232,-1.3329779219678421,-2.527379576359884,6.104599463730612,1.0188237428665161,-2.3919811884509485
1708443074.9076145,-2.1390769481658936,-1.3329287481359025,-2.5274890104876917,6.104516970902242,1.0188747644424438,-2.393381420766012
1708443074.909582,-2.139008045196533,-1.332953841691353,-2.527491871510641,6.104348408966818,1.0189229249954224,-2.3949864546405237
1708443074.9116075,-2.138903856277466,-1.3329910945943375,-2.5274997393237513,6.104243266373434,1.0189788341522217,-2.396575991307394
1708443074.913585,-2.138822317123413,-1.3328558069518586,-2.5274906794177454,6.104046571045675,1.0190131664276123,-2.3980985323535364
1708443074.915665,-2.138763189315796,-1.3329015535167237,-2.5275805632220667,6.103911506920614,1.0191150903701782,-2.3997023741351526
1708443074.91758,-2.1387336254119873,-1.332880826001503,-2.527621094380514,6.103762376099386,1.019175410270691,-2.401351515446798
1708443074.919604,-2.1385998725891113,-1.332898275261261,-2.5276361147509974,6.103598344116964,1.019235610961914,-2.4029951731311243
1708443074.9216468,-2.1385273933410645,-1.3328375828317185,-2.5277257601367396,6.103444087296285,1.0192673206329346,-2.4047303835498255
1708443074.9236445,-2.1384434700012207,-1.3328748357347031,-2.527707878743307,6.1033209441001794,1.0193798542022705,-2.4064038435565394
1708443074.9256215,-2.13843035697937,-1.332834393983223,-2.5277515093432825,6.103186237602987,1.0194356441497803,-2.4080939928637903
1708443074.9276168,-2.1382977962493896,-1.3328137409738083,-2.5278266111956995,6.102949130326071,1.0194711685180664,-2.40986138979067
1708443074.9296327,-2.1382386684417725,-1.3328594875386734,-2.527839962636129,6.102814543038168,1.0195642709732056,-2.4114201704608362
1708443074.9316168,-2.1381752490997314,-1.332822562461235,-2.5278850237475794,6.102687346726217,1.0195753574371338,-2.4131038824664515
1708443074.9335966,-2.1380577087402344,-1.3327865612557908,-2.527928415928976,6.10251139381484,1.0196549892425537,-2.4147351423846644
1708443074.9356282,-2.1379737854003906,-1.3328028333238144,-2.527898375188009,6.102408873825826,1.0197734832763672,-2.4164133707629603
1708443074.9375975,-2.13789963722229,-1.332795189028122,-2.5280213991748255,6.102195966034689,1.019796371459961,-2.4181206862079065
1708443074.9396176,-2.1377899646759033,-1.3327865612557908,-2.5279794375049036,6.1020697233970544,1.0198591947555542,-2.4198032061206263
1708443074.9416173,-2.137739658355713,-1.332753987317421,-2.528053108845846,6.101881968766012,1.0199733972549438,-2.421497170125143
1708443074.9435885,-2.137638807296753,-1.332730994825699,-2.5280724207507532,6.101709830551901,1.0200575590133667,-2.4232378641711634
1708443074.9455743,-2.1375718116760254,-1.3327353459647675,-2.5281129519092005,6.101546990662374,1.0201040506362915,-2.4250317255603235
1708443074.9475884,-2.137450695037842,-1.3327015352300187,-2.528135363255636,6.101305353432455,1.0201809406280518,-2.4267526308642786
1708443074.949618,-2.1373634338378906,-1.3327222627452393,-2.5281806627856653,6.101191270142355,1.020281434059143,-2.4285362402545374
1708443074.951621,-2.1372828483581543,-1.332658053641655,-2.5281999746905726,6.101044523506918,1.0203520059585571,-2.4303470293628138
1708443074.9536,-2.1372201442718506,-1.33267434061084,-2.528226677571432,6.100881445198812,1.0204120874404907,-2.4321604410754603
1708443074.9556365,-2.1371381282806396,-1.332675502901413,-2.528250757847921,6.100677358895101,1.0205312967300415,-2.4339821974383753
1708443074.9576097,-2.137024164199829,-1.332617850308754,-2.5283198992358606,6.100579368859091,1.020589828491211,-2.4359129110919397
1708443074.9595842,-2.1369686126708984,-1.3326103699258347,-2.528376881276266,6.100296723633566,1.0206754207611084,-2.43777305284609
1708443074.9615798,-2.1368517875671387,-1.3325940829566498,-2.528375212346212,6.100244629174032,1.0207417011260986,-2.4397178331958216
1708443074.9635844,-2.1368520259857178,-1.3325774830630799,-2.528418842946188,6.100044476776876,1.0207608938217163,-2.4415305296527308
1708443074.965597,-2.1367266178131104,-1.3326353889754792,-2.5284999052630823,6.099893319397726,1.020882487297058,-2.4434312025653284
1708443074.9675896,-2.136646032333374,-1.3325373542359848,-2.5285614172564905,6.099729168206014,1.0209758281707764,-2.4452675024615687
1708443074.9696217,-2.136526107788086,-1.332566813831665,-2.528559986745016,6.099508273392477,1.0209892988204956,-2.4470635096179407
1708443074.971628,-2.136396646499634,-1.3324818772128602,-2.5286455790149134,6.099345314293661,1.0211114883422852,-2.448935333882467
1708443074.973591,-2.1363322734832764,-1.3325679761222382,-2.5286722818957728,6.099129307060995,1.0211261510849,-2.450808350239889
1708443074.975583,-2.136291742324829,-1.3324905943921586,-2.528687063847677,6.098974811821737,1.0212013721466064,-2.4526947180377405
1708443074.9775944,-2.1362485885620117,-1.3324731451324006,-2.5287802855121058,6.098779427796163,1.0212823152542114,-2.454526964818136
1708443074.9796028,-2.136115789413452,-1.3325292033008118,-2.528799835835592,6.098639952927389,1.021390676498413,-2.456524435673849
1708443074.981599,-2.135955572128296,-1.3324831289104004,-2.5288565794574183,6.0984778282936,1.0215214490890503,-2.458423439656393
1708443074.983598,-2.135932207107544,-1.3324668419412156,-2.5288520495044153,6.098289835243978,1.0215891599655151,-2.46043306985964
1708443074.985611,-2.1358282566070557,-1.332406075005867,-2.528936211262838,6.09810637214736,1.0216071605682373,-2.4624221960650843
1708443074.987617,-2.1357483863830566,-1.3323906374028702,-2.5289347807513636,6.09787796714858,1.0217288732528687,-2.464407745991842
1708443074.989603,-2.135692596435547,-1.3324191582253953,-2.5289586226092737,6.0977399227912805,1.0217831134796143,-2.4663692156421106
1708443074.9916399,-2.135580539703369,-1.3323949885419388,-2.5290561358081263,6.097511637001791,1.0218641757965088,-2.4684320131884974
1708443074.9936326,-2.1354925632476807,-1.3323875230601807,-2.5290306250201624,6.097356903343954,1.0219483375549316,-2.4705072085009974
1708443074.9956362,-2.135408639907837,-1.3323756170323868,-2.529099766408102,6.097164737969198,1.0220205783843994,-2.4725974241839808
1708443074.9976175,-2.135244369506836,-1.3323589873364945,-2.52914005914797,6.09696243980483,1.0220879316329956,-2.4745736757861536
1708443074.9996285,-2.1351938247680664,-1.3323308688453217,-2.5291672388659876,6.096814620285787,1.0221737623214722,-2.476574961339132
1708443075.0016289,-2.1351537704467773,-1.3323558580926438,-2.529236141835348,6.0966518996055505,1.0222772359848022,-2.478544298802511
1708443075.0036035,-2.135054111480713,-1.3323352348855515,-2.5292347113238733,6.096475469857015,1.02234947681427,-2.48053485551943
1708443075.0056229,-2.1349997520446777,-1.3323244911483307,-2.5292869249926966,6.096248256951132,1.0224050283432007,-2.4824639002429407
1708443075.0075984,-2.134883403778076,-1.3322831851295014,-2.529360596333639,6.096122371941366,1.0225056409835815,-2.4845238367663782
1708443075.0096033,-2.1347756385803223,-1.3322546643069764,-2.5293846766101282,6.0959099409873865,1.0226109027862549,-2.4865146319018763
1708443075.0116467,-2.134683132171631,-1.3322844517282029,-2.5294070879565638,6.095751273422994,1.0226244926452637,-2.4886027018176478
1708443075.0136135,-2.134586811065674,-1.3322678369334717,-2.529430929814474,6.095523345261373,1.022750973701477,-2.490626637135641
1708443075.0155954,-2.1345155239105225,-1.3322689992240448,-2.5294626394854944,6.09531985500411,1.0227943658828735,-2.4927690664874476
1708443075.017582,-2.1344120502471924,-1.3322070699981232,-2.529572073613302,6.0951894400413416,1.0228544473648071,-2.494863812123434
1708443075.0196204,-2.1343531608581543,-1.3322245192578812,-2.5296064058886927,6.0949405310447595,1.0229054689407349,-2.4969659487353724
1708443075.0216413,-2.134204387664795,-1.3322038662484665,-2.5296605269061487,6.094801294594564,1.02297043800354,-2.499105993901388
1708443075.0235999,-2.134148597717285,-1.3322007668069382,-2.529654328023092,6.094663131027975,1.0230125188827515,-2.501248900090353
1708443075.0256333,-2.1340889930725098,-1.3321753454259415,-2.5297070185290735,6.094442474633016,1.0231597423553467,-2.5034495035754603
1708443075.0276086,-2.133969306945801,-1.3321765971234818,-2.529764000569479,6.0942596075828455,1.0232197046279907,-2.5056257883654993
1708443075.029688,-2.1339011192321777,-1.3321405065110703,-2.529800001774923,6.094108807831564,1.023233413696289,-2.50780159631838
1708443075.0316586,-2.1337528228759766,-1.3320995432189484,-2.5298011938678187,6.093868481903829,1.0233266353607178,-2.5098395983325403
1708443075.0335972,-2.1336896419525146,-1.3321536195329209,-2.529883925114767,6.0937009928520105,1.023414969444275,-2.5119128862964075
1708443075.0356126,-2.1336307525634766,-1.3320710521987458,-2.5299020449267786,6.093534576683798,1.0234990119934082,-2.5139949957477015
1708443075.0376153,-2.133538246154785,-1.332080991273262,-2.5299633185016077,6.09329782703475,1.0235309600830078,-2.516055170689718
1708443075.0396216,-2.1334304809570312,-1.332097278242447,-2.529957119618551,6.09315966346816,1.0236361026763916,-2.5180657545672815
1708443075.0416212,-2.1333272457122803,-1.3320766252330323,-2.5300398508654993,6.092989074974813,1.0236918926239014,-2.5201409498797815
1708443075.0435941,-2.1332430839538574,-1.3320329797318955,-2.5300713221179407,6.092866050987997,1.0237442255020142,-2.5223198572741907
1708443075.045606,-2.1331236362457275,-1.3320287030986329,-2.530066792164938,6.092572319298544,1.0237982273101807,-2.5244017283069056
1708443075.0476031,-2.1330959796905518,-1.331984044318535,-2.530124012623922,6.092446195870199,1.0238765478134155,-2.5266080538379114
1708443075.04963,-2.132995367050171,-1.3319929403117676,-2.5301809946643274,6.092209327011862,1.0239276885986328,-2.5287509600268763
1708443075.0516503,-2.1329030990600586,-1.3319603961757203,-2.5302122274981897,6.092095362931051,1.024020791053772,-2.5309329668628138
1708443075.053603,-2.1328036785125732,-1.3319929254106064,-2.5302110354052942,6.091936695366659,1.0240390300750732,-2.5330873171435755
1708443075.055616,-2.13274884223938,-1.3319647324136277,-2.5302558580981653,6.091683137207784,1.024128794670105,-2.535239044819967
1708443075.0575943,-2.13266921043396,-1.3319199246219178,-2.5302706400500696,6.091504204064169,1.024184226989746,-2.537365738545553
1708443075.059618,-2.1326005458831787,-1.3319048893502732,-2.530323330556051,6.091394889145651,1.0241951942443848,-2.5395448843585413
1708443075.0616012,-2.132455348968506,-1.3319168102792283,-2.5303879419909876,6.09121464469985,1.0242594480514526,-2.5415266195880335
1708443075.0636148,-2.132375717163086,-1.3318961721709748,-2.5303788820849817,6.090998279839315,1.0243874788284302,-2.5435789267169397
1708443075.065637,-2.1322920322418213,-1.3319223386100312,-2.5304282347308558,6.090826618462362,1.0243889093399048,-2.545654598866598
1708443075.0676036,-2.1322522163391113,-1.3319136214307328,-2.530417505894796,6.09072886684493,1.0244252681732178,-2.54775315919985
1708443075.0696056,-2.132185220718384,-1.331831933265068,-2.5304389635669153,6.090543854027548,1.0244927406311035,-2.5497923533069056
1708443075.0716147,-2.1320810317993164,-1.331869126563408,-2.53049880663027,6.090422260552206,1.0245695114135742,-2.5519686380969446
1708443075.0735934,-2.1319756507873535,-1.3318331402591248,-2.530489746724264,6.090226399689474,1.0246310234069824,-2.5540104548083704
1708443075.0756214,-2.131917715072632,-1.3319236201098938,-2.5305257479297083,6.090021121292867,1.024637222290039,-2.5561731497394007
1708443075.0776327,-2.1318743228912354,-1.3318626296571274,-2.5305467287646692,6.089923131256857,1.0247043371200562,-2.5582712332354944
1708443075.0796108,-2.1318018436431885,-1.3317886453918,-2.5305827299701136,6.089755761414327,1.0247734785079956,-2.5604127089129847
1708443075.081636,-2.1317203044891357,-1.331806094651558,-2.5306113401996058,6.089612233429708,1.0248098373413086,-2.5626142660724085
1708443075.0836089,-2.1316418647766113,-1.331801713710167,-2.5307088533984583,6.089421021729269,1.0248485803604126,-2.564833704625265
1708443075.0856166,-2.1315295696258545,-1.3317700934461136,-2.5306788126574915,6.089229452400961,1.0248939990997314,-2.5670486132251185
1708443075.0875952,-2.1315362453460693,-1.3317450296929856,-2.5306742827044886,6.0890458700950525,1.024895429611206,-2.569151226674215
1708443075.0896096,-2.1314027309417725,-1.3318281036666413,-2.5306981245623987,6.088893520623007,1.0249899625778198,-2.571249787007467
1708443075.091629,-2.1313300132751465,-1.331704632644989,-2.530705515538351,6.08880768993453,1.0250515937805176,-2.5733092466937464
1708443075.0936472,-2.1312968730926514,-1.3317002219012757,-2.530768934880392,6.088619577675619,1.0249992609024048,-2.5753756205188196
1708443075.095621,-2.131204128265381,-1.3316971969655533,-2.5307582060443323,6.088483798294821,1.0250728130340576,-2.5773912111865442
1708443075.097597,-2.131103277206421,-1.3316570085338135,-2.5308287779437464,6.088271963387289,1.025108814239502,-2.5794926325427454
1708443075.0996506,-2.1310553550720215,-1.331645057802536,-2.5307565371142786,6.088149058609762,1.0251901149749756,-2.5815427939044397
1708443075.1016326,-2.1309828758239746,-1.3316613000682374,-2.53084379831423,6.088017451554098,1.025206446647644,-2.5837298075305384
1708443075.1036086,-2.130953311920166,-1.3316002947143097,-2.5308495203601282,6.087857234268942,1.025183916091919,-2.5858472029315394
1708443075.1056125,-2.130861282348633,-1.331670106654503,-2.5308948198901575,6.087722766190328,1.0252608060836792,-2.5880406538592737
1708443075.1076007,-2.130830764770508,-1.3316341054490586,-2.5308826605426233,6.087584721833029,1.025317907333374,-2.590170685444967
1708443075.109595,-2.1307454109191895,-1.3316384863904496,-2.5308781305896204,6.087395655899801,1.0253089666366577,-2.5923073927508753
1708443075.1116126,-2.1306653022766113,-1.3315936636975785,-2.5309186617480677,6.087252127915182,1.0253372192382812,-2.5944321791278284
1708443075.1135929,-2.130556344985962,-1.3316111278584977,-2.530933443699972,6.087107527046957,1.0254065990447998,-2.5966525713550013
1708443075.1156185,-2.130535840988159,-1.3316353124431153,-2.530962053929464,6.086989033013143,1.0253931283950806,-2.598792854939596
1708443075.1176162,-2.1304779052734375,-1.3315670502236863,-2.5309365431415003,6.086890089302816,1.025421380996704,-2.6009634176837366
1708443075.1195917,-2.130469560623169,-1.3316068065217515,-2.5309787432300013,6.086770283966818,1.0254456996917725,-2.603077236806051
1708443075.1216235,-2.1303701400756836,-1.3315428805402298,-2.5309575239764612,6.086650597840109,1.0254981517791748,-2.6051490942584437
1708443075.1235943,-2.130261182785034,-1.3315634590438385,-2.5309742132769983,6.086506235390463,1.025538682937622,-2.6072068850146692
1708443075.1256282,-2.130197763442993,-1.331547276382782,-2.530999724064962,6.086436378746786,1.0255340337753296,-2.6092830340014856
1708443075.1276026,-2.13020658493042,-1.3315103215030213,-2.5309935251819056,6.086223590164938,1.0255868434906006,-2.6112688223468226
1708443075.1296098,-2.130082130432129,-1.3315309596112748,-2.5310025850879114,6.086129057198324,1.0255777835845947,-2.6133278051959437
1708443075.1316087,-2.1300344467163086,-1.3314789098552247,-2.530984703694479,6.085993158608236,1.0256439447402954,-2.615533415471212
1708443075.133599,-2.1299777030944824,-1.3315080565265198,-2.5309651533709925,6.085807668953695,1.0256799459457397,-2.617566172276632
1708443075.1356063,-2.1299710273742676,-1.3314548295787354,-2.5309935251819056,6.085765945702352,1.0256741046905518,-2.6197288672076624
1708443075.1375873,-2.1298892498016357,-1.3314178150943299,-2.5310357252704065,6.085553991585531,1.0256831645965576,-2.6218794027911585
1708443075.1395922,-2.1299004554748535,-1.3314057004502793,-2.5309935251819056,6.085507380753317,1.0256741046905518,-2.623958174382345
1708443075.141605,-2.129835844039917,-1.331418828373291,-2.530963722859518,6.085306155472555,1.0257232189178467,-2.6260743776904505
1708443075.1435955,-2.1297261714935303,-1.3314309877208252,-2.531034056340353,6.085276829987325,1.025697946548462,-2.6282289663897913
1708443075.145625,-2.1296961307525635,-1.3314406436732789,-2.5310099760638636,6.085128056793966,1.025731086730957,-2.630348507558004
1708443075.1476068,-2.129594326019287,-1.3313787293485184,-2.531034056340353,6.0849798796470544,1.025697946548462,-2.632462803517477
1708443075.149599,-2.1296417713165283,-1.3313862544349213,-2.531058136616842,6.084897148400106,1.0257142782211304,-2.63453179994692
1708443075.1516657,-2.1295759677886963,-1.3313591939261933,-2.530991856251852,6.084793913155355,1.025709867477417,-2.6365273634540003
1708443075.1536205,-2.1295533180236816,-1.331363559966423,-2.5310054461108606,6.084702718048849,1.0256843566894531,-2.6386693159686487
1708443075.1556058,-2.12951922416687,-1.3313068759492417,-2.5310009161578577,6.08462010601119,1.0257174968719482,-2.640721146260397
1708443075.1576047,-2.129431962966919,-1.3313516688397904,-2.5310385862933558,6.084405886917867,1.0257853269577026,-2.642775599156515
1708443075.159584,-2.129380941390991,-1.3313473027995606,-2.5309889952289026,6.084302413254537,1.0257008075714111,-2.64482027689089
1708443075.1616237,-2.129328727722168,-1.3313081425479432,-2.5310145060168665,6.084219801216879,1.0256917476654053,-2.64692193666567
1708443075.1635902,-2.129260540008545,-1.3313112717917939,-2.5310054461108606,6.084090816765585,1.0257387161254883,-2.6489296595202845
1708443075.165633,-2.1292290687561035,-1.3312593412450333,-2.5310431162463587,6.083991515427389,1.0256843566894531,-2.6510167757617396
1708443075.1675842,-2.1292309761047363,-1.3312505048564454,-2.5310054461108606,6.083896028786459,1.0257220268249512,-2.6531205813037317
1708443075.169616,-2.1291732788085938,-1.3312505346587677,-2.531058136616842,6.083797085076132,1.025709867477417,-2.6551857630359095
1708443075.171626,-2.1291425228118896,-1.3312342327884217,-2.5310221354113978,6.083702194481649,1.025731086730957,-2.6572287718402308
1708443075.1735897,-2.129072427749634,-1.3311850738576432,-2.5310311953174036,6.083557951241293,1.025726556777954,-2.6594041029559534
1708443075.1756213,-2.1290292739868164,-1.3312102419188996,-2.5310099760638636,6.083531605988302,1.025731086730957,-2.661408249531881
1708443075.1775887,-2.128977060317993,-1.3312724244645615,-2.5309980551349085,6.083410846977987,1.0257008075714111,-2.6634483973132532
1708443075.1795943,-2.1289632320404053,-1.3312516969493409,-2.530996386204855,6.08333586433486,1.025726556777954,-2.6654320398913782
1708443075.1816034,-2.1289145946502686,-1.331240789299347,-2.5310099760638636,6.083190309792318,1.0257477760314941,-2.667309109364645
1708443075.1836212,-2.1288793087005615,-1.3312395376018067,-2.53105074564089,6.083147871285238,1.0257142782211304,-2.669298235570089
1708443075.1856122,-2.128880500793457,-1.3312482249787827,-2.5310054461108606,6.0830068466956995,1.0257188081741333,-2.671243492756979
1708443075.1876066,-2.1288094520568848,-1.3312408042005082,-2.5310221354113978,6.082948076515951,1.025705337524414,-2.673185412083761
1708443075.1896358,-2.1288113594055176,-1.3311516803554078,-2.531034056340353,6.082864033966818,1.025709867477417,-2.675103489552633
1708443075.1916084,-2.128746747970581,-1.3311593693545838,-2.5310385862933558,6.082751142769613,1.0257387161254883,-2.67708403268923
1708443075.1935856,-2.1287434101104736,-1.331117795114853,-2.5310431162463587,6.082716572075643,1.025688886642456,-2.679039541875021
1708443075.195596,-2.1287081241607666,-1.3311680120280762,-2.531017605458395,6.082601177483358,1.0257068872451782,-2.6810570398913782
1708443075.197585,-2.1286253929138184,-1.3311474037221451,-2.53105074564089,6.082499611168661,1.0257142782211304,-2.683056179677145
1708443075.1995788,-2.128598213195801,-1.3311927777579804,-2.5309725443469446,6.0824293968971155,1.0256904363632202,-2.6850577036487024
1708443075.2015994,-2.128628730773926,-1.331160531645157,-2.5310099760638636,6.08228479602889,1.0256904363632202,-2.68700081506838
1708443075.2035923,-2.1285629272460938,-1.3311244559339066,-2.5310190359698694,6.0822956440742395,1.0256741046905518,-2.6890042463885706
1708443075.2056248,-2.128523349761963,-1.3311288964799424,-2.5310311953174036,6.082189905434408,1.0257023572921753,-2.690986220036642
1708443075.2076004,-2.1285288333892822,-1.3310546737960358,-2.5309889952289026,6.082110631256857,1.0256574153900146,-2.69291598001589
1708443075.2096002,-2.1284711360931396,-1.3311288964799424,-2.531067196522848,6.0820714114005945,1.0256484746932983,-2.694899622594015
1708443075.2116244,-2.128492593765259,-1.3310189557126542,-2.5310476461993616,6.081922638207235,1.0256497859954834,-2.696826759968893
1708443075.2136092,-2.1284573078155518,-1.3310439151576539,-2.5310431162463587,6.081871497422018,1.025612473487854,-2.698691193257467
1708443075.215632,-2.1284074783325195,-1.331052691941597,-2.5309844652758997,6.081828224449911,1.0256422758102417,-2.7005978266345423
1708443075.2175906,-2.1283962726593018,-1.3310157519629975,-2.5309515635119837,6.081785785942831,1.0255810022354126,-2.702362362538473
1708443075.2195992,-2.128342866897583,-1.3310320687345047,-2.5309606234179896,6.081671702652731,1.0255687236785889,-2.7042959372149866
1708443075.221633,-2.128347396850586,-1.3309915524772187,-2.5309935251819056,6.081601011544027,1.0255855321884155,-2.7060676256762903
1708443075.2236032,-2.1283111572265625,-1.3309960526278992,-2.5309951941119593,6.081560599594869,1.0255446434020996,-2.7080803553210657
1708443075.225629,-2.128296375274658,-1.3310157817653199,-2.5309816042529505,6.081546294480123,1.025537371635437,-2.709996048604147
1708443075.227647,-2.1282758712768555,-1.331004725103714,-2.530962053929464,6.081421363144674,1.0255417823791504,-2.711914126073019
1708443075.2296014,-2.1282577514648438,-1.3310210567763825,-2.5309861342059534,6.081296551018514,1.025522232055664,-2.713836971913473
1708443075.2316442,-2.1281988620758057,-1.3309730303338547,-2.530962053929464,6.0813060877616785,1.0255146026611328,-2.7157579104052942
1708443075.23363,-2.128154754638672,-1.330955595975258,-2.5309575239764612,6.081225859909811,1.0255026817321777,-2.7176364103900355
1708443075.2356393,-2.1281850337982178,-1.3309276413968583,-2.530950133000509,6.081130373268881,1.0254814624786377,-2.719599787388937
1708443075.2375965,-2.1281771659851074,-1.3309079122594376,-2.530950133000509,6.081118094712057,1.0254077911376953,-2.7214887777911585
1708443075.2396333,-2.1280829906463623,-1.3309364330819626,-2.530942503605978,6.081047761231222,1.0254242420196533,-2.7234633604632776
1708443075.2416215,-2.128066301345825,-1.3309035909226914,-2.5309141317950647,6.08094202259139,1.025421380996704,-2.7253125349627894
1708443075.2436652,-2.1280694007873535,-1.330945150261261,-2.5308976809131067,6.080931293755331,1.0253719091415405,-2.727201286946432
1708443075.2456648,-2.1280853748321533,-1.3309495908072968,-2.5309067408191126,6.0808801529701135,1.0253853797912598,-2.729065004979269
1708443075.2476053,-2.128035545349121,-1.3309091341546555,-2.5308690706836146,6.080855953484335,1.0253612995147705,-2.7308979670154017
1708443075.249594,-2.12804913520813,-1.3308928620866318,-2.530837599431173,6.080751645355978,1.0253491401672363,-2.732774798070089
1708443075.2516565,-2.128021717071533,-1.3308678728393097,-2.5308449904071253,6.080757128983297,1.0252845287322998,-2.7345743815051478
1708443075.2536125,-2.128000497817993,-1.3308972430280228,-2.530858580266134,6.080619203835287,1.0252562761306763,-2.736380402241842
1708443075.2556353,-2.128013849258423,-1.3308766049197693,-2.53083306947817,6.080572354584493,1.0252608060836792,-2.7381864229785364
1708443075.2575874,-2.1279854774475098,-1.3308409315398713,-2.530846659337179,6.080552923470297,1.0252456665039062,-2.740082089100973
1708443075.259639,-2.127955913543701,-1.330845223074295,-2.530818287526266,6.080505358963766,1.0252248048782349,-2.7419315020190638
1708443075.2616372,-2.127955913543701,-1.3308539998582383,-2.530797068272726,6.080440747528829,1.0251885652542114,-2.7438469568835657
1708443075.263605,-2.1279287338256836,-1.330825464134552,-2.530822817479269,6.080360758095541,1.0251435041427612,-2.745796028767721
1708443075.2656305,-2.127925395965576,-1.330812321310379,-2.5308061281787317,6.080346333771505,1.0251283645629883,-2.7476826349841517
1708443075.2676208,-2.1278810501098633,-1.3307929050973435,-2.5307491461383265,6.080285298615255,1.0250760316848755,-2.749497715626852
1708443075.269606,-2.127901554107666,-1.3307842475226899,-2.5307655970202845,6.080242025643148,1.0250515937805176,-2.751486126576559
1708443075.2716222,-2.127910614013672,-1.330792875295021,-2.53072959581484,6.080190646439352,1.0250695943832397,-2.7533286253558558
1708443075.2735977,-2.127835750579834,-1.3307732057622452,-2.530725065861837,6.080198514252462,1.0250324010849,-2.7550986448871058
1708443075.2755873,-2.1277997493743896,-1.330776335006096,-2.530725065861837,6.080085503845968,1.025000810623169,-2.757007662449972
1708443075.2776406,-2.127784013748169,-1.330806927090027,-2.530705515538351,6.080013859062948,1.0249437093734741,-2.758915726338522
1708443075.2796493,-2.127829074859619,-1.3307656210711976,-2.530700985585348,6.080015647202291,1.024910569190979,-2.7606990973102015
1708443075.2815938,-2.127768039703369,-1.330762432222702,-2.5306862036334437,6.079923617630758,1.0248550176620483,-2.7624788920031946
1708443075.283633,-2.1278176307678223,-1.3307537001422425,-2.5306816736804407,6.079895126610555,1.0248595476150513,-2.7642996946917933
1708443075.285606,-2.1278061866760254,-1.3307417196086426,-2.53064996400942,6.079863416939535,1.024884819984436,-2.7660492102252405
1708443075.2875977,-2.1277520656585693,-1.3307005178979416,-2.5306833426104944,6.079774725228109,1.0247663259506226,-2.767874542866842
1708443075.2896261,-2.127746105194092,-1.330688552265503,-2.530659023915426,6.079738604813375,1.0247827768325806,-2.7696901003467005
1708443075.2916093,-2.127713203430176,-1.330660031442978,-2.530600611363546,6.079731809883871,1.0247721672058105,-2.7714462916003626
1708443075.293579,-2.127746105194092,-1.3307016801885148,-2.5305617491351526,6.079630720406332,1.0247108936309814,-2.773233954106466
1708443075.2955976,-2.1277382373809814,-1.330656961803772,-2.530614201222555,6.079608428269186,1.0246835947036743,-2.7750218550311487
1708443075.297593,-2.1276984214782715,-1.330628440981247,-2.5305405298816126,6.079543936043539,1.0246504545211792,-2.77692681947817
1708443075.2996578,-2.1276655197143555,-1.330747516160347,-2.5305753389941614,6.079484331398763,1.024619221687317,-2.7787132898913782
1708443075.3015938,-2.1276938915252686,-1.330681936149933,-2.530492607747213,6.079489815026083,1.024566650390625,-2.780579392110006
1708443075.3035796,-2.1276655197143555,-1.3306136292270203,-2.5305302778827112,6.079465615540304,1.0245498418807983,-2.7824390570269983
1708443075.3056154,-2.1276745796203613,-1.3306546074203034,-2.530518356953756,6.079340684204855,1.0245225429534912,-2.784287754689352
1708443075.3075907,-2.127653121948242,-1.3305883419564744,-2.5305033365832728,6.079279887467184,1.024507761001587,-2.7861231009112757
1708443075.309585,-2.1276133060455322,-1.3305732321790238,-2.53049880663027,6.07928632476882,1.0244669914245605,-2.787898842488424
1708443075.3116174,-2.127626895904541,-1.33061799526725,-2.5304446856128138,6.079266893654623,1.0244264602661133,-2.789624039326803
1708443075.3135898,-2.1276473999023438,-1.3306633096984406,-2.5304084459887903,6.079157221108236,1.0244027376174927,-2.7913809458362024
1708443075.315642,-2.1276280879974365,-1.3306093525937577,-2.5304508844958704,6.079055893212118,1.0243710279464722,-2.7930403391467493
1708443075.3175957,-2.1276021003723145,-1.330589548950531,-2.530410114918844,6.079077470093527,1.0243303775787354,-2.794872824345724
1708443075.3196142,-2.127561330795288,-1.3305569750121613,-2.530381743107931,6.079001533776083,1.0243394374847412,-2.7965543905841272
1708443075.3216245,-2.127561330795288,-1.3305688065341492,-2.530374352131979,6.07895706871108,1.0242868661880493,-2.798292938862936
1708443075.3236058,-2.1275339126586914,-1.3306026321700593,-2.5303788820849817,6.078966486244955,1.0242550373077393,-2.8000405470477503
1708443075.3256032,-2.127504825592041,-1.3306037348559876,-2.5303338209735315,6.078862178116598,1.0241695642471313,-2.8018015066729944
1708443075.327581,-2.1275136470794678,-1.3305416119149704,-2.530335251485006,6.078850257187643,1.0241663455963135,-2.8035414854632776
1708443075.329617,-2.1275181770324707,-1.330513746743538,-2.530264679585592,6.078795063286581,1.0241589546203613,-2.80530816713442
1708443075.331635,-2.1275229454040527,-1.3305545908263703,-2.530219618474142,6.078705775528707,1.0241107940673828,-2.8070955912219446
1708443075.3336089,-2.1274728775024414,-1.3305546206286927,-2.5302496592151087,6.078708159714498,1.0240657329559326,-2.8089066187488
1708443075.3356385,-2.12748646736145,-1.3305383038571854,-2.5302541891681116,6.078621971398153,1.024030089378357,-2.810733143483297
1708443075.3375764,-2.1274421215057373,-1.3304939281991501,-2.5302138964282435,6.078550565033712,1.0240436792373657,-2.8125725428210657
1708443075.339618,-2.1274659633636475,-1.3304689687541504,-2.530232016240255,6.078518855362692,1.023915410041809,-2.8143726030932825
1708443075.3416362,-2.127451181411743,-1.3304700565389176,-2.53017765680422,6.078454601555624,1.0239214897155762,-2.8161402384387415
1708443075.3436189,-2.12743878364563,-1.3305070263198395,-2.530132834111349,6.078472006111898,1.0239157676696777,-2.817866865788595
1708443075.3456228,-2.127443313598633,-1.3304820221713562,-2.5301674048053187,6.078458058625021,1.0238748788833618,-2.819585625325338
1708443075.3475842,-2.127373218536377,-1.3304788780263443,-2.5301299730883997,6.0783883211906335,1.0238507986068726,-2.821367327366964
1708443075.3496072,-2.1273910999298096,-1.3305038672736664,-2.530098263417379,6.078283655434408,1.0238181352615356,-2.823082987462179
1708443075.3516195,-2.1273910999298096,-1.3304103475860138,-2.530086342488424,6.078265654831686,1.0237789154052734,-2.8247740904437464
1708443075.3536472,-2.1273796558380127,-1.3304253083518525,-2.530074421559469,6.078188168793478,1.0236914157867432,-2.8265157381640833
1708443075.3556817,-2.1272923946380615,-1.3304189604571839,-2.530078951512472,6.078193652420797,1.0236977338790894,-2.8282609621631067
1708443075.3576,-2.1273388862609863,-1.3304546636394043,-2.5300291220294397,6.0781744597251794,1.023635983467102,-2.8299973646747034
1708443075.3596148,-2.127293586730957,-1.3304277074388047,-2.5299723784076136,6.078065264015951,1.0236284732818604,-2.8317282835589808
1708443075.3616297,-2.127319574356079,-1.3304103475860138,-2.5300024191485804,6.078070628433981,1.0235849618911743,-2.833470646535055
1708443075.3635876,-2.12729811668396,-1.3304070395282288,-2.529940668736593,6.077969658165731,1.0235562324523926,-2.835252825413839
1708443075.3656237,-2.127275228500366,-1.330415816312172,-2.529957119618551,6.077950227051534,1.0235906839370728,-2.8370512167560022
1708443075.3675845,-2.127275228500366,-1.3304233115962525,-2.529982868825094,6.0778859732444666,1.0235097408294678,-2.838784996663229
1708443075.3695908,-2.1271960735321045,-1.3303741675666352,-2.5299468676196497,6.077862131386556,1.0234318971633911,-2.840580765401022
1708443075.3716247,-2.1272854804992676,-1.3303578805974503,-2.5298476854907435,6.077778446465292,1.0234662294387817,-2.8424254099475306
1708443075.373593,-2.1272051334381104,-1.3303044003299256,-2.5298612753497522,6.077783930092611,1.023416519165039,-2.844224278126852
1708443075.3756387,-2.1272311210632324,-1.3303504151156922,-2.529841963444845,6.077706682472982,1.0233609676361084,-2.84603721300234
1708443075.3776147,-2.127146005630493,-1.33035163701091,-2.529846493397848,6.077670919686117,1.0233323574066162,-2.847877089177267
1708443075.3796022,-2.127161979675293,-1.3303297919086,-2.5298343340503138,6.077619540482321,1.0232677459716797,-2.8496413866626185
1708443075.3816211,-2.12712025642395,-1.3303547960570832,-2.5298269430743616,6.077514040261068,1.023222804069519,-2.8513978163348597
1708443075.3835924,-2.127150535583496,-1.330309973364212,-2.5297489801989954,6.077466356545248,1.023190975189209,-2.8531397024737757
1708443075.385616,-2.1271755695343018,-1.3303273928216477,-2.5297654310809534,6.077467548638143,1.023237943649292,-2.8549330870257776
1708443075.3876188,-2.1271517276763916,-1.3303273779204865,-2.529767100011007,6.077477443009176,1.0231431722640991,-2.8567031065570276
1708443075.389596,-2.1271073818206787,-1.3302698892406006,-2.529696289693014,6.077355730324545,1.023111343383789,-2.8584960142718714
1708443075.3916297,-2.1271040439605713,-1.330246017580368,-2.5297098795520228,6.0773446438606165,1.0230876207351685,-2.86025840440859
1708443075.3935974,-2.1271164417266846,-1.33024254560981,-2.5296829382525843,6.077304231911459,1.0230587720870972,-2.861959759389059
1708443075.3956354,-2.1270642280578613,-1.3303257536939164,-2.5296407381640833,6.077256548195638,1.0230108499526978,-2.8636720816241663
1708443075.3975918,-2.127091646194458,-1.3303301495364686,-2.5296664873706263,6.077164280205526,1.0230169296264648,-2.865436855946676
1708443075.3996203,-2.127089262008667,-1.3302100163749238,-2.529592816029684,6.077165353089132,1.0230047702789307,-2.8672316710101526
1708443075.4016063,-2.1270437240600586,-1.3302469712546845,-2.529592816029684,6.0771087286765955,1.0229687690734863,-2.8689661661731165
1708443075.4036136,-2.1270370483398438,-1.3302679520896454,-2.5296064058886927,6.077105510025778,1.0229192972183228,-2.8707101980792444
1708443075.4056044,-2.1270437240600586,-1.3301656407168885,-2.5295613447772425,6.077061879425802,1.0228592157363892,-2.872556749974386
1708443075.4076312,-2.1270041465759277,-1.3301817935756226,-2.5295732657061976,6.077008831291952,1.0228393077850342,-2.8743279615985315
1708443075.409597,-2.127012014389038,-1.3301993173411866,-2.529504362736837,6.076929437905111,1.022827386856079,-2.8761566321002405
1708443075.4116223,-2.1269588470458984,-1.3301949363997956,-2.529513422642843,6.076865303307333,1.0227705240249634,-2.8779526392566126
1708443075.4136248,-2.126944065093994,-1.3302036982825776,-2.529484812413351,6.07679699638442,1.0227628946304321,-2.8796208540545862
1708443075.4156437,-2.1269280910491943,-1.3301504415324708,-2.5294745604144495,6.076744425087728,1.0227642059326172,-2.881289307271139
1708443075.417591,-2.126948595046997,-1.3301961731961747,-2.5294414202319544,6.076794612198629,1.0227208137512207,-2.8830741087542933
1708443075.4195995,-2.126894235610962,-1.3301262271455307,-2.529417339955465,6.076718199044027,1.022642731666565,-2.8848522345172327
1708443075.4216163,-2.1268670558929443,-1.3301558059505005,-2.529426399861471,6.076661932259359,1.022601842880249,-2.886473004017965
1708443075.4236202,-2.1269009113311768,-1.3300892275622864,-2.529398028050558,6.076635587006368,1.0226109027862549,-2.888151232396261
1708443075.425624,-2.126883029937744,-1.3301438701203843,-2.5294116179095667,6.076538073807516,1.0225344896316528,-2.8898845354663294
1708443075.4276266,-2.126893997192383,-1.330148236160614,-2.52943998972048,6.076503264694967,1.022552490234375,-2.891616169606344
1708443075.4296346,-2.1268715858459473,-1.330131934290268,-2.5293784777270716,6.0764750120933435,1.0225030183792114,-2.8933563868152063
1708443075.4316268,-2.1268351078033447,-1.3301451069167634,-2.5293214956866663,6.0764760849769495,1.0225136280059814,-2.895144287739889
1708443075.4336226,-2.1267988681793213,-1.330120013361313,-2.5293095747577112,6.076366174011984,1.0224429368972778,-2.896794859563009
1708443075.4356291,-2.1268532276153564,-1.3300993305495759,-2.52932316461672,6.0763999102409265,1.0224065780639648,-2.898562494908468
1708443075.4375942,-2.126819372177124,-1.330128790145256,-2.529318634663717,6.076299774437704,1.0223796367645264,-2.9002562204944056
1708443075.4395978,-2.126840829849243,-1.3300917905620118,-2.529235903416769,6.076317178993978,1.022317886352539,-2.9020310083972376
1708443075.441619,-2.126845359802246,-1.3300961566022416,-2.5292285124408167,6.0761955855186365,1.0222774744033813,-2.903806273137228
1708443075.4436245,-2.1267919540405273,-1.330046923165657,-2.5292511622058313,6.076184499054708,1.02226722240448,-2.9055596033679407
1708443075.4456186,-2.1267964839935303,-1.330088735823967,-2.5292392412768763,6.076095568924703,1.0222835540771484,-2.9073100725757044
1708443075.447595,-2.1267828941345215,-1.330084354882576,-2.529227081929342,6.076080190926351,1.0222069025039673,-2.9091034571277063
1708443075.449613,-2.126739025115967,-1.3300557297519227,-2.529227081929342,6.076007592469015,1.022157073020935,-2.9108923117267054
1708443075.4516509,-2.1267716884613037,-1.3300275665572663,-2.529215161000387,6.076041209488668,1.0221631526947021,-2.9126349131213587
1708443075.4536662,-2.126760244369507,-1.3300438684276124,-2.5291627089129847,6.075969445496359,1.0221303701400757,-2.9143088499652308
1708443075.4556682,-2.1267342567443848,-1.3299756062081833,-2.5291672388659876,6.075949656754293,1.0221149921417236,-2.915995184575216
1708443075.457608,-2.1267263889312744,-1.3300109666636963,-2.5291054884540003,6.075913893967428,1.0220834016799927,-2.9176228682147425
1708443075.459599,-2.1267387866973877,-1.3299698692611237,-2.52914005914797,6.0758410570915125,1.0220597982406616,-2.919344727193014
1708443075.4616323,-2.1267082691192627,-1.3300121587565918,-2.529107157384054,6.075793373375692,1.0219902992248535,-2.921072308217184
1708443075.463614,-2.1267738342285156,-1.330032841568329,-2.5290454069720667,6.075806367188253,1.0219616889953613,-2.9227903524981897
1708443075.4656281,-2.1267216205596924,-1.3300121438554307,-2.5290754477130335,6.075742232590475,1.0219707489013672,-2.9244232813464563
1708443075.4676108,-2.126753330230713,-1.3299887341311951,-2.5290425459491175,6.075693475991049,1.0218849182128906,-2.926145617161886
1708443075.469594,-2.126737594604492,-1.3299756211093445,-2.5290051142321985,6.075681674271383,1.0218894481658936,-2.9278562704669397
1708443075.4716136,-2.126713752746582,-1.3299632978490372,-2.5290187040912073,6.075662958412924,1.0218583345413208,-2.929584328328268
1708443075.4735987,-2.126718282699585,-1.329972119336464,-2.528978411351339,6.075606334000387,1.021812915802002,-2.9313982168780726
1708443075.4756236,-2.12666392326355,-1.3299645644477387,-2.528987232838766,6.075611698418417,1.021798014640808,-2.933061424885885
1708443075.4775934,-2.126654863357544,-1.3299482625773926,-2.528949562703268,6.075550782471456,1.021710753440857,-2.934913221989767
1708443075.4796426,-2.1266355514526367,-1.329943836932518,-2.528954092656271,6.075546371727743,1.0217169523239136,-2.9367199579821985
1708443075.4816225,-2.126689910888672,-1.3298946034959336,-2.5289467016803187,6.075487959175863,1.021737813949585,-2.938552204762594
1708443075.4836178,-2.1266560554504395,-1.3299241823009034,-2.5289512316333216,6.075451957970419,1.021690011024475,-2.9402464071856897
1708443075.485631,-2.1266729831695557,-1.3299645644477387,-2.528870169316427,6.0754432556922815,1.0216326713562012,-2.941908899937765
1708443075.487631,-2.1266560554504395,-1.3299319607070466,-2.528849188481466,6.0754562495048425,1.0216385126113892,-2.943552080784933
1708443075.489632,-2.12666392326355,-1.329945222740509,-2.528870169316427,6.075399625092306,1.0215859413146973,-2.945324484501974
1708443075.4916146,-2.126664876937866,-1.329887108211853,-2.5288265387164515,6.075331437378683,1.0215412378311157,-2.946937147771017
1708443075.4936175,-2.1266446113586426,-1.3299495887807389,-2.5287981669055384,6.0752954361732385,1.0215049982070923,-2.9486172834979456
1708443075.4956195,-2.126612901687622,-1.3299003553441544,-2.5287743250476282,6.0752625344093225,1.0214807987213135,-2.9502888361560267
1708443075.4976025,-2.1266489028930664,-1.3298884344151993,-2.5287817160235804,6.075247752457418,1.021440029144287,-2.951965872441427
1708443075.4996014,-2.1266489028930664,-1.3298707914403458,-2.528719965611593,6.0752813694770715,1.0214416980743408,-2.953696076069967
1708443075.501637,-2.126664876937866,-1.3299003553441544,-2.528766695653097,6.075208532601156,1.0213847160339355,-2.9553564230548304
1708443075.5035884,-2.1266422271728516,-1.3298959744027634,-2.528738085423605,6.0751919625099084,1.0213412046432495,-2.957038704548971
1708443075.505618,-2.1266086101531982,-1.3298689436963578,-2.5286598841296595,6.075160491257467,1.0213664770126343,-2.958734099064962
1708443075.5076084,-2.126612901687622,-1.3299091917327424,-2.528678003941671,6.075099813729086,1.021304726600647,-2.9603901545154017
1708443075.509593,-2.126628875732422,-1.329848275785782,-2.528720204030172,6.075137722283163,1.0212434530258179,-2.9621973673449915
1708443075.511611,-2.1266446113586426,-1.329843894844391,-2.528628651295797,6.075055229454794,1.0212451219558716,-2.9639459292041224
1708443075.513622,-2.1266489028930664,-1.3298241657069703,-2.528687063847677,6.075091945915975,1.0211519002914429,-2.9656620661364954
1708443075.5156217,-2.126628875732422,-1.3297946465066453,-2.5285969416247767,6.075129139214315,1.0212104320526123,-2.9673615137683313
1708443075.5176132,-2.1266605854034424,-1.3298122596791764,-2.5286060015307825,6.0750563023384,1.0211200714111328,-2.9690399805652063
1708443075.5195901,-2.1266775131225586,-1.3298360270312806,-2.5285821596728724,6.074995386391439,1.0210844278335571,-2.970795456563131
1708443075.5216415,-2.1266860961914062,-1.329778404240944,-2.5286241213427942,6.074962961464681,1.0210646390914917,-2.972506586705343
1708443075.5236046,-2.12666916847229,-1.3298122596791764,-2.528562847767965,6.074964034348287,1.0210374593734741,-2.974246088658468
1708443075.5256236,-2.1266605854034424,-1.3298285913518448,-2.52850848833193,6.075012671738424,1.0210256576538086,-2.9759302775012415
1708443075.527633,-2.1266772747039795,-1.3298197251609345,-2.528567377720968,6.075037824898519,1.0209521055221558,-2.9775996843921106
1708443075.529623,-2.1266446113586426,-1.3298123192838212,-2.5284817854510706,6.075009333878317,1.020918607711792,-2.97913366953005
1708443075.5316365,-2.1266353130340576,-1.3298329424909134,-2.5285356680499476,6.074960219651022,1.02094566822052,-2.980771843587057
1708443075.5336347,-2.1266307830810547,-1.329829753642418,-2.5284772554980677,6.074931251793661,1.020867943763733,-2.9823153654681605
1708443075.5356455,-2.1266534328460693,-1.3298165810159226,-2.528487745915548,6.074912059098043,1.0208598375320435,-2.983971182500021
1708443075.5376208,-2.126628875732422,-1.3298254621079941,-2.5284786860095423,6.07501374462203,1.0207700729370117,-2.985593620930807
1708443075.5396528,-2.126617193222046,-1.3298360717347641,-2.528433624898092,6.074977504998007,1.0208182334899902,-2.9871845881091517
1708443075.5416229,-2.1266560554504395,-1.3298047196916123,-2.528409783040182,6.0749690411384485,1.0207147598266602,-2.9886861483203333
1708443075.5436635,-2.126664876937866,-1.3298210364631196,-2.528435293828146,6.075006115227499,1.020703911781311,-2.990347925816671
1708443075.5456338,-2.126621723175049,-1.3297111702016373,-2.5283995310412806,6.074960338860311,1.020670771598816,-2.991912905369894
