Eg3-git/Classifiers/Data Collection/u8/u8star5_ur3e_joint_states.csv
time,elbow_joint,shoulder_lift_joint,shoulder_pan_joint,wrist_1_joint,wrist_2_joint,wrist_3_joint
1708443096.603906,-2.169032335281372,-1.3397773069194336,-2.5163405577289026,6.170132505684652,0.99843430519104,-3.160901133214132
1708443096.6059337,-2.169036626815796,-1.3397609454444428,-2.516287390385763,6.17020999172286,0.9984461069107056,-3.160872999821798
1708443096.6078968,-2.169064998626709,-1.3398056340268631,-2.5163286367999476,6.1701815007026575,0.9983709454536438,-3.1608567873584192
1708443096.6098967,-2.169074058532715,-1.3398011487773438,-2.5162962118731897,6.170173990517416,0.9984342455863953,-3.1608997027026575
1708443096.6119184,-2.1690385341644287,-1.3397639256766816,-2.5163658300982874,6.170206534653463,0.9984371662139893,-3.160872999821798
1708443096.6138968,-2.1689960956573486,-1.3397981238416214,-2.516291681920187,6.170177209168234,0.9984252452850342,-3.160877529774801
1708443096.6159275,-2.169034242630005,-1.3397564452937623,-2.516337219868795,6.1701934216316126,0.9984490871429443,-3.1609013716327112
1708443096.617898,-2.1690571308135986,-1.3397936683944245,-2.5163405577289026,6.170177209168234,0.9984044432640076,-3.160926405583517
1708443096.6198916,-2.1690480709075928,-1.3397773218205948,-2.5163329283343714,6.170169579773702,0.9984580278396606,-3.16089374223818
1708443096.6219606,-2.1690499782562256,-1.3397387129119416,-2.516362253819601,6.170218694000997,0.9984490871429443,-3.1609306971179407
1708443096.623901,-2.1689870357513428,-1.3398219656995316,-2.5163286367999476,6.1701815007026575,0.9984252452850342,-3.160901133214132
1708443096.6259105,-2.1690571308135986,-1.3397773069194336,-2.5162842909442347,6.1701403734977625,0.9984297156333923,-3.16089374223818
1708443096.6278992,-2.169008255004883,-1.3397892278483887,-2.5163124243365687,6.170144784241476,0.998420774936676,-3.160921875630514
1708443096.629891,-2.1689915657043457,-1.3397848022035141,-2.5162842909442347,6.1701490757759,0.9984326958656311,-3.1608849207507532
1708443096.6319206,-2.1690173149108887,-1.3398100447705765,-2.5163167158709925,6.1701934216316126,0.9984445571899414,-3.1608567873584192
1708443096.633906,-2.1690526008605957,-1.3398308616927643,-2.516341511403219,6.17017291763381,0.9984535574913025,-3.1608923117267054
1708443096.6359138,-2.169041156768799,-1.3397892278483887,-2.516337219868795,6.170156705170431,0.9984342455863953,-3.1608758608447474
1708443096.6378844,-2.1690526008605957,-1.3398189854672928,-2.5162962118731897,6.170156705170431,0.998420774936676,-3.160901133214132
1708443096.6398926,-2.169034242630005,-1.3397728663733979,-2.5163243452655237,6.170196997910299,0.998420774936676,-3.1609132925616663
1708443096.6419106,-2.1690704822540283,-1.3397772920182724,-2.516319815312521,6.170156705170431,0.9984044432640076,-3.160921875630514
1708443096.643893,-2.1690614223480225,-1.3397981238416214,-2.516319815312521,6.170144784241476,0.9984580278396606,-3.1609013716327112
1708443096.6459434,-2.169041156768799,-1.3397936683944245,-2.516331974660055,6.170230614929952,0.9984044432640076,-3.1609583536731165
1708443096.647918,-2.1690118312835693,-1.3398383569768448,-2.5163405577289026,6.170214283257284,0.9984117150306702,-3.160929505025045
1708443096.6498935,-2.169069528579712,-1.3397444945624848,-2.5163777510272425,6.170165288239279,0.9984297156333923,-3.160901133214132
1708443096.6519275,-2.169029712677002,-1.3398427826217194,-2.5163615385638636,6.170226204186239,0.9983665347099304,-3.16091758409609
1708443096.6539261,-2.1690614223480225,-1.3397401583245774,-2.516308132802145,6.170144784241476,0.9984416365623474,-3.1608997027026575
1708443096.655951,-2.1690127849578857,-1.3397848022035141,-2.516337219868795,6.170136081963339,0.9984490871429443,-3.1608923117267054
1708443096.6579053,-2.1690456867218018,-1.3397445392659684,-2.5163536707507532,6.170197713166036,0.9984624981880188,-3.16091758409609
1708443096.6598933,-2.1690616607666016,-1.3398308467916031,-2.5163570086108606,6.170156705170431,0.9984163641929626,-3.1608594099627894
1708443096.6619205,-2.1690163612365723,-1.3398100447705765,-2.5163286367999476,6.170135962754049,0.9984490871429443,-3.160905663167135
1708443096.6638978,-2.169029712677002,-1.3397773069194336,-2.5163243452655237,6.170214283257284,0.9984163641929626,-3.16091758409609
1708443096.6659276,-2.169034242630005,-1.3397639703801651,-2.5163243452655237,6.17020212390975,0.9984580278396606,-3.1609471479998987
1708443096.6679175,-2.169025182723999,-1.3397936683944245,-2.516364638005392,6.170246827393331,0.9984657764434814,-3.1609514395343226
1708443096.6699176,-2.169069528579712,-1.3397728663733979,-2.516331974660055,6.170160996704855,0.9984043836593628,-3.1609013716327112
1708443096.6719244,-2.1690456867218018,-1.3398383271745224,-2.516336266194479,6.17020212390975,0.998425304889679,-3.16091758409609
1708443096.6739078,-2.1690163612365723,-1.339768410926201,-2.516291681920187,6.170165288239279,0.9984326958656311,-3.16091758409609
1708443096.6759024,-2.169055938720703,-1.3398011487773438,-2.5163448492633265,6.17017291763381,0.998420774936676,-3.1609464327441614
1708443096.6778874,-2.169025182723999,-1.3398502481034775,-2.5163701216327112,6.17017291763381,0.9983999133110046,-3.1609671751605433
1708443096.6798859,-2.169090747833252,-1.3397817474654694,-2.5163570086108606,6.170201289444723,0.9984535574913025,-3.1609013716327112
1708443096.6819177,-2.1690163612365723,-1.3397728663733979,-2.516308132802145,6.170160996704855,0.9984776377677917,-3.1609464327441614
1708443096.683892,-2.1690526008605957,-1.3398100447705765,-2.5163405577289026,6.1701934216316126,0.998437225818634,-3.1609204451190394
1708443096.6859078,-2.1690738201141357,-1.3398219656995316,-2.5163448492633265,6.170168506890096,0.9984747171401978,-3.1608713308917444
1708443096.6878867,-2.169041156768799,-1.3398011487773438,-2.5163570086108606,6.1701403734977625,0.9984490871429443,-3.1609132925616663
1708443096.6898875,-2.169069528579712,-1.3397639703801651,-2.5163536707507532,6.17017291763381,0.9984490871429443,-3.160905663167135
1708443096.6918964,-2.1690502166748047,-1.3397490245154877,-2.516287390385763,6.170246827393331,0.99842369556427,-3.1609419027911585
1708443096.6938927,-2.1690456867218018,-1.3397564899972458,-2.5163448492633265,6.170160996704855,0.9984490871429443,-3.160938326512472
1708443096.695895,-2.1690783500671387,-1.3397936683944245,-2.516315523778097,6.170184719353475,0.9984567761421204,-3.160933796559469
1708443096.6978967,-2.169041156768799,-1.339784787302353,-2.516331974660055,6.170226204186239,0.9984731674194336,-3.160933796559469
1708443096.6999018,-2.169020652770996,-1.3397564899972458,-2.5163124243365687,6.17020999172286,0.9984478950500488,-3.1609674135791224
1708443096.7019074,-2.1690571308135986,-1.339784787302353,-2.5163124243365687,6.170160996704855,0.9984326362609863,-3.160933796559469
1708443096.7038956,-2.1690783500671387,-1.3397728663733979,-2.5163005034076136,6.170169579773702,0.9984641671180725,-3.1609509626971644
1708443096.705906,-2.169027805328369,-1.3397981238416214,-2.5163243452655237,6.170168506890096,0.9984985589981079,-3.1609419027911585
1708443096.70789,-2.1690499782562256,-1.3397714358619233,-2.516291681920187,6.170205700188436,0.9985059499740601,-3.1609790960894983
1708443096.709881,-2.169095277786255,-1.3397639703801651,-2.516308132802145,6.170160996704855,0.9984895586967468,-3.1609085241900843
1708443096.7119215,-2.169069528579712,-1.3397936683944245,-2.516311232243673,6.170123803406515,0.998504638671875,-3.160913054143087
1708443096.7138972,-2.1690616607666016,-1.3398294311812897,-2.5163491407977503,6.170189130097189,0.9984895586967468,-3.160933796559469
1708443096.715928,-2.169069528579712,-1.3398339015296479,-2.5163491407977503,6.170184719353475,0.9984806180000305,-3.1609249750720423
1708443096.7179124,-2.1690526008605957,-1.3398219656995316,-2.516336266194479,6.170144784241476,0.998525857925415,-3.16091758409609
1708443096.7199283,-2.1690571308135986,-1.3397564899972458,-2.5163689295398157,6.1701403734977625,0.998525857925415,-3.1609628836261194
1708443096.7219102,-2.1690616607666016,-1.3397728663733979,-2.516319815312521,6.170104372292318,0.9984924793243408,-3.1609373728381556
1708443096.7238884,-2.169095277786255,-1.3397892278483887,-2.5163405577289026,6.170185792237081,0.9985091686248779,-3.1609419027911585
1708443096.725904,-2.169060468673706,-1.339740128522255,-2.5163689295398157,6.170128094940939,0.9984879493713379,-3.1609249750720423
1708443096.7279134,-2.169086217880249,-1.339780331855156,-2.5163448492633265,6.1701533673103235,0.9984924793243408,-3.1608877817737024
1708443096.7298882,-2.169060468673706,-1.339780331855156,-2.516336266194479,6.170231687813558,0.998518168926239,-3.160901133214132
1708443096.731895,-2.169020891189575,-1.3397773069194336,-2.5163777510272425,6.170165288239279,0.9985123872756958,-3.160934034978048
1708443096.7339027,-2.1691102981567383,-1.339768410926201,-2.516344134007589,6.170128214150228,0.9985349178314209,-3.1609376112567347
1708443096.7358942,-2.1690571308135986,-1.339747594004013,-2.5163405577289026,6.170160996704855,0.9985137581825256,-3.1609509626971644
1708443096.737911,-2.1690526008605957,-1.339768410926201,-2.516315523778097,6.170210826187887,0.9985349178314209,-3.160971705113546
1708443096.7398992,-2.169090747833252,-1.33975204945121,-2.5163689295398157,6.170156705170431,0.9985014796257019,-3.1609628836261194
1708443096.7418895,-2.169090747833252,-1.3398189407638093,-2.516327444707052,6.1701533673103235,0.9984970092773438,-3.160913054143087
1708443096.7438939,-2.1690526008605957,-1.33975204945121,-2.5163491407977503,6.170230614929952,0.9985304474830627,-3.1610000769244593
1708443096.745927,-2.169039011001587,-1.3397936683944245,-2.516327444707052,6.17017291763381,0.9984970092773438,-3.1608997027026575
1708443096.7479408,-2.169093370437622,-1.3398308616927643,-2.5163820425616663,6.170189130097189,0.9984686374664307,-3.1609492937671106
1708443096.7500038,-2.169081926345825,-1.3397595149329682,-2.5163689295398157,6.170190202980795,0.998504638671875,-3.1609864870654505
1708443096.7519155,-2.169060468673706,-1.3398219656995316,-2.51638108888735,6.1701815007026575,0.9984878897666931,-3.1609085241900843
1708443096.7538896,-2.169086217880249,-1.3397564899972458,-2.516352717076437,6.1701533673103235,0.9984806180000305,-3.1609373728381556
1708443096.7559056,-2.169102430343628,-1.33975204945121,-2.516319815312521,6.170162069588461,0.998504638671875,-3.1609159151660364
1708443096.7578974,-2.1690738201141357,-1.3398383271745224,-2.516319815312521,6.170160996704855,0.998504638671875,-3.1609330813037317
1708443096.7598925,-2.1690614223480225,-1.3398144853166123,-2.5163405577289026,6.1701533673103235,0.998492419719696,-3.160901133214132
1708443096.761919,-2.169027805328369,-1.3398264062455674,-2.5163658300982874,6.170162069588461,0.9985092282295227,-3.160913054143087
1708443096.7638965,-2.1690118312835693,-1.3398338866284867,-2.5163658300982874,6.170160996704855,0.9985136985778809,-3.1608968416797083
1708443096.7658985,-2.1690526008605957,-1.3398175102523346,-2.5163405577289026,6.170136797219076,0.9985663890838623,-3.1609674135791224
1708443096.7679176,-2.169029712677002,-1.339718983774521,-2.516348425542013,6.170145499497213,0.9985242486000061,-3.1609583536731165
1708443096.7698846,-2.169086456298828,-1.3397773069194336,-2.5163689295398157,6.1701663611228845,0.9985586404800415,-3.1609745661364954
1708443096.7719016,-2.1690616607666016,-1.3397728663733979,-2.516303602849142,6.170194613724508,0.9985304474830627,-3.160938326512472
1708443096.7738895,-2.169034481048584,-1.3398294311812897,-2.5162950197802942,6.170092212944784,0.998516857624054,-3.160913054143087
1708443096.7758906,-2.1690571308135986,-1.339768410926201,-2.516352717076437,6.170144784241476,0.9985540509223938,-3.1608920733081263
1708443096.777887,-2.169032335281372,-1.3397936683944245,-2.5163777510272425,6.170181619911947,0.9985123872756958,-3.1609583536731165
1708443096.779893,-2.169043779373169,-1.3398100447705765,-2.516311232243673,6.17012499549941,0.998525857925415,-3.1608877817737024
1708443096.78191,-2.169106960296631,-1.3397936683944245,-2.5163689295398157,6.170169579773702,0.9985001683235168,-3.1609583536731165
1708443096.7839324,-2.169069528579712,-1.3397773069194336,-2.516348425542013,6.170136797219076,0.9985496401786804,-3.1609628836261194
1708443096.7858922,-2.169069528579712,-1.33975204945121,-2.5163405577289026,6.170135962754049,0.9984970092773438,-3.1609495321856897
1708443096.7878857,-2.169041156768799,-1.3397609454444428,-2.5164061228381556,6.170120584755697,0.9985091686248779,-3.1609702746020716
1708443096.7898862,-2.169027805328369,-1.3397892278483887,-2.5163405577289026,6.170173990517416,0.9985091686248779,-3.1609161535846155
1708443096.791907,-2.169086217880249,-1.3397862029126664,-2.5163570086108606,6.170157778054037,0.9985798597335815,-3.1609419027911585
1708443096.7939095,-2.169069528579712,-1.3398308616927643,-2.516352717076437,6.170165288239279,0.998504638671875,-3.1609373728381556
1708443096.7959182,-2.1690571308135986,-1.339735673075058,-2.5163167158709925,6.170145499497213,0.998528778553009,-3.1609085241900843
1708443096.7979019,-2.169032335281372,-1.3398353022388,-2.5163286367999476,6.17011188247756,0.9985001683235168,-3.1609702746020716
1708443096.7998955,-2.1690526008605957,-1.3397981238416214,-2.5163405577289026,6.170132505684652,0.9985091686248779,-3.160913054143087
1708443096.8018944,-2.169086456298828,-1.3397892278483887,-2.516360346470968,6.170142280846395,0.9985213279724121,-3.1609509626971644
1708443096.8039057,-2.1690480709075928,-1.3397758913091202,-2.5163570086108606,6.1701217768485925,0.9984879493713379,-3.1609419027911585
1708443096.8058918,-2.1690163612365723,-1.3397936683944245,-2.5163286367999476,6.170136797219076,0.9984924793243408,-3.1610000769244593
1708443096.8079138,-2.169093608856201,-1.3397609454444428,-2.516315523778097,6.1701533673103235,0.9985045790672302,-3.1609373728381556
1708443096.809881,-2.169081926345825,-1.3397773069194336,-2.5163777510272425,6.170157778054037,0.9984670281410217,-3.1609085241900843
1708443096.8118904,-2.169064998626709,-1.3397892278483887,-2.516308132802145,6.170104372292318,0.9985496401786804,-3.1609671751605433
1708443096.813879,-2.1690526008605957,-1.3397817474654694,-2.516336266194479,6.170105206757345,0.9985001683235168,-3.1609159151660364
1708443096.815886,-2.169064998626709,-1.3397594851306458,-2.5163689295398157,6.170169579773702,0.998528778553009,-3.160933796559469
1708443096.8179064,-2.169086456298828,-1.3397773069194336,-2.5163405577289026,6.170113074570455,0.9985332489013672,-3.160929505025045
1708443096.819879,-2.169036626815796,-1.3397609454444428,-2.5163286367999476,6.17015420177535,0.998516857624054,-3.1609464327441614
1708443096.8219056,-2.169081926345825,-1.33978924274955,-2.5163448492633265,6.170173990517416,0.9984878897666931,-3.1609745661364954
1708443096.8238723,-2.169090747833252,-1.3397892278483887,-2.5163448492633265,6.170113074570455,0.9985586404800415,-3.1609419027911585
1708443096.8259,-2.169074058532715,-1.33975204945121,-2.516336266194479,6.170165288239279,0.998504638671875,-3.1609419027911585
1708443096.8278759,-2.169064998626709,-1.339747594004013,-2.516336266194479,6.170117366104879,0.9985241889953613,-3.160913054143087
1708443096.8299022,-2.169027805328369,-1.3397892278483887,-2.5163493792163294,6.170080172806539,0.9985512495040894,-3.1609538237201136
1708443096.8319154,-2.1690480709075928,-1.33975204945121,-2.516303602849142,6.170117366104879,0.998504638671875,-3.1609042326556605
1708443096.8339112,-2.169069528579712,-1.3398011487773438,-2.516352717076437,6.170117366104879,0.998525857925415,-3.1609373728381556
1708443096.835917,-2.169106960296631,-1.3397892278483887,-2.516348425542013,6.170137989311971,0.9985422492027283,-3.160942856465475
1708443096.837884,-2.169032096862793,-1.339768410926201,-2.5163167158709925,6.17006396034316,0.9985001683235168,-3.1609821955310267
1708443096.8398936,-2.1690773963928223,-1.3398100447705765,-2.5163405577289026,6.170043456345358,0.998525857925415,-3.1608877817737024
1708443096.8419106,-2.169106960296631,-1.3398100447705765,-2.516336266194479,6.170100796013632,0.9985332489013672,-3.1609419027911585
1708443096.8438885,-2.169095277786255,-1.339768410926201,-2.5163732210742396,6.170097577362814,0.9984956979751587,-3.1609419027911585
1708443096.8459392,-2.1690571308135986,-1.3398011487773438,-2.5163732210742396,6.170088994293966,0.9984956979751587,-3.1609464327441614
1708443096.847904,-2.1690480709075928,-1.3398144853166123,-2.516308132802145,6.170158612519064,0.9985242486000061,-3.160913054143087
1708443096.849891,-2.1690526008605957,-1.3397936683944245,-2.5163360277758997,6.170056450157919,0.9984834790229797,-3.1609509626971644
1708443096.8519142,-2.1690480709075928,-1.3398308616927643,-2.516308132802145,6.170039880066671,0.998528778553009,-3.1609509626971644
1708443096.8538988,-2.1690163612365723,-1.3397936683944245,-2.5163243452655237,6.170146810799398,0.9985091686248779,-3.1609464327441614
1708443096.8559253,-2.169086217880249,-1.339784787302353,-2.5163448492633265,6.170097696572103,0.9985332489013672,-3.1609085241900843
1708443096.8579016,-2.1690118312835693,-1.3398056340268631,-2.5162962118731897,6.170049655228414,0.9985001683235168,-3.1609776655780237
1708443096.859899,-2.169039011001587,-1.3397490245154877,-2.5163286367999476,6.170016038208761,0.9985136985778809,-3.1608951727496546
1708443096.8619165,-2.169023036956787,-1.3397936683944245,-2.516315523778097,6.170103180199423,0.9985045790672302,-3.1610029379474085
1708443096.8638818,-2.169036626815796,-1.3397892278483887,-2.516315523778097,6.170049655228414,0.998530387878418,-3.160928551350729
1708443096.8659077,-2.169081926345825,-1.3397653859904786,-2.5163777510272425,6.170082437783041,0.9985136985778809,-3.16091758409609
1708443096.8678856,-2.1690571308135986,-1.3397639703801651,-2.5163405577289026,6.170000660210409,0.998525857925415,-3.160929505025045
1708443096.8699052,-2.1690526008605957,-1.3397981238416214,-2.516360346470968,6.170012938767233,0.9985213279724121,-3.1609419027911585
1708443096.8719049,-2.1690526008605957,-1.3397981238416214,-2.5163405577289026,6.170012938767233,0.9985001087188721,-3.1609419027911585
1708443096.873919,-2.169032096862793,-1.3397609454444428,-2.5163689295398157,6.170009362488546,0.9984970092773438,-3.160929505025045
1708443096.8759043,-2.169102430343628,-1.3398175102523346,-2.5164030233966272,6.170070278435507,0.998504638671875,-3.1609538237201136
1708443096.8778806,-2.169097900390625,-1.3397728663733979,-2.5163732210742396,6.170037734299459,0.9984760284423828,-3.1609116236316126
1708443096.8798919,-2.1690163612365723,-1.3398145300200959,-2.516352717076437,6.170012819557943,0.9985137581825256,-3.160913054143087
1708443096.8826606,-2.1690773963928223,-1.3398100447705765,-2.5163570086108606,6.1699843285377405,0.9984879493713379,-3.1609419027911585
1708443096.8841252,-2.169043779373169,-1.3398055893233796,-2.5163491407977503,6.169988739281454,0.9985304474830627,-3.1609249750720423
1708443096.8859067,-2.169055938720703,-1.3397758466056366,-2.5163491407977503,6.169980037003317,0.9984940886497498,-3.1609464327441614
1708443096.8879054,-2.169060468673706,-1.3397892278483887,-2.5163942019092005,6.170037734299459,0.998525857925415,-3.1609793345080774
1708443096.889871,-2.169088840484619,-1.3397609156421204,-2.5163732210742396,6.170016038208761,0.9985332489013672,-3.1609330813037317
1708443096.8918974,-2.169090747833252,-1.3397862029126664,-2.5163658300982874,6.170042264252462,0.9985348582267761,-3.1609836260425013
1708443096.8938825,-2.1690728664398193,-1.3398219656995316,-2.5163329283343714,6.170040952950277,0.9984760284423828,-3.16091758409609
1708443096.895927,-2.169027805328369,-1.33975204945121,-2.51638633409609,6.170037734299459,0.9984834790229797,-3.1609793345080774
1708443096.8978946,-2.169064998626709,-1.3397639703801651,-2.5163405577289026,6.169997441559591,0.9985137581825256,-3.1609793345080774
1708443096.8998957,-2.1690480709075928,-1.3397729110768815,-2.5163701216327112,6.1700302241142175,0.9985213279724121,-3.1609419027911585
1708443096.901933,-2.169064998626709,-1.3398011487773438,-2.5163405577289026,6.1700172303016565,0.9984806180000305,-3.1609085241900843
1708443096.903884,-2.1690118312835693,-1.339768410926201,-2.5163448492633265,6.170058476715841,0.9984850883483887,-3.1609628836261194
1708443096.9059398,-2.1690773963928223,-1.3397981238416214,-2.5163491407977503,6.170017111092367,0.998496949672699,-3.160928551350729
1708443096.9079115,-2.169064998626709,-1.3398144853166123,-2.5163615385638636,6.170048582344808,0.9985136985778809,-3.1609464327441614
1708443096.9098988,-2.1690480709075928,-1.3397609454444428,-2.5163405577289026,6.170046436577596,0.998494029045105,-3.1609419027911585
1708443096.9119034,-2.1690773963928223,-1.3397773069194336,-2.5163448492633265,6.17001365402297,0.9985182285308838,-3.1609583536731165
1708443096.9138842,-2.169081926345825,-1.339718983774521,-2.516303602849142,6.169968116074362,0.998525857925415,-3.160934034978048
1708443096.915913,-2.169097900390625,-1.3398264062455674,-2.5163448492633265,6.170065986901083,0.9984596967697144,-3.1609204451190394
1708443096.9178956,-2.1690728664398193,-1.339763955479004,-2.516331974660055,6.170053946762838,0.998543918132782,-3.1609419027911585
1708443096.9199126,-2.169043779373169,-1.3397773069194336,-2.5163124243365687,6.17002152183608,0.9984597563743591,-3.1609039942370813
1708443096.9219391,-2.169086456298828,-1.339784787302353,-2.5163124243365687,6.16998444774703,0.9985015392303467,-3.1609419027911585
1708443096.92392,-2.169106960296631,-1.3398219656995316,-2.516308132802145,6.170053946762838,0.998483419418335,-3.1609836260425013
1708443096.9259188,-2.169102430343628,-1.3398100298694153,-2.5162962118731897,6.169972526818075,0.9984806180000305,-3.1609702746020716
1708443096.9279,-2.169086456298828,-1.3398055893233796,-2.5163167158709925,6.170033442765035,0.9984970092773438,-3.1609628836261194
1708443096.9298882,-2.1690480709075928,-1.339784787302353,-2.516336266194479,6.1700583575065515,0.9984806180000305,-3.1609910170184534
1708443096.9319322,-2.169069528579712,-1.3398264062455674,-2.5163491407977503,6.170009362488546,0.9984642267227173,-3.1609509626971644
1708443096.9338968,-2.1690571308135986,-1.3397936683944245,-2.516308132802145,6.170037734299459,0.9985059499740601,-3.1609373728381556
1708443096.9359121,-2.16904354095459,-1.3397521090558548,-2.5163329283343714,6.169996368675985,0.9984432458877563,-3.1609583536731165
1708443096.9378943,-2.169032335281372,-1.3397683960250397,-2.516319815312521,6.170000660210409,0.9985059499740601,-3.1609657446490687
1708443096.9398873,-2.1690726280212402,-1.3398472231677552,-2.5163536707507532,6.170053946762838,0.9984522461891174,-3.1609509626971644
1708443096.9418955,-2.169027805328369,-1.3397312325290223,-2.5163732210742396,6.169981229096212,0.9984642267227173,-3.1609657446490687
1708443096.9438848,-2.1691057682037354,-1.3397431534579773,-2.5163491407977503,6.170000660210409,0.9984445571899414,-3.1609159151660364
1708443096.9459143,-2.169055938720703,-1.339790703063347,-2.5162788073169153,6.169997441559591,0.9984970092773438,-3.160928551350729
1708443096.9479172,-2.169088840484619,-1.339740128522255,-2.5163286367999476,6.17001365402297,0.9984445571899414,-3.161004606877462
1708443096.9498854,-2.169081926345825,-1.3398011487773438,-2.5163124243365687,6.1700172303016565,0.99842369556427,-3.1609464327441614
1708443096.9518948,-2.1691317558288574,-1.339740128522255,-2.5163329283343714,6.169988739281454,0.998491108417511,-3.1609821955310267
1708443096.9538958,-2.169084310531616,-1.3397430938533326,-2.516336266194479,6.170034515648641,0.9984490871429443,-3.1609745661364954
1708443096.955949,-2.169081926345825,-1.3397115033916016,-2.516308132802145,6.170022356301107,0.9984461069107056,-3.1609249750720423
1708443096.9579034,-2.169064998626709,-1.3397234243205567,-2.5163491407977503,6.170033442765035,0.9984490871429443,-3.160901133214132
1708443096.9598873,-2.169102430343628,-1.3397683960250397,-2.5163448492633265,6.1700302241142175,0.9984163045883179,-3.160929505025045
1708443096.961904,-2.1690480709075928,-1.3397728663733979,-2.5163329283343714,6.170029151230612,0.9984043836593628,-3.1609745661364954
1708443096.9638917,-2.169039011001587,-1.3397728663733979,-2.516291681920187,6.17001365402297,0.9983999133110046,-3.1608920733081263
1708443096.965894,-2.169039011001587,-1.3397966784289856,-2.5163243452655237,6.17001365402297,0.9984371662139893,-3.1609249750720423
1708443096.967911,-2.169093370437622,-1.3398189407638093,-2.5163374582873743,6.17001365402297,0.9984116554260254,-3.1609464327441614
1708443096.9699426,-2.169029951095581,-1.3397684705308457,-2.5163124243365687,6.170046436577596,0.9984224438667297,-3.1609492937671106
1708443096.971902,-2.1690526008605957,-1.3397936683944245,-2.5163536707507532,6.170008528023519,0.9984326958656311,-3.1609249750720423
1708443096.9738917,-2.169069528579712,-1.3397980791381379,-2.5163448492633265,6.169963824539938,0.9983876943588257,-3.1609330813037317
1708443096.9759128,-2.16904354095459,-1.3397817474654694,-2.5162797609912317,6.1700583575065515,0.9984670281410217,-3.1609864870654505
1708443096.9778862,-2.1690683364868164,-1.339792252784111,-2.5163243452655237,6.170008528023519,0.9983876943588257,-3.1608803907977503
1708443096.9798992,-2.1690526008605957,-1.3397817474654694,-2.5163448492633265,6.170033442765035,0.9984535574913025,-3.1609554926501673
1708443096.9818878,-2.169097900390625,-1.3397728663733979,-2.5163329283343714,6.169963824539938,0.9984297156333923,-3.1609492937671106
1708443096.9838846,-2.169097900390625,-1.339784787302353,-2.5163243452655237,6.1700453636939905,0.9984580278396606,-3.1609509626971644
1708443096.9858937,-2.169055938720703,-1.3398025643876572,-2.5163210074054163,6.170025932579794,0.99843430519104,-3.1609492937671106
1708443096.987907,-2.169114828109741,-1.3397773069194336,-2.516337219868795,6.170020448952474,0.998420774936676,-3.1609821955310267
1708443096.9898899,-2.169084310531616,-1.3397892278483887,-2.5163124243365687,6.16996060588912,0.9984416365623474,-3.1609745661364954
1708443096.9918778,-2.169064998626709,-1.3398383271745224,-2.5162959734546106,6.169980037003317,0.9984044432640076,-3.160945002232687
1708443096.993887,-2.169088840484619,-1.33975204945121,-2.516291681920187,6.169959533005514,0.998420774936676,-3.1609509626971644
1708443096.995893,-2.169093370437622,-1.3398218911937256,-2.5163047949420374,6.170042145043173,0.9984624981880188,-3.1609776655780237
1708443096.9978907,-2.1691272258758545,-1.339796708231308,-2.5163491407977503,6.169988739281454,0.9984461069107056,-3.1609538237201136
1708443096.999877,-2.169055938720703,-1.3398130697062989,-2.5163124243365687,6.16998444774703,0.9984535574913025,-3.1609821955310267
1708443097.0018966,-2.1690773963928223,-1.3397981089404603,-2.5163090864764612,6.170029151230612,0.9984490871429443,-3.1608877817737024
1708443097.0038798,-2.1690726280212402,-1.3397847724011918,-2.5163286367999476,6.169988739281454,0.9984371662139893,-3.1609373728381556
1708443097.0058877,-2.169081926345825,-1.3398055893233796,-2.516291681920187,6.170095550804891,0.9984461069107056,-3.1609628836261194
1708443097.0078754,-2.169123888015747,-1.3398100447705765,-2.5163448492633265,6.170042145043173,0.998420774936676,-3.1609330813037317
1708443097.009875,-2.1690728664398193,-1.3397698265365143,-2.5162962118731897,6.170078980713644,0.9984416365623474,-3.1609249750720423
1708443097.0118744,-2.1691012382507324,-1.3397966933301468,-2.5163448492633265,6.17007468917922,0.9984297156333923,-3.1609116236316126
1708443097.0138874,-2.1690797805786133,-1.3397534650615235,-2.5163078943835657,6.17007468917922,0.9984416365623474,-3.1610029379474085
1708443097.0158813,-2.169060468673706,-1.3397639256766816,-2.516341749821798,6.170054065972128,0.9984535574913025,-3.1609419027911585
1708443097.0179029,-2.1691102981567383,-1.3398145300200959,-2.5163491407977503,6.17007468917922,0.9984133243560791,-3.1609910170184534
1708443097.0198889,-2.169093608856201,-1.3397728663733979,-2.5163405577289026,6.169951903610983,0.9984792470932007,-3.160929505025045
1708443097.0218875,-2.169060468673706,-1.3397936683944245,-2.5163286367999476,6.170095550804891,0.998408854007721,-3.1609085241900843
1708443097.023884,-2.169119358062744,-1.3398011487773438,-2.5163405577289026,6.17009865024642,0.998420774936676,-3.1609419027911585
1708443097.0259223,-2.169106960296631,-1.3397654008916398,-2.5163286367999476,6.170029151230612,0.9983831644058228,-3.1609249750720423
1708443097.027907,-2.169088840484619,-1.3397653859904786,-2.516337219868795,6.1700453636939905,0.9984252452850342,-3.1609492937671106
1708443097.0298998,-2.1690683364868164,-1.3397639703801651,-2.5163570086108606,6.1700583575065515,0.9984702467918396,-3.1609657446490687
1708443097.0318913,-2.1690514087677,-1.3398100447705765,-2.5163655916797083,6.170070278435507,0.9984252452850342,-3.1608789602862757
1708443097.0339181,-2.169060468673706,-1.3398591440967103,-2.5163329283343714,6.170090067177572,0.9984252452850342,-3.1609628836261194
1708443097.0359013,-2.169093608856201,-1.3397728663733979,-2.5163374582873743,6.170008528023519,0.9983921647071838,-3.1608997027026575
1708443097.0378876,-2.1690514087677,-1.3397639256766816,-2.5163701216327112,6.170036661415853,0.9983709454536438,-3.160961453114645
1708443097.039886,-2.169097900390625,-1.339826450949051,-2.5163613001452845,6.17007468917922,0.9984133243560791,-3.1609538237201136
1708443097.041884,-2.169119358062744,-1.3397878420403977,-2.5163329283343714,6.170025932579794,0.998408854007721,-3.1609492937671106
1708443097.043889,-2.1690683364868164,-1.339784787302353,-2.5163243452655237,6.170004951744833,0.9984624981880188,-3.1609657446490687
1708443097.045895,-2.1691181659698486,-1.3398025643876572,-2.5163405577289026,6.170042145043173,0.9983831644058228,-3.1609509626971644
1708443097.047903,-2.1690592765808105,-1.33975204945121,-2.5163124243365687,6.170073854714193,0.9984371066093445,-3.160928551350729
1708443097.0498843,-2.1691181659698486,-1.3398025643876572,-2.5163286367999476,6.170073854714193,0.9984703063964844,-3.1609373728381556
1708443097.0519164,-2.169093608856201,-1.3397773069194336,-2.5163734594928187,6.170016038208761,0.9984342455863953,-3.1609702746020716
1708443097.053921,-2.169069528579712,-1.3397312325290223,-2.516303602849142,6.170090067177572,0.998420774936676,-3.1609085241900843
1708443097.0558953,-2.1690480709075928,-1.3397475493005295,-2.516308132802145,6.170041072159567,0.9984461069107056,-3.1609464327441614
1708443097.0578713,-2.1691339015960693,-1.3397847724011918,-2.516357962285177,6.170049655228414,0.9984415769577026,-3.1609793345080774
1708443097.0598853,-2.1690638065338135,-1.3397802871516724,-2.5163329283343714,6.170057284622946,0.9984252452850342,-3.1609464327441614
1708443097.0618997,-2.169084310531616,-1.3397728514722367,-2.516308132802145,6.170065867691793,0.9984534978866577,-3.1609419027911585
1708443097.0638962,-2.1690683364868164,-1.3397445541671296,-2.5163124243365687,6.170061576157369,0.9983921647071838,-3.1609657446490687
1708443097.06589,-2.1691226959228516,-1.3398249310306092,-2.5163005034076136,6.170041072159567,0.998396635055542,-3.1609836260425013
1708443097.0678751,-2.1691057682037354,-1.3397847724011918,-2.516336266194479,6.170036661415853,0.9983664751052856,-3.160913054143087
1708443097.0698836,-2.1690797805786133,-1.339784787302353,-2.516337219868795,6.17006944397048,0.998417854309082,-3.1609042326556605
1708443097.0718892,-2.1691091060638428,-1.3398011487773438,-2.5163243452655237,6.170094358711996,0.998408854007721,-3.160929505025045
1708443097.073906,-2.1690514087677,-1.3397892278483887,-2.516299311314718,6.170106279640951,0.9984535574913025,-3.1610000769244593
1708443097.075909,-2.1690967082977295,-1.3398472827724,-2.5163448492633265,6.170101988106527,0.9984281659126282,-3.1609159151660364
1708443097.0778995,-2.1690773963928223,-1.3398353618434449,-2.5163491407977503,6.170077073365011,0.9984444975852966,-3.160945002232687
1708443097.0798965,-2.169093608856201,-1.3397847724011918,-2.516303602849142,6.170081364899435,0.9984535574913025,-3.160929505025045
1708443097.0819223,-2.169088840484619,-1.3397683960250397,-2.5163405577289026,6.170098769455709,0.9984163045883179,-3.1609745661364954
1708443097.0838919,-2.169088840484619,-1.3398100596717377,-2.516319815312521,6.1701063988502405,0.9984580278396606,-3.1609249750720423
1708443097.0859156,-2.1691091060638428,-1.3397728514722367,-2.516337219868795,6.170105206757345,0.998420774936676,-3.160924259816305
1708443097.0879004,-2.1691102981567383,-1.3397728365710755,-2.5163210074054163,6.170158612519064,0.9984821677207947,-3.1609793345080774
1708443097.0898886,-2.169088840484619,-1.3398011487773438,-2.5163536707507532,6.170084583550253,0.9984252452850342,-3.1609538237201136
1708443097.0919125,-2.1691384315490723,-1.3398219806006928,-2.516291681920187,6.17006396034316,0.9984371662139893,-3.1609085241900843
1708443097.093907,-2.1691384315490723,-1.3398056042245408,-2.516311232243673,6.170190322190084,0.9984252452850342,-3.1609821955310267
1708443097.0959413,-2.1691250801086426,-1.3397817623666306,-2.516336266194479,6.170194613724508,0.9984461069107056,-3.1609249750720423
1708443097.0978973,-2.1690967082977295,-1.3397683662227173,-2.5163448492633265,6.1701934216316126,0.9984163045883179,-3.1609419027911585
1708443097.0998833,-2.1691410541534424,-1.3397817623666306,-2.5163448492633265,6.170218694000997,0.9984580278396606,-3.1609085241900843
1708443097.1019154,-2.1691102981567383,-1.3397519898465653,-2.5163360277758997,6.170196997910299,0.9984163045883179,-3.1610029379474085
1708443097.1038842,-2.1690967082977295,-1.3398145300200959,-2.5162962118731897,6.170230614929952,0.9984579682350159,-3.1609085241900843
1708443097.1059132,-2.1690754890441895,-1.3398056042245408,-2.5163329283343714,6.170189130097189,0.9984911680221558,-3.1609674135791224
1708443097.107908,-2.169097900390625,-1.3397966933301468,-2.5163615385638636,6.170205700188436,0.9984490871429443,-3.1609612146960657
1708443097.1099072,-2.1691296100616455,-1.3398189854672928,-2.5163243452655237,6.170208918839254,0.9984416365623474,-3.1609821955310267
1708443097.1119092,-2.1691091060638428,-1.3398100596717377,-2.516331974660055,6.170205700188436,0.9984791874885559,-3.1609419027911585
1708443097.1138983,-2.1691102981567383,-1.3397683960250397,-2.5163570086108606,6.170213210373678,0.9984416365623474,-3.1609159151660364
1708443097.115919,-2.1690502166748047,-1.3397936832955857,-2.5163732210742396,6.170197713166036,0.9984490871429443,-3.1609821955310267
1708443097.1178935,-2.169084310531616,-1.3397847724011918,-2.5163820425616663,6.170213210373678,0.9985074400901794,-3.160928551350729
1708443097.1198869,-2.1691339015960693,-1.3398056042245408,-2.5163491407977503,6.170168506890096,0.9984490871429443,-3.1609745661364954
1708443097.1219249,-2.1690967082977295,-1.3398339015296479,-2.516336266194479,6.170213210373678,0.9984490871429443,-3.1609492937671106
1708443097.1239274,-2.1691431999206543,-1.3397609305432816,-2.5163658300982874,6.170275318413534,0.9984326958656311,-3.1609583536731165
1708443097.1259227,-2.1691136360168457,-1.3397847724011918,-2.516336266194479,6.170213210373678,0.9985194206237793,-3.1609776655780237
1708443097.1279027,-2.1691181659698486,-1.3397802871516724,-2.516337219868795,6.170230614929952,0.9984281659126282,-3.161006037388937
1708443097.1298945,-2.1690592765808105,-1.33978924274955,-2.516319815312521,6.170241343766012,0.9984567761421204,-3.1609612146960657
1708443097.1319098,-2.169055938720703,-1.3397714358619233,-2.516336266194479,6.170258748322286,0.998494029045105,-3.160985056553976
1708443097.1338959,-2.1691296100616455,-1.3397803169539948,-2.516331974660055,6.170225131302633,0.9984970092773438,-3.1609492937671106
1708443097.1359122,-2.1691250801086426,-1.3397444945624848,-2.5163570086108606,6.17020462730483,0.998494029045105,-3.1609702746020716
1708443097.137878,-2.169088840484619,-1.3397550147822876,-2.516364638005392,6.170245635300436,0.998518168926239,-3.1609745661364954
1708443097.1398907,-2.1690967082977295,-1.3397936832955857,-2.516291681920187,6.170213210373678,0.998516857624054,-3.160902802144186
1708443097.1419249,-2.1690924167633057,-1.3398414117148896,-2.5162962118731897,6.170226204186239,0.9985001087188721,-3.1609492937671106
1708443097.1439064,-2.1691226959228516,-1.3398547631553193,-2.5162957350360315,6.1702579138572595,0.998483419418335,-3.1609702746020716
1708443097.1459002,-2.1690833568573,-1.3398131293109437,-2.5163689295398157,6.170212137490072,0.9985091686248779,-3.1609700361834925
1708443097.1479301,-2.1691181659698486,-1.3397936832955857,-2.516331974660055,6.170262205391683,0.9984551072120667,-3.160996977482931
1708443097.149887,-2.1691205501556396,-1.3397847724011918,-2.5163899103747767,6.1702120182807825,0.9985304474830627,-3.1609776655780237
1708443097.1519084,-2.1691160202026367,-1.339838371878006,-2.5163405577289026,6.17028175571517,0.9984878897666931,-3.1609776655780237
1708443097.1538985,-2.1690921783447266,-1.3398130697062989,-2.5163570086108606,6.170262205391683,0.998542308807373,-3.1609700361834925
1708443097.1559265,-2.169088840484619,-1.3397966784289856,-2.5163448492633265,6.170274126320638,0.9985361099243164,-3.160973135625021
1708443097.1579015,-2.1691455841064453,-1.3399071854403992,-2.5163243452655237,6.170253622322836,0.9985451698303223,-3.1610222498523157
1708443097.1598973,-2.1690797805786133,-1.339826450949051,-2.516311232243673,6.170232641487875,0.9985377192497253,-3.161025349293844
1708443097.1619298,-2.1691296100616455,-1.339829446082451,-2.516364638005392,6.170286166458883,0.998516857624054,-3.161001507435934
1708443097.163887,-2.1691319942474365,-1.3398131293109437,-2.5163689295398157,6.170269834786215,0.9985377192497253,-3.1609984079944056
1708443097.1659238,-2.1691319942474365,-1.3397846829942246,-2.516348425542013,6.170240509300985,0.9985737204551697,-3.1610267798053187
1708443097.1678956,-2.1691365242004395,-1.3398384016803284,-2.516360346470968,6.1702849743659876,0.9985483884811401,-3.160996977482931
1708443097.1699138,-2.1691057682037354,-1.3397609305432816,-2.516327444707052,6.170310246735372,0.998528778553009,-3.161034170781271
1708443097.17191,-2.1691410541534424,-1.339830906396248,-2.5163405577289026,6.170256721764364,0.9985707998275757,-3.161034170781271
1708443097.173881,-2.1691160202026367,-1.3397847724011918,-2.516327444707052,6.17023931720809,0.9985242486000061,-3.160968844090597
1708443097.1758783,-2.1691365242004395,-1.3398175251534958,-2.516388718281881,6.1702730534370325,0.9985618591308594,-3.160992685948507
1708443097.1778665,-2.1691713333129883,-1.3398130697062989,-2.516376797352926,6.170322167664327,0.9985618591308594,-3.161025349293844
1708443097.1798666,-2.1690921783447266,-1.3398056042245408,-2.5163899103747767,6.170329677849569,0.9985288381576538,-3.160992685948507
1708443097.1818795,-2.169111728668213,-1.3397922378829499,-2.516360346470968,6.170370089798727,0.9986350536346436,-3.1610422770129603
1708443097.1838744,-2.1691160202026367,-1.339808614259102,-2.516364638005392,6.170407283097067,0.9986023306846619,-3.1610332171069544
1708443097.1858706,-2.1691181659698486,-1.3398175251534958,-2.516360346470968,6.170345055847921,0.9985647797584534,-3.1610541979419153
1708443097.1878848,-2.1691319942474365,-1.3397847724011918,-2.516393009816305,6.170369970589437,0.9985901117324829,-3.161016289387838
1708443097.189885,-2.1691365242004395,-1.3398383569768448,-2.516376797352926,6.170287358551779,0.9985737204551697,-3.1610987822162073
1708443097.191874,-2.1691296100616455,-1.3397848022035141,-2.516336266194479,6.1703364727790735,0.9985901117324829,-3.1610289255725306
1708443097.1938708,-2.1691296100616455,-1.3397966933301468,-2.516376797352926,6.170352685242452,0.9985647797584534,-3.1610897223102015
1708443097.1958687,-2.1691713333129883,-1.339750499730446,-2.5163689295398157,6.1702884314353845,0.9985856413841248,-3.161130730305807
1708443097.1978881,-2.169149875640869,-1.3398055893233796,-2.516360108052389,6.170307862549581,0.9986261129379272,-3.1610780397998255
1708443097.1998663,-2.1691205501556396,-1.3397758317044755,-2.516393009816305,6.170345055847921,0.9986052513122559,-3.1611107031451624
1708443097.2018702,-2.1691365242004395,-1.3398502779058,-2.516393009816305,6.170356976776876,0.9985933303833008,-3.161043945943014
1708443097.2038639,-2.1691579818725586,-1.3398011338761826,-2.516449276600973,6.170368897705831,0.9985963106155396,-3.1610527674304407
1708443097.2058725,-2.169095754623413,-1.339808629160263,-2.5164039770709437,6.170389759331503,0.9986506104469299,-3.161071840916769
1708443097.2078748,-2.169104814529419,-1.3398175549558182,-2.516421143208639,6.170356976776876,0.9986425042152405,-3.1611018816577356
1708443097.2098792,-2.169111728668213,-1.339836911564209,-2.5164859930621546,6.170356976776876,0.9986380338668823,-3.1610689798938196
1708443097.2118735,-2.1691622734069824,-1.3397922378829499,-2.5164485613452356,6.170373189240255,0.998629093170166,-3.161048237477438
1708443097.2138748,-2.1691319942474365,-1.339826450949051,-2.516444269810812,6.170368897705831,0.9986578226089478,-3.1610780397998255
1708443097.2159088,-2.1691319942474365,-1.339836911564209,-2.516439739857809,6.1703775999839685,0.9986127018928528,-3.1610780397998255
1708443097.2178857,-2.16915225982666,-1.3398547035506745,-2.5164857546435755,6.170339572220602,0.9985963702201843,-3.1610973517047327
1708443097.2198818,-2.169165849685669,-1.3398458075574418,-2.516472641621725,6.1703612683113,0.9985963106155396,-3.161071840916769
1708443097.2218807,-2.169095754623413,-1.339850292806961,-2.5164976755725306,6.170373189240255,0.9986052513122559,-3.1610899607287806
1708443097.223883,-2.1691577434539795,-1.339826450949051,-2.5164650122271937,6.1704091904456995,0.9986380338668823,-3.1610615889178675
1708443097.2258878,-2.1691250801086426,-1.3397474747947236,-2.516488854085104,6.1703940508659265,0.9985916614532471,-3.1610987822162073
1708443097.2278848,-2.169104814529419,-1.33981308460746,-2.516439739857809,6.170376765518942,0.9986035823822021,-3.1610942522632044
1708443097.2298806,-2.169177293777466,-1.3397936832955857,-2.5164879004107874,6.170401680260458,0.9986506104469299,-3.1610615889178675
1708443097.2318933,-2.169116258621216,-1.3398264658502121,-2.516472641621725,6.170404898911276,0.9986505508422852,-3.1610451380359095
1708443097.2338908,-2.169139862060547,-1.3398011338761826,-2.516500775014059,6.170426595001974,0.9986171722412109,-3.1610899607287806
1708443097.2358768,-2.1691579818725586,-1.3398205798915406,-2.5164604822741907,6.170417892723837,0.998646080493927,-3.1611138025866907
1708443097.2379062,-2.169161319732666,-1.3398339015296479,-2.516456190739767,6.170392977982321,0.9986624717712402,-3.1610899607287806
1708443097.239881,-2.169165849685669,-1.3398250055364151,-2.516456190739767,6.170385467797079,0.998615562915802,-3.1611269156085413
1708443097.2418962,-2.1691319942474365,-1.339883269076683,-2.5164647738086146,6.170323359757223,0.9986370205879211,-3.161064688359396
1708443097.2438843,-2.169165849685669,-1.339808629160263,-2.5164604822741907,6.170340764313497,0.9986370205879211,-3.161048237477438
1708443097.2458925,-2.1691908836364746,-1.3398175251534958,-2.5164812246905726,6.170327651291647,0.998632550239563,-3.161051098500387
1708443097.247943,-2.1691319942474365,-1.3397966635278244,-2.516488854085104,6.170401680260458,0.9986444711685181,-3.1610899607287806
1708443097.249906,-2.169198751449585,-1.339804158811905,-2.5165212790118616,6.170339572220602,0.9987029433250427,-3.1610809008227747
1708443097.2519255,-2.169170379638672,-1.3398175251534958,-2.516468350087301,6.170343982964315,0.9986906051635742,-3.1610780397998255
1708443097.2538893,-2.169177532196045,-1.3398427826217194,-2.516456190739767,6.170376765518942,0.9986489415168762,-3.1611107031451624
1708443097.2558968,-2.169165849685669,-1.3398744773915787,-2.516444985066549,6.170388686447897,0.9986726641654968,-3.161067549382345
1708443097.2578776,-2.1691274642944336,-1.339780331855156,-2.516468350087301,6.1704211113746545,0.9986984133720398,-3.1610689798938196
1708443097.2598977,-2.1691365242004395,-1.3398130399039765,-2.5164933840381067,6.1703680632408044,0.9986444711685181,-3.1610527674304407
1708443097.26188,-2.169139862060547,-1.3397639703801651,-2.516468350087301,6.17042230346755,0.9986281394958496,-3.1610854307757776
1708443097.2638795,-2.169165849685669,-1.3397922378829499,-2.516480271016256,6.170414674073019,0.9986817240715027,-3.1610780397998255
1708443097.2659082,-2.1691365242004395,-1.33981308460746,-2.516456190739767,6.1703799841697595,0.9986772537231445,-3.1611180941211146
1708443097.2679043,-2.169189691543579,-1.339810000067093,-2.516488854085104,6.170364486962118,0.9986399412155151,-3.1610899607287806
1708443097.2699175,-2.1691489219665527,-1.3398250204375763,-2.516439739857809,6.170401680260458,0.9986833930015564,-3.1610615889178675
1708443097.2718902,-2.169172763824463,-1.3398352575353165,-2.51643950143923,6.1704091904456995,0.9986444711685181,-3.1610899607287806
1708443097.2739246,-2.1691184043884277,-1.339813010101654,-2.516439739857809,6.170364486962118,0.9986489415168762,-3.1611314455615442
1708443097.2758954,-2.169207811355591,-1.3398700070432206,-2.516427818928854,6.170376765518942,0.9986698031425476,-3.1610899607287806
1708443097.277898,-2.169135332107544,-1.339820535188057,-2.5164814631091517,6.170413481980123,0.9986984133720398,-3.1610987822162073
1708443097.2798796,-2.16914439201355,-1.3398175698569794,-2.5164485613452356,6.170372473984518,0.9987073540687561,-3.1610809008227747
1708443097.2819264,-2.16914439201355,-1.3397891980460663,-2.5164485613452356,6.170351612358846,0.9986698031425476,-3.1611226240741175
1708443097.2838976,-2.169203281402588,-1.3397922080806275,-2.516439739857809,6.170330869942465,0.9986399412155151,-3.1610570589648646
1708443097.2859082,-2.1691477298736572,-1.339858056311943,-2.5164647738086146,6.1703810570533655,0.9986894130706787,-3.1611016432391565
1708443097.2878952,-2.1691319942474365,-1.339821920996048,-2.5164528528796595,6.170413481980123,0.9986772537231445,-3.161109272633688
1708443097.2898953,-2.169106960296631,-1.339808629160263,-2.5164485613452356,6.170392977982321,0.9986563920974731,-3.1610451380359095
1708443097.2919192,-2.1691806316375732,-1.339792252784111,-2.516444269810812,6.170360195427694,0.9986772537231445,-3.1610854307757776
1708443097.2939043,-2.169172763824463,-1.3398338866284867,-2.5164647738086146,6.170385467797079,0.9986894130706787,-3.161043945943014
1708443097.29591,-2.169177532196045,-1.3398160201362153,-2.516418997441427,6.170397269516744,0.9986608624458313,-3.1611018816577356
1708443097.2978985,-2.16915225982666,-1.339850292806961,-2.5164528528796595,6.1703810570533655,0.9986518621444702,-3.1610735098468226
1708443097.2998812,-2.169194221496582,-1.339824990635254,-2.516427818928854,6.170348274498739,0.9986653327941895,-3.161032025014059
1708443097.301885,-2.169161319732666,-1.339816005235054,-2.5164769331561487,6.170384394913473,0.9986984729766846,-3.1610780397998255
1708443097.3039088,-2.1691489219665527,-1.3398071092418213,-2.516456190739767,6.170343982964315,0.9986906051635742,-3.1611018816577356
1708443097.3058867,-2.16916823387146,-1.3398294311812897,-2.5164604822741907,6.170376765518942,0.9986772537231445,-3.1610942522632044
1708443097.3079183,-2.1691477298736572,-1.3398219656995316,-2.516439978276388,6.170376765518942,0.9986110925674438,-3.1610942522632044
1708443097.3098967,-2.169194221496582,-1.3398041737130661,-2.516477171574728,6.1703810570533655,0.9986953139305115,-3.1610987822162073
1708443097.3119102,-2.169185161590576,-1.3398713928512116,-2.51648456255068,6.170375573426046,0.9986563324928284,-3.161081139241354
1708443097.3138864,-2.1692111492156982,-1.3397966784289856,-2.5164769331561487,6.170372473984518,0.9986578822135925,-3.1610527674304407
1708443097.3159096,-2.169177293777466,-1.339808629160263,-2.516435448323385,6.170412409096517,0.9986326098442078,-3.161076609288351
1708443097.317903,-2.169185161590576,-1.3398413521102448,-2.516427818928854,6.170437681465902,0.9986861348152161,-3.161076609288351
1708443097.319907,-2.16916823387146,-1.339784787302353,-2.5164604822741907,6.1703680632408044,0.998674213886261,-3.161027495061056
1708443097.321901,-2.169198751449585,-1.3397922229817887,-2.516468350087301,6.170388686447897,0.9986489415168762,-3.1610854307757776
1708443097.3238962,-2.169161319732666,-1.3397996437600632,-2.516456190739767,6.170404898911276,0.9986698031425476,-3.161032025014059
1708443097.3258955,-2.16914439201355,-1.3398041737130661,-2.5164321104632776,6.170495021134176,0.9985991716384888,-3.1610615889178675
1708443097.3278925,-2.1692020893096924,-1.3398205500892182,-2.5164769331561487,6.170425402909078,0.9986489415168762,-3.1610942522632044
1708443097.3298862,-2.169189691543579,-1.3398338568261643,-2.516427818928854,6.170416819840231,0.9987028241157532,-3.1610496679889124
1708443097.3319254,-2.1691975593566895,-1.3398458075574418,-2.5164158979998987,6.170417892723837,0.9986578822135925,-3.1611226240741175
1708443097.3339024,-2.1691818237304688,-1.339832381611206,-2.516411606465475,6.170400607376852,0.9986817240715027,-3.1610689798938196
1708443097.3359265,-2.169185161590576,-1.3398294311812897,-2.5164528528796595,6.170424687653341,0.9986861944198608,-3.1611149946795862
1708443097.3378963,-2.169198751449585,-1.3398159903338929,-2.5164485613452356,6.170404898911276,0.9986772537231445,-3.1610689798938196
1708443097.3399029,-2.1692111492156982,-1.339824990635254,-2.516427818928854,6.170441973000326,0.9986109733581543,-3.1610615889178675
1708443097.3419085,-2.169165849685669,-1.339858056311943,-2.5164528528796595,6.1703680632408044,0.9986817240715027,-3.1610408465014856
1708443097.3438869,-2.16915225982666,-1.339796708231308,-2.5164199511157435,6.170392977982321,0.9986281394958496,-3.1610780397998255
1708443097.3459003,-2.169106960296631,-1.3397878122380753,-2.5164528528796595,6.170425402909078,0.9986155033111572,-3.1610615889178675
1708443097.3479166,-2.169218063354492,-1.3398294311812897,-2.5164201895343226,6.1703680632408044,0.9986444115638733,-3.1610451380359095
1708443097.3499231,-2.1691975593566895,-1.3398413521102448,-2.5164485613452356,6.170449602394857,0.9986817240715027,-3.161060158406393
1708443097.3519187,-2.169177532196045,-1.3398458075574418,-2.516472641621725,6.170425402909078,0.9986698031425476,-3.1610735098468226
1708443097.3539078,-2.1691975593566895,-1.3398413819125672,-2.5164201895343226,6.1703799841697595,0.9986399412155151,-3.1610704104052942
1708443097.355892,-2.169218063354492,-1.339808629160263,-2.5164406935321253,6.170388686447897,0.9986534118652344,-3.1610451380359095
1708443097.3578885,-2.169185161590576,-1.3398458075574418,-2.5164814631091517,6.170420396118917,0.9986534118652344,-3.1610587278949183
1708443097.3598995,-2.1691806316375732,-1.3398175102523346,-2.516439739857809,6.1703799841697595,0.9986461400985718,-3.1610541979419153
1708443097.3619044,-2.1692044734954834,-1.339816005235054,-2.5164528528796595,6.170400607376852,0.9986817836761475,-3.1610615889178675
1708443097.3638675,-2.1691975593566895,-1.3398669523051758,-2.5164647738086146,6.170441973000326,0.9986370801925659,-3.1610451380359095
1708443097.3658977,-2.1692020893096924,-1.3398175102523346,-2.5165019671069544,6.170441973000326,0.9986370205879211,-3.1610496679889124
1708443097.3678775,-2.16916823387146,-1.3398041737130661,-2.5164769331561487,6.170433389931478,0.9986578822135925,-3.1610243956195276
1708443097.3698661,-2.169194221496582,-1.339796708231308,-2.5164528528796595,6.170428979187765,0.9986127018928528,-3.1610541979419153
1708443097.371865,-2.1691806316375732,-1.339792252784111,-2.516510550175802,6.1704091904456995,0.9986370205879211,-3.1610615889178675
1708443097.3738728,-2.169163703918457,-1.3398041737130661,-2.5164201895343226,6.1703680632408044,0.9986789226531982,-3.1610496679889124
1708443097.3758671,-2.1691975593566895,-1.3398115646890183,-2.516444269810812,6.170392977982321,0.998674213886261,-3.160992685948507
1708443097.3778832,-2.169194221496582,-1.3397713613561173,-2.5164857546435755,6.170387494355001,0.9986461400985718,-3.1610119978534144
1708443097.3798683,-2.169163703918457,-1.339886338715889,-2.5164528528796595,6.170391905098715,0.9986461400985718,-3.1609955469714563
1708443097.3818839,-2.169163942337036,-1.3398011338761826,-2.516473356877462,6.17040382602767,0.9986670613288879,-3.1610541979419153
1708443097.3838782,-2.169194221496582,-1.3398294311812897,-2.5164485613452356,6.170416819840231,0.9986414909362793,-3.1610942522632044
1708443097.3858771,-2.169185161590576,-1.3398205202868958,-2.5164321104632776,6.170474517136373,0.9986414909362793,-3.1610377470599573
1708443097.3878832,-2.1692020893096924,-1.3398338866284867,-2.516444269810812,6.170436608582296,0.9986370205879211,-3.1610332171069544
1708443097.3898647,-2.169218063354492,-1.3398130697062989,-2.5164158979998987,6.170477735787191,0.9986080527305603,-3.1610794703113
1708443097.391894,-2.1691763401031494,-1.3398205500892182,-2.516444985066549,6.170474517136373,0.998646080493927,-3.1611226240741175
1708443097.3938673,-2.1692135334014893,-1.339874417786934,-2.5164485613452356,6.170412409096517,0.9986127018928528,-3.1610496679889124
1708443097.395898,-2.1691975593566895,-1.3397878420403977,-2.5164158979998987,6.170428979187765,0.998629093170166,-3.1610243956195276
1708443097.397892,-2.169189691543579,-1.3398446303657074,-2.5164201895343226,6.170424687653341,0.9986244440078735,-3.1610332171069544
1708443097.3999178,-2.169163942337036,-1.3398338866284867,-2.5164364019977015,6.170395004540243,0.9986380934715271,-3.1610422770129603
1708443097.4019072,-2.16916823387146,-1.3398130697062989,-2.5164406935321253,6.170486438065328,0.998629093170166,-3.1610332171069544
1708443097.4039094,-2.169217824935913,-1.3398382973722,-2.5164647738086146,6.170469033509054,0.9986171722412109,-3.1610661188708704
1708443097.4059129,-2.169152021408081,-1.33981308460746,-2.5164690653430384,6.1703985808189294,0.9986461400985718,-3.1610451380359095
1708443097.407887,-2.1692428588867188,-1.3398175102523346,-2.5163703600512903,6.170509445458212,0.9986335635185242,-3.1610377470599573
1708443097.4099016,-2.1692135334014893,-1.339829446082451,-2.5165181795703333,6.170542228012838,0.9986380934715271,-3.16099983850588
1708443097.411895,-2.169185161590576,-1.3397878122380753,-2.516427818928854,6.170569526940145,0.9986380934715271,-3.1610332171069544
1708443097.4138708,-2.169159412384033,-1.3398536008647461,-2.5164321104632776,6.17064248302535,0.9986425042152405,-3.161020819340841
1708443097.415896,-2.169189691543579,-1.3398369264653702,-2.5164571444140833,6.170609581261434,0.9985933899879456,-3.1610661188708704
1708443097.4178731,-2.169233798980713,-1.3397878271392365,-2.5164364019977015,6.170568454056539,0.9986142516136169,-3.1610332171069544
1708443097.4198787,-2.1692020893096924,-1.3398205649903794,-2.5164321104632776,6.1705814478691,0.9985933303833008,-3.1610117594348353
1708443097.4218993,-2.169243097305298,-1.3398249608329316,-2.5164201895343226,6.170593249588766,0.998609721660614,-3.1609748045550745
1708443097.4238884,-2.1692066192626953,-1.3397996437600632,-2.516477886830465,6.170613157540121,0.9986127018928528,-3.1610332171069544
1708443097.4258993,-2.1691930294036865,-1.339775801902153,-2.5164082686053675,6.1705641625221155,0.9986261129379272,-3.1610615889178675
1708443097.4279084,-2.169227123260498,-1.339836911564209,-2.516498629246847,6.170584666519918,0.9985721111297607,-3.1610377470599573
1708443097.4298856,-2.169206380844116,-1.3398699921420594,-2.5164201895343226,6.170596587448873,0.9985933303833008,-3.161020104085104
1708443097.43189,-2.1692066192626953,-1.3398323518088837,-2.516444985066549,6.170584666519918,0.9985843896865845,-3.160987917576925
1708443097.43392,-2.1691806316375732,-1.339845822458603,-2.5163801352130335,6.170547950058737,0.9985888600349426,-3.160976235066549
1708443097.4358907,-2.1691975593566895,-1.3397832822850724,-2.516453806553976,6.170584666519918,0.9986007809638977,-3.161016289387838
1708443097.4379146,-2.1691930294036865,-1.339824990635254,-2.51646596590151,6.170613157540121,0.9986216425895691,-3.161016289387838
1708443097.439889,-2.1692111492156982,-1.3398085993579407,-2.5164125601397913,6.1705442545707605,0.9985978603363037,-3.1610332171069544
1708443097.441894,-2.1691930294036865,-1.3398175102523346,-2.5164406935321253,6.170568454056539,0.9985647201538086,-3.161020819340841
1708443097.443918,-2.1691930294036865,-1.339904085998871,-2.5164082686053675,6.170596587448873,0.9985766410827637,-3.1610539595233362
1708443097.4458973,-2.1691761016845703,-1.339792252784111,-2.5164406935321253,6.170600878983297,0.9986052513122559,-3.161063257847921
1708443097.4478972,-2.169185161590576,-1.339836911564209,-2.516378943120138,6.170613157540121,0.9985901117324829,-3.1610587278949183
1708443097.4498866,-2.169218063354492,-1.3397966933301468,-2.5163920561419886,6.1706087467964075,0.9985978603363037,-3.1610496679889124
1708443097.4519022,-2.16916823387146,-1.339796708231308,-2.5164406935321253,6.170571672707357,0.9985721111297607,-3.1610751787768763
1708443097.45388,-2.1691761016845703,-1.3398205649903794,-2.516444269810812,6.170547830849447,0.9985766410827637,-3.1610541979419153
1708443097.455893,-2.169206380844116,-1.339796708231308,-2.5164406935321253,6.170624959259786,0.998609721660614,-3.1610377470599573
1708443097.4578943,-2.1692090034484863,-1.3397996437600632,-2.516444985066549,6.170596587448873,0.9985557794570923,-3.1610332171069544
1708443097.4598815,-2.169218063354492,-1.3398413521102448,-2.5164244810687464,6.170613157540121,0.9985737204551697,-3.1610332171069544
1708443097.4619014,-2.1691930294036865,-1.3398580861142655,-2.5164528528796595,6.170556533127584,0.9985933303833008,-3.161063257847921
1708443097.4639037,-2.1692090034484863,-1.3398368966630478,-2.516390864049093,6.170575964241781,0.9985438585281372,-3.161016289387838
1708443097.4658983,-2.169229507446289,-1.3397996437600632,-2.5164616743670862,6.170519339829244,0.9985811710357666,-3.1610780397998255
1708443097.467899,-2.1692020893096924,-1.3398490709117432,-2.5164125601397913,6.170596587448873,0.9985647797584534,-3.161084000264303
1708443097.4698918,-2.169234037399292,-1.3398669523051758,-2.516433064137594,6.170587885170736,0.9986231923103333,-3.1609793345080774
1708443097.471888,-2.169113874435425,-1.3398205500892182,-2.516416851674215,6.170559751778402,0.9985766410827637,-3.1610377470599573
1708443097.4738874,-2.169222354888916,-1.339832381611206,-2.5164571444140833,6.170510637551107,0.9985602498054504,-3.1610422770129603
1708443097.4758818,-2.1692111492156982,-1.3398205500892182,-2.516444985066549,6.170564043312826,0.9986007809638977,-3.161004368458883
1708443097.4779167,-2.1692020893096924,-1.3398833137801667,-2.5164406935321253,6.170532452851095,0.9985933303833008,-3.1610377470599573
1708443097.4798863,-2.169220447540283,-1.3398536008647461,-2.5164616743670862,6.170560824662008,0.9986052513122559,-3.1610541979419153
1708443097.4818826,-2.169238328933716,-1.339881808762886,-2.516416851674215,6.170560824662008,0.9985933303833008,-3.1610587278949183
1708443097.48389,-2.169229507446289,-1.339808629160263,-2.516453806553976,6.170556533127584,0.9986187219619751,-3.161074940358297
1708443097.4858854,-2.1691887378692627,-1.3398279261640091,-2.5164082686053675,6.170523631363668,0.9986305832862854,-3.161004368458883
1708443097.4878883,-2.169163942337036,-1.3398401749185105,-2.5164201895343226,6.170585858612814,0.9986187815666199,-3.1610074679004114
1708443097.489875,-2.169163942337036,-1.339836911564209,-2.5164690653430384,6.170535552292623,0.998609721660614,-3.1610029379474085
1708443097.491884,-2.169217824935913,-1.339808629160263,-2.5163994471179407,6.170557367592611,0.9986559152603149,-3.161029879246847
1708443097.4938943,-2.169189691543579,-1.3397758913091202,-2.5164201895343226,6.170560824662008,0.9986023902893066,-3.161034170781271
1708443097.4959028,-2.16916823387146,-1.3398294311812897,-2.5163994471179407,6.170523631363668,0.9985933303833008,-3.1610289255725306
1708443097.4978893,-2.1691806316375732,-1.3397996437600632,-2.5164201895343226,6.17052053192214,0.9986261129379272,-3.161016289387838
1708443097.49989,-2.169185161590576,-1.3398413521102448,-2.5164244810687464,6.170521366387167,0.9985888600349426,-3.1610332171069544
1708443097.501874,-2.169159412384033,-1.3398713928512116,-2.516395155583517,6.170517074852743,0.9986052513122559,-3.160992685948507
1708443097.5038674,-2.169172763824463,-1.339824990635254,-2.5164485613452356,6.170468199044027,0.9985888600349426,-3.161025349293844
1708443097.5058677,-2.169185161590576,-1.3398115944913407,-2.5164485613452356,6.17046474197463,0.9986052513122559,-3.1610332171069544
1708443097.5078895,-2.169189691543579,-1.3398536008647461,-2.5164158979998987,6.170449602394857,0.9986007809638977,-3.1610422770129603
1708443097.5099049,-2.169139862060547,-1.3397877526334305,-2.5164528528796595,6.1704091904456995,0.9986080527305603,-3.16096002260317
1708443097.511927,-2.1691477298736572,-1.339808629160263,-2.516407076512472,6.1703165648277185,0.9986171722412109,-3.160992685948507
1708443097.513877,-2.169165849685669,-1.3398625713637848,-2.5164158979998987,6.170304763108053,0.9986335635185242,-3.161063257847921
1708443097.5159452,-2.16916823387146,-1.339808629160263,-2.5164321104632776,6.170268761902609,0.9986461400985718,-3.1609836260425013
1708443097.5178835,-2.16914439201355,-1.3397996437600632,-2.516427818928854,6.170249211579122,0.9986370205879211,-3.161067549382345
1708443097.519875,-2.16915225982666,-1.3398011487773438,-2.5164783636676233,6.170216429024496,0.9986370205879211,-3.161013428364889
1708443097.5218852,-2.169111728668213,-1.3397550743869324,-2.516439978276388,6.170204508095541,0.9986608624458313,-3.161001507435934
1708443097.523899,-2.1691534519195557,-1.3398012232831498,-2.516439978276388,6.1701193926628015,0.9986817240715027,-3.1610751787768763
1708443097.525933,-2.1691701412200928,-1.339841367011406,-2.516488854085104,6.170113074570455,0.9986817240715027,-3.16099983850588
1708443097.5278995,-2.169100284576416,-1.3398294758847733,-2.516423288975851,6.170133578568258,0.9987341165542603,-3.1610222498523157
1708443097.52988,-2.1691181659698486,-1.3398041737130661,-2.516477171574728,6.170051920204916,0.9987296462059021,-3.160996977482931
1708443097.531871,-2.1690752506256104,-1.33981308460746,-2.516488854085104,6.170029151230612,0.9987463355064392,-3.1610103289233606
1708443097.5338957,-2.169088840484619,-1.339816005235054,-2.51648456255068,6.169988739281454,0.9987583160400391,-3.1609821955310267
1708443097.5359113,-2.169081926345825,-1.3398249757340928,-2.516480032597677,6.169903623848715,0.9987701177597046,-3.1609583536731165
1708443097.537882,-2.1690614223480225,-1.3398041439107438,-2.516472641621725,6.169946419983663,0.9987946152687073,-3.160934034978048
1708443097.5399275,-2.1690163612365723,-1.3397505444339295,-2.516489092503683,6.1698481915290735,0.9988018870353699,-3.160913054143087
1708443097.5418787,-2.1690003871917725,-1.339789257650711,-2.516516987477438,6.169780838280477,0.9988378882408142,-3.160942856465475
1708443097.5438867,-2.168955087661743,-1.3397683215192338,-2.516480032597677,6.169711935311117,0.9988739490509033,-3.16093093553652
1708443097.5458791,-2.1689155101776123,-1.3398190897754212,-2.51650840440859,6.169619667321005,0.9989279508590698,-3.16089374223818
1708443097.5479448,-2.1688623428344727,-1.339830995803215,-2.516533915196554,6.169580328255453,0.9989593625068665,-3.160872999821798
1708443097.5499554,-2.1688597202301025,-1.3398055893233796,-2.516524855290548,6.169538008957662,0.9989789724349976,-3.160877291356222
1708443097.5519092,-2.168849468231201,-1.3398056787303467,-2.5165327231036585,6.169494378357687,0.9990105032920837,-3.160910193120138
1708443097.5539052,-2.168809652328491,-1.3398055893233796,-2.5165696779834192,6.169404971390524,0.9990464448928833,-3.1608906427966517
1708443097.5559049,-2.1688051223754883,-1.3397862923196335,-2.516531531010763,6.169301497727194,0.9990240335464478,-3.16086990038027
1708443097.557892,-2.168740749359131,-1.3397367161563416,-2.516629759465353,6.169185149460592,0.9991110563278198,-3.16086990038027
1708443097.5599139,-2.1687586307525635,-1.3397203248790284,-2.516608778630392,6.169105517655172,0.999137818813324,-3.160865370427267
1708443097.561878,-2.168691873550415,-1.3397249293378373,-2.516613547001974,6.169043290406027,0.9991667866706848,-3.1608954111682337
1708443097.5638804,-2.1686489582061768,-1.3396754425815125,-2.516637150441305,6.168922173767843,0.9992027282714844,-3.1608200708972376
1708443097.5659022,-2.168626070022583,-1.3397052747062226,-2.5166404883014124,6.168780791550436,0.9991728067398071,-3.1608789602862757
1708443097.567897,-2.1685738563537598,-1.3397309494069596,-2.5167134443866175,6.168690192490377,0.9992669820785522,-3.1608217398272913
1708443097.5698934,-2.1685216426849365,-1.3396933686784287,-2.51672870317568,6.168542134552755,0.999343752861023,-3.1608262697802942
1708443097.5718937,-2.1684765815734863,-1.3396321845105668,-2.516691271458761,6.168385612755575,0.9992926120758057,-3.1608217398272913
1708443097.573894,-2.168426275253296,-1.3396652799895783,-2.516768757496969,6.168290960579672,0.9993585348129272,-3.1608009974109095
1708443097.575903,-2.168353796005249,-1.3396218580058594,-2.5167885462390345,6.1682026264961145,0.9993948936462402,-3.1607771555529993
1708443097.577881,-2.16835355758667,-1.3396006387523194,-2.5167961756335657,6.168006765633383,0.9994516968727112,-3.160740677510397
1708443097.5798905,-2.168266534805298,-1.339626432662346,-2.516836468373434,6.167894112854757,0.9994533658027649,-3.1607335249530237
1708443097.5819063,-2.168213367462158,-1.3395246428302308,-2.5169010798083704,6.1677459357078455,0.9995070099830627,-3.1607452074633997
1708443097.583916,-2.168160915374756,-1.339541034107544,-2.5168965498553675,6.167663323670187,0.9995507001876831,-3.1606887022601526
1708443097.585902,-2.168097496032715,-1.3395545792630692,-2.516932551060812,6.167470562248983,0.9996317028999329,-3.1606887022601526
1708443097.5879178,-2.168057680130005,-1.3394932311824341,-2.517005507146017,6.167282092362203,0.9996227025985718,-3.1607139746295374
1708443097.589937,-2.1679747104644775,-1.3394484978965302,-2.5170000235186976,6.1672154543693445,0.9996950030326843,-3.160649363194601
1708443097.591905,-2.1678953170776367,-1.339499221449234,-2.5170119444476526,6.167077410012045,0.9997307062149048,-3.160653893147604
1708443097.5939074,-2.1678433418273926,-1.3394258332303544,-2.5170849005328577,6.16689549663619,0.9998329281806946,-3.1606627146350306
1708443097.5958798,-2.1677796840667725,-1.3394049865058442,-2.517108742390768,6.166764724045553,0.9998538494110107,-3.1606300512896937
1708443097.5978987,-2.16764497756958,-1.3393721294454117,-2.517116371785299,6.166555630951681,0.9999231696128845,-3.1605735460864466
1708443097.5999012,-2.1676366329193115,-1.339361534719803,-2.5171852747546595,6.166367280274191,0.9999829530715942,-3.1605897585498255
1708443097.6018991,-2.1675400733947754,-1.339271904235222,-2.517233196889059,6.166245209961691,1.000076174736023,-3.160578791295187
1708443097.6039138,-2.167410135269165,-1.3392975193313141,-2.517196242009298,6.166004168778219,1.000115156173706,-3.16050893465151
1708443097.6058993,-2.167335033416748,-1.3392823797515412,-2.5172608534442347,6.165866124420919,1.000158667564392,-3.1605148951159876
1708443097.607895,-2.1672513484954834,-1.3392540675452729,-2.517291847859518,6.165678727417745,1.0002880096435547,-3.1604538599597376
1708443097.609896,-2.167118549346924,-1.339234710936882,-2.5173192659961146,6.165405261307516,1.0003072023391724,-3.1604626814471644
1708443097.6118946,-2.1670265197753906,-1.339189664726593,-2.5173595587359827,6.1652777073676965,1.000374674797058,-3.1604211966144007
1708443097.613899,-2.166916608810425,-1.3391838681748887,-2.517404619847433,6.165017592697897,1.0003931522369385,-3.1604092756854456
1708443097.6159108,-2.166825532913208,-1.3391764175942917,-2.517444912587301,6.164829838066854,1.00050687789917,-3.160394255314962
1708443097.6179023,-2.1666839122772217,-1.3391015243581315,-2.5174925963031214,6.164569842606344,1.0006372928619385,-3.1603580156909388
1708443097.6199281,-2.1665570735931396,-1.339100108747818,-2.517487112675802,6.164391982346334,1.00067937374115,-3.1603265444384974
1708443097.6219199,-2.1664786338806152,-1.33909726262603,-2.517531935368673,6.164087164192953,1.0007680654525757,-3.160356346760885
1708443097.6239028,-2.166337013244629,-1.3390272122672577,-2.5175800959216517,6.163879024773397,1.0008728504180908,-3.1603146235095423
1708443097.6259253,-2.166226625442505,-1.339019389157631,-2.517639700566427,6.163665520935812,1.0009558200836182,-3.160253111516134
1708443097.627913,-2.166114568710327,-1.3389955771020432,-2.5176098982440394,6.163384544640341,1.001029372215271,-3.1602843443499964
1708443097.629898,-2.165998697280884,-1.3389029812863846,-2.5176788012133997,6.163173544197836,1.0011296272277832,-3.160253111516134
1708443097.631925,-2.165884256362915,-1.33893275380645,-2.517789665852682,6.162905323296346,1.0012331008911133,-3.1601243654834192
1708443097.6339226,-2.165706157684326,-1.338850514297821,-2.5177910963641565,6.16264163234786,1.0013054609298706,-3.160154406224386
1708443097.635926,-2.1656694412231445,-1.3388684403947373,-2.5178361574756067,6.162385570793905,1.0013517141342163,-3.160142485295431
1708443097.6378925,-2.1654880046844482,-1.338877485399582,-2.517916742955343,6.162064897805013,1.0014972686767578,-3.1600614229785364
1708443097.6399062,-2.16538143157959,-1.3388207715800782,-2.517956082020895,6.161773550301351,1.0015860795974731,-3.160116497670309
1708443097.6418955,-2.165208101272583,-1.3388252419284363,-2.5179947058307093,6.161509859352865,1.0017107725143433,-3.1600220839129847
1708443097.643896,-2.165100336074829,-1.3388011765531083,-2.5180400053607386,6.1612106440360925,1.0018051862716675,-3.1600526014911097
1708443097.6459045,-2.164907455444336,-1.3386905652335663,-2.518082920704977,6.160895097046652,1.001892328262329,-3.1599610487567347
1708443097.6478987,-2.1647555828094482,-1.338692085152008,-2.5181568304644983,6.160570132523336,1.0020513534545898,-3.15998346010317
1708443097.6499102,-2.1646804809570312,-1.3387323778918763,-2.5182538668261927,6.160295355110922,1.0021053552627563,-3.159902636204855
1708443097.651918,-2.1645140647888184,-1.3386350733092804,-2.5182345549212855,6.159955608635702,1.0022014379501343,-3.1598742643939417
1708443097.653913,-2.164382219314575,-1.3386293214610596,-2.518369499837057,6.159669267922201,1.0023003816604614,-3.159813944493429
1708443097.655927,-2.164266347885132,-1.3386010092547913,-2.5183635393725794,6.159287917404928,1.0024369955062866,-3.159818712865011
1708443097.6579092,-2.1640827655792236,-1.3386054796031495,-2.518414322529928,6.158964383393087,1.002516746520996,-3.1597917715655726
1708443097.6598935,-2.163963556289673,-1.338564933543541,-2.518503729497091,6.158678042679586,1.0026668310165405,-3.1597917715655726
1708443097.6619062,-2.1638026237487793,-1.3385081005147477,-2.518566910420553,6.158362376480856,1.0027670860290527,-3.159743611012594
1708443097.6639202,-2.1637015342712402,-1.338525952105858,-2.5185983816729944,6.158059465676107,1.0028527975082397,-3.159700934086935
1708443097.6659298,-2.1635122299194336,-1.3384619665196915,-2.518711868916647,6.157690989762106,1.0029981136322021,-3.1596980730639856
1708443097.6679027,-2.163360118865967,-1.3383767318776627,-2.5187304655658167,6.157376396446981,1.0031182765960693,-3.1596363226519983
1708443097.6698818,-2.1632001399993896,-1.3383529049209137,-2.518798891698019,6.157024729042806,1.003221869468689,-3.1595798174487513
1708443097.671909,-2.163053512573242,-1.3383541715196152,-2.518858019505636,6.1566693661506555,1.0033420324325562,-3.159571711217062
1708443097.673892,-2.162844181060791,-1.3382882487824936,-2.5189383665667933,6.1563055393989465,1.0035418272018433,-3.1595285574542444
1708443097.6759064,-2.1627066135406494,-1.3382212233594437,-2.5190354029284876,6.155921327858724,1.0035865306854248,-3.159466807042257
1708443097.6778922,-2.162543296813965,-1.3381835383227845,-2.5190582911120813,6.155607330590048,1.0037472248077393,-3.159422222767965
1708443097.679872,-2.162400245666504,-1.3381971281817933,-2.5191989580737513,6.155225980072775,1.0038584470748901,-3.159423891698019
1708443097.6818874,-2.162220001220703,-1.338196114902832,-2.5192599932300013,6.154863226204672,1.0039827823638916,-3.1594043413745325
1708443097.6838663,-2.1620688438415527,-1.3381089580110093,-2.5192938486682337,6.15450285652236,1.0041394233703613,-3.159318987523214
1708443097.6858811,-2.1619057655334473,-1.338128463631012,-2.519407097493307,6.154172885208883,1.0042260885238647,-3.1592989603625696
1708443097.6878877,-2.161717176437378,-1.3380837750485917,-2.5194464365588587,6.153813349991598,1.0043675899505615,-3.1592722574817103
1708443097.6898592,-2.1615030765533447,-1.3379826557687302,-2.5195065180407923,6.1534169791038416,1.0045117139816284,-3.159260336552755
1708443097.6918755,-2.1613407135009766,-1.3379759800485154,-2.5196390787707728,6.153078424721517,1.0046199560165405,-3.1591911951648157
1708443097.6939049,-2.161146640777588,-1.3378997606090088,-2.5197187105761927,6.152685868531027,1.004785418510437,-3.1592093149768274
1708443097.695876,-2.1609723567962646,-1.3377902817777176,-2.5198081175433558,6.1523188231285,1.004908800125122,-3.159119192753927
1708443097.697862,-2.160863161087036,-1.337775321011879,-2.5198712984668177,6.151870119362631,1.0050286054611206,-3.159074608479635
1708443097.6999087,-2.1606671810150146,-1.3377388280681153,-2.5199628512011927,6.151595580368795,1.0051281452178955,-3.1590269247638147
1708443097.7018821,-2.160475254058838,-1.3377522689155121,-2.5199816862689417,6.151208865433492,1.0053635835647583,-3.1590405146228235
1708443097.7039118,-2.1602673530578613,-1.3377043467811127,-2.5200582186328333,6.1507606385047815,1.005466103553772,-3.158994976674215
1708443097.7058928,-2.1601109504699707,-1.3376640540412446,-2.5201669375049036,6.150372612267294,1.0055696964263916,-3.15898043314089
1708443097.7078729,-2.1598823070526123,-1.3376044493964692,-2.520209614430563,6.150021421700277,1.0057307481765747,-3.15895659128298
1708443097.7098734,-2.15972900390625,-1.3375566017678757,-2.5202935377704065,6.149666893273153,1.0058839321136475,-3.1589046160327356
1708443097.7118616,-2.15954852104187,-1.3375660938075562,-2.5203829447375696,6.149210440903463,1.0059814453125,-3.158893887196676
1708443097.713886,-2.159377098083496,-1.337477133875229,-2.5204582850085657,6.148872601776876,1.0061225891113281,-3.1588202158557337
1708443097.7158792,-2.1592464447021484,-1.3374244433692475,-2.5205419699298304,6.14845238903121,1.0062717199325562,-3.1588054339038294
1708443097.7178848,-2.159010887145996,-1.3373968613198777,-2.5205848852740687,6.148129927902975,1.0063828229904175,-3.1587935129748743
1708443097.719902,-2.1588473320007324,-1.3373254251531144,-2.520726505910055,6.147697555809774,1.006539225578308,-3.1587544123279017
1708443097.7218792,-2.1586782932281494,-1.337272511129715,-2.5207493940936487,6.147346722870626,1.006687879562378,-3.1587379614459437
1708443097.7238646,-2.158508062362671,-1.3372935515693207,-2.5208213965045374,6.1469424841697595,1.0068202018737793,-3.1586478392230433
1708443097.7258885,-2.158332347869873,-1.3371853989413758,-2.5209501425372522,6.146523344307699,1.0069687366485596,-3.158661429082052
1708443097.7279096,-2.158132791519165,-1.3371823591044922,-2.52097732225527,6.146142828255453,1.0070680379867554,-3.1585803667651575
1708443097.7298687,-2.157975912094116,-1.337113232617714,-2.5210819880114954,6.145801055222311,1.007283091545105,-3.158586565648214
1708443097.7318726,-2.15779447555542,-1.3370699149421235,-2.5211780706988733,6.14542173126296,1.0074197053909302,-3.158567015324728
1708443097.73388,-2.1576242446899414,-1.3370706301978608,-2.521245781575338,6.145057904511251,1.0074769258499146,-3.158501688634054
1708443097.7358725,-2.157443046569824,-1.33700683832679,-2.521329943333761,6.144630181580343,1.0076088905334473,-3.1584890524493616
1708443097.7378705,-2.1572556495666504,-1.336975024347641,-2.521414820347921,6.144286858826437,1.0077698230743408,-3.1584087053882044
1708443097.7398708,-2.15710711479187,-1.3369792264750977,-2.5214527289019983,6.14388262012557,1.0078976154327393,-3.158426586781637
1708443097.7418833,-2.1568734645843506,-1.3369235855391999,-2.52159029642214,6.143519866257467,1.0080300569534302,-3.158339564000265
1708443097.74388,-2.1567983627319336,-1.3368632805398484,-2.521653715764181,6.143157350807943,1.0081877708435059,-3.1583710352527063
1708443097.7458804,-2.15657377243042,-1.336815045481064,-2.52171761194338,6.142747628479757,1.0083156824111938,-3.158351723347799
1708443097.7478666,-2.1564342975616455,-1.3367632341435929,-2.5217769781695765,6.142397868424215,1.0084309577941895,-3.158252779637472
1708443097.7498925,-2.1562721729278564,-1.3367190074971695,-2.5218945185290735,6.142062651901998,1.0086102485656738,-3.1582751909839075
1708443097.7518747,-2.1561312675476074,-1.3367236417583008,-2.5218761602984827,6.141670334130087,1.0087496042251587,-3.1582794825183313
1708443097.7538638,-2.155954599380493,-1.3366802495769043,-2.5220254103290003,6.141392338066854,1.0088443756103516,-3.158217970524923
1708443097.755918,-2.155792236328125,-1.336551697259285,-2.522074286137716,6.1410525915916345,1.0090216398239136,-3.158154074345724
1708443097.7578673,-2.1556074619293213,-1.3366281253150483,-2.5221450964557093,6.14067708232955,1.0091451406478882,-3.158142153416769
1708443097.7599003,-2.1554462909698486,-1.3365565997413178,-2.522229258214132,6.140313136368551,1.0092320442199707,-3.1581102053271692
1708443097.761876,-2.155285120010376,-1.3365171712687989,-2.5222817103015345,6.1399621842201135,1.0093809366226196,-3.158098284398214
1708443097.763866,-2.155129909515381,-1.3364849102548142,-2.5223494211779993,6.139616000443258,1.0095176696777344,-3.1580761114703577
1708443097.765873,-2.1549289226531982,-1.3364453178695221,-2.522442642842428,6.139117228775778,1.009657859802246,-3.158055130635397
1708443097.7678943,-2.1547815799713135,-1.3364295822433014,-2.5224621931659144,6.1387988207633875,1.0097943544387817,-3.1579981485949915
1708443097.7698743,-2.1546146869659424,-1.336385802631714,-2.5225420633899134,6.138353812485494,1.0098559856414795,-3.158015791569845
1708443097.7718885,-2.154451370239258,-1.3362925958684464,-2.522601906453268,6.13808439949111,1.0100305080413818,-3.157896105443136
1708443097.773878,-2.154271125793457,-1.336346299653389,-2.5226662794696253,6.137757646828451,1.0101537704467773,-3.1578739325152796
1708443097.7759187,-2.1541404724121094,-1.3363263469985505,-2.522696320210592,6.137418019562521,1.0102828741073608,-3.1579321066485804
1708443097.7778702,-2.153996229171753,-1.3362089109471817,-2.5227745215045374,6.137107479363241,1.0104314088821411,-3.157862965260641
1708443097.7798889,-2.153825283050537,-1.3362181049636384,-2.522853676472799,6.136730658798971,1.0105681419372559,-3.157834593449728
1708443097.7818794,-2.1536879539489746,-1.3362062734416504,-2.5229840914355677,6.136431205063619,1.010664939880371,-3.157806460057394
1708443097.7838986,-2.15352201461792,-1.3361662191203614,-2.5229647795306605,6.13612066486434,1.0107519626617432,-3.1577535311328333
1708443097.7858632,-2.1533658504486084,-1.3360979569009324,-2.5230215231524866,6.1358539936836145,1.0108720064163208,-3.1578033606158655
1708443097.7878995,-2.153230667114258,-1.3360979569009324,-2.5230606237994593,6.135432469635763,1.0109590291976929,-3.157738749180929
1708443097.7898738,-2.153050422668457,-1.3360576641610642,-2.523153845463888,6.135161864548483,1.0111126899719238,-3.157718006764547
1708443097.7918851,-2.1529481410980225,-1.33597748101268,-2.5231850782977503,6.13485466220931,1.0112370252609253,-3.157726828251974
1708443097.7938852,-2.1528096199035645,-1.3359578561833878,-2.52330190340151,6.134530412941732,1.0114072561264038,-3.157686773930685
1708443097.7958953,-2.152615785598755,-1.3359383058599015,-2.5233290831195276,6.134178626328268,1.0114734172821045,-3.1577282587634485
1708443097.7978983,-2.152470827102661,-1.3358658415130158,-2.5234056154834192,6.133911716728964,1.0115677118301392,-3.1576831976519983
1708443097.799889,-2.1523244380950928,-1.3358868819526215,-2.5234583059894007,6.133594977646627,1.0117374658584595,-3.1576712767230433
1708443097.8018892,-2.1521973609924316,-1.335850090985634,-2.523496929799215,6.133258807450094,1.0118170976638794,-3.1576386133777063
1708443097.8039396,-2.1520485877990723,-1.3358312410167237,-2.5235613028155726,6.132943618088522,1.0119088888168335,-3.1576386133777063
1708443097.805892,-2.1519339084625244,-1.3358481538346787,-2.5236051718341272,6.132694113045492,1.01195228099823,-3.15768009821047
1708443097.8078973,-2.151772975921631,-1.335747556095459,-2.523665253316061,6.132407295494833,1.0120608806610107,-3.157630983983175
1708443097.809889,-2.151625394821167,-1.3357152950814744,-2.5237205664264124,6.132107722550192,1.0121418237686157,-3.1576266924487513
1708443097.8118925,-2.1515400409698486,-1.3356757921031495,-2.5238104502307337,6.13180290439681,1.0122381448745728,-3.157668177281515
1708443097.813865,-2.151421070098877,-1.3356757921031495,-2.5238493124591272,6.131548034935751,1.0123388767242432,-3.1576831976519983
1708443097.8159058,-2.151298999786377,-1.3356281083873291,-2.523926083241598,6.131259548455038,1.0123971700668335,-3.1576293150531214
1708443097.8178856,-2.151148796081543,-1.335599736576416,-2.5238943735705774,6.1310298321540735,1.0124363899230957,-3.157696549092428
1708443097.8198845,-2.1510026454925537,-1.3355187636664887,-2.5240054766284388,6.130785572319784,1.0126124620437622,-3.1576266924487513
1708443097.8218818,-2.1508970260620117,-1.3355156642249604,-2.5240491072284144,6.130550253182211,1.012675404548645,-3.1575937906848353
1708443097.823875,-2.1507813930511475,-1.3355610233596344,-2.5240967909442347,6.130278932839193,1.0127849578857422,-3.157663885747091
1708443097.8259077,-2.1506292819976807,-1.33548458040271,-2.5241239706622522,6.129956829338827,1.0128272771835327,-3.157659355794088
1708443097.8278818,-2.1505205631256104,-1.3354078990272065,-2.5241809527026575,6.12982057312087,1.0129220485687256,-3.157659355794088
1708443097.829898,-2.1503684520721436,-1.3353641045144578,-2.524224344884054,6.129515993386068,1.0130497217178345,-3.1577134768115442
1708443097.831925,-2.1502652168273926,-1.3353522431901474,-2.5243096987353724,6.129252064019003,1.013113021850586,-3.157659355794088
1708443097.8339007,-2.1502037048339844,-1.3353571754745026,-2.524341646824972,6.128968345909872,1.0131504535675049,-3.157659355794088
1708443097.8358967,-2.150075674057007,-1.3353172105601807,-2.5243564287768763,6.1287609217460535,1.0132554769515991,-3.1577091852771204
1708443097.8378778,-2.1499600410461426,-1.3352489483407517,-2.5244162718402308,6.128505456238546,1.0133488178253174,-3.157675806676046
1708443097.8398998,-2.1497855186462402,-1.3352608692697068,-2.524494473134176,6.128293740540304,1.013375997543335,-3.157714907323019
1708443097.8418949,-2.1496901512145996,-1.3352333170226593,-2.5244763533221644,6.1280661700065515,1.0134810209274292,-3.1577401796924036
1708443097.8438945,-2.1496028900146484,-1.3351891350797196,-2.524569574986593,6.127867328911581,1.0134944915771484,-3.1577521006213587
1708443097.845868,-2.149585485458374,-1.3351771098426362,-2.5245514551745813,6.127643096237936,1.0136208534240723,-3.1577895323382776
1708443097.8478928,-2.149390697479248,-1.3351778847030182,-2.524605099354879,6.127362477570333,1.013659954071045,-3.157809559498922
1708443097.8498921,-2.1493337154388428,-1.335169480448105,-2.524689261113302,6.127151357918539,1.013757586479187,-3.1578124205218714
1708443097.8518984,-2.149254322052002,-1.3351299625686188,-2.524680201207296,6.126947390824117,1.0138208866119385,-3.1578391234027308
1708443097.8538811,-2.1491293907165527,-1.3350934994271775,-2.5247088114367884,6.126755821495809,1.013871669769287,-3.1578317324267786
1708443097.855867,-2.1490705013275146,-1.3351146292737504,-2.5247119108783167,6.12650357463912,1.0139528512954712,-3.15788442293276
1708443097.8578932,-2.1489243507385254,-1.3350095015815278,-2.52484375635256,6.126317488938131,1.0140129327774048,-3.157919947301046
1708443097.8599021,-2.1489453315734863,-1.335050569181778,-2.5248330275165003,6.126142012863912,1.0140776634216309,-3.1579349676715296
1708443097.8618655,-2.1487619876861572,-1.3350301545909424,-2.5248568693744105,6.125941264420309,1.0141335725784302,-3.157999579106466
1708443097.8638859,-2.1486825942993164,-1.3349860620549698,-2.524881426488058,6.1257492182548425,1.0141905546188354,-3.158013168965475
1708443097.8659096,-2.1486146450042725,-1.3349824410727997,-2.524900738392965,6.125480282097616,1.0142054557800293,-3.1579981485949915
1708443097.8679667,-2.148499011993408,-1.3349134188941498,-2.5248826185809534,6.12528012970046,1.0143059492111206,-3.158074442540304
1708443097.8699048,-2.148402452468872,-1.334930346613266,-2.5249443689929407,6.1251762984092615,1.0142714977264404,-3.1581600348102015
1708443097.871876,-2.1483852863311768,-1.3348935556462784,-2.524942700062887,6.124983417778768,1.014406442642212,-3.1582358519183558
1708443097.873864,-2.1483101844787598,-1.3348578673652192,-2.524963680897848,6.124811517983236,1.0144175291061401,-3.1582303682910364
1708443097.875872,-2.1482174396514893,-1.334874005322792,-2.525008742009298,6.124595987587728,1.01446533203125,-3.15834886232485
1708443097.8778737,-2.148081064224243,-1.3348382425359269,-2.5250521341906946,6.124445545464315,1.014546513557434,-3.158405367528097
1708443097.879879,-2.1480212211608887,-1.334845946436264,-2.5250101725207728,6.124203669815817,1.014578104019165,-3.158459250126974
1708443097.8818655,-2.147958517074585,-1.3348344129375,-2.525092665349142,6.1240718243415735,1.0146217346191406,-3.1585314909564417
1708443097.883865,-2.1478352546691895,-1.3348543655923386,-2.5251091162311,6.12391613700942,1.014636754989624,-3.1586199442492884
1708443097.8858712,-2.1478066444396973,-1.3348098707250138,-2.5251451174365442,6.123724329262533,1.0146968364715576,-3.1586793104754847
1708443097.8878736,-2.147693634033203,-1.3348309856704255,-2.5251646677600306,6.123585092812338,1.0147165060043335,-3.1587334314929407
1708443097.8898733,-2.1476476192474365,-1.3348429065993805,-2.5251646677600306,6.123434889107504,1.0148062705993652,-3.158912007008688
1708443097.891929,-2.1475820541381836,-1.3348310154727479,-2.52518874803652,6.123253810196676,1.014851689338684,-3.159027878438131
1708443097.8938925,-2.147515058517456,-1.334810660486557,-2.52521258989443,6.123098242073812,1.0148786306381226,-3.1590867678271692
1708443097.8959053,-2.147434711456299,-1.3347706508687516,-2.5251944700824183,6.1228887913520715,1.0148816108703613,-3.1592300573932093
1708443097.8978813,-2.1473801136016846,-1.3347226840308686,-2.5252726713763636,6.122782337456503,1.014925241470337,-3.159318510686056
1708443097.8998632,-2.1472623348236084,-1.334779144530632,-2.5252965132342737,6.122598159104147,1.0149449110031128,-3.159443203602926
1708443097.9018877,-2.147214412689209,-1.334702343945839,-2.5252681414233606,6.122498738556661,1.014990210533142,-3.1595421473132532
1708443097.9038694,-2.1471216678619385,-1.3347510558417817,-2.525308672581808,6.122375952988424,1.015038013458252,-3.1597068945514124
1708443097.9059055,-2.1471078395843506,-1.3346824657968064,-2.525311533604757,6.122162568360128,1.015045404434204,-3.159839455281393
1708443097.9078934,-2.147069215774536,-1.3347235482982178,-2.525290552769796,6.12210379818038,1.0150697231292725,-3.159936491643087
1708443097.9098659,-2.1469759941101074,-1.3346425753882905,-2.5253685156451624,6.121976959496298,1.0151312351226807,-3.16004449525942
1708443097.9118948,-2.1468923091888428,-1.334650994544365,-2.5253594557391565,6.12184094169692,1.0151267051696777,-3.1602636019336146
1708443097.9138885,-2.14681077003479,-1.3346271526864548,-2.5253968874560755,6.121734130173483,1.0151867866516113,-3.160353485737936
1708443097.9159107,-2.1468217372894287,-1.3346236509135743,-2.525334183369772,6.12161015251235,1.0151777267456055,-3.160529438649313
1708443097.9178693,-2.146716594696045,-1.334655911927559,-2.525404755269186,6.121433365135946,1.0152018070220947,-3.1606760660754603
1708443097.9199073,-2.1467061042785645,-1.334627942447998,-2.5254419485675257,6.121359455376425,1.0152541399002075,-3.1608291308032435
1708443097.9219053,-2.146636962890625,-1.3346602034619828,-2.525407616292135,6.121224510460653,1.0152709484100342,-3.1609280745135706
1708443097.9239008,-2.146540880203247,-1.3345868450454255,-2.525391165410177,6.121096122055807,1.0152814388275146,-3.1611619631396692
1708443097.9259138,-2.146475315093994,-1.3345673096231003,-2.525400225316183,6.121009218483724,1.0153264999389648,-3.1612795034991663
1708443097.9279132,-2.14646577835083,-1.3345715415528794,-2.5254269281970423,6.120819794922628,1.0153554677963257,-3.161426607762472
1708443097.929907,-2.146409273147583,-1.334539995794632,-2.525456968938009,6.120704519539633,1.0153462886810303,-3.1616197268115442
1708443097.9318902,-2.146352529525757,-1.334547684793808,-2.5254223982440394,6.120671021729269,1.0153909921646118,-3.1618009249316614
1708443097.9338956,-2.1463024616241455,-1.3345315617373963,-2.525452438985006,6.1205307123954675,1.0154483318328857,-3.16194731393923
1708443097.9359078,-2.1462581157684326,-1.334547684793808,-2.5254479090320032,6.120423185616293,1.0154633522033691,-3.1621223131762903
1708443097.9378855,-2.1462182998657227,-1.334556133752205,-2.5254631678210657,6.120250093727865,1.0154751539230347,-3.162351910267965
1708443097.9399245,-2.1461281776428223,-1.3345399808934708,-2.5254767576800745,6.1202090857322595,1.0154738426208496,-3.1625025908099573
1708443097.941903,-2.146097183227539,-1.3345603060773392,-2.525487009678976,6.1200469610984705,1.0154860019683838,-3.162711207066671
1708443097.9438818,-2.146066665649414,-1.334491254096367,-2.5254960695849817,6.11989043930129,1.0155187845230103,-3.1628902594195765
1708443097.9458838,-2.145982503890991,-1.3345124584487458,-2.525466267262594,6.119881856232443,1.0155503749847412,-3.1630266348468226
1708443097.947916,-2.145995855331421,-1.3344964695027848,-2.5254796187030237,6.119741546898641,1.0155340433120728,-3.1632559935199183
1708443097.9498832,-2.145972967147827,-1.3345243346742173,-2.525458637868063,6.119694697647848,1.0155667066574097,-3.163447682057516
1708443097.951889,-2.145918846130371,-1.3345124584487458,-2.525482479725973,6.11951636055068,1.01559579372406,-3.163663927708761
1708443097.9538844,-2.1458961963653564,-1.3344724041274567,-2.525503460560934,6.11942087390975,1.0155941247940063,-3.1638665835009974
1708443097.9559045,-2.145859956741333,-1.3344479364207764,-2.525494400654928,6.119314300804891,1.0156148672103882,-3.164050881062643
1708443097.9578826,-2.1458370685577393,-1.3344882291606446,-2.525527540837423,6.119315373688497,1.0156059265136719,-3.1643107573138636
1708443097.9599211,-2.1457815170288086,-1.334416077738144,-2.525519911442892,6.119130122452535,1.0156059265136719,-3.1645026842700403
1708443097.9619129,-2.1456921100616455,-1.334416077738144,-2.5254810492144983,6.119099962502279,1.015618085861206,-3.1647537390338343
1708443097.9638796,-2.1456716060638428,-1.3344161075404664,-2.525548521672384,6.118955361634054,1.0156588554382324,-3.1649580637561243
1708443097.96592,-2.1456034183502197,-1.3344041866115113,-2.5255726019488733,6.118900167732992,1.0156499147415161,-3.1652172247516077
1708443097.9678783,-2.1455910205841064,-1.3343554002097626,-2.5255754629718226,6.118841159134664,1.0156782865524292,-3.1654380003558558
1708443097.9698813,-2.145576238632202,-1.3343842786601563,-2.5255873839007776,6.11872814872817,1.0156691074371338,-3.165647808705465
1708443097.9718945,-2.1455025672912598,-1.334376485352852,-2.5255873839007776,6.118650066643514,1.0156707763671875,-3.165886942540304
1708443097.9738772,-2.1455037593841553,-1.3343445521644135,-2.525599543248312,6.118572699814596,1.015739917755127,-3.166147772465841
1708443097.9758952,-2.145451545715332,-1.3343849343112488,-2.5255828539477747,6.1184813854988,1.015723466873169,-3.166436735783712
1708443097.9778652,-2.1454198360443115,-1.3343240332654496,-2.5255873839007776,6.118344294815817,1.0156933069229126,-3.166619602833883
1708443097.9799037,-2.145331382751465,-1.3343366098454972,-2.525611464177267,6.118235814362325,1.015777587890625,-3.166910950337545
1708443097.9819157,-2.1453652381896973,-1.3344095212272187,-2.525628153477804,6.118270504265585,1.0157291889190674,-3.1671419779406946
1708443097.9838977,-2.145280361175537,-1.3343161654523392,-2.525640074406759,6.118182408600607,1.0157382488250732,-3.1674309412585657
1708443097.9859154,-2.145240545272827,-1.334381790166237,-2.525614563618795,6.118082630425253,1.0157877206802368,-3.1676865259753626
1708443097.987885,-2.145270824432373,-1.3343170446208497,-2.525668446217672,6.118031489640035,1.015745997428894,-3.1679001490222376
1708443097.9898891,-2.1451690196990967,-1.334285171037056,-2.525635544453756,6.117971527367391,1.0157909393310547,-3.1682220141040247
1708443097.9918933,-2.145124912261963,-1.3342606139234086,-2.5256803671466272,6.1178921339805505,1.0158194303512573,-3.168457094823019
1708443097.9938881,-2.145071506500244,-1.334289313559868,-2.5256593863116663,6.117771851807394,1.0157606601715088,-3.1687355677234095
1708443097.9958918,-2.145089626312256,-1.3342529100230713,-2.5256927649127405,6.117724883347311,1.0157941579818726,-3.169039312993185
1708443097.9978886,-2.1450419425964355,-1.3342529100230713,-2.5256927649127405,6.117603289871969,1.015826940536499,-3.1693242231952112
1708443097.9998975,-2.1449897289276123,-1.3342332702926178,-2.525670353566305,6.117638695030966,1.0158723592758179,-3.1696279684649866
1708443098.0018992,-2.1449501514434814,-1.334229053264,-2.5257824102984827,6.117444503098287,1.0158541202545166,-3.1698883215533655
1708443098.003863,-2.144942045211792,-1.334245191221573,-2.5257194677936,6.117404210358419,1.0159082412719727,-3.1701203028308313
1708443098.0058708,-2.1448798179626465,-1.3341684353402634,-2.5257566610919397,6.117317306786337,1.0158872604370117,-3.1704185644732874
1708443098.0078688,-2.1448819637298584,-1.3341972690871735,-2.525723997746603,6.117261755257406,1.015873908996582,-3.170779291783468
1708443098.0099056,-2.1448254585266113,-1.3342375618270417,-2.525740448628561,6.117173659592428,1.0159363746643066,-3.1710167566882532
1708443098.0118656,-2.1448004245758057,-1.3341811162284394,-2.525738779698507,6.117114174156942,1.0159274339675903,-3.17129093805422
1708443098.0138671,-2.1448044776916504,-1.3342057031444092,-2.525738779698507,6.117046463280477,1.015906572341919,-3.1715994516955774
1708443098.0159109,-2.1447300910949707,-1.3341979098371048,-2.52574330965151,6.11694215515212,1.015942931175232,-3.17186147371401
1708443098.0178945,-2.1447479724884033,-1.3341612082770844,-2.5257554689990442,6.116911637573995,1.0159937143325806,-3.1721816698657435
1708443098.0198758,-2.144698143005371,-1.3341377538493653,-2.52574330965151,6.116880166321554,1.0160043239593506,-3.172448698674337
1708443098.021889,-2.144646167755127,-1.334169716840126,-2.5257628599749964,6.1168484566505334,1.015938401222229,-3.1727643648730677
1708443098.0238745,-2.1446595191955566,-1.3341335368207474,-2.5257554689990442,6.116695272713461,1.0159621238708496,-3.173042599354879
1708443098.025881,-2.144627571105957,-1.3340770912221451,-2.5257914702044886,6.116684663086691,1.0160361528396606,-3.173396174107687
1708443098.027875,-2.1445984840393066,-1.3341377538493653,-2.5258198420154017,6.116588818817892,1.0160030126571655,-3.1737070719348353
1708443098.029877,-2.1445417404174805,-1.3340974611094971,-2.525740448628561,6.1164636490638635,1.0160496234893799,-3.1740427652942103
1708443098.0318727,-2.1445508003234863,-1.334122048025467,-2.525749985371725,6.1164495823676965,1.0160900354385376,-3.1743372122394007
1708443098.0338633,-2.144487142562866,-1.3341545772603531,-2.5257869402514856,6.116364705353536,1.0160720348358154,-3.1746535936938685
1708443098.0358706,-2.144439458847046,-1.3340438169291993,-2.5258033911334437,6.116317140847006,1.0160388946533203,-3.174976650868551
1708443098.0378866,-2.1444180011749268,-1.3340822172215958,-2.5258289019214075,6.1162288067634485,1.0160752534866333,-3.175274674092428
1708443098.0398843,-2.144378423690796,-1.334040717487671,-2.5257824102984827,6.116225945740499,1.0161067247390747,-3.17560846010317
1708443098.0418756,-2.1443986892700195,-1.334073395734169,-2.525818411503927,6.116138446121969,1.016066074371338,-3.175976339970724
1708443098.0438719,-2.1443252563476562,-1.3340407323888321,-2.525848690663473,6.116065847664633,1.016082525253296,-3.1762476603137415
1708443098.0459037,-2.144338607788086,-1.3340822023204346,-2.525848690663473,6.116034137993612,1.016132116317749,-3.1765430609332483
1708443098.0478625,-2.1443283557891846,-1.3340495389750977,-2.5258424917804163,6.115901696472921,1.0161439180374146,-3.1768046061145228
1708443098.0498774,-2.1442625522613525,-1.3340538454106827,-2.525851551686422,6.115861761360922,1.0161395072937012,-3.17716628709902
1708443098.0518954,-2.144301176071167,-1.3340048503926774,-2.525856081639425,6.115814792900839,1.0161484479904175,-3.17747933069338
1708443098.0538647,-2.144237756729126,-1.3340300929597397,-2.525851551686422,6.115779030113973,1.016144037246704,-3.177779022847311
1708443098.0558803,-2.1441915035247803,-1.3339930337718506,-2.5258544127093714,6.115731942444601,1.0161023139953613,-3.178114954625265
1708443098.0578587,-2.144200086593628,-1.3339438003352662,-2.52590519586672,6.115675556450643,1.016164779663086,-3.1784799734698694
1708443098.0599082,-2.1442010402679443,-1.3340107959559937,-2.5258753935443323,6.115596282273092,1.0161439180374146,-3.1787284056292933
1708443098.0618877,-2.1441073417663574,-1.3339865517667313,-2.5258753935443323,6.115519034653463,1.0161304473876953,-3.179056231175558
1708443098.063883,-2.1441197395324707,-1.3339865517667313,-2.525935475026266,6.115468966751852,1.0161514282226562,-3.1794021765338343
1708443098.0659227,-2.144134283065796,-1.333958388572075,-2.5259161631213587,6.115436541825094,1.016196608543396,-3.1796842257129114
1708443098.0678625,-2.144087791442871,-1.3339257848313828,-2.525900427495138,6.115355717926779,1.0161594152450562,-3.180014435444967
1708443098.0698607,-2.1440978050231934,-1.3339548867991944,-2.5258916060077112,6.115284311562338,1.0161638259887695,-3.1804328600512903
1708443098.0718558,-2.1440606117248535,-1.3339300763658066,-2.5259116331683558,6.115256774216451,1.0161757469177246,-3.180725638066427
1708443098.0738533,-2.1440491676330566,-1.3338644814542313,-2.5258947054492396,6.115201699524679,1.0162416696548462,-3.181061331425802
1708443098.0758965,-2.1440083980560303,-1.3338974130204697,-2.5258949438678187,6.115137207299032,1.0162039995193481,-3.1813603083239954
1708443098.077893,-2.1439766883850098,-1.3339181703380127,-2.5258947054492396,6.115080940514364,1.0162039995193481,-3.1816960016833704
1708443098.0798643,-2.1439857482910156,-1.333918185239174,-2.5259035269366663,6.115040766983785,1.016244888305664,-3.1820276419269007
1708443098.0818732,-2.1439075469970703,-1.333901898269989,-2.5259206930743616,6.115017878800192,1.0162403583526611,-3.1823797861682337
1708443098.0838547,-2.143921136856079,-1.3338895601085206,-2.525923554097311,6.114965784340658,1.016223669052124,-3.1826165358172815
1708443098.0858717,-2.1438679695129395,-1.3338732433370133,-2.5258987585650843,6.114897000580587,1.016223669052124,-3.182945791875021
1708443098.0878627,-2.1438791751861572,-1.3338451397470017,-2.5259440580951136,6.114893781929769,1.0162479877471924,-3.1832693258868616
1708443098.089867,-2.143794536590576,-1.3339062345078965,-2.525968376790182,6.114834177284994,1.0162479877471924,-3.18358022371401
1708443098.091879,-2.1438405513763428,-1.333890975718834,-2.525865618382589,6.114806878357687,1.0162643194198608,-3.183913056050436
1708443098.0938582,-2.1438257694244385,-1.3338984859040757,-2.5259724299060267,6.1147100804145715,1.0162570476531982,-3.1842621008502405
