Eg3-git/Classifiers/Data Collection/u8/u8star1_ur3e_joint_states.csv
time,elbow_joint,shoulder_lift_joint,shoulder_pan_joint,wrist_1_joint,wrist_2_joint,wrist_3_joint
1708442963.693767,-2.1403958797454834,-1.333699793820717,-2.528766695653097,6.108987319260397,1.021345615386963,-2.7960782686816614
1708442963.6957479,-2.140371084213257,-1.3336461198380967,-2.528750244771139,6.108981716423788,1.021329402923584,-2.7960382143603724
1708442963.6977572,-2.1403870582580566,-1.333614544277527,-2.528766695653097,6.109032141953268,1.0213005542755127,-2.7960708777057093
1708442963.6997833,-2.1403913497924805,-1.333666906957962,-2.5287712256061,6.109012353211202,1.0212931632995605,-2.7960203329669397
1708442963.701768,-2.1403870582580566,-1.3336878430894394,-2.528738085423605,6.108969676285543,1.0213543176651,-2.7960618177997034
1708442963.7037692,-2.1403462886810303,-1.3336430203965683,-2.528783384953634,6.109044062882223,1.0213662385940552,-2.7960174719439905
1708442963.705768,-2.14031720161438,-1.3336223673871537,-2.5287712256061,6.109019982605734,1.0213425159454346,-2.7960544268237513
1708442963.7077565,-2.1402969360351562,-1.333665908580162,-2.52871281305422,6.108997928887167,1.0213087797164917,-2.796079699193136
1708442963.7097566,-2.14037823677063,-1.333704189663269,-2.528754774724142,6.1090067503745935,1.021317481994629,-2.796058956776754
1708442963.7117581,-2.140324115753174,-1.333638684158661,-2.528745714818136,6.108999240189352,1.0213336944580078,-2.796047035847799
1708442963.7137585,-2.14037823677063,-1.3336953085711976,-2.5287533442126673,6.109011161118307,1.0213379859924316,-2.796058956776754
1708442963.7157567,-2.1403756141662598,-1.3336342734149476,-2.528757635747091,6.10905288436965,1.0213336944580078,-2.7960618177997034
1708442963.717775,-2.14036226272583,-1.3336790067008515,-2.528811756764547,6.1090277312095544,1.0213379859924316,-2.796063486729757
1708442963.7197545,-2.1403870582580566,-1.3336668771556397,-2.528754774724142,6.109042751580038,1.0213130712509155,-2.7960382143603724
1708442963.7217562,-2.1403896808624268,-1.3336921793273468,-2.528766695653097,6.109030830651083,1.0213379859924316,-2.7960098425494593
1708442963.723746,-2.1403870582580566,-1.3336834621480484,-2.528724733983175,6.108990418701925,1.0213336944580078,-2.796030584965841
1708442963.7257593,-2.1403756141662598,-1.3336536449244996,-2.528827969227926,6.109048473625936,1.021317481994629,-2.796035114918844
1708442963.7277486,-2.1403825283050537,-1.3336834770492096,-2.528778855000631,6.1090677855308435,1.021345615386963,-2.796027723942892
1708442963.7297537,-2.14037823677063,-1.3336386245540162,-2.528766695653097,6.108999240189352,1.021317481994629,-2.796047035847799
1708442963.731769,-2.1403632164001465,-1.3336668771556397,-2.528721634541647,6.108949053078451,1.0213336944580078,-2.796072308217184
1708442963.733745,-2.14037823677063,-1.3336834919503708,-2.528775755559103,6.1090067503745935,1.0213543176651,-2.796027723942892
1708442963.735764,-2.140345335006714,-1.3336668771556397,-2.528766695653097,6.108993518143453,1.0213217735290527,-2.796006743107931
1708442963.737778,-2.140324115753174,-1.3336966645768662,-2.528754774724142,6.108994829445638,1.0213130712509155,-2.796027723942892
1708442963.7397776,-2.14036226272583,-1.3336909425309678,-2.528787914906637,6.109018909722128,1.0213662385940552,-2.7960484663592737
1708442963.741765,-2.14036226272583,-1.3336909425309678,-2.528783384953634,6.108990418701925,1.021346926689148,-2.795986000691549
1708442963.7437806,-2.1403913497924805,-1.3336550307324906,-2.528733555470602,6.109019863396444,1.0213381052017212,-2.7960484663592737
1708442963.7457814,-2.1404027938842773,-1.333671213393547,-2.5287743250476282,6.109055864601888,1.0212931632995605,-2.7959733645068567
1708442963.7477777,-2.14036226272583,-1.3336536598256608,-2.528799835835592,6.109055864601888,1.0213130712509155,-2.7960038820849817
1708442963.7497728,-2.1403939723968506,-1.3336878430894394,-2.528766695653097,6.109064805298605,1.0213048458099365,-2.7959614435779017
1708442963.7517924,-2.1404197216033936,-1.3336834919503708,-2.528792206441061,6.109051573067465,1.0213379859924316,-2.7960129419909876
1708442963.7537704,-2.14037823677063,-1.3336755347302933,-2.528778855000631,6.108994829445638,1.021357536315918,-2.7959869543658655
1708442963.7557528,-2.1403825283050537,-1.3336549562266846,-2.528766695653097,6.1090396521385095,1.0213336944580078,-2.7959705034839075
1708442963.7577605,-2.14037823677063,-1.3336879026940842,-2.5287655035602015,6.109047162323751,1.0213618278503418,-2.7959795633899134
1708442963.7597558,-2.1403825283050537,-1.3336180609515687,-2.528708283101217,6.109032141953268,1.0213249921798706,-2.7959466616259974
1708442963.761743,-2.140357732772827,-1.3336878579906006,-2.528750244771139,6.109018909722128,1.0213618278503418,-2.7959676424609583
1708442963.7637386,-2.140373706817627,-1.3337028485587616,-2.528775755559103,6.108970987587728,1.0213005542755127,-2.795938793812887
1708442963.7657394,-2.140366792678833,-1.333727942114212,-2.528808657323019,6.10906349399642,1.021317481994629,-2.795976702366964
1708442963.767787,-2.1403825283050537,-1.3336834919503708,-2.528750244771139,6.109035241394796,1.0213093757629395,-2.795934263859884
1708442963.769757,-2.14034104347229,-1.3336254817298432,-2.5287800470935267,6.109051573067465,1.0213217735290527,-2.7959557215320032
1708442963.7717924,-2.14034104347229,-1.3336712431958695,-2.528750244771139,6.109036552696981,1.0213217735290527,-2.795914951954977
1708442963.7737498,-2.1403939723968506,-1.3336255264333268,-2.528717104588644,6.10900233963088,1.0213217735290527,-2.7959521452533167
1708442963.775745,-2.140373706817627,-1.3336014312556763,-2.528721634541647,6.108990418701925,1.0213263034820557,-2.7958861033069056
1708442963.7777998,-2.140324115753174,-1.3336712431958695,-2.528738085423605,6.109011161118307,1.0213263034820557,-2.7958815733539026
1708442963.779793,-2.1403534412384033,-1.3336756390384217,-2.528766695653097,6.109032141953268,1.0213305950164795,-2.7958534399615687
1708442963.7817743,-2.1403543949127197,-1.3336952787688752,-2.528750244771139,6.109060394554891,1.0213425159454346,-2.7958415190326136
1708442963.783755,-2.1403825283050537,-1.3336624068072815,-2.528775755559103,6.108994829445638,1.0213249921798706,-2.795816246663229
1708442963.7857554,-2.140371084213257,-1.3336461198380967,-2.5287426153766077,6.108986007958212,1.0212724208831787,-2.7958341280566614
1708442963.787751,-2.140336513519287,-1.3336537045291443,-2.5287712256061,6.109075772553243,1.0212974548339844,-2.7958906332599085
1708442963.789767,-2.140373706817627,-1.333696575169899,-2.528754774724142,6.109014618187704,1.0212680101394653,-2.7958176771747034
1708442963.791832,-2.140366792678833,-1.3336057376912613,-2.5287712256061,6.108994829445638,1.0213305950164795,-2.795875612889425
1708442963.7937932,-2.1403543949127197,-1.3336549562266846,-2.528759304677145,6.109051573067465,1.0212886333465576,-2.795776907597677
1708442963.7957635,-2.14037823677063,-1.3336505901864548,-2.528733555470602,6.1090067503745935,1.0213217735290527,-2.795835558568136
1708442963.7977633,-2.1403985023498535,-1.3336386692574997,-2.5287802855121058,6.109072196274557,1.0213392972946167,-2.79574424425234
1708442963.7997694,-2.140373706817627,-1.3336712431958695,-2.5287638346301478,6.108957755356588,1.0212602615356445,-2.795856300984518
1708442963.8017504,-2.140373706817627,-1.3336537343314667,-2.5287306944476526,6.109035241394796,1.0213062763214111,-2.795748774205343
1708442963.803802,-2.140373706817627,-1.3336756241372605,-2.528717343007223,6.1089786169822595,1.0212602615356445,-2.7957547346698206
1708442963.805767,-2.1403534412384033,-1.3336790365031739,-2.528738085423605,6.109023320465841,1.0212571620941162,-2.7957871595965784
1708442963.807758,-2.140366792678833,-1.3337116104415436,-2.528750244771139,6.109032141953268,1.021232008934021,-2.7958036104785364
1708442963.8097827,-2.1403648853302,-1.3336593371680756,-2.528759304677145,6.109011161118307,1.02126145362854,-2.7957175413714808
1708442963.811789,-2.14034104347229,-1.3336101484349747,-2.5287020842181605,6.109064805298605,1.0212076902389526,-2.7957425753222864
1708442963.813756,-2.140373706817627,-1.3336623770049592,-2.5287562052356165,6.108974087029257,1.0212657451629639,-2.7957635561572474
1708442963.815771,-2.140324115753174,-1.3336167496493836,-2.5287097136126917,6.109014618187704,1.0212376117706299,-2.7957351843463343
1708442963.8177688,-2.140373706817627,-1.3336549562266846,-2.5286975542651575,6.10901557186202,1.0211881399154663,-2.795727316533224
1708442963.8197548,-2.1403896808624268,-1.333658055668213,-2.5287397543536585,6.109027850418844,1.0212057828903198,-2.7956751028644007
1708442963.8217828,-2.1404190063476562,-1.3336953234723588,-2.5287559668170374,6.108997928887167,1.021156668663025,-2.795661751423971
1708442963.8237562,-2.1403896808624268,-1.3336387139609833,-2.5287607351886194,6.108974087029257,1.0212175846099854,-2.795678202305929
1708442963.825759,-2.140369176864624,-1.3336790216020127,-2.5286482016192835,6.108957755356588,1.0211728811264038,-2.795715395604269
1708442963.827767,-2.1404190063476562,-1.3336180311492463,-2.528682533894674,6.1090277312095544,1.0211697816848755,-2.7956796328174036
1708442963.8297532,-2.140397548675537,-1.333704174762108,-2.528703753148214,6.108974087029257,1.021136999130249,-2.7956796328174036
1708442963.8318002,-2.140371561050415,-1.3336593222669144,-2.52873665491213,6.109088885575094,1.0210965871810913,-2.7956305185901087
1708442963.8337705,-2.140397548675537,-1.3336506199887772,-2.528703753148214,6.108962285309591,1.0210846662521362,-2.7956512610064905
1708442963.835782,-2.140406370162964,-1.3336593222669144,-2.528682533894674,6.109003650933065,1.0210809707641602,-2.795603100453512
1708442963.8377666,-2.140427827835083,-1.333666817550995,-2.528679672871725,6.109023320465841,1.0210484266281128,-2.795603100453512
1708442963.8397985,-2.140430450439453,-1.3336593222669144,-2.528651301060812,6.108949053078451,1.0210615396499634,-2.795607630406515
1708442963.8417966,-2.140393018722534,-1.3336712431958695,-2.528630320225851,6.109069096833029,1.0210615396499634,-2.795607391987936
1708442963.8437588,-2.1404337882995605,-1.3336580705693741,-2.5286439100848597,6.109023320465841,1.0209836959838867,-2.7955508867846888
1708442963.8457959,-2.1404168605804443,-1.3336135757020493,-2.5286393801318567,6.109023320465841,1.0210330486297607,-2.7955339590655726
1708442963.8477662,-2.140367269515991,-1.3336430352977295,-2.5286031405078333,6.109047162323751,1.020992398262024,-2.7955012957202356
1708442963.8497705,-2.1403839588165283,-1.3336703044227143,-2.5285702387439173,6.1090396521385095,1.02096426486969,-2.795523707066671
1708442963.8518121,-2.1403841972351074,-1.333674670462944,-2.5285986105548304,6.109030830651083,1.0209729671478271,-2.795511786137716
1708442963.8537915,-2.1404099464416504,-1.3336298924735566,-2.5285208860980433,6.109023320465841,1.0209935903549194,-2.7954984346972864
1708442963.855801,-2.1404383182525635,-1.3336549562266846,-2.528583828602926,6.1090102074439905,1.0209367275238037,-2.795487705861227
1708442963.8577614,-2.1404621601104736,-1.333704100256302,-2.528546396886007,6.109027850418844,1.0209323167800903,-2.795466963444845
1708442963.8597758,-2.1404168605804443,-1.3336965304664155,-2.528579298649923,6.10900233963088,1.0208930969238281,-2.7954788843738
1708442963.861764,-2.1404168605804443,-1.3336878281882782,-2.52855092683901,6.109055864601888,1.0208725929260254,-2.7954850832568567
1708442963.8637772,-2.1404778957366943,-1.3336965304664155,-2.52852970758547,6.109030830651083,1.0208393335342407,-2.7954731623279017
1708442963.8658092,-2.140448808670044,-1.333650605087616,-2.528501097355978,6.109023320465841,1.0208200216293335,-2.7954307238208216
1708442963.8677912,-2.1404709815979004,-1.3337116104415436,-2.5285101572619837,6.108949053078451,1.0208450555801392,-2.7954278627978724
1708442963.8698099,-2.140498399734497,-1.3337290746024628,-2.5285027662860315,6.109032141953268,1.0207959413528442,-2.7953861395465296
1708442963.871804,-2.1405117511749268,-1.3337084513953705,-2.5284982363330286,6.109036552696981,1.0207805633544922,-2.795413080845968
1708442963.873777,-2.1404690742492676,-1.3336712282947083,-2.5285027662860315,6.109027850418844,1.020801305770874,-2.795384709035055
1708442963.8757768,-2.1404645442962646,-1.3336386692574997,-2.5284863154040735,6.109060394554891,1.020756483078003,-2.7953394095050257
1708442963.8777893,-2.140432834625244,-1.333662436609604,-2.528483215962545,6.10901557186202,1.0207326412200928,-2.7953482309924524
1708442963.8797765,-2.140498399734497,-1.3336136204055329,-2.528466765080587,6.109055864601888,1.0206787586212158,-2.7953348795520228
1708442963.8818097,-2.140489339828491,-1.3336386692574997,-2.528475824986593,6.109030949860372,1.020675539970398,-2.7953437010394495
1708442963.8837957,-2.140559434890747,-1.3336505901864548,-2.52847129503359,6.108993518143453,1.0206798315048218,-2.7952871958362024
1708442963.8858006,-2.14052677154541,-1.3336430352977295,-2.5284679571734827,6.109067904740133,1.02067232131958,-2.7953317801104944
1708442963.8877933,-2.140566349029541,-1.3336267632297059,-2.5284679571734827,6.10907672622756,1.0206315517425537,-2.7953081766711634
1708442963.8897812,-2.140531301498413,-1.3336135757020493,-2.528451744710104,6.109044062882223,1.0206272602081299,-2.7952457110034388
1708442963.8918474,-2.14056396484375,-1.3336668771556397,-2.52840239206423,6.1090102074439905,1.0206047296524048,-2.795234266911642
1708442963.8937848,-2.1404964923858643,-1.333650605087616,-2.5283780733691614,6.109042751580038,1.0206047296524048,-2.7952268759356897
1708442963.8958013,-2.140583038330078,-1.3336756092360993,-2.5284040609942835,6.109033930092611,1.0205762386322021,-2.7952104250537317
1708442963.8977942,-2.1405484676361084,-1.3336756092360993,-2.5283334890948694,6.109054672508993,1.0205729007720947,-2.7952163855182093
1708442963.8998022,-2.140582323074341,-1.3336267483285447,-2.528391424809591,6.109022009163656,1.0205117464065552,-2.7951908747302454
1708442963.9017763,-2.1405563354492188,-1.3336756092360993,-2.528342310582296,6.109045851021566,1.02047860622406,-2.795178476964132
1708442963.9037602,-2.1405370235443115,-1.3336474013379593,-2.528346840535299,6.109074461251058,1.02047860622406,-2.79517108598818
1708442963.9058092,-2.1405653953552246,-1.3336537045291443,-2.528301779423849,6.109136450081625,1.0204873085021973,-2.7952006498919886
1708442963.9077728,-2.1405563354492188,-1.3336756092360993,-2.528310839329855,6.109139668732443,1.0204710960388184,-2.7951398531543177
1708442963.909771,-2.140547513961792,-1.3336756092360993,-2.528310839329855,6.109130847245016,1.0204232931137085,-2.795102659855978
1708442963.9118047,-2.14062762260437,-1.33363430321727,-2.5283153692828577,6.1090979454811,1.0203944444656372,-2.795119110737936
1708442963.9137616,-2.140615224838257,-1.3336997640183945,-2.5282703081714075,6.109122025757589,1.0204119682312012,-2.7950380484210413
1708442963.9157822,-2.1406140327453613,-1.3336549413255234,-2.5282538572894495,6.109159099846639,1.0203838348388672,-2.7950218359576624
1708442963.9177713,-2.140630006790161,-1.3336593222669144,-2.5282326380359095,6.1091800806816,1.020359754562378,-2.7951048056231897
1708442963.9197662,-2.1406095027923584,-1.3336712431958695,-2.528222147618429,6.109199392586508,1.020359754562378,-2.795063320790426
1708442963.9218032,-2.1406235694885254,-1.3336298626712342,-2.528252426777975,6.109181988030233,1.020356297492981,-2.7950366179095667
1708442963.9237645,-2.1406188011169434,-1.33363430321727,-2.528222147618429,6.109247195511617,1.0203202962875366,-2.7950201670276087
1708442963.9257927,-2.1406404972076416,-1.3336756092360993,-2.52821928659548,6.109207021981039,1.020279049873352,-2.7950032393084925
1708442963.9277835,-2.1407034397125244,-1.3336712431958695,-2.5281863848315638,6.109192597657003,1.0202515125274658,-2.7949510256396692
1708442963.929786,-2.1406776905059814,-1.3335985404304047,-2.5281863848315638,6.109241711884298,1.0202840566635132,-2.7949228922473353
1708442963.9318345,-2.1407227516174316,-1.3336298626712342,-2.5281580130206507,6.109278785973348,1.0202484130859375,-2.79494816461672
1708442963.9337726,-2.140716075897217,-1.3336311143687745,-2.5281716028796595,6.109303939133444,1.0202155113220215,-2.7949140707599085
1708442963.9357977,-2.1407296657562256,-1.3336712431958695,-2.5281336943255823,6.109283077507772,1.02019464969635,-2.7948864142047327
1708442963.937763,-2.140754461288452,-1.3336355698159714,-2.528109852467672,6.1092907069023035,1.0201748609542847,-2.7949450651751917
1708442963.939786,-2.1407253742218018,-1.333605782394745,-2.528114382420675,6.109326350479879,1.020139217376709,-2.794915262852804
1708442963.9417832,-2.140709400177002,-1.3336189550212403,-2.52810246149172,6.1093060849006555,1.0201265811920166,-2.7948878447162073
1708442963.943793,-2.1407368183135986,-1.33366812885318,-2.528106991444723,6.10927306392745,1.0201103687286377,-2.7948270479785364
1708442963.9457808,-2.1407580375671387,-1.3336549562266846,-2.5280497709857386,6.10933397987441,1.0201280117034912,-2.794880453740255
1708442963.9478061,-2.1407368183135986,-1.3336135757020493,-2.5280588308917444,6.109383094101705,1.0200788974761963,-2.794793669377462
1708442963.9497921,-2.1407368183135986,-1.3335735362819214,-2.5280588308917444,6.109390604286947,1.0200918912887573,-2.7947655359851282
1708442963.9517794,-2.140740156173706,-1.3336144995740433,-2.5280259291278284,6.109387504845419,1.0200307369232178,-2.794833008443014
1708442963.9537911,-2.140768527984619,-1.333679960375168,-2.5280259291278284,6.109402882843771,1.0200068950653076,-2.794774357472555
1708442963.9558098,-2.140763998031616,-1.3336593222669144,-2.5280228296863,6.109389650612631,1.0200155973434448,-2.7947638670550745
1708442963.9577785,-2.1408135890960693,-1.3336189550212403,-2.528010908757345,6.109459268837728,1.0199464559555054,-2.79478890100588
1708442963.9597723,-2.140822649002075,-1.3336311143687745,-2.527994219456808,6.109438884049215,1.0199674367904663,-2.7947638670550745
1708442963.9617896,-2.140825033187866,-1.3336593222669144,-2.5279868284808558,6.109397160797872,1.0199192762374878,-2.794711176549093
1708442963.9637814,-2.1408286094665527,-1.3336636883071442,-2.5279794375049036,6.109462368279257,1.0198701620101929,-2.7946844736682337
1708442963.965803,-2.140825033187866,-1.3336029958776017,-2.5279794375049036,6.109441745072164,1.0198297500610352,-2.794650379811422
1708442963.9678092,-2.140836477279663,-1.3336092096618195,-2.5279555956469935,6.109438884049215,1.0198218822479248,-2.7946768442737024
1708442963.96977,-2.140841007232666,-1.3336144995740433,-2.5279296080218714,6.1095149395759485,1.019814133644104,-2.7946353594409388
1708442963.9717953,-2.140873908996582,-1.3336386692574997,-2.527910296116964,6.109449255257406,1.0197618007659912,-2.7946398893939417
1708442963.9737744,-2.140897512435913,-1.3336355698159714,-2.527910296116964,6.109473335533895,1.0197452306747437,-2.7946680227862757
1708442963.9757817,-2.140904664993286,-1.333594189291336,-2.5279012362109583,6.109519231110372,1.0197540521621704,-2.7945943514453333
1708442963.9777794,-2.140904664993286,-1.3336355698159714,-2.527902905141012,6.109521376877584,1.0197346210479736,-2.7946153322802942
1708442963.9797828,-2.140930414199829,-1.3335735362819214,-2.527881924306051,6.109530079155721,1.0196774005889893,-2.794612471257345
1708442963.9817939,-2.1408956050872803,-1.3335985404304047,-2.527890984212057,6.109530079155721,1.019674301147461,-2.794617001210348
1708442963.983816,-2.1409382820129395,-1.3336072725108643,-2.527879063283102,6.109549271851339,1.0196220874786377,-2.7945473829852503
1708442963.9857693,-2.1409451961517334,-1.333623231654503,-2.5278382937060755,6.1094915745551965,1.0196396112442017,-2.7944894472705286
1708442963.9877772,-2.1409409046173096,-1.3336101484349747,-2.52778131166567,6.109561192780294,1.0195945501327515,-2.794519011174337
1708442963.9897726,-2.140970230102539,-1.3336144995740433,-2.5277934710132044,6.109536039620199,1.0195456743240356,-2.794520441685812
1708442963.9918585,-2.140986204147339,-1.3336430352977295,-2.5278144518481653,6.109613764076986,1.0195212364196777,-2.7944965998279017
1708442963.9937887,-2.1409928798675537,-1.3336636883071442,-2.5277696291552942,6.109555709152975,1.0195181369781494,-2.794438187276022
1708442963.9958036,-2.140986204147339,-1.333651841883995,-2.5278025309192103,6.109625685005941,1.0194734334945679,-2.7944684664355677
1708442963.9977689,-2.1409928798675537,-1.333679960375168,-2.527749840413229,6.109592783242025,1.019486427307129,-2.7944639364825647
1708442963.999786,-2.14103364944458,-1.3336430352977295,-2.5277424494372767,6.109604942589559,1.0194414854049683,-2.7944191137896937
1708442964.001765,-2.141029119491577,-1.333651841883995,-2.527721707020895,6.1096582291419885,1.0194252729415894,-2.7943909803973597
1708442964.0037577,-2.1410248279571533,-1.3336014163545151,-2.527745548878805,6.109633195191183,1.019372582435608,-2.794448200856344
1708442964.005801,-2.14103627204895,-1.333639846449234,-2.5277634302722376,6.109668957978048,1.019418716430664,-2.7943952719317835
1708442964.0077908,-2.141045093536377,-1.3336231124452134,-2.5276718775378626,6.109657037049093,1.0193291902542114,-2.7943676153766077
1708442964.0097854,-2.1410789489746094,-1.3336232167533417,-2.52767783800234,6.109677660256185,1.0193541049957275,-2.794354502354757
1708442964.0117686,-2.1410903930664062,-1.333651841883995,-2.527707878743307,6.1096852896507166,1.0192841291427612,-2.794358793889181
1708442964.0137637,-2.1410725116729736,-1.333605782394745,-2.527633253728048,6.109692799835958,1.0193179845809937,-2.7943931261645716
1708442964.0158107,-2.141045093536377,-1.3336029958776017,-2.527642075215475,6.1096839783485315,1.0192854404449463,-2.794295136128561
1708442964.0177867,-2.141080379486084,-1.3336101484349747,-2.527665917073385,6.109728801041403,1.0192450284957886,-2.7943318525897425
1708442964.019763,-2.1410973072052,-1.3336398166469117,-2.527646605168478,6.109778034477987,1.0192415714263916,-2.7942755858050745
1708442964.0217762,-2.141080379486084,-1.3335898530534287,-2.5276601950274866,6.109749424248495,1.0191924571990967,-2.7943080107318323
1708442964.0237777,-2.141120195388794,-1.3335659813931962,-2.5276103655444544,6.109704959183492,1.0192055702209473,-2.7942755858050745
1708442964.0258086,-2.1411333084106445,-1.3336072725108643,-2.5276148954974573,6.109724390297689,1.0191441774368286,-2.794262949620382
1708442964.027803,-2.141131639480591,-1.333594189291336,-2.5276315847979944,6.109736192017355,1.019148588180542,-2.794259850178854
1708442964.0297656,-2.141131639480591,-1.3335985404304047,-2.5276361147509974,6.1097484705741785,1.0191289186477661,-2.794199053441183
1708442964.0317943,-2.1411495208740234,-1.333639846449234,-2.52759558359255,6.109751570015707,1.019092082977295,-2.7942197958575647
1708442964.0337777,-2.141099691390991,-1.3336319637349625,-2.527574602757589,6.109783994942465,1.0190882682800293,-2.79423171678652
1708442964.035771,-2.1411385536193848,-1.3336275976947327,-2.527574602757589,6.109767663269796,1.019073247909546,-2.7941747347461146
1708442964.0377915,-2.1411890983581543,-1.3336474013379593,-2.527550284062521,6.109833228379049,1.0190317630767822,-2.7941790262805384
1708442964.0397773,-2.1411678791046143,-1.3336101484349747,-2.527557913457052,6.109764802246847,1.0190579891204834,-2.794159714375631
1708442964.041787,-2.1411545276641846,-1.333570496445038,-2.527588192616598,6.109800565033712,1.0189965963363647,-2.7941392103778284
1708442964.0437958,-2.141192674636841,-1.3336485636285325,-2.527496639882223,6.109819876938619,1.0189597606658936,-2.794119660054342
1708442964.0457857,-2.141157865524292,-1.333623231654503,-2.527489248906271,6.109796273499288,1.0190010070800781,-2.7940827051745813
1708442964.0477948,-2.141179323196411,-1.333616004591324,-2.5275116602527063,6.109906184464254,1.0189814567565918,-2.7940455118762415
1708442964.0497584,-2.1411702632904053,-1.3336364042809983,-2.5275026003467005,6.109848487168112,1.0189366340637207,-2.7941001097308558
1708442964.0517905,-2.1411702632904053,-1.3336204451373597,-2.5275190512286585,6.10985158660964,1.01894211769104,-2.7941294352160853
1708442964.0537739,-2.1412065029144287,-1.3335922372392197,-2.5274952093707483,6.109867918282308,1.0188885927200317,-2.7940669695483606
1708442964.0557597,-2.141244888305664,-1.3336072725108643,-2.5274952093707483,6.109876620560446,1.0188349485397339,-2.794084374104635
1708442964.057798,-2.141277551651001,-1.333570421939232,-2.527479950581686,6.109859216004171,1.0188641548156738,-2.794056240712301
1708442964.0597668,-2.141244888305664,-1.3335461777499695,-2.52743369737734,6.109900581627645,1.0188899040222168,-2.7940192858325403
1708442964.0617793,-2.141240358352661,-1.3335909855416794,-2.527473751698629,6.109887468605795,1.0188000202178955,-2.7940519491778772
1708442964.0637603,-2.1412596702575684,-1.3335985404304047,-2.5274561087237757,6.109882938652792,1.018837332725525,-2.7940195242511194
1708442964.0657809,-2.1412675380706787,-1.333611638551094,-2.527426067982809,6.1098904488380334,1.0188294649124146,-2.793999258671896
1708442964.0677764,-2.141247272491455,-1.3335790795138855,-2.5274484793292444,6.109961735993185,1.018784761428833,-2.794032398854391
1708442964.0697665,-2.1412596702575684,-1.3335580837777634,-2.5274065176593226,6.109964835434713,1.0187550783157349,-2.7939756552325647
1708442964.0717592,-2.1412179470062256,-1.3335418117097397,-2.5273945967303675,6.109927761345663,1.0187443494796753,-2.7940004507647913
1708442964.0737622,-2.1412720680236816,-1.3335474294475098,-2.5273945967303675,6.109988915711202,1.0187487602233887,-2.793971125279562
1708442964.0757666,-2.1413161754608154,-1.3335624647191544,-2.5274081865893763,6.1099634049232385,1.0187366008758545,-2.793959442769186
1708442964.07777,-2.1413073539733887,-1.3335909855416794,-2.527375046406881,6.1099352715309045,1.0187444686889648,-2.7939723173724573
1708442964.0797725,-2.141324281692505,-1.3335668009570618,-2.5273614565478724,6.110000598221578,1.018716812133789,-2.7939475218402308
1708442964.0818453,-2.1413402557373047,-1.3336275976947327,-2.527329985295431,6.109972345619955,1.0187082290649414,-2.793936554585592
1708442964.0837655,-2.141319751739502,-1.333623231654503,-2.527325455342428,6.110000479012289,1.018688440322876,-2.7939117590533655
1708442964.0857813,-2.141315221786499,-1.3336041581681748,-2.527334515248434,6.110060441284933,1.018672227859497,-2.793929402028219
1708442964.0877633,-2.1413064002990723,-1.333599717622139,-2.5273435751544397,6.109982955246725,1.018660306930542,-2.793957058583395
1708442964.0897894,-2.1412858963012695,-1.333566815858223,-2.527301613484518,6.110064732819357,1.0186196565628052,-2.7938955465899866
1708442964.0918097,-2.141369342803955,-1.3335746985724946,-2.527317825947897,6.110015857010641,1.0186240673065186,-2.7938836256610315
1708442964.0938292,-2.141317844390869,-1.3335922372392197,-2.527334515248434,6.110052931099691,1.0186195373535156,-2.793912712727682
1708442964.0957987,-2.141385078430176,-1.3335342568210145,-2.5273435751544397,6.11000274398879,1.0185915231704712,-2.7938836256610315
1708442964.0978231,-2.141364812850952,-1.3335800033858796,-2.5273314158069056,6.1100889323051355,1.0186207294464111,-2.793900791798727
1708442964.099805,-2.141400098800659,-1.3336054247668763,-2.5272730032550257,6.110027777939596,1.0186002254486084,-2.793840233479635
1708442964.101774,-2.141317844390869,-1.33357127130542,-2.5273075739489954,6.110030877381124,1.0186089277267456,-2.7938695589648646
1708442964.1037996,-2.1413629055023193,-1.3335800033858796,-2.5272582213031214,6.110035288124838,1.0185472965240479,-2.793795410786764
1708442964.1058176,-2.1414127349853516,-1.3335461777499695,-2.52733284631838,6.110051619797506,1.0185682773590088,-2.7938159147845667
1708442964.1077807,-2.141400098800659,-1.333559350376465,-2.5272656122790735,6.110096323281088,1.0185682773590088,-2.7938321272479456
1708442964.109774,-2.1413912773132324,-1.333554984336235,-2.527288262044088,6.1100560305412195,1.0185353755950928,-2.793771568928854
1708442964.1117866,-2.1413958072662354,-1.3335461777499695,-2.527245823537008,6.110112774163046,1.0185441970825195,-2.7938039938556116
1708442964.1137605,-2.1414036750793457,-1.3335058105042954,-2.5272627512561243,6.1100995419319055,1.0185203552246094,-2.793795410786764
1708442964.1157649,-2.1414036750793457,-1.333538682465889,-2.5272672812091272,6.110124575882711,1.018446922302246,-2.7937520186053675
1708442964.117829,-2.1414036750793457,-1.3335624647191544,-2.527226511632101,6.110182392388143,1.0185003280639648,-2.793788735066549
1708442964.1197526,-2.141453266143799,-1.3335834306529541,-2.527242962514059,6.110080110817709,1.0184721946716309,-2.793776814137594
1708442964.1217663,-2.1413564682006836,-1.33354306340728,-2.527201000844137,6.110120284348287,1.018435001373291,-2.7937026659594935
1708442964.1237636,-2.141394853591919,-1.3335386973670502,-2.5272355715381067,6.110103833466329,1.0184688568115234,-2.7937520186053675
1708442964.1257746,-2.141406297683716,-1.3335352700999756,-2.527242962514059,6.110092031746664,1.0183911323547363,-2.793731991444723
1708442964.127766,-2.1414577960968018,-1.3336085242084046,-2.5272565523730677,6.110103952675619,1.0184272527694702,-2.793691937123434
1708442964.1297712,-2.1414692401885986,-1.3335800033858796,-2.527214590703146,6.11008762100295,1.0183912515640259,-2.793765131627218
1708442964.1317735,-2.141455888748169,-1.3336173456958313,-2.5272117296801966,6.110115873604574,1.0184118747711182,-2.7936626116382044
1708442964.133769,-2.1414692401885986,-1.3336336326650162,-2.5271952787982386,6.110120284348287,1.0184162855148315,-2.793643299733297
1708442964.1357863,-2.141444444656372,-1.3336291772178193,-2.5272162596331995,6.1100995419319055,1.0183911323547363,-2.793691937123434
1708442964.137803,-2.141439914703369,-1.33354306340728,-2.5271292368518274,6.110115754395284,1.0184205770492554,-2.793717924748556
1708442964.1397698,-2.141448736190796,-1.3335058850101014,-2.5271664301501673,6.110115873604574,1.0183923244476318,-2.793651882802145
1708442964.1417685,-2.1414761543273926,-1.3335756373456498,-2.5272162596331995,6.1100995419319055,1.0183473825454712,-2.7936392466174524
1708442964.1437554,-2.141500949859619,-1.3335756373456498,-2.5271998087512415,6.110107052117147,1.0183849334716797,-2.793648068104879
1708442964.1457784,-2.141444444656372,-1.3335308146527787,-2.5271366278277796,6.110130893975057,1.0183517932891846,-2.793624226246969
1708442964.1477904,-2.1414806842803955,-1.333522082572319,-2.5271998087512415,6.110122072487631,1.0183277130126953,-2.7935994307147425
1708442964.1497657,-2.141488552093506,-1.3335233342698594,-2.52714711824526,6.110136496811666,1.0183355808258057,-2.793628517781393
1708442964.1517754,-2.141523838043213,-1.3335386973670502,-2.527118508015768,6.110070216446676,1.0183364152908325,-2.7936068216906946
1708442964.153769,-2.1414310932159424,-1.3335637164166947,-2.527135197316305,6.110126483231344,1.0182501077651978,-2.793596092854635
1708442964.155761,-2.141451358795166,-1.3335922372392197,-2.527154509221212,6.110058176308431,1.01829195022583,-2.793628517781393
1708442964.1578133,-2.1414222717285156,-1.333554984336235,-2.52717096010317,6.110148417740621,1.01829195022583,-2.7935712973224085
1708442964.1598105,-2.141444444656372,-1.3335308146527787,-2.5271604696856897,6.110077607422628,1.018272042274475,-2.793624226246969
1708442964.1617622,-2.1414425373077393,-1.333547444348671,-2.5271487871753138,6.110200869828024,1.0182470083236694,-2.793572250996725
1708442964.1637702,-2.1414425373077393,-1.3335681569627305,-2.527126137410299,6.110135304718771,1.0182393789291382,-2.79353911081423
1708442964.1657808,-2.1414053440093994,-1.3335146021893998,-2.52710205713381,6.110089409142294,1.0182600021362305,-2.7935765425311487
1708442964.1678061,-2.1414663791656494,-1.33357127130542,-2.5271275679217737,6.110168206482687,1.018248200416565,-2.7935197989093226
1708442964.1697857,-2.1414706707000732,-1.3335264337113877,-2.527135197316305,6.110139715462484,1.0182437896728516,-2.793556038533346
1708442964.171844,-2.141446828842163,-1.3335352700999756,-2.5271111170398157,6.1101726172264,1.0181987285614014,-2.7935691515551966
1708442964.173776,-2.141496419906616,-1.3335396361402054,-2.5271621386157435,6.110130893975057,1.0181987285614014,-2.7935314814196985
1708442964.175784,-2.1415035724639893,-1.3335562360337754,-2.5270944277392786,6.110155927925863,1.0182154178619385,-2.793548885975973
1708442964.1778147,-2.141475200653076,-1.3335308146527787,-2.5270825068103235,6.1101770279701135,1.0182197093963623,-2.7935693899737757
1708442964.1798072,-2.1414921283721924,-1.3335474145463486,-2.5271034876452845,6.110138404160299,1.0182031393051147,-2.79352838197817
1708442964.1818113,-2.141507863998413,-1.33357127130542,-2.5270376841174524,6.110130893975057,1.0181825160980225,-2.7935002485858362
1708442964.1837702,-2.1414921283721924,-1.3335233491710206,-2.5270870367633265,6.110093819886007,1.018162727355957,-2.7934721151935022
1708442964.1857913,-2.141500949859619,-1.333568127160408,-2.5270705858813685,6.110130893975057,1.0182044506072998,-2.7934473196612757
1708442964.1877782,-2.141496419906616,-1.3335189831307908,-2.5270870367633265,6.110086428910055,1.018213152885437,-2.7934849897967737
1708442964.1897843,-2.141500949859619,-1.3335189831307908,-2.5270467440234583,6.110139715462484,1.018162727355957,-2.7934516111956995
1708442964.1918163,-2.141512393951416,-1.3335474294475098,-2.5270677248584192,6.110139715462484,1.0181790590286255,-2.793447558079855
1708442964.193796,-2.141496419906616,-1.3335562360337754,-2.5270586649524134,6.110180127411642,1.0181386470794678,-2.7934606711017054
1708442964.1958334,-2.141462802886963,-1.3334954690984269,-2.5270677248584192,6.110107052117147,1.0181474685668945,-2.7934518496142786
1708442964.197794,-2.1414787769317627,-1.3335233491710206,-2.5270467440234583,6.110126483231344,1.0181596279144287,-2.7934563795672815
1708442964.1998,-2.141536235809326,-1.333576814537384,-2.527069393788473,6.110160338669576,1.0181474685668945,-2.7935012022601526
1708442964.201786,-2.141523838043213,-1.3335518848947068,-2.526980702077047,6.110200869828024,1.0181145668029785,-2.7934563795672815
1708442964.2037811,-2.1414875984191895,-1.3335562360337754,-2.527055803929464,6.11009834983901,1.0181114673614502,-2.793436829243795
1708442964.2058334,-2.1415035724639893,-1.3335233491710206,-2.5270467440234583,6.110139715462484,1.0180861949920654,-2.7933839003192347
1708442964.2078178,-2.141512393951416,-1.3334982556155701,-2.5270946661578577,6.1101146815116785,1.018114686012268,-2.7934001127826136
1708442964.209777,-2.141507863998413,-1.3335396361402054,-2.5270422140704554,6.110135304718771,1.0181233882904053,-2.7934086958514612
1708442964.211801,-2.141512393951416,-1.3335637164166947,-2.5270841757403772,6.110130893975057,1.018050193786621,-2.7933881918536585
1708442964.2137673,-2.1414875984191895,-1.333518998031952,-2.5270302931415003,6.110139715462484,1.0180948972702026,-2.793389383946554
1708442964.2157772,-2.1414573192596436,-1.3335189831307908,-2.527013365422384,6.1101757166679285,1.018054485321045,-2.7934098879443567
1708442964.217771,-2.1415035724639893,-1.3335562360337754,-2.52698523203005,6.110114562302389,1.018050193786621,-2.793417278920309
1708442964.219769,-2.1414875984191895,-1.333491103058197,-2.52702242532839,6.1101726172264,1.0180379152297974,-2.7933805624591272
1708442964.2217999,-2.141545057296753,-1.333548204307892,-2.526994053517477,6.11009834983901,1.018054485321045,-2.793396774922506
1708442964.2237914,-2.141523838043213,-1.3334982556155701,-2.52702242532839,6.110139715462484,1.0181124210357666,-2.793393675480978
1708442964.2258139,-2.1414945125579834,-1.3334954690984269,-2.526989523564474,6.110123383789816,1.0180423259735107,-2.793344322835104
1708442964.2277627,-2.1415035724639893,-1.3335157048753281,-2.5270031134234827,6.110107052117147,1.0180304050445557,-2.7933691183673304
1708442964.2297697,-2.1415035724639893,-1.3335440021804352,-2.527052942906515,6.110135304718771,1.0180588960647583,-2.793356243764059
1708442964.231809,-2.141507863998413,-1.3335026812604447,-2.5269866625415247,6.110184538155355,1.0180186033248901,-2.793319288884298
1708442964.233812,-2.141496419906616,-1.3334788543036957,-2.5269957224475306,6.11015938499526,1.0180392265319824,-2.7933767477618616
1708442964.2358098,-2.1414742469787598,-1.3335042011788865,-2.5269702116595667,6.110107052117147,1.0180315971374512,-2.7933691183673304
1708442964.237806,-2.141515016555786,-1.3335396361402054,-2.5270209948169153,6.11009834983901,1.0180110931396484,-2.7932923475848597
1708442964.2397964,-2.1414875984191895,-1.3334822815707703,-2.5270076433764856,6.110160338669576,1.0180153846740723,-2.7933204809771937
1708442964.2418258,-2.1415035724639893,-1.3335201752236863,-2.5269911924945276,6.110093819886007,1.0180141925811768,-2.7933247725116175
1708442964.243769,-2.1414990425109863,-1.3335233342698594,-2.5269866625415247,6.110142695694723,1.0180153846740723,-2.7933042685138147
1708442964.2457876,-2.1415317058563232,-1.3334982556155701,-2.5269461313830774,6.110163795738973,1.018036127090454,-2.7932923475848597
1708442964.2477715,-2.1414990425109863,-1.333491103058197,-2.5269957224475306,6.110126483231344,1.0180197954177856,-2.793337647114889
1708442964.2497685,-2.1414830684661865,-1.3335157048753281,-2.5270121733294886,6.110105740814962,1.0180315971374512,-2.793288056050436
1708442964.2517936,-2.1414830684661865,-1.333491103058197,-2.5269747416125696,6.110118973046102,1.0179945230484009,-2.7932851950274866
1708442964.2537813,-2.1414875984191895,-1.3335277152112504,-2.5269838015185755,6.110184538155355,1.017974853515625,-2.7933345476733606
1708442964.2558007,-2.1414663791656494,-1.3334997606328507,-2.5269911924945276,6.110127794533529,1.0179835557937622,-2.7932689825641077
1708442964.2578125,-2.1414945125579834,-1.3334982556155701,-2.5269535223590296,6.110102760582723,1.0179704427719116,-2.7932890097247522
1708442964.2597737,-2.1414990425109863,-1.333545209174492,-2.5269883314715784,6.110144006996908,1.0179625749588013,-2.7932804266559046
1708442964.2617874,-2.1414663791656494,-1.3335396361402054,-2.5269671122180384,6.110151636391439,1.0179582834243774,-2.793276611958639
1708442964.2637737,-2.1414830684661865,-1.3335201752236863,-2.5270002524005335,6.1101428149040125,1.0179998874664307,-2.793280903493063
1708442964.2657936,-2.141528367996216,-1.3334668588689347,-2.5270164648639124,6.11016474941329,1.0179388523101807,-2.793280903493063
1708442964.2678206,-2.141545057296753,-1.3334997457316895,-2.5269416014300745,6.110093819886007,1.0179181098937988,-2.7932573000537317
1708442964.2697935,-2.141496419906616,-1.3335070622018357,-2.5269702116595667,6.110126483231344,1.0179344415664673,-2.7932003180133265
1708442964.2718115,-2.141512393951416,-1.3335439723781128,-2.5269461313830774,6.110130893975057,1.0179507732391357,-2.7932241598712366
1708442964.2737634,-2.141515016555786,-1.3334997457316895,-2.5269339720355433,6.110130893975057,1.0179550647735596,-2.793191734944479
1708442964.2758,-2.1414706707000732,-1.3334788245013733,-2.5269926230060022,6.110127794533529,1.0179669857025146,-2.7932122389422815
1708442964.2777746,-2.1414618492126465,-1.3335526597550889,-2.5269957224475306,6.1100745079811,1.0179357528686523,-2.7931833902942103
1708442964.2797685,-2.141510486602783,-1.333528922205307,-2.5269957224475306,6.110111462860861,1.0179550647735596,-2.7932165304767054
1708442964.2818089,-2.1415317058563232,-1.3335364323905488,-2.5269249121295374,6.110111462860861,1.0179431438446045,-2.793217722569601
1708442964.2837725,-2.1415059566497803,-1.3334997159293671,-2.526943031941549,6.110135304718771,1.0179756879806519,-2.793171469365255
1708442964.285825,-2.1414830684661865,-1.3335277152112504,-2.5269551912890833,6.110095011978903,1.0179431438446045,-2.793147865925924
1708442964.2878082,-2.141523838043213,-1.3334462952664872,-2.526943031941549,6.110103952675619,1.0179225206375122,-2.793168369923727
1708442964.2897604,-2.1414787769317627,-1.3335233342698594,-2.526980463658468,6.110083210259237,1.0179312229156494,-2.793180290852682
1708442964.2917953,-2.141523838043213,-1.333462582235672,-2.526964251195089,6.110041844635763,1.0179312229156494,-2.793180290852682
1708442964.2937982,-2.141507863998413,-1.333496333365776,-2.527001682912008,6.1101441262061975,1.0179431438446045,-2.7931888739215296
1708442964.2957795,-2.141507863998413,-1.3334800761989136,-2.5269551912890833,6.110107052117147,1.0178937911987305,-2.793135944996969
1708442964.2978191,-2.141512393951416,-1.3334954541972657,-2.526980463658468,6.1100549576576135,1.0179519653320312,-2.79311973253359
1708442964.2997806,-2.1414921283721924,-1.333520160322525,-2.526926581059591,6.11007438877181,1.0179519653320312,-2.793173615132467
1708442964.3017795,-2.141449451446533,-1.3335245114615937,-2.526968781148092,6.110115873604574,1.0179100036621094,-2.793107811604635
1708442964.3037736,-2.1414875984191895,-1.3334997457316895,-2.5269838015185755,6.110084640770712,1.0179269313812256,-2.7930713335620325
1708442964.3058205,-2.1414380073547363,-1.3335233491710206,-2.5268893877612513,6.110068309098043,1.0178862810134888,-2.7931163946734827
1708442964.3077784,-2.1414291858673096,-1.3335085672191163,-2.526938501988546,6.109956609993734,1.0179188251495361,-2.7931163946734827
1708442964.309802,-2.1414830684661865,-1.3334919524243851,-2.5269597212420862,6.110030877381124,1.0179519653320312,-2.793128315602438
1708442964.3118122,-2.1414742469787598,-1.3334919524243851,-2.5269177595721644,6.110105263977804,1.0178992748260498,-2.7930801550494593
1708442964.313773,-2.1414706707000732,-1.3335364323905488,-2.526919190083639,6.1100114462669275,1.0178700685501099,-2.7930432001696985
1708442964.3158278,-2.141510486602783,-1.333508552317955,-2.526914660130636,6.110060441284933,1.0179026126861572,-2.7931092421161097
1708442964.3178022,-2.1414990425109863,-1.3334506315043946,-2.526919190083639,6.110015857010641,1.0179156064987183,-2.793056313191549
1708442964.319779,-2.1414337158203125,-1.333520160322525,-2.526926581059591,6.109991776734152,1.0179188251495361,-2.7930520216571253
1708442964.3217924,-2.141507863998413,-1.3335041862777253,-2.526898209248678,6.1099785445030115,1.0179156064987183,-2.7930896917926233
1708442964.3237717,-2.1414706707000732,-1.3335114282420655,-2.526919190083639,6.109956013947286,1.01792311668396,-2.7930572668658655
1708442964.325825,-2.1414663791656494,-1.3334997755340119,-2.526893917714254,6.1099634049232385,1.0179024934768677,-2.7929874102221888
1708442964.327825,-2.1414380073547363,-1.3334550124457856,-2.526931111012594,6.109944093018331,1.0178743600845337,-2.793036762868063
1708442964.3297698,-2.1414706707000732,-1.3335571003011246,-2.526886049901144,6.109881627350607,1.0178906917572021,-2.793058458958761
1708442964.3318095,-2.1414787769317627,-1.3334954690984269,-2.526919190083639,6.109927761345663,1.017878770828247,-2.7930336634265345
1708442964.333755,-2.1414132118225098,-1.3334745031646271,-2.526935640965597,6.109927761345663,1.0179156064987183,-2.7929843107806605
1708442964.3358135,-2.141496419906616,-1.3334474873593827,-2.526910130177633,6.109903681069174,1.0179111957550049,-2.7929800192462366
1708442964.3377602,-2.1414787769317627,-1.333462582235672,-2.526947561894552,6.109908091812887,1.017883062362671,-2.792952839528219
1708442964.339773,-2.141496419906616,-1.3335172843984147,-2.526902739201681,6.109958517342367,1.017878770828247,-2.7929161230670374
1708442964.3417735,-2.141507863998413,-1.333491937523224,-2.526935640965597,6.109867918282308,1.017894983291626,-2.792945210133688
1708442964.3437932,-2.141449451446533,-1.3334176701358338,-2.526931111012594,6.109884249954977,1.0178874731063843,-2.7928884665118616
1708442964.345796,-2.1414875984191895,-1.333475650554039,-2.526923720036642,6.109904992371359,1.0179243087768555,-2.792875353490011
1708442964.3478024,-2.1414875984191895,-1.3334875863841553,-2.526931111012594,6.109884249954977,1.017894983291626,-2.792839829121725
1708442964.3497703,-2.141496419906616,-1.3334962588599701,-2.526902739201681,6.109844076424398,1.017845869064331,-2.7928364912616175
1708442964.3518238,-2.14151930809021,-1.333500714307167,-2.526881519948141,6.109794842987814,1.017878770828247,-2.7928369680987757
1708442964.353773,-2.1414706707000732,-1.3335364323905488,-2.526919190083639,6.109812485962667,1.0179200172424316,-2.792800251637594
1708442964.355761,-2.141475200653076,-1.3334505271962662,-2.526914660130636,6.109861719399252,1.0178664922714233,-2.792804543172018
1708442964.357799,-2.1414337158203125,-1.3334221851876755,-2.526935640965597,6.109845387726583,1.0178874731063843,-2.7927237192737024
1708442964.359779,-2.141512393951416,-1.3334637445262452,-2.526935640965597,6.109824406891622,1.0178502798080444,-2.7926512400256556
1708442964.361764,-2.1414663791656494,-1.3335172843984147,-2.526902739201681,6.109763252526083,1.0178874731063843,-2.7927096525775355
1708442964.363779,-2.141496419906616,-1.33348003149543,-2.526952091847555,6.109744179039755,1.017883062362671,-2.7926247755633753
1708442964.3657727,-2.1414663791656494,-1.3335244369557877,-2.526919190083639,6.109764802246847,1.0178664922714233,-2.7925966421710413
1708442964.3677635,-2.1414380073547363,-1.3334637445262452,-2.526977602635519,6.109711396485128,1.017863392829895,-2.792560879384176
1708442964.3698022,-2.1414220333099365,-1.3334593933871766,-2.526952091847555,6.109797107964315,1.017883062362671,-2.7925785223590296
1708442964.371784,-2.141446828842163,-1.3334474724582215,-2.526923720036642,6.109809386521139,1.0178664922714233,-2.792459551488058
1708442964.373757,-2.141500949859619,-1.333435208802559,-2.526956383381979,6.109794008522787,1.0178709030151367,-2.7924895922290247
1708442964.376282,-2.141500949859619,-1.3334844422391434,-2.526907269154684,6.109745132714071,1.0178874731063843,-2.792469326649801
1708442964.377761,-2.141475200653076,-1.3334474873593827,-2.526881519948141,6.109712469368734,1.0178874731063843,-2.7924087683307093
1708442964.379775,-2.14145827293396,-1.3334843975356598,-2.5269401709186,6.109758364945211,1.0178664922714233,-2.792356077824728
1708442964.3817859,-2.141446828842163,-1.3334756654552002,-2.526893679295675,6.109753834992208,1.0178502798080444,-2.792344395314352
1708442964.3838077,-2.141475200653076,-1.3334505718997498,-2.526956383381979,6.109691846161642,1.017863392829895,-2.792244259511129
1708442964.385782,-2.141462802886963,-1.333475650554039,-2.526935640965597,6.109767186432638,1.017842411994934,-2.792224709187643
1708442964.3877769,-2.14145827293396,-1.3335042011788865,-2.526956383381979,6.109696256905355,1.0178546905517578,-2.7921515146838587
1708442964.3897705,-2.1414830684661865,-1.3334788543036957,-2.52690560022463,6.109692799835958,1.0178874731063843,-2.7921083609210413
1708442964.3917758,-2.141484022140503,-1.3334680658629914,-2.526923720036642,6.109688269882955,1.017883062362671,-2.7920525709735315
1708442964.3938084,-2.141488552093506,-1.3334549975446244,-2.526926581059591,6.109718072205343,1.0178589820861816,-2.791971747075216
1708442964.3957908,-2.141516923904419,-1.3334430915168305,-2.526947561894552,6.109639513283529,1.017891764640808,-2.7919533888446253
1708442964.3977635,-2.141488552093506,-1.33348003149543,-2.526935640965597,6.109664547234335,1.0178502798080444,-2.7918933073626917
1708442964.3997486,-2.141484022140503,-1.333491937523224,-2.526910130177633,6.109698402672567,1.0178751945495605,-2.791800085698263
1708442964.401795,-2.1414310932159424,-1.3334888380816956,-2.526869837437765,6.109685170441427,1.017891764640808,-2.7916880289660853
1708442964.4037619,-2.1414425373077393,-1.3334725511125107,-2.5268951098071497,6.109653818398275,1.0178992748260498,-2.7916279474841517
1708442964.4057744,-2.14145827293396,-1.3335129183581849,-2.526919190083639,6.10965262630538,1.0178589820861816,-2.791503969823019
1708442964.4077628,-2.141453981399536,-1.3334800016931077,-2.526923720036642,6.10965262630538,1.0178709030151367,-2.791448179875509
1708442964.4097857,-2.14139723777771,-1.3334505718997498,-2.5269163290606897,6.109693991928854,1.0179036855697632,-2.791344706212179
1708442964.411817,-2.141475200653076,-1.3335288775018235,-2.526923720036642,6.109624492913046,1.017883062362671,-2.791297737752096
1708442964.413787,-2.141446828842163,-1.3334745031646271,-2.526968781148092,6.10965262630538,1.0178751945495605,-2.7911203543292444
1708442964.4157708,-2.1414647102355957,-1.3334725511125107,-2.526935640965597,6.109615671425619,1.0178577899932861,-2.791049305592672
1708442964.417772,-2.141505479812622,-1.3334474873593827,-2.5269761721240442,6.1096852896507166,1.0178546905517578,-2.7908597628222864
1708442964.4197717,-2.141462802886963,-1.3334919524243851,-2.52698523203005,6.109657037049093,1.017891764640808,-2.7906952540027063
1708442964.4217706,-2.141444444656372,-1.3334919524243851,-2.5269761721240442,6.1096733687217615,1.0178664922714233,-2.7906134764300745
1708442964.4237847,-2.1414425373077393,-1.3334387403777619,-2.526914660130636,6.109620082169332,1.0179200172424316,-2.7904723326312464
1708442964.4257565,-2.141435384750366,-1.3334593784860154,-2.5269401709186,6.109633195191183,1.017894983291626,-2.7902796904193323
1708442964.4277563,-2.141435384750366,-1.3334308576634903,-2.526910130177633,6.109693991928854,1.0178415775299072,-2.790168110524313
1708442964.4297817,-2.141484022140503,-1.333456279044487,-2.526923720036642,6.109670150070944,1.0178874731063843,-2.7899633089648646
1708442964.4317772,-2.141435384750366,-1.3334264916232605,-2.526919190083639,6.109648215561666,1.0179156064987183,-2.7897873560534876
1708442964.433787,-2.1414425373077393,-1.3334431511214753,-2.526919190083639,6.109620082169332,1.017845869064331,-2.7895665804492396
1708442964.4357963,-2.141446828842163,-1.3334549975446244,-2.526952091847555,6.10966573932723,1.0179400444030762,-2.7894073168383997
1708442964.4377847,-2.1414096355438232,-1.3334932041219254,-2.5269013086902063,6.109657037049093,1.0178656578063965,-2.789224449788229
1708442964.4397979,-2.141418695449829,-1.3334919524243851,-2.5268967787372034,6.109640705376425,1.0179275274276733,-2.789036575947897
1708442964.4417617,-2.1414265632629395,-1.3334387403777619,-2.5269177595721644,6.109670150070944,1.0179400444030762,-2.78880745569338
1708442964.4437675,-2.1413815021514893,-1.333475650554039,-2.526956383381979,6.109661447792806,1.0179563760757446,-2.7886319796191614
1708442964.4457843,-2.141435384750366,-1.3334919524243851,-2.526980463658468,6.109657037049093,1.0179637670516968,-2.7883501688586634
1708442964.447807,-2.141455888748169,-1.3334800016931077,-2.5269551912890833,6.109637605934896,1.0179182291030884,-2.788156811391012
1708442964.4497914,-2.1414716243743896,-1.3334430915168305,-2.526952091847555,6.109620082169332,1.0179431438446045,-2.787908140813009
1708442964.4518545,-2.1414105892181396,-1.3334396493485947,-2.5269671122180384,6.109664547234335,1.0179637670516968,-2.787708346043722
1708442964.4537868,-2.141467332839966,-1.3334962737611313,-2.5269671122180384,6.10965262630538,1.0179625749588013,-2.7874110380755823
1708442964.4557784,-2.1414647102355957,-1.3335244220546265,-2.5269671122180384,6.10966585853652,1.0180119276046753,-2.787192408238546
1708442964.457761,-2.1414647102355957,-1.3334463399699708,-2.5269551912890833,6.109668957978048,1.0180076360702515,-2.7868877092944544
1708442964.4597569,-2.1414105892181396,-1.3335172992995759,-2.5269671122180384,6.109624492913046,1.0180315971374512,-2.78662354150881
1708442964.4617646,-2.141455888748169,-1.3334593784860154,-2.5269716421710413,6.10966573932723,1.0180392265319824,-2.7863603273974817
1708442964.4637866,-2.141451358795166,-1.3334387701800843,-2.5269506613360804,6.109649526863851,1.0180467367172241,-2.7860730330096644
1708442964.465797,-2.1414151191711426,-1.33342997849498,-2.5269911924945276,6.10966585853652,1.0180555582046509,-2.7857027689563196
1708442964.4677863,-2.1414151191711426,-1.3335085821202775,-2.5269747416125696,6.109661447792806,1.0180720090866089,-2.785431687031881
1708442964.469808,-2.1414601802825928,-1.3334637445262452,-2.5270076433764856,6.109636294632711,1.018100619316101,-2.785112444554464
1708442964.4718273,-2.141406297683716,-1.3334474575570603,-2.5270031134234827,6.109624492913046,1.0181201696395874,-2.7847629229175013
1708442964.4737813,-2.1414577960968018,-1.3334419143250962,-2.526989523564474,6.109661447792806,1.0181071758270264,-2.784398142491476
1708442964.4758313,-2.141448736190796,-1.333505080347397,-2.5270360151873987,6.109661328583517,1.0181396007537842,-2.7841246763812464
1708442964.4777727,-2.1413822174072266,-1.3334832054427643,-2.527069393788473,6.10965262630538,1.0181715488433838,-2.7837870756732386
1708442964.4798102,-2.1414105892181396,-1.3334875714829941,-2.527088467274801,6.109620082169332,1.0181877613067627,-2.783402744923727
1708442964.481817,-2.1414363384246826,-1.3334265512279053,-2.5270348230945032,6.109660255699911,1.0181877613067627,-2.7830172220813196
1708442964.4837956,-2.1414036750793457,-1.3334919524243851,-2.5270422140704554,6.109714734345236,1.0182087421417236,-2.7826371828662317
1708442964.4857934,-2.1414151191711426,-1.3334668588689347,-2.5270631949054163,6.10965262630538,1.0182197093963623,-2.78225285211672
1708442964.4877923,-2.1413609981536865,-1.3334550124457856,-2.5271034876452845,6.109653937607565,1.0181987285614014,-2.7818315664874476
1708442964.4897978,-2.1414151191711426,-1.3334831309369584,-2.5270751158343714,6.109624373703756,1.018227219581604,-2.7815097014056605
1708442964.4917922,-2.1414196491241455,-1.3335244369557877,-2.5271201769458216,6.109713899880209,1.0182676315307617,-2.781039063130514
1708442964.4938269,-2.1414151191711426,-1.3334550124457856,-2.527106587086813,6.109692799835958,1.018308162689209,-2.7806032339679163
1708442964.4958014,-2.1414151191711426,-1.3334626120379944,-2.5270825068103235,6.109729993134298,1.0183277130126953,-2.7801619211779993
1708442964.4977996,-2.141406297683716,-1.333508552317955,-2.5271320978747767,6.109668957978048,1.0183069705963135,-2.779710117970602
1708442964.499788,-2.1414036750793457,-1.3334343445352097,-2.5270944277392786,6.109700548439779,1.0183805227279663,-2.7793434301959437
1708442964.5017776,-2.1414036750793457,-1.333495483999588,-2.527139727269308,6.109709489136495,1.0184327363967896,-2.7788413206683558
1708442964.503761,-2.1413912773132324,-1.3335042011788865,-2.527151648198263,6.109725701599874,1.0184284448623657,-2.778339926396505
1708442964.5058014,-2.1414542198181152,-1.3334875714829941,-2.527184549962179,6.109775054245748,1.018452525138855,-2.7778878847705286
1708442964.5078287,-2.1413426399230957,-1.3335042011788865,-2.527180020009176,6.109742033272543,1.0184556245803833,-2.7773826758014124
1708442964.5097628,-2.1414082050323486,-1.3335189533284684,-2.5271454493152063,6.109728801041403,1.0184928178787231,-2.776837412511007
1708442964.5117967,-2.1413471698760986,-1.333495483999588,-2.5272071997271937,6.109757292061605,1.0185003280639648,-2.776315991078512
1708442964.5137806,-2.1414036750793457,-1.333527685408928,-2.5272565523730677,6.109780776291647,1.0185203552246094,-2.7758255640613
1708442964.5157783,-2.1413674354553223,-1.333446280365326,-2.527214590703146,6.10976921299056,1.0185441970825195,-2.775260035191671
1708442964.5177894,-2.1413867473602295,-1.3334667694619675,-2.5271907488452356,6.109760510712423,1.0185976028442383,-2.7747269312488
1708442964.5197546,-2.141374349594116,-1.333536372785904,-2.527254883443014,6.1097707627113245,1.0185967683792114,-2.7742002646075647
1708442964.5217972,-2.141380786895752,-1.333527685408928,-2.527245823537008,6.109792697220602,1.0186251401901245,-2.7736521402942103
1708442964.523785,-2.141380786895752,-1.3334867370179673,-2.527254883443014,6.109875070839681,1.0186326503753662,-2.7730961481677454
1708442964.525758,-2.141380786895752,-1.3335232895663758,-2.5272837320910853,6.109812485962667,1.0186655521392822,-2.772449318562643
1708442964.5277545,-2.141319751739502,-1.333531991844513,-2.5273240248309534,6.109828698426046,1.0186808109283447,-2.7718542257892054
1708442964.5297494,-2.141317844390869,-1.3334625673345109,-2.527339045201437,6.109799253731527,1.0186676979064941,-2.771245781575338
1708442964.5317824,-2.141371965408325,-1.3335648340037842,-2.5273059050189417,6.109841096192159,1.018733024597168,-2.7706192175494593
1708442964.5337744,-2.1413347721099854,-1.3334982556155701,-2.527372185383932,6.109885561257162,1.0187606811523438,-2.7699833551989954
1708442964.5357592,-2.141383409500122,-1.333491103058197,-2.527384106312887,6.109876739769735,1.0187321901321411,-2.769388262425558
1708442964.5377684,-2.1412813663482666,-1.333495483999588,-2.527396027241842,6.109896170883932,1.018769383430481,-2.76870567003359
1708442964.5397742,-2.141324281692505,-1.3335113686374207,-2.5273869673358362,6.109891879349508,1.0188294649124146,-2.76805287996401
1708442964.5417898,-2.141369342803955,-1.3335364025882264,-2.5274351278888147,6.10985158660964,1.0188491344451904,-2.767359797154562
1708442964.543758,-2.141348123550415,-1.3335352551988144,-2.5274277369128626,6.109842884331503,1.018877387046814,-2.7666829268084925
1708442964.5457819,-2.1413118839263916,-1.3335233640721817,-2.5274887720691126,6.109928715019979,1.0188766717910767,-2.766076389943258
1708442964.5477707,-2.141319751739502,-1.3335527640632172,-2.527437988911764,6.109911191254415,1.0189377069473267,-2.7654205004321497
1708442964.5497622,-2.1412770748138428,-1.3334745329669495,-2.527466360722677,6.109960424691,1.0189409255981445,-2.764693800603048
1708442964.5517642,-2.1413118839263916,-1.3335440021804352,-2.5275235811816614,6.109924423485555,1.0189740657806396,-2.7639945189105433
1708442964.5537572,-2.1412858963012695,-1.3335680824569245,-2.5275145212756556,6.110013711243429,1.0190097093582153,-2.7632978598224085
1708442964.5558062,-2.1413207054138184,-1.3335843843272706,-2.5275355021106165,6.1099352715309045,1.0189965963363647,-2.762548033391134
1708442964.5577567,-2.141258716583252,-1.3335725528052826,-2.527505699788229,6.109930860787191,1.0190459489822388,-2.7618590036975306
1708442964.5597684,-2.1412835121154785,-1.3335562509349366,-2.5275548140155237,6.109942900925436,1.0191144943237305,-2.761129919682638
1708442964.5617836,-2.1412789821624756,-1.333597333436348,-2.527579132710592,6.109991776734152,1.0191227197647095,-2.7603781859027308
1708442964.5637774,-2.1412880420684814,-1.333559350376465,-2.527579132710592,6.109993326454916,1.0191289186477661,-2.7596049944507044
1708442964.5657628,-2.1412994861602783,-1.333584414129593,-2.5276029745685022,6.110037791519918,1.0191824436187744,-2.758850638066427
1708442964.567833,-2.141263246536255,-1.3335190129331131,-2.5276435057269495,6.1100021479423425,1.0192067623138428,-2.75809890428652
1708442964.5697765,-2.1412765979766846,-1.3335996729186554,-2.5277212301837366,6.11006926277236,1.01919686794281,-2.757326904927389
1708442964.5717764,-2.1412720680236816,-1.333550603394844,-2.5277121702777308,6.109966981201925,1.0192787647247314,-2.7565835157977503
1708442964.5737677,-2.141308307647705,-1.3335965734771271,-2.5277167002307337,6.109966981201925,1.0192699432373047,-2.7557342688189905
1708442964.5758004,-2.141247272491455,-1.333616019492485,-2.5277305285083216,6.109999286919393,1.019317865371704,-2.754916254674093
1708442964.5777912,-2.141242742538452,-1.3335922223380585,-2.5277770201312464,6.110036599427023,1.0193748474121094,-2.754127804433004
1708442964.5797658,-2.1412110328674316,-1.33358787119899,-2.5277469793902796,6.110081422119894,1.0193660259246826,-2.7532947699176233
1708442964.5817847,-2.1412291526794434,-1.3336441677859803,-2.5277589003192347,6.110023367195883,1.0194110870361328,-2.7524707953082483
1708442964.5837944,-2.141256093978882,-1.3335834306529541,-2.5277753512011927,6.110075700073995,1.0194458961486816,-2.751641813908712
1708442964.585804,-2.141249418258667,-1.3336116087487717,-2.527841393147604,6.11013017871932,1.0195026397705078,-2.7508142630206507
1708442964.587775,-2.1412198543548584,-1.3336145144752045,-2.5278189818011683,6.110034096031942,1.019486427307129,-2.749899689351217
1708442964.5897827,-2.141233444213867,-1.3336159747890015,-2.5278189818011683,6.110081422119894,1.0195505619049072,-2.7490628401385706
1708442964.5917726,-2.1412243843078613,-1.3336145144752045,-2.527856413518087,6.110068189888754,1.0195751190185547,-2.7482929865466517
1708442964.5938194,-2.141188144683838,-1.3336311143687745,-2.5278714338885706,6.110109674721517,1.019611120223999,-2.747429911290304
1708442964.5958261,-2.1411757469177246,-1.3336398315480729,-2.5279207865344446,6.110080110817709,1.0196338891983032,-2.7465818564044397
1708442964.5977857,-2.1411545276641846,-1.3336189550212403,-2.527874533330099,6.110080110817709,1.0197118520736694,-2.7457709948169153
1708442964.5998287,-2.1411385536193848,-1.3336430352977295,-2.527935806904928,6.110068189888754,1.0197148323059082,-2.7448187510119837
1708442964.6017988,-2.1411757469177246,-1.333638684158661,-2.5279222170459192,6.110078799515524,1.0197924375534058,-2.74394661584963
1708442964.603783,-2.1411802768707275,-1.3336224120906373,-2.5279222170459192,6.11008762100295,1.019798994064331,-2.7430902163134974
1708442964.605784,-2.1411473751068115,-1.333671198492386,-2.5279296080218714,6.110066997795858,1.0198678970336914,-2.742223326359884
1708442964.6077685,-2.1411845684051514,-1.3336224269917984,-2.5279420057879847,6.1101451990898035,1.0198919773101807,-2.741321865712301
1708442964.6097915,-2.141072988510132,-1.3336430352977295,-2.5279839674579065,6.110062587052145,1.0199156999588013,-2.740441385899679
1708442964.611781,-2.141131639480591,-1.333643065100052,-2.5279868284808558,6.110046255379476,1.0199192762374878,-2.7395480314837855
1708442964.61378,-2.141122579574585,-1.333662436609604,-2.5279868284808558,6.110092031746664,1.0199551582336426,-2.7387200037585657
1708442964.6157753,-2.1411564350128174,-1.3337203723243256,-2.528027359639303,6.110078918724813,1.0199551582336426,-2.737910572682516
1708442964.6177766,-2.1411540508270264,-1.333638684158661,-2.528060261403219,6.110046374588766,1.0200121402740479,-2.7369025389300745
1708442964.6197994,-2.1411359310150146,-1.3336474162391205,-2.5280349890338343,6.110103952675619,1.020036220550537,-2.7360013167010706
1708442964.621791,-2.141111135482788,-1.333704100256302,-2.5280707518206995,6.110124575882711,1.020063877105713,-2.73511249223818
1708442964.6238253,-2.141113042831421,-1.333704100256302,-2.5281205813037317,6.110075700073995,1.0200755596160889,-2.7341912428485315
1708442964.6257882,-2.141075849533081,-1.3336712282947083,-2.528114382420675,6.1100995419319055,1.0201029777526855,-2.7333596388446253
1708442964.6277983,-2.141043186187744,-1.3336952787688752,-2.5281761328326624,6.110127794533529,1.0201847553253174,-2.732459608708517
1708442964.6297777,-2.141052007675171,-1.3336506348899384,-2.528159205113546,6.110132086067953,1.0201879739761353,-2.7315929571734827
1708442964.6317716,-2.141047716140747,-1.3336549711278458,-2.5281835238086146,6.110092031746664,1.0202361345291138,-2.730741564427511
1708442964.633815,-2.1410679817199707,-1.3337115061334153,-2.5282326380359095,6.110055076866903,1.020260214805603,-2.7298246065722864
1708442964.635791,-2.1410138607025146,-1.3336922389319916,-2.52821928659548,6.110083210259237,1.0202677249908447,-2.728898350392477
1708442964.6377742,-2.1410202980041504,-1.3337397289327164,-2.528226677571432,6.110148417740621,1.0203334093093872,-2.7279847303973597
1708442964.6397734,-2.1410610675811768,-1.333727852707245,-2.528189245854513,6.110107052117147,1.0203194618225098,-2.7271080652820032
1708442964.6417823,-2.141040563583374,-1.3336418134025116,-2.528234306965963,6.110136496811666,1.0203518867492676,-2.7261746565448206
1708442964.6437633,-2.1410000324249268,-1.333702878361084,-2.5282674471484583,6.110078918724813,1.0203676223754883,-2.725220505391256
1708442964.645799,-2.1410000324249268,-1.333720327620842,-2.5282703081714075,6.110120165138998,1.0203957557678223,-2.7243662516223353
1708442964.647817,-2.1410000324249268,-1.3336866211942215,-2.5282822291003626,6.110046255379476,1.020403265953064,-2.7233827749835413
1708442964.6497724,-2.140984058380127,-1.3336941760829468,-2.5283318201648157,6.110121476441183,1.0204644203186035,-2.7224493662463587
1708442964.6517847,-2.140984058380127,-1.3337115806392212,-2.528334919606344,6.1100995419319055,1.020533561706543,-2.721515480672018
1708442964.65379,-2.1410133838653564,-1.3336703342250367,-2.528301779423849,6.110127794533529,1.0204999446868896,-2.720572296773092
1708442964.6558027,-2.1409523487091064,-1.3337235015681763,-2.528376642857687,6.110130893975057,1.0205652713775635,-2.7195475737201136
1708442964.657777,-2.140968084335327,-1.3337354075959702,-2.5284040609942835,6.1100995419319055,1.0205893516540527,-2.718642298375265
1708442964.65977,-2.140986204147339,-1.3336985421231766,-2.5283661524402063,6.110107052117147,1.0206090211868286,-2.717605177556173
1708442964.6617947,-2.140939950942993,-1.3337104481509705,-2.5284114519702356,6.110090839653768,1.0206403732299805,-2.7167745272265833
1708442964.6637697,-2.1409318447113037,-1.333751694565155,-2.5284233728991907,6.110120165138998,1.02067232131958,-2.715797249470846
1708442964.6657863,-2.14094877243042,-1.3337354821017762,-2.528442684804098,6.110115873604574,1.0206518173217773,-2.7148471514331263
1708442964.6677787,-2.140859365463257,-1.3337429773858567,-2.5284679571734827,6.1100995419319055,1.0206798315048218,-2.713862482701437
1708442964.6697962,-2.1409080028533936,-1.3337135773948212,-2.528454605733053,6.110124575882711,1.0207445621490479,-2.712954823170797
1708442964.6718173,-2.1408956050872803,-1.3337429922870179,-2.5284953753100794,6.110078918724813,1.0207771062850952,-2.7119715849505823
1708442964.6737952,-2.1408684253692627,-1.3337758642486115,-2.5284908453570765,6.110111462860861,1.0207849740982056,-2.7109881083117884
1708442964.6757884,-2.1408140659332275,-1.333783434038498,-2.5284696261035364,6.110078918724813,1.0208375453948975,-2.7100699583636683
1708442964.6777928,-2.1408514976501465,-1.3337671619704743,-2.5285282770739954,6.110120284348287,1.0208244323730469,-2.7090910116778772
1708442964.679779,-2.1408817768096924,-1.3337540191463013,-2.5285356680499476,6.11008762100295,1.0208449363708496,-2.708097521458761
1708442964.6818428,-2.1408514976501465,-1.3337997061065217,-2.5285101572619837,6.11008762100295,1.020897626876831,-2.7071672121631067
1708442964.6837914,-2.1408603191375732,-1.333770291214325,-2.5285266081439417,6.110083210259237,1.020917296409607,-2.706261698399679
1708442964.6857972,-2.140838861465454,-1.33375837028537,-2.528588358555929,6.110132086067953,1.0209128856658936,-2.705377165471212
1708442964.687781,-2.1408286094665527,-1.333810643558838,-2.528592888508932,6.110152828484335,1.0209654569625854,-2.704432789479391
1708442964.689786,-2.140852451324463,-1.3338159185699006,-2.528558317814962,6.110083210259237,1.0210299491882324,-2.703554932271139
1708442964.691794,-2.1408331394195557,-1.3337777715972443,-2.528600041066305,6.110080110817709,1.0210089683532715,-2.7026501337634485
1708442964.6938004,-2.140841007232666,-1.3337865632823487,-2.5286076704608362,6.1100745079811,1.0210373401641846,-2.7017348448382776
1708442964.6958761,-2.1408658027648926,-1.3337821972421189,-2.5285776297198694,6.110115873604574,1.0211108922958374,-2.7007694880114954
1708442964.697801,-2.1407887935638428,-1.3338269156268616,-2.5286060015307825,6.11005066612319,1.0210809707641602,-2.6999154726611536
1708442964.699799,-2.140763282775879,-1.333785430794098,-2.5286720434771937,6.1100995419319055,1.0210890769958496,-2.6990016142474573
1708442964.701787,-2.1408047676086426,-1.3338194352439423,-2.528646771107809,6.110066997795858,1.0211009979248047,-2.698143545781271
1708442964.7037814,-2.1407525539398193,-1.3338268560222168,-2.528613869343893,6.110083329468527,1.0211247205734253,-2.697226587926046
1708442964.7058003,-2.1407809257507324,-1.3338341873935242,-2.5286393801318567,6.110083210259237,1.021181583404541,-2.69631272951235
1708442964.7077904,-2.1407854557037354,-1.3337746423533936,-2.528687063847677,6.110078799515524,1.021230697631836,-2.6954172293292444
1708442964.7098055,-2.1407480239868164,-1.333789662723877,-2.528703753148214,6.110071289330282,1.021185040473938,-2.6944997946368616
1708442964.711787,-2.140763998031616,-1.333823786383011,-2.528666083012716,6.110105263977804,1.021242618560791,-2.6936174074756067
1708442964.7137878,-2.1407763957977295,-1.33378221214328,-2.528687063847677,6.1100220558936975,1.0212252140045166,-2.6927438418017786
1708442964.7158144,-2.140763998031616,-1.3337952655604859,-2.528666083012716,6.110014545708456,1.0212820768356323,-2.6918044726001185
1708442964.7177777,-2.140761613845825,-1.3338400584510346,-2.5287233034717005,6.110035288124838,1.0212571620941162,-2.6909220854388636
1708442964.7197745,-2.140749216079712,-1.3337733757546921,-2.5287233034717005,6.109999167710104,1.021277666091919,-2.6899870077716272
1708442964.7218227,-2.140749216079712,-1.3337777566960831,-2.5287471453296106,6.110060441284933,1.0213093757629395,-2.6891046206103724
1708442964.7238033,-2.140716314315796,-1.3338591319373627,-2.5287891069995325,6.110048520355978,1.0213305950164795,-2.688157383595602
1708442964.7257895,-2.140723466873169,-1.3338547360948105,-2.528717104588644,6.109929668694296,1.0213093757629395,-2.687206570302145
1708442964.7277856,-2.1407411098480225,-1.3337777268937607,-2.528754774724142,6.110020267754354,1.0213263034820557,-2.6863084475146692
1708442964.729799,-2.140716314315796,-1.3338400584510346,-2.528787914906637,6.110039698868551,1.0213618278503418,-2.685430351887838
1708442964.7318041,-2.1406679153442383,-1.3338473004153748,-2.528783384953634,6.1099785445030115,1.0213741064071655,-2.6845267454730433
1708442964.7337868,-2.140685558319092,-1.333842859869339,-2.5287907759295862,6.109971391945638,1.0213488340377808,-2.6836305300342005
1708442964.735833,-2.1406731605529785,-1.3338269156268616,-2.528832499180929,6.109996068268575,1.0213662385940552,-2.682779137288229
1708442964.7377825,-2.140754461288452,-1.333842859869339,-2.528811756764547,6.110012399941244,1.0213488340377808,-2.681953732167379
1708442964.7398038,-2.1407253742218018,-1.333813951616623,-2.528811756764547,6.109976637154379,1.0213772058486938,-2.6809642950641077
1708442964.7418318,-2.140697956085205,-1.3337896925261994,-2.5287697950946253,6.109926569252767,1.021401286125183,-2.680126492177145
1708442964.7438092,-2.1406686305999756,-1.3338505190661927,-2.5288384596454065,6.109914648323812,1.0213937759399414,-2.6792107264148157
1708442964.7458203,-2.1406819820404053,-1.3337777715972443,-2.5288310686694544,6.109894859581747,1.0214710235595703,-2.678354565297262
1708442964.7477946,-2.1406731605529785,-1.3338473004153748,-2.5288599173175257,6.109961735993185,1.0214502811431885,-2.677413527165548
1708442964.7497933,-2.1406686305999756,-1.3338298958591004,-2.52885085741152,6.109896170883932,1.021453619003296,-2.6766260305987757
1708442964.7518086,-2.1406493186950684,-1.3338591319373627,-2.5288553873645228,6.109915601998129,1.0214660167694092,-2.675671641026632
1708442964.753778,-2.1406617164611816,-1.3337156635573884,-2.528862778340475,6.109879839211263,1.021482229232788,-2.6749044100390833
1708442964.7558126,-2.1406209468841553,-1.3338547807982941,-2.528867308293478,6.109896170883932,1.0214985609054565,-2.673993174229757
1708442964.7577906,-2.1406404972076416,-1.3338269156268616,-2.5288293997394007,6.109925615578451,1.0214735269546509,-2.6731353441821497
1708442964.759804,-2.1406185626983643,-1.3338150841048737,-2.528870169316427,6.1098517058189294,1.0214977264404297,-2.672246758137838
1708442964.7618136,-2.1406209468841553,-1.3338062924197693,-2.528883759175436,6.109863507538595,1.0214648246765137,-2.6714640299426478
1708442964.7638066,-2.140641450881958,-1.3338385236314316,-2.52883750597109,6.1098517058189294,1.0214933156967163,-2.670607391987936
1708442964.7657955,-2.140630006790161,-1.3338313561728974,-2.5288248697863978,6.109863507538595,1.0214977264404297,-2.6696935335742396
1708442964.767775,-2.140638828277588,-1.333810643558838,-2.52887469926943,6.109815585404196,1.0214941501617432,-2.668921772633688
1708442964.7697804,-2.140638828277588,-1.3337932539037247,-2.528816048298971,6.109823453217306,1.0215675830841064,-2.668086592351095
1708442964.771796,-2.140601634979248,-1.333802030687668,-2.528903071080343,6.109819996147909,1.0215424299240112,-2.6672642866717737
1708442964.7737937,-2.140580415725708,-1.3337896925261994,-2.528879229222433,6.109821307450094,1.0215126276016235,-2.6664581934558313
1708442964.7757778,-2.140638828277588,-1.3338194352439423,-2.528879229222433,6.1097707627113245,1.0215545892715454,-2.6656466166125696
1708442964.777808,-2.140568733215332,-1.3338150841048737,-2.5288658777820032,6.109819996147909,1.0215424299240112,-2.664840284978048
1708442964.779792,-2.1405937671661377,-1.3337734204581757,-2.528858248387472,6.109751689224996,1.021550178527832,-2.6639657656299036
1708442964.781785,-2.1406028270721436,-1.3338516515544434,-2.52887469926943,6.109792816429891,1.021562099456787,-2.663159195576803
1708442964.7838101,-2.1405699253082275,-1.3338062924197693,-2.528886620198385,6.109780776291647,1.0215946435928345,-2.662262264882223
1708442964.785787,-2.1405529975891113,-1.3338095110705872,-2.52889854112734,6.109719979553976,1.0215740203857422,-2.661499087010519
1708442964.7877827,-2.140615224838257,-1.333810643558838,-2.52887469926943,6.109733211785116,1.021578311920166,-2.660675112401144
1708442964.7897863,-2.1405484676361084,-1.333802030687668,-2.52887469926943,6.109761702805319,1.021562099456787,-2.659765068684713
1708442964.7917778,-2.1405575275421143,-1.333842859869339,-2.528919521962301,6.109712469368734,1.0215989351272583,-2.6589887777911585
1708442964.793794,-2.1405999660491943,-1.3338473004153748,-2.528903071080343,6.109774935036459,1.0215293169021606,-2.6581128279315394
1708442964.795867,-2.1405327320098877,-1.3338385087302704,-2.528886620198385,6.109709489136495,1.021562099456787,-2.657266441975729
1708442964.7977974,-2.140561819076538,-1.333785430794098,-2.528882090245382,6.109640705376425,1.0215458869934082,-2.656409565602438
1708442964.7997923,-2.1405575275421143,-1.3338269156268616,-2.528894011174337,6.109704959183492,1.02155339717865,-2.6556101481067103
1708442964.801801,-2.1405415534973145,-1.333871380691864,-2.528910462056295,6.109640824585714,1.021562099456787,-2.654752556477682
1708442964.8037996,-2.1405255794525146,-1.3337896925261994,-2.52889854112734,6.109648215561666,1.0215545892715454,-2.653931442891256
1708442964.8058114,-2.1405088901519775,-1.3337777715972443,-2.5289483706103724,6.109669077187338,1.021546721458435,-2.6531029383288782
1708442964.8077855,-2.1405460834503174,-1.3338473004153748,-2.5289226214038294,6.109645116120138,1.021562099456787,-2.6523552576648157
1708442964.809771,-2.1405460834503174,-1.3337976795485993,-2.528910462056295,6.109662639885702,1.021566390991211,-2.651571814213888
1708442964.8118045,-2.1405043601989746,-1.3338591319373627,-2.528882090245382,6.109652745514669,1.0215249061584473,-2.650775972996847
1708442964.8137844,-2.140550374984741,-1.333834246998169,-2.528923813496725,6.109583961754598,1.0215578079223633,-2.6499369780169886
1708442964.815785,-2.14052677154541,-1.333846167927124,-2.528931442891256,6.109620082169332,1.0215578079223633,-2.649165455495016
1708442964.8177876,-2.1404848098754883,-1.3338385087302704,-2.5288777987109583,6.109575259476461,1.0215083360671997,-2.648360792790548
1708442964.8197792,-2.1405088901519775,-1.3337734204581757,-2.5288658777820032,6.109616863518514,1.0215697288513184,-2.647522751485006
1708442964.821783,-2.140531301498413,-1.333794043665268,-2.528903071080343,6.109646427422323,1.0215784311294556,-2.646815601979391
1708442964.8237875,-2.140505313873291,-1.3338400584510346,-2.528877560292379,6.109609353333273,1.0215708017349243,-2.645961109791891
1708442964.8258014,-2.1405088901519775,-1.3338313561728974,-2.528894011174337,6.109576451569357,1.0215336084365845,-2.6451757589923304
1708442964.8277962,-2.140500783920288,-1.3338194352439423,-2.52889854112734,6.109560119896688,1.0215590000152588,-2.6443548838244837
1708442964.8297873,-2.14056396484375,-1.333785430794098,-2.528882090245382,6.1095852730567834,1.0215007066726685,-2.643578831349508
1708442964.8317847,-2.1404964923858643,-1.333834246998169,-2.528886620198385,6.109577762871542,1.0215424299240112,-2.642843548451559
1708442964.833774,-2.140455722808838,-1.333856002693512,-2.528914992009298,6.1094796536262415,1.0215590000152588,-2.642111126576559
1708442964.835859,-2.140493869781494,-1.333770291214325,-2.528877560292379,6.109516966133871,1.0215345621109009,-2.6413212458239954
1708442964.8377776,-2.140505313873291,-1.333835707311966,-2.528853718434469,6.109488355904379,1.0215511322021484,-2.640590016041891
1708442964.8397899,-2.140493869781494,-1.3338150841048737,-2.528895680104391,6.109505879669943,1.021506428718567,-2.6398776213275355
1708442964.8417811,-2.140514373779297,-1.3338269156268616,-2.528849426900045,6.109501588135519,1.0214529037475586,-2.63910419145693
1708442964.8437774,-2.140493869781494,-1.3338269007257004,-2.528919521962301,6.109472143441,1.0215270519256592,-2.6384359041797083
1708442964.8457732,-2.140486001968384,-1.3337984842113038,-2.528919283543722,6.1094082472618005,1.021506428718567,-2.6376591364489954
1708442964.8477702,-2.140493869781494,-1.3338269156268616,-2.528903071080343,6.109436023026266,1.0214898586273193,-2.636996571217672
1708442964.8497725,-2.1404848098754883,-1.333810643558838,-2.5288730303393763,6.109474408417501,1.0214985609054565,-2.636242691670553
1708442964.8517919,-2.1404645442962646,-1.333867923622467,-2.528891150151388,6.109417903214254,1.021470546722412,-2.635461155568258
1708442964.8537724,-2.140444278717041,-1.333825485115387,-2.528882090245382,6.109405982285299,1.021437406539917,-2.6347201506244105
1708442964.855825,-2.1404237747192383,-1.3337692034295578,-2.528841797505514,6.109434473305502,1.0214135646820068,-2.633984629307882
1708442964.8577778,-2.140455484390259,-1.3337690991214295,-2.52883750597109,6.109423506050863,1.0214178562164307,-2.6332841555224817
1708442964.859771,-2.1404690742492676,-1.333831326370575,-2.5288129488574427,6.109423625260153,1.021422266960144,-2.632559363042013
1708442964.8617826,-2.140432834625244,-1.3337777715972443,-2.528846327458517,6.109333026200094,1.0214112997055054,-2.6317854563342493
1708442964.8637838,-2.140498399734497,-1.333822564487793,-2.5288293997394007,6.109374391823568,1.0213000774383545,-2.631061379109518
1708442964.8657784,-2.1405231952667236,-1.3338269156268616,-2.5288339296924036,6.10939513423995,1.0213087797164917,-2.630324904118673
1708442964.8677797,-2.1404531002044678,-1.333794043665268,-2.5288293997394007,6.109313118248739,1.0213249921798706,-2.629608456288473
1708442964.8697903,-2.140486001968384,-1.3337777715972443,-2.5288174788104456,6.1093506691749475,1.021329402923584,-2.628831450139181
1708442964.8717937,-2.1405277252197266,-1.3338028353503724,-2.5288026968585413,6.1092731831367395,1.0213136672973633,-2.6280985514270228
1708442964.8737843,-2.1404237747192383,-1.3338062924197693,-2.5287936369525355,6.109281766205587,1.021276831626892,-2.627295796071188
1708442964.8757823,-2.140493869781494,-1.333785430794098,-2.5288265387164515,6.109256851464071,1.0212321281433105,-2.626638476048605
1708442964.8777711,-2.140441656112671,-1.3338516515544434,-2.5287609736071985,6.109278785973348,1.0212408304214478,-2.6258397738086146
1708442964.879773,-2.1404645442962646,-1.3337952655604859,-2.5288072268115442,6.109281885414877,1.0211641788482666,-2.6251238028155726
1708442964.881776,-2.140481472015381,-1.3337374192527314,-2.528778855000631,6.109217631607809,1.0211938619613647,-2.6244311968432825
1708442964.8837748,-2.1404824256896973,-1.3337777715972443,-2.528745714818136,6.109296309738912,1.0211488008499146,-2.62365967432131
1708442964.8857994,-2.140493869781494,-1.333807186489441,-2.528733555470602,6.109238374024191,1.0211575031280518,-2.6228609720813196
1708442964.8877735,-2.1404619216918945,-1.333745227461197,-2.528754774724142,6.109242784767904,1.0210996866226196,-2.622213904057638
1708442964.8897958,-2.140424966812134,-1.333794043665268,-2.5287967363940638,6.109184968262472,1.0210846662521362,-2.621432367955343
1708442964.891796,-2.1404531002044678,-1.333770291214325,-2.5287471453296106,6.109248387604513,1.0210809707641602,-2.620798174534933
1708442964.8937898,-2.1404948234558105,-1.333794043665268,-2.528738085423605,6.1092145321662805,1.0209994316101074,-2.6200524012195032
1708442964.8958442,-2.1404645442962646,-1.3337865632823487,-2.5287020842181605,6.10919069030837,1.0210168361663818,-2.6193490664111536
1708442964.8977969,-2.140476942062378,-1.33375837028537,-2.528682533894674,6.1091744778449915,1.0209717750549316,-2.618587319050924
1708442964.8998127,-2.1404619216918945,-1.3337659400752564,-2.5286689440356653,6.109174358635702,1.0209392309188843,-2.6178486982928675
1708442964.9018126,-2.140481472015381,-1.3338194352439423,-2.528661553059713,6.109142768173971,1.0209567546844482,-2.6171584765063685
1708442964.903775,-2.1404736042022705,-1.3338281375220795,-2.528666083012716,6.109163510590353,1.020927906036377,-2.616408650075094
1708442964.905792,-2.140437364578247,-1.3338028353503724,-2.528642241154806,6.109123456269064,1.0208845138549805,-2.6156840960132044
1708442964.9077868,-2.140437364578247,-1.3337865632823487,-2.528625790272848,6.109102237015524,1.020880103111267,-2.614943806325094
1708442964.909777,-2.1404690742492676,-1.3337789934924622,-2.5286229292498987,6.1090582487876794,1.0208319425582886,-2.6143086592303675
1708442964.9117894,-2.140424966812134,-1.3337909144214173,-2.528651301060812,6.1090502617652795,1.0208287239074707,-2.613498036061422
1708442964.9137824,-2.140448808670044,-1.3337789934924622,-2.5285940806018274,6.109099495201864,1.0208121538162231,-2.612765375767843
1708442964.9158282,-2.1404531002044678,-1.3337952655604859,-2.5286031405078333,6.109066831856527,1.0207880735397339,-2.6120689550982874
1708442964.9178092,-2.140498399734497,-1.33378221214328,-2.5285702387439173,6.109059083252706,1.0207477807998657,-2.6113608519183558
1708442964.9197898,-2.140481472015381,-1.333770291214325,-2.528541866933004,6.109022009163656,1.020740270614624,-2.610692803059713
1708442964.921812,-2.140498399734497,-1.3338194352439423,-2.528558317814962,6.108968484192648,1.020728349685669,-2.609931532536642
1708442964.923814,-2.1404690742492676,-1.3337614995292206,-2.52855092683901,6.108986127167501,1.0206964015960693,-2.609300676976339
1708442964.9258199,-2.140448808670044,-1.3337997061065217,-2.528555456792013,6.109003650933065,1.020611047744751,-2.6085737387286585
1708442964.927791,-2.140448808670044,-1.3337627363255997,-2.5285192171679896,6.109043943672933,1.0206067562103271,-2.6078665892230433
1708442964.9297879,-2.140486001968384,-1.3337374192527314,-2.5284562746631067,6.108987319260397,1.0206198692321777,-2.6071797052966517
1708442964.9318094,-2.140437364578247,-1.3337671619704743,-2.5284577051745813,6.108930933266439,1.0205960273742676,-2.6064794699298304
1708442964.9337928,-2.140446186065674,-1.333783434038498,-2.528466765080587,6.108947145729818,1.020547866821289,-2.6058884302722376
1708442964.935813,-2.1404948234558105,-1.3337592643550416,-2.52847129503359,6.109004843025961,1.0205106735229492,-2.605137650166647
1708442964.9377975,-2.140507221221924,-1.3337583553842087,-2.528438154851095,6.108911144524374,1.0204873085021973,-2.6045430342303675
1708442964.9397874,-2.1405117511749268,-1.3337429922870179,-2.528433863316671,6.108948457032003,1.0204428434371948,-2.603812281285421
1708442964.9418006,-2.1404576301574707,-1.3337092262557526,-2.528418842946188,6.108909952431478,1.0204724073410034,-2.6031604448901575
1708442964.9437623,-2.140448808670044,-1.333754913215973,-2.528381649647848,6.108889210015096,1.0203945636749268,-2.602478806172506
1708442964.9458113,-2.1404690742492676,-1.3337104481509705,-2.528381649647848,6.108955967217245,1.0203838348388672,-2.6018105188952845
1708442964.9477658,-2.1404507160186768,-1.3336941760829468,-2.5283616224872034,6.108887302666464,1.0203344821929932,-2.6010802427874964
1708442964.949808,-2.140441656112671,-1.333714799290039,-2.528342310582296,6.108861911087789,1.0203313827514648,-2.600445572529928
1708442964.95179,-2.140486001968384,-1.3336898398450394,-2.528363291417257,6.108919846802511,1.0202996730804443,-2.599788252507345
1708442964.953768,-2.140453338623047,-1.3337191504291077,-2.52832276025881,6.10888289192275,1.0202429294586182,-2.5990963617907923
1708442964.9558265,-2.1404645442962646,-1.3336790365031739,-2.528292957936422,6.108872163086691,1.020235300064087,-2.598410431538717
1708442964.95783,-2.140432834625244,-1.333699793820717,-2.5282867590533655,6.108842837601461,1.0201858282089233,-2.5976837317096155
1708442964.9597702,-2.1404902935028076,-1.3337115806392212,-2.528310839329855,6.108876693039694,1.0201871395111084,-2.5970523993121546
1708442964.9618049,-2.140420436859131,-1.333690957432129,-2.5282583872424524,6.108839618950643,1.0201265811920166,-2.5963264147387903
1708442964.9637644,-2.140486001968384,-1.3336834770492096,-2.5282416979419153,6.108860361367025,1.0200985670089722,-2.5956414381610315
1708442964.9657865,-2.140432834625244,-1.3336985272220154,-2.528247896824972,6.108867871552267,1.0200788974761963,-2.595001284276144
1708442964.9677942,-2.140446186065674,-1.3336668771556397,-2.528231207524435,6.108794915467062,1.0200538635253906,-2.594322745000021
1708442964.969774,-2.1404645442962646,-1.3336461645415802,-2.528210226689474,6.1088037369544885,1.020009994506836,-2.5936546961413782
1708442964.9718018,-2.1404690742492676,-1.3336790216020127,-2.5282116572009485,6.108775126724996,1.0199697017669678,-2.5929930845843714
1708442964.9737942,-2.140486001968384,-1.3336506199887772,-2.5281789938556116,6.108799207001486,1.0199618339538574,-2.5922959486590784
1708442964.9757972,-2.140502691268921,-1.3336267632297059,-2.5281501452075403,6.1088647721107385,1.019958734512329,-2.5916064421283167
1708442964.9777865,-2.140460252761841,-1.3336136204055329,-2.5281382242785853,6.108799207001486,1.0198734998703003,-2.590945545827047
1708442964.9797869,-2.140493869781494,-1.3336298924735566,-2.528106991444723,6.108845102577963,1.0198255777359009,-2.590280357991354
1708442964.9817672,-2.140486001968384,-1.333662436609604,-2.528109852467672,6.108815657883444,1.0198832750320435,-2.5895989576922815
1708442964.983786,-2.140460252761841,-1.3336965304664155,-2.528106991444723,6.108824360161581,1.0198472738265991,-2.5889866987811487
1708442964.985805,-2.140444278717041,-1.3337010008147736,-2.5280707518206995,6.108824240952291,1.0197653770446777,-2.588335100804464
1708442964.9878027,-2.140416145324707,-1.3336624217084427,-2.5280497709857386,6.1088212607200525,1.0197827816009521,-2.587660614644186
1708442964.989772,-2.140437364578247,-1.3336518120816727,-2.5280633608447474,6.1088002798850916,1.0197422504425049,-2.586937967930929
1708442964.9917965,-2.140444278717041,-1.3336180758527298,-2.528055969868795,6.108825552254476,1.0197433233261108,-2.5862694422351282
1708442964.9937766,-2.1405186653137207,-1.3336636585048218,-2.528031889592306,6.108819949417867,1.0196654796600342,-2.5856204668628138
1708442964.9958634,-2.14054012298584,-1.3336593073657532,-2.527968947087423,6.108776318817892,1.0196830034255981,-2.5849316755877894
1708442964.9977934,-2.140486001968384,-1.3336430352977295,-2.5279703775988978,6.108795869141378,1.019593596458435,-2.5842984358416956
1708442964.9997804,-2.1405277252197266,-1.3336461645415802,-2.527949635182516,6.108758795052328,1.0195695161819458,-2.5836127440081995
1708442965.0017881,-2.140507221221924,-1.333662436609604,-2.5279250780688685,6.108804571419515,1.019578218460083,-2.5829225222217005
1708442965.0037763,-2.140502691268921,-1.333650605087616,-2.527898375188009,6.108787047653951,1.019567608833313,-2.58229905763735
1708442965.0058157,-2.140486001968384,-1.3336473864367981,-2.5279555956469935,6.108767616539755,1.019484043121338,-2.5815513769732874
1708442965.0077887,-2.140514373779297,-1.3336014610579987,-2.527914826069967,6.108819949417867,1.019498348236084,-2.5808873812304896
1708442965.009779,-2.140481472015381,-1.3336430203965683,-2.527890984212057,6.108804571419515,1.0195146799087524,-2.5803332964526575
1708442965.0117857,-2.140455484390259,-1.3336755347302933,-2.527879063283102,6.108782636910238,1.0194416046142578,-2.579690758381979
1708442965.013777,-2.140476942062378,-1.3336298924735566,-2.5278669039355677,6.108804571419515,1.0194220542907715,-2.579031292592184
1708442965.0158088,-2.1405346393585205,-1.3336430501988907,-2.5278428236590784,6.108837592392721,1.0193771123886108,-2.5783894697772425
1708442965.0177672,-2.1405131816864014,-1.3336224120906373,-2.5278263727771204,6.1088528511817834,1.0193783044815063,-2.577707354222433
1708442965.0197656,-2.140505313873291,-1.333638684158661,-2.5277980009662073,6.108747350960531,1.0193541049957275,-2.577045742665426
1708442965.0217788,-2.1405088901519775,-1.3336928945830842,-2.527823511754171,6.108841883927145,1.019292950630188,-2.576411787663595
1708442965.0238028,-2.140472412109375,-1.3336159747890015,-2.527794901524679,6.1088002798850916,1.019281029701233,-2.575780455266134
1708442965.0258226,-2.1405222415924072,-1.3336189699224015,-2.527752939854757,6.108808028488912,1.0192941427230835,-2.575138870869772
1708442965.0277731,-2.1405131816864014,-1.333651826982834,-2.5277696291552942,6.108804571419515,1.0191925764083862,-2.5744739214526575
1708442965.02977,-2.140500783920288,-1.3335133355906983,-2.527787510548727,6.10879265049056,1.0192055702209473,-2.5738254229175013
1708442965.0318139,-2.140559434890747,-1.3336189550212403,-2.5277379194842737,6.108783948212423,1.0191936492919922,-2.573167149220602
1708442965.0337858,-2.1405222415924072,-1.3335779470256348,-2.527749840413229,6.108791339188375,1.0191411972045898,-2.5724814573871058
1708442965.035769,-2.140521287918091,-1.3336072725108643,-2.5277276674853724,6.108795869141378,1.0191454887390137,-2.5717759768115442
1708442965.0377874,-2.1404786109924316,-1.333631919031479,-2.5277321974383753,6.108763325005331,1.0190719366073608,-2.57115084329714
1708442965.0398347,-2.1405370235443115,-1.3336030107787629,-2.527691427861349,6.108812558441915,1.0190601348876953,-2.570530716572897
1708442965.041853,-2.1405742168426514,-1.3335790795138855,-2.527715269719259,6.108811127930441,1.0190491676330566,-2.569869343434469
1708442965.043767,-2.140507698059082,-1.3335997325233002,-2.5276196638690394,6.108819949417867,1.0190361738204956,-2.5692365805255335
1708442965.0458293,-2.140568733215332,-1.333627538090088,-2.5276299158679407,6.108819949417867,1.0190744400024414,-2.568543259297506
1708442965.0477762,-2.140582323074341,-1.3336189550212403,-2.5276299158679407,6.108837592392721,1.0189847946166992,-2.5679147879229944
1708442965.0498195,-2.1405982971191406,-1.3336041432670136,-2.5276103655444544,6.108791339188375,1.0189440250396729,-2.567233387623922
1708442965.051782,-2.140573263168335,-1.333586723809578,-2.5276315847979944,6.108778226166525,1.0189204216003418,-2.5665720144854944
1708442965.0537746,-2.140568733215332,-1.333558128481247,-2.527591053639547,6.10886167266921,1.018912434577942,-2.5659056345569056
1708442965.0557883,-2.140630006790161,-1.333631919031479,-2.527557913457052,6.108808028488912,1.0189136266708374,-2.565286461506979
1708442965.0577693,-2.140634298324585,-1.333611638551094,-2.527566973363058,6.108830916672506,1.0188729763031006,-2.5645929018603724
1708442965.0597615,-2.140625476837158,-1.3336485189250489,-2.527550284062521,6.1088318703468225,1.0188273191452026,-2.5638938585864466
1708442965.0617597,-2.140662670135498,-1.3335581731847306,-2.5275593439685267,6.108918058663168,1.0188405513763428,-2.563230101262228
1708442965.0637639,-2.1406493186950684,-1.333574728374817,-2.5275548140155237,6.108847248345175,1.0188045501708984,-2.5625763575183313
1708442965.0657954,-2.1405961513519287,-1.3335922223380585,-2.5275428930865687,6.108870732575216,1.018800973892212,-2.5619567076312464
1708442965.0677724,-2.1406235694885254,-1.3335593354753037,-2.5275145212756556,6.108940589218893,1.0187922716140747,-2.5612743536578577
1708442965.0697796,-2.140652656555176,-1.333575577741005,-2.5275309721576136,6.108927476197042,1.0187681913375854,-2.560540501271383
1708442965.0717862,-2.140711545944214,-1.3335966032794495,-2.5274604002581995,6.108927476197042,1.0187575817108154,-2.5599327723132532
1708442965.0737875,-2.140681028366089,-1.333599643116333,-2.5274692217456263,6.108947145729818,1.0186753273010254,-2.559296194707052
1708442965.075837,-2.140749931335449,-1.3335462671569367,-2.5274410883532923,6.109016763954916,1.0187050104141235,-2.558610502873556
1708442965.0778403,-2.1407253742218018,-1.3335637164166947,-2.527475420628683,6.10894142368392,1.018688440322876,-2.5579822699176233
1708442965.079779,-2.140685558319092,-1.3335550290397187,-2.527417246495382,6.1089786169822595,1.0186445713043213,-2.557312313710348
1708442965.081827,-2.1406679153442383,-1.3335386973670502,-2.527426067982809,6.1090277312095544,1.018635869026184,-2.5566633383380335
1708442965.0837884,-2.140716314315796,-1.3335624796203156,-2.52744704881777,6.109100806504049,1.0185670852661133,-2.555986229573385
1708442965.0858014,-2.140712022781372,-1.3335637015155335,-2.5274155775653284,6.109042870789327,1.0185801982879639,-2.555307451878683
1708442965.0878363,-2.140723466873169,-1.3335102063468476,-2.5273779074298304,6.109106766968527,1.0185757875442505,-2.5546560923205774
1708442965.089799,-2.140773057937622,-1.3335724932006379,-2.5274036566363733,6.109138476639547,1.0185073614120483,-2.553908888493673
1708442965.0917842,-2.1407480239868164,-1.3335145574859162,-2.527379576359884,6.109133946686544,1.0185203552246094,-2.5532012621508997
1708442965.0937707,-2.1408135890960693,-1.333505855207779,-2.527346436177389,6.109178769379415,1.0185291767120361,-2.5526486078845423
1708442965.0958407,-2.1408135890960693,-1.3335233491710206,-2.527375046406881,6.109198319702902,1.0184884071350098,-2.5519374052630823
1708442965.0978384,-2.140850782394409,-1.3335605722716828,-2.527363125477926,6.109263765602865,1.0184556245803833,-2.551276985798971
1708442965.0998023,-2.1408092975616455,-1.3336097163013,-2.527339045201437,6.109303939133444,1.0184438228607178,-2.5506249109851282
1708442965.101832,-2.1408047676086426,-1.3335221123746415,-2.527346436177389,6.109303819924154,1.018431544303894,-2.549854103718893
1708442965.1037996,-2.1408162117004395,-1.3335562211326142,-2.527350966130392,6.109261142998495,1.018403172492981,-2.5492008368121546
1708442965.1058385,-2.1408274173736572,-1.3335277003100892,-2.5272985140429896,6.109330642014303,1.0184240341186523,-2.5485075155841272
1708442965.1078107,-2.14090895652771,-1.3335922223380585,-2.5273240248309534,6.10937129238204,1.018371820449829,-2.547868315373556
1708442965.1098013,-2.140864849090576,-1.3335518699935456,-2.5272746721850794,6.10939501503066,1.0183805227279663,-2.5471912066089075
1708442965.1118364,-2.140897512435913,-1.3335887652686615,-2.5272627512561243,6.109402882843771,1.0183223485946655,-2.5465660730945032
1708442965.11377,-2.1409294605255127,-1.333601014023163,-2.5272627512561243,6.109385359078207,1.0183606147766113,-2.545863930379049
1708442965.1158197,-2.1409170627593994,-1.333559350376465,-2.527238432561056,6.1094504473503015,1.0183277130126953,-2.545185391102926
1708442965.1177983,-2.1409451961517334,-1.3335965734771271,-2.527259413396017,6.109450566559591,1.0182833671569824,-2.544495407735006
1708442965.1197853,-2.1410019397735596,-1.3335637164166947,-2.527254883443014,6.109474408417501,1.0183321237564087,-2.543793503438131
1708442965.1217897,-2.140977144241333,-1.3335681420615693,-2.527205769215719,6.109436023026266,1.01829195022583,-2.5431492964373987
1708442965.1237633,-2.140944242477417,-1.3335387271693726,-2.5271862188922327,6.109489667206564,1.0182750225067139,-2.5424471537219446
1708442965.125782,-2.141026735305786,-1.3335308295539399,-2.5271862188922327,6.109538900643148,1.0182154178619385,-2.5417993704425257
1708442965.1278234,-2.141029119491577,-1.333559365277626,-2.5271576086627405,6.109565603524008,1.018211007118225,-2.541002337132589
1708442965.1297975,-2.1410701274871826,-1.3335724037936707,-2.5272071997271937,6.109663951187887,1.0182241201400757,-2.540342632924215
1708442965.1317875,-2.1410744190216064,-1.3335430932096024,-2.5271831194507044,6.109596121102133,1.0182154178619385,-2.5396984259234827
1708442965.1337779,-2.141110420227051,-1.3335430932096024,-2.5271831194507044,6.109608161240377,1.0181913375854492,-2.5390213171588343
1708442965.135808,-2.1410725116729736,-1.3335474294475098,-2.5271664301501673,6.10965262630538,1.0181913375854492,-2.538239304219381
1708442965.1377845,-2.1410927772521973,-1.3335145872882386,-2.52717096010317,6.109709369927206,1.0181758403778076,-2.537553850804464
1708442965.1397812,-2.141080379486084,-1.3335343313268204,-2.527142588292257,6.109775054245748,1.018130898475647,-2.536779228840963
1708442965.1417801,-2.1410884857177734,-1.3335681122592469,-2.527163569127218,6.109733211785116,1.0181102752685547,-2.536107126866476
1708442965.1437726,-2.1410953998565674,-1.3335799735835572,-2.527142588292257,6.10978518703536,1.0181028842926025,-2.5353735128985804
1708442965.145803,-2.1411678791046143,-1.3335387271693726,-2.527144257222311,6.1098543284233,1.0180743932724,-2.534611527119772
1708442965.1478245,-2.1411359310150146,-1.3335102063468476,-2.527135197316305,6.109791862755575,1.018071174621582,-2.5339351336108606
1708442965.1497667,-2.1411473751068115,-1.3335387271693726,-2.527135197316305,6.1098543284233,1.018038034439087,-2.5331817309008997
1708442965.1518111,-2.1412084102630615,-1.3336128008416672,-2.5271320978747767,6.109819876938619,1.0180633068084717,-2.5324395338641565
1708442965.1537714,-2.1412041187286377,-1.3335922223380585,-2.5270825068103235,6.109908091812887,1.0180305242538452,-2.531722609196798
1708442965.1558018,-2.141253709793091,-1.3335518699935456,-2.5271111170398157,6.10993658283309,1.0180554389953613,-2.5309296290027063
1708442965.1577923,-2.1412155628204346,-1.33357127130542,-2.5270989576922815,6.1099692461784265,1.0180230140686035,-2.530139748250143
1708442965.1597857,-2.141186237335205,-1.3336247664741059,-2.5270796457873743,6.109951603203573,1.0180110931396484,-2.5293870607959192
1708442965.1618125,-2.1412312984466553,-1.3335221272758027,-2.5270796457873743,6.109991776734152,1.017991065979004,-2.528689686452047
1708442965.1638079,-2.1412110328674316,-1.3335834306529541,-2.5270796457873743,6.1100289700324915,1.017974853515625,-2.527966324483053
1708442965.1657856,-2.1412808895111084,-1.3335133355906983,-2.5270677248584192,6.110079991608419,1.017987847328186,-2.5271270910846155
1708442965.1677837,-2.1412878036499023,-1.3335756224444886,-2.526989523564474,6.110121595650472,1.0179669857025146,-2.5264230410205286
1708442965.1697817,-2.1413252353668213,-1.3335668307593842,-2.527043883000509,6.11014090755538,1.0179388523101807,-2.525665823613302
1708442965.1718078,-2.1413490772247314,-1.333546207552292,-2.526980702077047,6.110115873604574,1.0179593563079834,-2.5249279181109827
1708442965.1738105,-2.1413376331329346,-1.3335518699935456,-2.526994053517477,6.110139715462484,1.0179142951965332,-2.524212423955099
1708442965.1758053,-2.141339063644409,-1.3335299354842682,-2.5270403067218226,6.110122072487631,1.0179400444030762,-2.5234254042254847
1708442965.1778255,-2.1413605213165283,-1.3335922223380585,-2.52698523203005,6.110200750618734,1.0179111957550049,-2.522656027470724
1708442965.1797862,-2.141408920288086,-1.3335636866143723,-2.5270031134234827,6.110162484436788,1.0178622007369995,-2.521869722996847
1708442965.1818252,-2.141387701034546,-1.3335756224444886,-2.5270572344409388,6.110275733261862,1.0178874731063843,-2.5211544672595423
1708442965.1837857,-2.141433000564575,-1.3335213226130982,-2.5270031134234827,6.110226499825277,1.0178622007369995,-2.520388666783468
1708442965.1858242,-2.141448736190796,-1.3336040836623688,-2.5270360151873987,6.110262620240011,1.017842411994934,-2.5195863882647913
