Eg3-git/Classifiers/Data Collection/u8/u8star3_ur3e_joint_states.csv
time,elbow_joint,shoulder_lift_joint,shoulder_pan_joint,wrist_1_joint,wrist_2_joint,wrist_3_joint
1708443045.6490974,-2.1418099403381348,-1.333702878361084,-2.5270167032824915,6.110947835236349,1.0179158449172974,-2.326451603566305
1708443045.6510987,-2.141826629638672,-1.333702878361084,-2.5270405451404017,6.110952126770773,1.0178709030151367,-2.326355520878927
1708443045.653106,-2.141801357269287,-1.333735243683197,-2.5270031134234827,6.1109564183051965,1.0178875923156738,-2.326388184224264
1708443045.6550925,-2.141826629638672,-1.3337438565543671,-2.5270617643939417,6.110965120583334,1.0178663730621338,-2.3263466993915003
1708443045.657096,-2.141847610473633,-1.3336866957000275,-2.5270121733294886,6.11088644245223,1.0179040431976318,-2.3263238112079065
1708443045.6590936,-2.141839027404785,-1.3336662364057084,-2.5270448366748255,6.110920417099752,1.017894983291626,-2.3262997309314173
1708443045.6611297,-2.1417617797851562,-1.333682433967926,-2.5269866625415247,6.110940921097555,1.0178080797195435,-2.326287810002462
1708443045.6631117,-2.1417741775512695,-1.33368335783992,-2.5270403067218226,6.110925543099203,1.0178589820861816,-2.326247278844015
1708443045.6650956,-2.1418309211730957,-1.333714799290039,-2.526977841054098,6.110904919892111,1.0178875923156738,-2.326214615498678
1708443045.6671085,-2.14176607131958,-1.3336780381253739,-2.5270031134234827,6.110897409706869,1.0179247856140137,-2.3261826674090784
1708443045.6691182,-2.1418113708496094,-1.3336054247668763,-2.5269838015185755,6.110811698227682,1.0179039239883423,-2.326146904622213
1708443045.6711237,-2.1417789459228516,-1.3336952489665528,-2.527052942906515,6.110861646920004,1.0179113149642944,-2.326122585927145
1708443045.6731136,-2.1417746543884277,-1.3337190610221406,-2.5270031134234827,6.110799658089437,1.0178875923156738,-2.3261075655566614
1708443045.675104,-2.1417622566223145,-1.3336738658002396,-2.5269957224475306,6.110829102783956,1.0179113149642944,-2.3260462919818323
1708443045.6771083,-2.141741991043091,-1.3336704981378098,-2.5270076433764856,6.110816108971395,1.0178993940353394,-2.326059405003683
1708443045.6791797,-2.1417789459228516,-1.333654911523201,-2.526977841054098,6.110860454827108,1.0178215503692627,-2.326014582310812
1708443045.681119,-2.1417622566223145,-1.3336909872344513,-2.5270031134234827,6.110805022507467,1.0179039239883423,-2.3260155359851282
1708443045.6831145,-2.1417667865753174,-1.3336378198913117,-2.5270403067218226,6.110821234970846,1.017923355102539,-2.3259502092944544
1708443045.6851387,-2.1417622566223145,-1.3336952489665528,-2.527026955281393,6.110769259720602,1.0178875923156738,-2.325963322316305
1708443045.6871252,-2.1417551040649414,-1.3337395650199433,-2.5269747416125696,6.110829937248983,1.0178993940353394,-2.3259359041797083
1708443045.689095,-2.141771078109741,-1.3336668622544785,-2.5270448366748255,6.110789882927694,1.0178663730621338,-2.325879160557882
1708443045.691118,-2.1417462825775146,-1.333653987651207,-2.5270121733294886,6.110737550049581,1.0179024934768677,-2.3258004824267786
1708443045.69308,-2.141721725463867,-1.3336876195720215,-2.5270121733294886,6.110761630326071,1.0179158449172974,-2.3258803526507776
1708443045.6950877,-2.1417341232299805,-1.3336378049901505,-2.526977602635519,6.110728847771444,1.0179084539413452,-2.325810257588522
1708443045.6971223,-2.1417129039764404,-1.3337276142886658,-2.5270031134234827,6.110712635308065,1.0179247856140137,-2.3258398214923304
1708443045.699135,-2.141730308532715,-1.3336429607919236,-2.5269702116595667,6.110692012100973,1.0179039239883423,-2.32576567331423
1708443045.701086,-2.1416988372802734,-1.3336790216020127,-2.5270076433764856,6.110668051033773,1.0178663730621338,-2.32570988336672
1708443045.7030916,-2.1416988372802734,-1.3336790067008515,-2.526973072682516,6.110712635308065,1.0179040431976318,-2.3256529013263147
1708443045.7051203,-2.141723155975342,-1.3337028634599228,-2.5269866625415247,6.110710608750143,1.0178786516189575,-2.3256738821612757
1708443045.7070923,-2.141746997833252,-1.3337071698955079,-2.526994053517477,6.110685336380758,1.017894983291626,-2.325707499180929
1708443045.709086,-2.1416988372802734,-1.3336344969323655,-2.5269866625415247,6.110657202988424,1.017926812171936,-2.325650755559103
1708443045.7111208,-2.141669750213623,-1.3336704981378098,-2.5270031134234827,6.1106289503868005,1.0178860425949097,-2.3256104628192347
1708443045.713087,-2.1417274475097656,-1.3336876642755051,-2.527052942906515,6.110702621727743,1.0178815126419067,-2.3256269137011927
1708443045.7150872,-2.141723155975342,-1.3336833876422425,-2.527057472859518,6.1105888960655115,1.017906904220581,-2.3255580107318323
1708443045.7170901,-2.1416778564453125,-1.3336866807988663,-2.5270121733294886,6.110641944199362,1.0178619623184204,-2.325594965611593
1708443045.719079,-2.141674041748047,-1.3336995405009766,-2.5269866625415247,6.110638844757833,1.0179024934768677,-2.325587574635641
1708443045.7210853,-2.141707420349121,-1.3336952191642304,-2.5269911924945276,6.110621440201559,1.017894983291626,-2.3254860083209437
1708443045.7230947,-2.141723155975342,-1.3337157678655167,-2.5269792715655726,6.110649812012472,1.0178619623184204,-2.325465265904562
1708443045.7250905,-2.1417362689971924,-1.3337200444987793,-2.5269911924945276,6.110573518067159,1.0179113149642944,-2.325470511113302
1708443045.7271028,-2.141662359237671,-1.3336539280465622,-2.5269866625415247,6.110585319786825,1.0179141759872437,-2.3254790941821497
1708443045.7291658,-2.14164137840271,-1.333666892056801,-2.5270074049579065,6.110585319786825,1.0178741216659546,-2.325462881718771
1708443045.7311132,-2.1416783332824707,-1.3336876344731827,-2.526961151753561,6.110581028252401,1.017935872077942,-2.3254225889789026
1708443045.7331152,-2.141658067703247,-1.333618239765503,-2.5270076433764856,6.110524642258444,1.0179232358932495,-2.3253613154040735
1708443045.7350893,-2.141645669937134,-1.333683432345726,-2.5269866625415247,6.110582101136007,1.0178484916687012,-2.3253777662860315
1708443045.7370844,-2.1416378021240234,-1.3336225611022492,-2.52696139017214,6.110577809601583,1.0179367065429688,-2.325374428425924
1708443045.7390935,-2.141663074493408,-1.3336634796908875,-2.5270360151873987,6.110530125885763,1.0179040431976318,-2.325399700795309
1708443045.7410927,-2.1416378021240234,-1.3336189103177567,-2.527026955281393,6.110553729325094,1.0178695917129517,-2.3253055254565638
1708443045.7430885,-2.1416501998901367,-1.333630160694458,-2.526989523564474,6.110590803414144,1.0178697109222412,-2.3253100554095667
1708443045.7450838,-2.1416306495666504,-1.333618314271309,-2.5270031134234827,6.110534536629476,1.0179188251495361,-2.3253143469439905
1708443045.7470822,-2.141667366027832,-1.3336834174445649,-2.527026955281393,6.110521542816915,1.017906904220581,-2.3252902666675013
1708443045.749088,-2.1416754722595215,-1.3336139780334015,-2.5270448366748255,6.110535609513082,1.0179188251495361,-2.325291458760397
1708443045.7510931,-2.1416420936584473,-1.3335901957801362,-2.526973311101095,6.110473501473226,1.0178905725479126,-2.32524544397463
1708443045.7530732,-2.1416587829589844,-1.3336430352977295,-2.527052942906515,6.1105432389076135,1.0179277658462524,-2.3252020517932337
1708443045.755108,-2.1416234970092773,-1.3336833876422425,-2.526973072682516,6.110469090729513,1.0179113149642944,-2.325205151234762
1708443045.7570827,-2.141643524169922,-1.3336919260076066,-2.526994053517477,6.110497224121847,1.017935872077942,-2.3252301851855677
1708443045.759111,-2.1416068077087402,-1.3336833876422425,-2.5269911924945276,6.110473501473226,1.0179024934768677,-2.3251779715167444
1708443045.7610896,-2.141590118408203,-1.3336344820312043,-2.527043883000509,6.110489833145895,1.0178439617156982,-2.3251822630511683
1708443045.7630968,-2.1415982246398926,-1.3336225760034104,-2.526989523564474,6.110494124680319,1.0179232358932495,-2.32520300546755
1708443045.7650912,-2.141650676727295,-1.3336516630700608,-2.526994053517477,6.1104822037513635,1.0179566144943237,-2.325158182774679
1708443045.7670767,-2.1415700912475586,-1.333638773565628,-2.527043883000509,6.110486495285787,1.0179232358932495,-2.3251331488238733
1708443045.7690973,-2.1415700912475586,-1.3336344373277207,-2.526977841054098,6.1104010222251794,1.017935872077942,-2.32509690919985
1708443045.7711024,-2.1415786743164062,-1.3336678904346009,-2.526973072682516,6.110433089524069,1.0179096460342407,-2.325146261845724
1708443045.7730706,-2.141615390777588,-1.3336183291724701,-2.5270031134234827,6.1104832766349695,1.0179475545883179,-2.3250861803637903
1708443045.7750785,-2.1416068077087402,-1.3336634945920487,-2.5270031134234827,6.110498416214742,1.017906904220581,-2.3250938097583216
1708443045.7770925,-2.1416032314300537,-1.3336506348899384,-2.527043883000509,6.110502707749166,1.0179849863052368,-2.3250609079944056
1708443045.7790954,-2.1415786743164062,-1.3336268377355118,-2.5270360151873987,6.110450494080343,1.0179522037506104,-2.3250535170184534
1708443045.7811027,-2.141540765762329,-1.3336833876422425,-2.5270031134234827,6.110397445946493,1.0179277658462524,-2.325094763432638
1708443045.7831185,-2.1415786743164062,-1.3336790663054963,-2.527043883000509,6.110425936966696,1.0179475545883179,-2.32504111925234
1708443045.785119,-2.141587495803833,-1.333638773565628,-2.526994053517477,6.110425936966696,1.0179522037506104,-2.3250260988818567
1708443045.7870982,-2.141545057296753,-1.3336635392955323,-2.527026955281393,6.1104270098503015,1.0178933143615723,-2.324951712285177
1708443045.7891107,-2.14158296585083,-1.333638773565628,-2.527026955281393,6.11044322231368,1.0179686546325684,-2.3250182310687464
1708443045.7911158,-2.141598701477051,-1.333662526016571,-2.527039353047506,6.1104105589683435,1.0179266929626465,-2.3250139395343226
1708443045.7930825,-2.141542434692383,-1.3336592030576249,-2.5270031134234827,6.110357272415914,1.017926812171936,-2.3249855677234095
1708443045.795085,-2.141632080078125,-1.333610327248909,-2.5270031134234827,6.110340702324667,1.0179431438446045,-2.3249571959124964
1708443045.7970858,-2.141570568084717,-1.3336310994676133,-2.526994053517477,6.110438811569967,1.0179052352905273,-2.3249779383288782
1708443045.7990816,-2.14156174659729,-1.3336517077735444,-2.5270031134234827,6.110410439759054,1.017959475517273,-2.324953858052389
1708443045.8011005,-2.141545057296753,-1.3336876642755051,-2.527052942906515,6.110410439759054,1.0179252624511719,-2.324933115636007
1708443045.8030908,-2.141542434692383,-1.3336311143687745,-2.527060333882467,6.110398518830099,1.0179669857025146,-2.3249297777758997
1708443045.8051498,-2.1415624618530273,-1.333635465507843,-2.5270031134234827,6.110390889435568,1.0179296731948853,-2.324904743825094
1708443045.807137,-2.1416118144989014,-1.3336060357144852,-2.527026955281393,6.110415923386373,1.0179431438446045,-2.3249221483813685
1708443045.8091006,-2.1415467262268066,-1.3336430352977295,-2.527013365422384,6.110353696137228,1.0179506540298462,-2.3249178568469446
1708443045.8111212,-2.1415624618530273,-1.3336225760034104,-2.527026955281393,6.11034511306838,1.0180121660232544,-2.3248849550830286
1708443045.8131065,-2.141542434692383,-1.3336225909045716,-2.527085606251852,6.1103495238120935,1.0180166959762573,-2.3248818556415003
1708443045.8151104,-2.1415581703186035,-1.3336711388877411,-2.52702242532839,6.110390889435568,1.0179791450500488,-2.3248489538775843
1708443045.817106,-2.1416075229644775,-1.3336668771556397,-2.527043883000509,6.110370385437765,1.0179954767227173,-2.3248654047595423
1708443045.81909,-2.1415624618530273,-1.333638773565628,-2.527076784764425,6.1103625176246545,1.018007755279541,-2.3248489538775843
1708443045.821103,-2.1415791511535645,-1.333659217958786,-2.527039353047506,6.110390889435568,1.0179836750030518,-2.324862066899435
1708443045.823105,-2.141542434692383,-1.3336225312999268,-2.5269716421710413,6.110358106880941,1.0179669857025146,-2.3248372713672083
1708443045.8251257,-2.1415791511535645,-1.333647297029831,-2.5270422140704554,6.110379087715902,1.0180121660232544,-2.3248425165759485
1708443045.8270912,-2.1415834426879883,-1.3336668026498337,-2.5270512739764612,6.110395300179281,1.0179387331008911,-2.32485014597048
1708443045.8291664,-2.1415581703186035,-1.3336311143687745,-2.5270257631884974,6.110366809159078,1.0180121660232544,-2.3248422781573694
1708443045.8311408,-2.1415185928344727,-1.333659217958786,-2.5270348230945032,6.110404002457418,1.018003225326538,-2.3247888723956507
1708443045.8331325,-2.141538143157959,-1.3336711388877411,-2.5270512739764612,6.110370385437765,1.0179955959320068,-2.3248217741595667
1708443045.835115,-2.1415352821350098,-1.3336720180562516,-2.527072254811422,6.110379087715902,1.0179986953735352,-2.3248305956469935
1708443045.8371105,-2.1415467262268066,-1.333635465507843,-2.527105156575338,6.1103625176246545,1.0179986953735352,-2.3248007933246058
1708443045.8391266,-2.1415624618530273,-1.3336549562266846,-2.5270045439349573,6.110383379250326,1.0180362462997437,-2.3247976938830774
1708443045.841075,-2.1415624618530273,-1.333638773565628,-2.5270631949054163,6.110379087715902,1.0180436372756958,-2.324773613606588
1708443045.8430812,-2.1415960788726807,-1.3336558502963562,-2.527104918156759,6.1103625176246545,1.017982006072998,-2.32478911081423
1708443045.8450935,-2.1415438652038574,-1.333631084566452,-2.5270302931415003,6.110330092697897,1.0180481672286987,-2.324773613606588
1708443045.8471158,-2.141530990600586,-1.3336030703834076,-2.527017895375387,6.110313522606649,1.0180273056030273,-2.3247538248645228
1708443045.8490806,-2.1415395736694336,-1.333610327248909,-2.5270796457873743,6.11032127121047,1.0180317163467407,-2.324761692677633
1708443045.8511355,-2.1415352821350098,-1.3336225760034104,-2.527055803929464,6.110346305161276,1.018076777458191,-2.3247748056994837
1708443045.8531015,-2.1415510177612305,-1.333659217958786,-2.52708870569338,6.110346305161276,1.0180273056030273,-2.3247256914721888
1708443045.8550932,-2.1415185928344727,-1.333666892056801,-2.5270422140704554,6.1103625176246545,1.0180600881576538,-2.324704710637228
1708443045.8571053,-2.1414976119995117,-1.3336634945920487,-2.5271006266223353,6.110325681954183,1.0180600881576538,-2.3247538248645228
1708443045.859113,-2.141493320465088,-1.3336103570512314,-2.5270677248584192,6.110371219902792,1.0180436372756958,-2.324721399937765
1708443045.8610897,-2.141526699066162,-1.3336225760034104,-2.527072254811422,6.110358106880941,1.0180678367614746,-2.324721399937765
1708443045.8631003,-2.141566753387451,-1.3336678904346009,-2.5271006266223353,6.1103625176246545,1.0180678367614746,-2.3247223536120813
1708443045.8651237,-2.1415553092956543,-1.3336678457311173,-2.527008835469381,6.110375511437216,1.0180273056030273,-2.3247135321246546
1708443045.8671012,-2.1415748596191406,-1.3336231422475358,-2.5271006266223353,6.110261666565695,1.0180555582046509,-2.324643913899557
1708443045.869086,-2.1415019035339355,-1.333659217958786,-2.5270960966693323,6.110379087715902,1.0180633068084717,-2.3246613184558313
1708443045.8711023,-2.1415061950683594,-1.333647297029831,-2.5271080175982874,6.110338675766744,1.0180466175079346,-2.3246775309192103
1708443045.8730931,-2.1415224075317383,-1.3336354953101655,-2.5271034876452845,6.110346305161276,1.0180678367614746,-2.3246732393847864
1708443045.8751018,-2.1415395736694336,-1.333659217958786,-2.5270796457873743,6.110260712891378,1.0180420875549316,-2.3246403376208704
1708443045.8770914,-2.1415352821350098,-1.3336146038821717,-2.5270870367633265,6.110383379250326,1.018088936805725,-2.324686352406637
1708443045.879136,-2.1415395736694336,-1.3336344969323655,-2.5270915667163294,6.110301840096273,1.0180466175079346,-2.324653450642721
1708443045.8811,-2.1415510177612305,-1.333622546201088,-2.5271201769458216,6.110338675766744,1.0180633068084717,-2.3246198336230677
1708443045.883087,-2.1415228843688965,-1.333618314271309,-2.5270915667163294,6.1103505966956995,1.0180754661560059,-2.324665609990255
1708443045.8850896,-2.1415228843688965,-1.3336754751256485,-2.5270989576922815,6.11031054237441,1.0181082487106323,-2.324649159108297
1708443045.8871152,-2.141531467437744,-1.3336558055928727,-2.527073685322897,6.110338675766744,1.0180963277816772,-2.324657742177145
1708443045.889097,-2.141531467437744,-1.3336678457311173,-2.5271156469928187,6.110297548561849,1.018129587173462,-2.3246613184558313
1708443045.891133,-2.1415395736694336,-1.3336516630700608,-2.5270989576922815,6.11031340339736,1.0181159973144531,-2.3246284166919153
1708443045.8930855,-2.1415438652038574,-1.3336549562266846,-2.5271695295916956,6.110306250839987,1.0181114673614502,-2.324604336415426
1708443045.8951283,-2.1415581703186035,-1.3336430352977295,-2.5270898977862757,6.110330092697897,1.0181037187576294,-2.3246501127826136
1708443045.897108,-2.141486167907715,-1.333647297029831,-2.5271320978747767,6.110375630646505,1.0181009769439697,-2.324555222188131
1708443045.8991022,-2.1415352821350098,-1.3336678457311173,-2.5271080175982874,6.110330807953634,1.0181249380111694,-2.324608866368429
1708443045.9010873,-2.1414904594421387,-1.3336549562266846,-2.5271320978747767,6.110355961113729,1.0181324481964111,-2.324592415486471
1708443045.9031014,-2.141514301300049,-1.3336516332677384,-2.5270989576922815,6.1102813360984705,1.018070936203003,-2.324575964604513
1708443045.9051068,-2.141510486602783,-1.333638773565628,-2.5271111170398157,6.110338675766744,1.0180665254592896,-2.3246141115771692
1708443045.9071016,-2.1415019035339355,-1.333635465507843,-2.5271320978747767,6.110359418183126,1.018094778060913,-2.324641529713766
1708443045.909079,-2.1415185928344727,-1.3336274039796372,-2.5271275679217737,6.110359298973837,1.0181353092193604,-2.3246098200427454
1708443045.9111161,-2.1415228843688965,-1.333696187739708,-2.5271034876452845,6.110355961113729,1.0180858373641968,-2.324569288884298
1708443045.9131017,-2.141559600830078,-1.333659217958786,-2.5271533171283167,6.110359298973837,1.0181353092193604,-2.3245933691607874
1708443045.9151154,-2.1415481567382812,-1.333609626894333,-2.5270989576922815,6.110317814141073,1.0181233882904053,-2.32459003130068
1708443045.917124,-2.1415395736694336,-1.333635465507843,-2.5270989576922815,6.1103635905082605,1.0181233882904053,-2.3245399633990687
1708443045.9191196,-2.1415481567382812,-1.3336430352977295,-2.5270944277392786,6.110355007439413,1.0181564092636108,-2.3245649973498743
1708443045.9210935,-2.1414990425109863,-1.3336430352977295,-2.527106587086813,6.110297548561849,1.0181442499160767,-2.324590269719259
1708443045.923105,-2.1414990425109863,-1.3336387437633057,-2.527104918156759,6.11032651641921,1.0181397199630737,-2.3245814482318323
1708443045.9250977,-2.1415438652038574,-1.333659217958786,-2.5271275679217737,6.110396373062887,1.0181398391723633,-2.324601952229635
1708443045.9271085,-2.1415438652038574,-1.3336506944945832,-2.527097765599386,6.110323416977682,1.0181442499160767,-2.324508253728048
1708443045.929175,-2.1415019035339355,-1.3335740131190796,-2.5270898977862757,6.110343086510458,1.0181474685668945,-2.3245487848864954
1708443045.9311647,-2.141535758972168,-1.3336668771556397,-2.527168099080221,6.110384094506063,1.0181307792663574,-2.324606482182638
1708443045.9331172,-2.1414990425109863,-1.3336711537889023,-2.527180020009176,6.110334384232321,1.0180981159210205,-2.3245530764209192
1708443045.93509,-2.141486167907715,-1.3336396527341385,-2.5271201769458216,6.110363471298971,1.018189549446106,-2.32459003130068
1708443045.9370947,-2.141436815261841,-1.3336225760034104,-2.5270898977862757,6.110371219902792,1.0181397199630737,-2.324557367955343
1708443045.9390929,-2.1415019035339355,-1.3336030852845688,-2.527144257222311,6.110313522606649,1.0181397199630737,-2.324585739766256
1708443045.9411218,-2.1415395736694336,-1.3336225760034104,-2.527113978062765,6.110334384232321,1.0181565284729004,-2.324569288884298
1708443045.9431202,-2.141531467437744,-1.3336189550212403,-2.527130667363302,6.110306250839987,1.0181596279144287,-2.3245530764209192
1708443045.9450905,-2.1415481567382812,-1.333659217958786,-2.527177158986227,6.110334384232321,1.0181641578674316,-2.32452899614443
1708443045.9471025,-2.141510486602783,-1.3336507093957444,-2.527163569127218,6.1102943299110315,1.0181055068969727,-2.324545447026388
1708443045.9490926,-2.1415228843688965,-1.3336189550212403,-2.527109448109762,6.110354888230123,1.018126130104065,-2.324541155491964
1708443045.9511232,-2.1415510177612305,-1.3336506944945832,-2.527142588292257,6.110375630646505,1.0181596279144287,-2.3245421091662806
1708443045.9530919,-2.1415438652038574,-1.333635465507843,-2.527126137410299,6.110338675766744,1.0181596279144287,-2.324557367955343
1708443045.9550993,-2.141510486602783,-1.3336060655168076,-2.527130667363302,6.110298621445455,1.0181552171707153,-2.324561659489767
1708443045.9570954,-2.1415438652038574,-1.333626852636673,-2.527184549962179,6.110375511437216,1.0181474685668945,-2.324545447026388
1708443045.9590902,-2.141449213027954,-1.3336668324521561,-2.527104918156759,6.110334384232321,1.0181851387023926,-2.324561659489767
1708443045.9611259,-2.1415233612060547,-1.3336268377355118,-2.527135197316305,6.110343086510458,1.0181173086166382,-2.3245659510241907
1708443045.9630933,-2.1414947509765625,-1.333626852636673,-2.527139727269308,6.110351669579305,1.0181474685668945,-2.324508253728048
1708443045.9650917,-2.1414904594421387,-1.3336060059121628,-2.527135197316305,6.11038767078475,1.0181641578674316,-2.32452899614443
1708443045.9671066,-2.141510486602783,-1.3336634945920487,-2.527135197316305,6.110301840096273,1.0181596279144287,-2.3245092074023646
1708443045.9690928,-2.1414990425109863,-1.3336430352977295,-2.527201239262716,6.110347378044882,1.0181429386138916,-2.324508253728048
1708443045.9710996,-2.141552686691284,-1.3336225760034104,-2.527126137410299,6.110322105675497,1.0181429386138916,-2.324533287678854
1708443045.9730825,-2.141514778137207,-1.333655835395195,-2.527130667363302,6.1103625176246545,1.0181339979171753,-2.3245585600482386
1708443045.975096,-2.141510486602783,-1.3336516481688996,-2.52717096010317,6.1103625176246545,1.0181429386138916,-2.324517075215475
1708443045.97708,-2.141552448272705,-1.3336268377355118,-2.527092997227804,6.110334384232321,1.0181262493133545,-2.3245256582843226
1708443045.9791331,-2.141563892364502,-1.3336146038821717,-2.527180020009176,6.110366809159078,1.0181641578674316,-2.324505869542257
1708443045.9811127,-2.1414904594421387,-1.333711416726448,-2.527130667363302,6.1103505966956995,1.0181385278701782,-2.3244896570788782
1708443045.9830978,-2.141519069671631,-1.3336225760034104,-2.527217690144674,6.110338675766744,1.0181851387023926,-2.3244884649859827
1708443045.9850948,-2.141479015350342,-1.3336103123477479,-2.5271170775042933,6.110301840096273,1.0181519985198975,-2.3245049158679407
1708443045.9870849,-2.1415481567382812,-1.333622546201088,-2.527163569127218,6.11032651641921,1.0181806087493896,-2.3244810740100306
1708443045.9890885,-2.141552448272705,-1.333626852636673,-2.527142588292257,6.110334384232321,1.0181641578674316,-2.3244810740100306
1708443045.9910953,-2.141507625579834,-1.3336146038821717,-2.527151648198263,6.110367882042684,1.0181429386138916,-2.3244643847094935
1708443045.993088,-2.1415271759033203,-1.3336762946895142,-2.527130667363302,6.1103635905082605,1.0181307792663574,-2.32451039949526
1708443045.995142,-2.141510486602783,-1.333626852636673,-2.527189079915182,6.110301840096273,1.0181804895401,-2.3245180288897913
1708443045.9971113,-2.1414947509765625,-1.33368772388015,-2.527180020009176,6.110354888230123,1.0181924104690552,-2.3245134989367884
1708443045.999136,-2.1414990425109863,-1.3336344969323655,-2.527159039174215,6.1103106615837,1.0181878805160522,-2.3244853655444544
1708443046.0011382,-2.1415228843688965,-1.3336668771556397,-2.52714711824526,6.110351550370016,1.0181262493133545,-2.3244853655444544
1708443046.0031147,-2.1415438652038574,-1.333622546201088,-2.527126137410299,6.110379802971639,1.0181384086608887,-2.3244896570788782
1708443046.0051343,-2.141470432281494,-1.333635465507843,-2.527196709309713,6.110366809159078,1.0181384086608887,-2.3244643847094935
1708443046.0071075,-2.14150333404541,-1.3336311143687745,-2.527142588292257,6.110285627632894,1.0181552171707153,-2.324514691029684
1708443046.0091147,-2.141519069671631,-1.3336882156184693,-2.527156178151266,6.110338675766744,1.0181671380996704,-2.324494187031881
1708443046.0111284,-2.1415061950683594,-1.3336301457932969,-2.527138058339254,6.110334265023031,1.0181552171707153,-2.3244689146624964
1708443046.0131092,-2.141510486602783,-1.3336189699224015,-2.527196709309713,6.110359298973837,1.018196940422058,-2.3244569937335413
1708443046.0151126,-2.1415228843688965,-1.333667830829956,-2.5271979014026087,6.110301840096273,1.0181834697723389,-2.3244579474078577
1708443046.0171092,-2.1414976119995117,-1.3336310994676133,-2.52714711824526,6.110317814141073,1.0181339979171753,-2.32441217104067
1708443046.019087,-2.1414499282836914,-1.3336189550212403,-2.527159039174215,6.110387789994039,1.0181641578674316,-2.324416700993673
1708443046.0211306,-2.1414904594421387,-1.333696262245514,-2.527126137410299,6.110282289772787,1.0181806087493896,-2.324449125920431
1708443046.0231216,-2.1414833068847656,-1.3336311292699357,-2.527151648198263,6.110285627632894,1.0181552171707153,-2.324420992528097
1708443046.0251474,-2.1414947509765625,-1.333626852636673,-2.5271933714496058,6.110306250839987,1.0181759595870972,-2.32440430322756
1708443046.027104,-2.1414947509765625,-1.333696187739708,-2.527142588292257,6.110330092697897,1.018114447593689,-2.324388090764181
1708443046.0291243,-2.1414947509765625,-1.3336592626622696,-2.527163569127218,6.110351669579305,1.0181474685668945,-2.324437204991476
1708443046.031205,-2.1415061950683594,-1.3336754155210038,-2.527135197316305,6.110346305161276,1.0181384086608887,-2.3244383970843714
1708443046.0331306,-2.141486167907715,-1.3335869324258347,-2.527104918156759,6.1103106615837,1.0181384086608887,-2.324420992528097
1708443046.0351434,-2.1414947509765625,-1.3336311143687745,-2.527138058339254,6.110338675766744,1.0181307792663574,-2.324425284062521
1708443046.0371373,-2.1415061950683594,-1.3336430054954072,-2.527163569127218,6.110346305161276,1.0181686878204346,-2.3243890444384974
1708443046.0391037,-2.1415019035339355,-1.3336396527341385,-2.527189079915182,6.1103635905082605,1.0181596279144287,-2.3244054953204554
1708443046.0411682,-2.141486167907715,-1.3336225760034104,-2.527138058339254,6.110354888230123,1.0181804895401,-2.3244012037860315
1708443046.0431368,-2.141479015350342,-1.3336311143687745,-2.52714711824526,6.110371100693502,1.0181552171707153,-2.324371639882223
1708443046.045139,-2.1415841579437256,-1.3336840283921738,-2.527163569127218,6.110375511437216,1.0181596279144287,-2.3244341055499476
1708443046.0470972,-2.1415228843688965,-1.3336311143687745,-2.527130667363302,6.110322105675497,1.0181596279144287,-2.324347798024313
1708443046.0490878,-2.141531467437744,-1.3336146038821717,-2.527135197316305,6.110354888230123,1.0181759595870972,-2.324381653462545
1708443046.0511093,-2.141479015350342,-1.3336678457311173,-2.52714711824526,6.110366809159078,1.0181759595870972,-2.3243847529040735
1708443046.0531058,-2.1415553092956543,-1.3336311143687745,-2.527154509221212,6.110273706703939,1.0181474685668945,-2.3243609110461634
1708443046.0551424,-2.1415061950683594,-1.3336711388877411,-2.527163569127218,6.110371219902792,1.0181552171707153,-2.3243566195117396
1708443046.0570903,-2.14150333404541,-1.333618314271309,-2.527142588292257,6.110322105675497,1.0181474685668945,-2.324369494115011
1708443046.0590847,-2.1415271759033203,-1.333638773565628,-2.527180020009176,6.110379087715902,1.0181596279144287,-2.3243356386767786
1708443046.0611064,-2.1415271759033203,-1.3336430352977295,-2.527159039174215,6.110317814141073,1.0181143283843994,-2.324390236531393
1708443046.0630982,-2.141568422317505,-1.3336146038821717,-2.527104918156759,6.110366809159078,1.0181641578674316,-2.3243520895587366
1708443046.0651212,-2.1414990425109863,-1.333610327248909,-2.527105156575338,6.1103625176246545,1.0181474685668945,-2.3243890444384974
1708443046.0670989,-2.1414990425109863,-1.3336678755334397,-2.527113978062765,6.1103625176246545,1.0181759595870972,-2.3243072668658655
1708443046.0690947,-2.1415228843688965,-1.333638773565628,-2.527151648198263,6.110341894417562,1.0181552171707153,-2.3243771235095423
1708443046.0711315,-2.141568183898926,-1.3336840283921738,-2.52710205713381,6.110379087715902,1.0181429386138916,-2.324348751698629
1708443046.07309,-2.1415553092956543,-1.3336139780334015,-2.527135197316305,6.110346305161276,1.0181759595870972,-2.3243399302112024
1708443046.0751386,-2.141510486602783,-1.3336139631322403,-2.527114216481344,6.110338675766744,1.0181474685668945,-2.3243606726275843
1708443046.077095,-2.1414904594421387,-1.3336301457932969,-2.527142588292257,6.1103625176246545,1.0181732177734375,-2.324378315602438
1708443046.0791252,-2.141519069671631,-1.3336060655168076,-2.527163569127218,6.110346305161276,1.0181474685668945,-2.324336830769674
1708443046.0811343,-2.141519069671631,-1.3336840283921738,-2.527081076298849,6.1103625176246545,1.0181596279144287,-2.3243609110461634
1708443046.0831027,-2.1415061950683594,-1.3336146038821717,-2.527097527180807,6.110366928368368,1.0181596279144287,-2.3243332544909876
1708443046.0851202,-2.1414990425109863,-1.333626852636673,-2.527135197316305,6.110358106880941,1.0181552171707153,-2.3243332544909876
1708443046.0871067,-2.1415019035339355,-1.3336225760034104,-2.527135197316305,6.1103625176246545,1.0181474685668945,-2.3243497053729456
1708443046.0891113,-2.1415438652038574,-1.3336430203965683,-2.527093235646383,6.1103625176246545,1.0181233882904053,-2.324308220540182
1708443046.091135,-2.1415019035339355,-1.3336226058057328,-2.527168099080221,6.1103625176246545,1.0181307792663574,-2.3243704477893274
1708443046.093102,-2.141568422317505,-1.3337038469365616,-2.527123037968771,6.110349404602804,1.0181550979614258,-2.32436186472048
1708443046.0951312,-2.141514778137207,-1.3336711388877411,-2.527172629033224,6.110374676972189,1.0181641578674316,-2.324308220540182
1708443046.0970995,-2.141530990600586,-1.333610327248909,-2.527139727269308,6.1103625176246545,1.0181384086608887,-2.3243616263019007
1708443046.0991402,-2.141531467437744,-1.333647297029831,-2.527130667363302,6.1104116318519495,1.0180858373641968,-2.3243497053729456
1708443046.101128,-2.1415352821350098,-1.333626852636673,-2.527113978062765,6.11038218715743,1.0181353092193604,-2.3243051210986536
1708443046.1031077,-2.1415061950683594,-1.3336311143687745,-2.5270853678332728,6.1103625176246545,1.0181474685668945,-2.3242960611926478
1708443046.1051161,-2.1415352821350098,-1.333626852636673,-2.527109448109762,6.110346305161276,1.0181519985198975,-2.3243375460254114
1708443046.107095,-2.1415438652038574,-1.333659217958786,-2.527126137410299,6.110361683159628,1.0181397199630737,-2.3243005911456507
1708443046.1090884,-2.141559600830078,-1.333610327248909,-2.527113978062765,6.110423433571615,1.018126130104065,-2.324301783238546
1708443046.1110914,-2.1415228843688965,-1.333659217958786,-2.527135197316305,6.110435712128439,1.0181596279144287,-2.3243051210986536
1708443046.1130931,-2.1415061950683594,-1.333638773565628,-2.527139727269308,6.110491978913107,1.018118977546692,-2.3243187109576624
1708443046.1151137,-2.1415438652038574,-1.3336189550212403,-2.5271111170398157,6.110410439759054,1.0181519985198975,-2.3243137041675013
1708443046.117094,-2.1415395736694336,-1.3336472821286698,-2.527144257222311,6.110425936966696,1.0181026458740234,-2.3242722193347376
1708443046.1191125,-2.141559600830078,-1.3336796772531052,-2.527118508015768,6.110398518830099,1.0181353092193604,-2.3242972532855433
1708443046.1211128,-2.1414976119995117,-1.3336225760034104,-2.5270989576922815,6.110430347710409,1.0180858373641968,-2.3242972532855433
1708443046.123093,-2.1415438652038574,-1.3336506944945832,-2.527123037968771,6.110431420594015,1.0181324481964111,-2.3242645899402063
1708443046.1250796,-2.141481876373291,-1.333610327248909,-2.527144257222311,6.110421526222982,1.0181143283843994,-2.3242438475238245
1708443046.127115,-2.1415271759033203,-1.3336103123477479,-2.527139727269308,6.110430228501119,1.0181565284729004,-2.3242600599872034
1708443046.129126,-2.1415438652038574,-1.333659217958786,-2.527130667363302,6.110430228501119,1.0180858373641968,-2.3242972532855433
1708443046.131171,-2.1414947509765625,-1.333647297029831,-2.527144257222311,6.110453712731161,1.0181233882904053,-2.3242526690112513
1708443046.1331077,-2.141481876373291,-1.3336344969323655,-2.527159039174215,6.110458123474874,1.0181188583374023,-2.324273173009054
1708443046.1351354,-2.141514778137207,-1.3336189550212403,-2.527113978062765,6.110515701561727,1.0181070566177368,-2.3242481390582483
1708443046.1371074,-2.141489028930664,-1.3336840283921738,-2.5271111170398157,6.110490906029501,1.0181070566177368,-2.3242598215686243
1708443046.139104,-2.141510009765625,-1.3336344969323655,-2.527139727269308,6.110461699753561,1.0180739164352417,-2.324301783238546
1708443046.1411004,-2.1414947509765625,-1.3336311143687745,-2.527144257222311,6.110474693566122,1.0181070566177368,-2.324240509663717
1708443046.143099,-2.1415228843688965,-1.3336310994676133,-2.5271156469928187,6.110458123474874,1.0181114673614502,-2.324256960545675
1708443046.1451092,-2.141526699066162,-1.3336430352977295,-2.527151648198263,6.11047791221694,1.0181487798690796,-2.324273173009054
1708443046.1471229,-2.1415019035339355,-1.333655835395195,-2.5271111170398157,6.110473501473226,1.0181277990341187,-2.324273173009054
1708443046.1491086,-2.1415481567382812,-1.333610327248909,-2.527151648198263,6.110495316773214,1.0181249380111694,-2.3242314497577112
1708443046.1511068,-2.141510486602783,-1.3336797517589112,-2.5271111170398157,6.110498416214742,1.0181159973144531,-2.324228588734762
1708443046.1531227,-2.1415395736694336,-1.3336762946895142,-2.5270898977862757,6.110452878266134,1.0181442499160767,-2.324261490498678
1708443046.1551106,-2.1415467262268066,-1.3336225760034104,-2.527130667363302,6.110481011658468,1.0180375576019287,-2.32422382036318
1708443046.157131,-2.1415185928344727,-1.3336463284543534,-2.527097765599386,6.110522615700521,1.018094778060913,-2.3242700735675257
1708443046.1591053,-2.1415061950683594,-1.3336231422475358,-2.5271156469928187,6.110530125885763,1.0181368589401245,-2.3242209593402308
1708443046.161128,-2.141566753387451,-1.333647297029831,-2.5270989576922815,6.110506045609274,1.0180919170379639,-2.324232880269186
1708443046.163126,-2.141526699066162,-1.3336634945920487,-2.5271156469928187,6.110526907234945,1.018103837966919,-2.324224058781759
1708443046.1650946,-2.141563892364502,-1.3337006282857438,-2.527113978062765,6.110534417420187,1.0180543661117554,-2.324232880269186
1708443046.1671174,-2.1415510177612305,-1.3337090027383347,-2.5270853678332728,6.110579716950216,1.0180466175079346,-2.324200216923849
1708443046.1691215,-2.1415352821350098,-1.3336549562266846,-2.5270915667163294,6.110518204956808,1.0180587768554688,-2.324273411427633
1708443046.1711366,-2.1415271759033203,-1.3336678457311173,-2.5270898977862757,6.110481130867758,1.0180301666259766,-2.3242374102221888
1708443046.1731007,-2.141592025756836,-1.333610327248909,-2.5271034876452845,6.110492217331686,1.0180227756500244,-2.3242209593402308
1708443046.1751287,-2.1414976119995117,-1.3336311143687745,-2.5270944277392786,6.110559451370992,1.0180437564849854,-2.32424503961672
1708443046.1770985,-2.1415185928344727,-1.3336516630700608,-2.5270825068103235,6.110547530442037,1.0180273056030273,-2.3242371718036097
1708443046.1791158,-2.141566753387451,-1.3336189550212403,-2.527069155369894,6.110493051796713,1.0180227756500244,-2.3242374102221888
1708443046.1811118,-2.1415185928344727,-1.3336182695678254,-2.527118508015768,6.110513913422384,1.0180199146270752,-2.3241761366473597
1708443046.1830904,-2.1415510177612305,-1.3336146038821717,-2.5270779768573206,6.110521542816915,1.0180108547210693,-2.3242045084582728
1708443046.1850927,-2.141566753387451,-1.3336634796908875,-2.52710205713381,6.1105995056922815,1.0180273056030273,-2.324183766041891
1708443046.1870904,-2.141552448272705,-1.3336396527341385,-2.5271320978747767,6.110492932587423,1.0179986953735352,-2.3241878191577356
1708443046.189122,-2.1415271759033203,-1.333626852636673,-2.527069155369894,6.110521542816915,1.018028974533081,-2.3241968790637415
1708443046.1910965,-2.141477584838867,-1.3336634945920487,-2.527177158986227,6.110599386482992,1.0180109739303589,-2.3242133299456995
1708443046.1930969,-2.1415185928344727,-1.3336516630700608,-2.527106587086813,6.1105702994163416,1.0179986953735352,-2.324139658604757
1708443046.1951234,-2.141530990600586,-1.3336311143687745,-2.527123037968771,6.110558020859518,1.0180199146270752,-2.3241565863238733
1708443046.1971486,-2.141530990600586,-1.3336506944945832,-2.5270989576922815,6.110525834351339,1.0179942846298218,-2.324207607899801
1708443046.1990948,-2.141510009765625,-1.3336018037847062,-2.527139727269308,6.110545027046957,1.01796555519104,-2.3241727987872522
1708443046.2011144,-2.1415538787841797,-1.3336754155210038,-2.527027193699972,6.110594022064962,1.0180199146270752,-2.324127737675802
1708443046.203105,-2.1415185928344727,-1.333635465507843,-2.5270898977862757,6.1106148836906335,1.0179942846298218,-2.3241894880877894
1708443046.205092,-2.1415228843688965,-1.3336301457932969,-2.5271034876452845,6.110607015877523,1.0180109739303589,-2.3241117636310022
1708443046.207159,-2.1415228843688965,-1.3336592328599473,-2.5271156469928187,6.110561597138204,1.0180108547210693,-2.324127737675802
1708443046.2091079,-2.141510009765625,-1.3336754155210038,-2.5270825068103235,6.1105172512824915,1.0179747343063354,-2.32414418855776
1708443046.2110963,-2.1415510177612305,-1.3336711388877411,-2.5270989576922815,6.110557186394491,1.0179579257965088,-2.3241654078113
1708443046.2131147,-2.141530990600586,-1.3336549562266846,-2.5271363894092005,6.110597598343649,1.0180199146270752,-2.324124876652853
1708443046.2151155,-2.141530990600586,-1.3336258244565506,-2.5271275679217737,6.110626804619589,1.0180121660232544,-2.324124876652853
1708443046.21712,-2.141542434692383,-1.3336720776608963,-2.5270779768573206,6.110607015877523,1.0180199146270752,-2.324120585118429
1708443046.2191036,-2.1415185928344727,-1.3336344969323655,-2.5271156469928187,6.110626804619589,1.017986536026001,-2.3241401354419153
1708443046.2211185,-2.141505718231201,-1.3336396527341385,-2.5270898977862757,6.110573518067159,1.017991065979004,-2.3241053263293665
1708443046.223123,-2.1415624618530273,-1.333638773565628,-2.5271156469928187,6.110561597138204,1.017986536026001,-2.3240965048419397
1708443046.2251084,-2.141493320465088,-1.3336634945920487,-2.5270898977862757,6.1105702994163416,1.0179579257965088,-2.3240843454944056
1708443046.2271066,-2.1415748596191406,-1.3336430352977295,-2.5270870367633265,6.110573518067159,1.0179730653762817,-2.3241127173053187
1708443046.229119,-2.1415748596191406,-1.3336018037847062,-2.5271077791797083,6.110552894860067,1.0180168151855469,-2.3240931669818323
1708443046.231205,-2.141545057296753,-1.3335944724133988,-2.5270825068103235,6.110597598343649,1.0180363655090332,-2.3240843454944056
1708443046.2331371,-2.1415271759033203,-1.3336601567319413,-2.5271409193622034,6.110597598343649,1.0179897546768188,-2.3241007963763636
1708443046.2351146,-2.1415834426879883,-1.3336806309274216,-2.5271244684802454,6.110529053002157,1.017986536026001,-2.324130121861593
1708443046.2371218,-2.14158296585083,-1.3336146038821717,-2.5271034876452845,6.110623585968771,1.017970085144043,-2.3240929285632532
1708443046.2391078,-2.141505479812622,-1.3336919260076066,-2.5270825068103235,6.11058663108901,1.0179580450057983,-2.3241213003741663
1708443046.2411282,-2.1415624618530273,-1.3336344969323655,-2.527073685322897,6.110565888672628,1.0180273056030273,-2.324097220097677
1708443046.243099,-2.1415581703186035,-1.3336754155210038,-2.527036253605978,6.110618102341451,1.0179579257965088,-2.3240676561938685
1708443046.2451184,-2.1415493488311768,-1.3336060357144852,-2.5271409193622034,6.110594022064962,1.0179533958435059,-2.324081007634298
1708443046.2471209,-2.1415748596191406,-1.3336678457311173,-2.5270705858813685,6.110561597138204,1.018003225326538,-2.3240602652179163
1708443046.2490997,-2.141538143157959,-1.333659217958786,-2.5270751158343714,6.110569107323446,1.017974615097046,-2.3240440527545374
1708443046.251129,-2.141514301300049,-1.333626852636673,-2.5271578470813196,6.110556113510885,1.017986536026001,-2.324089829121725
1708443046.2531757,-2.1415178775787354,-1.3336430352977295,-2.5270825068103235,6.110565888672628,1.0180045366287231,-2.324036423360006
1708443046.2551363,-2.141559600830078,-1.3336018037847062,-2.527085606251852,6.110582101136007,1.0179611444473267,-2.3240321318255823
1708443046.2570956,-2.141570568084717,-1.3336146038821717,-2.527073685322897,6.110594022064962,1.017986536026001,-2.3240321318255823
1708443046.2591152,-2.1415624618530273,-1.3336668771556397,-2.5270825068103235,6.110564815789022,1.0180244445800781,-2.3240929285632532
1708443046.2611606,-2.1415352821350098,-1.3336678457311173,-2.5270660559283655,6.110635506897726,1.017991065979004,-2.3240395228015345
1708443046.2631073,-2.141530990600586,-1.333626852636673,-2.5271080175982874,6.110524761467733,1.0179941654205322,-2.3240276018725794
1708443046.2651255,-2.1415624618530273,-1.3337005388787766,-2.5271034876452845,6.110635626107015,1.0179791450500488,-2.324031654988424
1708443046.2671404,-2.1415538787841797,-1.333638773565628,-2.5270870367633265,6.110577809601583,1.018003225326538,-2.324031654988424
1708443046.2691076,-2.1415538787841797,-1.333610327248909,-2.527073685322897,6.110516059189596,1.0179579257965088,-2.3240483442889612
1708443046.2711682,-2.1415581703186035,-1.3335869026235123,-2.5271201769458216,6.110589730530538,1.0180121660232544,-2.324082676564352
1708443046.2731307,-2.1415293216705322,-1.3336876642755051,-2.5270989576922815,6.110602843552389,1.018012285232544,-2.3240602652179163
1708443046.2751226,-2.1415748596191406,-1.3336582493833085,-2.5270870367633265,6.110569107323446,1.0179579257965088,-2.324056927357809
1708443046.2771065,-2.141542434692383,-1.3336473119309922,-2.5271123091327112,6.11061059215621,1.0179747343063354,-2.3240328470813196
1708443046.2790904,-2.1415178775787354,-1.333651677971222,-2.5271034876452845,6.110552775650778,1.017970085144043,-2.324012343083517
1708443046.2811081,-2.1415624618530273,-1.3336876642755051,-2.5270631949054163,6.110545027046957,1.0179747343063354,-2.324012343083517
1708443046.2831137,-2.1415624618530273,-1.3336506944945832,-2.5270453135119837,6.110647427826681,1.0180001258850098,-2.3239999453174036
1708443046.2851589,-2.1416075229644775,-1.333638773565628,-2.5271034876452845,6.110564815789022,1.0179837942123413,-2.32404596010317
1708443046.2871623,-2.1415791511535645,-1.3336711388877411,-2.5270467440234583,6.110619294434347,1.0179986953735352,-2.324034039174215
1708443046.2891052,-2.141522169113159,-1.333618314271309,-2.5270989576922815,6.110565888672628,1.0179941654205322,-2.3239882628070276
1708443046.2911105,-2.141526699066162,-1.3336060655168076,-2.5271080175982874,6.1105573056037805,1.017991065979004,-2.3240087668048304
1708443046.2931352,-2.141505718231201,-1.333696187739708,-2.5270541349994105,6.110558020859518,1.018003225326538,-2.3239834944354456
1708443046.2951374,-2.1415011882781982,-1.3336354804090043,-2.5271080175982874,6.110606300621786,1.018012285232544,-2.3239925543414515
1708443046.297091,-2.141530990600586,-1.333626852636673,-2.5270705858813685,6.110577809601583,1.018028974533081,-2.3239806334124964
1708443046.2991078,-2.141514301300049,-1.333696187739708,-2.5270989576922815,6.110594022064962,1.018003225326538,-2.3239806334124964
1708443046.3011305,-2.1415538787841797,-1.333662526016571,-2.5270870367633265,6.110569107323446,1.0179702043533325,-2.3239720503436487
1708443046.3031268,-2.141566038131714,-1.3336635094932099,-2.5270586649524134,6.110594022064962,1.017970085144043,-2.3240090052234095
1708443046.3051198,-2.141526699066162,-1.3336311143687745,-2.5270660559283655,6.110602724343099,1.0180318355560303,-2.324013058339254
1708443046.3071318,-2.1415624618530273,-1.333647297029831,-2.5271123091327112,6.110594022064962,1.018007755279541,-2.3239925543414515
1708443046.3090842,-2.141591787338257,-1.3336840879968186,-2.5271034876452845,6.11058663108901,1.0180153846740723,-2.3239968458758753
1708443046.311129,-2.1416003704071045,-1.3336225611022492,-2.5270870367633265,6.110577809601583,1.0179791450500488,-2.3239925543414515
1708443046.3130949,-2.1415352821350098,-1.3336924773505707,-2.5270751158343714,6.11057339885787,1.018012285232544,-2.3239968458758753
1708443046.3151255,-2.141542434692383,-1.3336311143687745,-2.5270796457873743,6.110565888672628,1.0179533958435059,-2.323968474064962
1708443046.3171072,-2.1415791511535645,-1.3337005984834214,-2.5271080175982874,6.110505449562826,1.0180481672286987,-2.3239641825305384
1708443046.3191085,-2.1415791511535645,-1.3336840879968186,-2.5271034876452845,6.110524761467733,1.018012285232544,-2.3239925543414515
1708443046.3211472,-2.1415834426879883,-1.3336840283921738,-2.5270586649524134,6.110574590950765,1.018003225326538,-2.3239641825305384
1708443046.3230922,-2.141542434692383,-1.3336225760034104,-2.5270541349994105,6.110552894860067,1.018028974533081,-2.3240023295031946
1708443046.325118,-2.1415553092956543,-1.3336311143687745,-2.5270989576922815,6.110561597138204,1.017948865890503,-2.3239479700671595
1708443046.327107,-2.1415224075317383,-1.3336840283921738,-2.5270944277392786,6.11054943779067,1.0180199146270752,-2.323918883000509
1708443046.3290877,-2.1416032314300537,-1.3336549562266846,-2.5271080175982874,6.110582101136007,1.018003225326538,-2.323977533970968
1708443046.331203,-2.1415493488311768,-1.3336796772531052,-2.5270498434649866,6.110529053002157,1.0180408954620361,-2.323928181325094
1708443046.3331356,-2.1416032314300537,-1.3336268377355118,-2.5270796457873743,6.110589730530538,1.018003225326538,-2.323944393788473
1708443046.3351374,-2.1415581703186035,-1.3336354804090043,-2.5271034876452845,6.110594141274252,1.017970085144043,-2.3239858786212366
1708443046.3371296,-2.1415791511535645,-1.333638758664467,-2.5270751158343714,6.1105666039283655,1.018003225326538,-2.3239529768573206
1708443046.339101,-2.1415538787841797,-1.3336549562266846,-2.5270989576922815,6.110553729325094,1.0179774761199951,-2.32392388979067
1708443046.34116,-2.1415178775787354,-1.3336796772531052,-2.5270989576922815,6.110496628075399,1.0179897546768188,-2.323911968861715
1708443046.3430984,-2.141587495803833,-1.3336103123477479,-2.5271080175982874,6.110542046814718,1.0180153846740723,-2.3239367643939417
1708443046.345154,-2.141542434692383,-1.333647297029831,-2.5270825068103235,6.110545027046957,1.0180108547210693,-2.323935333882467
1708443046.3471236,-2.1415834426879883,-1.333647297029831,-2.5270751158343714,6.110574590950765,1.0180437564849854,-2.3239358107196253
1708443046.3491006,-2.1415538787841797,-1.3336430352977295,-2.5271123091327112,6.110513913422384,1.0179941654205322,-2.323928181325094
1708443046.3511422,-2.1415178775787354,-1.3336430352977295,-2.5271080175982874,6.110518204956808,1.018003225326538,-2.323895517979757
1708443046.353125,-2.1415510177612305,-1.3336668771556397,-2.5270870367633265,6.1104973433311365,1.0179986953735352,-2.323928181325094
1708443046.3551474,-2.1415581703186035,-1.333638758664467,-2.5270870367633265,6.110537755280294,1.0179954767227173,-2.3239575068103235
1708443046.3571706,-2.141566753387451,-1.3336516630700608,-2.5270705858813685,6.110525834351339,1.0180109739303589,-2.32391602197756
1708443046.3590996,-2.141591787338257,-1.333626852636673,-2.5270543734179896,6.110522615700521,1.0179941654205322,-2.323927942906515
1708443046.3611503,-2.1415624618530273,-1.3336797219565888,-2.5270379225360315,6.1105313179786584,1.017991065979004,-2.323920551930563
1708443046.3630993,-2.1415467262268066,-1.33366251111541,-2.5270915667163294,6.110563742905416,1.0179774761199951,-2.3239250818835657
1708443046.3651526,-2.141542434692383,-1.3336145889810105,-2.5270989576922815,6.110513913422384,1.0180199146270752,-2.3239010016070765
1708443046.367112,-2.1415581703186035,-1.3336796772531052,-2.5271123091327112,6.1105388281639,1.0180273056030273,-2.3238843123065394
1708443046.3691082,-2.1415467262268066,-1.333635465507843,-2.5270796457873743,6.110489833145895,1.0180244445800781,-2.3238723913775843
1708443046.3711135,-2.141545057296753,-1.3336840879968186,-2.5270498434649866,6.1104407189186,1.0180199146270752,-2.3239055315600794
1708443046.3731117,-2.1415581703186035,-1.3336301457932969,-2.5270989576922815,6.110465991287985,1.018006443977356,-2.3238843123065394
1708443046.3751588,-2.1416003704071045,-1.3336711537889023,-2.5270796457873743,6.110436427384176,1.0180199146270752,-2.3238301912890833
1708443046.3771174,-2.1416003704071045,-1.3336225760034104,-2.5270586649524134,6.11040090301589,1.018003225326538,-2.3238633314715784
1708443046.3791142,-2.141570568084717,-1.3336796772531052,-2.5271125475512903,6.1104702828224084,1.018007755279541,-2.3238151709186
1708443046.3811202,-2.1415178775787354,-1.333626852636673,-2.5271034876452845,6.110418307572164,1.018003225326538,-2.323831860219137
1708443046.38311,-2.1415581703186035,-1.3336558800986786,-2.5270960966693323,6.110454785614767,1.0180153846740723,-2.323840920125143
1708443046.385101,-2.1415748596191406,-1.3336678457311173,-2.5270288626300257,6.110397445946493,1.018003225326538,-2.32377797762026
1708443046.3871033,-2.1415224075317383,-1.3336145889810105,-2.5270589033709925,6.110438811569967,1.0180153846740723,-2.323765818272726
1708443046.3891065,-2.1415581703186035,-1.333654986029007,-2.5270677248584192,6.110402810364523,1.0179533958435059,-2.3237505594836634
1708443046.3911135,-2.141591787338257,-1.3336754155210038,-2.5270870367633265,6.110427844315328,1.0179986953735352,-2.3238094488727015
1708443046.3931289,-2.1415791511535645,-1.3336378049901505,-2.5270796457873743,6.110419022827902,1.0180001258850098,-2.323773209248678
1708443046.395135,-2.141587972640991,-1.333635465507843,-2.52708870569338,6.110357272415914,1.0180168151855469,-2.3237224260913294
1708443046.3971055,-2.1415624618530273,-1.3336225611022492,-2.5270631949054163,6.11038230636672,1.018049955368042,-2.323707167302267
1708443046.3991098,-2.1415624618530273,-1.3336145889810105,-2.5270841757403772,6.1103625176246545,1.0179791450500488,-2.323723618184225
1708443046.401103,-2.1415960788726807,-1.333635465507843,-2.527085844670431,6.110346305161276,1.0179791450500488,-2.3237207571612757
1708443046.4031048,-2.1415791511535645,-1.3336311143687745,-2.526994053517477,6.110313522606649,1.018007755279541,-2.3236411253558558
1708443046.4051075,-2.1415493488311768,-1.3336430352977295,-2.5270405451404017,6.110322105675497,1.0179579257965088,-2.3236966768847864
1708443046.4071245,-2.141533613204956,-1.3336592626622696,-2.5270665327655237,6.110371100693502,1.0179550647735596,-2.323636595402853
1708443046.4091082,-2.1415224075317383,-1.3336103570512314,-2.5269296805011194,6.110301840096273,1.0179342031478882,-2.3236246744738978
1708443046.4111075,-2.141542434692383,-1.3336018037847062,-2.5269249121295374,6.110311615258016,1.0179431438446045,-2.323582474385397
1708443046.4131074,-2.1415224075317383,-1.3336189550212403,-2.526943031941549,6.110289919167318,1.0179232358932495,-2.3236456553088587
1708443046.41512,-2.1415510177612305,-1.3336145889810105,-2.526947561894552,6.110314833908834,1.0178978443145752,-2.3236170450793665
1708443046.4171107,-2.141570568084717,-1.3336635094932099,-2.526943031941549,6.1102744219596765,1.0179024934768677,-2.3235555330859583
1708443046.419109,-2.1415538787841797,-1.3336549562266846,-2.5268951098071497,6.110262620240011,1.0178741216659546,-2.323505942021505
1708443046.4211004,-2.1415748596191406,-1.3335901510766526,-2.526902739201681,6.11027883270339,1.0178905725479126,-2.3235209623919886
1708443046.4231076,-2.1415624618530273,-1.3335944575122376,-2.5269656817065638,6.110238659172811,1.0178545713424683,-2.3234787623034876
1708443046.4251065,-2.141587734222412,-1.3335953515819092,-2.526907269154684,6.1102309105689905,1.0178422927856445,-2.32347280183901
1708443046.4271064,-2.1415581703186035,-1.3336354804090043,-2.5268951098071497,6.110165822296896,1.0178349018096924,-2.323373619710104
1708443046.4291043,-2.1415581703186035,-1.3336146187833329,-2.5268831888781946,6.110158312111654,1.0178197622299194,-2.3233540693866175
1708443046.431156,-2.1416003704071045,-1.3336146038821717,-2.5268800894366663,6.1101428149040125,1.0177899599075317,-2.323301617299215
1708443046.433156,-2.141566753387451,-1.3336060357144852,-2.5268664995776575,6.110131013184347,1.0177626609802246,-2.32332426706423
1708443046.4351046,-2.141587734222412,-1.3336516928723832,-2.5268922487842005,6.11015151718215,1.0177536010742188,-2.3233001867877405
1708443046.4371135,-2.1415791511535645,-1.3336354804090043,-2.5268545786487024,6.110090839653768,1.0177416801452637,-2.3232339064227503
1708443046.4391072,-2.1415553092956543,-1.33364391446624,-2.526835266743795,6.1100584147270105,1.0177103281021118,-2.3232384363757532
1708443046.441121,-2.141571044921875,-1.3336231422475358,-2.5268517176257532,6.110068189888754,1.0177103281021118,-2.323214356099264
1708443046.4431186,-2.1415960788726807,-1.3335791540196915,-2.526806894932882,6.109994160919943,1.0176904201507568,-2.3231332937823694
1708443046.4451182,-2.1415791511535645,-1.3336274337819596,-2.526773516331808,6.110039698868551,1.0176502466201782,-2.323151413594381
1708443046.4471235,-2.1415624618530273,-1.3336274337819596,-2.5267496744738978,6.110060322075643,1.0176591873168945,-2.323127333317892
1708443046.4491186,-2.141526699066162,-1.33358687282119,-2.5267587343799036,6.110073435097494,1.0175807476043701,-2.3231244722949427
1708443046.451103,-2.141533613204956,-1.3335712564042588,-2.5268035570727747,6.110053765564718,1.0175659656524658,-2.3230884710894983
1708443046.4531012,-2.141591787338257,-1.3335869175246735,-2.526799027119772,6.109984504967489,1.0175659656524658,-2.322989050542013
1708443046.4551096,-2.1416075229644775,-1.333566890364029,-2.5267751852618616,6.1099679348762415,1.017513394355774,-2.322998110448019
1708443046.4571059,-2.1415624618530273,-1.333542139535286,-2.5267558733569544,6.110009181290426,1.0175223350524902,-2.3229666391955774
1708443046.4591362,-2.1415493488311768,-1.333559350376465,-2.5267346541034144,6.109915601998129,1.0175056457519531,-2.322951618825094
1708443046.4610965,-2.1415791511535645,-1.3336202067187806,-2.52674371400942,6.109961497574606,1.0174440145492554,-2.3228614966021937
1708443046.463127,-2.141571044921875,-1.3335877817920228,-2.5266898314105433,6.109829890518942,1.0174741744995117,-2.3227549234973353
1708443046.465107,-2.1415791511535645,-1.3335920435241242,-2.52669865289797,6.109928715019979,1.0174425840377808,-2.3227744738208216
1708443046.467125,-2.1415960788726807,-1.3335626286319275,-2.52665359178652,6.109908091812887,1.0174262523651123,-2.3227010408984583
1708443046.4690983,-2.141566753387451,-1.333566890364029,-2.5266266504870813,6.109892952233114,1.0174322128295898,-2.3226690928088587
1708443046.4711013,-2.141566753387451,-1.3335344952395936,-2.5266762415515345,6.10984097698287,1.0173568725585938,-2.3226633707629603
1708443046.473117,-2.1415467262268066,-1.3335431677154084,-2.5266431013690394,6.1098646996314905,1.0173704624176025,-2.322610680256979
1708443046.4751275,-2.1415510177612305,-1.333501861696579,-2.5266597906695765,6.109824406891622,1.0172637701034546,-2.322501007710592
1708443046.4771109,-2.141505718231201,-1.3335517954877396,-2.526619259511129,6.109808075218954,1.0172804594039917,-2.3224740664111536
1708443046.4791107,-2.141530990600586,-1.3335431677154084,-2.5266147295581263,6.109819996147909,1.01718270778656,-2.322380844746725
1708443046.481114,-2.141538143157959,-1.3335276258042832,-2.526548687611715,6.109828698426046,1.0172216892242432,-2.3223043123828333
1708443046.4831069,-2.141538143157959,-1.3335395467332383,-2.526595417653219,6.109824406891622,1.0172066688537598,-2.322239700947897
1708443046.4850955,-2.141570568084717,-1.3334985089353104,-2.526625458394186,6.109816777497091,1.0171403884887695,-2.322217051182882
1708443046.487123,-2.1415510177612305,-1.333495558505394,-2.5265501181231897,6.109707104950704,1.0171494483947754,-2.3220911661731165
1708443046.489137,-2.141542434692383,-1.3334456545165558,-2.5265517870532435,6.109764802246847,1.0171183347702026,-2.322076145802633
1708443046.491093,-2.141542434692383,-1.3334669929793854,-2.5265308062182825,6.109744298249044,1.0170818567276,-2.321967903767721
1708443046.4931285,-2.1415510177612305,-1.3334876012853165,-2.5264976660357874,6.109703767090597,1.0170459747314453,-2.321921173726217
1708443046.4951272,-2.1415581703186035,-1.333496169453003,-2.5265443960772913,6.109773504524984,1.017000675201416,-2.3218537012683313
1708443046.4971144,-2.1415185928344727,-1.3334713888219376,-2.526478115712301,6.109703767090597,1.016951084136963,-2.3217485586749476
1708443046.499124,-2.141526699066162,-1.3334756803563614,-2.526529137288229,6.1097450135047815,1.0169315338134766,-2.321655575429098
1708443046.5011222,-2.1415791511535645,-1.3335489344647904,-2.5264514128314417,6.1097168801124475,1.0168837308883667,-2.321571175252096
1708443046.5031369,-2.141542434692383,-1.3334637445262452,-2.5264301935779017,6.1097450135047815,1.0168592929840088,-2.321512762700216
1708443046.5051074,-2.141542434692383,-1.3334680211595078,-2.5264318625079554,6.109692799835958,1.0168416500091553,-2.321383301411764
1708443046.507117,-2.1415395736694336,-1.333456204538681,-2.5263987223254603,6.109692799835958,1.016828179359436,-2.321291748677389
1708443046.5091257,-2.1415581703186035,-1.3334594529918213,-2.526407782231466,6.109709369927206,1.016758680343628,-2.321228806172506
1708443046.5111022,-2.141566753387451,-1.3334191602519532,-2.526379410420553,6.109705793648519,1.0167604684829712,-2.3210907618152063
1708443046.5131304,-2.1415748596191406,-1.33344321072612,-2.5263431707965296,6.109636413842001,1.0167405605316162,-2.320895496998922
1708443046.5151386,-2.1415748596191406,-1.3334561747363587,-2.5263598600970667,6.109648334770956,1.016679048538208,-2.320850435887472
1708443046.5171478,-2.141575336456299,-1.333456204538681,-2.5263238588916224,6.109710204392233,1.0166521072387695,-2.320704523717062
1708443046.5190945,-2.1415960788726807,-1.3334561598351975,-2.5263283888446253,6.109657037049093,1.0166566371917725,-2.320583168660299
1708443046.5211215,-2.1416046619415283,-1.3334475320628663,-2.5262413660632532,6.109648453980245,1.016592025756836,-2.3204808870898646
1708443046.5231287,-2.1415791511535645,-1.3333914291909714,-2.526266876851217,6.109611618309774,1.0165648460388184,-2.3203771750079554
1708443046.5251555,-2.1415624618530273,-1.333439664249756,-2.5262637774096888,6.109711277275839,1.0165319442749023,-2.320228401814596
1708443046.527127,-2.1415624618530273,-1.3334482175162812,-2.526266876851217,6.109592783242025,1.0164810419082642,-2.320129458104269
1708443046.5291207,-2.1415510177612305,-1.3334277284196396,-2.5262022654162806,6.1096006510551355,1.0164432525634766,-2.3199597040759485
1708443046.5311613,-2.1415581703186035,-1.33341999471698,-2.526205364857809,6.1096463082130334,1.016416072845459,-2.319836441670553
1708443046.5331867,-2.1415748596191406,-1.3333876442960282,-2.5262563864337366,6.109573471337118,1.016387701034546,-2.3196592966662806
1708443046.5351553,-2.1415510177612305,-1.3334115606597443,-2.526203695927755,6.109638678818502,1.0163259506225586,-2.319493834172384
1708443046.5371268,-2.1415748596191406,-1.3334361922791977,-2.526208225880758,6.109589564591207,1.0163064002990723,-2.3193545977221888
1708443046.539157,-2.1415748596191406,-1.3333956611207505,-2.526212517415182,6.109605896263876,1.0162913799285889,-2.319202486668722
1708443046.5411332,-2.1415791511535645,-1.3333834570697327,-2.526203695927755,6.109544980316915,1.016222357749939,-2.319080654774801
1708443046.5431123,-2.1415467262268066,-1.3333876144937058,-2.526125971470968,6.1095971939857385,1.0162403583526611,-2.3189080397235315
1708443046.5451515,-2.1415791511535645,-1.3334320050529023,-2.5261181036578577,6.109552490502157,1.0162208080291748,-2.3186588923083704
1708443046.5471203,-2.1415624618530273,-1.3333999526551743,-2.526160542164938,6.109544861107626,1.0161467790603638,-2.3184500376330774
1708443046.5491302,-2.1415624618530273,-1.3333834421685715,-2.5261486212359827,6.109553563385763,1.016127586364746,-2.318331543599264
1708443046.551147,-2.1416003704071045,-1.3333876144937058,-2.5260823408709925,6.109569775849142,1.0160616636276245,-2.318184200917379
1708443046.5531094,-2.141526699066162,-1.3334200394204636,-2.5260823408709925,6.109524595528402,1.0160584449768066,-2.317946974431173
1708443046.555118,-2.141510009765625,-1.333396242266037,-2.526121441517965,6.109565484314718,1.0160388946533203,-2.3178041617022913
1708443046.5571136,-2.141538143157959,-1.3333473366549988,-2.526041809712545,6.109562146454611,1.0159907341003418,-2.3175790945636194
1708443046.5591216,-2.141587495803833,-1.3334213656238099,-2.526038948689596,6.109496223717489,1.0159952640533447,-2.3174195925342005
1708443046.5611033,-2.1415581703186035,-1.333421380524971,-2.526026789342062,6.109525787621298,1.0159952640533447,-2.3172197977649134
1708443046.5631003,-2.141542434692383,-1.3333919805339356,-2.52606445947756,6.109544980316915,1.0159575939178467,-2.3169944922076624
1708443046.5651143,-2.141591787338257,-1.3333595854095002,-2.5260148684131067,6.1095290062721155,1.0159666538238525,-2.3167946974383753
1708443046.5671163,-2.141570568084717,-1.3333800596049805,-2.5260193983661097,6.109549271851339,1.015906572341919,-2.3165786902057093
1708443046.569726,-2.1415581703186035,-1.333367259507515,-2.526026789342062,6.109491693764486,1.0159183740615845,-2.316340986882345
1708443046.571128,-2.1415538787841797,-1.333384321337082,-2.5259862581836146,6.109565484314718,1.0158616304397583,-2.3161338011371058
1708443046.5731344,-2.14158296585083,-1.3333725047162552,-2.5259621779071253,6.109606849938192,1.0158586502075195,-2.3158980051623743
1708443046.5751345,-2.1416409015655518,-1.3333956909230729,-2.5260449091540735,6.109500515251913,1.0158510208129883,-2.315641228352682
1708443046.5771108,-2.1415748596191406,-1.333399922852852,-2.525933806096212,6.109549271851339,1.0158178806304932,-2.3153722921954554
1708443046.5791047,-2.1416032314300537,-1.333412767653801,-2.525900904332296,6.109578478127279,1.0158631801605225,-2.315143887196676
1708443046.5811245,-2.1415960788726807,-1.3333638620427628,-2.525984589253561,6.109537589340963,1.0158358812332153,-2.3148630301104944
1708443046.5831063,-2.141570568084717,-1.3333638322404404,-2.525935475026266,6.1095622656639,1.015815019607544,-2.314598623906271
1708443046.58514,-2.1416409015655518,-1.3334286671927948,-2.525942866002218,6.109533417015829,1.0158122777938843,-2.3142874876605433
1708443046.587125,-2.141627788543701,-1.3333919805339356,-2.525907103215353,6.109582054405966,1.0157818794250488,-2.3140414396869105
1708443046.589116,-2.1415493488311768,-1.3333767366460343,-2.525902811680929,6.109496223717489,1.0158166885375977,-2.313777033482687
1708443046.591112,-2.141598701477051,-1.3334127527526398,-2.525898281727926,6.10951708534316,1.0157759189605713,-2.313413445149557
1708443046.5931003,-2.141587495803833,-1.333444820051529,-2.5259280840503138,6.109504806786337,1.015729308128357,-2.3131912390338343
1708443046.5951223,-2.141557455062866,-1.333424375658371,-2.5259116331683558,6.109529125481405,1.0157172679901123,-2.3129149119006556
1708443046.5971203,-2.141611099243164,-1.3333225560239335,-2.525956455861227,6.109538662224569,1.0157639980316162,-2.3126023451434534
1708443046.5991387,-2.141611099243164,-1.3334361922791977,-2.5259116331683558,6.109541880875387,1.0157713890075684,-2.3123093287097376
1708443046.6011314,-2.141667366027832,-1.3333919656327744,-2.5259326140033167,6.109525668412008,1.0157427787780762,-2.3120136896716517
1708443046.6031642,-2.1416306495666504,-1.3334041398814698,-2.5259206930743616,6.109521376877584,1.0157471895217896,-2.311699692402975
1708443046.6051564,-2.1416234970092773,-1.3333516281894227,-2.5258782545672815,6.109549271851339,1.0157638788223267,-2.3113964239703577
1708443046.6071455,-2.1416025161743164,-1.3334048998406907,-2.5259116331683558,6.1095622656639,1.015735387802124,-2.311052147542135
1708443046.6091268,-2.141617774963379,-1.3333962571671982,-2.5259369055377405,6.109521376877584,1.015760898590088,-2.3107474485980433
1708443046.6111462,-2.141617774963379,-1.3334005338004609,-2.5258827845202845,6.109566557198324,1.015730857849121,-2.310385290776388
1708443046.6131556,-2.141646385192871,-1.3334286671927948,-2.5258782545672815,6.109533417015829,1.0157217979431152,-2.3100503126727503
1708443046.6151252,-2.1416420936584473,-1.33333873868499,-2.5258663336383265,6.109574067383566,1.0157517194747925,-2.309747282658712
1708443046.6171324,-2.1416754722595215,-1.3334373396686097,-2.5258827845202845,6.109557854920187,1.0157145261764526,-2.309385363255636
1708443046.6191387,-2.1416263580322266,-1.3334128123572846,-2.5259037653552454,6.109533417015829,1.0157263278961182,-2.3091190497027796
1708443046.6211476,-2.141650676727295,-1.3334048849395295,-2.5259116331683558,6.109561192780294,1.015730857849121,-2.3087647596942347
1708443046.6231272,-2.1416783332824707,-1.333331049685814,-2.5258708635913294,6.1095622656639,1.015718936920166,-2.308441940938131
1708443046.6251168,-2.141663074493408,-1.333363876943924,-2.5258918444262903,6.109557854920187,1.015739917755127,-2.3080769220935267
1708443046.627117,-2.1416754722595215,-1.3333757829717179,-2.5259116331683558,6.109590637474813,1.015739917755127,-2.307662550603048
1708443046.629133,-2.141662359237671,-1.3333473217538376,-2.5258827845202845,6.109578478127279,1.015697717666626,-2.3073065916644495
1708443046.6311202,-2.1417081356048584,-1.3333595854095002,-2.52590257326235,6.1095361588294885,1.0156482458114624,-2.306937281285421
1708443046.6332033,-2.1416871547698975,-1.3333725196174164,-2.5259369055377405,6.1095971939857385,1.015730857849121,-2.3065856138812464
1708443046.6351366,-2.1416544914245605,-1.3333344918540497,-2.5259116331683558,6.109576451569357,1.015697717666626,-2.3061755339251917
1708443046.6371229,-2.1416544914245605,-1.3333887171796341,-2.5259326140033167,6.109548079758444,1.0157639980316162,-2.305823628102438
1708443046.6391296,-2.141617774963379,-1.3333875995925446,-2.5259161631213587,6.109592783242025,1.0156899690628052,-2.3054021040545862
1708443046.641135,-2.1416754722595215,-1.3333387684873124,-2.5259862581836146,6.109666931420126,1.0156900882720947,-2.304997984563009
1708443046.643122,-2.1416995525360107,-1.3333843660405655,-2.5258947054492396,6.1096463082130334,1.0157517194747925,-2.304601256047384
1708443046.645122,-2.141690731048584,-1.3333595407060166,-2.5259280840503138,6.109645116120138,1.015730857849121,-2.304208819066183
1708443046.6471155,-2.1417205333709717,-1.3333681237748642,-2.5259652773486536,6.109661328583517,1.0157172679901123,-2.3037970701800745
1708443046.6491668,-2.141666889190674,-1.3333387684873124,-2.525907103215353,6.10971366146163,1.0157549381256104,-2.3033888975726526
1708443046.651106,-2.141695022583008,-1.3333515685847779,-2.5258901754962366,6.109676587372579,1.0157759189605713,-2.3029308954821985
1708443046.6531603,-2.141716241836548,-1.333388702278473,-2.5258827845202845,6.109688389092245,1.0157382488250732,-2.3025596777545374
1708443046.6551342,-2.1417038440704346,-1.3334243309548874,-2.525944534932272,6.10970817783431,1.0157713890075684,-2.302007261906759
1708443046.6571195,-2.1417031288146973,-1.3334084910205384,-2.5259280840503138,6.109761583596029,1.0157291889190674,-2.3016584555255335
1708443046.6591492,-2.1417598724365234,-1.3334371906569977,-2.525919024144308,6.109770285874166,1.0157922506332397,-2.301155392323629
1708443046.6611266,-2.141711711883545,-1.3333724600127717,-2.5259326140033167,6.109769093781271,1.0158212184906006,-2.3007410208331507
1708443046.6631021,-2.141723155975342,-1.3334128272584458,-2.525951925908224,6.109691965370931,1.0157697200775146,-2.300242010747091
1708443046.6651351,-2.141690731048584,-1.333437205558159,-2.525919024144308,6.1097779152686975,1.0158076286315918,-2.2997944990741175
1708443046.6671062,-2.141707420349121,-1.3333672446063538,-2.525919024144308,6.1097590802009485,1.0157986879348755,-2.2993510405169886
1708443046.6691408,-2.1417431831359863,-1.3333714616349717,-2.525963846837179,6.109841811447897,1.015831470489502,-2.2988527456866663
1708443046.6711316,-2.141695022583008,-1.3333875846913834,-2.525940004979269,6.1098211882408044,1.0158812999725342,-2.2984171549426478
1708443046.6731117,-2.141716241836548,-1.3333791357329865,-2.525972906743185,6.109853970795431,1.0158586502075195,-2.297948662434713
1708443046.6751435,-2.1416988372802734,-1.333415837293007,-2.525947395955221,6.109824406891622,1.0158374309539795,-2.297499481831686
1708443046.6771238,-2.1417031288146973,-1.3334329438260575,-2.525971237813131,6.1098517058189294,1.0159082412719727,-2.2969706694232386
1708443046.6791189,-2.141690731048584,-1.3334243458560486,-2.5259221235858362,6.109872329026022,1.0158872604370117,-2.2964909712420862
1708443046.6811454,-2.141707420349121,-1.33337918043647,-2.52602988878359,6.109900462418356,1.0159037113189697,-2.295940939580099
1708443046.6831186,-2.141707420349121,-1.3334406179240723,-2.525975767766134,6.109916674881735,1.0159019231796265,-2.2955167929278772
1708443046.6851373,-2.1417388916015625,-1.3333423894694825,-2.525975767766134,6.109908091812887,1.015926480293274,-2.295007054005758
1708443046.6871257,-2.141723155975342,-1.3334329736283799,-2.525933806096212,6.1099809286888025,1.015942931175232,-2.2945271174060267
1708443046.689128,-2.141707420349121,-1.333412767653801,-2.5259667078601282,6.109878885536947,1.0159833431243896,-2.2940507570849817
1708443046.6911304,-2.141695022583008,-1.333424375658371,-2.5259879271136683,6.109935390740194,1.016007423400879,-2.2934845129596155
1708443046.6931164,-2.141707420349121,-1.3333914440921326,-2.5259879271136683,6.109984504967489,1.016036033630371,-2.293053213750021
1708443046.6951284,-2.1417274475097656,-1.333387629394867,-2.5259984175311487,6.109984504967489,1.0160553455352783,-2.2924986521350306
1708443046.697111,-2.141723155975342,-1.3334244203618546,-2.5260313192950647,6.109934198647299,1.0161292552947998,-2.2920027414904993
1708443046.6991262,-2.1416988372802734,-1.3334524643472214,-2.526043478642599,6.109953987389364,1.0161247253417969,-2.2914567629443567
1708443046.701123,-2.1416778564453125,-1.3333956909230729,-2.5260959307300013,6.110028850823202,1.0161603689193726,-2.2909165064441126
1708443046.7031128,-2.14168643951416,-1.3334158074906846,-2.526067558919088,6.110036480217733,1.0162057876586914,-2.290419880543844
1708443046.7051394,-2.1417031288146973,-1.3334523749402543,-2.5260868708239954,6.110020267754354,1.0161757469177246,-2.2898054758654993
1708443046.7071192,-2.1417431831359863,-1.3334524047425766,-2.5261197725879114,6.110072600632467,1.0161995887756348,-2.2893717924701136
1708443046.7091718,-2.1417031288146973,-1.3334440004876633,-2.5261362234698694,6.110007154732504,1.0162372589111328,-2.2887590567218226
1708443046.7111173,-2.1416821479797363,-1.333423451786377,-2.526151482258932,6.110037553101339,1.0162327289581299,-2.2883146444903772
1708443046.7131405,-2.141707420349121,-1.3334041249803086,-2.526104752217428,6.110007154732504,1.016243577003479,-2.287741247807638
1708443046.7151096,-2.1417319774627686,-1.3333748292974015,-2.526175324116842,6.110048401146688,1.0162644386291504,-2.2871866861926478
1708443046.7171128,-2.1417274475097656,-1.3334775430015107,-2.5261917749988,6.110039698868551,1.0162792205810547,-2.2866624037372034
1708443046.7191083,-2.141723155975342,-1.333439679150917,-2.5261991659747522,6.110023486405172,1.0163172483444214,-2.286121670399801
1708443046.7211156,-2.1416783332824707,-1.3334190857461472,-2.5262444655047815,6.11011694648818,1.016345500946045,-2.2855497042285364
1708443046.7231174,-2.141711711883545,-1.3334072989276429,-2.5261991659747522,6.110051619797506,1.0163980722427368,-2.284997288380758
1708443046.7251532,-2.1416783332824707,-1.3334115010550995,-2.5262144247638147,6.110018002777853,1.016410231590271,-2.284501616154806
1708443046.727107,-2.141716241836548,-1.3334561896375199,-2.526242796574728,6.110060322075643,1.016404151916504,-2.2838876883136194
1708443046.7291007,-2.141674041748047,-1.333435298209526,-2.526275936757223,6.110019075661459,1.0164659023284912,-2.283311430607931
1708443046.7311344,-2.141666889190674,-1.33347241700206,-2.526287857686178,6.110014664917745,1.0164432525634766,-2.2827041784869593
1708443046.7332053,-2.1417038440704346,-1.333528534775116,-2.52631646791567,6.110007273941793,1.0165091753005981,-2.282156769429342
1708443046.7351413,-2.1416220664978027,-1.3334713739207764,-2.5263448397265833,6.109981882363119,1.0165245532989502,-2.2816250959979456
1708443046.7371302,-2.141666889190674,-1.3335041117719193,-2.5263643900500696,6.110093223839559,1.0165557861328125,-2.281070057545797
1708443046.7391248,-2.1416149139404297,-1.3335437935641785,-2.5263689200030726,6.110064613610067,1.016625165939331,-2.280496899281637
1708443046.7411332,-2.1415815353393555,-1.3335438084653397,-2.5263598600970667,6.1099774716194055,1.0166534185409546,-2.2798736731158655
1708443046.7431471,-2.1415493488311768,-1.333564506178238,-2.526376549397604,6.109954225807943,1.0165979862213135,-2.2793591658221644
1708443046.745124,-2.141591787338257,-1.333559275870659,-2.526404921208517,6.110024559288778,1.016709327697754,-2.278790299092428
1708443046.7471457,-2.1415467262268066,-1.3336124581149598,-2.526419703160421,6.109988796501913,1.0167495012283325,-2.278222386037008
1708443046.7491188,-2.1415185928344727,-1.3335593354753037,-2.5265186468707483,6.109984504967489,1.0167495012283325,-2.2776787916766565
1708443046.7511115,-2.1414875984191895,-1.3335878413966675,-2.5264766852008265,6.109959351807394,1.016802191734314,-2.2770946661578577
1708443046.7531633,-2.141475200653076,-1.3335868877223511,-2.526442352925436,6.109895098000326,1.016834020614624,-2.2765706221209925
1708443046.7551084,-2.141402244567871,-1.3336274337819596,-2.526499334965841,6.109932172089376,1.0168416500091553,-2.275956932698385
1708443046.7571204,-2.141390800476074,-1.3336316806128998,-2.5265353361712855,6.109798300057211,1.0169107913970947,-2.2754514853106897
1708443046.7591012,-2.14142107963562,-1.3335868430188675,-2.5265968481646937,6.109812485962667,1.016951322555542,-2.2748640219317835
1708443046.7611172,-2.141331195831299,-1.3336549413255234,-2.5265923182116907,6.109743225365438,1.0169827938079834,-2.2742508093463343
1708443046.7631319,-2.1412861347198486,-1.3336268675378342,-2.526628319417135,6.109754669457235,1.0169768333435059,-2.2737234274493616
1708443046.7651424,-2.1412343978881836,-1.3336952042630692,-2.526689592991964,6.109736311226644,1.0170247554779053,-2.27317983308901
1708443046.767113,-2.1411995887756348,-1.3336747300675889,-2.5266929308520716,6.109704959183492,1.0170910358428955,-2.2725237051593226
1708443046.7691147,-2.141127109527588,-1.3336507093957444,-2.5267332235919397,6.109608280449667,1.0171136856079102,-2.272017304097311
1708443046.7711248,-2.141045093536377,-1.3337756258300324,-2.526731793080465,6.109588491707601,1.0171825885772705,-2.2714665571795862
1708443046.7731137,-2.14097261428833,-1.333747224216797,-2.5267677942859095,6.1094679711158655,1.017235279083252,-2.270811382924215
1708443046.7751083,-2.140900135040283,-1.3338156950524827,-2.5267661253558558,6.109444963722982,1.0172621011734009,-2.2702510992633265
1708443046.777102,-2.140791893005371,-1.3337584149888535,-2.526832405720846,6.1093493578727625,1.0173028707504272,-2.2696922461139124
1708443046.7791173,-2.140659809112549,-1.3337865781835099,-2.5268517176257532,6.109240758209982,1.017386794090271,-2.2691386381732386
1708443046.7811415,-2.1406326293945312,-1.3337865632823487,-2.5268545786487024,6.109149443894186,1.0174726247787476,-2.268538777028219
1708443046.7831361,-2.140472173690796,-1.3338113588145752,-2.526919190083639,6.109041797905721,1.0174953937530518,-2.268006149922506
1708443046.7851617,-2.1404213905334473,-1.3338546615890046,-2.5269597212420862,6.108898269921102,1.0175597667694092,-2.2674554030047815
1708443046.7871118,-2.1402411460876465,-1.3338669699481507,-2.5270047823535364,6.108787166863241,1.017615556716919,-2.2668445746051233
1708443046.789112,-2.1401126384735107,-1.3339026433280488,-2.52712327638735,6.108598220139303,1.0176424980163574,-2.266305748616354
1708443046.7911198,-2.1399686336517334,-1.3338983666947861,-2.5270915667163294,6.108475553780355,1.0176949501037598,-2.2657607237445276
1708443046.7931077,-2.139788866043091,-1.3338976812413712,-2.5271034876452845,6.108340608864584,1.0177761316299438,-2.2652586142169397
1708443046.7950976,-2.1396291255950928,-1.3339539629272004,-2.527168099080221,6.108176457672872,1.0178439617156982,-2.2646997610675257
1708443046.7971063,-2.1395061016082764,-1.3339907091907044,-2.5272699038134974,6.1080044386680505,1.0178966522216797,-2.264225784932272
1708443046.799098,-2.1393139362335205,-1.3340018701604386,-2.527313772832052,6.1077685234840295,1.0179851055145264,-2.2636879126178187
1708443046.8011498,-2.1391055583953857,-1.3339890402606507,-2.5273223559008997,6.107601392060079,1.0180245637893677,-2.2631667296039026
1708443046.803113,-2.138918161392212,-1.3340495240739365,-2.527391497288839,6.107361304550924,1.0181294679641724,-2.262665573750631
1708443046.805092,-2.138702154159546,-1.3341016930392762,-2.5274813810931605,6.107151376992025,1.018189549446106,-2.2621191183673304
1708443046.8071065,-2.138536214828491,-1.3341297966292878,-2.527553383504049,6.106925952225485,1.0183281898498535,-2.2615698019610804
1708443046.8091166,-2.1383559703826904,-1.3341170114329834,-2.527600113545553,6.106736647873678,1.0183277130126953,-2.2610862890826624
1708443046.8111231,-2.138141393661499,-1.3341697466424485,-2.5276194254504603,6.106447922974386,1.0184539556503296,-2.2605794111834925
1708443046.8131046,-2.1379265785217285,-1.334201530819275,-2.527724091206686,6.10622929313735,1.018559217453003,-2.2600610891925257
1708443046.8151138,-2.137740135192871,-1.3341726970723649,-2.527811590825216,6.105998861580648,1.018646478652954,-2.2595418135272425
1708443046.8171043,-2.1374104022979736,-1.3342614036849518,-2.5279060045825403,6.105694997101583,1.0187468528747559,-2.2590487639056605
1708443046.81911,-2.137106418609619,-1.3342809987119217,-2.5279691855060022,6.105374920159139,1.018876552581787,-2.258549515401022
1708443046.821132,-2.136801242828369,-1.3343006086400528,-2.52804404893984,6.105059850006857,1.018979787826538,-2.258047405873434
1708443046.8231184,-2.136507749557495,-1.3343530756286164,-2.5280948320971888,6.104656445771017,1.01906418800354,-2.2575929800616663
1708443046.8251238,-2.136249542236328,-1.3344049465707322,-2.5282703081714075,6.104342090874471,1.0191888809204102,-2.2570799032794397
1708443046.8271022,-2.135897636413574,-1.3344244819930573,-2.528309170399801,6.104057180672445,1.0192627906799316,-2.2565797011004847
1708443046.8291209,-2.1356303691864014,-1.3344648492387314,-2.5284128824817103,6.103669273644247,1.019379734992981,-2.256137196217672
1708443046.8311224,-2.1352505683898926,-1.3345166903785248,-2.528492037449972,6.103265630989828,1.0194882154464722,-2.2556522528277796
1708443046.83318,-2.135000467300415,-1.3345441979220887,-2.528564516698019,6.102881777077474,1.0196412801742554,-2.255138699208395
1708443046.835183,-2.1346139907836914,-1.3345884543708344,-2.528717343007223,6.102533089905538,1.0197737216949463,-2.2547033468829554
1708443046.8371065,-2.134249687194824,-1.3346322190812607,-2.5287891069995325,6.10219823101119,1.019884705543518,-2.254214111958639
1708443046.8391144,-2.1339032649993896,-1.3346594137004395,-2.528858248387472,6.101768004685201,1.020005226135254,-2.2537530104266565
1708443046.8411276,-2.1335768699645996,-1.3346994531205674,-2.529020373021261,6.101310956269064,1.0201870203018188,-2.25336724916567
1708443046.8431027,-2.13312029838562,-1.3347919297269364,-2.529198710118429,6.100816118508138,1.0203267335891724,-2.252894703541891
1708443046.845124,-2.132688045501709,-1.3347907823375245,-2.529304806386129,6.1002975580985925,1.0204499959945679,-2.2524197737323206
1708443046.8471203,-2.1322567462921143,-1.3348387044719239,-2.5294249693499964,6.099774825363912,1.0205987691879272,-2.2520087401019495
1708443046.8490965,-2.1318295001983643,-1.334882379775383,-2.5295899550067347,6.0993703482444666,1.020783543586731,-2.2516348997699183
1708443046.8511753,-2.1314146518707275,-1.334962622528412,-2.5297041575061243,6.098851191788473,1.0209025144577026,-2.251194779072897
1708443046.8531003,-2.130963087081909,-1.3350676459125062,-2.529823605214254,6.098368394165792,1.0210436582565308,-2.250732723866598
1708443046.8551495,-2.130455493927002,-1.3351027828506012,-2.5299885908709925,6.097882020264425,1.0211834907531738,-2.250377957020895
1708443046.8571274,-2.1299855709075928,-1.3351265651038666,-2.53017503419985,6.097302901535787,1.0214024782180786,-2.24994928041567
1708443046.8591096,-2.129455089569092,-1.3352060180953522,-2.5302720705615442,6.096677768021383,1.0215482711791992,-2.2495644728290003
1708443046.861119,-2.1289141178131104,-1.335314304833748,-2.530477825795309,6.09604178646163,1.0217618942260742,-2.2491472403155726
1708443046.8631048,-2.1283888816833496,-1.335369960670807,-2.5306456724749964,6.0954333422477625,1.0219918489456177,-2.248791519795553
1708443046.865109,-2.127873659133911,-1.3354663860848923,-2.530851189290182,6.0948147652442834,1.022192120552063,-2.2484477202044886
1708443046.867106,-2.127272367477417,-1.3354647320559998,-2.5309889952289026,6.094155895500936,1.0223344564437866,-2.248115841542379
1708443046.8690991,-2.1266674995422363,-1.3355494749597092,-2.531166140233175,6.093551623612203,1.0225344896316528,-2.247747246419088
1708443046.871113,-2.1261343955993652,-1.335596354012825,-2.531344238911764,6.092881667404928,1.0227445363998413,-2.2474196592914026
1708443046.873089,-2.125440835952759,-1.3357288104346772,-2.5315426031695765,6.092176306038656,1.0229852199554443,-2.2471073309527796
1708443046.8751197,-2.1248607635498047,-1.3357960146716614,-2.531726900731222,6.09144555309371,1.023222804069519,-2.246800724660055
1708443046.8771238,-2.124145030975342,-1.33589622498069,-2.531951967869894,6.090700733452596,1.0234824419021606,-2.2464163939105433
1708443046.8791053,-2.1234376430511475,-1.3359960180572052,-2.532154385243551,6.0898523209388635,1.023710012435913,-2.2461841742144983
1708443046.8811476,-2.1227760314941406,-1.3360584539226075,-2.5323296228991907,6.089130151062765,1.0239711999893188,-2.2459004561053675
1708443046.883099,-2.1220648288726807,-1.336227447991707,-2.5325172583209437,6.088291513710775,1.024240255355835,-2.24557334581484
1708443046.8851438,-2.121314764022827,-1.336282194857933,-2.5327211062060755,6.087458240776815,1.0245226621627808,-2.2453587690936487
1708443046.8871193,-2.120612621307373,-1.3363900494626542,-2.5329821745501917,6.086637127190389,1.0247286558151245,-2.245161835347311
1708443046.8891041,-2.119870662689209,-1.336538479929306,-2.5331905523883265,6.085743891983785,1.025002360343933,-2.2448514143573206
1708443046.8911278,-2.119119882583618,-1.3365571361831208,-2.5333882013904017,6.084870087891378,1.0252790451049805,-2.2446439901935022
1708443046.8931103,-2.118299961090088,-1.336745799784996,-2.5336676279651087,6.084025370865621,1.025543212890625,-2.244424645100729
1708443046.8951178,-2.1174893379211426,-1.336836190228798,-2.533889357243673,6.083002555161276,1.0258389711380005,-2.2441871801959437
1708443046.897099,-2.116659164428711,-1.336972029214241,-2.5341501871692103,6.081964957505026,1.026170015335083,-2.243995491658346
1708443046.899115,-2.115786075592041,-1.3371079874089737,-2.534414354954855,6.081071364670553,1.0265114307403564,-2.243833367024557
1708443046.9011407,-2.114907741546631,-1.3372277480414887,-2.534654204045431,6.080046403198995,1.0267983675003052,-2.243591610585348
1708443046.9031408,-2.1140823364257812,-1.3373636913350602,-2.5349302927600306,6.078935014992513,1.027119517326355,-2.2434609572040003
1708443046.90512,-2.113129138946533,-1.3374583286098023,-2.5352359453784388,6.078053223877706,1.0273528099060059,-2.2432430426227015
1708443046.907113,-2.112229347229004,-1.337593899374344,-2.5355027357684534,6.076994645386495,1.0276877880096436,-2.243133846913473
1708443046.9091153,-2.1113274097442627,-1.3377453994802018,-2.535771433507101,6.07596634605483,1.0279626846313477,-2.2429726759540003
1708443046.9111373,-2.110361337661743,-1.3378662031940003,-2.5360472838031214,6.074840652733602,1.0283416509628296,-2.2427881399737757
1708443046.913119,-2.1093764305114746,-1.3380573105863114,-2.53636342683901,6.073749768524923,1.028748869895935,-2.242734734212057
1708443046.915144,-2.108358144760132,-1.338226096039154,-2.536646906529562,6.072573888092794,1.029074788093567,-2.2425840536700647
1708443046.9171228,-2.10733699798584,-1.3383771193078537,-2.5369229952441614,6.071437346726217,1.0294510126113892,-2.2425134817706507
1708443046.9191108,-2.106322765350342,-1.3385031831315537,-2.5372844378100794,6.070322382241049,1.0298935174942017,-2.2423933188067835
1708443046.9211197,-2.1052799224853516,-1.3386759471944352,-2.5375948588000696,6.069223987847128,1.030273675918579,-2.242255512868063
1708443046.9231107,-2.1042065620422363,-1.3388717484525223,-2.5378902594195765,6.067965137749471,1.0306615829467773,-2.242270294819967
1708443046.9251447,-2.1030800342559814,-1.338994563823082,-2.5382347742663782,6.066904651909628,1.031006097793579,-2.2422311941729944
1708443046.9271202,-2.1020429134368896,-1.3391943585923691,-2.5385502020465296,6.065624105721273,1.0314269065856934,-2.242145840321676
1708443046.9291003,-2.100881338119507,-1.3394346845201035,-2.538887325917379,6.064374196320333,1.0318280458450317,-2.2420528570758265
1708443046.9311328,-2.099759817123413,-1.3396393370679398,-2.5391977469073694,6.0631600497062585,1.0322774648666382,-2.2420528570758265
1708443046.9331555,-2.0985538959503174,-1.3397641491940995,-2.5395622889148157,6.061830389290609,1.0327025651931763,-2.242082420979635
1708443046.9352047,-2.0974013805389404,-1.339934692983963,-2.539917771016256,6.060607898026266,1.0331363677978516,-2.2420948187457483
1708443046.9371352,-2.0961902141571045,-1.34017929554496,-2.5403061548816126,6.059366929322042,1.0335557460784912,-2.2421324888812464
1708443046.939112,-2.095010757446289,-1.3403828752091904,-2.5406537691699427,6.058058130532064,1.0340020656585693,-2.2421563307391565
1708443046.9411385,-2.093796730041504,-1.3405534339002152,-2.5410271326648157,6.056726324349203,1.0344135761260986,-2.242211643849508
1708443046.9431171,-2.092560291290283,-1.340749279861786,-2.541398827229635,6.055361377983846,1.0349199771881104,-2.2423036734210413
1708443046.9451504,-2.0912935733795166,-1.3409806352904816,-2.541802469884054,6.053969371109762,1.0353678464889526,-2.2423184553729456
1708443046.9471173,-2.0900378227233887,-1.3411948543838044,-2.5422032515155237,6.052573787956991,1.0359156131744385,-2.242394749318258
1708443046.9491062,-2.0886592864990234,-1.3414870512536545,-2.5425990263568323,6.051071750908651,1.0363868474960327,-2.2424548308001917
1708443046.951127,-2.087395191192627,-1.3417025220445176,-2.543036762868063,6.049624430924215,1.0368731021881104,-2.242523972188131
1708443046.9531116,-2.086099147796631,-1.3419326704791565,-2.5434897581683558,6.048278319626608,1.0373784303665161,-2.242624584828512
1708443046.9551513,-2.0847294330596924,-1.3422567409328003,-2.5438056627856653,6.046802747040548,1.0378140211105347,-2.242720905934469
1708443046.957133,-2.0834286212921143,-1.3425089877894898,-2.5441842714892786,6.045378911286154,1.038356900215149,-2.2428372542010706
1708443046.9591482,-2.0820794105529785,-1.342653365140297,-2.544699494038717,6.043951737671652,1.038845181465149,-2.2429502646075647
1708443046.961104,-2.080758810043335,-1.3429859292558213,-2.545107905064718,6.042461859970846,1.0393755435943604,-2.243110481892721
1708443046.9631205,-2.0794520378112793,-1.343246505861618,-2.54547363916506,6.041095483094015,1.0398955345153809,-2.243274513875143
1708443046.965128,-2.0780584812164307,-1.3435567927411576,-2.5458906332599085,6.039635050087728,1.0404257774353027,-2.2434924284564417
1708443046.967197,-2.076691150665283,-1.3438478869250794,-2.5463178793536585,6.038154113083639,1.0409250259399414,-2.2436965147601526
1708443046.969121,-2.0752577781677246,-1.3440895986608048,-2.5467589537249964,6.036672222405233,1.0415157079696655,-2.2439244429217737
1708443046.9711084,-2.073880672454834,-1.344394029383995,-2.5472386519061487,6.035172211914816,1.0421184301376343,-2.244176689778463
1708443046.9731166,-2.0724658966064453,-1.344642699961998,-2.547743860875265,6.033617126732626,1.0426580905914307,-2.244474236165182
1708443046.9751225,-2.07108998298645,-1.3449664425900956,-2.548199717198507,6.032209265023031,1.0432230234146118,-2.244680706654684
1708443046.9771223,-2.0696849822998047,-1.345265657906868,-2.548615280781881,6.0307161686714075,1.0437926054000854,-2.2449663321124476
1708443046.979155,-2.0682520866394043,-1.3456144642880936,-2.5490456263171595,6.029273378639974,1.0443174839019775,-2.245242420827047
1708443046.9811282,-2.06681489944458,-1.3458633732846756,-2.549509112034933,6.027807462006368,1.0449079275131226,-2.245538059865133
1708443046.983116,-2.0653693675994873,-1.346161351805069,-2.549973789845602,6.026244985848226,1.0454068183898926,-2.245831314717428
1708443046.985116,-2.0639588832855225,-1.346505881553032,-2.550458017979757,6.0247158882911584,1.0459766387939453,-2.246160332356588
1708443046.9871213,-2.062448263168335,-1.346803681259491,-2.5509215036975306,6.023224818497457,1.0465294122695923,-2.246471707020895
1708443046.989133,-2.0609700679779053,-1.347110168342926,-2.551408831273214,6.021631347924032,1.0471969842910767,-2.246824566517965
1708443046.991112,-2.059433937072754,-1.3474666488221665,-2.5519469420062464,6.020076739579,1.0478311777114868,-2.2471397558795374
1708443046.9931197,-2.0579917430877686,-1.3478058141520997,-2.552446428929464,6.018516766815939,1.0484068393707275,-2.2475302855121058
1708443046.9950972,-2.0564677715301514,-1.348096491103508,-2.55290133157839,6.017014014511862,1.0490410327911377,-2.2478697935687464
1708443046.9971075,-2.0549755096435547,-1.3484149885228653,-2.5534423033343714,6.015550958901205,1.0495667457580566,-2.2482011953936976
1708443046.9991221,-2.05346941947937,-1.3488157552531739,-2.5539289156543177,6.014021503716268,1.050164818763733,-2.2486022154437464
1708443047.001117,-2.051889419555664,-1.3491937679103394,-2.554474655781881,6.012483346253195,1.050684928894043,-2.2490366140948694
1708443047.0031433,-2.0503478050231934,-1.3495239180377503,-2.554941240941183,6.01088427284316,1.0512422323226929,-2.249432388936178
1708443047.0051153,-2.04880690574646,-1.3498702359250565,-2.5554526487933558,6.009266721993246,1.0518476963043213,-2.2498720327960413
1708443047.0071352,-2.0472071170806885,-1.3502177608064194,-2.5560103098498743,6.007759678154745,1.0524898767471313,-2.2502854506122034
1708443047.0091655,-2.04569673538208,-1.350640819673874,-2.5565548578845423,6.006268012314596,1.0532429218292236,-2.2507670561419886
1708443047.0111272,-2.0441441535949707,-1.3509906840375443,-2.557061735783712,6.0047351000602625,1.0538699626922607,-2.25120717683901
1708443047.0131166,-2.042511224746704,-1.3513809603503724,-2.557579580937521,6.003256904869833,1.0545191764831543,-2.251598660145895
1708443047.0151126,-2.041048049926758,-1.3517560076764603,-2.5580461660968226,6.001793372422018,1.0551848411560059,-2.2520907560931605
1708443047.0171192,-2.0393903255462646,-1.3521865916303177,-2.558598343526022,6.000226843148031,1.0558053255081177,-2.252575699483053
1708443047.0191283,-2.0378379821777344,-1.3526349675706406,-2.5591512362109583,5.9986986992652795,1.0565193891525269,-2.2530320326434534
1708443047.0211222,-2.0362181663513184,-1.353036717777588,-2.5596986452685755,5.9972033379371545,1.0572540760040283,-2.2535532156573694
1708443047.023111,-2.0346148014068604,-1.3534476172975083,-2.560263697301046,5.995581257134237,1.057935118675232,-2.254099194203512
1708443047.0251234,-2.033046007156372,-1.3538443011096497,-2.560770813618795,5.994076001435079,1.058562994003296,-2.254594628010885
1708443047.027137,-2.0314652919769287,-1.3542910826257248,-2.561317030583517,5.992579448014059,1.0592122077941895,-2.255118195210592
1708443047.0291152,-2.029844284057617,-1.3547587853721161,-2.5618730227099817,5.991030680924215,1.0598485469818115,-2.255627457295553
1708443047.031146,-2.028278112411499,-1.355205477481224,-2.5624282995807093,5.989542591362753,1.0604816675186157,-2.256188694630758
1708443047.0331528,-2.026691198348999,-1.355643020277359,-2.5629563967334192,5.988040792732992,1.061184287071228,-2.2566965262042444
1708443047.035193,-2.025081157684326,-1.3560891461423417,-2.563537661229269,5.986473309784689,1.061795949935913,-2.2572625319110315
1708443047.037184,-2.0234479904174805,-1.3566488337567826,-2.5641019980060022,5.984950530319967,1.062490463256836,-2.257853333150045
1708443047.0391428,-2.02184796333313,-1.3571466219476243,-2.5646734873401087,5.983371841698446,1.063262701034546,-2.258378807698385
1708443047.0411136,-2.0202224254608154,-1.357636885052063,-2.5652158896075647,5.981846320420065,1.0639232397079468,-2.25895864168276
1708443047.0431747,-2.01859712600708,-1.3581103396466752,-2.565730396901266,5.980294811516561,1.0646064281463623,-2.259566132222311
1708443047.045139,-2.0169928073883057,-1.3586056691459198,-2.566364351903097,5.978876578598776,1.0653609037399292,-2.260167423878805
1708443047.047145,-2.0153822898864746,-1.3591192078641434,-2.5669198671924036,5.977352726250448,1.066034197807312,-2.2607906500445765
1708443047.0491138,-2.0137877464294434,-1.3595846456340333,-2.5675371328936976,5.975935447006979,1.0667684078216553,-2.2613771597491663
1708443047.0511024,-2.0121383666992188,-1.36013616741214,-2.568042818699972,5.974442112236776,1.0674494504928589,-2.2619898954974573
1708443047.0531135,-2.0104832649230957,-1.3606704634479065,-2.568620506917135,5.972961175232687,1.0680882930755615,-2.2626307646380823
1708443047.0551045,-2.0088515281677246,-1.3611591172269364,-2.569216791783468,5.9714722512061975,1.068780541419983,-2.263264004384176
1708443047.0571163,-2.0071749687194824,-1.3617590528777619,-2.5697792212115687,5.970063435822286,1.0695445537567139,-2.2639487425433558
1708443047.0591164,-2.0055487155914307,-1.3622766894153138,-2.570362393056051,5.968651878624716,1.0701900720596313,-2.264613453541891
1708443047.0611508,-2.0039427280426025,-1.3628342312625428,-2.570951525365011,5.967329489975729,1.0708776712417603,-2.265254799519674
1708443047.0631175,-2.0023417472839355,-1.3633244198611756,-2.571503464375631,5.965845215111532,1.0715667009353638,-2.2658613363849085
1708443047.0651422,-2.0006256103515625,-1.3638547670892258,-2.5720582644092005,5.964406716614523,1.072239875793457,-2.2665589491473597
1708443047.0671291,-1.9990708827972412,-1.3643942338279267,-2.5725818316089075,5.9630401013191126,1.072900652885437,-2.2672603766070765
1708443047.0691195,-1.9974831342697144,-1.3649677795222779,-2.573144261037008,5.961689817696371,1.0736396312713623,-2.2678845564471644
1708443047.0711849,-1.9958524703979492,-1.3654899311116715,-2.5737126509295862,5.960370528488912,1.0743314027786255,-2.2686155478106897
1708443047.0731163,-1.9941953420639038,-1.3659909677556534,-2.5742855707751673,5.958972918778219,1.0749809741973877,-2.269273106251852
1708443047.0751095,-1.9926190376281738,-1.3665826779655,-2.5748706499682825,5.957605111389913,1.0757062435150146,-2.2699578444110315
1708443047.0771153,-1.9909870624542236,-1.3671076160720368,-2.5753729979144495,5.956169831543722,1.0763912200927734,-2.270686928425924
1708443047.0791047,-1.9892312288284302,-1.3677269679358979,-2.5759742895709437,5.9547098753745935,1.0770889520645142,-2.271360222493307
1708443047.0811403,-1.9876577854156494,-1.3682813209346314,-2.57652455965151,5.9534209845359705,1.0777941942214966,-2.2720564047442835
1708443047.0831134,-1.985988974571228,-1.3688143652728577,-2.577047888432638,5.95214461067275,1.078482747077942,-2.2727420965777796
1708443047.0851102,-1.9844111204147339,-1.3693684351495286,-2.5776568094836634,5.950795519142904,1.0791252851486206,-2.273562733327047
1708443047.0871136,-1.9828602075576782,-1.3699378681233902,-2.5782085100757044,5.949537741928854,1.0797523260116577,-2.2742331663714808
1708443047.0891142,-1.9812660217285156,-1.3705000591329117,-2.5788100401507776,5.948192345886984,1.0804387331008911,-2.2749503294574183
1708443047.0911283,-1.9796020984649658,-1.3710909199765702,-2.579411331807272,5.946922528534689,1.0810344219207764,-2.2757046858416956
1708443047.0931177,-1.9780043363571167,-1.3717134457877656,-2.579970423375265,5.945551502495565,1.0817118883132935,-2.2764156500445765
1708443047.0951402,-1.9763832092285156,-1.372278244500496,-2.5805581251727503,5.944296467095175,1.0823767185211182,-2.2771857420550745
1708443047.097109,-1.9747755527496338,-1.37293295681987,-2.581092182789938,5.942996489792623,1.0830447673797607,-2.2778552214251917
1708443047.0991316,-1.9731959104537964,-1.3734742415002366,-2.581639591847555,5.941769826203146,1.0836530923843384,-2.27865440050234
1708443047.10113,-1.971596121788025,-1.3741245430758973,-2.582203213368551,5.940478789597311,1.0842565298080444,-2.2793529669391077
1708443047.1031156,-1.9700514078140259,-1.374686674480774,-2.5828033129321497,5.939211475640096,1.0848404169082642,-2.280094925557272
1708443047.1051445,-1.9684736728668213,-1.375278354888298,-2.5833545366870325,5.93805621841506,1.0855114459991455,-2.2808521429644983
1708443047.1071281,-1.9668676853179932,-1.3759825688651581,-2.5839510599719446,5.936833131104269,1.0861643552780151,-2.2815149466144007
1708443047.1091495,-1.9652493000030518,-1.3765884649804612,-2.584475580845968,5.935590135842123,1.0867716073989868,-2.2822468916522425
1708443047.1111472,-1.9636385440826416,-1.3772636216929932,-2.585059467946188,5.934289562493124,1.08747398853302,-2.2830222288714808
1708443047.1131232,-1.961982011795044,-1.377922685151436,-2.585585657750265,5.933139073639669,1.0880941152572632,-2.2838147322284144
1708443047.1151235,-1.9604068994522095,-1.3785683524659653,-2.5862072149859827,5.931845772057333,1.088698148727417,-2.284518543873922
1708443047.1171138,-1.9587584733963013,-1.3792032611421128,-2.5867179075824183,5.930658685951986,1.0893553495407104,-2.2852466742144983
1708443047.119113,-1.9572235345840454,-1.3798706245473404,-2.587236467991964,5.929384100228109,1.089942216873169,-2.28596002260317
1708443047.121132,-1.9555988311767578,-1.3805426967195054,-2.5878120104419153,5.928167211800375,1.0906330347061157,-2.2866888681994837
1708443047.123113,-1.9540411233901978,-1.3811891090920945,-2.5883644262896937,5.926987159043112,1.0912542343139648,-2.2873850504504603
1708443047.125128,-1.9524457454681396,-1.381802813415863,-2.588849131261007,5.925734150200643,1.0917952060699463,-2.288060728703634
1708443047.127114,-1.9508070945739746,-1.3824867618134995,-2.5893645922290247,5.924488293915548,1.0924279689788818,-2.2888014952289026
1708443047.129106,-1.9492108821868896,-1.383202390079834,-2.5899069944964808,5.923256981163778,1.0930989980697632,-2.2895634810077112
1708443047.1311557,-1.9475622177124023,-1.3838603508523484,-2.59046441713442,5.922108757286825,1.0937162637710571,-2.2903011480914515
1708443047.1331606,-1.9459447860717773,-1.384615646009781,-2.591043774281637,5.920878994255819,1.0943394899368286,-2.291004006062643
1708443047.1352386,-1.944362998008728,-1.3852941703847428,-2.5915425459491175,5.91978000381545,1.0949569940567017,-2.291753355656759
1708443047.137157,-1.9428131580352783,-1.3859683585217972,-2.592053238545553,5.91860460022048,1.0954850912094116,-2.292471710835592
1708443047.1391144,-1.9411486387252808,-1.386704222565033,-2.5925279299365442,5.917462932854452,1.0959919691085815,-2.2932468096362513
