Eg3-git/Classifiers/Data Collection/u8/u8star2_ur3e_joint_states.csv
time,elbow_joint,shoulder_lift_joint,shoulder_pan_joint,wrist_1_joint,wrist_2_joint,wrist_3_joint
1708442985.1840982,-2.1420254707336426,-1.3335233491710206,-2.5264559427844446,6.110871183663168,1.0170577764511108,-2.834851090108053
1708442985.186128,-2.142045736312866,-1.3335770678571244,-2.5264435450183313,6.110896217613973,1.0170459747314453,-2.834829632435934
1708442985.1881146,-2.142054796218872,-1.3335519146970292,-2.5263944307910364,6.110831248551168,1.0170459747314453,-2.8349323908435267
1708442985.1901023,-2.1420094966888428,-1.333526374106743,-2.5264557043658655,6.110913622170248,1.0170204639434814,-2.834863011037008
1708442985.1921008,-2.142024517059326,-1.3335070323995133,-2.5264185110675257,6.110900628357687,1.0170459747314453,-2.8348761240588587
1708442985.194099,-2.142029047012329,-1.3335320216468354,-2.5264020601855677,6.110929238587179,1.0170743465423584,-2.8348715941058558
1708442985.1960974,-2.142042398452759,-1.3334743839553376,-2.526447121297018,6.110925543099203,1.0170204639434814,-2.8348642031299036
1708442985.1981103,-2.142037868499756,-1.3335189384273072,-2.5264349619494837,6.110937821656027,1.0170085430145264,-2.8348715941058558
1708442985.200096,-2.142042398452759,-1.3334821176579972,-2.5264063517199915,6.110884296685018,1.0170700550079346,-2.8348429838763636
1708442985.202123,-2.142054796218872,-1.3335607808879395,-2.5264883677112024,6.110843169480123,1.0170621871948242,-2.834874931965963
1708442985.2040982,-2.142054796218872,-1.3335189086249848,-2.5264020601855677,6.110918032913961,1.0170711278915405,-2.834858481084005
1708442985.2061067,-2.142011880874634,-1.3334953647902985,-2.5264151732074183,6.110921251564779,1.0170336961746216,-2.834895435963766
1708442985.2081027,-2.142045736312866,-1.3335233491710206,-2.5264557043658655,6.110884415894308,1.0170743465423584,-2.834863011037008
1708442985.210093,-2.142075300216675,-1.3335189533284684,-2.5264063517199915,6.110921251564779,1.0170414447784424,-2.8348587195025843
1708442985.2121153,-2.1420164108276367,-1.333493710761406,-2.5264721552478235,6.110850918083944,1.0170665979385376,-2.8348761240588587
1708442985.214101,-2.142011880874634,-1.3335189086249848,-2.5264764467822474,6.110900628357687,1.0170577764511108,-2.8348715941058558
1708442985.2161,-2.1420164108276367,-1.3335157048753281,-2.5264557043658655,6.1109081385429285,1.0170533657073975,-2.8348997274981897
1708442985.2181,-2.142033338546753,-1.3335144382766266,-2.5264063517199915,6.110866772919454,1.0170700550079346,-2.834899965916769
1708442985.220123,-2.142045736312866,-1.333556280737259,-2.526397768651144,6.110945451050558,1.0170700550079346,-2.8348878065692347
1708442985.2221293,-2.142050266265869,-1.33354406178508,-2.5264645258532923,6.110929953842916,1.0170655250549316,-2.8348706404315394
1708442985.2241168,-2.14200496673584,-1.3335233640721817,-2.5264514128314417,6.110851752548971,1.0170488357543945,-2.8348704020129603
1708442985.22611,-2.142042398452759,-1.3335264188102265,-2.5264273325549524,6.110933530121603,1.0170700550079346,-2.834891144429342
1708442985.2281196,-2.142033338546753,-1.3335189533284684,-2.5264557043658655,6.110924708634176,1.0170533657073975,-2.834899965916769
1708442985.2300973,-2.142054796218872,-1.3335233491710206,-2.5264602343188685,6.110920297890463,1.0170488357543945,-2.834855381642477
1708442985.2320988,-2.1420164108276367,-1.3334909987500687,-2.5264392534839075,6.110900628357687,1.0170906782150269,-2.834895435963766
1708442985.2341158,-2.1420705318450928,-1.3335233193686982,-2.5264721552478235,6.110909211426534,1.0170774459838867,-2.8348498980151575
1708442985.236105,-2.14200496673584,-1.333486647611,-2.5264645258532923,6.110866892128744,1.0170414447784424,-2.834874931965963
1708442985.2381032,-2.1420164108276367,-1.3335277152112504,-2.5264185110675257,6.110883104592123,1.0170577764511108,-2.8348706404315394
1708442985.2400918,-2.142037868499756,-1.3335307848504563,-2.5264151732074183,6.110912549286642,1.0170280933380127,-2.834895435963766
1708442985.242095,-2.142050266265869,-1.3335189682296296,-2.5264347235309046,6.110940921097555,1.0170862674713135,-2.834879223500387
1708442985.2440965,-2.142063856124878,-1.3335233342698594,-2.5265212694751185,6.110949742584982,1.0170401334762573,-2.8348825613604944
1708442985.246093,-2.142037868499756,-1.3335114133409043,-2.5264185110675257,6.110949742584982,1.0170952081680298,-2.8349443117724817
1708442985.2480993,-2.1419835090637207,-1.3335651022246857,-2.526405398045675,6.110924708634176,1.0170655250549316,-2.834919277821676
1708442985.2501404,-2.1420819759368896,-1.3335114431432267,-2.5264392534839075,6.110869872360983,1.0170981884002686,-2.834891144429342
1708442985.2520998,-2.142063856124878,-1.333589033489563,-2.5264349619494837,6.110935437470236,1.0170533657073975,-2.8348987738238733
1708442985.2541044,-2.142050266265869,-1.3335396659425278,-2.526458803807394,6.110920297890463,1.0170700550079346,-2.834895674382345
1708442985.2561362,-2.142054796218872,-1.3335070473006745,-2.5265002886401575,6.110936629563131,1.017035722732544,-2.8349061647998255
1708442985.2581027,-2.1420209407806396,-1.3335100573352356,-2.5264676252948206,6.110948550492086,1.0170937776565552,-2.8349555174456995
1708442985.260113,-2.142000436782837,-1.333514468078949,-2.526487175618307,6.110952007561483,1.0170893669128418,-2.8349018732654017
1708442985.2621431,-2.1420819759368896,-1.333517463212349,-2.526520077382223,6.110959517746725,1.0170567035675049,-2.834930721913473
1708442985.2640984,-2.142029047012329,-1.3336012971452256,-2.52651554742922,6.11102460601882,1.017146348953247,-2.8349223772632044
1708442985.2661233,-2.1420342922210693,-1.3335593950799485,-2.5265145937549036,6.111020314484396,1.0171092748641968,-2.8349793593036097
1708442985.2681246,-2.142045736312866,-1.3335637760213395,-2.526576821004049,6.1110397455985925,1.0171256065368652,-2.834935013447897
1708442985.2701201,-2.142024517059326,-1.33356827617202,-2.5265265146838587,6.111047613411703,1.017118215560913,-2.8349631468402308
1708442985.272118,-2.142050266265869,-1.3335100573352356,-2.5265472571002405,6.111041056900778,1.0171012878417969,-2.8349674383746546
1708442985.274129,-2.1420164108276367,-1.3335352700999756,-2.5265875498401087,6.111065017967977,1.0170849561691284,-2.8350001017199915
1708442985.2761297,-2.142063856124878,-1.3335233491710206,-2.5265679995166224,6.111035334854879,1.0171226263046265,-2.8349836508380335
1708442985.278112,-2.1420164108276367,-1.3335277301124115,-2.5265384356128138,6.1110191223915,1.0170774459838867,-2.8349836508380335
1708442985.28013,-2.142000436782837,-1.3335440915874024,-2.526554886494772,6.11106954792098,1.0170774459838867,-2.834970776234762
1708442985.2821953,-2.142059326171875,-1.3335453879884263,-2.526546065007345,6.111081349640646,1.01706862449646,-2.8350043932544153
1708442985.2841346,-2.142050266265869,-1.333536536698677,-2.5265591780291956,6.111027943878927,1.0171144008636475,-2.834958855305807
1708442985.2861423,-2.1420164108276367,-1.3335396659425278,-2.5265591780291956,6.1111007807548425,1.01706862449646,-2.834986988698141
1708442985.2881172,-2.142011880874634,-1.3335114282420655,-2.5265710989581507,6.111035334854879,1.0171012878417969,-2.8350120226489466
1708442985.2900984,-2.1419880390167236,-1.3335441064885636,-2.5265665690051478,6.1110278246696375,1.0170730352401733,-2.8349793593036097
1708442985.2925403,-2.142045736312866,-1.3335233193686982,-2.5266249815570276,6.1110607264335535,1.017052412033081,-2.834958855305807
1708442985.2940993,-2.1420254707336426,-1.3335320961526413,-2.526562277470724,6.111085760384359,1.0170893669128418,-2.8349674383746546
1708442985.296128,-2.1420209407806396,-1.3335189384273072,-2.526566807423727,6.111031043320455,1.0170804262161255,-2.834938112889425
1708442985.2980862,-2.142066240310669,-1.3335352700999756,-2.5265753904925745,6.111113893776693,1.0171012878417969,-2.834946934376852
1708442985.3000867,-2.1420164108276367,-1.3335607212832947,-2.5265799204455774,6.1110607264335535,1.0171092748641968,-2.834942642842428
1708442985.3021114,-2.142007350921631,-1.3335233193686982,-2.5265753904925745,6.111010420113363,1.0171345472335815,-2.834986988698141
1708442985.3041,-2.1420209407806396,-1.3335650277188797,-2.5265353361712855,6.111047613411703,1.0171419382095337,-2.8350074926959437
1708442985.30609,-2.142045736312866,-1.3335519146970292,-2.5265384356128138,6.111038791924276,1.0171136856079102,-2.8349912802325647
1708442985.3080823,-2.1420819759368896,-1.3335233491710206,-2.526583258305685,6.111077058106222,1.0171494483947754,-2.8349512259112757
1708442985.3101,-2.142033338546753,-1.333465502863266,-2.5265384356128138,6.111139166146078,1.0171419382095337,-2.834958855305807
1708442985.312109,-2.142011880874634,-1.333514468078949,-2.5265384356128138,6.111093270569601,1.0171582698822021,-2.8349619547473353
1708442985.3140986,-2.142029047012329,-1.333556355243065,-2.5265591780291956,6.111022221833029,1.0171048641204834,-2.8349955717669886
1708442985.3161144,-2.142050266265869,-1.3334981215051194,-2.5265634695636194,6.1110713360603235,1.017133116722107,-2.834942642842428
1708442985.3180978,-2.1420912742614746,-1.3335563254407425,-2.526554886494772,6.111093270569601,1.0171012878417969,-2.834970776234762
1708442985.3200836,-2.142066240310669,-1.3335189533284684,-2.5265753904925745,6.111084449082174,1.0171314477920532,-2.834954563771383
1708442985.3220918,-2.142011880874634,-1.333465502863266,-2.5265710989581507,6.111035334854879,1.017118215560913,-2.8349631468402308
1708442985.3240826,-2.142007350921631,-1.3335396659425278,-2.526562277470724,6.111044156342306,1.017118215560913,-2.8349793593036097
1708442985.3261008,-2.1420323848724365,-1.3335157197764893,-2.5265756289111536,6.111093270569601,1.017118215560913,-2.8349784056292933
1708442985.3281136,-2.142061710357666,-1.3335070323995133,-2.5266085306750696,6.1110278246696375,1.017076015472412,-2.834986988698141
1708442985.3300848,-2.1420705318450928,-1.333577038054802,-2.526501480733053,6.111093270569601,1.017118215560913,-2.834970776234762
1708442985.3321145,-2.142077684402466,-1.3335352700999756,-2.526562277470724,6.11105631568984,1.017096757888794,-2.8349784056292933
1708442985.334095,-2.142033338546753,-1.3335320216468354,-2.5266085306750696,6.1110888598258875,1.017162561416626,-2.835015122090475
1708442985.3360858,-2.142094373703003,-1.3335277450135727,-2.5265920797931116,6.11108015754775,1.0170879364013672,-2.8349955717669886
1708442985.338089,-2.142057180404663,-1.3335607063821335,-2.5265753904925745,6.111105191498556,1.0171092748641968,-2.83500320116152
1708442985.3400998,-2.142029047012329,-1.3334936809590836,-2.526572291051046,6.11108015754775,1.017118215560913,-2.8350206057177942
1708442985.342102,-2.142045736312866,-1.3335157346776505,-2.5265634695636194,6.11108015754775,1.0171092748641968,-2.834975067769186
1708442985.344114,-2.1420414447784424,-1.3335563701442261,-2.5265191237079065,6.111043321877279,1.0171048641204834,-2.8349793593036097
1708442985.346092,-2.142042398452759,-1.3335307848504563,-2.5265429655658167,6.111043321877279,1.0171345472335815,-2.8349955717669886
1708442985.3480933,-2.142011880874634,-1.3335277003100892,-2.5265634695636194,6.111035334854879,1.0171256065368652,-2.8350194136248987
1708442985.3500917,-2.1421070098876953,-1.3335189533284684,-2.526566807423727,6.111052024155416,1.0171300172805786,-2.834970776234762
1708442985.3521113,-2.142073154449463,-1.3336057525924225,-2.5265472571002405,6.111067163735189,1.0171136856079102,-2.834970776234762
1708442985.3541028,-2.142061710357666,-1.3335189682296296,-2.526506010686056,6.1110713360603235,1.0171419382095337,-2.8349619547473353
1708442985.356093,-2.1420199871063232,-1.33354406178508,-2.5265429655658167,6.1111007807548425,1.0170716047286987,-2.834970776234762
1708442985.3581116,-2.142090082168579,-1.333581344490387,-2.5265353361712855,6.111108648567953,1.0171256065368652,-2.834970776234762
1708442985.3600998,-2.141995906829834,-1.3335070323995133,-2.5265756289111536,6.1111332056816,1.0171167850494385,-2.8349717299090784
1708442985.362111,-2.1420414447784424,-1.333538607960083,-2.5265591780291956,6.11108015754775,1.0171056985855103,-2.834994618092672
1708442985.3640893,-2.142077684402466,-1.3335189533284684,-2.5265710989581507,6.111084449082174,1.0171136856079102,-2.834994618092672
1708442985.3660986,-2.142024517059326,-1.333490939145424,-2.5265591780291956,6.111105072289266,1.0171101093292236,-2.834970776234762
1708442985.368111,-2.142007350921631,-1.3335188937238236,-2.5265429655658167,6.111092078476705,1.0171300172805786,-2.8349784056292933
1708442985.3700857,-2.142057180404663,-1.3335440468839188,-2.5265591780291956,6.111013638764181,1.0171005725860596,-2.834986988698141
1708442985.3721182,-2.142033338546753,-1.3335474294475098,-2.526522223149435,6.111068236618795,1.0171092748641968,-2.8349576632129114
1708442985.3741117,-2.142077684402466,-1.3335396659425278,-2.5265591780291956,6.11108015754775,1.0170923471450806,-2.834975067769186
1708442985.376112,-2.142118215560913,-1.3335233342698594,-2.5265353361712855,6.111047613411703,1.0171226263046265,-2.8350117842303675
1708442985.3781335,-2.1421024799346924,-1.3335650277188797,-2.5266009012805384,6.111077058106222,1.017133116722107,-2.8349619547473353
1708442985.3801062,-2.142024517059326,-1.3335770976594468,-2.5265472571002405,6.11108015754775,1.0171048641204834,-2.834982697163717
1708442985.3821888,-2.1420528888702393,-1.333510012631752,-2.5265753904925745,6.111092078476705,1.017112374305725,-2.8349912802325647
1708442985.3841276,-2.142085552215576,-1.3335277450135727,-2.5265353361712855,6.1110713360603235,1.0171256065368652,-2.834975067769186
1708442985.386125,-2.1420528888702393,-1.3335144382766266,-2.5265234152423304,6.111059534340658,1.0171005725860596,-2.834994618092672
1708442985.3881106,-2.142085552215576,-1.3335519146970292,-2.5265517870532435,6.111072528153219,1.017146348953247,-2.8350194136248987
1708442985.3900986,-2.1420414447784424,-1.333473266368248,-2.526554886494772,6.111149656563558,1.0171136856079102,-2.8350239435779017
1708442985.3921223,-2.142122745513916,-1.333505631690361,-2.5265634695636194,6.111113059311666,1.0170879364013672,-2.834975067769186
1708442985.3941603,-2.142090082168579,-1.333483101134636,-2.5265679995166224,6.111108648567953,1.0171136856079102,-2.8349326292621058
1708442985.3961322,-2.142106771469116,-1.3335769933513184,-2.5265679995166224,6.111038911133566,1.017146348953247,-2.834966484700338
1708442985.3981147,-2.1420483589172363,-1.3335769933513184,-2.526522223149435,6.111170160561361,1.017118215560913,-2.834942642842428
1708442985.4001036,-2.1420528888702393,-1.333563746219017,-2.5265353361712855,6.111108648567953,1.017138957977295,-2.8350074926959437
1708442985.4020975,-2.14206862449646,-1.3335233491710206,-2.526505772267477,6.111108648567953,1.0171211957931519,-2.8350194136248987
1708442985.404101,-2.142106771469116,-1.3335144829801102,-2.5265353361712855,6.1111159203346155,1.0170716047286987,-2.8350194136248987
1708442985.406128,-2.1420414447784424,-1.333502636556961,-2.5265472571002405,6.111177074700155,1.0171136856079102,-2.8349414507495325
1708442985.4081142,-2.1421024799346924,-1.3335396957448502,-2.5265472571002405,6.111140954285421,1.0171136856079102,-2.8350356260882776
1708442985.4101145,-2.142090082168579,-1.3335189533284684,-2.5265560785876673,6.111083376198568,1.0171092748641968,-2.8350117842303675
1708442985.4121175,-2.1421093940734863,-1.33354406178508,-2.52651030222048,6.11111460903243,1.017162561416626,-2.8350065390216272
1708442985.4140897,-2.1420483589172363,-1.3335189533284684,-2.5265353361712855,6.111172663956442,1.017179250717163,-2.834998909627096
1708442985.4161263,-2.142059803009033,-1.3335189384273072,-2.52651030222048,6.111177074700155,1.0171092748641968,-2.8349576632129114
1708442985.4181092,-2.1420934200286865,-1.3335144382766266,-2.5265560785876673,6.111130940705099,1.0171418190002441,-2.8350356260882776
1708442985.4201167,-2.1420934200286865,-1.333514468078949,-2.5265634695636194,6.111204254418173,1.0171582698822021,-2.8349738756762903
1708442985.4221227,-2.1421566009521484,-1.3335352700999756,-2.5265234152423304,6.111281263619222,1.0171092748641968,-2.8349784056292933
1708442985.4241052,-2.142106771469116,-1.3335637611201783,-2.5265842119800013,6.111288893013754,1.0171300172805786,-2.8349576632129114
1708442985.4261518,-2.1421477794647217,-1.3335100275329133,-2.5265842119800013,6.11121021488265,1.0171136856079102,-2.8350351492511194
1708442985.428119,-2.1421093940734863,-1.3335189533284684,-2.5265265146838587,6.111231314926901,1.0170716047286987,-2.8349815050708216
1708442985.4301164,-2.1421353816986084,-1.3335308146527787,-2.5265429655658167,6.111186849861898,1.0171092748641968,-2.8349912802325647
1708442985.4321103,-2.1421353816986084,-1.3335189533284684,-2.5265634695636194,6.111243116646566,1.0171136856079102,-2.834982697163717
1708442985.4341063,-2.142122745513916,-1.3335233491710206,-2.5265472571002405,6.111222612648763,1.0171167850494385,-2.8349619547473353
1708442985.4360967,-2.1421048641204834,-1.333581344490387,-2.5265234152423304,6.111280071526327,1.0171226263046265,-2.8349621931659144
1708442985.4381268,-2.1421263217926025,-1.3336056631854554,-2.526544157658712,6.11124204376296,1.0171226263046265,-2.834998909627096
1708442985.4401062,-2.1420888900756836,-1.3335519295981904,-2.526522223149435,6.111258256226339,1.017104983329773,-2.834966484700338
1708442985.4421268,-2.1421477794647217,-1.333514468078949,-2.5265560785876673,6.111259448319235,1.0171012878417969,-2.83502704301943
1708442985.444098,-2.1421432495117188,-1.3335352700999756,-2.5265265146838587,6.111226904183187,1.0171345472335815,-2.8350396792041224
1708442985.4461036,-2.1420934200286865,-1.33354406178508,-2.5265472571002405,6.111288893013754,1.0171136856079102,-2.835015122090475
1708442985.4481041,-2.1421353816986084,-1.333486558204033,-2.52651030222048,6.111251818924703,1.0171136856079102,-2.8350194136248987
1708442985.4501214,-2.1421477794647217,-1.3334892851165314,-2.5265353361712855,6.111324894219198,1.0171136856079102,-2.8350065390216272
1708442985.452131,-2.1421432495117188,-1.3335233193686982,-2.5265429655658167,6.111268150597372,1.0171226263046265,-2.835022751485006
1708442985.4541054,-2.1421048641204834,-1.3335263592055817,-2.5265591780291956,6.111312973290243,1.017096757888794,-2.8349977175342005
1708442985.456103,-2.1420934200286865,-1.3335637611201783,-2.526544157658712,6.111288893013754,1.0170923471450806,-2.834998909627096
1708442985.4581468,-2.1421544551849365,-1.3334699881127854,-2.5265310446368616,6.111283528595724,1.0171048641204834,-2.835010830556051
1708442985.4601011,-2.1421353816986084,-1.3335519444993515,-2.526493851338522,6.111255156784811,1.0171375274658203,-2.835015122090475
1708442985.4621248,-2.1421172618865967,-1.3335440915874024,-2.52657658258547,6.111231314926901,1.0170717239379883,-2.835010830556051
1708442985.4641318,-2.1421093940734863,-1.33349101365123,-2.5265560785876673,6.111241924553671,1.0170937776565552,-2.834994618092672
1708442985.4661171,-2.1421566009521484,-1.3335233491710206,-2.52657658258547,6.111222612648763,1.0171300172805786,-2.835052792225973
1708442985.468128,-2.1421353816986084,-1.3335264039090653,-2.526532236729757,6.111250626831808,1.0171092748641968,-2.835015122090475
1708442985.4701383,-2.142138719558716,-1.333514468078949,-2.5264816919909876,6.111296760826864,1.017076015472412,-2.8349784056292933
1708442985.4721134,-2.1421751976013184,-1.333493710761406,-2.5265591780291956,6.1113085625465295,1.0171012878417969,-2.8350351492511194
1708442985.4740958,-2.1420798301696777,-1.3335263592055817,-2.5265310446368616,6.111255156784811,1.0171419382095337,-2.8350356260882776
1708442985.4761322,-2.142138719558716,-1.3335682612708588,-2.526560370122091,6.1112966416175745,1.0170804262161255,-2.8350589911090296
1708442985.47817,-2.14212965965271,-1.333538607960083,-2.5265353361712855,6.111255156784811,1.0170804262161255,-2.8350513617144983
1708442985.4801002,-2.1421592235565186,-1.3335174930146714,-2.52651030222048,6.111296760826864,1.0171226263046265,-2.8350427786456507
1708442985.4821925,-2.1421263217926025,-1.3335474294475098,-2.5265191237079065,6.11127136924819,1.017064094543457,-2.835046116505758
1708442985.4841774,-2.14210844039917,-1.3335263592055817,-2.526560370122091,6.111255156784811,1.017146348953247,-2.8351321856128138
1708442985.4861157,-2.1421172618865967,-1.333526389007904,-2.5265472571002405,6.111284363060751,1.0170717239379883,-2.8351033369647425
1708442985.488099,-2.1421172618865967,-1.33357127130542,-2.5265396277057093,6.1112475273902795,1.0171256065368652,-2.8351309935199183
1708442985.4901366,-2.1421263217926025,-1.3335352700999756,-2.5264819304095667,6.111283528595724,1.017118215560913,-2.8350816408740442
1708442985.492126,-2.1421172618865967,-1.3335519146970292,-2.526482884083883,6.1112356064613245,1.0171136856079102,-2.8351646105395716
1708442985.4941578,-2.1421501636505127,-1.33361308396373,-2.5265353361712855,6.111266958504476,1.0171012878417969,-2.8350871245013636
1708442985.4961162,-2.142125368118286,-1.333526374106743,-2.5264950434314173,6.111258256226339,1.0171211957931519,-2.8351109663592737
1708442985.4980998,-2.142195224761963,-1.3335682612708588,-2.5265191237079065,6.111296760826864,1.0170761346817017,-2.8351147810565394
1708442985.5001223,-2.142134189605713,-1.333530769949295,-2.526520077382223,6.111255156784811,1.0171136856079102,-2.835097853337423
1708442985.5021253,-2.142125368118286,-1.333539680843689,-2.526572291051046,6.111230003624716,1.0171136856079102,-2.8351104895221155
1708442985.504112,-2.142086982727051,-1.333534137611725,-2.5265024344073694,6.111255156784811,1.017104983329773,-2.835097853337423
1708442985.5061138,-2.142141103744507,-1.333496705894806,-2.5265353361712855,6.111304271012106,1.0171012878417969,-2.8351109663592737
1708442985.5081494,-2.14212965965271,-1.3335726720145722,-2.5264819304095667,6.11127136924819,1.0171136856079102,-2.835090462361471
1708442985.510123,-2.142195224761963,-1.3334937405637284,-2.526544157658712,6.111230003624716,1.0170937776565552,-2.83512789407839
1708442985.5121257,-2.1421172618865967,-1.3335352700999756,-2.5265234152423304,6.111255156784811,1.017118215560913,-2.835119072590963
1708442985.514114,-2.1421828269958496,-1.3334980768016358,-2.5265591780291956,6.111255156784811,1.0170937776565552,-2.835139815007345
1708442985.5161164,-2.1421501636505127,-1.3335307848504563,-2.526544157658712,6.111259448319235,1.0171226263046265,-2.8351152578936976
1708442985.5181363,-2.1421172618865967,-1.3335607510856171,-2.5265145937549036,6.111259448319235,1.017134428024292,-2.835139815007345
1708442985.5201006,-2.142125129699707,-1.3335474294475098,-2.5264981428729456,6.111266958504476,1.017109990119934,-2.835078541432516
1708442985.5221257,-2.1421570777893066,-1.3335233491710206,-2.5265515486346644,6.111336815148153,1.0170774459838867,-2.835135285054342
1708442985.5241227,-2.14210844039917,-1.3335474294475098,-2.5265515486346644,6.111250626831808,1.017118215560913,-2.835135285054342
1708442985.5261285,-2.14210844039917,-1.3335474294475098,-2.5264819304095667,6.111280071526327,1.0171345472335815,-2.835097853337423
1708442985.5281434,-2.14212965965271,-1.3335233491710206,-2.526544157658712,6.111266958504476,1.0171345472335815,-2.83512789407839
1708442985.5301073,-2.1421456336975098,-1.3335114282420655,-2.5265234152423304,6.1112475273902795,1.0170717239379883,-2.835094753895895
1708442985.5321476,-2.1421658992767334,-1.333534137611725,-2.5265024344073694,6.111231195717611,1.0170804262161255,-2.835102144871847
1708442985.534143,-2.14216947555542,-1.333559350376465,-2.5264905134784144,6.1112180826957605,1.0170804262161255,-2.8351147810565394
1708442985.5360982,-2.142141103744507,-1.333592341547348,-2.52651554742922,6.111272561341085,1.0171092748641968,-2.8350816408740442
1708442985.5381162,-2.142164945602417,-1.3335667711547394,-2.5265279451953333,6.111230003624716,1.0171012878417969,-2.8350608984576624
1708442985.5401247,-2.1421782970428467,-1.333538607960083,-2.52651554742922,6.11127136924819,1.0170893669128418,-2.835102144871847
1708442985.5421183,-2.1422154903411865,-1.333538607960083,-2.5265024344073694,6.1112756607826135,1.0171012878417969,-2.835094753895895
1708442985.5441222,-2.1421570777893066,-1.3336012077382584,-2.5264905134784144,6.111234414368429,1.0170804262161255,-2.8351321856128138
1708442985.5461295,-2.142181873321533,-1.3335011166385193,-2.5264905134784144,6.111243235855856,1.0171056985855103,-2.8350535074817103
1708442985.5481062,-2.14216947555542,-1.3335800629905243,-2.52651554742922,6.111268150597372,1.0171012878417969,-2.8350828329669397
1708442985.5501015,-2.142174005508423,-1.333539680843689,-2.5265069643603724,6.111231314926901,1.017096757888794,-2.835094753895895
1708442985.5520973,-2.142174005508423,-1.3335682612708588,-2.5264950434314173,6.11127136924819,1.0171092748641968,-2.8350828329669397
1708442985.5540829,-2.142141103744507,-1.3335233491710206,-2.526511255894796,6.111225712090292,1.0171056985855103,-2.8351076284991663
1708442985.5560794,-2.142120838165283,-1.3335430187037964,-2.526560370122091,6.1112637398536584,1.0171012878417969,-2.8350709120379847
1708442985.5580919,-2.1421456336975098,-1.3335430187037964,-2.526544157658712,6.111263859062948,1.0171256065368652,-2.8350828329669397
1708442985.5600913,-2.1421525478363037,-1.3335726720145722,-2.526499334965841,6.111292350083151,1.0171012878417969,-2.8350589911090296
1708442985.5620925,-2.14214825630188,-1.3335519295981904,-2.5264950434314173,6.111231314926901,1.0171345472335815,-2.835026566182272
1708442985.5640864,-2.1421456336975098,-1.3335263592055817,-2.52651554742922,6.111301052361288,1.0170804262161255,-2.8350351492511194
1708442985.5660944,-2.1421456336975098,-1.3335307848504563,-2.5265234152423304,6.1112756607826135,1.017138957977295,-2.834998909627096
1708442985.5680935,-2.1421616077423096,-1.3335430336049576,-2.5264905134784144,6.111205923348226,1.017118215560913,-2.8349576632129114
1708442985.5700853,-2.1421782970428467,-1.3335460287383576,-2.5264774004565638,6.111226904183187,1.0171345472335815,-2.834942642842428
1708442985.5720916,-2.142174005508423,-1.3335352700999756,-2.526544157658712,6.111243235855856,1.017096757888794,-2.834956709538595
1708442985.5740921,-2.142143726348877,-1.3335474294475098,-2.526548449193136,6.111296760826864,1.017138957977295,-2.8348663488971155
1708442985.5761206,-2.142199754714966,-1.3335607510856171,-2.526544157658712,6.111301052361288,1.0171092748641968,-2.8348382155047815
1708442985.578117,-2.1421456336975098,-1.333530769949295,-2.526499334965841,6.11127136924819,1.0170880556106567,-2.8348472754107874
1708442985.5801,-2.142199754714966,-1.333563746219017,-2.526527706776754,6.111275779991903,1.0171136856079102,-2.8348353544818323
1708442985.5821857,-2.1421456336975098,-1.333538607960083,-2.526536528264181,6.1112966416175745,1.0170717239379883,-2.834799591694967
1708442985.5841532,-2.142174005508423,-1.3335890036872406,-2.526527706776754,6.111226904183187,1.0171012878417969,-2.834791962300436
1708442985.5861573,-2.1421570777893066,-1.333534137611725,-2.526560370122091,6.1112966416175745,1.017162561416626,-2.834764067326681
1708442985.588118,-2.142181873321533,-1.3335756820491333,-2.5265145937549036,6.1112637398536584,1.0171136856079102,-2.83465820947756
1708442985.5901015,-2.142174005508423,-1.3335519295981904,-2.5265353361712855,6.111225712090292,1.0171462297439575,-2.8346262613879603
1708442985.592123,-2.1421782970428467,-1.333559350376465,-2.526544157658712,6.11127136924819,1.017076015472412,-2.834578816090719
1708442985.594108,-2.1422154903411865,-1.333562360411026,-2.5265234152423304,6.1112966416175745,1.0171092748641968,-2.8345916906939905
1708442985.596126,-2.142164945602417,-1.3335011166385193,-2.5265679995166224,6.111226904183187,1.0171462297439575,-2.834547821675436
1708442985.5980997,-2.1421570777893066,-1.3335549396327515,-2.5265396277057093,6.111244308739462,1.0171136856079102,-2.8345404306994837
1708442985.6000905,-2.1421616077423096,-1.3335474294475098,-2.5265145937549036,6.1112180826957605,1.0171300172805786,-2.8344460169421595
1708442985.6021292,-2.1421782970428467,-1.3335549396327515,-2.526499334965841,6.1112475273902795,1.0171136856079102,-2.834398333226339
1708442985.6041045,-2.14216947555542,-1.3335352700999756,-2.5265396277057093,6.1112637398536584,1.0170966386795044,-2.8343339602099817
1708442985.606128,-2.142164945602417,-1.3335519295981904,-2.5265310446368616,6.111255156784811,1.0171345472335815,-2.8342652956592005
1708442985.6081042,-2.1421525478363037,-1.3335474294475098,-2.526511255894796,6.1112966416175745,1.0171256065368652,-2.8342555204974573
1708442985.6101143,-2.14219069480896,-1.3335890036872406,-2.5265234152423304,6.1112146256263635,1.017133116722107,-2.834231678639547
1708442985.6121163,-2.142136812210083,-1.3336042624763031,-2.526544157658712,6.111198651581564,1.0170966386795044,-2.8340891043292444
1708442985.6141193,-2.1421117782592773,-1.3335967522910614,-2.526511255894796,6.111250626831808,1.017179250717163,-2.834079090748922
1708442985.6161187,-2.1421616077423096,-1.33357127130542,-2.52651554742922,6.111268150597372,1.0171287059783936,-2.8340113798724573
1708442985.6181085,-2.142160654067993,-1.3335219484618683,-2.5265191237079065,6.1112356064613245,1.0171661376953125,-2.8339269796954554
1708442985.620112,-2.1422362327575684,-1.333550439482071,-2.5265679995166224,6.111268150597372,1.0171616077423096,-2.8338711897479456
1708442985.622138,-2.142134189605713,-1.3335174483111878,-2.5264981428729456,6.1112180826957605,1.017133116722107,-2.8338072935687464
1708442985.6241193,-2.142120838165283,-1.3335549396327515,-2.5264862219439905,6.111255037575521,1.0171704292297363,-2.833714548741476
1708442985.6261275,-2.1421782970428467,-1.333592341547348,-2.5265069643603724,6.111260521202841,1.017166018486023,-2.833639446889059
1708442985.6281073,-2.142195224761963,-1.3335637611201783,-2.52651030222048,6.111231314926901,1.0171616077423096,-2.833559815083639
1708442985.6300945,-2.1422066688537598,-1.3335460734418412,-2.5265517870532435,6.111191260605612,1.0171856880187988,-2.8334346453296106
1708442985.6321242,-2.142141103744507,-1.3336294156363984,-2.5265024344073694,6.111293065338888,1.0171812772750854,-2.833350721989767
1708442985.634118,-2.142143726348877,-1.333538607960083,-2.5265234152423304,6.111243235855856,1.017164707183838,-2.8332787195788782
1708442985.636087,-2.142160654067993,-1.3335563403419037,-2.5264905134784144,6.1112356064613245,1.0172185897827148,-2.8331945578204554
1708442985.6381123,-2.14213228225708,-1.3335756820491333,-2.5265384356128138,6.111264931946554,1.0171900987625122,-2.833090845738546
1708442985.6401184,-2.1421525478363037,-1.3335430038026352,-2.5265396277057093,6.111219036370077,1.0172185897827148,-2.833015743886129
1708442985.6421185,-2.14216947555542,-1.3335440915874024,-2.5265799204455774,6.1112356064613245,1.017176866531372,-2.8328993956195276
1708442985.6441002,-2.142186403274536,-1.3335756820491333,-2.5264981428729456,6.111280071526327,1.017181396484375,-2.832738463078634
1708442985.6461077,-2.1421570777893066,-1.33357127130542,-2.5265234152423304,6.1112650511558435,1.0172053575515747,-2.832695786152975
1708442985.6481168,-2.142141103744507,-1.333538607960083,-2.5264862219439905,6.111240017205038,1.0171931982040405,-2.8325846830951136
1708442985.650095,-2.142186403274536,-1.3335845929435273,-2.5264652411090296,6.111251818924703,1.0171886682510376,-2.832339588795797
1708442985.6521392,-2.14214825630188,-1.3335144382766266,-2.5265429655658167,6.111182439118185,1.0172545909881592,-2.832294289265768
1708442985.6541152,-2.142174005508423,-1.3335474294475098,-2.5264981428729456,6.1112074730689905,1.0172291994094849,-2.8321459929095667
1708442985.6561515,-2.142186403274536,-1.3335953813842316,-2.5265560785876673,6.111232030182638,1.0172260999679565,-2.8320143858539026
1708442985.6581087,-2.142199754714966,-1.333559350376465,-2.526572291051046,6.111198770790853,1.0172665119171143,-2.8318660894977015
1708442985.6601,-2.142186403274536,-1.3335430187037964,-2.5265679995166224,6.111231195717611,1.0172457695007324,-2.8317704836474817
1708442985.6621308,-2.14216947555542,-1.3335460287383576,-2.5265396277057093,6.111240017205038,1.0172709226608276,-2.8316147963153284
1708442985.6641088,-2.142181873321533,-1.3335174483111878,-2.5265396277057093,6.111231314926901,1.0172621011734009,-2.8314438501941126
1708442985.666127,-2.1421570777893066,-1.3335519295981904,-2.5266009012805384,6.111219036370077,1.017241358757019,-2.83126408258547
1708442985.6681054,-2.1421456336975098,-1.3335756820491333,-2.5265710989581507,6.1112074730689905,1.0172576904296875,-2.8311031500445765
1708442985.6700985,-2.1421570777893066,-1.333559350376465,-2.5265634695636194,6.111181127816,1.0172698497772217,-2.8309653441058558
1708442985.672109,-2.14216947555542,-1.333562360411026,-2.5265234152423304,6.111199843674459,1.0172861814498901,-2.830763880406515
1708442985.6741035,-2.142181873321533,-1.3335756820491333,-2.5265191237079065,6.1112356064613245,1.0172531604766846,-2.830588404332296
1708442985.6761107,-2.142186403274536,-1.333559350376465,-2.5265515486346644,6.111186849861898,1.0172698497772217,-2.8303778807269495
1708442985.6781049,-2.1421570777893066,-1.3335144382766266,-2.5265515486346644,6.1112074730689905,1.0172522068023682,-2.830186430607931
1708442985.6801136,-2.1421704292297363,-1.3335967522910614,-2.526560370122091,6.111284363060751,1.0172984600067139,-2.8299949804889124
1708442985.6821377,-2.1421828269958496,-1.3335144382766266,-2.5265353361712855,6.111219036370077,1.0172773599624634,-2.829778258000509
1708442985.6841621,-2.142199754714966,-1.333538607960083,-2.5265024344073694,6.111166226654806,1.0172773599624634,-2.82957107225527
1708442985.6861622,-2.142195224761963,-1.3335352700999756,-2.5265842119800013,6.1112356064613245,1.017293930053711,-2.8293960730182093
1708442985.6881409,-2.142178535461426,-1.3335800927928467,-2.5265634695636194,6.111182439118185,1.0173341035842896,-2.829179588948385
1708442985.6901383,-2.1421828269958496,-1.3335219484618683,-2.526506010686056,6.1112180826957605,1.017351746559143,-2.8289602438556116
1708442985.6921175,-2.142134189605713,-1.333496705894806,-2.5265396277057093,6.111231314926901,1.0173629522323608,-2.8286820093738
1708442985.6941268,-2.1422040462493896,-1.3335549545339127,-2.526572291051046,6.1112475273902795,1.0173791646957397,-2.8285210768329065
1708442985.6961071,-2.1421782970428467,-1.3335834306529541,-2.5264905134784144,6.111231314926901,1.017304539680481,-2.8282764593707483
1708442985.6981132,-2.142125368118286,-1.3335997623256226,-2.5265515486346644,6.1112074730689905,1.017317771911621,-2.827980343495504
1708442985.7001202,-2.14214825630188,-1.3335563403419037,-2.5265310446368616,6.111256348877706,1.0173792839050293,-2.8277035395251673
1708442985.7020993,-2.1421658992767334,-1.333538607960083,-2.526560370122091,6.111251818924703,1.017382264137268,-2.8274760882007044
1708442985.7041004,-2.142164945602417,-1.33357127130542,-2.5265842119800013,6.111203062325277,1.017382264137268,-2.827179733906881
1708442985.7060997,-2.142186403274536,-1.3335637611201783,-2.5265384356128138,6.111251818924703,1.0173451900482178,-2.8268874327289026
1708442985.708125,-2.142143726348877,-1.3335866195014496,-2.5265265146838587,6.111231195717611,1.0173453092575073,-2.8265956083880823
1708442985.7101119,-2.142174005508423,-1.33357127130542,-2.5265308062182825,6.111198770790853,1.0173988342285156,-2.826286856328146
1708442985.7121134,-2.142186403274536,-1.3335623157075425,-2.5265842119800013,6.111205923348226,1.0173733234405518,-2.8260484377490442
1708442985.7141082,-2.1421782970428467,-1.3335252863219758,-2.5265472571002405,6.111240017205038,1.0173407793045044,-2.825724426900045
1708442985.716119,-2.1421828269958496,-1.333562360411026,-2.5265145937549036,6.111284363060751,1.017403244972229,-2.8254452387439173
1708442985.7180934,-2.14216947555542,-1.3335043054870148,-2.526522223149435,6.11122344711379,1.017370343208313,-2.8251009623156946
1708442985.7201178,-2.142174005508423,-1.3335474294475098,-2.526554886494772,6.111259448319235,1.0173909664154053,-2.824857298527853
1708442985.722115,-2.1421782970428467,-1.333525301223137,-2.5265429655658167,6.1112356064613245,1.0173571109771729,-2.8245180288897913
1708442985.724127,-2.1421501636505127,-1.333550439482071,-2.5265384356128138,6.1112074730689905,1.017401933670044,-2.824209515248434
1708442985.7261403,-2.142160654067993,-1.3336042624763031,-2.5265842119800013,6.111190068512716,1.0174351930618286,-2.8237927595721644
1708442985.7281046,-2.1421570777893066,-1.333559350376465,-2.526550356541769,6.11121033409194,1.0173733234405518,-2.823477093373434
1708442985.730111,-2.1421163082122803,-1.3336205941489716,-2.52653414407839,6.111251818924703,1.0173856019973755,-2.823117796574728
1708442985.7321208,-2.1421570777893066,-1.3335997623256226,-2.5265710989581507,6.111268150597372,1.0174229145050049,-2.8227165381061
1708442985.7341063,-2.1421570777893066,-1.3335682612708588,-2.526562277470724,6.111256348877706,1.0173767805099487,-2.8224056402789515
1708442985.7361035,-2.142174005508423,-1.3335579496673127,-2.526554886494772,6.1112356064613245,1.0174351930618286,-2.8220539728747767
1708442985.7380905,-2.142125368118286,-1.3335667711547394,-2.5265875498401087,6.111268150597372,1.0173885822296143,-2.8216894308673304
1708442985.7401085,-2.14213228225708,-1.333601252441742,-2.52653414407839,6.111259448319235,1.017401933670044,-2.821293656026022
1708442985.7420938,-2.142199754714966,-1.3335252863219758,-2.5265710989581507,6.1112637398536584,1.0174140930175781,-2.8209338823901575
1708442985.7440898,-2.142195224761963,-1.333616093998291,-2.5266173521624964,6.111288893013754,1.0174469947814941,-2.820530716572897
1708442985.746109,-2.142199754714966,-1.3335879308036347,-2.526604239140646,6.111226904183187,1.0174051523208618,-2.820138756428854
1708442985.7481062,-2.14219069480896,-1.3335834306529541,-2.5265875498401087,6.111198770790853,1.0174751281738281,-2.8197510878192347
1708442985.7500978,-2.142141103744507,-1.33357127130542,-2.526566807423727,6.111198651581564,1.0174249410629272,-2.8193090597735804
1708442985.7521067,-2.142112970352173,-1.3335834306529541,-2.526599709187643,6.111250746041097,1.0174294710159302,-2.81895095506777
1708442985.754085,-2.14216947555542,-1.3335460287383576,-2.5265710989581507,6.1112637398536584,1.0174918174743652,-2.818531338368551
1708442985.756094,-2.1422111988067627,-1.33357127130542,-2.526591126118795,6.111296760826864,1.017478585243225,-2.818090263997213
1708442985.7581103,-2.142199754714966,-1.3335756969502945,-2.5265579859363,6.1112475273902795,1.0174829959869385,-2.8176472822772425
1708442985.7601142,-2.142199754714966,-1.333616093998291,-2.5266204516040247,6.111292350083151,1.0174907445907593,-2.8172109762774866
1708442985.762132,-2.1421172618865967,-1.33357127130542,-2.526574436818258,6.111283528595724,1.0174819231033325,-2.816824976597921
1708442985.764126,-2.1421163082122803,-1.3335866195014496,-2.526562277470724,6.111275779991903,1.0175026655197144,-2.816376272832052
1708442985.766108,-2.1421570777893066,-1.3336232763579865,-2.5266149679767054,6.111292350083151,1.0174819231033325,-2.8159051577197474
1708442985.7681227,-2.142174005508423,-1.3335296970656891,-2.526623551045553,6.111266958504476,1.017486333847046,-2.8154729048358362
1708442985.7700946,-2.14210844039917,-1.3336205941489716,-2.52665621439089,6.111283528595724,1.017498254776001,-2.8149808088885706
1708442985.772106,-2.1421570777893066,-1.333629385834076,-2.5266431013690394,6.111262547760763,1.017510175704956,-2.8145251909839075
1708442985.774104,-2.1421570777893066,-1.333616093998291,-2.526607338582174,6.111259448319235,1.017510175704956,-2.8140323797809046
1708442985.7761211,-2.142174005508423,-1.3336116832545777,-2.5265823046313685,6.111311661988058,1.0175179243087769,-2.813561026250021
1708442985.7781155,-2.1421163082122803,-1.3336276871016999,-2.5266595522509974,6.111298668175497,1.0174894332885742,-2.8130365053759974
1708442985.7801054,-2.1421570777893066,-1.3335834306529541,-2.5266552607165735,6.111319291382589,1.0175386667251587,-2.812587086354391
1708442985.7821257,-2.142134189605713,-1.3336189550212403,-2.526647392903463,6.111335623055258,1.017543077468872,-2.812004868184225
1708442985.7841964,-2.142136573791504,-1.3335702878287812,-2.5266431013690394,6.111359464913168,1.0175637006759644,-2.8115671316729944
1708442985.786123,-2.142086982727051,-1.3335865896991272,-2.526642147694723,6.111376750260153,1.0175013542175293,-2.8110435644732874
1708442985.788117,-2.1421456336975098,-1.3335579496673127,-2.5267000834094446,6.1113637564475916,1.0175461769104004,-2.810498062764303
1708442985.7901034,-2.142164945602417,-1.333616093998291,-2.5266671816455286,6.1113637564475916,1.017579436302185,-2.8099375406848353
1708442985.7921383,-2.1421501636505127,-1.3335997325233002,-2.5266714731799524,6.111302959709921,1.017579436302185,-2.8094385305987757
1708442985.7940998,-2.142127752304077,-1.3336116832545777,-2.5267162958728235,6.111294376641073,1.017537236213684,-2.808915440236227
1708442985.7961063,-2.14219069480896,-1.3336443465999146,-2.526679340993063,6.111314999848165,1.0175495147705078,-2.8083587328540247
1708442985.7981052,-2.1421570777893066,-1.333592341547348,-2.526723925267355,6.11131380775527,1.0175749063491821,-2.807831589375631
1708442985.8000968,-2.14213228225708,-1.3335997623256226,-2.526715103779928,6.111322510033407,1.0176153182983398,-2.8072436491595667
1708442985.802147,-2.142127752304077,-1.333562360411026,-2.526658360158102,6.111331212311544,1.0175987482070923,-2.8066516558276575
1708442985.8041089,-2.1421525478363037,-1.3336276871016999,-2.526682440434591,6.111383545189657,1.0175617933273315,-2.8061135450946253
1708442985.8061254,-2.1422200202941895,-1.3336320978454133,-2.526731554661886,6.111350643425741,1.0175617933273315,-2.8055174986468714
1708442985.8081067,-2.1421782970428467,-1.3335745942643662,-2.526715103779928,6.111358511238851,1.017606496810913,-2.804880682622091
1708442985.810114,-2.14216947555542,-1.3336519461921235,-2.526698891316549,6.111371624260702,1.0176020860671997,-2.804293219243185
1708442985.8120995,-2.1421525478363037,-1.3336276871016999,-2.526731554661886,6.111402976303854,1.017627239227295,-2.8037450949298304
1708442985.8141341,-2.142136812210083,-1.3335953515819092,-2.526743475590841,6.111411678581991,1.0176349878311157,-2.8032074610339563
1708442985.8161054,-2.142164945602417,-1.3335909408381958,-2.5267720858203333,6.11137472370223,1.0176095962524414,-2.8026114145862024
1708442985.8181083,-2.1421616077423096,-1.3335790497115632,-2.5267141501056116,6.111382233887472,1.0176513195037842,-2.801978413258688
1708442985.8201246,-2.1421456336975098,-1.3336072725108643,-2.526705328618185,6.111415970116415,1.0176546573638916,-2.801342789326803
1708442985.822124,-2.142136812210083,-1.3336232912591477,-2.5267840067492884,6.111354100495138,1.01767098903656,-2.8007145563708704
1708442985.8241193,-2.1421163082122803,-1.333647446041443,-2.5267589727984827,6.111370432167806,1.0176591873168945,-2.8001392523394983
1708442985.8261132,-2.142125368118286,-1.333616093998291,-2.5267303625689905,6.111382233887472,1.0176753997802734,-2.799511257802145
1708442985.8281076,-2.1421525478363037,-1.333635614519455,-2.526820961629049,6.111371624260702,1.0176621675491333,-2.7988622824298304
1708442985.8301134,-2.142120838165283,-1.3336144399693985,-2.5267913977252405,6.11138795593337,1.0176502466201782,-2.7983089129077356
1708442985.8321428,-2.142125368118286,-1.333568887119629,-2.5267470518695276,6.111391055374899,1.0177280902862549,-2.797640864049093
1708442985.8341596,-2.142141103744507,-1.3336144548705597,-2.526770893727438,6.111399757653036,1.017685890197754,-2.7969589869128626
1708442985.8361392,-2.1421525478363037,-1.3336593371680756,-2.5268078486071985,6.111408579140463,1.0177028179168701,-2.7962964216815394
1708442985.8380964,-2.1421616077423096,-1.3336311143687745,-2.5268245379077356,6.111419546395101,1.0177236795425415,-2.795595947896139
1708442985.840099,-2.14212965965271,-1.3336637777141114,-2.5267751852618616,6.111382233887472,1.0177147388458252,-2.7949650923358362
1708442985.842113,-2.142141103744507,-1.333594099884369,-2.5267871061908167,6.111391055374899,1.0177236795425415,-2.7943406740771692
1708442985.8440952,-2.142138719558716,-1.333626703625061,-2.526790205632345,6.111386644631185,1.0177562236785889,-2.7936208883868616
1708442985.8461142,-2.142136812210083,-1.3336188954165955,-2.526773993168966,6.11139856556014,1.0177472829818726,-2.7929251829730433
1708442985.8481064,-2.142134189605713,-1.3336355698159714,-2.526835266743795,6.111383425980367,1.0177714824676514,-2.792201344166891
1708442985.8501024,-2.1421217918395996,-1.333705560570099,-2.5267983118640345,6.111386763840475,1.0177297592163086,-2.79153019586672
1708442985.852105,-2.142138719558716,-1.333596722488739,-2.5268145243274134,6.111386644631185,1.0177626609802246,-2.790851656590597
1708442985.8540974,-2.1421570777893066,-1.3336386394551774,-2.52682334581484,6.111416089325704,1.0177793502807617,-2.7901175657855433
1708442985.8561287,-2.142120838165283,-1.3336460453322907,-2.5267983118640345,6.111379134445944,1.0178077220916748,-2.789304558430807
1708442985.8581355,-2.1420958042144775,-1.3336253029159089,-2.526839558278219,6.11137484291152,1.017786979675293,-2.788719717656271
1708442985.8601158,-2.1421172618865967,-1.3337206107429047,-2.526879851018087,6.111370432167806,1.017765998840332,-2.7879191080676478
1708442985.8621244,-2.1421217918395996,-1.3336746257594605,-2.5268667379962366,6.111411678581991,1.017786979675293,-2.7872372309314173
1708442985.8641052,-2.1421751976013184,-1.333690957432129,-2.5268471876727503,6.11138795593337,1.0178393125534058,-2.7864418665515345
1708442985.8661282,-2.1421308517456055,-1.3336593967727204,-2.5268502871142786,6.111373531609335,1.017864465713501,-2.7857072989093226
1708442985.86813,-2.1421353816986084,-1.3336790365031739,-2.5268994013415735,6.111402976303854,1.0178349018096924,-2.7849631945239466
1708442985.8701103,-2.1421048641204834,-1.333671287899353,-2.526870075856344,6.111407387047567,1.0178512334823608,-2.78419000307192
1708442985.8721392,-2.1421093940734863,-1.333690957432129,-2.526890818272726,6.111362921982565,1.0178216695785522,-2.7834699789630335
1708442985.8741155,-2.1421048641204834,-1.3336998683265229,-2.5268951098071497,6.111379134445944,1.0178964138031006,-2.7827287356006067
1708442985.8761256,-2.1421172618865967,-1.333670274620392,-2.526910368596212,6.111321198731222,1.0178993940353394,-2.7819398085223597
1708442985.8781338,-2.1420888900756836,-1.3336998683265229,-2.5269280115710657,6.111346232682028,1.01787531375885,-2.781130615864889
1708442985.880103,-2.142064332962036,-1.3337280315211792,-2.5269060770617884,6.11138795593337,1.0178874731063843,-2.7803381125079554
1708442985.8821497,-2.1420767307281494,-1.3336821359447022,-2.526968304310934,6.111350643425741,1.0179156064987183,-2.7795332113849085
1708442985.884221,-2.1421353816986084,-1.3336940568736573,-2.5269222895251673,6.1113672135169885,1.0179401636123657,-2.778756920491354
1708442985.886161,-2.1420719623565674,-1.3336984676173707,-2.526959482823507,6.111350643425741,1.0178816318511963,-2.777940098439352
1708442985.8881137,-2.1421263217926025,-1.3336416345885773,-2.5269671122180384,6.1113672135169885,1.0179637670516968,-2.7771552244769495
1708442985.8901253,-2.1421308517456055,-1.333702878361084,-2.5269508997546595,6.111343252449789,1.0179475545883179,-2.776362721120016
1708442985.892119,-2.1421024799346924,-1.3336460453322907,-2.526986900960104,6.111322510033407,1.0179431438446045,-2.7755430380450647
1708442985.894099,-2.1420810222625732,-1.3337161999991913,-2.526978079472677,6.1112942574317834,1.0179506540298462,-2.774640146886007
1708442985.896116,-2.142057180404663,-1.3336623770049592,-2.5269792715655726,6.1113343117530725,1.0179625749588013,-2.7738660017596644
1708442985.898116,-2.1420767307281494,-1.3336668771556397,-2.526986900960104,6.111335503845968,1.0179747343063354,-2.773045603428976
1708442985.9000924,-2.142057180404663,-1.3336865466884156,-2.526970450078146,6.11133240440444,1.0180165767669678,-2.7722089926349085
1708442985.9021184,-2.142063856124878,-1.333702878361084,-2.5270569960223597,6.111347424774923,1.018003225326538,-2.771374527608053
1708442985.9040902,-2.142066240310669,-1.3336447340301056,-2.5270074049579065,6.1113237021263025,1.0179866552352905,-2.770630184804098
1708442985.9061155,-2.142007350921631,-1.3337192100337525,-2.52702242532839,6.111286747246542,1.0180479288101196,-2.7697775999652308
1708442985.9081385,-2.142050266265869,-1.333702878361084,-2.527018133793966,6.111262547760763,1.0180598497390747,-2.7689531485186976
1708442985.9100916,-2.1420414447784424,-1.3337042790702363,-2.527039353047506,6.111309754639425,1.0180511474609375,-2.7681389490710657
1708442985.912102,-2.14200496673584,-1.3336998683265229,-2.527043883000509,6.111205923348226,1.0180667638778687,-2.767291847859518
1708442985.914091,-2.1420559883117676,-1.3337072891047974,-2.5270708242999476,6.111195552140035,1.0180798768997192,-2.7664504686938685
1708442985.9161038,-2.141984701156616,-1.3336998683265229,-2.52706748643984,6.111211764603414,1.0181158781051636,-2.765561644230978
1708442985.9181395,-2.1419928073883057,-1.3336492043784638,-2.5270631949054163,6.1112074730689905,1.0181397199630737,-2.7647200266467493
1708442985.9201114,-2.141989231109619,-1.3337161999991913,-2.5271032492267054,6.111166941910543,1.0181772708892822,-2.7638681570636194
1708442985.922157,-2.141989231109619,-1.3336535555175324,-2.52706748643984,6.111252891808309,1.0181386470794678,-2.7630241552936
1708442985.9241164,-2.1419777870178223,-1.3336535555175324,-2.5270913282977503,6.111155020981588,1.0181759595870972,-2.7621756235705774
1708442985.9261298,-2.141991138458252,-1.333604560499527,-2.527073923741476,6.111180174141683,1.0181803703308105,-2.7612414995776575
1708442985.9281125,-2.141953945159912,-1.3337116998485108,-2.5271032492267054,6.111147510796346,1.018195629119873,-2.760317866002218
1708442985.9302816,-2.141975164413452,-1.3336984676173707,-2.527123037968771,6.111094105034628,1.0181912183761597,-2.759484593068258
1708442985.9321127,-2.141899585723877,-1.33372055113826,-2.527090136204855,6.111037599831381,1.0181868076324463,-2.758531157170431
1708442985.9341323,-2.141937017440796,-1.3336491000703354,-2.5271273295031946,6.111124622612753,1.018261432647705,-2.757662359868185
1708442985.936123,-2.141963005065918,-1.3336984676173707,-2.527098004017965,6.1110191223915,1.0182350873947144,-2.756733242665426
1708442985.9381137,-2.1419222354888916,-1.3336746257594605,-2.527114216481344,6.11099528053359,1.0182557106018066,-2.7558866182910364
1708442985.9401143,-2.141869068145752,-1.333690957432129,-2.527163569127218,6.110943305283346,1.018288254737854,-2.7549238840686243
1708442985.9421508,-2.141857862472534,-1.3336702150157471,-2.5271263758288782,6.110981333046713,1.018369436264038,-2.754000250493185
1708442985.9441142,-2.1419026851654053,-1.333702878361084,-2.527179781590597,6.110972630768575,1.0183244943618774,-2.753047053013937
1708442985.946106,-2.1418302059173584,-1.333702878361084,-2.5271788279162806,6.110916006356039,1.0183321237564087,-2.75210410753359
1708442985.9481242,-2.1418371200561523,-1.333702878361084,-2.5272041002856653,6.110866772919454,1.0183364152908325,-2.7511826197253626
1708442985.9501162,-2.141850709915161,-1.3337399524501343,-2.5272768179522913,6.110843050270834,1.0183606147766113,-2.750148121510641
1708442985.952138,-2.141793966293335,-1.3337072891047974,-2.5272603670703333,6.1108529446418665,1.0183727741241455,-2.749133888875143
1708442985.9541063,-2.1417577266693115,-1.3336623770049592,-2.527222220097677,6.110805022507467,1.0183773040771484,-2.7482076326953333
1708442985.9561276,-2.1417577266693115,-1.3336491745761414,-2.527182165776388,6.110797512322225,1.0183924436569214,-2.747141186391012
1708442985.9581258,-2.1417248249053955,-1.3337325316718598,-2.527234141026632,6.110769259720602,1.018388032913208,-2.7462263743029993
1708442985.9601116,-2.1417348384857178,-1.3336416345885773,-2.527259174977438,6.1107486365135095,1.0184403657913208,-2.745169703160421
1708442985.9621215,-2.1417596340179443,-1.3337161999991913,-2.527299944554464,6.110696303635397,1.0184569358825684,-2.7442284266101282
1708442985.964121,-2.1416819095611572,-1.3336460453322907,-2.527234141026632,6.110693204193868,1.01846444606781,-2.743199888859884
1708442985.966156,-2.141669511795044,-1.3336865466884156,-2.527344290410177,6.1106722233589075,1.018484115600586,-2.742121998463766
1708442985.9681642,-2.1416714191436768,-1.3336953681758423,-2.527320686970846,6.110661494522848,1.0185813903808594,-2.741150681172506
1708442985.9701014,-2.1416172981262207,-1.333687887792923,-2.5272987524615687,6.110665786057272,1.0185648202896118,-2.740115229283468
1708442985.9721096,-2.141605854034424,-1.3336777550033112,-2.5273566881762903,6.11060510852889,1.0185648202896118,-2.7391238848315638
1708442985.974103,-2.1416237354278564,-1.3337116998485108,-2.5273311773883265,6.110576617508688,1.0185844898223877,-2.7381466070758265
1708442985.9761415,-2.141589879989624,-1.3336835366538544,-2.527313772832052,6.110549318581381,1.0185879468917847,-2.737128798161642
1708442985.978139,-2.141540050506592,-1.3336835366538544,-2.527339045201437,6.110583293228903,1.0186489820480347,-2.7362149397479456
1708442985.9801047,-2.1415793895721436,-1.3336790365031739,-2.527358595524923,6.110506045609274,1.0186491012573242,-2.7351813952075403
1708442985.9821308,-2.1415467262268066,-1.3336998683265229,-2.527350966130392,6.110417115479269,1.0186032056808472,-2.734241549168722
1708442985.9842331,-2.1414785385131836,-1.3337042790702363,-2.527383867894308,6.11045931556777,1.0186809301376343,-2.7332070509540003
1708442985.9861615,-2.1414742469787598,-1.3336835366538544,-2.5273781458484095,6.11044334152297,1.0187169313430786,-2.732180658970968
1708442985.9881318,-2.1414334774017334,-1.333674595957138,-2.5274153391467493,6.110410439759054,1.0187169313430786,-2.7311728636371058
1708442985.9901047,-2.141422986984253,-1.3336341840079804,-2.5274110476123255,6.110346305161276,1.018753170967102,-2.7301843802081507
1708442985.992104,-2.141385793685913,-1.3336790365031739,-2.5274067560779017,6.110278117447653,1.018785834312439,-2.72915226617922
1708442985.9941387,-2.1414411067962646,-1.3336371940425416,-2.5274513403521937,6.110282289772787,1.01875638961792,-2.7281294504748743
1708442985.996121,-2.1413698196411133,-1.333707259302475,-2.5274632612811487,6.110271322518148,1.0188088417053223,-2.727147881184713
1708442985.9981449,-2.141400098800659,-1.3336179715446015,-2.5274513403521937,6.11021779754714,1.0188088417053223,-2.726176087056295
1708442986.0001154,-2.1412930488586426,-1.3336953681758423,-2.5274797121631067,6.110235202103414,1.0188536643981934,-2.7251132170306605
1708442986.0021245,-2.1413605213165283,-1.3336865317872544,-2.527482811604635,6.110105979233541,1.0188119411468506,-2.7241135279284876
1708442986.004104,-2.141319751739502,-1.3337042343667527,-2.5274620691882532,6.11012219169692,1.0189019441604614,-2.7230594793902796
1708442986.0061078,-2.141319751739502,-1.333657981162407,-2.527508322392599,6.110107171326437,1.0188885927200317,-2.7220614592181605
1708442986.0081038,-2.141263246536255,-1.333662362103798,-2.5275471846209925,6.110068189888754,1.0188930034637451,-2.720980946217672
1708442986.0101128,-2.1412923336029053,-1.3336668771556397,-2.5275560061084192,6.110032188683309,1.0189290046691895,-2.719905440007345
1708442986.0121117,-2.141235828399658,-1.3336267185262223,-2.5275102297412317,6.109982955246725,1.0189036130905151,-2.7188828627215784
1708442986.014109,-2.1412270069122314,-1.3336909425309678,-2.5275471846209925,6.109915482788839,1.0189815759658813,-2.717843834553854
1708442986.0161128,-2.1412110328674316,-1.33372055113826,-2.527538601552145,6.1099068997199915,1.0190175771713257,-2.7167559305774134
1708442986.0181236,-2.141166925430298,-1.3336535853198548,-2.527566973363058,6.109925496369161,1.0190088748931885,-2.7156363169299524
1708442986.020093,-2.1411473751068115,-1.3336579662612458,-2.5275548140155237,6.109844076424398,1.019041657447815,-2.7145372072802942
1708442986.0221004,-2.141113519668579,-1.3336342138103028,-2.5275986830340784,6.109849798470297,1.0190118551254272,-2.713471237813131
1708442986.024124,-2.141106605529785,-1.3336998534253617,-2.527628008519308,6.109809386521139,1.019073247909546,-2.712392870579855
1708442986.0261075,-2.141120195388794,-1.3336429458907624,-2.5276566187488,6.109740721970358,1.0190688371658325,-2.71122652689089
1708442986.0281758,-2.141043186187744,-1.3336712729981919,-2.527660910283224,6.109635221749105,1.0191102027893066,-2.710203472767965
1708442986.0300968,-2.141052007675171,-1.3336549711278458,-2.5276060740100306,6.109635221749105,1.0191287994384766,-2.709132496510641
1708442986.0321221,-2.1410634517669678,-1.333695427780487,-2.5276227633105677,6.109636413842001,1.0191125869750977,-2.70805532137026
1708442986.034137,-2.14103627204895,-1.3336253029159089,-2.5276673475848597,6.10953055599288,1.0191333293914795,-2.706921402608053
1708442986.0361192,-2.1409964561462402,-1.3336460304311295,-2.5276880900012415,6.109561192780294,1.0191574096679688,-2.705832306538717
1708442986.0381434,-2.14097261428833,-1.3336267185262223,-2.527686897908346,6.10954641082839,1.0192055702209473,-2.704843346272604
1708442986.040119,-2.140920400619507,-1.3336790365031739,-2.527740542088644,6.109522211342611,1.0192548036575317,-2.703704897557394
1708442986.0421267,-2.140944242477417,-1.3336342734149476,-2.527748171483175,6.109433042794027,1.0192832946777344,-2.7026708761798304
1708442986.0441191,-2.140850305557251,-1.333696798687317,-2.5277720133410853,6.109352457314291,1.0192581415176392,-2.701620403920309
1708442986.0461183,-2.1408932209014893,-1.333634228711464,-2.5276945273028772,6.109362470894613,1.0192450284957886,-2.7005303541766565
1708442986.0481179,-2.1408727169036865,-1.333596722488739,-2.52782112756838,6.1093580601509,1.0192643404006958,-2.699491087590353
1708442986.0501597,-2.14083194732666,-1.3336474609426041,-2.5277589003192347,6.109302866249838,1.0193334817886353,-2.698362414036886
1708442986.0521047,-2.1408071517944336,-1.3336178821376343,-2.5277426878558558,6.109237539559164,1.0193212032318115,-2.6972079912768763
1708442986.0541134,-2.1407887935638428,-1.3336100292256852,-2.527782980595724,6.109218823700704,1.0193661451339722,-2.6961222330676478
1708442986.056147,-2.1407854557037354,-1.333647446041443,-2.5277708212481897,6.109129535942831,1.0194275379180908,-2.6950555483447474
1708442986.058136,-2.140723466873169,-1.3336430352977295,-2.52781588235964,6.109133946686544,1.0194133520126343,-2.693930689488546
1708442986.0601141,-2.140786647796631,-1.3336342138103028,-2.527909819279806,6.109115350037374,1.019466519355774,-2.6928582827197474
1708442986.0621145,-2.1407454013824463,-1.3336267185262223,-2.5278027693377894,6.109103786736288,1.0194790363311768,-2.6917339007007044
1708442986.0640993,-2.140672445297241,-1.3335895550302048,-2.527851645146505,6.109044062882223,1.0195146799087524,-2.6906891504870813
1708442986.0661154,-2.1406776905059814,-1.3335984212211152,-2.5278309027301233,6.108969795494833,1.0195552110671997,-2.6895020643817347
1708442986.0681071,-2.1406538486480713,-1.333647446041443,-2.527846161519186,6.108837353974142,1.0195631980895996,-2.6884079615222376
1708442986.0701172,-2.1406095027923584,-1.3336549711278458,-2.5278833548175257,6.108874189644613,1.0195543766021729,-2.687211338673727
1708442986.0721278,-2.140641450881958,-1.3336029660752793,-2.527862612401144,6.108870732575216,1.0195857286453247,-2.6860604921924036
1708442986.074172,-2.1405892372131348,-1.3336189699224015,-2.527923647557394,6.108790504723348,1.0195739269256592,-2.6849048773394983
1708442986.0761156,-2.1405653953552246,-1.3336233061603089,-2.527890984212057,6.108698236733236,1.0195934772491455,-2.6837366263019007
1708442986.0781267,-2.140562057495117,-1.333651916389801,-2.527914826069967,6.108706819802084,1.0196919441223145,-2.6826520601855677
1708442986.0801013,-2.1404757499694824,-1.3335746389678498,-2.527886692677633,6.108720052033224,1.0196830034255981,-2.6814799944507044
1708442986.0820992,-2.140550374984741,-1.3336563271335145,-2.5279224554644983,6.108574020653524,1.0197477340698242,-2.6803653875934046
1708442986.0841627,-2.140496253967285,-1.3336029660752793,-2.527964178715841,6.108592855721273,1.0197434425354004,-2.679237429295675
1708442986.086177,-2.1404690742492676,-1.3336072725108643,-2.5279791990863245,6.108625280648031,1.0197597742080688,-2.6780579725848597
1708442986.0881076,-2.1404736042022705,-1.3335834455541153,-2.527954165135519,6.1085113165672205,1.0197495222091675,-2.677002731953756
1708442986.090122,-2.1404337882995605,-1.333579034810402,-2.5280285517321985,6.108491647034445,1.0198110342025757,-2.675798002873556
1708442986.0921044,-2.1404685974121094,-1.333590955739357,-2.5279529730426233,6.108440506249227,1.0198473930358887,-2.6746965090381067
1708442986.0941331,-2.1403558254241943,-1.333590955739357,-2.528019730244772,6.10846112945632,1.019851803779602,-2.673527542744772
1708442986.0961058,-2.140373706817627,-1.333587886100151,-2.5280140081988733,6.108351218491354,1.0198965072631836,-2.6724653879748743
1708442986.0981135,-2.140349864959717,-1.3335953813842316,-2.528055731450216,6.108319508820333,1.019895076751709,-2.6713224093066614
1708442986.1001108,-2.1403419971466064,-1.3336131435683747,-2.5280633608447474,6.10832833030776,1.01987886428833,-2.670229975377218
1708442986.1021547,-2.1402933597564697,-1.3335667711547394,-2.528051201497213,6.108277547150411,1.0199236869812012,-2.6691880861865442
1708442986.1041248,-2.140294313430786,-1.3335416328958054,-2.5280707518206995,6.1083059189613245,1.0199236869812012,-2.668069664631979
1708442986.1061466,-2.1402456760406494,-1.3336117279580613,-2.528088394795553,6.108226406365194,1.0199837684631348,-2.666940991078512
1708442986.1081147,-2.14023756980896,-1.3335879308036347,-2.5280664602862757,6.108141410141744,1.0199793577194214,-2.6659138838397425
1708442986.1101127,-2.14021372795105,-1.3335667562535782,-2.5281320253955286,6.108096706658163,1.0199828147888184,-2.6647966543780726
1708442986.1121347,-2.1401968002319336,-1.3335474145463486,-2.528114620839254,6.108052599221029,1.020006775856018,-2.6636934916125696
1708442986.1141012,-2.140158176422119,-1.3335430485061188,-2.5281100908862513,6.108050334244528,1.02003812789917,-2.6626151243792933
1708442986.1161044,-2.1401333808898926,-1.3335845929435273,-2.5281716028796595,6.10804711559371,1.02005934715271,-2.6614864508258265
1708442986.1181116,-2.140151262283325,-1.3335834455541153,-2.52816349664797,6.107969391136923,1.0200506448745728,-2.660391394292013
1708442986.1200984,-2.14009690284729,-1.33357127130542,-2.5281057993518274,6.107939350395956,1.0201205015182495,-2.659250561391012
1708442986.1221466,-2.1400911808013916,-1.3335474294475098,-2.5281789938556116,6.10789047458724,1.0201435089111328,-2.6581314245807093
1708442986.1240935,-2.140049457550049,-1.3335430038026352,-2.528198544179098,6.107899176865377,1.0201598405838013,-2.6570008436786097
1708442986.1261263,-2.140083074569702,-1.3335637760213395,-2.5282278696643274,6.107814299851217,1.0201748609542847,-2.655891005192892
1708442986.128122,-2.1400129795074463,-1.3336042624763031,-2.5282519499408167,6.107839333802023,1.020179271697998,-2.6547251383410853
1708442986.1301105,-2.1400105953216553,-1.3335549247315903,-2.5282135645495813,6.10778700092391,1.0202362537384033,-2.653584067021505
1708442986.1321614,-2.140015125274658,-1.3335637760213395,-2.528263870869772,6.107723104744711,1.0202274322509766,-2.6524515787707728
1708442986.1341176,-2.1399857997894287,-1.3336250197938462,-2.528217856084005,6.107679593354025,1.0202603340148926,-2.6512907187091272
1708442986.1361315,-2.139970064163208,-1.3335341227105637,-2.528217856084005,6.10766755321578,1.0202502012252808,-2.650268618260519
1708442986.1381328,-2.1399471759796143,-1.3335189086249848,-2.528271738682882,6.107602226525106,1.0203325748443604,-2.6491101423846644
1708442986.140105,-2.1399312019348145,-1.3335637611201783,-2.528283659611837,6.107575285225668,1.020356297492981,-2.6479721705066126
1708442986.1421556,-2.1399154663085938,-1.3335504096797486,-2.5282955805407923,6.107576119690695,1.0203475952148438,-2.6469159762011927
1708442986.1441133,-2.1399331092834473,-1.3335834306529541,-2.5282376448260706,6.107475268631735,1.020356297492981,-2.645834509526388
1708442986.1461263,-2.139883518218994,-1.3335385930589219,-2.528310839329855,6.1074795601661584,1.020392656326294,-2.644728724156515
1708442986.1481392,-2.1398632526397705,-1.3335712862065812,-2.5283196608172815,6.107489216118612,1.0203914642333984,-2.643648687993185
1708442986.1501067,-2.139829397201538,-1.3335430336049576,-2.528310839329855,6.1074209091956995,1.0204365253448486,-2.642548386250631
1708442986.1522205,-2.139885663986206,-1.333584578042366,-2.5283599535571497,6.107425319939413,1.0204527378082275,-2.6414993445025843
1708442986.1541493,-2.1398720741271973,-1.3334936809590836,-2.5283270517932337,6.107405531197347,1.0204843282699585,-2.640498940144674
1708442986.1561248,-2.1398279666900635,-1.3335668009570618,-2.5283425490008753,6.107303249626913,1.0204887390136719,-2.6394460836993616
1708442986.1581228,-2.139819860458374,-1.3335219335607071,-2.5283380190478724,6.107298123627462,1.020484209060669,-2.6382902304278772
1708442986.1601315,-2.1397950649261475,-1.3335233491710206,-2.5283544699298304,6.10727738121108,1.0205161571502686,-2.6372578779803675
1708442986.162127,-2.139819860458374,-1.3335549545339127,-2.5283575693713587,6.107240068703451,1.020548701286316,-2.636226240788595
1708442986.1641219,-2.1397793292999268,-1.3335638058236619,-2.5283826033221644,6.107233869820394,1.0205354690551758,-2.635144297276632
1708442986.1661162,-2.1397182941436768,-1.3335757118514557,-2.5284395853625696,6.107173192292013,1.0205684900283813,-2.6341245810138147
1708442986.168111,-2.13975191116333,-1.333556355243065,-2.5284069220172327,6.107181775360861,1.0205683708190918,-2.6330555121051233
1708442986.170095,-2.139673948287964,-1.333538607960083,-2.528418842946188,6.107076036721029,1.0205881595611572,-2.632043425236837
1708442986.1721184,-2.1396830081939697,-1.3335233491710206,-2.528426472340719,6.107125985413351,1.020628571510315,-2.631022040043966
1708442986.1741037,-2.1396286487579346,-1.3335386228612442,-2.5284350554095667,6.107085931092062,1.0206328630447388,-2.6299706141101282
1708442986.17612,-2.1396703720092773,-1.333542988901474,-2.5285170714007776,6.107090222626486,1.0206530094146729,-2.628904644642965
1708442986.1781147,-2.1396589279174805,-1.333507017498352,-2.528458897267477,6.107041466027059,1.0206942558288574,-2.6279173533069056
1708442986.1801097,-2.139638662338257,-1.3335232746652146,-2.5284457842456263,6.107042300492086,1.020660400390625,-2.6267784277545374
1708442986.1821368,-2.139676809310913,-1.3335474145463486,-2.5285115877734583,6.106989252358236,1.0207053422927856,-2.625651184712545
1708442986.1841726,-2.139655590057373,-1.3335352700999756,-2.5284908453570765,6.10694037654952,1.0207127332687378,-2.6246593634234827
1708442986.186179,-2.139620304107666,-1.3335233342698594,-2.5285115877734583,6.10695897319869,1.0206798315048218,-2.6235631147967737
1708442986.188116,-2.1395750045776367,-1.3334936958602448,-2.5285192171679896,6.106950270920553,1.020745873451233,-2.622472588215963
1708442986.190105,-2.1396291255950928,-1.3335233491710206,-2.528493944798605,6.106939184456625,1.0207741260528564,-2.6213982740985315
1708442986.1921155,-2.139633893966675,-1.3335174781135102,-2.528522316609518,6.106878149300375,1.0207651853561401,-2.6204050222979944
1708442986.1941142,-2.1395671367645264,-1.3335320514491578,-2.5285027662860315,6.106867420464315,1.0207936763763428,-2.6193159262286585
1708442986.1961021,-2.1395504474639893,-1.3335189533284684,-2.5285924116717737,6.106821882515707,1.020771861076355,-2.6182785669909876
1708442986.198113,-2.139585018157959,-1.3334743839553376,-2.528522316609518,6.1068142531211755,1.0208090543746948,-2.617195431386129
1708442986.2001183,-2.1395318508148193,-1.333530755048134,-2.528529946004049,6.106778251915731,1.0208208560943604,-2.6161814371692103
1708442986.2021103,-2.139552354812622,-1.3335233342698594,-2.528571669255392,6.106815206795492,1.0207717418670654,-2.615169111882345
1708442986.2041047,-2.139540672302246,-1.3335189533284684,-2.52857476869692,6.106856691628256,1.0208537578582764,-2.614128891621725
1708442986.206121,-2.139512538909912,-1.3334954392961045,-2.5285704771624964,6.106786954193868,1.0208901166915894,-2.6131024996386927
1708442986.2081196,-2.1395654678344727,-1.3335233640721817,-2.5285823980914515,6.106807577400961,1.0208525657653809,-2.612098042164938
1708442986.2101107,-2.139479637145996,-1.3334787350944062,-2.5285378138171595,6.106796967774191,1.020848274230957,-2.6110039393054407
1708442986.2121112,-2.13946270942688,-1.33354406178508,-2.5285986105548304,6.1066932556922815,1.0208888053894043,-2.6100156942950647
1708442986.2141213,-2.1395046710968018,-1.3334743839553376,-2.5286017099963587,6.10675989368514,1.0209094285964966,-2.609016005192892
1708442986.2161186,-2.1394808292388916,-1.3335277152112504,-2.528619352971212,6.106649863510885,1.0209542512893677,-2.6080239454852503
1708442986.2181103,-2.1395046710968018,-1.3335144382766266,-2.5285943190204065,6.106669533043661,1.0209532976150513,-2.60698110262026
1708442986.220105,-2.1394762992858887,-1.3334954392961045,-2.5285778681384485,6.1066826460655115,1.0209534168243408,-2.60594350496401
1708442986.222133,-2.139439105987549,-1.3335334223559876,-2.528602902089254,6.106682765274801,1.0209323167800903,-2.6049233118640345
1708442986.2241237,-2.1394975185394287,-1.3335528683713456,-2.5285897890674036,6.106670486717977,1.0209654569625854,-2.6040073076831263
1708442986.2261262,-2.1394524574279785,-1.3335202199271698,-2.5286274592029017,6.106695759087362,1.0209981203079224,-2.6029914061175745
1708442986.2281084,-2.139472723007202,-1.3334680509618302,-2.5286391417132776,6.106687891274252,1.0210055112838745,-2.6020517984973353
1708442986.2301414,-2.139432191848755,-1.3335246604732056,-2.52863055864443,6.106602179795065,1.0210011005401611,-2.6010828653918665
1708442986.2321465,-2.139477252960205,-1.3334997457316895,-2.52863055864443,6.106675970345297,1.0210089683532715,-2.600109640751974
1708442986.2341094,-2.1394002437591553,-1.3335528683713456,-2.5286718050586146,6.106659638672628,1.020987868309021,-2.5991221109973353
1708442986.2361326,-2.1394240856170654,-1.3334954392961045,-2.528658692036764,6.106650936394491,1.0210374593734741,-2.598203722630636
1708442986.2381046,-2.139420986175537,-1.3334830862334748,-2.5286956469165247,6.106631505280294,1.0210211277008057,-2.597200934086935
1708442986.2401056,-2.1394331455230713,-1.3334756803563614,-2.5286999384509485,6.1066064713294885,1.0210615396499634,-2.596198622380392
1708442986.24211,-2.1394073963165283,-1.3335291308215638,-2.5286412874804896,6.106615173607626,1.021028757095337,-2.5952163378344935
1708442986.2441092,-2.1394073963165283,-1.3334593039802094,-2.528626028691427,6.106619584351339,1.021024227142334,-2.594292227421896
1708442986.2461126,-2.1394453048706055,-1.3334919524243851,-2.528674904500143,6.106688964157858,1.0210703611373901,-2.5932164827929896
1708442986.2481515,-2.139437675476074,-1.3334517937949677,-2.528707806264059,6.106640207558431,1.0210405588150024,-2.5922556559192103
1708442986.250122,-2.1393983364105225,-1.3334430170110245,-2.5286737124072474,6.106574761658468,1.0210734605789185,-2.591238562260763
1708442986.2521193,-2.139378786087036,-1.3334637445262452,-2.52871543565859,6.106623875885763,1.0210778713226318,-2.590285841618673
1708442986.2541082,-2.139411687850952,-1.3334800761989136,-2.528670612965719,6.106587040215292,1.0210978984832764,-2.5892258326159876
1708442986.2561178,-2.1394002437591553,-1.333451808696129,-2.52871543565859,6.106595742493429,1.0210601091384888,-2.5881922880755823
1708442986.2580953,-2.1394295692443848,-1.3334681403687973,-2.528719727193014,6.106598961144247,1.0211023092269897,-2.5872648398028772
1708442986.2601025,-2.1394002437591553,-1.3334650707295914,-2.5287275950061243,6.106612074166097,1.0210646390914917,-2.5862911383258265
1708442986.2621322,-2.139392375946045,-1.333459348683693,-2.5286737124072474,6.106628286629476,1.0211052894592285,-2.585308853779928
1708442986.2641194,-2.1394073963165283,-1.3334144067815323,-2.52871543565859,6.106640207558431,1.021121621131897,-2.5843589941607874
1708442986.2661238,-2.139383316040039,-1.333472655420639,-2.5287230650531214,6.106582748680868,1.021109700202942,-2.5834222475634974
1708442986.2681198,-2.139416217803955,-1.3334593784860154,-2.5286946932422083,6.106628286629476,1.021154522895813,-2.58250862756838
1708442986.270126,-2.139416217803955,-1.33345182359729,-2.5287187735186976,6.106607663422384,1.0211127996444702,-2.5815141836749476
1708442986.2721248,-2.139392375946045,-1.3334593337825318,-2.528759304677145,6.106684672623434,1.0211378335952759,-2.580557171498434
1708442986.2741034,-2.139455556869507,-1.3334681701711197,-2.5286977926837366,6.106643426209249,1.021121621131897,-2.5796025435077112
1708442986.2761078,-2.139409303665161,-1.3334473830512543,-2.52871543565859,6.106606590538778,1.0211697816848755,-2.5787068049060267
1708442986.2781103,-2.139392375946045,-1.3334667843631287,-2.52868897119631,6.106600153237142,1.0211172103881836,-2.5777562300311487
1708442986.2801054,-2.1393911838531494,-1.3335220229676743,-2.5286977926837366,6.106594669609823,1.021120309829712,-2.5768664518939417
1708442986.2821202,-2.139441967010498,-1.3334844571403046,-2.5287395159350794,6.106598961144247,1.0211488008499146,-2.5759852568255823
1708442986.2841184,-2.139425277709961,-1.3334712547114869,-2.5287066141711634,6.106619584351339,1.0211412906646729,-2.5750232378589075
1708442986.2862477,-2.1393463611602783,-1.3334964227727433,-2.5287306944476526,6.106640207558431,1.0211412906646729,-2.5741093794452112
1708442986.2881243,-2.1394002437591553,-1.333444060092308,-2.5287230650531214,6.106561767845907,1.0210996866226196,-2.57316762605776
1708442986.2901342,-2.139383316040039,-1.3334624630263825,-2.5287514368640345,6.106649029045858,1.0211488008499146,-2.5721965471850794
1708442986.2921185,-2.139404773712158,-1.3334756654552002,-2.5287306944476526,6.106598961144247,1.021165370941162,-2.571307961140768
1708442986.294113,-2.1394331455230713,-1.3334386211684723,-2.5287306944476526,6.106569516449728,1.0211697816848755,-2.5704031626330774
1708442986.296161,-2.1394057273864746,-1.3334800612977524,-2.5287678877459925,6.106616484909811,1.0211982727050781,-2.569526974354879
1708442986.298142,-2.1394002437591553,-1.3334667545608063,-2.5287349859820765,6.1066064713294885,1.0211609601974487,-2.568617645894186
1708442986.30011,-2.139392375946045,-1.3334593039802094,-2.5287187735186976,6.106610882073202,1.021181583404541,-2.5676584879504603
1708442986.3021464,-2.139409303665161,-1.3334964227727433,-2.5287635962115687,6.106582629471578,1.021186113357544,-2.5667734781848353
1708442986.3041465,-2.1393754482269287,-1.3334919822267075,-2.5287306944476526,6.106627094536581,1.0211445093154907,-2.565802876149313
1708442986.3061733,-2.139371156692505,-1.3335052889636536,-2.5286858717547815,6.106619584351339,1.0211281776428223,-2.5648589769946497
1708442986.3081353,-2.139404773712158,-1.3334800612977524,-2.5286815802203577,6.106646644860067,1.021186113357544,-2.5639269987689417
1708442986.310149,-2.139420747756958,-1.3334386211684723,-2.5287678877459925,6.1066510556037805,1.0211565494537354,-2.5630181471454065
1708442986.3121266,-2.139383316040039,-1.3334549528411408,-2.528693501149313,6.106704461365499,1.0211894512176514,-2.562080685292379
1708442986.3141227,-2.139413595199585,-1.333456279044487,-2.5287469069110315,6.1066791889961145,1.0211817026138306,-2.5611146132098597
1708442986.3161297,-2.139418125152588,-1.3334919673255463,-2.528733793889181,6.106642114907064,1.0211982727050781,-2.560160223637716
1708442986.318117,-2.139420747756958,-1.3334351790002366,-2.5287066141711634,6.106707680016317,1.021214485168457,-2.5593207518206995
1708442986.3201387,-2.139413595199585,-1.3335173738053818,-2.5287187735186976,6.106706368714132,1.0211368799209595,-2.5583577791797083
1708442986.3221262,-2.139404773712158,-1.333496407871582,-2.5287349859820765,6.106670367508688,1.021186113357544,-2.557403628026144
1708442986.3241236,-2.139409303665161,-1.3334844571403046,-2.5286977926837366,6.10669897773818,1.0211399793624878,-2.5563975016223353
1708442986.3261507,-2.139392375946045,-1.33347703636203,-2.528726402913229,6.106727349549093,1.0212101936340332,-2.555532519017355
1708442986.3281527,-2.1394002437591553,-1.3334563237479706,-2.5287798086749476,6.10675989368514,1.021153211593628,-2.5546234289752405
1708442986.33012,-2.139392375946045,-1.3334473830512543,-2.5287514368640345,6.106780278473654,1.0211697816848755,-2.5537341276751917
1708442986.3321126,-2.139416217803955,-1.3335246455720444,-2.5287187735186976,6.106816279679098,1.021169900894165,-2.5527642408954065
1708442986.334142,-2.139420747756958,-1.3334637445262452,-2.5287471453296106,6.106812107353964,1.0211291313171387,-2.551960293446676
1708442986.3361175,-2.139416217803955,-1.33349101365123,-2.5287306944476526,6.106843697815695,1.0211620330810547,-2.550992790852682
1708442986.3381696,-2.139366388320923,-1.33350424588237,-2.528738323842184,6.106801974564352,1.0211948156356812,-2.550143543873922
1708442986.3401468,-2.139392375946045,-1.333426372413971,-2.5287306944476526,6.106815206795492,1.021132469177246,-2.5492480436908167
1708442986.3421204,-2.1393868923187256,-1.3334712249091645,-2.5287306944476526,6.106854307442465,1.0211158990859985,-2.548377577458517
1708442986.344117,-2.1394498348236084,-1.3334963929704209,-2.5286815802203577,6.106838094979086,1.0211904048919678,-2.5474351088153284
1708442986.3461123,-2.1394152641296387,-1.3334756654552002,-2.5287469069110315,6.106886851578512,1.021153211593628,-2.546520535145895
1708442986.3481226,-2.139416217803955,-1.33348901689563,-2.5287230650531214,6.10689793804244,1.0211575031280518,-2.5457213560687464
1708442986.3501248,-2.1394331455230713,-1.3334430319121857,-2.5287349859820765,6.1069466946418665,1.021154522895813,-2.5448020140277308
1708442986.3521373,-2.139472723007202,-1.3334430021098633,-2.528709952031271,6.106995570450582,1.0211368799209595,-2.5439446608172815
1708442986.3541086,-2.1394569873809814,-1.3334593337825318,-2.5287187735186976,6.106929290085592,1.0211291313171387,-2.543029848729269
1708442986.3561122,-2.1393911838531494,-1.3334593337825318,-2.5287066141711634,6.107018458634176,1.0211291313171387,-2.542128626500265
1708442986.358116,-2.139465808868408,-1.3334637445262452,-2.5287349859820765,6.107027280121603,1.0210721492767334,-2.54124623933901
1708442986.3601034,-2.139432191848755,-1.3334681403687973,-2.5287349859820765,6.107082712441244,1.0211008787155151,-2.5403812567340296
1708442986.362116,-2.139486312866211,-1.3334787350944062,-2.5287349859820765,6.107103454857626,1.0211422443389893,-2.539467159901754
1708442986.3641415,-2.1394975185394287,-1.333500788812973,-2.5287557283984583,6.107074010163107,1.0210589170455933,-2.5385807196246546
1708442986.366117,-2.1394639015197754,-1.33345182359729,-2.5287275950061243,6.107151376992025,1.0210978984832764,-2.5376909414874476
1708442986.3681128,-2.13946270942688,-1.3334963929704209,-2.52871543565859,6.107109772949972,1.0210933685302734,-2.5367985407458704
1708442986.3701305,-2.1395020484924316,-1.3334743541530152,-2.5287395159350794,6.107178318291464,1.0210933685302734,-2.53591233888735
1708442986.3721583,-2.1395339965820312,-1.3334876012853165,-2.5287275950061243,6.107198107033529,1.0211228132247925,-2.5350363890277308
1708442986.3741338,-2.1395089626312256,-1.33346243322406,-2.5287230650531214,6.107233869820394,1.0210615396499634,-2.5340848604785364
1708442986.3761463,-2.1395089626312256,-1.3334919971278687,-2.5287144819842737,6.107220756798544,1.0210659503936768,-2.5331416765796106
1708442986.3781114,-2.1395339965820312,-1.3335042309812088,-2.5286694208728235,6.107262003212728,1.0210124254226685,-2.5322745482074183
1708442986.3801117,-2.1395046710968018,-1.3335157346776505,-2.5286858717547815,6.107260811119833,1.020991325378418,-2.5313311258899134
1708442986.3821423,-2.1395339965820312,-1.3334830862334748,-2.5287066141711634,6.107317554741659,1.0210168361663818,-2.530414406453268
1708442986.3841715,-2.139521598815918,-1.3334743839553376,-2.5286904017077845,6.1073012230689905,1.0210089683532715,-2.529517714177267
1708442986.3862138,-2.1395039558410645,-1.3334787648967286,-2.5287066141711634,6.107328164368429,1.0210177898406982,-2.528559748326437
1708442986.3881583,-2.1395161151885986,-1.33349101365123,-2.528698984776632,6.107406723290243,1.020992398262024,-2.5277236143695276
1708442986.3901403,-2.1395318508148193,-1.3335114282420655,-2.52871543565859,6.107381808548727,1.0209892988204956,-2.526752535496847
1708442986.3921378,-2.139554738998413,-1.3334788096002121,-2.528748099003927,6.1073598740394495,1.0209400653839111,-2.5258472601519983
1708442986.3941119,-2.1395504474639893,-1.33349101365123,-2.5286946932422083,6.107392418175497,1.020943522453308,-2.524917189274923
1708442986.3961465,-2.1395928859710693,-1.3334549528411408,-2.5286336580859583,6.107485997467794,1.0209321975708008,-2.523996416722433
1708442986.3981266,-2.1395795345306396,-1.3335202497294922,-2.528736178074972,6.107419359474935,1.0209323167800903,-2.5231123606311243
1708442986.4001427,-2.1396291255950928,-1.3334743988564988,-2.5286858717547815,6.1074761030967615,1.0209367275238037,-2.522234026585714
1708442986.4021542,-2.1395368576049805,-1.3334624630263825,-2.528710905705587,6.107525217324056,1.020917296409607,-2.5212510267840784
1708442986.4041076,-2.1396477222442627,-1.3335519892028351,-2.528682533894674,6.107602226525106,1.0209094285964966,-2.5204229990588587
1708442986.4061294,-2.139636278152466,-1.3335202497294922,-2.528698984776632,6.107515442162313,1.0208888053894043,-2.519419256840841
1708442986.408106,-2.1396477222442627,-1.3335607510856171,-2.528682533894674,6.1075771925743005,1.0208768844604492,-2.5185943285571497
1708442986.4101212,-2.1396644115448,-1.3335202497294922,-2.5286782423602503,6.107558476715841,1.0208858251571655,-2.5177064577685755
1708442986.4121213,-2.139638662338257,-1.3335233491710206,-2.528649870549337,6.107656585961141,1.0207945108413696,-2.5168498198138636
1708442986.4141111,-2.1396749019622803,-1.3335320812514802,-2.528670612965719,6.107652175217428,1.0208362340927124,-2.5159898439990442
1708442986.4161372,-2.139677047729492,-1.3334566217711945,-2.52865440050234,6.107695686608114,1.0208436250686646,-2.5150533358203333
1708442986.4181063,-2.1397042274475098,-1.3334756058505555,-2.528666321431295,6.107700097351827,1.0208156108856201,-2.5141761938678187
1708442986.420107,-2.1396918296813965,-1.3335233491710206,-2.528626028691427,6.107761251717367,1.0208569765090942,-2.5133231321917933
1708442986.4221497,-2.139686346054077,-1.3335189384273072,-2.528642241154806,6.1077849743659876,1.0208077430725098,-2.5124059359179896
1708442986.4240985,-2.1397573947906494,-1.333527759914734,-2.528691355382101,6.107760059624471,1.0208375453948975,-2.511514727269308
1708442986.4261084,-2.1396872997283936,-1.333539680843689,-2.528642479573385,6.107819902687826,1.0207880735397339,-2.510676447545187
1708442986.42811,-2.139760732650757,-1.3334830862334748,-2.528618637715475,6.107791411667623,1.0208090543746948,-2.509761158620016
1708442986.4301035,-2.1397182941436768,-1.3335277748158951,-2.528642479573385,6.107843744545736,1.0207805633544922,-2.508892838154928
1708442986.4321501,-2.139756441116333,-1.333559350376465,-2.528646771107809,6.107867824822225,1.0207639932632446,-2.507998530064718
1708442986.4341471,-2.139702320098877,-1.3335637611201783,-2.528614107762472,6.107859122544088,1.0207358598709106,-2.5070515314685267
1708442986.4361022,-2.1397721767425537,-1.3335056614926835,-2.528614346181051,6.107863414078512,1.0207195281982422,-2.506143633519308
1708442986.43814,-2.1397793292999268,-1.3335352700999756,-2.528588596974508,6.10789571979598,1.020769715309143,-2.505286757146017
1708442986.440119,-2.1397995948791504,-1.3335474294475098,-2.5285986105548304,6.107854831009664,1.0206831693649292,-2.504360024129049
1708442986.4421253,-2.1397430896759033,-1.3335056167891999,-2.5285943190204065,6.107915508538046,1.0207157135009766,-2.503458325062887
1708442986.4441214,-2.1397995948791504,-1.3335263592055817,-2.528590981160299,6.1079678414161584,1.0207489728927612,-2.5025370756732386
1708442986.4461026,-2.1398651599884033,-1.3335263592055817,-2.5286105314837855,6.1079633114631555,1.0207114219665527,-2.5016208330737513
1708442986.448157,-2.1397950649261475,-1.333538607960083,-2.5285585562335413,6.107947098999777,1.0207246541976929,-2.500714365636007
1708442986.4501119,-2.1398022174835205,-1.33357127130542,-2.528579060231344,6.10799919345931,1.0207202434539795,-2.499683205281393
1708442986.4521368,-2.139835834503174,-1.33357127130542,-2.5285378138171595,6.107978212624349,1.02073335647583,-2.4988325277911585
1708442986.454111,-2.1398766040802,-1.333563746219017,-2.5285421053515833,6.108027326851644,1.020642876625061,-2.497870747243063
1708442986.4561021,-2.139885663986206,-1.333538607960083,-2.528517786656515,6.1080840704734705,1.0206842422485352,-2.496911589299337
1708442986.4581316,-2.139888048171997,-1.3335834604552765,-2.528534237538473,6.108026134758749,1.0206929445266724,-2.4960063139544886
1708442986.4601145,-2.1398541927337646,-1.3335667860559006,-2.528579060231344,6.108001100807943,1.0206561088562012,-2.495073382054464
1708442986.4621568,-2.1398587226867676,-1.3335219484618683,-2.528538767491476,6.108034002571859,1.0206035375595093,-2.4941187540637415
1708442986.4641776,-2.139916181564331,-1.3335800927928467,-2.5285430590258997,6.108103740006246,1.02064847946167,-2.4931979815112513
1708442986.4661093,-2.139840841293335,-1.333625079398491,-2.52850586572756,6.10809491851882,1.0206693410873413,-2.4922309557544153
1708442986.4681756,-2.139899492263794,-1.3335549396327515,-2.528513495122091,6.108073222428121,1.0206035375595093,-2.4913676420794886
1708442986.4701157,-2.1398861408233643,-1.33361308396373,-2.528493944798605,6.108171927719869,1.0206328630447388,-2.4904003779040735
1708442986.472146,-2.139944314956665,-1.3335834306529541,-2.5284982363330286,6.108158933907308,1.0206003189086914,-2.4894705454455774
1708442986.4741077,-2.1399853229522705,-1.3335834306529541,-2.528517786656515,6.108117687493124,1.0206298828125,-2.4885664621936243
1708442986.476106,-2.1399471759796143,-1.3336276572993775,-2.528510395680563,6.1081533310706995,1.0205674171447754,-2.487690035496847
1708442986.4781218,-2.1399765014648438,-1.3335834306529541,-2.5285308996783655,6.108157741814413,1.0205806493759155,-2.486687723790304
1708442986.4801197,-2.139954090118408,-1.333596722488739,-2.5285308996783655,6.108170854836263,1.0205674171447754,-2.485772434865133
1708442986.4821346,-2.1399924755096436,-1.333508626823761,-2.528559748326437,6.10821412780837,1.0205806493759155,-2.4847946802722376
1708442986.4841378,-2.1400115489959717,-1.3335790199092408,-2.528497044240133,6.108170020371237,1.0205390453338623,-2.4839397112475794
1708442986.486214,-2.140019655227661,-1.333592341547348,-2.528559748326437,6.1082098362739465,1.020531177520752,-2.4829445520984095
1708442986.4881527,-2.1399834156036377,-1.3336116832545777,-2.52850586572756,6.108295070915975,1.0205104351043701,-2.4820638338672083
1708442986.4901,-2.1400115489959717,-1.3335756671479722,-2.5285354296313685,6.1082414267356775,1.0205355882644653,-2.4811585585223597
1708442986.4921157,-2.140023946762085,-1.333562360411026,-2.5285027662860315,6.108250248223104,1.0205280780792236,-2.4802492300616663
1708442986.4941046,-2.139965534210205,-1.3335430336049576,-2.5285146872149866,6.108299362450399,1.0204828977584839,-2.4793463389026087
1708442986.496129,-2.139974355697632,-1.3335879159024735,-2.528532091771261,6.1082743284995935,1.0205367803573608,-2.4784444014178675
1708442986.4981322,-2.140026569366455,-1.3335549545339127,-2.5285146872149866,6.108319151192465,1.020520567893982,-2.4774816671954554
1708442986.5001013,-2.140031099319458,-1.33357127130542,-2.5284865538226526,6.108281838684835,1.0205323696136475,-2.4765761534320276
1708442986.502124,-2.139981508255005,-1.333550439482071,-2.5285308996783655,6.108333813935079,1.0205249786376953,-2.475710693989889
1708442986.5041153,-2.1400105953216553,-1.3335997474244614,-2.5284908453570765,6.108310329705038,1.0205074548721313,-2.474785391484396
1708442986.5061345,-2.1400063037872314,-1.3336116832545777,-2.5284579435931605,6.108326303749838,1.0204999446868896,-2.473818604146139
1708442986.508145,-2.140096664428711,-1.3335460287383576,-2.5284908453570765,6.108338224678793,1.0204592943191528,-2.472914520894186
1708442986.5101285,-2.140030860900879,-1.3336409491351624,-2.528482977543966,6.1083295224006555,1.0205131769180298,-2.4720540682422083
1708442986.5121212,-2.140042543411255,-1.333592341547348,-2.528450314198629,6.108383047371664,1.0204755067825317,-2.4710679689990442
1708442986.5141306,-2.1400582790374756,-1.333616093998291,-2.5284908453570765,6.1083176014717,1.020435094833374,-2.4701548258410853
1708442986.516138,-2.140082359313965,-1.3335536283305665,-2.528487507496969,6.108337032585897,1.02046799659729,-2.469205443059103
1708442986.5181544,-2.140083074569702,-1.3335536283305665,-2.528487507496969,6.108384954720297,1.0204799175262451,-2.4683495203601282
1708442986.5201218,-2.1400742530822754,-1.33357127130542,-2.5284252802478235,6.108361232071676,1.0204873085021973,-2.467351738606588
1708442986.5221288,-2.140029191970825,-1.3336232614568253,-2.528450314198629,6.108374345093527,1.020447015762329,-2.4663987795459192
1708442986.5241363,-2.140038013458252,-1.333582119350769,-2.528450314198629,6.108402478485861,1.0204799175262451,-2.465424362813131
1708442986.5261366,-2.1400582790374756,-1.3336410087398072,-2.528458897267477,6.108402359276571,1.0204558372497559,-2.4644814173327845
1708442986.5281494,-2.1400742530822754,-1.3335953515819092,-2.528450314198629,6.108353602677145,1.0204395055770874,-2.4635494391070765
1708442986.530126,-2.1401124000549316,-1.3336116832545777,-2.528454605733053,6.108381736069479,1.020439624786377,-2.4625709692584437
1708442986.5321426,-2.140077829360962,-1.333590955739357,-2.528433863316671,6.108368623047628,1.0204768180847168,-2.461618725453512
1708442986.5341687,-2.1400911808013916,-1.3336276871016999,-2.528450314198629,6.108386146813192,1.02045476436615,-2.460705105458395
1708442986.5361462,-2.1400609016418457,-1.3335866195014496,-2.528418842946188,6.108347999840536,1.0204187631607056,-2.4597795645343226
1708442986.538143,-2.140105962753296,-1.3335702878287812,-2.528442684804098,6.10838936546401,1.020439624786377,-2.4588287512408655
1708442986.5401251,-2.140090227127075,-1.3335834306529541,-2.5284515062915247,6.108430969506063,1.0204602479934692,-2.4579456488238733
1708442986.5421252,-2.140094518661499,-1.333549128179886,-2.528410021458761,6.108417856484213,1.0204602479934692,-2.456984821950094
1708442986.5441191,-2.1400856971740723,-1.3336992424777527,-2.5284231344806116,6.108352410584249,1.0204558372497559,-2.4560983816729944
1708442986.5461164,-2.140134334564209,-1.3335702878287812,-2.5284515062915247,6.108430969506063,1.020439624786377,-2.4550753275500696
1708442986.5481799,-2.1401219367980957,-1.3336072576097031,-2.52846342722048,6.108349311142721,1.0204811096191406,-2.4542201201068323
1708442986.5501368,-2.1401307582855225,-1.3336311143687745,-2.528421942387716,6.10838936546401,1.0204188823699951,-2.4532600084887903
1708442986.5521271,-2.140138864517212,-1.333636538391449,-2.528438393269674,6.1084340689475916,1.0203901529312134,-2.4524014631854456
1708442986.5541139,-2.140138864517212,-1.333635614519455,-2.528414551411764,6.10835229137496,1.020403265953064,-2.451447073613302
1708442986.5561242,-2.140101671218872,-1.3335909408381958,-2.528430763875143,6.108380543976583,1.020457148551941,-2.4505792299853724
1708442986.5581214,-2.140097141265869,-1.3335909408381958,-2.528426472340719,6.108429658203878,1.0204439163208008,-2.4496095816241663
1708442986.5601034,-2.140129804611206,-1.333605633383133,-2.528405729924337,6.108397114067831,1.0204023122787476,-2.448716465626852
1708442986.562161,-2.140134334564209,-1.3335909408381958,-2.528410021458761,6.10838936546401,1.0204408168792725,-2.447779719029562
1708442986.5641308,-2.140110492706299,-1.3335984510234375,-2.528454605733053,6.108417856484213,1.020424246788025,-2.4468351046191614
1708442986.5661144,-2.140171766281128,-1.3336519461921235,-2.528454605733053,6.10843704917983,1.0204408168792725,-2.4459386507617396
1708442986.568114,-2.140129804611206,-1.3335549396327515,-2.528402630482809,6.108425366669454,1.020403265953064,-2.445016686116354
1708442986.570139,-2.140160083770752,-1.3336189550212403,-2.5284231344806116,6.108413445740499,1.0204452276229858,-2.444068495427267
1708442986.572155,-2.140160083770752,-1.333635614519455,-2.528421942387716,6.108364331513204,1.0204154253005981,-2.443162504826681
1708442986.5741398,-2.140129804611206,-1.3336276871016999,-2.528458897267477,6.108438479691305,1.0204558372497559,-2.442223135625021
1708442986.57613,-2.1401219367980957,-1.333635614519455,-2.5284350554095667,6.108413445740499,1.0203649997711182,-2.4412854353534144
1708442986.5781085,-2.1401174068450928,-1.3336276871016999,-2.528446976338522,6.108410346298971,1.0204689502716064,-2.440324846898214
1708442986.5801332,-2.140160083770752,-1.333647446041443,-2.528458897267477,6.10839723327712,1.020373821258545,-2.439294163380758
1708442986.58211,-2.140129804611206,-1.3336276871016999,-2.528405729924337,6.108417737274923,1.0204319953918457,-2.438382689152853
1708442986.5841188,-2.140158176422119,-1.33359848082576,-2.528426472340719,6.108364331513204,1.0204601287841797,-2.437470022832052
1708442986.5861545,-2.140125274658203,-1.3336430352977295,-2.528438393269674,6.108413445740499,1.0204277038574219,-2.436571184788839
1708442986.5882003,-2.140153646469116,-1.3336519461921235,-2.5284515062915247,6.108401524811544,1.0204482078552246,-2.435547415410177
1708442986.5901637,-2.140129804611206,-1.3336443465999146,-2.52840239206423,6.108413445740499,1.020464539527893,-2.4345865885363978
1708442986.5921485,-2.140134334564209,-1.3336232763579865,-2.5284515062915247,6.108401524811544,1.0204277038574219,-2.433694903050558
1708442986.5941234,-2.1400856971740723,-1.3336144548705597,-2.5284395853625696,6.108413445740499,1.020436406135559,-2.4327057043658655
1708442986.5961187,-2.140171766281128,-1.333635614519455,-2.5284395853625696,6.108368623047628,1.0204514265060425,-2.4318040052997034
1708442986.5981457,-2.140151262283325,-1.3335940402797242,-2.5284069220172327,6.108368623047628,1.0204439163208008,-2.4308388868915003
1708442986.6001363,-2.140155792236328,-1.3336189550212403,-2.5284395853625696,6.108364331513204,1.0204601287841797,-2.4299193064319056
1708442986.602122,-2.14011287689209,-1.3336144548705597,-2.5284395853625696,6.108397114067831,1.020406723022461,-2.428953234349386
1708442986.60411,-2.140160322189331,-1.333635614519455,-2.52846342722048,6.10838936546401,1.0204319953918457,-2.428079430256979
1708442986.6061482,-2.140092611312866,-1.333602951174118,-2.528402630482809,6.108422267227926,1.020452618598938,-2.4271274248706263
1708442986.608106,-2.140134334564209,-1.3336116832545777,-2.528393808995382,6.108422267227926,1.0204601287841797,-2.42621094385256
1708442986.6101222,-2.140171766281128,-1.333635614519455,-2.5284231344806116,6.108401524811544,1.020457148551941,-2.4253278414355677
1708442986.6121154,-2.140151262283325,-1.3335866195014496,-2.528430763875143,6.108373153000631,1.0204232931137085,-2.4243231455432337
1708442986.61412,-2.140171766281128,-1.333635614519455,-2.528414551411764,6.108361232071676,1.0204812288284302,-2.4234331289874476
1708442986.6161506,-2.140171766281128,-1.3336189550212403,-2.528414551411764,6.108349191933431,1.0204482078552246,-2.4225719610797327
1708442986.6181314,-2.140104055404663,-1.333635614519455,-2.5283849875079554,6.108369815140524,1.020439624786377,-2.4215813318835657
1708442986.6201406,-2.1400723457336426,-1.3335866195014496,-2.528402630482809,6.108323919564047,1.0204439163208008,-2.4207163492785853
1708442986.6221418,-2.140151262283325,-1.3336399358562012,-2.528410021458761,6.108386146813192,1.0204811096191406,-2.4198601881610315
1708442986.6241093,-2.140138864517212,-1.333602951174118,-2.5284557978259485,6.108323919564047,1.0204811096191406,-2.4189475218402308
1708442986.6262338,-2.140134334564209,-1.3336072725108643,-2.528430763875143,6.108410346298971,1.0204514265060425,-2.418058458958761
1708442986.6283438,-2.140134334564209,-1.3336056780866166,-2.5284176508532923,6.108336078911581,1.0204232931137085,-2.4171844164477747
1708442986.6301253,-2.140129804611206,-1.3336232763579865,-2.528454605733053,6.108358132630148,1.020464539527893,-2.4162870089160364
1708442986.6321466,-2.140151262283325,-1.3336562675288697,-2.5284395853625696,6.1083282110984705,1.0204768180847168,-2.4153292814837855
1708442986.6341188,-2.1401476860046387,-1.3336399507573624,-2.52846342722048,6.108344900399008,1.0204756259918213,-2.414441172276632
1708442986.6361418,-2.1401174068450928,-1.333617852335312,-2.528418842946188,6.108358847885885,1.020439624786377,-2.4135358969317835
1708442986.638127,-2.1401467323303223,-1.3336189550212403,-2.528430763875143,6.10828851440505,1.0204558372497559,-2.4126339594470423
1708442986.6401265,-2.140134334564209,-1.3336801093867798,-2.5284014383899134,6.108301627426901,1.020435094833374,-2.4117770830737513
1708442986.6421192,-2.1401219367980957,-1.3336311143687745,-2.528421942387716,6.1083305952842615,1.0204724073410034,-2.4108644167529505
1708442986.6441207,-2.1400856971740723,-1.333626703625061,-2.528479878102438,6.108281838684835,1.0204592943191528,-2.4099796454059046
1708442986.6461136,-2.1401431560516357,-1.3335613769343873,-2.528450314198629,6.108220803528585,1.0205130577087402,-2.4091039339648646
1708442986.64811,-2.140134334564209,-1.3337043535760422,-2.528458897267477,6.108205425530233,1.0204308032989502,-2.4081879297839563
1708442986.6501298,-2.1401431560516357,-1.3336253029159089,-2.528475586568014,6.1082098362739465,1.02046799659729,-2.407266680394308
1708442986.6521351,-2.1401195526123047,-1.333671287899353,-2.528471056615011,6.108193862229147,1.0204830169677734,-2.406400505696432
1708442986.654104,-2.1401476860046387,-1.3336923730424424,-2.528426472340719,6.108173119812765,1.0205174684524536,-2.4054752031909388
1708442986.656146,-2.1400821208953857,-1.3336144548705597,-2.52846342722048,6.10816656330184,1.0204756259918213,-2.4044862429248255
1708442986.6581273,-2.1401307582855225,-1.3336879473975678,-2.528438393269674,6.108138310700216,1.0205250978469849,-2.403552834187643
1708442986.660111,-2.1400811672210693,-1.3336549562266846,-2.528438393269674,6.108096706658163,1.0204830169677734,-2.4026005903827112
1708442986.6621144,-2.1401307582855225,-1.3336460453322907,-2.528487507496969,6.1080535528953455,1.0205204486846924,-2.401623551045553
1708442986.6641219,-2.140073299407959,-1.333659366970398,-2.52846342722048,6.108062135964193,1.0205204486846924,-2.4008029142962855
1708442986.666134,-2.1401238441467285,-1.3336430352977295,-2.528479878102438,6.1080665467079065,1.020547866821289,-2.399844471608297
1708442986.6681077,-2.1400539875030518,-1.3336460453322907,-2.5284414927112024,6.108050215035238,1.0205399990081787,-2.3989442030536097
1708442986.6701229,-2.1400468349456787,-1.3336790365031739,-2.528466765080587,6.107998001366415,1.0205771923065186,-2.398085657750265
1708442986.6721375,-2.1400468349456787,-1.3336953532746811,-2.528503958378927,6.107982623368063,1.0205565690994263,-2.3971477190600794
1708442986.674147,-2.140087842941284,-1.3336953532746811,-2.528438393269674,6.107921826630392,1.0205762386322021,-2.3962555567370813
1708442986.6761212,-2.140028953552246,-1.3337280315211792,-2.528433863316671,6.107959019928732,1.0205762386322021,-2.3953431288348597
