Eg3-git/Classifiers/Data Collection/u8/u8www5_ur3e_joint_states.csv
time,elbow_joint,shoulder_lift_joint,shoulder_pan_joint,wrist_1_joint,wrist_2_joint,wrist_3_joint
1708443434.8331509,-2.1432113647460938,-1.3348747056773682,-2.5299227873431605,6.11712812164382,1.0234001874923706,-2.6035736242877405
1708443434.8351233,-2.143178939819336,-1.33489082873378,-2.529905144368307,6.117144691735067,1.0233969688415527,-2.6035855452166956
1708443434.8371363,-2.143178939819336,-1.334899218087532,-2.5299630800830286,6.117099988251486,1.0234014987945557,-2.6035617033587855
1708443434.8391385,-2.143191337585449,-1.334887371664383,-2.529954258595602,6.1170832989509485,1.0234136581420898,-2.6035941282855433
1708443434.8411863,-2.143162250518799,-1.3348789078048249,-2.529958788548605,6.1170832989509485,1.0234181880950928,-2.603548828755514
1708443434.843126,-2.143178939819336,-1.334854395394661,-2.529893461857931,6.117111789971151,1.023410439491272,-2.6035736242877405
1708443434.8451273,-2.1431636810302734,-1.334862084393837,-2.5299914518939417,6.117158043175497,1.023405909538269,-2.6036136786090296
1708443434.8471227,-2.1431782245635986,-1.3348705035499115,-2.5299065748797815,6.11705373504714,1.0234014987945557,-2.6035283247577112
1708443434.8491302,-2.143162250518799,-1.3348466616920014,-2.5299676100360315,6.117095458298483,1.0234136581420898,-2.603560749684469
1708443434.8511376,-2.1431708335876465,-1.334850163464882,-2.529958788548605,6.117074358254232,1.0234136581420898,-2.6035855452166956
1708443434.8531287,-2.1431350708007812,-1.3348712635091324,-2.52990967432131,6.117095458298483,1.023410439491272,-2.60354453722109
1708443434.8551304,-2.1431379318237305,-1.3348669868758698,-2.529942337666647,6.117096531182089,1.0234092473983765,-2.60354453722109
1708443434.8571107,-2.1431379318237305,-1.3348183047822495,-2.5299184958087366,6.11706696727828,1.023425579071045,-2.6036060492144983
1708443434.859105,-2.1431708335876465,-1.3349272471717377,-2.529917303715841,6.1170832989509485,1.0233969688415527,-2.6035693327533167
1708443434.861106,-2.1431708335876465,-1.3348669868758698,-2.5299304167376917,6.11712812164382,1.0234887599945068,-2.6035736242877405
1708443434.8631277,-2.1431140899658203,-1.3348593425801774,-2.52990967432131,6.117075788765707,1.023405909538269,-2.603548828755514
1708443434.8651333,-2.1431593894958496,-1.3349111390164872,-2.529888931904928,6.11712812164382,1.0234136581420898,-2.603572670613424
1708443434.8671308,-2.143174648284912,-1.3348585826209565,-2.52990967432131,6.117059457093038,1.0234014987945557,-2.603581253682272
1708443434.8691263,-2.1431055068969727,-1.3348543655923386,-2.5299838224994105,6.117010462075033,1.0234390497207642,-2.603560749684469
1708443434.8711543,-2.1431097984313965,-1.3348950159600754,-2.5299392382251185,6.117092120438375,1.0233851671218872,-2.603560749684469
1708443434.873156,-2.143146514892578,-1.3349111390164872,-2.529897753392355,6.1170726893241785,1.0234299898147583,-2.6036017576800745
1708443434.875138,-2.143139362335205,-1.334918887620308,-2.5299065748797815,6.11706696727828,1.0234092473983765,-2.6035855452166956
1708443434.8771176,-2.143162250518799,-1.3348218363574524,-2.529938046132223,6.117013203888693,1.0234092473983765,-2.603556458150045
1708443434.8791382,-2.143122673034668,-1.3348543655923386,-2.529942337666647,6.117099988251486,1.0234225988388062,-2.603572670613424
1708443434.8811445,-2.143126964569092,-1.3349111390164872,-2.529926125203268,6.117055046349325,1.023393988609314,-2.6036179701434534
1708443434.88318,-2.143155097961426,-1.3348260682872315,-2.5299304167376917,6.117125022202291,1.023398518562317,-2.6035283247577112
1708443434.885145,-2.143143653869629,-1.3348831099322815,-2.5299347082721155,6.117059457093038,1.0233687162399292,-2.6035898367511194
1708443434.887119,-2.143199920654297,-1.3348789078048249,-2.5299349466906946,6.117055046349325,1.0233687162399292,-2.603593174611227
1708443434.8891404,-2.1430814266204834,-1.334899218087532,-2.5299139658557337,6.11708019950942,1.0233851671218872,-2.603565041218893
1708443434.8911602,-2.143118381500244,-1.3348382723382493,-2.52990967432131,6.117105233460226,1.0234181880950928,-2.603593174611227
1708443434.8931324,-2.143146514892578,-1.33485862732444,-2.529942337666647,6.117062437325277,1.0233553647994995,-2.603565041218893
1708443434.8951223,-2.1431307792663574,-1.334866316323616,-2.5299349466906946,6.11708019950942,1.0233687162399292,-2.603576962147848
1708443434.8971438,-2.143155097961426,-1.3349314492991944,-2.5299838224994105,6.117046224861898,1.0234136581420898,-2.603565041218893
1708443434.8991437,-2.143118381500244,-1.3349069070867081,-2.5299304167376917,6.117059457093038,1.0234225988388062,-2.6035683790790003
1708443434.9011502,-2.1431593894958496,-1.334793136720993,-2.529917303715841,6.1170387146766565,1.0234181880950928,-2.6036060492144983
1708443434.9031374,-2.143150806427002,-1.3348669868758698,-2.5299227873431605,6.117047536164083,1.0234299898147583,-2.603593174611227
1708443434.9051442,-2.1431221961975098,-1.334935725932457,-2.5299349466906946,6.117026436119833,1.0234390497207642,-2.603588883076803
1708443434.9071233,-2.143178939819336,-1.334850863819458,-2.5299466292010706,6.11709343174056,1.023405909538269,-2.6036136786090296
1708443434.90913,-2.143150806427002,-1.334826038484909,-2.5299349466906946,6.117059457093038,1.0233806371688843,-2.603556458150045
1708443434.9111478,-2.143122673034668,-1.3348466914943238,-2.5299304167376917,6.11706696727828,1.023393988609314,-2.603650156651632
1708443434.9132102,-2.143150806427002,-1.3348218363574524,-2.5299466292010706,6.1170726893241785,1.023410439491272,-2.6036255995379847
1708443434.9151616,-2.143155097961426,-1.3348340851119538,-2.52990967432131,6.117014872818746,1.0233806371688843,-2.6036255995379847
1708443434.9171586,-2.1431350708007812,-1.334854395394661,-2.5299304167376917,6.117019402771749,1.0233806371688843,-2.6036339441882532
1708443434.9191558,-2.1431593894958496,-1.3348669868758698,-2.529937807713644,6.11708019950942,1.023405909538269,-2.6036575476275843
1708443434.9211857,-2.1431312561035156,-1.334886596804001,-2.529926125203268,6.1169941304023645,1.0234014987945557,-2.6036813894854944
1708443434.9231417,-2.143155097961426,-1.334899218087532,-2.5299511591540735,6.117039668350973,1.0234136581420898,-2.6036813894854944
1708443434.9251645,-2.143122673034668,-1.334850863819458,-2.5299065748797815,6.117105233460226,1.0233805179595947,-2.6037426630603235
1708443434.9271195,-2.1431832313537598,-1.33489082873378,-2.5299349466906946,6.1170387146766565,1.0234390497207642,-2.6037426630603235
1708443434.9291148,-2.143155097961426,-1.3348627847484131,-2.5299392382251185,6.117010462075033,1.0234225988388062,-2.60366398492922
1708443434.9311545,-2.143150806427002,-1.334854395394661,-2.5299184958087366,6.117063867836752,1.023427128791809,-2.603668514882223
1708443434.9331467,-2.143139362335205,-1.3348705035499115,-2.529926125203268,6.117039668350973,1.0234136581420898,-2.603713337575094
1708443434.935138,-2.1431593894958496,-1.3348551404527207,-2.5299022833453577,6.117077100067892,1.0233474969863892,-2.603668514882223
1708443434.937133,-2.143097400665283,-1.3348747056773682,-2.529926125203268,6.117068397789755,1.023427128791809,-2.6036890188800257
1708443434.9391596,-2.1431312561035156,-1.3348387044719239,-2.5299318472491663,6.117026436119833,1.0234181880950928,-2.6037264505969446
1708443434.9412441,-2.143126964569092,-1.334906966691353,-2.529921595250265,6.11705635765151,1.023393988609314,-2.603717867528097
1708443434.9431314,-2.143143653869629,-1.3348217916539689,-2.529876772557394,6.117063867836752,1.0233986377716064,-2.603696409855978
1708443434.945162,-2.143139362335205,-1.3348705035499115,-2.5299349466906946,6.1170387146766565,1.0233687162399292,-2.603729550038473
1708443434.94713,-2.143118381500244,-1.3348382425359269,-2.5299139658557337,6.117035376816549,1.0233851671218872,-2.6037047545062464
1708443434.949155,-2.1431307792663574,-1.3348593574813385,-2.5299304167376917,6.11706696727828,1.0233430862426758,-2.6037164370166224
1708443434.9511628,-2.1431665420532227,-1.3348578673652192,-2.5299554506884974,6.117046224861898,1.023405909538269,-2.603680197392599
1708443434.9531538,-2.1432044506073,-1.3348593574813385,-2.52990967432131,6.117089020996847,1.0233851671218872,-2.6037164370166224
1708443434.9551597,-2.143118381500244,-1.334866316323616,-2.529942337666647,6.117014872818746,1.0233776569366455,-2.6037500540362757
1708443434.9571288,-2.1431350708007812,-1.3348747056773682,-2.5299349466906946,6.11704312542037,1.0233732461929321,-2.6037164370166224
1708443434.95914,-2.1431636810302734,-1.3348302108100434,-2.529876772557394,6.117060649185934,1.023352026939392,-2.6037545839892786
1708443434.9612255,-2.1431593894958496,-1.3348712784102936,-2.5299304167376917,6.117019402771749,1.0234136581420898,-2.603713337575094
1708443434.9631472,-2.1431682109832764,-1.3348424446633835,-2.5299184958087366,6.117068397789755,1.023427128791809,-2.603745762501852
1708443434.9651744,-2.143101692199707,-1.3348950457623978,-2.5299139658557337,6.117010462075033,1.0233806371688843,-2.603762451802389
1708443434.967161,-2.1431479454040527,-1.3348543655923386,-2.5299466292010706,6.1170846102531335,1.0233687162399292,-2.6036673227893274
1708443434.969147,-2.1431751251220703,-1.3348669868758698,-2.529905144368307,6.117016184120931,1.0233895778656006,-2.603717867528097
1708443434.9711566,-2.143143653869629,-1.3348585826209565,-2.5298855940448206,6.117108690529623,1.023410439491272,-2.6037583986865442
1708443434.9731414,-2.143143653869629,-1.3348551553538819,-2.5299139658557337,6.117087709694662,1.0233776569366455,-2.603737179433004
1708443434.9751697,-2.143146514892578,-1.3348705035499115,-2.5299466292010706,6.117071378021993,1.023393988609314,-2.603729550038473
1708443434.9771268,-2.143118381500244,-1.3348824244788666,-2.5299184958087366,6.11704312542037,1.0233687162399292,-2.6037583986865442
1708443434.9791381,-2.1431708335876465,-1.3348424446633835,-2.5299435297595423,6.117075788765707,1.0234227180480957,-2.603725258504049
1708443434.9811597,-2.143105983734131,-1.3348382723382493,-2.529921595250265,6.117010462075033,1.0233851671218872,-2.603745762501852
1708443434.9831321,-2.1431918144226074,-1.3348747056773682,-2.5299022833453577,6.117046224861898,1.0233687162399292,-2.6036792437182825
1708443434.98516,-2.1431350708007812,-1.3348747056773682,-2.5299349466906946,6.117072570114889,1.0233732461929321,-2.6037164370166224
1708443434.9871469,-2.143155097961426,-1.3348344129375,-2.529958788548605,6.11704312542037,1.0234136581420898,-2.6037495771991175
1708443434.9891222,-2.1431422233581543,-1.3348466616920014,-2.5299673716174524,6.117013203888693,1.0233776569366455,-2.6037703196154993
1708443434.9911237,-2.143143653869629,-1.3348796975663682,-2.529937807713644,6.117075788765707,1.0233986377716064,-2.603814427052633
1708443434.9931066,-2.143126964569092,-1.334906966691353,-2.52990967432131,6.117046224861898,1.0234014987945557,-2.603774611149923
1708443434.995162,-2.1431751251220703,-1.3348992478898545,-2.5298898855792444,6.116982209473409,1.0234227180480957,-2.6037820021258753
1708443434.997133,-2.1431350708007812,-1.3348267835429688,-2.529926125203268,6.116994249611654,1.0234030485153198,-2.6037614981280726
1708443434.9991212,-2.1431479454040527,-1.3348627847484131,-2.5299349466906946,6.117113101273336,1.0233851671218872,-2.603814188634054
1708443435.001134,-2.143139362335205,-1.3348217916539689,-2.529942337666647,6.117052066117086,1.0233474969863892,-2.603797260914938
1708443435.0031006,-2.143090009689331,-1.3348627847484131,-2.5298855940448206,6.1170281050498865,1.023393988609314,-2.603772226964132
1708443435.0051491,-2.1431636810302734,-1.3349035394242783,-2.5299511591540735,6.116986739426412,1.0234031677246094,-2.603788439427511
1708443435.0071435,-2.143122673034668,-1.3348585826209565,-2.5299273172961634,6.117071378021993,1.0234014987945557,-2.6038058439837855
1708443435.0091343,-2.143122673034668,-1.3348627847484131,-2.529948059712545,6.117063867836752,1.0233776569366455,-2.6037398020373743
1708443435.0111523,-2.1431593894958496,-1.3348669868758698,-2.529876772557394,6.11700605133132,1.023410439491272,-2.603797260914938
1708443435.0131376,-2.1432127952575684,-1.3348831248334427,-2.5299227873431605,6.117084729462423,1.023393988609314,-2.603858296071188
1708443435.0151107,-2.1431102752685547,-1.3348217916539689,-2.529881302510397,6.1170397875602625,1.0233776569366455,-2.603781048451559
1708443435.0171375,-2.1431140899658203,-1.3348382425359269,-2.5299139658557337,6.117026436119833,1.0233776569366455,-2.603842083607809
1708443435.0191267,-2.143155097961426,-1.3348712784102936,-2.5299349466906946,6.117026436119833,1.023393988609314,-2.603809658681051
1708443435.0211103,-2.143118381500244,-1.3348551553538819,-2.5299347082721155,6.11705635765151,1.023405909538269,-2.603830401097433
1708443435.0231237,-2.1431708335876465,-1.3348866266063233,-2.529942337666647,6.117059457093038,1.0233732461929321,-2.6037924925433558
1708443435.0251331,-2.143122673034668,-1.3348789078048249,-2.529897753392355,6.117026436119833,1.023405909538269,-2.603809658681051
1708443435.0271256,-2.1431751251220703,-1.3348466616920014,-2.5298901239978235,6.1169941304023645,1.0233687162399292,-2.603792730961935
1708443435.0291173,-2.143143653869629,-1.3348950457623978,-2.5299466292010706,6.117052066117086,1.0233851671218872,-2.6038454214679163
1708443435.0311167,-2.143155097961426,-1.334850863819458,-2.529942337666647,6.1170726893241785,1.0233986377716064,-2.603830401097433
1708443435.0331323,-2.143122673034668,-1.3348916184953232,-2.529926125203268,6.117089020996847,1.0233776569366455,-2.6038249174701136
1708443435.035112,-2.143139362335205,-1.334817574625351,-2.5298855940448206,6.117052066117086,1.0234136581420898,-2.6038292090045374
1708443435.0371263,-2.143139362335205,-1.3348302108100434,-2.52990967432131,6.117035376816549,1.023431658744812,-2.6038172880755823
1708443435.0391316,-2.143150806427002,-1.3348585826209565,-2.5299349466906946,6.1170387146766565,1.0233986377716064,-2.6038411299334925
1708443435.041187,-2.143105983734131,-1.3348866266063233,-2.5299719015704554,6.117077100067892,1.023414969444275,-2.603821579610006
1708443435.0431905,-2.143155097961426,-1.3348874163678666,-2.529926125203268,6.117063867836752,1.0233851671218872,-2.6037967840777796
1708443435.045132,-2.143146514892578,-1.3348950457623978,-2.529926125203268,6.117071378021993,1.0233895778656006,-2.6038335005389612
1708443435.047155,-2.143122673034668,-1.3348950457623978,-2.529954258595602,6.117125022202291,1.0234434604644775,-2.6038129965411585
1708443435.049123,-2.143150806427002,-1.3348831248334427,-2.5299392382251185,6.117030846863546,1.023393988609314,-2.60382587114443
1708443435.0511236,-2.143146514892578,-1.3348259937814255,-2.5299349466906946,6.117096531182089,1.023410439491272,-2.6037924925433558
1708443435.0531423,-2.143143653869629,-1.334883139734604,-2.5299554506884974,6.1170846102531335,1.0233776569366455,-2.603842083607809
1708443435.0551267,-2.143139362335205,-1.3348669868758698,-2.5299466292010706,6.1170387146766565,1.023393988609314,-2.60384971300234
1708443435.05716,-2.1431307792663574,-1.3348866266063233,-2.5299227873431605,6.117026555329122,1.0234014987945557,-2.6038454214679163
1708443435.0591593,-2.1430857181549072,-1.3348585826209565,-2.5299304167376917,6.117072570114889,1.0233609676361084,-2.6038454214679163
1708443435.0611374,-2.1431593894958496,-1.3349315089038392,-2.5299599806415003,6.1170105812843225,1.0233732461929321,-2.603861633931295
1708443435.0631213,-2.1431636810302734,-1.3348950457623978,-2.5299065748797815,6.117087709694662,1.023427128791809,-2.6038573423968714
1708443435.0651255,-2.143162250518799,-1.3348866266063233,-2.529914204274313,6.117063867836752,1.023356556892395,-2.60384971300234
1708443435.0671325,-2.143122673034668,-1.3348831248334427,-2.5299466292010706,6.117062556534567,1.0233776569366455,-2.6038530508624476
1708443435.0691442,-2.1431593894958496,-1.3348866266063233,-2.529942337666647,6.117062556534567,1.0233776569366455,-2.603832546864645
1708443435.0711298,-2.1431665420532227,-1.3348874163678666,-2.529905144368307,6.117125022202291,1.0234181880950928,-2.603877846394674
1708443435.0731418,-2.143162250518799,-1.334817574625351,-2.5299184958087366,6.117099988251486,1.0233821868896484,-2.603882137929098
1708443435.0751271,-2.1431312561035156,-1.334834025507309,-2.5299468676196497,6.117087709694662,1.0233895778656006,-2.6038530508624476
1708443435.0771952,-2.1431102752685547,-1.3348866266063233,-2.529888931904928,6.117074358254232,1.023410439491272,-2.6038573423968714
1708443435.0791643,-2.143162250518799,-1.3348302108100434,-2.5299184958087366,6.117058145790853,1.0233641862869263,-2.6038411299334925
1708443435.0811148,-2.1431307792663574,-1.3348259937814255,-2.5299511591540735,6.117075788765707,1.0233805179595947,-2.603894058858053
1708443435.0831387,-2.1431350708007812,-1.3348627847484131,-2.5299304167376917,6.117091047554769,1.0233895778656006,-2.6039066950427454
1708443435.0851278,-2.143155097961426,-1.3348217916539689,-2.5299349466906946,6.117062437325277,1.0234181880950928,-2.6038292090045374
1708443435.0871494,-2.1431312561035156,-1.3348302108100434,-2.5299022833453577,6.117072570114889,1.023410439491272,-2.6038735548602503
1708443435.0891237,-2.1431307792663574,-1.3348551553538819,-2.5298646132098597,6.117113101273336,1.023359775543213,-2.6038530508624476
1708443435.0911396,-2.143101692199707,-1.3348259937814255,-2.5299184958087366,6.1170846102531335,1.0234225988388062,-2.6038411299334925
1708443435.093128,-2.143073320388794,-1.3348340851119538,-2.5299139658557337,6.117087709694662,1.0233732461929321,-2.6038573423968714
1708443435.0951452,-2.1431479454040527,-1.33489082873378,-2.529954258595602,6.117087709694662,1.0233895778656006,-2.603844229375021
1708443435.0971293,-2.1431875228881836,-1.3348831248334427,-2.529914204274313,6.117087709694662,1.0234014987945557,-2.603861633931295
1708443435.0991576,-2.1431593894958496,-1.334826038484909,-2.52990967432131,6.117092120438375,1.0233776569366455,-2.6038530508624476
1708443435.101134,-2.1431479454040527,-1.334867001777031,-2.5299349466906946,6.11702989318923,1.0234103202819824,-2.6038573423968714
1708443435.1031215,-2.143155097961426,-1.3348824244788666,-2.52990967432131,6.117062556534567,1.0233851671218872,-2.603861633931295
1708443435.105127,-2.143139362335205,-1.3348747056773682,-2.5299349466906946,6.117092120438375,1.023393988609314,-2.6038368383990687
1708443435.1071377,-2.143150806427002,-1.3348339957049866,-2.529938046132223,6.117062556534567,1.023393988609314,-2.603812281285421
1708443435.1091332,-2.143105983734131,-1.3349077564528962,-2.5299349466906946,6.1170387146766565,1.023405909538269,-2.6038530508624476
1708443435.1111338,-2.1431350708007812,-1.3349077564528962,-2.529942337666647,6.117125022202291,1.023427128791809,-2.6038811842547815
1708443435.1131318,-2.143155097961426,-1.3348670166781922,-2.5299349466906946,6.117092120438375,1.023410439491272,-2.60384971300234
1708443435.1151164,-2.143146514892578,-1.334850863819458,-2.5299304167376917,6.117078768997946,1.0234014987945557,-2.603872601185934
1708443435.1171265,-2.1431307792663574,-1.3348950457623978,-2.5299184958087366,6.117046224861898,1.0233732461929321,-2.6038649717914026
1708443435.1191306,-2.143162250518799,-1.3349035394242783,-2.5298646132098597,6.117125022202291,1.023427128791809,-2.6038292090045374
1708443435.12116,-2.1430928707122803,-1.3349196773818512,-2.5299184958087366,6.11704312542037,1.023414969444275,-2.603856388722555
1708443435.1231186,-2.1431593894958496,-1.334862084393837,-2.529926125203268,6.117075788765707,1.0233564376831055,-2.603893820439474
1708443435.1251323,-2.1431875228881836,-1.3349272471717377,-2.5299111048327845,6.117095458298483,1.0234030485153198,-2.6038530508624476
1708443435.1271174,-2.1431140899658203,-1.3348669570735474,-2.5299676100360315,6.117046224861898,1.0233805179595947,-2.603828255330221
1708443435.129133,-2.1431665420532227,-1.33489082873378,-2.529876772557394,6.117087709694662,1.0233895778656006,-2.6038692633258265
1708443435.1311407,-2.143143653869629,-1.334850863819458,-2.5298810640918177,6.117120611458578,1.0233776569366455,-2.60392672220339
1708443435.1331213,-2.1431875228881836,-1.3348382127336045,-2.5299764315234583,6.117111789971151,1.0233851671218872,-2.603910509740011
1708443435.1351545,-2.143139362335205,-1.3348874163678666,-2.529897753392355,6.117074358254232,1.0233895778656006,-2.6038530508624476
1708443435.1371343,-2.1431140899658203,-1.334842936401703,-2.5299599806415003,6.117123710900106,1.0233912467956543,-2.6038735548602503
1708443435.1391408,-2.143143653869629,-1.3348585826209565,-2.5299511591540735,6.117062437325277,1.023339867591858,-2.6038649717914026
1708443435.1412175,-2.1431665420532227,-1.3348225814155121,-2.5299554506884974,6.117116319924154,1.0233654975891113,-2.6038978735553187
1708443435.1431568,-2.143150806427002,-1.3348662865212937,-2.5299139658557337,6.117095458298483,1.0233776569366455,-2.6038649717914026
1708443435.145172,-2.1431264877319336,-1.334854395394661,-2.5299511591540735,6.117102968483724,1.0234014987945557,-2.6038444677936
1708443435.1471317,-2.143146514892578,-1.334902749662735,-2.5299139658557337,6.117136943131246,1.0233969688415527,-2.6039097944842737
1708443435.1491497,-2.143150806427002,-1.3348669868758698,-2.5299273172961634,6.117091047554769,1.023405909538269,-2.6038978735553187
1708443435.1511705,-2.1431350708007812,-1.334935725932457,-2.529905382786886,6.1170328734214685,1.0234390497207642,-2.6038978735553187
1708443435.1531675,-2.1431708335876465,-1.3348874163678666,-2.5299392382251185,6.117077815323629,1.0233969688415527,-2.6039064566241663
1708443435.155136,-2.1431665420532227,-1.3348866266063233,-2.5299392382251185,6.117176997452535,1.0234225988388062,-2.603860680256979
1708443435.15712,-2.1431422233581543,-1.3348831248334427,-2.5299838224994105,6.117091047554769,1.0233895778656006,-2.603848997746603
1708443435.1591308,-2.143146514892578,-1.3348585975221177,-2.52990967432131,6.11715196350173,1.0234227180480957,-2.6038978735553187
1708443435.1611598,-2.1431307792663574,-1.3348424446633835,-2.5299349466906946,6.117127167969503,1.0233895778656006,-2.603872601185934
1708443435.1631227,-2.1431307792663574,-1.3348992478898545,-2.5299184958087366,6.11717580535964,1.0234346389770508,-2.6038854757892054
1708443435.165154,-2.1431097984313965,-1.3348267835429688,-2.5299392382251185,6.117180096894064,1.023405909538269,-2.6039021650897425
1708443435.1671765,-2.1431140899658203,-1.334850163464882,-2.5299630800830286,6.117220628052511,1.0233969688415527,-2.6038978735553187
1708443435.169149,-2.1431140899658203,-1.3348627847484131,-2.5299349466906946,6.117256629257955,1.0234346389770508,-2.60391074815859
1708443435.1711476,-2.143117904663086,-1.3348508340171357,-2.5299022833453577,6.1172183630760095,1.023425579071045,-2.6038811842547815
1708443435.1731343,-2.1431140899658203,-1.3348662865212937,-2.5298944155322474,6.117205965309896,1.0233880281448364,-2.6039021650897425
1708443435.1751738,-2.143178939819336,-1.3348302108100434,-2.5299304167376917,6.117227065354147,1.0233805179595947,-2.6038768927203577
1708443435.1771076,-2.1431708335876465,-1.3348950457623978,-2.5299184958087366,6.117194044380941,1.0233880281448364,-2.603860680256979
1708443435.1791248,-2.1431264877319336,-1.3348466765931626,-2.5299554506884974,6.117201673775472,1.0233805179595947,-2.6039257685290735
1708443435.1811242,-2.1430931091308594,-1.3348782074502488,-2.5299153963672083,6.117182242661276,1.0233969688415527,-2.60391074815859
1708443435.183109,-2.143155097961426,-1.3348866266063233,-2.5298944155322474,6.117250668793478,1.023383378982544,-2.6038444677936
1708443435.1851394,-2.1431708335876465,-1.3348302108100434,-2.52990967432131,6.117205965309896,1.0234346389770508,-2.6038768927203577
1708443435.187116,-2.143101692199707,-1.3348627847484131,-2.5299630800830286,6.117247926979818,1.023371696472168,-2.6039064566241663
1708443435.189151,-2.143155097961426,-1.3348754954389115,-2.5299227873431605,6.11723159530715,1.023409128189087,-2.6039140860186976
1708443435.1911986,-2.143157958984375,-1.334850863819458,-2.5299184958087366,6.11727129200057,1.0234136581420898,-2.603893820439474
1708443435.1931627,-2.1431875228881836,-1.3348950457623978,-2.529921595250265,6.117182242661276,1.023376226425171,-2.6038444677936
1708443435.1951456,-2.1431593894958496,-1.334887446170189,-2.529921595250265,6.117201792984762,1.023443579673767,-2.6038735548602503
1708443435.1971402,-2.1431307792663574,-1.3349196773818512,-2.5299304167376917,6.117301213532247,1.023425579071045,-2.603889290486471
1708443435.1991417,-2.1431350708007812,-1.3348387044719239,-2.529942337666647,6.117234694748678,1.0234092473983765,-2.603915039693014
1708443435.2011828,-2.143146514892578,-1.33489082873378,-2.529926125203268,6.11727129200057,1.0234092473983765,-2.603861633931295
1708443435.2031205,-2.1431708335876465,-1.3348992478898545,-2.529942337666647,6.11727129200057,1.0234419107437134,-2.6039109865771692
1708443435.2051468,-2.1431918144226074,-1.3348950755647202,-2.5299227873431605,6.117324936180868,1.0234589576721191,-2.603894058858053
1708443435.2071342,-2.143139362335205,-1.3348950457623978,-2.5299585501300257,6.117241847306051,1.0234708786010742,-2.6038454214679163
1708443435.209135,-2.1431379318237305,-1.3348824095777054,-2.5299184958087366,6.117252218514242,1.023425579071045,-2.6038249174701136
1708443435.2111306,-2.143150806427002,-1.334805653696396,-2.5299554506884974,6.117250668793478,1.0234211683273315,-2.603861633931295
1708443435.2131243,-2.143155097961426,-1.3349035394242783,-2.5299630800830286,6.117201673775472,1.0234375,-2.603861633931295
1708443435.2151425,-2.1431708335876465,-1.3348985475352784,-2.529897753392355,6.1172417280967615,1.0234419107437134,-2.6038454214679163
1708443435.217122,-2.1431665420532227,-1.3348866266063233,-2.529893461857931,6.117238986283102,1.0234419107437134,-2.6038454214679163
1708443435.2191145,-2.143174648284912,-1.3348705035499115,-2.529917303715841,6.117238986283102,1.0234454870224,-2.603821579610006
1708443435.2211215,-2.1431665420532227,-1.3348339957049866,-2.529876772557394,6.117267000466146,1.0234346389770508,-2.603760544453756
1708443435.2231467,-2.143143653869629,-1.3348705035499115,-2.529926125203268,6.1172757027442834,1.0234119892120361,-2.603792730961935
1708443435.2251465,-2.143155097961426,-1.3349035394242783,-2.5299304167376917,6.11723159530715,1.0234754085540771,-2.6037572065936487
1708443435.2271216,-2.1431350708007812,-1.3348866266063233,-2.5299022833453577,6.1172536490257166,1.0234328508377075,-2.603769127522604
1708443435.2291522,-2.1431665420532227,-1.3348466616920014,-2.5299184958087366,6.117295610695638,1.023425579071045,-2.603729550038473
1708443435.231167,-2.1431708335876465,-1.33489082873378,-2.52990967432131,6.11727927902297,1.023463487625122,-2.6037009398089808
1708443435.2331939,-2.1432044506073,-1.3348543655923386,-2.529954258595602,6.117234694748678,1.0234345197677612,-2.6036532560931605
1708443435.2351701,-2.1431660652160645,-1.3348950457623978,-2.5299792925464075,6.117230284004965,1.023425579071045,-2.603650156651632
1708443435.237134,-2.1431307792663574,-1.3348747056773682,-2.529958788548605,6.117243397026815,1.0234419107437134,-2.603600804005758
1708443435.2391324,-2.1430928707122803,-1.3348712784102936,-2.5299349466906946,6.117234694748678,1.0234047174453735,-2.603581253682272
1708443435.2411883,-2.143162250518799,-1.33489082873378,-2.529905144368307,6.117230284004965,1.0234454870224,-2.6035292784320276
1708443435.2431965,-2.1431350708007812,-1.3348916184953232,-2.5299227873431605,6.117205965309896,1.0234454870224,-2.6034870783435267
1708443435.2451522,-2.143139362335205,-1.3348382723382493,-2.5299349466906946,6.117205130844869,1.0234545469284058,-2.603508774434225
1708443435.2471342,-2.1431422233581543,-1.3348985475352784,-2.5299304167376917,6.117259371071615,1.0233956575393677,-2.6034236590014856
1708443435.2491546,-2.143162250518799,-1.3348950457623978,-2.5299468676196497,6.117280232697286,1.0235124826431274,-2.603384796773092
1708443435.2511165,-2.1431422233581543,-1.334850863819458,-2.52990967432131,6.11729787567214,1.0234047174453735,-2.603323523198263
1708443435.2531264,-2.143146514892578,-1.3348950308612366,-2.5299304167376917,6.117283689766683,1.0234498977661133,-2.603283945714132
1708443435.2551413,-2.143199920654297,-1.3348950457623978,-2.5299585501300257,6.117225754051962,1.0234917402267456,-2.6032195726977747
1708443435.2571218,-2.1431307792663574,-1.3348831248334427,-2.529897753392355,6.117225754051962,1.0233912467956543,-2.603185002003805
1708443435.2591279,-2.1431336402893066,-1.3348705035499115,-2.5299347082721155,6.117304193764486,1.0234662294387817,-2.6031163374530237
1708443435.2611465,-2.1431703567504883,-1.3348551553538819,-2.5299554506884974,6.117201673775472,1.0234545469284058,-2.603015724812643
1708443435.2631307,-2.1431751251220703,-1.3348747056773682,-2.529917303715841,6.117292392044821,1.0234618186950684,-2.602943483983175
1708443435.2651188,-2.1431665420532227,-1.3348789078048249,-2.5299630800830286,6.117169129639425,1.0234328508377075,-2.6029046217547815
1708443435.2671323,-2.143122673034668,-1.3348747056773682,-2.5299347082721155,6.1173205254371545,1.0234284400939941,-2.602741781865255
1708443435.2691388,-2.143139362335205,-1.3348628145507355,-2.5299304167376917,6.117227065354147,1.0234092473983765,-2.6026557127581995
1708443435.2711334,-2.1431097984313965,-1.3348992478898545,-2.529926125203268,6.117194044380941,1.0234328508377075,-2.6025829950915735
1708443435.2731295,-2.143157958984375,-1.3348298233798523,-2.5299719015704554,6.1172149060066126,1.0234075784683228,-2.6024516264544886
1708443435.2751527,-2.143199920654297,-1.3348217916539689,-2.529937807713644,6.117207395821371,1.0234454870224,-2.6023438612567347
1708443435.2771301,-2.1431264877319336,-1.3348217916539689,-2.5299227873431605,6.117219316750326,1.0234328508377075,-2.6022186915027063
1708443435.279141,-2.1431336402893066,-1.3348424446633835,-2.529921595250265,6.117223727494039,1.0234754085540771,-2.6020620504962366
1708443435.2811215,-2.1431307792663574,-1.3348424446633835,-2.52993351617922,6.11723159530715,1.0234001874923706,-2.6019087473498743
1708443435.2831225,-2.1431593894958496,-1.3348585826209565,-2.5299466292010706,6.11718105056838,1.0234419107437134,-2.601842228566305
1708443435.2851162,-2.1431665420532227,-1.3348950457623978,-2.5299349466906946,6.117207395821371,1.0234328508377075,-2.601607863103048
1708443435.287146,-2.143101453781128,-1.33489082873378,-2.529921595250265,6.117240297585287,1.0234754085540771,-2.601480547581808
1708443435.289131,-2.1431665420532227,-1.3348302853158494,-2.5299838224994105,6.117153751641073,1.0234509706497192,-2.6013532320605677
1708443435.2911203,-2.1431264877319336,-1.3348344129375,-2.5299111048327845,6.117191064148702,1.0234545469284058,-2.6011925379382532
1708443435.2931323,-2.143195629119873,-1.3348302108100434,-2.529926125203268,6.117150652199545,1.0234284400939941,-2.601025406514303
1708443435.295123,-2.1431307792663574,-1.33482180655513,-2.529893461857931,6.11718367317275,1.0234390497207642,-2.600818936024801
1708443435.2971256,-2.143162250518799,-1.3348874163678666,-2.5299022833453577,6.117159473686971,1.0234047174453735,-2.6006761232959192
1708443435.299129,-2.1431708335876465,-1.3348424446633835,-2.5299184958087366,6.117106067925253,1.0234211683273315,-2.6004634539233606
1708443435.3011253,-2.143150806427002,-1.3348627847484131,-2.529926125203268,6.11711477020339,1.0234092473983765,-2.6003201643573206
1708443435.3031654,-2.143150806427002,-1.3348382276347657,-2.52990967432131,6.117026436119833,1.023371696472168,-2.6001244227038782
1708443435.3051403,-2.1431312561035156,-1.3348789376071473,-2.5299184958087366,6.116997229843893,1.0233895778656006,-2.5998669306384485
1708443435.3071458,-2.143157958984375,-1.3348593425801774,-2.5299022833453577,6.11704574802474,1.0233687162399292,-2.5996184984790247
1708443435.3091402,-2.143139362335205,-1.3348302108100434,-2.5299304167376917,6.11697136142806,1.0233805179595947,-2.5994020144092005
1708443435.3111649,-2.1431307792663574,-1.3348585826209565,-2.529872242604391,6.1170294163520715,1.0233234167099,-2.599170748387472
1708443435.31314,-2.143139362335205,-1.3348551553538819,-2.5299184958087366,6.11697398403243,1.0233488082885742,-2.598933760319845
1708443435.3151429,-2.143105983734131,-1.3348746609738846,-2.5299022833453577,6.116939770966329,1.0233370065689087,-2.598693911229269
1708443435.3171828,-2.143150806427002,-1.3348874163678666,-2.5298777262317103,6.1169530031974695,1.0233086347579956,-2.5984538237201136
1708443435.319154,-2.1430814266204834,-1.3348099005273362,-2.529882256184713,6.116839754372396,1.0232588052749634,-2.598067108784811
1708443435.3211527,-2.143143653869629,-1.3347987991622468,-2.52989107767214,6.116896497994222,1.0232813358306885,-2.597924534474508
1708443435.323179,-2.1430857181549072,-1.3348873865655442,-2.529870335255758,6.116839754372396,1.0232572555541992,-2.5976038614856165
1708443435.3251472,-2.143105983734131,-1.3348627847484131,-2.529883686696188,6.11685739734725,1.023231863975525,-2.597294871007101
1708443435.3271344,-2.1431665420532227,-1.3349280816367646,-2.5298224131213587,6.116768228798666,1.0232739448547363,-2.596945349370138
1708443435.3291337,-2.143122673034668,-1.3348217916539689,-2.5298102537738245,6.116755950241842,1.023216724395752,-2.5966578165637415
1708443435.331131,-2.1431312561035156,-1.334855170255043,-2.5298224131213587,6.116682994156637,1.0231927633285522,-2.5963037649737757
1708443435.3331914,-2.1431140899658203,-1.3348593574813385,-2.5297940413104456,6.116712558060446,1.0232303142547607,-2.5959628264056605
1708443435.3351474,-2.1431524753570557,-1.3348259937814255,-2.529785219823019,6.116603719979086,1.0231808423995972,-2.5956271330462855
1708443435.337141,-2.143095016479492,-1.3348387044719239,-2.5298190752612513,6.11665295341567,1.0231988430023193,-2.595250670109884
1708443435.3391492,-2.1431190967559814,-1.3348344129375,-2.5297415892230433,6.116563308029928,1.0231432914733887,-2.594848696385519
1708443435.3411472,-2.143082618713379,-1.3348754954389115,-2.529807154332296,6.116588699608602,1.0231775045394897,-2.5944774786578577
1708443435.343194,-2.1430511474609375,-1.3348386746696015,-2.529771391545431,6.116512524872579,1.0230741500854492,-2.5940197149859827
1708443435.3451605,-2.143082618713379,-1.3348627847484131,-2.5297537485705774,6.116439807205953,1.0230847597122192,-2.5935214201556605
1708443435.347152,-2.1430840492248535,-1.334846631889679,-2.529705588017599,6.116473424225607,1.0230631828308105,-2.593069378529684
1708443435.3491313,-2.143019199371338,-1.3348225814155121,-2.529717508946554,6.116400587349691,1.0230439901351929,-2.592616383229391
1708443435.3511903,-2.143057107925415,-1.3348267835429688,-2.529717508946554,6.116397130280294,1.0229990482330322,-2.5921481291400355
1708443435.353156,-2.143068313598633,-1.3348301959088822,-2.5297308603869837,6.1163169024284265,1.023007869720459,-2.5916698614703577
1708443435.3551345,-2.1429872512817383,-1.3348190796426316,-2.5296860376941126,6.116322386055746,1.0229389667510986,-2.591234270726339
1708443435.3571339,-2.1429672241210938,-1.3347738248160859,-2.529677454625265,6.11626552322463,1.0229268074035645,-2.5907204786883753
1708443435.3591394,-2.142934799194336,-1.3348317009261628,-2.5297067801104944,6.116204726486959,1.022911548614502,-2.5901995340930384
1708443435.361161,-2.1429758071899414,-1.334803358917572,-2.5296950976001185,6.116161215096273,1.022907018661499,-2.5896621386157435
1708443435.363162,-2.142935276031494,-1.3347791296294709,-2.5296533743487757,6.116110431938925,1.0228829383850098,-2.589193646107809
1708443435.3651237,-2.142935276031494,-1.3346900206855317,-2.5296738783465784,6.11606119850234,1.0228846073150635,-2.5886130968676966
1708443435.3671527,-2.142928123474121,-1.3347396862557908,-2.529671017323629,6.116042840271749,1.0228817462921143,-2.5880711714373987
1708443435.3691475,-2.14288330078125,-1.3347473305514832,-2.529642407094137,6.1159788248832605,1.0228347778320312,-2.587447706853048
1708443435.3711536,-2.142911911010742,-1.3347684305957337,-2.529658619557516,6.115906703263082,1.0228618383407593,-2.5868473688708704
1708443435.373151,-2.142880439758301,-1.3346909594586869,-2.5296347776996058,6.1158907292182825,1.0228320360183716,-2.58626372018923
1708443435.3751628,-2.1428020000457764,-1.3347438883832474,-2.529625956212179,6.115863549500265,1.0227763652801514,-2.5856428782092493
1708443435.3771412,-2.1427907943725586,-1.3347155016711731,-2.5296512285815638,6.115806686669149,1.0227841138839722,-2.5849486033069056
1708443435.3791304,-2.142815113067627,-1.3346715581468125,-2.5296054522143763,6.115747082024374,1.0227718353271484,-2.5843070189105433
1708443435.3811388,-2.1427879333496094,-1.3346748364022751,-2.529597584401266,6.1157110808189294,1.0227718353271484,-2.5836249033557337
1708443435.3831608,-2.1427605152130127,-1.3346790832332154,-2.5295901934253138,6.11566041687087,1.0227195024490356,-2.583029333745138
1708443435.3851304,-2.1427805423736572,-1.3346551370671769,-2.5295901934253138,6.11555443981246,1.0226861238479614,-2.5823031107531946
1708443435.3871214,-2.1426916122436523,-1.3346025210670014,-2.5295866171466272,6.115506875305929,1.0226831436157227,-2.5816221872912806
1708443435.3891218,-2.142672061920166,-1.3345987361720582,-2.5295990149127405,6.115427481919088,1.0227012634277344,-2.5808597246753138
1708443435.391124,-2.1427125930786133,-1.3345826429179688,-2.5295615831958216,6.115494119911947,1.02267587184906,-2.580268685017721
1708443435.393122,-2.1426353454589844,-1.3346321743777771,-2.5295422712909144,6.115385281830587,1.0226308107376099,-2.5795541445361536
1708443435.395126,-2.1426315307617188,-1.3345910620740433,-2.5295661131488245,6.1152676222618005,1.02262282371521,-2.578902546559469
1708443435.3971243,-2.1426401138305664,-1.3345783662847062,-2.5295704046832483,6.115232932358541,1.022644281387329,-2.578085724507467
1708443435.3991323,-2.142587661743164,-1.3346152317574997,-2.529579226170675,6.115226852684774,1.0226155519485474,-2.5773289839373987
1708443435.4011562,-2.142591953277588,-1.3346199256232758,-2.5295777956592005,6.115125047951498,1.0225991010665894,-2.576550547276632
1708443435.4031343,-2.1425766944885254,-1.3346037727645417,-2.5295749346362513,6.115056741028585,1.0226155519485474,-2.575782124196188
1708443435.4051695,-2.1425204277038574,-1.334591106777527,-2.529546562825338,6.114980566292562,1.0225991010665894,-2.5750330130206507
1708443435.4071252,-2.1425728797912598,-1.3345792156508942,-2.5295749346362513,6.1149576781089685,1.0225541591644287,-2.5742855707751673
1708443435.4091454,-2.1424756050109863,-1.3345791858485718,-2.52953011194338,6.114848959236898,1.0225839614868164,-2.5734456221209925
1708443435.4111342,-2.1424999237060547,-1.3346080493978043,-2.52956730524172,6.114879834442892,1.0225435495376587,-2.572587553654806
1708443435.4131236,-2.14249324798584,-1.334558756356575,-2.529527012501852,6.114766585617819,1.022522211074829,-2.5717340151416224
1708443435.4151502,-2.142456531524658,-1.3345996749452134,-2.529539171849386,6.114657866745748,1.0225223302841187,-2.5709050337420862
1708443435.4171197,-2.142428398132324,-1.3345961582711716,-2.5294764677630823,6.114590036659994,1.0225598812103271,-2.570059601460592
1708443435.4191415,-2.1423799991607666,-1.334588350062706,-2.529505793248312,6.114521729737081,1.022514820098877,-2.569152895604269
1708443435.4211385,-2.142327070236206,-1.3345680248788376,-2.529534641896383,6.114454376488485,1.022526741027832,-2.568218771611349
1708443435.4231322,-2.1423444747924805,-1.3345031452229996,-2.5295422712909144,6.114415633469381,1.022535800933838,-2.5673747698413294
1708443435.4251366,-2.142340660095215,-1.334503100519516,-2.5294984022723597,6.11435233333663,1.0224940776824951,-2.5663943926440638
1708443435.4271276,-2.142326593399048,-1.334511549477913,-2.529505793248312,6.1142464754875085,1.022535800933838,-2.565486017857687
1708443435.4291139,-2.142301559448242,-1.3345154088786622,-2.5295313040362757,6.114228117256918,1.022547960281372,-2.5645363966571253
1708443435.431128,-2.1422367095947266,-1.3344912093928833,-2.5295146147357386,6.1141477701957605,1.0225402116775513,-2.5635502974139612
1708443435.4331212,-2.142171621322632,-1.3344513189843674,-2.5294984022723597,6.114064204483785,1.0225268602371216,-2.5625456015216272
1708443435.435124,-2.142164468765259,-1.334496335392334,-2.529522482548849,6.113992440491476,1.022547960281372,-2.561498228703634
1708443435.4371188,-2.1421256065368652,-1.33451962590728,-2.529489580784933,6.113917219429769,1.0225268602371216,-2.5604329744922083
1708443435.4391282,-2.142117500305176,-1.334540755753853,-2.5295401255237024,6.113754737168112,1.0225598812103271,-2.5594633261310022
1708443435.4411662,-2.1420488357543945,-1.33451663077388,-2.5294480959521692,6.11375771740035,1.0225194692611694,-2.5583518187152308
1708443435.4431925,-2.1420459747314453,-1.3345046800426026,-2.529505793248312,6.113654601364889,1.0225194692611694,-2.557347838078634
1708443435.4451725,-2.1419718265533447,-1.3345370304635544,-2.529505793248312,6.113552915840902,1.022531270980835,-2.5562308470355433
1708443435.4471502,-2.14201021194458,-1.3345089566758652,-2.529489580784933,6.113446461945333,1.0225194692611694,-2.555181090031759
1708443435.4491687,-2.141970634460449,-1.3344486516765137,-2.529539171849386,6.113412129669943,1.0225447416305542,-2.5540311972247522
1708443435.451148,-2.141904592514038,-1.3344479662230988,-2.5295234362231653,6.113290059357443,1.0225030183792114,-2.5529072920428675
1708443435.4531333,-2.141845703125,-1.334432230596878,-2.5295103232013147,6.113214838295736,1.022535800933838,-2.551767412816183
1708443435.4551497,-2.1418137550354004,-1.3344486963799973,-2.529505793248312,6.113126742630758,1.022557020187378,-2.5505974928485315
1708443435.4571242,-2.141782760620117,-1.3344244819930573,-2.529527012501852,6.1130114672477625,1.0225855112075806,-2.5494681040393274
1708443435.4591765,-2.1417579650878906,-1.3343426299146195,-2.529583517705099,6.112947571068563,1.022526741027832,-2.5483174959765833
1708443435.4611707,-2.1417031288146973,-1.33437995732341,-2.529539171849386,6.112856375962057,1.0225553512573242,-2.5471561590777796
1708443435.4631422,-2.141669750213623,-1.3344168973020096,-2.529546562825338,6.112711417465963,1.0225839614868164,-2.5460179487811487
1708443435.4651608,-2.1416289806365967,-1.3344372671893616,-2.529588047658102,6.112649905472555,1.0226260423660278,-2.54472524324526
1708443435.467128,-2.141557455062866,-1.334376500254013,-2.5295539538012903,6.1124950526054285,1.0225917100906372,-2.543553892766134
1708443435.4691381,-2.141493320465088,-1.3343884956887742,-2.5295496622668665,6.1124539254005334,1.0226362943649292,-2.5423172155963343
1708443435.471147,-2.1414453983306885,-1.3343614649823685,-2.5295777956592005,6.11234067657546,1.02266526222229,-2.541114632283346
1708443435.473149,-2.1414670944213867,-1.3343445372632523,-2.5295777956592005,6.112200248032369,1.0227012634277344,-2.5399039427386683
1708443435.475159,-2.1413631439208984,-1.3342752021602173,-2.5295901934253138,6.112122285157003,1.0226950645446777,-2.538661305104391
1708443435.477122,-2.1413068771362305,-1.334323988561966,-2.5296600500689905,6.1120266793067834,1.022752285003662,-2.537394110356466
1708443435.4791274,-2.141274929046631,-1.3343005788377305,-2.529696051274435,6.1119234440620325,1.0227763652801514,-2.5360568205462855
1708443435.4811563,-2.1411821842193604,-1.334304766064026,-2.529638115559713,6.111856448441305,1.0228139162063599,-2.53473931947817
1708443435.4831216,-2.1411054134368896,-1.3343043339303513,-2.5296784082995813,6.1117204306419275,1.0228245258331299,-2.5334373156176966
1708443435.4851418,-2.1410465240478516,-1.334324674015381,-2.5297113100634974,6.111600625305929,1.0228320360183716,-2.5320220629321497
1708443435.4871287,-2.1410322189331055,-1.3343289655498047,-2.5297098795520228,6.111438023834982,1.0229054689407349,-2.530619208012716
1708443435.4891677,-2.1409316062927246,-1.3342767518809815,-2.52975041071047,6.111364471703329,1.022937297821045,-2.5292001406299036
1708443435.4911401,-2.140911817550659,-1.334268332724907,-2.5297327677356165,6.111294138222494,1.022944688796997,-2.5278196970569056
1708443435.493164,-2.1408278942108154,-1.3342444908669968,-2.529790703450338,6.111104357033529,1.0230259895324707,-2.5264011065112513
1708443435.4951544,-2.1407268047332764,-1.3342613291791459,-2.5297940413104456,6.111025559693136,1.0230664014816284,-2.5249913374530237
1708443435.4971325,-2.1406922340393066,-1.3342367720654984,-2.5298014322863978,6.11097131946639,1.0231596231460571,-2.5235007444964808
1708443435.4991763,-2.1406195163726807,-1.3342087131789704,-2.52989107767214,6.110789286881246,1.0231668949127197,-2.5219700972186487
1708443435.5011444,-2.1404998302459717,-1.3341922026923676,-2.5298944155322474,6.110674011498251,1.023213505744934,-2.5204809347735804
1708443435.5031388,-2.1404807567596436,-1.3342171621373673,-2.5299139658557337,6.110543715744772,1.0233066082000732,-2.518946711217062
1708443435.5051692,-2.140399932861328,-1.3342290979674836,-2.5300126711474817,6.110457050591268,1.0233609676361084,-2.5173965136157435
1708443435.5071323,-2.140324592590332,-1.3341480803540726,-2.5299816767321985,6.110292660980978,1.023427128791809,-2.5159276167498987
1708443435.5091178,-2.140261173248291,-1.3341972839883347,-2.5300098101245325,6.110136019974508,1.0235651731491089,-2.5144484678851526
1708443435.5112183,-2.140213966369629,-1.3341726821712037,-2.530081812535421,6.1100042937095544,1.023624062538147,-2.512946430836813
1708443435.51314,-2.1400930881500244,-1.3341327023557206,-2.53011924425234,6.109833824425497,1.0236212015151978,-2.5114885012256067
1708443435.5151494,-2.1399853229522705,-1.3341896843961258,-2.5301390329944056,6.109735238343038,1.0237560272216797,-2.5099723974811
1708443435.5171347,-2.139963150024414,-1.3341043156436463,-2.530177895222799,6.109542357712545,1.0238494873046875,-2.508465353642599
1708443435.5191453,-2.1398212909698486,-1.3341453832438965,-2.5302422682391565,6.109407889633932,1.0238823890686035,-2.5069690386401575
1708443435.5211365,-2.139798164367676,-1.3341093522361298,-2.5302749315844935,6.109247791558065,1.0239877700805664,-2.505385224019186
1708443435.5231254,-2.1397228240966797,-1.3340967011502762,-2.530351702366964,6.109080183296957,1.024170994758606,-2.503779951726095
1708443435.525157,-2.139594316482544,-1.3340729039958497,-2.5303996245013636,6.1089175818260095,1.024225115776062,-2.5021820704089563
1708443435.527124,-2.1394824981689453,-1.3341580790332337,-2.5303848425494593,6.108738291054525,1.0243468284606934,-2.5005679766284388
1708443435.5292387,-2.1394264698028564,-1.3340605658343812,-2.5304506460772913,6.108602273255148,1.0244174003601074,-2.4988635222064417
1708443435.531122,-2.1392860412597656,-1.3340855252793808,-2.530592743550436,6.108355986862936,1.024513840675354,-2.4972148577319544
1708443435.5331419,-2.1392717361450195,-1.334064857368805,-2.5305796305285853,6.1082332012946985,1.0246461629867554,-2.4955418745623987
1708443435.5351381,-2.1392033100128174,-1.334089846616127,-2.530642573033468,6.108107316284933,1.024745225906372,-2.493908230458395
1708443435.5371351,-2.1390514373779297,-1.3340691191009064,-2.5307112375842493,6.107920634537496,1.0248820781707764,-2.4922264258014124
1708443435.5391452,-2.139019727706909,-1.334041104917862,-2.530738417302267,6.10772334316329,1.0250111818313599,-2.4904611746417444
1708443435.541133,-2.1389007568359375,-1.3341017675450821,-2.530801598225729,6.1075931666191,1.025114893913269,-2.488701883946554
1708443435.5431972,-2.1388211250305176,-1.3340452474406739,-2.530936304722921,6.107417928963461,1.0253041982650757,-2.4869425932513636
1708443435.5451741,-2.1387128829956055,-1.3340818893960495,-2.5309422651873987,6.107205974846639,1.0254528522491455,-2.4852376619922083
1708443435.547146,-2.1386208534240723,-1.3339847785285492,-2.5309937636004847,6.107046115189352,1.0255401134490967,-2.483607355748312
1708443435.5491526,-2.1384973526000977,-1.3340378564647217,-2.5310569445239466,6.1068787453468225,1.025710105895996,-2.48185903230776
1708443435.551122,-2.1384429931640625,-1.3340776425651093,-2.5311463514911097,6.106666552811422,1.025838017463684,-2.480138603840963
1708443435.5531797,-2.138343572616577,-1.334021345978119,-2.5312963167773646,6.106442439347067,1.0260028839111328,-2.4784374872790735
1708443435.5551288,-2.138173818588257,-1.3339847785285492,-2.531330649052755,6.106410491257467,1.0261337757110596,-2.47668701807131
1708443435.5571346,-2.1380741596221924,-1.3340537262013932,-2.531369988118307,6.1062025902564905,1.026278018951416,-2.474917713795797
1708443435.5591304,-2.1379339694976807,-1.334009514456131,-2.5314911047564905,6.105981933861532,1.0264508724212646,-2.4731102625476282
1708443435.561125,-2.137829542160034,-1.3340257120183487,-2.5316036383258265,6.105720984726705,1.0266445875167847,-2.471311394368307
1708443435.5631373,-2.1377103328704834,-1.333997593527176,-2.53168756166567,6.1055579064186,1.0267678499221802,-2.4694300333606165
1708443435.565132,-2.1375999450683594,-1.3340299737504502,-2.531775776539938,6.105363237648763,1.0269075632095337,-2.46759540239443
1708443435.5671313,-2.1374711990356445,-1.3340351444533844,-2.5318971315967005,6.1052013514335535,1.0270849466323853,-2.465691391621725
1708443435.5691466,-2.1373026371002197,-1.3339734387448807,-2.5319514910327356,6.104974257736959,1.0272490978240967,-2.463787857686178
1708443435.5711262,-2.1372363567352295,-1.3339856427958985,-2.5320802370654505,6.104775535851278,1.0274499654769897,-2.4618335405932825
1708443435.5731437,-2.137080430984497,-1.3339332056096573,-2.5321794191943567,6.10454689243392,1.0275882482528687,-2.459846798573629
1708443435.5751493,-2.136944532394409,-1.3339529943517228,-2.5323007742511194,6.10434781292037,1.0277974605560303,-2.4579158465014856
1708443435.577135,-2.136796236038208,-1.3339289140752335,-2.5323758761035364,6.104099976807394,1.027998685836792,-2.4558728376971644
1708443435.5791535,-2.136685848236084,-1.3339289140752335,-2.5324419180499476,6.103863942414083,1.0282273292541504,-2.4538803736316126
1708443435.581135,-2.1365811824798584,-1.333945946102478,-2.5325544516192835,6.103733646660604,1.0284103155136108,-2.451982323323385
1708443435.5831316,-2.1364665031433105,-1.3338811707547684,-2.5326700846301478,6.103519665985861,1.0286401510238647,-2.4500113169299524
1708443435.5851507,-2.1363182067871094,-1.3338522923043747,-2.5328033606158655,6.103246319084921,1.0287953615188599,-2.4480667749988
1708443435.587136,-2.1360976696014404,-1.3339588654092331,-2.5329650084124964,6.103080260544576,1.0290424823760986,-2.4461429754840296
1708443435.589148,-2.1359946727752686,-1.3339587909034272,-2.5330029169665735,6.10286973693923,1.0292264223098755,-2.4441421667682093
1708443435.5911403,-2.1359291076660156,-1.3339062494090577,-2.5331347624408167,6.102593171387472,1.0295078754425049,-2.4421308676349085
1708443435.593166,-2.1357271671295166,-1.3339019876769562,-2.5332918802844446,6.102476346283712,1.0297114849090576,-2.440103832875387
1708443435.5951412,-2.1356053352355957,-1.3338788163712998,-2.533391062413351,6.102183210640707,1.0299601554870605,-2.437922541295187
1708443435.5971515,-2.1354782581329346,-1.333873600964882,-2.5335679689990442,6.1019396660621545,1.0301605463027954,-2.4358421007739466
1708443435.599141,-2.1352765560150146,-1.3338812303594132,-2.533712927495138,6.101671206742086,1.030421495437622,-2.4337337652789515
1708443435.601178,-2.135178804397583,-1.3338941049626847,-2.5338407198535364,6.1015028832252405,1.0306620597839355,-2.4315622488604944
1708443435.6031399,-2.1350224018096924,-1.3338821840337296,-2.533963743840353,6.101259338646688,1.0308905839920044,-2.4294243494616907
1708443435.605166,-2.1348581314086914,-1.3338735413602372,-2.5341196695910853,6.100926387100973,1.0311427116394043,-2.4271658102618616
1708443435.6071403,-2.134661912918091,-1.3338291209987183,-2.5342682043658655,6.100707995682516,1.031383752822876,-2.425037209187643
1708443435.609143,-2.1345345973968506,-1.3338183623603364,-2.5344210306750696,6.100428688317098,1.0316566228866577,-2.422727648411886
1708443435.6111426,-2.1343555450439453,-1.3338949543288727,-2.5345800558673304,6.100201713829794,1.0319290161132812,-2.420556370412008
1708443435.61315,-2.1342155933380127,-1.3339148473790665,-2.534735981618063,6.09992943981246,1.0322214365005493,-2.4184182325946253
1708443435.6151445,-2.134100914001465,-1.3338583272746583,-2.534896437321798,6.099714147835531,1.0324575901031494,-2.4162052313434046
1708443435.617135,-2.13387131690979,-1.333906815653183,-2.5350809733020228,6.099419581681051,1.0327259302139282,-2.4139559904681605
1708443435.6191382,-2.133739948272705,-1.3338214319995423,-2.535241190587179,6.099208938866415,1.0329310894012451,-2.4118486086474817
1708443435.6211648,-2.133577346801758,-1.3338375997594376,-2.5353999773608606,6.0988995907600305,1.033252239227295,-2.409656826649801
1708443435.6231327,-2.1334054470062256,-1.3338821691325684,-2.5355024973498743,6.098736154824056,1.0335577726364136,-2.4074423948871058
1708443435.6251342,-2.1332385540008545,-1.3338540953448792,-2.5357001463519495,6.0984641192253015,1.033846139907837,-2.4051204363452356
1708443435.627128,-2.1330621242523193,-1.3338668954423447,-2.5358591715442103,6.098176109581747,1.0341747999191284,-2.4027345816241663
1708443435.629146,-2.1328775882720947,-1.3339310598424454,-2.536027256642477,6.097879755287924,1.034492015838623,-2.400381867085592
1708443435.6311653,-2.1326797008514404,-1.3338821691325684,-2.536224905644552,6.097603904991903,1.0347594022750854,-2.3979669252978724
1708443435.6331484,-2.1325223445892334,-1.3338498187116166,-2.5363436380969446,6.097383487015524,1.035133719444275,-2.395621363316671
1708443435.6351748,-2.1323492527008057,-1.3338098388961335,-2.536548678074972,6.097132193833151,1.0354056358337402,-2.3932295481311243
1708443435.6371312,-2.1321771144866943,-1.3338702482036133,-2.536642376576559,6.096844064980306,1.0357352495193481,-2.3908138910876673
1708443435.639119,-2.1319808959960938,-1.3338583421758194,-2.536786142979757,6.096622693329611,1.0360641479492188,-2.3885446230517786
1708443435.6411674,-2.13181734085083,-1.333833323126175,-2.5369988123523157,6.096260058670797,1.0363556146621704,-2.386230532323019
1708443435.6431909,-2.131612777709961,-1.3338702482036133,-2.5371952692614954,6.096091854363241,1.036672830581665,-2.3839712778674524
1708443435.645198,-2.1314377784729004,-1.3338583272746583,-2.537326161061422,6.095800626068868,1.0369809865951538,-2.381639544163839
1708443435.647171,-2.131258726119995,-1.3338821691325684,-2.5375235716449183,6.095458733826437,1.0373225212097168,-2.379397217427389
1708443435.649151,-2.131054401397705,-1.3339068305543442,-2.5377114454852503,6.095249283104696,1.0376561880111694,-2.376956049595968
1708443435.651147,-2.1308507919311523,-1.3338574332049866,-2.537858311329977,6.09498296955184,1.0379791259765625,-2.3745372931109827
1708443435.6531656,-2.130711793899536,-1.3338907223990937,-2.5380919615374964,6.09468828418807,1.038307785987854,-2.372108761464254
1708443435.655136,-2.1304965019226074,-1.3339148473790665,-2.538250986729757,6.094449150353231,1.0386074781417847,-2.3697131315814417
1708443435.6571438,-2.1303248405456543,-1.3338984113982697,-2.538463894520895,6.094198214798727,1.0389662981033325,-2.3672664801227015
1708443435.6591218,-2.130162239074707,-1.33393947899852,-2.5385735670672815,6.093906628876486,1.0392972230911255,-2.3648274580584925
1708443435.6611798,-2.1299214363098145,-1.3339233857444306,-2.538802687321798,6.093591320305624,1.0396428108215332,-2.362373654042379
1708443435.6631434,-2.1297903060913086,-1.3339148473790665,-2.5390198866473597,6.09334026554183,1.0399792194366455,-2.359839979802267
1708443435.665156,-2.1295998096466064,-1.3338412207416077,-2.539145056401388,6.093040096550741,1.0403733253479004,-2.357384745274679
1708443435.6671455,-2.1294193267822266,-1.3338744950345536,-2.5393667856799524,6.092814075737753,1.040696382522583,-2.3549280802356165
1708443435.6691363,-2.1292145252227783,-1.3338864308646698,-2.539575163518087,6.092534529953756,1.0410706996917725,-2.3525200525866907
1708443435.6711605,-2.129002809524536,-1.3338854920915146,-2.5398150126086634,6.092251765518942,1.0414434671401978,-2.3500645796405237
1708443435.6731575,-2.1288490295410156,-1.3338983666947861,-2.5399919191943567,6.091989028244772,1.041817545890808,-2.347675148640768
1708443435.6751602,-2.1286730766296387,-1.3338779223016282,-2.540149513875143,6.0917348740394495,1.0421496629714966,-2.345279041920797
1708443435.6771452,-2.1284897327423096,-1.3339054000428696,-2.5404203573810022,6.091492283135214,1.04246985912323,-2.3428195158587855
1708443435.6791582,-2.1283514499664307,-1.3338935685208817,-2.5405293146716517,6.0912606594856165,1.0428352355957031,-2.340268913899557
1708443435.681197,-2.1281678676605225,-1.3338650625995179,-2.540774647389547,6.091013777046957,1.0432199239730835,-2.337738100682394
1708443435.683155,-2.1279549598693848,-1.3338941049626847,-2.5409873167621058,6.090709316521444,1.0436087846755981,-2.3351994196521204
1708443435.6851625,-2.1277847290039062,-1.3339871329120179,-2.5411258379565638,6.090470301895895,1.043998122215271,-2.3325822989093226
1708443435.6871426,-2.1275839805603027,-1.3338693094304581,-2.5413909594165247,6.0902607319648645,1.044378638267517,-2.3300281206714075
1708443435.6891496,-2.127401113510132,-1.3339630526355286,-2.5415292421924036,6.08996461608962,1.0447379350662231,-2.3274999300586146
1708443435.6911721,-2.1271791458129883,-1.3339138639024277,-2.54175836244692,6.089755284577169,1.0451105833053589,-2.325061861668722
1708443435.6931536,-2.126995801925659,-1.3339786690524598,-2.542023483906881,6.089498507767477,1.045499563217163,-2.3225579897509974
1708443435.695177,-2.1267971992492676,-1.3339819473079224,-2.542178455983297,6.089162575989523,1.0458306074142456,-2.3201139608966272
1708443435.6971285,-2.126605272293091,-1.333974452023842,-2.54240328470339,6.088939654618063,1.0462572574615479,-2.317538563405172
1708443435.699134,-2.1264419555664062,-1.3339734387448807,-2.542614761983053,6.088704812317648,1.0465967655181885,-2.3149896303759974
1708443435.7011476,-2.1262600421905518,-1.3339899492314835,-2.542764965687887,6.088438260346212,1.0469695329666138,-2.312450949345724
1708443435.7031326,-2.1260311603546143,-1.3340094995549698,-2.54298979440798,6.088158118515768,1.0473660230636597,-2.309770170842306
1708443435.7051296,-2.125856399536133,-1.334069849257805,-2.5432100931750696,6.087915527611532,1.0477238893508911,-2.307124678288595
1708443435.707137,-2.1256637573242188,-1.3340337139419098,-2.543433729802267,6.087683903961935,1.04812490940094,-2.304476801549093
1708443435.7091334,-2.1254844665527344,-1.334049553876259,-2.5436134974109095,6.087432491570272,1.0485339164733887,-2.3018339315997522
1708443435.7111428,-2.125293731689453,-1.3340411198190232,-2.5438175837146204,6.087276685028829,1.0488824844360352,-2.299246851597921
1708443435.7131462,-2.125105619430542,-1.3341016632369538,-2.5440543333636683,6.086970793991842,1.0492464303970337,-2.296581808720724
1708443435.7151508,-2.1248974800109863,-1.334052951341011,-2.5442581812488,6.086690294533529,1.0496399402618408,-2.29399544397463
1708443435.7171328,-2.124753952026367,-1.3341059845737,-2.54453951517214,6.086496937065878,1.0500518083572388,-2.2914229075061243
1708443435.7191732,-2.124542474746704,-1.3341292601874848,-2.5447095076190394,6.0862536309059045,1.0505071878433228,-2.2888322512256067
1708443435.7211637,-2.124359369277954,-1.3341453832438965,-2.544983688985006,6.086070763855734,1.0509052276611328,-2.286280695592062
1708443435.723153,-2.1241683959960938,-1.3341377538493653,-2.5451207796679896,6.085765111237325,1.0513365268707275,-2.28374153772463
1708443435.7251961,-2.124054431915283,-1.3341735166362305,-2.5453410784350794,6.0856655714805505,1.0517199039459229,-2.281158749257223
1708443435.7271361,-2.1238529682159424,-1.334217147236206,-2.5455732981311243,6.085404145508566,1.0520747900009155,-2.2785289923297327
1708443435.729175,-2.1236412525177,-1.3341930520585557,-2.5457730929004114,6.085153329163351,1.0525346994400024,-2.2759063879596155
1708443435.7311573,-2.123474359512329,-1.3342248809388657,-2.5460293928729456,6.084982621460714,1.0529346466064453,-2.273268524800436
1708443435.7331393,-2.1233062744140625,-1.3342613291791459,-2.5461962858783167,6.084812032967367,1.053371787071228,-2.27049428621401
1708443435.7351656,-2.123093605041504,-1.3342767518809815,-2.546486202870504,6.084544527321615,1.053776502609253,-2.2677977720843714
1708443435.737147,-2.122955322265625,-1.3342683178237458,-2.546722952519552,6.084365236550131,1.0541925430297852,-2.26512319246401
1708443435.739135,-2.122739553451538,-1.3343657565167923,-2.5469182173358362,6.084091770439901,1.0546146631240845,-2.262547318135397
1708443435.7411532,-2.1226444244384766,-1.334345058803894,-2.5471461454974573,6.083947765618124,1.0549827814102173,-2.259847942982809
1708443435.743181,-2.1223948001861572,-1.3343935024789353,-2.5473411718951624,6.083719241410055,1.0553871393203735,-2.2573450247394007
1708443435.7452116,-2.1222493648529053,-1.334376485352852,-2.5475617090808313,6.0835115788276575,1.0557842254638672,-2.2548087278949183
1708443435.7471416,-2.1221418380737305,-1.334404156809189,-2.5477688948260706,6.083312856941976,1.0561431646347046,-2.2522833983050745
1708443435.7491267,-2.121932029724121,-1.3344697815230866,-2.5479565302478235,6.083146798401632,1.056549072265625,-2.2497389952289026
1708443435.7511554,-2.1218643188476562,-1.334432215695717,-2.548234764729635,6.082969057350912,1.0568674802780151,-2.247078243886129
1708443435.7531402,-2.121638536453247,-1.334394947891571,-2.5483763853656214,6.0827791569526575,1.0572808980941772,-2.244448963795797
1708443435.7551775,-2.1215226650238037,-1.3344640743783494,-2.5485716501819056,6.082606899529257,1.057653784751892,-2.241843048726217
1708443435.757145,-2.1213302612304688,-1.3344963651946564,-2.5487800280200403,6.0824681399162195,1.0580546855926514,-2.2391889731036585
1708443435.759126,-2.1211538314819336,-1.3345285666039963,-2.5490406195269983,6.082280742913046,1.0584651231765747,-2.2365081946002405
1708443435.7611732,-2.1209702491760254,-1.334564597611763,-2.549310270939962,6.08210169056014,1.0588289499282837,-2.2338698546039026
1708443435.763163,-2.1209046840667725,-1.3345154237798234,-2.54942757288088,6.0819222805793665,1.059181809425354,-2.231332604085104
1708443435.7651553,-2.1207330226898193,-1.3346121919206162,-2.549619499837057,6.081741678505697,1.0596283674240112,-2.2288129965411585
1708443435.767138,-2.120576858520508,-1.3346283298781891,-2.5498068968402308,6.081623303681173,1.059942603111267,-2.226344410573141
1708443435.7691383,-2.1204280853271484,-1.3346364212087174,-2.5500898996936243,6.081485378533163,1.0603572130203247,-2.2238410154925745
1708443435.771128,-2.120309829711914,-1.3345868301442643,-2.55026084581484,6.081263053208151,1.060692310333252,-2.2213929335223597
1708443435.7731547,-2.120150089263916,-1.3346758645823975,-2.5504396597491663,6.081177699356832,1.0610771179199219,-2.2188738028155726
1708443435.7751539,-2.120029926300049,-1.3346958768418808,-2.550673309956686,6.081001508026876,1.061458945274353,-2.216286007558004
1708443435.7771554,-2.1199522018432617,-1.334719644193985,-2.55083138147463,6.080853569298544,1.061806082725525,-2.2136829535113733
1708443435.7791429,-2.1197516918182373,-1.334690974359848,-2.5510767141925257,6.080717432289877,1.062171220779419,-2.2111476103412073
1708443435.7811499,-2.119624137878418,-1.3347346049598237,-2.5512808004962366,6.080615508347311,1.062574028968811,-2.2085426489459437
1708443435.783145,-2.119488477706909,-1.3347388070872803,-2.5514147917376917,6.080521213799276,1.062888264656067,-2.2059958616839808
1708443435.7851603,-2.119324207305908,-1.3347473007491608,-2.5516439119922083,6.080360400467672,1.0632606744766235,-2.2034829298602503
1708443435.7871447,-2.11915922164917,-1.3347671639970322,-2.551856342946188,6.080273616104879,1.0636261701583862,-2.200941864644186
1708443435.7891562,-2.119065284729004,-1.3348317009261628,-2.5519402662860315,6.0801076767738245,1.064015507698059,-2.1985157171832483
1708443435.791141,-2.1189522743225098,-1.3348064732602616,-2.5522154013263147,6.080062377243795,1.0643430948257446,-2.195982281361715
1708443435.7931354,-2.1188418865203857,-1.3348551553538819,-2.5524118582354944,6.079897153168478,1.0646871328353882,-2.193564240132467
1708443435.7951386,-2.1186704635620117,-1.3349514615586777,-2.5526321570025843,6.079854595452108,1.0651021003723145,-2.1911380926715296
1708443435.7971456,-2.1185786724090576,-1.3348985475352784,-2.552786652241842,6.079684841423788,1.0654008388519287,-2.1886561552630823
1708443435.7991354,-2.1184802055358887,-1.3348858666471024,-2.5529962221728724,6.079630362778463,1.0657615661621094,-2.1861518065081995
1708443435.8011272,-2.118311643600464,-1.3349753034165879,-2.5531585852252405,6.079506623535909,1.0660983324050903,-2.183669392262594
1708443435.8031282,-2.118229389190674,-1.3349656623652955,-2.553342644368307,6.079492914467611,1.0664678812026978,-2.1812503973590296
1708443435.8051326,-2.1180598735809326,-1.3350018721869965,-2.5535674730883997,6.079408991127767,1.066754937171936,-2.1787784735309046
1708443435.8071504,-2.117971658706665,-1.335050569181778,-2.553739372883932,6.079316484719076,1.0671120882034302,-2.1762684027301233
1708443435.809147,-2.1178243160247803,-1.335033656363823,-2.553915325795309,6.0792415020759485,1.0674110651016235,-2.1737192312823694
1708443435.8111343,-2.1177570819854736,-1.3350573939136048,-2.55405837694277,6.0791371939475916,1.0677562952041626,-2.1712730566607874
1708443435.813131,-2.1176156997680664,-1.3351425391486664,-2.5542548338519495,6.079110252648153,1.0680968761444092,-2.1688087622271937
1708443435.8151333,-2.1175248622894287,-1.335141883497574,-2.5544758478747767,6.078993665962972,1.068458914756775,-2.1663649717914026
1708443435.8171334,-2.117377281188965,-1.3351453256658097,-2.5545740763293665,6.0789385912712,1.0687006711959839,-2.164002243672506
1708443435.8191397,-2.117342948913574,-1.3352543276599427,-2.554742161427633,6.078884112625875,1.0690383911132812,-2.161657158528463
1708443435.8211536,-2.117255210876465,-1.3352819991162796,-2.5548978487597864,6.078787076264181,1.069353699684143,-2.1593449751483362
1708443435.8231337,-2.117126226425171,-1.3352240335992356,-2.555086676274435,6.078718530922689,1.0696210861206055,-2.156882111226217
1708443435.8251264,-2.117079257965088,-1.3353621375611802,-2.555274311696188,6.078663337021627,1.0699783563613892,-2.1545351187335413
1708443435.8271298,-2.1169257164001465,-1.335329921250679,-2.555458370839254,6.078578460007467,1.0702528953552246,-2.152081314717428
1708443435.8291526,-2.116834878921509,-1.3353445392898102,-2.555593554173605,6.078600394516744,1.0706357955932617,-2.149653736745016
1708443435.831159,-2.1167097091674805,-1.3353889745524903,-2.5557170549975794,6.078549492150106,1.0709316730499268,-2.1472347418414515
1708443435.8331304,-2.1166670322418213,-1.3354408603957673,-2.5558717886554163,6.078489529877462,1.0711747407913208,-2.144764248524801
1708443435.8351293,-2.1165924072265625,-1.3355092120221634,-2.556082550679342,6.07842384555892,1.0714406967163086,-2.1423233191119593
1708443435.83714,-2.116565227508545,-1.3354803782752533,-2.5562220255481165,6.078383791237631,1.0717648267745972,-2.1399100462542933
1708443435.8391337,-2.1164560317993164,-1.335536704664566,-2.556406561528341,6.078352439194479,1.0720188617706299,-2.1375883261310022
1708443435.8411663,-2.116400957107544,-1.3356082302382966,-2.5565534273730677,6.078332650452413,1.0723505020141602,-2.135195557271139
1708443435.8431244,-2.116353988647461,-1.33560402811084,-2.556701962147848,6.078303205757894,1.0725927352905273,-2.1328914801227015
1708443435.8452356,-2.116252899169922,-1.3356850010207673,-2.5568535963641565,6.078309881478109,1.072864294052124,-2.130608383809225
1708443435.8471532,-2.116196870803833,-1.335753248339035,-2.5570181051837366,6.078362571984091,1.0731614828109741,-2.1283143202411097
1708443435.849147,-2.1161704063415527,-1.3357364249280472,-2.5571416060077112,6.0782967684562585,1.0733624696731567,-2.1259287039386194
1708443435.8511364,-2.1160902976989746,-1.3357398372939606,-2.5572765509234827,6.078261244087972,1.073676586151123,-2.123629395161764
1708443435.853154,-2.1160671710968018,-1.3357510578683396,-2.557387653981344,6.078271615296163,1.0739208459854126,-2.121258560811178
1708443435.8551314,-2.1159234046936035,-1.3357785654119034,-2.557605806981222,6.07834159114913,1.074204921722412,-2.118903938923971
1708443435.8571227,-2.115888833999634,-1.3359199178269883,-2.557770315800802,6.078337180405416,1.0744825601577759,-2.116540257130758
1708443435.8591433,-2.115849733352661,-1.335850090985634,-2.5579100290881556,6.078344929009237,1.0747051239013672,-2.11417800584902
1708443435.8611317,-2.115813732147217,-1.3359432083419343,-2.558021132146017,6.078353869705953,1.074957013130188,-2.1118186155902308
1708443435.8631563,-2.1157772541046143,-1.3359705668738862,-2.55815297762026,6.078356849938192,1.0751879215240479,-2.1094515959369105
1708443435.8651326,-2.1157352924346924,-1.3360473227551957,-2.5583012739764612,6.078430878907003,1.0754687786102295,-2.1071742216693323
1708443435.8671274,-2.115663528442383,-1.336026982670166,-2.5584335962878626,6.078466999321737,1.0757408142089844,-2.104929272328512
1708443435.8691266,-2.115631580352783,-1.336078794007637,-2.5585489908801478,6.078441607743063,1.0759973526000977,-2.1027234236346644
1708443435.871138,-2.1156067848205566,-1.336066113119461,-2.5585950056659144,6.078485119133749,1.076225757598877,-2.1004932562457483
1708443435.8731215,-2.1155505180358887,-1.3361505579999466,-2.558756176625387,6.078524219780721,1.0764206647872925,-2.09835654893984
1708443435.8751261,-2.1155519485473633,-1.3361463409713288,-2.5588720480548304,6.078528630524435,1.0766581296920776,-2.09619647661318
1708443435.877133,-2.115466594696045,-1.3361946654370804,-2.558976475392477,6.07855116108016,1.0768953561782837,-2.0940526167498987
1708443435.8791356,-2.115405559539795,-1.3361981076053162,-2.5591118971454065,6.078609216004171,1.0770736932754517,-2.0918815771686
1708443435.881151,-2.1154446601867676,-1.3362377446940918,-2.5592156092273157,6.078637468605795,1.0772567987442017,-2.089587990437643
1708443435.8831527,-2.115386962890625,-1.3362982881120224,-2.559335533772604,6.078767049103536,1.0775408744812012,-2.0873659292804163
1708443435.8851726,-2.1153154373168945,-1.3363263469985505,-2.5594688097583216,6.078684079438009,1.0776488780975342,-2.0851386229144495
1708443435.8871734,-2.1153030395507812,-1.3363547188094635,-2.5596006552325647,6.0787449953849695,1.0778666734695435,-2.082874600087301
1708443435.8891585,-2.1152148246765137,-1.3363624227098008,-2.5597084204303187,6.078772175102987,1.0780377388000488,-2.0806811491595667
1708443435.8911521,-2.1152570247650146,-1.3363294017365952,-2.559763256703512,6.0788200972373865,1.078238844871521,-2.0784791151629847
1708443435.8931422,-2.1152453422546387,-1.3363609325936814,-2.5599330107318323,6.07887219169692,1.0784597396850586,-2.076350990925924
1708443435.89516,-2.115220069885254,-1.336360515361168,-2.5599997679339808,6.078982698708334,1.0786354541778564,-2.0742552916156214
1708443435.8971488,-2.1151528358459473,-1.3364864152720948,-2.5601161162005823,6.078958976059713,1.0787986516952515,-2.072218720112936
1708443435.8991427,-2.1151723861694336,-1.3364572387984772,-2.5602036158191126,6.078999388008871,1.0790575742721558,-2.0701010862933558
1708443435.9011447,-2.1151483058929443,-1.3364813190749665,-2.5602996985064905,6.07912443855361,1.0791877508163452,-2.0680607000934046
1708443435.9031286,-2.11513614654541,-1.3365382117084046,-2.5604074637042444,6.07915614822463,1.0793710947036743,-2.065955464039938
1708443435.9051898,-2.115161418914795,-1.3364771169475098,-2.5604751745807093,6.07926498630599,1.0795525312423706,-2.0638564268695276
1708443435.9071367,-2.115105152130127,-1.3365692508271714,-2.5605834166156214,6.079320418625631,1.0797160863876343,-2.061835590993063
1708443435.9091291,-2.115100860595703,-1.3366252493909379,-2.560699764882223,6.079323518067159,1.079879641532898,-2.0597122351275843
1708443435.911158,-2.1151208877563477,-1.3365965646556397,-2.560767475758688,6.079374539643087,1.0800360441207886,-2.0576017538653772
1708443435.9131265,-2.115144729614258,-1.3366365295699616,-2.5608838240252894,6.079478966980734,1.080208420753479,-2.0555575529681605
1708443435.9151409,-2.1151700019836426,-1.3367055815509339,-2.560922447835104,6.079562651901998,1.0803272724151611,-2.0534823576556605
1708443435.9171295,-2.115168809890747,-1.336753175859787,-2.561080280934469,6.079645025521078,1.080520749092102,-2.051405731831686
1708443435.9191616,-2.115123748779297,-1.3367612224868317,-2.5610948244677942,6.079753863602438,1.0806890726089478,-2.0492613951312464
1708443435.921159,-2.1151483058929443,-1.336712823515274,-2.5611866156207483,6.079776632576742,1.0808002948760986,-2.0472477118121546
1708443435.9231315,-2.1151440143585205,-1.3367358905128022,-2.5612552801715296,6.0798765299613855,1.0809487104415894,-2.0451815764056605
1708443435.9251413,-2.115173101425171,-1.3367880296758194,-2.5613632837878626,6.079984414368429,1.0811094045639038,-2.0432518164264124
1708443435.9271297,-2.1151397228240967,-1.3368192178061982,-2.5614472071277063,6.080090510636129,1.081166386604309,-2.041283909474508
1708443435.9291544,-2.115140438079834,-1.3368235391429444,-2.561479155217306,6.080160605698385,1.081369161605835,-2.0394213835345667
1708443435.9311574,-2.1152093410491943,-1.336859570150711,-2.5615881125079554,6.080280291825094,1.0814398527145386,-2.037469212208883
1708443435.9331353,-2.1151440143585205,-1.3369158518365403,-2.5616141001330774,6.080352055817404,1.0815268754959106,-2.0356138388263147
1708443435.9351737,-2.1151556968688965,-1.3369039458087464,-2.5616870562182825,6.080450880318441,1.0816515684127808,-2.0336721579181116
1708443435.9371295,-2.11513614654541,-1.336963565354683,-2.561775509511129,6.080559479981222,1.0817910432815552,-2.031672779713766
1708443435.9391499,-2.1152093410491943,-1.336991937165596,-2.561806027089254,6.08061848857955,1.081929087638855,-2.0297473112689417
1708443435.941141,-2.1152048110961914,-1.3369877201369782,-2.5618823210345667,6.080730306893148,1.082061529159546,-2.0278247038470667
1708443435.9431322,-2.1151933670043945,-1.3369743686965485,-2.561991516743795,6.080866324692526,1.0821932554244995,-2.0257981459247034
1708443435.9451935,-2.1152005195617676,-1.3370636117509385,-2.561985794697897,6.080933677941122,1.0822685956954956,-2.0239203611956995
1708443435.9471653,-2.1151785850524902,-1.3370917302421113,-2.562092129384176,6.081012713700094,1.0823723077774048,-2.021910015736715
1708443435.949134,-2.115232229232788,-1.337135450249054,-2.5620699564563196,6.081165301590719,1.0824922323226929,-2.0198968092547815
1708443435.9511611,-2.1152563095092773,-1.3371354949525376,-2.5621748606311243,6.081253397255697,1.082605004310608,-2.0179460684405726
1708443435.9531326,-2.115288734436035,-1.3371301603368302,-2.5621898810016077,6.0813640234764,1.0827174186706543,-2.016007725392477
1708443435.955157,-2.1152353286743164,-1.3371619445136567,-2.562251154576437,6.08146749713973,1.0828012228012085,-2.014076534901754
1708443435.9571447,-2.1153154373168945,-1.33718657613311,-2.5623109976397913,6.081665622978964,1.082880973815918,-2.012228314076559
1708443435.959131,-2.1153364181518555,-1.3371817928603669,-2.562317434941427,6.081722843437948,1.0829726457595825,-2.010381523762838
1708443435.961186,-2.1153364181518555,-1.3372590851834794,-2.5623982588397425,6.081885444908895,1.0830568075180054,-2.008632008229391
1708443435.9631321,-2.115351676940918,-1.337197945719101,-2.5624626318561,6.081918465882101,1.083124041557312,-2.00676137605776
1708443435.9651551,-2.115379810333252,-1.3372499209693451,-2.5624735991107386,6.0820785639579675,1.0832489728927612,-2.004963223134176
1708443435.9671552,-2.1154117584228516,-1.3373104345849534,-2.562542502080099,6.082217442780294,1.0832551717758179,-2.0032222906695765
1708443435.9691408,-2.115488052368164,-1.337285892372467,-2.562554184590475,6.08235930183486,1.0833884477615356,-2.0013940970050257
1708443435.9711332,-2.1154768466949463,-1.3373178255609055,-2.5626023451434534,6.082474219589987,1.0834441184997559,-1.9995763937579554
1708443435.973159,-2.11551570892334,-1.3373696219972153,-2.562633816395895,6.08264313915328,1.0835087299346924,-1.9977253119098108
1708443435.975131,-2.1155283451080322,-1.33738228798423,-2.562718931828634,6.082667457848348,1.0835777521133423,-1.9958542029010218
1708443435.9771283,-2.115571975708008,-1.3374018532088776,-2.562680784855978,6.082758533745565,1.0836541652679443,-1.9940550963031214
1708443435.9791696,-2.1156082153320312,-1.3374539774707337,-2.5627580324756067,6.082919704705038,1.0836843252182007,-1.99223500887026
1708443435.9811418,-2.1155996322631836,-1.337405265574791,-2.562810484563009,6.082990276604452,1.0837740898132324,-1.9904182592975062
1708443435.9831274,-2.115685224533081,-1.3374736172011872,-2.5628135840045374,6.083118665009298,1.0838271379470825,-1.9886506239520472
1708443435.9851644,-2.1156678199768066,-1.337538407450058,-2.5628793875323694,6.083233940392294,1.0838165283203125,-1.9867704550372522
1708443435.9871264,-2.115737199783325,-1.3375097078135987,-2.5628824869738978,6.083365666657247,1.0838885307312012,-1.984974209462301
1708443435.9891598,-2.115743637084961,-1.3374889951995392,-2.5629096666919153,6.083504783898153,1.083940863609314,-1.9831936995135706
1708443435.9911287,-2.115774631500244,-1.3375215393355866,-2.5629664103137415,6.083628642349996,1.083984613418579,-1.9814093748675745
1708443435.9931262,-2.1158266067504883,-1.337557615046837,-2.562920633946554,6.083780991822042,1.084049105644226,-1.9797537962542933
1708443435.995169,-2.115851402282715,-1.337556616669037,-2.562969748173849,6.083920109062948,1.0841014385223389,-1.9780190626727503
1708443435.9971302,-2.115910530090332,-1.3375243705562134,-2.562998358403341,6.084006774216451,1.0841047763824463,-1.9764121214496058
1708443435.9991412,-2.115983724594116,-1.337593064909317,-2.5630295912372034,6.084208357125082,1.0841453075408936,-1.9747183958636683
1708443436.0011413,-2.115953207015991,-1.3375684779933472,-2.5630417505847376,6.084283339768209,1.0841766595840454,-1.9731071631061
1708443436.0031419,-2.1159772872924805,-1.3375926327756424,-2.563053909932272,6.084386336594381,1.0842459201812744,-1.971450153981344
1708443436.0051363,-2.116062641143799,-1.337620587354042,-2.5631476084338587,6.084518062859335,1.0842862129211426,-1.969825569783346
1708443436.0071342,-2.116142749786377,-1.3376608353904267,-2.563077751790182,6.084616648941793,1.0842758417129517,-1.9681132475482386
1708443436.0091245,-2.1162028312683105,-1.337644786839821,-2.563113514577047,6.084732043534078,1.0843043327331543,-1.9664347807513636
1708443436.0111299,-2.116255044937134,-1.337657408123352,-2.563101593648092,6.084921347885885,1.0843210220336914,-1.9647448698626917
1708443436.013132,-2.1162490844726562,-1.3376567673734208,-2.563073460255758,6.0850363848503015,1.0843284130096436,-1.9630597273456019
1708443436.01513,-2.116314172744751,-1.3376692545465012,-2.5630481878863733,6.0851104138191126,1.0843898057937622,-1.9614504019366663
1708443436.0171623,-2.116337299346924,-1.3376524311355134,-2.563085142766134,6.08529959896163,1.0843480825424194,-1.9597809950457972
1708443436.0191376,-2.1164357662200928,-1.3377212297967453,-2.5630927721606653,6.085414993553915,1.0843673944473267,-1.9581669012652796
1708443436.0211372,-2.1164634227752686,-1.3376966428807755,-2.5630808512317103,6.0855833170707605,1.0843673944473267,-1.9565308729754847
1708443436.0231428,-2.116485595703125,-1.3377051216414948,-2.563077751790182,6.085674750595846,1.0844004154205322,-1.954888168965475
1708443436.0251284,-2.1165544986724854,-1.3377572161010285,-2.563068930302755,6.085827219277181,1.0844048261642456,-1.953231159840719
1708443436.0271442,-2.1165733337402344,-1.3377614629319687,-2.563110415135519,6.085973727494039,1.0844004154205322,-1.951620880757467
1708443436.0291464,-2.1166296005249023,-1.3377158802798768,-2.563065830861227,6.086080300598898,1.084367275238037,-1.9500897566424769
1708443436.0311315,-2.1166930198669434,-1.3377639663270493,-2.563117806111471,6.086253034859457,1.084376335144043,-1.9485014120685022
1708443436.033138,-2.116753101348877,-1.3378175360015412,-2.5630820433246058,6.086355078011312,1.0843884944915771,-1.947010342274801
1708443436.0351381,-2.116788387298584,-1.337792233829834,-2.5630820433246058,6.086479294091024,1.0843851566314697,-1.9454358259784144
1708443436.0371373,-2.1168854236602783,-1.3378625375083466,-2.563093964253561,6.0866315243537805,1.0843600034713745,-1.9439833799945276
1708443436.039129,-2.1169378757476807,-1.3378536266139527,-2.5630701223956507,6.086710917740621,1.0843479633331299,-1.9424827734576624
1708443436.0411444,-2.117001533508301,-1.3378490668586274,-2.5630250612842005,6.086866366654196,1.0843193531036377,-1.9409049193011683
1708443436.0431561,-2.1170005798339844,-1.3378475469401856,-2.5630746523486536,6.086920487671652,1.0843284130096436,-1.9393742720233362
1708443436.0452316,-2.1171090602874756,-1.3378848296454926,-2.563053909932272,6.087052213936605,1.084312081336975,-1.937857453023092
1708443436.0471725,-2.1171436309814453,-1.3378892850926896,-2.5630252997027796,6.087253320008077,1.084263801574707,-1.9362667242633265
1708443436.0491889,-2.1172573566436768,-1.3378554743579407,-2.5630627314196985,6.087336051255026,1.0842430591583252,-1.9347799460040491
1708443436.0511513,-2.1172847747802734,-1.3378802996924897,-2.563026491795675,6.087520825653829,1.0842279195785522,-1.9332192579852503
1708443436.053149,-2.1174092292785645,-1.337928296332695,-2.5630222002612513,6.087554561882772,1.084236741065979,-1.931680981312887
1708443436.055136,-2.117436170578003,-1.3379328560880204,-2.562993828450338,6.087740647583761,1.0841751098632812,-1.930185619984762
1708443436.057137,-2.1174793243408203,-1.3378788989833375,-2.5629575888263147,6.087797748833456,1.0841481685638428,-1.9286053816424769
1708443436.059138,-2.1175665855407715,-1.3379402321628113,-2.5629118124591272,6.087941276818075,1.0841108560562134,-1.9270647207843226
1708443436.06115,-2.117655038833618,-1.3379313063672562,-2.562920633946554,6.088060962944784,1.084070086479187,-1.9255340735064905
1708443436.0631406,-2.1177432537078857,-1.337973342542984,-2.5629096666919153,6.0882102129753015,1.0841076374053955,-1.9239824453936976
1708443436.0651321,-2.1178245544433594,-1.3379583817771454,-2.562885586415426,6.0883405087287805,1.084059476852417,-1.922443691884176
1708443436.0671353,-2.1178221702575684,-1.3379762184670945,-2.562906567250387,6.088443624764242,1.084059476852417,-1.9209216276751917
1708443436.06913,-2.1179516315460205,-1.3379807633212586,-2.562841002141134,6.088563310890951,1.0840238332748413,-1.9194605986224573
1708443436.071154,-2.117999315261841,-1.3380120408586045,-2.562833611165182,6.088702189713278,1.084019422531128,-1.9179757277118128
1708443436.0731385,-2.1180295944213867,-1.3379773211530228,-2.5627926031695765,6.088875520020284,1.0839967727661133,-1.916584316884176
1708443436.075142,-2.1181092262268066,-1.3380480718663712,-2.562831226979391,6.088999497681417,1.083914041519165,-1.9151008764850062
1708443436.077163,-2.118173599243164,-1.3380644184402009,-2.5626958052264612,6.08912347534255,1.0839407444000244,-1.9136083761798304
1708443436.0791447,-2.1182539463043213,-1.3380644184402009,-2.562716547642843,6.089282023697653,1.0838673114776611,-1.9122346083270472
1708443436.0811822,-2.118335008621216,-1.3380104464343567,-2.5627427736865442,6.089383828430929,1.0838119983673096,-1.9107540289508265
1708443436.0831382,-2.1183979511260986,-1.3380599033883591,-2.5626609961139124,6.089507925301351,1.0837336778640747,-1.9093239943133753
1708443436.0851548,-2.118462324142456,-1.3380346161178132,-2.5626938978778284,6.089754092484274,1.0837069749832153,-1.907851521168844
1708443436.0871432,-2.118541955947876,-1.3380390864661713,-2.562650267277853,6.089824545174398,1.0836634635925293,-1.9064667860614222
1708443436.0891368,-2.1185967922210693,-1.3380465370467682,-2.5625847021686,6.089951741486349,1.0835822820663452,-1.9049509207354944
1708443436.091147,-2.1186604499816895,-1.3381001216224213,-2.5626099745379847,6.090062367707052,1.0835838317871094,-1.9034274260150355
1708443436.0931404,-2.1187405586242676,-1.3381150376847764,-2.562594477330343,6.090255129128256,1.0835026502609253,-1.9019888083087366
1708443436.0951447,-2.118837594985962,-1.33816151440654,-2.562545363103048,6.0903745768363855,1.0834261178970337,-1.90043813387026
1708443436.0971353,-2.11887264251709,-1.3381150674870987,-2.5625529924975794,6.090485083847799,1.0833872556686401,-1.8990162054644983
1708443436.099151,-2.118952512741089,-1.3380986762097855,-2.5625346342669886,6.090649831085958,1.083326816558838,-1.8974879423724573
1708443436.1011803,-2.119070053100586,-1.3381570887616654,-2.5624941031085413,6.090735184937277,1.0832997560501099,-1.8959844748126429
1708443436.1031413,-2.119095802307129,-1.3380778294852753,-2.5624166170703333,6.090859281807699,1.0831485986709595,-1.8945234457599085
1708443436.1051466,-2.119163751602173,-1.3381492656520386,-2.562380854283468,6.091002809792318,1.0831304788589478,-1.892994228993551
1708443436.1071358,-2.1192562580108643,-1.3380986762097855,-2.5623400847064417,6.091212975769796,1.0830373764038086,-1.8915670553790491
1708443436.1091385,-2.1193201541900635,-1.338143677716591,-2.5623324553119105,6.091249453812399,1.0829559564590454,-1.8900912443744105
1708443436.1111872,-2.119377613067627,-1.3381358844092865,-2.562310043965475,6.09145866611556,1.0829216241836548,-1.8887270132647913
1708443436.113156,-2.119499444961548,-1.3380986762097855,-2.5622859636889856,6.091558563500204,1.0828378200531006,-1.887350861226217
1708443436.1151795,-2.1195225715637207,-1.3380986762097855,-2.5622499624835413,6.091697799950399,1.0827609300613403,-1.8859408537494105
1708443436.1171525,-2.1196353435516357,-1.338143677716591,-2.5621841589557093,6.091837870865621,1.0826905965805054,-1.8845661322223108
1708443436.119136,-2.1197123527526855,-1.33815552413974,-2.5621898810016077,6.091972458153524,1.0825601816177368,-1.883171860371725
1708443436.1211705,-2.11981201171875,-1.3382121187499543,-2.5621255079852503,6.09208773353652,1.0824997425079346,-1.8818367163287562
1708443436.1231415,-2.1198172569274902,-1.338183806543686,-2.56207782426943,6.092190968781271,1.0824366807937622,-1.8804801146136683
1708443436.1251552,-2.119901180267334,-1.3382095259479065,-2.5620623270617884,6.092380630760946,1.082306146621704,-1.879120175038473
1708443436.1271374,-2.120018720626831,-1.3381629896214982,-2.56201416650881,6.092496025353231,1.0822523832321167,-1.8777087370501917
1708443436.1291456,-2.1200621128082275,-1.3381916147521515,-2.561957661305563,6.092578279763021,1.082209825515747,-1.8763263861285608
1708443436.1311343,-2.120108127593994,-1.3382240247777482,-2.5619381109820765,6.092672574311056,1.0820972919464111,-1.8749378363238733
1708443436.1331408,-2.1202499866485596,-1.338170365696289,-2.5618560949908655,6.092897999077596,1.0820221900939941,-1.873434845601217
1708443436.1351638,-2.120314121246338,-1.3381826889565964,-2.5618584791766565,6.092951762467184,1.0818722248077393,-1.8720772902118128
1708443436.1371703,-2.1203842163085938,-1.3382273477366944,-2.561822239552633,6.0931328413780115,1.081821322441101,-1.8706710974322718
1708443436.1391551,-2.1204075813293457,-1.3381915998509903,-2.5617523829089563,6.093182551651754,1.0816755294799805,-1.8692672888385218
1708443436.1411617,-2.1205523014068604,-1.3381942820600052,-2.561720911656515,6.093417751580038,1.0816079378128052,-1.867840592061178
1708443436.1431136,-2.120609760284424,-1.338243694310524,-2.561620537434713,6.093475329666891,1.0815119743347168,-1.8665159384356897
1708443436.1452014,-2.1206750869750977,-1.3382228028825303,-2.5615811983691614,6.093565094261923,1.08137845993042,-1.865091625844137
1708443436.1471715,-2.120797634124756,-1.3382061135819932,-2.561622921620504,6.093754637032308,1.0813242197036743,-1.8636797110186976
1708443436.1491284,-2.120868444442749,-1.3382016730359574,-2.5614941755877894,6.093910085945883,1.0812280178070068,-1.8622940222369593
1708443436.1511366,-2.120969772338867,-1.3382061135819932,-2.5614164511310022,6.094049083977499,1.0811231136322021,-1.8609002272235315
1708443436.1531668,-2.120974540710449,-1.3381927472404023,-2.5613892714129847,6.094180810242452,1.0809983015060425,-1.859469238911764
1708443436.15513,-2.1210994720458984,-1.3382466596416016,-2.5613253752337855,6.094279396324911,1.0809054374694824,-1.8581002394305628
1708443436.157134,-2.1211555004119873,-1.3382555705359955,-2.561277214680807,6.094411003380575,1.0808062553405762,-1.8567341009723108
1708443436.1591132,-2.1212551593780518,-1.3382510852864762,-2.5612335840808313,6.094469535141744,1.0807433128356934,-1.855396572743551
1708443436.1611464,-2.1212940216064453,-1.3382689517787476,-2.561173741017477,6.0947245238120935,1.0806233882904053,-1.8541105429278772
1708443436.1631331,-2.1214029788970947,-1.338225783114769,-2.5611136595355433,6.094799387245931,1.0804986953735352,-1.8527749220477503
1708443436.165146,-2.121450424194336,-1.338300497536995,-2.5610981623279017,6.0949474451835535,1.0804071426391602,-1.851492706929342
1708443436.1671548,-2.1215457916259766,-1.3382422041944046,-2.560977284108297,6.0950296995933435,1.080348253250122,-1.8501241842852991
1708443436.1691442,-2.1216254234313965,-1.3381718856147309,-2.5609379450427454,6.095208871155538,1.0802072286605835,-1.8488152662860315
1708443436.1711707,-2.121657609939575,-1.3382422637990494,-2.5608695189105433,6.095329987793722,1.080066442489624,-1.8474462668048304
1708443436.173145,-2.1217572689056396,-1.33828421056781,-2.5608418623553675,6.095457184105673,1.079959511756897,-1.8461039702044886
1708443436.175195,-2.1218788623809814,-1.3382707250169297,-2.560741726552145,6.095564710884847,1.0798636674880981,-1.8447158972369593
1708443436.177148,-2.1219091415405273,-1.338279740219452,-2.5606816450702112,6.095720279007711,1.0797464847564697,-1.8434284369098108
1708443436.1791537,-2.12200927734375,-1.3382511150887986,-2.560633722935812,6.095848786621847,1.079630732536316,-1.8419979254352015
1708443436.1811678,-2.122101306915283,-1.3383005869439621,-2.560582462941305,6.09594606140212,1.0795395374298096,-1.8406556288348597
1708443436.1831343,-2.122107982635498,-1.3382540357163926,-2.56044847169985,6.096057879715719,1.0794055461883545,-1.8393047491656702
1708443436.1851802,-2.1222245693206787,-1.338275284772255,-2.560446087514059,6.096218216210165,1.0792734622955322,-1.8379281202899378
1708443436.1871455,-2.1222927570343018,-1.3382332187942048,-2.5603578726397913,6.09632562378005,1.079113245010376,-1.8365162054644983
1708443436.1891315,-2.1224164962768555,-1.3382048916867753,-2.560261074696676,6.096461522370138,1.0790154933929443,-1.8351591269122522
1708443436.1911523,-2.1224849224090576,-1.3382332485965271,-2.5602172056781214,6.096630441933431,1.0788590908050537,-1.8337972799884241
1708443436.193133,-2.122551202774048,-1.3382797104171296,-2.5601332823382776,6.096708643227377,1.0787676572799683,-1.8324053923236292
1708443436.195166,-2.1226119995117188,-1.3382630062154313,-2.5600853602038782,6.096851813584127,1.0786190032958984,-1.8310921827899378
1708443436.1971421,-2.122727394104004,-1.3382630360177536,-2.560005489979879,6.096913802414694,1.0785530805587769,-1.8297160307513636
1708443436.1991308,-2.1228227615356445,-1.338291661148407,-2.55995756784548,6.097074615746298,1.0784327983856201,-1.8283770720111292
1708443436.20114,-2.1228957176208496,-1.338279740219452,-2.559910599385397,6.097255217819967,1.0782721042633057,-1.826965634022848
1708443436.2031496,-2.1229705810546875,-1.3382555854371567,-2.5597854296313685,6.097325551300802,1.0781563520431519,-1.8256810347186487
1708443436.2051532,-2.1230387687683105,-1.3382719320109864,-2.5597339312182825,6.097481477051534,1.0780242681503296,-1.824369255696432
1708443436.2071333,-2.1231229305267334,-1.3382511001876374,-2.5596216360675257,6.097584473877706,1.0778923034667969,-1.8230746428119105
1708443436.209123,-2.1232426166534424,-1.33828421056781,-2.559570376073019,6.097725021630087,1.0777512788772583,-1.8217280546771448
1708443436.2111306,-2.123335123062134,-1.3382585954717179,-2.55949312845339,6.097819196968832,1.0776193141937256,-1.8205202261554163
1708443436.2131422,-2.123345375061035,-1.338279740219452,-2.559458080922262,6.0979909775550745,1.0774658918380737,-1.8192208448993128
1708443436.2151349,-2.1234493255615234,-1.3382555705359955,-2.5593579451190394,6.098061430245199,1.0773385763168335,-1.8179166952716272
1708443436.217191,-2.123537540435791,-1.338275284772255,-2.5592814127551478,6.098251092224874,1.077233076095581,-1.8166430632220667
1708443436.219137,-2.123617172241211,-1.338216857319214,-2.5592497030841272,6.098369467049398,1.077059030532837,-1.8153341452227991
1708443436.221154,-2.123664379119873,-1.3382841509631653,-2.5591419378863733,6.098469602852621,1.0769151449203491,-1.8140276114093226
1708443436.2231457,-2.1237728595733643,-1.3382168126157303,-2.5590534845935267,6.098645674973287,1.0767585039138794,-1.8126705328570765
1708443436.2251616,-2.123868942260742,-1.3382274371436615,-2.5590108076678675,6.0987456915672205,1.0766178369522095,-1.8113697210894983
1708443436.227159,-2.1239407062530518,-1.3382961314967652,-2.5589550177203577,6.098826992302694,1.0765066146850586,-1.8100383917437952
1708443436.2291775,-2.1240456104278564,-1.338271902208664,-2.5588093439685267,6.099004256516256,1.0763700008392334,-1.8088300863849085
1708443436.231159,-2.124112129211426,-1.3382764619639893,-2.558775250111715,6.0991437313850305,1.0762348175048828,-1.8074610869037073
1708443436.2331707,-2.1241588592529297,-1.3382511299899598,-2.558645550404684,6.099218594818868,1.0760818719863892,-1.8062494436847132
1708443436.235162,-2.124283790588379,-1.3382302981666108,-2.558606211339132,6.099370944290914,1.0759632587432861,-1.8049662748919886
1708443436.2371368,-2.1243433952331543,-1.338225857620575,-2.5585387388812464,6.099511492043295,1.075839877128601,-1.8036955038653772
1708443436.2391531,-2.1244401931762695,-1.3382139068892975,-2.55839711824526,6.099586236267843,1.0756943225860596,-1.8024166266070765
1708443436.2411447,-2.1244988441467285,-1.338197187786438,-2.5583868662463587,6.099717485695638,1.0755921602249146,-1.80107289949526
1708443436.2431362,-2.124619483947754,-1.3382585805705567,-2.558265988026754,6.099832761078634,1.0754015445709229,-1.7998388449298304
1708443436.2451687,-2.124699115753174,-1.3382630062154313,-2.5581939856158655,6.099993812828817,1.0752573013305664,-1.7985699812518519
1708443436.247188,-2.124814748764038,-1.3382376742414017,-2.558113400136129,6.100074994355001,1.0750806331634521,-1.7973468939410608
1708443436.2491841,-2.1248185634613037,-1.3382094365409394,-2.558030430470602,6.10017095783309,1.0749661922454834,-1.7960332075702112
1708443436.2511396,-2.124913454055786,-1.3382421892932435,-2.5579007307635706,6.100319969445028,1.0748324394226074,-1.7948315779315394
1708443436.2531538,-2.124964714050293,-1.3382376593402405,-2.5578702131854456,6.100460397988119,1.074681043624878,-1.7936161200152796
1708443436.2551587,-2.1251261234283447,-1.3382228326848526,-2.5578230063067835,6.100554573326864,1.0745700597763062,-1.7923978010760706
1708443436.2571547,-2.125206232070923,-1.3382183772376557,-2.5576892534839075,6.100596773415365,1.0744214057922363,-1.7912424246417444
1708443436.2591522,-2.125277280807495,-1.3382601153901597,-2.5576346556292933,6.100793587952413,1.0742186307907104,-1.790088955556051
1708443436.2611458,-2.1253488063812256,-1.3382392090610047,-2.5575342814074915,6.100859749108114,1.074083685874939,-1.7889516989337366
1708443436.263136,-2.125448226928711,-1.3382466596416016,-2.5574424902545374,6.100968587189474,1.0739390850067139,-1.7877877394305628
1708443436.2652009,-2.1255321502685547,-1.3382258278182526,-2.557337824498312,6.101060020714559,1.07376229763031,-1.786584202443258
1708443436.2671523,-2.1256613731384277,-1.3382931661656876,-2.557302776967184,6.101233231812277,1.073681116104126,-1.7854302565204065
1708443436.2691689,-2.1256842613220215,-1.3382228028825303,-2.557190720235006,6.101303565293112,1.0734951496124268,-1.784304443989889
1708443436.2711315,-2.1257858276367188,-1.3382392090610047,-2.5571141878711146,6.10138617733077,1.0733388662338257,-1.783135716115133
1708443436.2731397,-2.1258485317230225,-1.3382646304420014,-2.557046715413229,6.1014654515083215,1.0731827020645142,-1.7820013205157679
1708443436.275169,-2.1259524822235107,-1.3382437241128464,-2.5569213072406214,6.1016015885169885,1.0730472803115845,-1.7808693091021937
1708443436.277169,-2.126006841659546,-1.338164747958519,-2.5568295160876673,6.1017342684562585,1.0729079246520996,-1.7796428839312952
1708443436.2791774,-2.1261119842529297,-1.3382139068892975,-2.5567694346057337,6.101907360344686,1.0727264881134033,-1.778419319783346
1708443436.2811456,-2.126150608062744,-1.3382347983172913,-2.556685749684469,6.1019747135932825,1.0725669860839844,-1.777278248463766
1708443436.2831416,-2.1262829303741455,-1.338194267158844,-2.556622330342428,6.102097141533651,1.0723944902420044,-1.776111904774801
1708443436.2851362,-2.126326322555542,-1.3381659847548981,-2.5564776102649134,6.102181184082784,1.072259545326233,-1.7749531904803675
1708443436.2871373,-2.126426935195923,-1.338207708006241,-2.556423012410299,6.102260458260336,1.0720325708389282,-1.773754898701803
1708443436.2891521,-2.1264853477478027,-1.338182659154274,-2.5563300291644495,6.102417218476095,1.0719307661056519,-1.7726720015155237
1708443436.2911348,-2.1265780925750732,-1.3381659847548981,-2.556279007588522,6.102436888008871,1.071765422821045,-1.7715542952166956
1708443436.2931664,-2.126657724380493,-1.3381496381810685,-2.556150023137228,6.1026203511054895,1.0716155767440796,-1.7703540960894983
1708443436.2951548,-2.1267502307891846,-1.33815851927314,-2.556094233189718,6.102756607323446,1.071442723274231,-1.769228760396139
1708443436.297146,-2.1267919540405273,-1.3381764453700562,-2.556014601384298,6.1028222916419885,1.0713015794754028,-1.768073860798971
1708443436.2991471,-2.1269025802612305,-1.3381793808988114,-2.5559514204608362,6.102946388512411,1.071088433265686,-1.7669971624957483
1708443436.3011732,-2.1269686222076416,-1.3381928217462082,-2.555821959172384,6.1030462858970544,1.0709621906280518,-1.7658551375018519
1708443436.3031328,-2.127000570297241,-1.3381314289620896,-2.555774752293722,6.103133189469137,1.0707852840423584,-1.7647364775287073
1708443436.3051295,-2.127103805541992,-1.3381480884603043,-2.5556538740741175,6.103212463646688,1.0706291198730469,-1.7636383215533655
1708443436.3071368,-2.127208948135376,-1.3381224286607285,-2.5555909315692347,6.103312480240621,1.0704728364944458,-1.7626221815692347
1708443436.3091269,-2.12726092338562,-1.33811508238826,-2.555490318928854,6.103420483856954,1.0702929496765137,-1.7615512053119105
1708443436.311136,-2.127340316772461,-1.3380703193000336,-2.5553866068469446,6.103535163193502,1.0700663328170776,-1.760543171559469
1708443436.313159,-2.1274032592773438,-1.3380674731782456,-2.555302683507101,6.103688943177023,1.0699684619903564,-1.7594884077655237
1708443436.3151314,-2.1275312900543213,-1.3381031316569825,-2.555153195058004,6.10376404502944,1.069795846939087,-1.75844651857485
1708443436.3171313,-2.127591133117676,-1.3381046068719407,-2.555078093205587,6.103846418648519,1.0696111917495728,-1.7574299017535608
1708443436.3191311,-2.127645492553711,-1.3381254088929673,-2.555014673863546,6.103974926262655,1.0694385766983032,-1.7563770453082483
1708443436.3211591,-2.127763509750366,-1.3380599182895203,-2.5548742453204554,6.104070532112875,1.069291353225708,-1.7554305235492151
1708443436.3231688,-2.127819299697876,-1.3380808395198365,-2.55476957956423,6.104169237404623,1.0691232681274414,-1.7544167677508753
