Eg3-git/Classifiers/Data Collection/u8/u8www4_ur3e_joint_states.csv
time,elbow_joint,shoulder_lift_joint,shoulder_pan_joint,wrist_1_joint,wrist_2_joint,wrist_3_joint
1708443416.3610582,-2.143150806427002,-1.333757073884346,-2.52595025697817,6.113391387253561,1.0159608125686646,-2.0050252119647425
1708443416.3630397,-2.143153429031372,-1.333815099006035,-2.526017729436056,6.113421070366659,1.0159111022949219,-2.0050466696368616
1708443416.3650572,-2.1431350708007812,-1.3337570589831849,-2.5259621779071253,6.113407718926229,1.015902042388916,-2.0050624052630823
1708443416.3671596,-2.1431305408477783,-1.3338548255017777,-2.525980297719137,6.113428461342611,1.0159275531768799,-2.0050509611712855
1708443416.3690956,-2.143146514892578,-1.3338028651526947,-2.525938336049215,6.113449203758993,1.0159156322479248,-2.005071465169088
1708443416.3710413,-2.143157958984375,-1.3337953102639695,-2.5259621779071253,6.113386976509847,1.0159156322479248,-2.005075756703512
1708443416.3730369,-2.1431050300598145,-1.333819479947426,-2.5260165373431605,6.1134328720863245,1.0159156322479248,-2.0050509611712855
1708443416.3750343,-2.143150806427002,-1.3337777566960831,-2.5259249846087855,6.113428461342611,1.0159035921096802,-2.005071465169088
1708443416.3770425,-2.1431665420532227,-1.3337940287641068,-2.525930945073263,6.113428461342611,1.0158991813659668,-2.00503379503359
1708443416.3790307,-2.1431665420532227,-1.3337702614120026,-2.5259459654437464,6.113424050598898,1.0158783197402954,-2.0050624052630823
1708443416.3810332,-2.143153429031372,-1.3337821823409577,-2.525910202656881,6.113412129669943,1.0158631801605225,-2.0050419012652796
1708443416.3830311,-2.1431870460510254,-1.3338028502515336,-2.5259879271136683,6.1134047386939905,1.0159289836883545,-2.0050552527057093
1708443416.3850372,-2.143174648284912,-1.3337865632823487,-2.525971237813131,6.113440382271566,1.0158828496932983,-2.0050466696368616
1708443416.387035,-2.1431922912597656,-1.3338195395520707,-2.5259998480426233,6.113374817162313,1.0158828496932983,-2.0050624052630823
1708443416.38902,-2.143141984939575,-1.3337691140225907,-2.525968376790182,6.113391387253561,1.0158827304840088,-2.005066696797506
1708443416.3910205,-2.143202781677246,-1.3337496382049103,-2.52600866953005,6.11338351944045,1.0158660411834717,-2.0050552527057093
1708443416.393043,-2.143174648284912,-1.3337896478227158,-2.525954786931173,6.113395797997274,1.0159218311309814,-2.0050552527057093
1708443416.3950145,-2.143162250518799,-1.3337733906558533,-2.525975767766134,6.113395797997274,1.0159111022949219,-2.004960362111227
1708443416.3970501,-2.143174648284912,-1.3337451380542298,-2.525971237813131,6.113416540413656,1.0158677101135254,-2.005064312611715
1708443416.399016,-2.143174648284912,-1.333822564487793,-2.525914494191305,6.1133553860481165,1.0158723592758179,-2.0050132910357874
1708443416.4010105,-2.143174648284912,-1.333787814979889,-2.525984589253561,6.113416540413656,1.0158586502075195,-2.005038563405172
1708443416.4030414,-2.1431491374969482,-1.3338028651526947,-2.5259667078601282,6.113391387253561,1.0158631801605225,-2.0050600210772913
1708443416.4050212,-2.143155336380005,-1.3337865483811875,-2.5259833971606653,6.113374697953024,1.0158497095108032,-2.004988972340719
1708443416.4070556,-2.1431350708007812,-1.333844469194748,-2.525954786931173,6.113391387253561,1.015917181968689,-2.005021874104635
1708443416.4090395,-2.143204689025879,-1.3337984842113038,-2.525959316884176,6.113437402039327,1.0158464908599854,-2.0050223509417933
1708443416.4110458,-2.143183469772339,-1.333831400876381,-2.5259221235858362,6.113407718926229,1.0159082412719727,-2.0050223509417933
1708443416.4130504,-2.1431376934051514,-1.3337702763131638,-2.525971237813131,6.11346589305953,1.0158497095108032,-2.0050419012652796
1708443416.4150562,-2.1431827545166016,-1.3337746423533936,-2.52600866953005,6.113407718926229,1.0158329010009766,-2.005038563405172
1708443416.4170823,-2.143195867538452,-1.333777741794922,-2.525971237813131,6.113388049393453,1.0158963203430176,-2.005071465169088
1708443416.419052,-2.143153429031372,-1.3338072311929245,-2.525930945073263,6.113437402039327,1.0158207416534424,-2.005064312611715
1708443416.421094,-2.1431984901428223,-1.3337952953628083,-2.525951925908224,6.1134447930152795,1.0158677101135254,-2.0050342718707483
1708443416.42303,-2.143157958984375,-1.3337984842113038,-2.525992457066671,6.113386976509847,1.0158917903900146,-2.0050013701068323
1708443416.4250467,-2.1431174278259277,-1.3338238161853333,-2.525938336049215,6.113388049393453,1.0158343315124512,-2.005005661641256
1708443416.4270558,-2.143157720565796,-1.3337733459523697,-2.525968376790182,6.113412129669943,1.0158419609069824,-2.004988972340719
1708443416.4290402,-2.143178939819336,-1.3337865632823487,-2.525942866002218,6.113378035813131,1.0158976316452026,-2.005051914845602
1708443416.4310517,-2.143157720565796,-1.3338028651526947,-2.525975767766134,6.113403308182516,1.0158796310424805,-2.005066696797506
1708443416.4330418,-2.143157958984375,-1.3337821823409577,-2.525954786931173,6.113412129669943,1.0158677101135254,-2.005038563405172
1708443416.435051,-2.143216133117676,-1.3338473749211808,-2.525951925908224,6.113350975304403,1.0158631801605225,-2.0050223509417933
1708443416.4370394,-2.1431376934051514,-1.3337821972421189,-2.525940004979269,6.1134002087409876,1.015858769416809,-2.0050013701068323
1708443416.439034,-2.143153429031372,-1.3338028353503724,-2.525951925908224,6.113388049393453,1.0158374309539795,-2.0050013701068323
1708443416.441063,-2.1431665420532227,-1.333835781817772,-2.525954786931173,6.113379108696737,1.0158722400665283,-2.005038563405172
1708443416.4430459,-2.143191337585449,-1.333760292535164,-2.525951925908224,6.1134047386939905,1.0158088207244873,-2.0050175825702112
1708443416.4450405,-2.143157958984375,-1.333769069319107,-2.525980297719137,6.1134002087409876,1.0158555507659912,-2.0050132910357874
1708443416.4470382,-2.143200159072876,-1.3337821972421189,-2.525971237813131,6.113481986313619,1.0158419609069824,-2.005035702382223
1708443416.4490247,-2.143162250518799,-1.3337984842113038,-2.525893751774923,6.11339687088088,1.0158555507659912,-2.005010430012838
1708443416.4510877,-2.1432199478149414,-1.3338357371142884,-2.525951925908224,6.113419639855184,1.0158705711364746,-2.005038563405172
1708443416.45302,-2.143195867538452,-1.3338020008853455,-2.525959316884176,6.113416540413656,1.0158252716064453,-2.0050342718707483
1708443416.4550393,-2.1431446075439453,-1.3338517409614106,-2.525963846837179,6.11338351944045,1.0158631801605225,-2.004960362111227
1708443416.4570167,-2.1432249546051025,-1.333736465578415,-2.525942866002218,6.1135103581245325,1.015879511833191,-2.004963223134176
1708443416.459022,-2.143153429031372,-1.3337909293225785,-2.525954786931173,6.113425481110372,1.0158631801605225,-2.0050023237811487
1708443416.4610195,-2.143183469772339,-1.333753989343979,-2.525938336049215,6.113428461342611,1.0158631801605225,-2.0050295034991663
1708443416.4630306,-2.143191337585449,-1.3337777566960831,-2.525930945073263,6.1134328720863245,1.015879511833191,-2.005066696797506
1708443416.4650621,-2.1431658267974854,-1.3337702763131638,-2.525923554097311,6.1134047386939905,1.015912652015686,-2.005042854939596
1708443416.4671037,-2.143178939819336,-1.333831400876381,-2.525930945073263,6.113379108696737,1.0158464908599854,-2.005042854939596
1708443416.4690592,-2.143207311630249,-1.3337702614120026,-2.525923554097311,6.113374817162313,1.015858769416809,-2.004993263875143
1708443416.471094,-2.1431612968444824,-1.333753989343979,-2.525951925908224,6.113424050598898,1.0158841609954834,-2.004988972340719
1708443416.4730368,-2.143174648284912,-1.333828182225563,-2.525935475026266,6.113421070366659,1.0158541202545166,-2.005026642476217
1708443416.4750614,-2.1431491374969482,-1.3337909442237397,-2.525944534932272,6.11338351944045,1.0158751010894775,-2.005030934010641
1708443416.4770699,-2.1431827545166016,-1.3338560622981568,-2.525954786931173,6.1134328720863245,1.015858769416809,-2.0050295034991663
1708443416.4790556,-2.1431612968444824,-1.333831400876381,-2.525959316884176,6.113437402039327,1.0158705711364746,-2.005038563405172
1708443416.4810612,-2.143153429031372,-1.3337570589831849,-2.525954786931173,6.113395797997274,1.0158722400665283,-2.0050175825702112
1708443416.483042,-2.143228769302368,-1.3338357371142884,-2.525942866002218,6.113398778229513,1.0159008502960205,-2.005038563405172
1708443416.4850512,-2.1431870460510254,-1.3338269305280228,-2.525963846837179,6.113453733711996,1.0158751010894775,-2.0050175825702112
1708443416.487031,-2.143211841583252,-1.3338028502515336,-2.525951925908224,6.1134002087409876,1.0158374309539795,-2.005014721547262
1708443416.489056,-2.1431827545166016,-1.3337865632823487,-2.525954786931173,6.113391387253561,1.0158872604370117,-2.005039993916647
1708443416.4910588,-2.143202781677246,-1.3337821823409577,-2.525942866002218,6.1134447930152795,1.0158872604370117,-2.004998032246725
1708443416.4930627,-2.143178939819336,-1.3338028651526947,-2.525975767766134,6.113421070366659,1.0158767700195312,-2.005026642476217
1708443416.495086,-2.143191337585449,-1.3337896776250382,-2.525980297719137,6.1134447930152795,1.015858769416809,-2.0050023237811487
1708443416.497042,-2.1431491374969482,-1.3338517409614106,-2.525968376790182,6.113391387253561,1.015858769416809,-2.005010430012838
1708443416.4990363,-2.1431612968444824,-1.3338401478580018,-2.525910202656881,6.113407718926229,1.015879511833191,-2.005023781453268
1708443416.5010426,-2.143162250518799,-1.3337614250234147,-2.525938336049215,6.11338351944045,1.0158541202545166,-2.0049741903888147
1708443416.5030353,-2.1431658267974854,-1.3337821823409577,-2.525963846837179,6.113390075951376,1.0158963203430176,-2.005026642476217
1708443416.5050628,-2.143207311630249,-1.3337702614120026,-2.525968376790182,6.113371717720785,1.0158827304840088,-2.0050466696368616
1708443416.5070438,-2.1431779861450195,-1.333815099006035,-2.5259056727038782,6.113392460137167,1.0158541202545166,-2.004963223134176
1708443416.509046,-2.1431703567504883,-1.3338194501451035,-2.525980059300558,6.113416540413656,1.015933632850647,-2.0049966017352503
1708443416.5110765,-2.1432065963745117,-1.3337777566960831,-2.525940004979269,6.113441812783041,1.0158497095108032,-2.005030934010641
1708443416.5130465,-2.143191337585449,-1.3338019859841843,-2.5259891192065638,6.113394486695089,1.0158963203430176,-2.005042854939596
1708443416.5150423,-2.1432242393493652,-1.333811567430832,-2.525968138371603,6.113424050598898,1.0158872604370117,-2.0050552527057093
1708443416.5170393,-2.143202781677246,-1.3338028502515336,-2.525930945073263,6.113437402039327,1.0158796310424805,-2.005071465169088
1708443416.5190609,-2.143157958984375,-1.3338028502515336,-2.525968138371603,6.113424050598898,1.0158751010894775,-2.0050023237811487
1708443416.5210955,-2.1431939601898193,-1.3337909293225785,-2.525975767766134,6.1134047386939905,1.0158767700195312,-2.005047623311178
1708443416.523032,-2.1431984901428223,-1.3337821823409577,-2.525938336049215,6.113421070366659,1.0159035921096802,-2.005042854939596
1708443416.5250423,-2.143157958984375,-1.333815099006035,-2.5259221235858362,6.113407718926229,1.015858769416809,-2.005026642476217
1708443416.5270162,-2.1432242393493652,-1.3337702614120026,-2.5259056727038782,6.113374697953024,1.0159200429916382,-2.005035702382223
1708443416.529005,-2.143195867538452,-1.3337865632823487,-2.525947395955221,6.113388049393453,1.015879511833191,-2.0050175825702112
1708443416.5310223,-2.143195867538452,-1.3337329787066956,-2.525947395955221,6.113349425583639,1.0158828496932983,-2.0050600210772913
1708443416.5330331,-2.1431400775909424,-1.3337451827577134,-2.525919024144308,6.113388049393453,1.0158963203430176,-2.005038563405172
1708443416.5350287,-2.143195867538452,-1.3337865632823487,-2.525968376790182,6.113412129669943,1.0159200429916382,-2.0049675146686
1708443416.5370386,-2.143191337585449,-1.3337614250234147,-2.5259280840503138,6.113428461342611,1.0158828496932983,-2.005026642476217
1708443416.5390255,-2.1431665420532227,-1.3338028651526947,-2.525909964238302,6.113437402039327,1.0158917903900146,-2.0050557295428675
1708443416.5410528,-2.143178939819336,-1.333806262617447,-2.525984589253561,6.113435971527853,1.0158783197402954,-2.0049694220172327
1708443416.5430381,-2.1431984901428223,-1.3337984842113038,-2.525980297719137,6.113428461342611,1.0159319639205933,-2.005005661641256
1708443416.5450492,-2.1431827545166016,-1.3338194501451035,-2.525935475026266,6.113421070366659,1.0159200429916382,-2.005047623311178
1708443416.5470362,-2.1432154178619385,-1.333822564487793,-2.525935475026266,6.113441812783041,1.0159155130386353,-2.0050013701068323
1708443416.5490327,-2.1432154178619385,-1.3337451380542298,-2.525947395955221,6.1134328720863245,1.0158828496932983,-2.005038563405172
1708443416.5510287,-2.1431984901428223,-1.3337821823409577,-2.525963846837179,6.113437402039327,1.0158616304397583,-2.005005661641256
1708443416.5530267,-2.1431984901428223,-1.333786593084671,-2.5259221235858362,6.113386976509847,1.0158991813659668,-2.005051914845602
1708443416.5550203,-2.143195867538452,-1.3337777268937607,-2.525919024144308,6.1134328720863245,1.0158947706222534,-2.005042854939596
1708443416.5570369,-2.1431827545166016,-1.3337373447469254,-2.525935475026266,6.113421070366659,1.0159200429916382,-2.005014721547262
1708443416.5590324,-2.143162250518799,-1.3338028651526947,-2.525954786931173,6.113376128464498,1.0158616304397583,-2.0050509611712855
1708443416.561033,-2.1431939601898193,-1.3337777268937607,-2.525980297719137,6.113342034607687,1.0158947706222534,-2.005038563405172
1708443416.5630584,-2.143150806427002,-1.333835781817772,-2.525919024144308,6.113395797997274,1.0159454345703125,-2.0050132910357874
1708443416.5650322,-2.143200159072876,-1.3337702614120026,-2.525980297719137,6.113378035813131,1.0158828496932983,-2.0050342718707483
1708443416.5671036,-2.1432242393493652,-1.3337570589831849,-2.525914732609884,6.113435971527853,1.0159111022949219,-2.0050895849811
1708443416.5690854,-2.1432154178619385,-1.333822564487793,-2.5259221235858362,6.113425481110372,1.0159082412719727,-2.005023781453268
1708443416.571076,-2.1431984901428223,-1.333826945429184,-2.5259667078601282,6.113416540413656,1.0158991813659668,-2.0050175825702112
1708443416.5730512,-2.143195867538452,-1.3338028651526947,-2.525938336049215,6.113376128464498,1.0159111022949219,-2.005030934010641
1708443416.5750573,-2.1431658267974854,-1.3338028651526947,-2.525954786931173,6.113388049393453,1.0159245729446411,-2.004979912434713
1708443416.5770426,-2.1431827545166016,-1.333810643558838,-2.525935475026266,6.113437402039327,1.0158872604370117,-2.004984203969137
1708443416.5790536,-2.143207311630249,-1.3337896478227158,-2.525935475026266,6.113453733711996,1.0158946514129639,-2.005030934010641
1708443416.58105,-2.1431870460510254,-1.333810643558838,-2.525984589253561,6.113325702935018,1.0159183740615845,-2.0050013701068323
1708443416.58304,-2.143191337585449,-1.3337940287641068,-2.525968376790182,6.113412129669943,1.0158783197402954,-2.0049975554095667
1708443416.5850294,-2.1431612968444824,-1.3338517409614106,-2.52592641512026,6.113441812783041,1.015923023223877,-2.0050509611712855
1708443416.5870233,-2.1431870460510254,-1.3338028651526947,-2.525980059300558,6.113458144455709,1.0158783197402954,-2.005042854939596
1708443416.5890217,-2.1431658267974854,-1.3337746423533936,-2.525984589253561,6.113419520645895,1.0159200429916382,-2.0050295034991663
1708443416.5910385,-2.1431939601898193,-1.3337570589831849,-2.525942866002218,6.113424050598898,1.0159319639205933,-2.005026642476217
1708443416.5930228,-2.1431658267974854,-1.3338028651526947,-2.525975767766134,6.11338351944045,1.0159363746643066,-2.0050013701068323
1708443416.5950084,-2.1432199478149414,-1.333752767448761,-2.525930945073263,6.113440382271566,1.015902042388916,-2.005019013081686
1708443416.5970538,-2.1432154178619385,-1.3338072311929245,-2.525956455861227,6.11338351944045,1.0158902406692505,-2.005069080983297
1708443416.5990393,-2.1431870460510254,-1.3338028651526947,-2.525954786931173,6.113474714546957,1.015923023223877,-2.005042854939596
1708443416.6010392,-2.1432199478149414,-1.3338517409614106,-2.525971237813131,6.113435971527853,1.015923023223877,-2.005026642476217
1708443416.603037,-2.143202781677246,-1.3338238608888169,-2.525914494191305,6.113449203758993,1.015902042388916,-2.005026642476217
1708443416.605047,-2.1431331634521484,-1.333835781817772,-2.525980059300558,6.113415109902181,1.0159400701522827,-2.0050295034991663
1708443416.6070423,-2.143202781677246,-1.333736465578415,-2.525956455861227,6.113374697953024,1.0159111022949219,-2.005038563405172
1708443416.6090324,-2.1432199478149414,-1.3337984842113038,-2.525963846837179,6.113362777024069,1.015902042388916,-2.005038563405172
1708443416.611022,-2.1431827545166016,-1.333826945429184,-2.525980297719137,6.113374697953024,1.0158902406692505,-2.0050132910357874
1708443416.613038,-2.143202781677246,-1.333743931060173,-2.525940004979269,6.1134328720863245,1.0159274339675903,-2.0050600210772913
1708443416.6150534,-2.143228769302368,-1.333806262617447,-2.5259879271136683,6.113421070366659,1.0159066915512085,-2.0050132910357874
1708443416.617042,-2.1431827545166016,-1.333826945429184,-2.525926653538839,6.1133943674858,1.0159308910369873,-2.005026642476217
1708443416.6190557,-2.1431984901428223,-1.3338028502515336,-2.525959316884176,6.113419639855184,1.0159400701522827,-2.0050223509417933
1708443416.6210299,-2.143207311630249,-1.3337647479823609,-2.525907103215353,6.113437402039327,1.015949010848999,-2.005010430012838
1708443416.6230247,-2.1431870460510254,-1.3338028502515336,-2.525935475026266,6.113388049393453,1.015923023223877,-2.0050552527057093
1708443416.6250224,-2.143162250518799,-1.333819479947426,-2.525954786931173,6.1133824465568445,1.015902042388916,-2.005051914845602
1708443416.6270273,-2.1432154178619385,-1.3337984842113038,-2.5259221235858362,6.113424050598898,1.0158991813659668,-2.004975144063131
1708443416.6290216,-2.1432199478149414,-1.3338269305280228,-2.525947395955221,6.113424050598898,1.0158947706222534,-2.0050223509417933
1708443416.6310296,-2.1431827545166016,-1.3337570589831849,-2.525963846837179,6.113422620087423,1.015923023223877,-2.0050223509417933
1708443416.633023,-2.1431827545166016,-1.333815099006035,-2.525963846837179,6.113412129669943,1.0159183740615845,-2.005010430012838
1708443416.6350448,-2.143202781677246,-1.3337777268937607,-2.525944534932272,6.113453733711996,1.0159155130386353,-2.005026642476217
1708443416.637043,-2.1432323455810547,-1.3337495935014267,-2.525980297719137,6.113428461342611,1.015960931777954,-2.0050023237811487
1708443416.639053,-2.1431984901428223,-1.3337865632823487,-2.525971237813131,6.1133464453514,1.015897512435913,-2.005080525075094
1708443416.641019,-2.143202781677246,-1.3338238161853333,-2.525951925908224,6.113395797997274,1.015923023223877,-2.005069080983297
1708443416.643037,-2.143207311630249,-1.3337777268937607,-2.52592641512026,6.113379108696737,1.0159400701522827,-2.004988972340719
1708443416.6450303,-2.143207311630249,-1.333815099006035,-2.525914494191305,6.113374697953024,1.0159111022949219,-2.005030934010641
1708443416.6470335,-2.143153429031372,-1.3337909442237397,-2.525951925908224,6.113428461342611,1.015923023223877,-2.005042854939596
1708443416.649034,-2.1432154178619385,-1.333828182225563,-2.525938336049215,6.113388049393453,1.0159183740615845,-2.004988972340719
1708443416.6510239,-2.1431870460510254,-1.3337733906558533,-2.525942866002218,6.113440382271566,1.015852451324463,-2.005019013081686
1708443416.6530485,-2.143211603164673,-1.3338072162917634,-2.525942866002218,6.1133824465568445,1.0159400701522827,-2.005084816609518
1708443416.655038,-2.143191337585449,-1.3338238161853333,-2.526013199483053,6.113435971527853,1.0159274339675903,-2.0050175825702112
1708443416.6570866,-2.1432154178619385,-1.3337702614120026,-2.525956455861227,6.113421070366659,1.0159183740615845,-2.005010430012838
1708443416.659046,-2.1431984901428223,-1.3337940287641068,-2.525930945073263,6.113449203758993,1.015923023223877,-2.0050175825702112
1708443416.6610339,-2.1431939601898193,-1.3337777566960831,-2.525963846837179,6.11343930938796,1.0159518718719482,-2.005005661641256
1708443416.6630454,-2.1432108879089355,-1.3337821972421189,-2.5259607473956507,6.113437402039327,1.0158947706222534,-2.005035702382223
1708443416.6650448,-2.143207311630249,-1.3337777268937607,-2.525968376790182,6.1134328720863245,1.0159274339675903,-2.005064312611715
1708443416.6670787,-2.1431827545166016,-1.333822564487793,-2.525940004979269,6.1134447930152795,1.0159183740615845,-2.0050223509417933
1708443416.6690876,-2.1431658267974854,-1.333815099006035,-2.525935475026266,6.113358366280355,1.0159517526626587,-2.005030934010641
1708443416.6710637,-2.1431870460510254,-1.3337984842113038,-2.5259726683246058,6.11338351944045,1.0159066915512085,-2.0050881544696253
1708443416.67305,-2.143202781677246,-1.3337976050427933,-2.525959316884176,6.113416540413656,1.0159308910369873,-2.0050295034991663
1708443416.675044,-2.1431827545166016,-1.333822564487793,-2.5259442965136927,6.113419639855184,1.015977382659912,-2.005010430012838
1708443416.6770315,-2.1431243419647217,-1.3338028502515336,-2.525940004979269,6.113353955536642,1.015923023223877,-2.005039993916647
1708443416.6790211,-2.1431939601898193,-1.333822564487793,-2.525956455861227,6.1133824465568445,1.0158991813659668,-2.005047623311178
1708443416.681079,-2.143191337585449,-1.333822564487793,-2.525893751774923,6.113453733711996,1.015923023223877,-2.005005661641256
1708443416.6830294,-2.1431779861450195,-1.3338028651526947,-2.525947395955221,6.113374697953024,1.015923023223877,-2.005030934010641
1708443416.685066,-2.1432199478149414,-1.3337285083583375,-2.525907103215353,6.113394486695089,1.0159111022949219,-2.005073372517721
1708443416.687051,-2.1431939601898193,-1.3337614697268982,-2.5258947054492396,6.113395797997274,1.0159274339675903,-2.004979912434713
1708443416.68903,-2.1431870460510254,-1.3338269305280228,-2.525935475026266,6.113477575569906,1.0159066915512085,-2.005010430012838
1708443416.6910615,-2.143216133117676,-1.3337407571128388,-2.525935475026266,6.113449203758993,1.0159274339675903,-2.0050509611712855
1708443416.6930358,-2.143202781677246,-1.3338313710740586,-2.5259490648852747,6.113395797997274,1.0159155130386353,-2.005005661641256
1708443416.6950305,-2.143202781677246,-1.3337984842113038,-2.525944534932272,6.113416540413656,1.0159245729446411,-2.005038563405172
1708443416.6970127,-2.1431612968444824,-1.3337539744428177,-2.525940004979269,6.113437402039327,1.0159155130386353,-2.004963223134176
1708443416.699046,-2.143195867538452,-1.3338357371142884,-2.525956455861227,6.113427150040426,1.0159200429916382,-2.005051914845602
1708443416.7010236,-2.1431894302368164,-1.3337909293225785,-2.52590257326235,6.113419639855184,1.0158902406692505,-2.005047623311178
1708443416.7030082,-2.143195867538452,-1.3337777566960831,-2.525907103215353,6.1134447930152795,1.0158902406692505,-2.0050895849811
1708443416.7050288,-2.1431827545166016,-1.333819479947426,-2.525864903126852,6.113421070366659,1.0159111022949219,-2.005031410847799
1708443416.7070713,-2.1431939601898193,-1.3337821823409577,-2.5259371439563196,6.11346589305953,1.0158946514129639,-2.005030934010641
1708443416.7090275,-2.1431703567504883,-1.3337407571128388,-2.5258856455432337,6.113374697953024,1.0158586502075195,-2.005005661641256
1708443416.7110639,-2.1432275772094727,-1.3337539744428177,-2.525907103215353,6.1134328720863245,1.0158451795578003,-2.005023781453268
1708443416.7130256,-2.1431894302368164,-1.333753989343979,-2.5258918444262903,6.113362777024069,1.0159200429916382,-2.0049946943866175
1708443416.7150254,-2.143153429031372,-1.3338194501451035,-2.525851551686422,6.113412129669943,1.0158751010894775,-2.0050023237811487
1708443416.717027,-2.1431612968444824,-1.3338072162917634,-2.5258095900165003,6.113497245102682,1.0158705711364746,-2.004960362111227
1708443416.7190218,-2.1431612968444824,-1.3337821972421189,-2.525851551686422,6.113394486695089,1.0158541202545166,-2.0049946943866175
1708443416.7210338,-2.143202781677246,-1.333799735908844,-2.525851551686422,6.113374697953024,1.0158329010009766,-2.005039993916647
1708443416.7230237,-2.1432154178619385,-1.3338062775186081,-2.5258470217334192,6.113403308182516,1.0158828496932983,-2.0049994627581995
1708443416.7250302,-2.1431567668914795,-1.3337658953717728,-2.525832001362936,6.113407718926229,1.0158828496932983,-2.0049784819232386
1708443416.7270358,-2.1431827545166016,-1.333826945429184,-2.525818411503927,6.11343144157485,1.015879511833191,-2.0050023237811487
1708443416.7290156,-2.143169403076172,-1.333815099006035,-2.525848690663473,6.113410818367758,1.0158705711364746,-2.005019489918844
1708443416.7310395,-2.1432154178619385,-1.3337940287641068,-2.5258408228503626,6.113410699158468,1.0158586502075195,-2.004981342946188
1708443416.7330482,-2.1432242393493652,-1.3338385236314316,-2.525851551686422,6.113391387253561,1.0158931016921997,-2.0050113836871546
1708443416.7350502,-2.1431736946105957,-1.3338282269290467,-2.5258198420154017,6.113353955536642,1.0158872604370117,-2.0049994627581995
1708443416.737025,-2.1432108879089355,-1.3338238161853333,-2.525790039693014,6.113464104920187,1.0158796310424805,-2.0049575010882776
1708443416.739046,-2.1431870460510254,-1.333802880053856,-2.525794569646017,6.113391387253561,1.0158586502075195,-2.0049575010882776
1708443416.7410505,-2.143207311630249,-1.333815099006035,-2.52584416071047,6.11346589305953,1.0158207416534424,-2.0049288908587855
1708443416.74305,-2.1431736946105957,-1.3337909442237397,-2.5257988611804407,6.1134774563606165,1.0158677101135254,-2.005000893269674
1708443416.7450438,-2.1431243419647217,-1.3337909442237397,-2.525794331227438,6.113419639855184,1.0158963203430176,-2.0049589315997522
1708443416.7470226,-2.143223285675049,-1.3337777268937607,-2.525832001362936,6.113440382271566,1.0158133506774902,-2.0049260298358362
1708443416.7490244,-2.143191337585449,-1.333844469194748,-2.5257988611804407,6.113419639855184,1.015810489654541,-2.0049060026751917
1708443416.751071,-2.1431870460510254,-1.3337952953628083,-2.525794331227438,6.113477575569906,1.0157986879348755,-2.004934612904684
1708443416.7530413,-2.1431658267974854,-1.3337909442237397,-2.525851551686422,6.113394486695089,1.0158313512802124,-2.00488788286318
1708443416.7550647,-2.143207311630249,-1.333810643558838,-2.525806252156393,6.113424050598898,1.0157818794250488,-2.0049260298358362
1708443416.7570472,-2.1432154178619385,-1.3337702763131638,-2.525806252156393,6.1134328720863245,1.015826940536499,-2.004868809376852
1708443416.7590268,-2.1431779861450195,-1.3337658953717728,-2.5257988611804407,6.113449203758993,1.0158076286315918,-2.004901711140768
1708443416.7610393,-2.1432108879089355,-1.3337821972421189,-2.525806252156393,6.1134774563606165,1.0158195495605469,-2.004896942769186
1708443416.7630458,-2.1432108879089355,-1.333826945429184,-2.525856081639425,6.1134002087409876,1.0158405303955078,-2.004918400441305
1708443416.7650366,-2.1432065963745117,-1.3338020008853455,-2.525801960621969,6.113431560784139,1.0158194303512573,-2.0049150625811976
1708443416.767063,-2.1432154178619385,-1.333815113907196,-2.525827471409933,6.113415109902181,1.0157651901245117,-2.004932228718893
1708443416.769168,-2.143211603164673,-1.3338028651526947,-2.5258033911334437,6.113428461342611,1.015831470489502,-2.0049150625811976
1708443416.77107,-2.143144369125366,-1.3338357371142884,-2.525827471409933,6.113424050598898,1.0158030986785889,-2.004922691975729
1708443416.7730436,-2.1431984901428223,-1.3337733906558533,-2.525810782109396,6.113424050598898,1.0157579183578491,-2.004948441182272
1708443416.7750285,-2.143153429031372,-1.3337810349515458,-2.5257704893695276,6.113412129669943,1.0157877206802368,-2.0048988501178187
1708443416.777031,-2.1431827545166016,-1.3337821823409577,-2.5258033911334437,6.1134328720863245,1.0157999992370605,-2.0049193541156214
1708443416.7790217,-2.1431491374969482,-1.3337865781835099,-2.525851551686422,6.113412129669943,1.0157877206802368,-2.0048731009112757
1708443416.7810333,-2.143153429031372,-1.3337984842113038,-2.525806252156393,6.113407718926229,1.0157787799835205,-2.0048702398883265
1708443416.7830439,-2.143174648284912,-1.3337496382049103,-2.5258241335498255,6.113362777024069,1.0157712697982788,-2.004922691975729
1708443416.7850673,-2.1431779861450195,-1.3338679832271119,-2.525810782109396,6.113407718926229,1.015773057937622,-2.004868809376852
1708443416.7870321,-2.143211603164673,-1.333822564487793,-2.5258408228503626,6.113470423012533,1.0157848596572876,-2.0049060026751917
1708443416.7890315,-2.143144369125366,-1.3337702614120026,-2.525810782109396,6.113395797997274,1.015718936920166,-2.004922691975729
1708443416.7910213,-2.1431779861450195,-1.333831400876381,-2.5258153120623987,6.113409149437704,1.015697717666626,-2.0049060026751917
1708443416.7930233,-2.1432108879089355,-1.3337658953717728,-2.5258241335498255,6.113392460137167,1.015723466873169,-2.0048659483539026
1708443416.7950392,-2.1431703567504883,-1.333810643558838,-2.5258033911334437,6.113421070366659,1.015693187713623,-2.0048988501178187
1708443416.7970316,-2.1431827545166016,-1.333799735908844,-2.5258153120623987,6.113437402039327,1.0156781673431396,-2.0049150625811976
1708443416.7990263,-2.1432242393493652,-1.3338072162917634,-2.525794569646017,6.113380539208212,1.0156646966934204,-2.0048206488238733
1708443416.8010142,-2.1431870460510254,-1.3337496382049103,-2.525790039693014,6.1133389351661584,1.0156571865081787,-2.0048821608172815
1708443416.8030486,-2.1431357860565186,-1.3338072311929245,-2.5258198420154017,6.1134047386939905,1.0157325267791748,-2.0048912207232874
1708443416.8050332,-2.143191337585449,-1.3337746423533936,-2.5258153120623987,6.113379108696737,1.0156782865524292,-2.0048792997943323
1708443416.807031,-2.1431984901428223,-1.3337865632823487,-2.5258198420154017,6.113388049393453,1.0157325267791748,-2.0048416296588343
1708443416.809025,-2.1432199478149414,-1.3337865632823487,-2.5257869402514856,6.113437402039327,1.0156946182250977,-2.0048492590533655
1708443416.8110502,-2.1431400775909424,-1.3337614697268982,-2.5258198420154017,6.113388049393453,1.0156453847885132,-2.0048864523517054
1708443416.8130333,-2.1431703567504883,-1.3338072162917634,-2.5258079210864466,6.113409149437704,1.0156946182250977,-2.0048821608172815
1708443416.815044,-2.1431827545166016,-1.3337702763131638,-2.5257704893695276,6.113421070366659,1.0156376361846924,-2.0048912207232874
1708443416.8170378,-2.143211603164673,-1.3338238161853333,-2.5257659594165247,6.1133508560951135,1.0156872272491455,-2.0048745314227503
1708443416.8190415,-2.1431851387023926,-1.3338028651526947,-2.5257960001574915,6.113437402039327,1.0156872272491455,-2.0048115889178675
1708443416.8210397,-2.1432154178619385,-1.3337984544089814,-2.5258033911334437,6.113358366280355,1.0156707763671875,-2.0048745314227503
1708443416.8230436,-2.1431939601898193,-1.333753989343979,-2.5257988611804407,6.113401400833883,1.0156781673431396,-2.0048540274249476
1708443416.8250337,-2.1432480812072754,-1.3337865781835099,-2.52582294145693,6.11338351944045,1.015687108039856,-2.0048583189593714
1708443416.8270283,-2.1431939601898193,-1.3337702614120026,-2.525778118764059,6.1133553860481165,1.0156453847885132,-2.0048583189593714
1708443416.829034,-2.1431984901428223,-1.3337627214244385,-2.5257988611804407,6.113437402039327,1.0156420469284058,-2.004817787800924
1708443416.8310251,-2.143178939819336,-1.3338282269290467,-2.5257824102984827,6.1134047386939905,1.0156663656234741,-2.004845921193258
1708443416.8330534,-2.1431612968444824,-1.333753989343979,-2.5258410612689417,6.113376128464498,1.015654444694519,-2.004850212727682
1708443416.8350568,-2.143153429031372,-1.333819479947426,-2.5257988611804407,6.113352167397299,1.0156512260437012,-2.004829708729879
1708443416.8370547,-2.1432108879089355,-1.3337746572545548,-2.5258782545672815,6.11335979679183,1.0156466960906982,-2.004805390034811
1708443416.839049,-2.1432409286499023,-1.333819479947426,-2.525832001362936,6.113371717720785,1.015618085861206,-2.0047934691058558
1708443416.841059,-2.1431331634521484,-1.3337953102639695,-2.5258124510394495,6.113371717720785,1.0156481266021729,-2.0048230330096644
1708443416.8430288,-2.1431703567504883,-1.3337614250234147,-2.5257704893695276,6.113278019219198,1.015655755996704,-2.0047948996173304
1708443416.8450465,-2.1431984901428223,-1.3337659251740952,-2.5257704893695276,6.1133553860481165,1.0156466960906982,-2.0048025290118616
1708443416.8470309,-2.143174648284912,-1.3337953102639695,-2.5257960001574915,6.113347875862875,1.015618085861206,-2.0047271887408655
1708443416.8490384,-2.1431703567504883,-1.3338041466525574,-2.5257628599749964,6.113319623261251,1.0156466960906982,-2.0047696272479456
1708443416.8510268,-2.143207311630249,-1.3337777268937607,-2.5257750193225306,6.11333595493392,1.0156466960906982,-2.0048025290118616
1708443416.8530347,-2.1431612968444824,-1.3337671768716355,-2.5257960001574915,6.113307702332296,1.015622615814209,-2.0047481695758265
1708443416.8550348,-2.143202781677246,-1.333810643558838,-2.5258331934558313,6.113261329918661,1.015634536743164,-2.0047529379474085
1708443416.8570337,-2.1431984901428223,-1.3337539744428177,-2.5257719198810022,6.113328444748678,1.0156512260437012,-2.0047782103167933
1708443416.859023,-2.1431491374969482,-1.3337583404830475,-2.5257704893695276,6.1133001921470544,1.015627145767212,-2.0048187414752405
1708443416.86104,-2.143191337585449,-1.3337702614120026,-2.5257795492755335,6.113332855492391,1.0156059265136719,-2.0048096815692347
1708443416.8630407,-2.1431779861450195,-1.3338072311929245,-2.5258198420154017,6.113304602890768,1.0156059265136719,-2.0047696272479456
1708443416.8650508,-2.1431612968444824,-1.333749608402588,-2.5257869402514856,6.113271462708273,1.015601396560669,-2.0048230330096644
1708443416.8670857,-2.1431779861450195,-1.3337671768716355,-2.5257750193225306,6.113344776421346,1.0156148672103882,-2.0047901312457483
1708443416.869089,-2.1431870460510254,-1.3338160675815125,-2.5258005301104944,6.113280522614279,1.015601396560669,-2.004787270222799
1708443416.871039,-2.143144369125366,-1.3337953102639695,-2.5257914702044886,6.113292443543234,1.0156182050704956,-2.0047577063189905
1708443416.8730156,-2.1432108879089355,-1.3337746423533936,-2.5257628599749964,6.1133166430290125,1.015568733215332,-2.004775349293844
1708443416.874999,-2.1431491374969482,-1.3337627214244385,-2.5258005301104944,6.1133179543311975,1.0156059265136719,-2.0047829786883753
1708443416.8770294,-2.1431570053100586,-1.333819479947426,-2.5257719198810022,6.113292443543234,1.0155731439590454,-2.00472861925234
1708443416.8790133,-2.143174648284912,-1.3337953102639695,-2.5257673899279993,6.1133179543311975,1.015634536743164,-2.0047486464129847
1708443416.8810434,-2.1431567668914795,-1.3337614250234147,-2.5257673899279993,6.113255250244894,1.015601396560669,-2.0047648588763636
1708443416.8830388,-2.143178939819336,-1.3337777268937607,-2.525809351597921,6.113289463310995,1.015639066696167,-2.00474197069277
1708443416.8850524,-2.143207311630249,-1.3337865632823487,-2.525776211415426,6.11326419094161,1.0156059265136719,-2.0047529379474085
1708443416.8870335,-2.1431939601898193,-1.3338072311929245,-2.5257509390460413,6.113265263825216,1.0156360864639282,-2.004766289387838
1708443416.8890269,-2.143207311630249,-1.3337909442237397,-2.525722328816549,6.113207685738363,1.0156182050704956,-2.0047529379474085
1708443416.8910296,-2.1431939601898193,-1.3337702614120026,-2.525797430668966,6.113232600479879,1.015627145767212,-2.0047829786883753
1708443416.8930068,-2.1431400775909424,-1.333832712178566,-2.525776449834005,6.113265263825216,1.0155941247940063,-2.0047782103167933
1708443416.8950284,-2.143207311630249,-1.3337733459523697,-2.525705877934591,6.113310205727377,1.0155731439590454,-2.0047948996173304
1708443416.8970063,-2.1431612968444824,-1.333815099006035,-2.5257719198810022,6.113199937134542,1.0155985355377197,-2.0047529379474085
1708443416.899036,-2.1432154178619385,-1.3338204485229035,-2.525764290486471,6.113216626435079,1.015602946281433,-2.004766289387838
1708443416.9010537,-2.1431779861450195,-1.333810643558838,-2.5257886091815394,6.113225447922506,1.015639066696167,-2.0047858397113245
1708443416.9030404,-2.1431779861450195,-1.3337746423533936,-2.5257554689990442,6.113217580109396,1.0155940055847168,-2.0047782103167933
1708443416.90508,-2.1431939601898193,-1.3337702614120026,-2.525759998952047,6.113199937134542,1.0156149864196777,-2.0047577063189905
1708443416.9070365,-2.143195867538452,-1.3337614101222535,-2.5257299582110804,6.113196837693014,1.0156434774398804,-2.0048025290118616
1708443416.9090366,-2.1431939601898193,-1.3337865632823487,-2.525747839604513,6.113139974861898,1.0156148672103882,-2.00474197069277
1708443416.9110532,-2.1431703567504883,-1.3337746423533936,-2.5257673899279993,6.113172995835104,1.0156148672103882,-2.0048115889178675
1708443416.9130428,-2.1431894302368164,-1.3337997806123276,-2.525764290486471,6.1130984900291345,1.0156406164169312,-2.0047577063189905
1708443416.91505,-2.143153429031372,-1.3337790083936234,-2.525792900715963,6.113132583885946,1.0155941247940063,-2.0047829786883753
1708443416.9170303,-2.1431827545166016,-1.3337790232947846,-2.525776449834005,6.113144504814901,1.0155941247940063,-2.0047619978534144
1708443416.9190085,-2.1431703567504883,-1.3337953102639695,-2.5257344881640833,6.113169657974996,1.0155866146087646,-2.0047619978534144
1708443416.9210572,-2.1432197093963623,-1.3337210577777405,-2.525734249745504,6.113141405373373,1.0156238079071045,-2.004740540181295
1708443416.923031,-2.143174648284912,-1.3337909442237397,-2.525780741368429,6.113116252213278,1.0155657529830933,-2.0047829786883753
1708443416.9250338,-2.143202781677246,-1.3338041466525574,-2.525738779698507,6.11316858509139,1.0156059265136719,-2.0047948996173304
1708443416.9270546,-2.1432108879089355,-1.3337627214244385,-2.525776449834005,6.1131863472755334,1.015607476234436,-2.0047739187823694
1708443416.9290147,-2.1431612968444824,-1.3337702614120026,-2.525738779698507,6.11312364318923,1.0155985355377197,-2.0047577063189905
1708443416.9310513,-2.1431870460510254,-1.3338116121343155,-2.52576452890505,6.1131489155586145,1.0156315565109253,-2.0047948996173304
1708443416.933054,-2.143153429031372,-1.3337953102639695,-2.525731388722555,6.1131489155586145,1.0155612230300903,-2.0047619978534144
1708443416.9350638,-2.143211603164673,-1.3337671768716355,-2.525726858769552,6.113135564118185,1.015607476234436,-2.004749600087301
1708443416.9370465,-2.1431827545166016,-1.3336840879968186,-2.5257225672351282,6.1131489155586145,1.0156315565109253,-2.0047948996173304
1708443416.9390671,-2.1431331634521484,-1.3338204485229035,-2.525759998952047,6.113111841469564,1.0155613422393799,-2.0047619978534144
1708443416.9410598,-2.143157958984375,-1.333810643558838,-2.525738779698507,6.113132583885946,1.0155940055847168,-2.004793945943014
1708443416.943031,-2.1431612968444824,-1.3337997806123276,-2.5257673899279993,6.113141405373373,1.0156148672103882,-2.004766289387838
1708443416.9450474,-2.143157958984375,-1.3337865632823487,-2.525726858769552,6.113153326302328,1.0156193971633911,-2.0048163572894495
1708443416.9470327,-2.1431703567504883,-1.3337658953717728,-2.52574330965151,6.113129484444418,1.0155985355377197,-2.004753891621725
1708443416.949055,-2.143207311630249,-1.3337329787066956,-2.5257180372821253,6.113139974861898,1.0155731439590454,-2.0047453085528772
1708443416.9510663,-2.143157958984375,-1.3338072311929245,-2.52574330965151,6.113169657974996,1.0155822038650513,-2.0047453085528772
1708443416.9530392,-2.143153429031372,-1.3337953102639695,-2.525759998952047,6.11318193653182,1.015591025352478,-2.0047577063189905
1708443416.955041,-2.1431984901428223,-1.3337715578130265,-2.5257464090930384,6.11312364318923,1.0156121253967285,-2.004733387623922
1708443416.957034,-2.1432154178619385,-1.3338041615537186,-2.525738779698507,6.113157737046041,1.0156104564666748,-2.0047529379474085
1708443416.959033,-2.1431827545166016,-1.3337539744428177,-2.525731388722555,6.113116252213278,1.0155820846557617,-2.00472861925234
1708443416.9610643,-2.143202781677246,-1.3337461066297074,-2.525738779698507,6.113071667938986,1.0156148672103882,-2.00477105775942
1708443416.96304,-2.1431779861450195,-1.3337166768363495,-2.5257719198810022,6.1131982682044885,1.0156272649765015,-2.004749600087301
1708443416.9650638,-2.143202781677246,-1.3337702614120026,-2.525785271321432,6.113174187927999,1.0155941247940063,-2.004753891621725
1708443416.9670367,-2.143191337585449,-1.333792270427086,-2.525747839604513,6.113139974861898,1.0156193971633911,-2.0047782103167933
1708443416.9691336,-2.1431658267974854,-1.3337549430182953,-2.525731388722555,6.113153326302328,1.0156316757202148,-2.004733387623922
1708443416.9710681,-2.143228769302368,-1.3338116121343155,-2.52574330965151,6.1131489155586145,1.0156148672103882,-2.004721466694967
1708443416.9730284,-2.143207311630249,-1.3337953102639695,-2.525752369557516,6.113120662956991,1.01566481590271,-2.0047124067889612
1708443416.975078,-2.143174648284912,-1.3338072311929245,-2.52574330965151,6.113177525788107,1.0155894756317139,-2.004725758229391
1708443416.9770195,-2.1431939601898193,-1.3338116121343155,-2.525714937840597,6.113128173142233,1.015591025352478,-2.0046642462359827
1708443416.9790308,-2.1431779861450195,-1.3337909442237397,-2.525734249745504,6.113144504814901,1.0155985355377197,-2.0046847502337855
1708443416.9810345,-2.143153429031372,-1.3337865632823487,-2.52574330965151,6.113178479462423,1.0155822038650513,-2.0046775976764124
1708443416.9830322,-2.143195867538452,-1.3337461066297074,-2.525734249745504,6.113117563515463,1.0156104564666748,-2.0046985785113733
1708443416.985036,-2.143183469772339,-1.333741695885994,-2.5257464090930384,6.113128173142233,1.0155822038650513,-2.00462514558901
1708443416.987026,-2.143183469772339,-1.3337878596833725,-2.525722328816549,6.113177525788107,1.0155985355377197,-2.004637066517965
1708443416.989035,-2.1431703567504883,-1.3338072311929245,-2.525722328816549,6.113141405373373,1.0155731439590454,-2.004700009022848
1708443416.9910219,-2.143207311630249,-1.333786593084671,-2.525726858769552,6.113153326302328,1.0155776739120483,-2.004613224660055
1708443416.9930408,-2.143191337585449,-1.3337539595416565,-2.525731388722555,6.113190758019247,1.0155613422393799,-2.0045602957354944
1708443416.995031,-2.1432411670684814,-1.3337733459523697,-2.525759998952047,6.113125073700704,1.0156149864196777,-2.0046446959124964
1708443416.997035,-2.143200159072876,-1.3337821823409577,-2.525759998952047,6.113090979843893,1.0155822038650513,-2.004516903554098
1708443416.999052,-2.143207311630249,-1.3337583404830475,-2.5257509390460413,6.113108742028036,1.0156360864639282,-2.0044716040240687
1708443417.00107,-2.1431984901428223,-1.3337790083936234,-2.525726858769552,6.113125073700704,1.0156104564666748,-2.0044878164874476
1708443417.0030346,-2.143174648284912,-1.3337715429118653,-2.525759998952047,6.113128173142233,1.015548825263977,-2.0044143835650843
1708443417.0050583,-2.1432197093963623,-1.3337417554906388,-2.525776449834005,6.113169657974996,1.0155866146087646,-2.00443679491152
1708443417.0070345,-2.1431984901428223,-1.3337997210076828,-2.525738779698507,6.11316083648757,1.0156193971633911,-2.0043957869159144
1708443417.0090497,-2.143202781677246,-1.3337373447469254,-2.5257673899279993,6.113114702492513,1.0156059265136719,-2.004364792500631
1708443417.0110223,-2.1431658267974854,-1.3337539595416565,-2.525738779698507,6.113099920540609,1.0156104564666748,-2.004331413899557
1708443417.0130427,-2.143174648284912,-1.3337135028890152,-2.5257673899279993,6.11318193653182,1.0155894756317139,-2.004298512135641
1708443417.0150995,-2.1431827545166016,-1.333741695885994,-2.525759998952047,6.113116252213278,1.0156104564666748,-2.004252258931295
1708443417.0170481,-2.143200159072876,-1.3337746423533936,-2.525759998952047,6.113120662956991,1.015660285949707,-2.0041659514056605
1708443417.0190544,-2.1431710720062256,-1.3337702614120026,-2.525722328816549,6.113128173142233,1.015601396560669,-2.0041750113116663
1708443417.021059,-2.143157958984375,-1.3337997806123276,-2.5257554689990442,6.113177525788107,1.0155967473983765,-2.004164520894186
1708443417.0230358,-2.1431703567504883,-1.3337505471757432,-2.525747839604513,6.113133895188131,1.015655755996704,-2.0041196982013147
1708443417.0250359,-2.143183469772339,-1.3337997806123276,-2.5257840792285364,6.1131489155586145,1.0155985355377197,-2.00403863588442
1708443417.0270307,-2.143200159072876,-1.3336972010186692,-2.5257673899279993,6.113116252213278,1.0156512260437012,-2.004026714955465
1708443417.02902,-2.1431825160980225,-1.3337789934924622,-2.5257628599749964,6.113099920540609,1.015627145767212,-2.0040038267718714
1708443417.031023,-2.143157958984375,-1.3337834787419816,-2.5258124510394495,6.113150346070089,1.0156059265136719,-2.003951374684469
1708443417.0330362,-2.143146514892578,-1.3337417256883164,-2.5257628599749964,6.11316083648757,1.015655755996704,-2.0039103666888636
1708443417.035039,-2.1431331634521484,-1.3337702614120026,-2.5257466475116175,6.113132583885946,1.0156466960906982,-2.003829304371969
1708443417.037034,-2.143178939819336,-1.3338204485229035,-2.5258005301104944,6.113164174347677,1.015634536743164,-2.0037434736834925
1708443417.0390599,-2.143178939819336,-1.3337997806123276,-2.5257628599749964,6.113090979843893,1.0156389474868774,-2.003732983266012
1708443417.0410545,-2.143207311630249,-1.333729849462845,-2.525722328816549,6.113136994629659,1.0156466960906982,-2.0036938826190394
1708443417.0430279,-2.143162250518799,-1.3337583404830475,-2.5258377234088343,6.113141405373373,1.0156331062316895,-2.003564182912008
1708443417.0450583,-2.143157958984375,-1.3337373447469254,-2.5257886091815394,6.113128173142233,1.0156633853912354,-2.0035465399371546
1708443417.0470417,-2.1431877613067627,-1.3337790232947846,-2.5257795492755335,6.11319528797225,1.0156872272491455,-2.003439728413717
1708443417.0490408,-2.1432242393493652,-1.3337539744428177,-2.5257960001574915,6.113120662956991,1.0156781673431396,-2.003347698842184
1708443417.051049,-2.1431491374969482,-1.3337702614120026,-2.5257840792285364,6.113153326302328,1.0156618356704712,-2.00326377550234
1708443417.053047,-2.143183469772339,-1.3337746423533936,-2.5257704893695276,6.113189327507772,1.015703558921814,-2.003188435231344
1708443417.0550473,-2.1431665420532227,-1.3337627065232773,-2.5258005301104944,6.1131489155586145,1.0157444477081299,-2.003080193196432
1708443417.0570302,-2.143174648284912,-1.3337430220893403,-2.5258286635028284,6.11318193653182,1.0157444477081299,-2.0029013792621058
1708443417.05906,-2.143204689025879,-1.3337223392776032,-2.5257869402514856,6.113113152771749,1.015714406967163,-2.002761189137594
1708443417.061036,-2.1431305408477783,-1.3337878596833725,-2.525794331227438,6.113141405373373,1.0157337188720703,-2.002709690724508
1708443417.0630407,-2.1431596279144287,-1.3337834489396592,-2.5258153120623987,6.113125073700704,1.0157668590545654,-2.002556625996725
1708443417.0650346,-2.1431639194488525,-1.3337627065232773,-2.525827471409933,6.113169657974996,1.0157787799835205,-2.0024364630328577
1708443417.0670452,-2.143155097961426,-1.3337627363255997,-2.52582294145693,6.113153326302328,1.0158195495605469,-2.00232965150942
1708443417.0691113,-2.1431639194488525,-1.333799735908844,-2.525848690663473,6.113092410355367,1.0158522129058838,-2.002111260090963
1708443417.071053,-2.1431527137756348,-1.3337461066297074,-2.525900904332296,6.113116133003988,1.0158556699752808,-2.0019596258746546
1708443417.0730417,-2.143118143081665,-1.3338028353503724,-2.52590519586672,6.113117563515463,1.0158917903900146,-2.0017860571490687
1708443417.0750306,-2.1431100368499756,-1.3336972010186692,-2.5258753935443323,6.113147246628561,1.0159035921096802,-2.0015514532672327
1708443417.0770464,-2.143094062805176,-1.3337746572545548,-2.5258753935443323,6.113049018173971,1.0159319639205933,-2.0013259092914026
1708443417.079069,-2.1430985927581787,-1.3337790083936234,-2.5258827845202845,6.11300681808547,1.0159400701522827,-2.0011757055865687
1708443417.0810406,-2.1431074142456055,-1.3337834787419816,-2.525912586842672,6.113069641381063,1.015942931175232,-2.0009329954730433
1708443417.0830474,-2.1430907249450684,-1.3338238608888169,-2.525923554097311,6.113110053330221,1.016045093536377,-2.0007455984698694
1708443417.08504,-2.1431119441986084,-1.3337834787419816,-2.526005808507101,6.11306523063735,1.016040563583374,-2.000512425099508
1708443417.0870717,-2.143095016479492,-1.3337865483811875,-2.525984589253561,6.113071071892538,1.0160598754882812,-2.0002267996417444
1708443417.0890374,-2.1430816650390625,-1.3337583255818863,-2.5259833971606653,6.113021719246664,1.0160961151123047,-2.000039879475729
1708443417.0910325,-2.143064022064209,-1.3337952953628083,-2.5260074774371546,6.113021838455953,1.0161230564117432,-1.999730412160055
1708443417.093038,-2.1430230140686035,-1.3337549430182953,-2.526076618825094,6.113009679108419,1.0161186456680298,-1.9993918577777308
1708443417.0950396,-2.1430530548095703,-1.3338028651526947,-2.526093069707052,6.113031971245565,1.0161938667297363,-1.9991071859942835
1708443417.09706,-2.1429688930511475,-1.333770291214325,-2.526084009801046,6.112920272141256,1.0161876678466797,-1.9988306204425257
1708443417.0990574,-2.142991065979004,-1.333770291214325,-2.5261033217059534,6.112905370980062,1.016211748123169,-1.9985459486590784
1708443417.101051,-2.143031597137451,-1.333749608402588,-2.5261648336993616,6.112884509354391,1.0162898302078247,-1.9982288519488733
1708443417.103083,-2.1429741382598877,-1.3337834787419816,-2.526179854069845,6.112906801491537,1.0162959098815918,-1.9978302160846155
1708443417.1050432,-2.1429264545440674,-1.3337702614120026,-2.526203695927755,6.112824666291036,1.0163531303405762,-1.997455898915426
1708443417.1070452,-2.1429433822631836,-1.333819479947426,-2.5261917749988,6.112838017731466,1.0163847208023071,-1.997054402028219
1708443417.109034,-2.142869710922241,-1.3337460917285462,-2.5262563864337366,6.112779724388876,1.0164777040481567,-1.9966161886798304
1708443417.111061,-2.1428990364074707,-1.3337496531060715,-2.526284996663229,6.112802016526022,1.0164854526519775,-1.9962580839740198
1708443417.1130447,-2.142916679382324,-1.3337451082519074,-2.526320997868673,6.112790095597067,1.0165166854858398,-1.9957616964923304
1708443417.1150355,-2.1429097652435303,-1.3337242168239136,-2.5263238588916224,6.112738001137533,1.0165770053863525,-1.9953559080706995
1708443417.1170328,-2.1428487300872803,-1.3337865632823487,-2.5263477007495325,6.1127052185829065,1.016667127609253,-1.9948485533343714
1708443417.1190376,-2.1427857875823975,-1.3337702465108414,-2.5263553301440638,6.112685549050131,1.016710638999939,-1.9943540732013147
1708443417.1210575,-2.1427834033966064,-1.3337865483811875,-2.526395861302511,6.112665879517355,1.0168038606643677,-1.9938486258136194
1708443417.1230288,-2.1427764892578125,-1.3338194501451035,-2.5264483133899134,6.112719762116232,1.016829490661621,-1.9932697455035608
1708443417.1250565,-2.1427478790283203,-1.3337733459523697,-2.5264888445483606,6.112646806031027,1.0169031620025635,-1.9927814642535608
1708443417.127045,-2.142731189727783,-1.3338028204492112,-2.5265279451953333,6.1126171229179285,1.0170607566833496,-1.9921487013446253
1708443417.129042,-2.142667770385742,-1.333807260995247,-2.5265637079821985,6.112627136498251,1.0171163082122803,-1.9916084448443812
1708443417.1310701,-2.142643928527832,-1.333765910272934,-2.526604477559225,6.112603294640341,1.0171959400177002,-1.9910381476031702
1708443417.133038,-2.142615556716919,-1.3337865781835099,-2.526635710393087,6.112537967949667,1.0172756910324097,-1.9903958479510706
1708443417.1350577,-2.1426243782043457,-1.333770291214325,-2.5267046133624476,6.112506258278646,1.0174002647399902,-1.989802662526266
1708443417.137032,-2.142542839050293,-1.33378221214328,-2.526719633732931,6.112510788231649,1.0175179243087769,-1.9891155401812952
1708443417.1390414,-2.142491102218628,-1.333847315316536,-2.5267885367022913,6.112440454750814,1.0176259279251099,-1.9884408156024378
1708443417.1410651,-2.1424953937530518,-1.3338356924108048,-2.52686053911318,6.112455355912008,1.0177298784255981,-1.9877226988421839
1708443417.14305,-2.1424803733825684,-1.3338028651526947,-2.5268831888781946,6.112412082939901,1.0177626609802246,-1.9870260397540491
1708443417.1450586,-2.142432689666748,-1.333844469194748,-2.526935640965597,6.112346517830648,1.0179084539413452,-1.9861887137042444
1708443417.1470323,-2.1423661708831787,-1.3338428300670166,-2.5270164648639124,6.112289893418112,1.0180617570877075,-1.9854949156390589
1708443417.1490214,-2.142352342605591,-1.3337866228869935,-2.527072254811422,6.112319695740499,1.0181699991226196,-1.9846347014056605
1708443417.151075,-2.142324924468994,-1.3338071715882798,-2.5271273295031946,6.112312066345968,1.0182901620864868,-1.9838269392596644
1708443417.1530282,-2.14231014251709,-1.3337614846280594,-2.5272534529315394,6.112228143006124,1.0183775424957275,-1.9830873648272913
1708443417.1550326,-2.142261505126953,-1.3337776374867936,-2.527297083531515,6.112190949707784,1.0185049772262573,-1.9822676817523401
1708443417.157033,-2.1422207355499268,-1.3338385087302704,-2.5274065176593226,6.112241375237264,1.0186704397201538,-1.981501881276266
1708443417.1590145,-2.1421775817871094,-1.3338802319816132,-2.5274768511401575,6.112110364228048,1.018811821937561,-1.9806163946734827
1708443417.161064,-2.1420953273773193,-1.3338548106006165,-2.527513090764181,6.112051951676168,1.0190131664276123,-1.979804817830221
1708443417.163043,-2.14211368560791,-1.3337976348451157,-2.5275638739215296,6.111983048706808,1.0191770792007446,-1.978813950215475
1708443417.1650772,-2.1420705318450928,-1.333805115228035,-2.5276647249804896,6.11203812339858,1.0192594528198242,-1.9779160658465784
1708443417.1670418,-2.1419973373413086,-1.3338254255107422,-2.5277650992022913,6.111941087036886,1.0194447040557861,-1.9769352118121546
1708443417.1691074,-2.141908645629883,-1.3338757765344162,-2.527853314076559,6.1119128344352625,1.019605278968811,-1.9759886900531214
1708443417.1710951,-2.1418490409851074,-1.3338539612344285,-2.5279417673694056,6.111860859185018,1.019770622253418,-1.9750068823443812
1708443417.1730478,-2.1418044567108154,-1.333857075577118,-2.5279930273639124,6.111841070442953,1.019979476928711,-1.97402269044985
1708443417.1750793,-2.1417782306671143,-1.33384524405513,-2.5280678907977503,6.111718761711874,1.0201311111450195,-1.9729626814471644
1708443417.17704,-2.1417171955108643,-1.333975837831833,-2.528168265019552,6.111733543663778,1.0202785730361938,-1.9718974272357386
1708443417.179041,-2.1416287422180176,-1.3339181554368515,-2.528264109288351,6.111682283669271,1.0205085277557373,-1.9708579222308558
1708443417.1810381,-2.1415979862213135,-1.3339258146337052,-2.528395954762594,6.111633527069845,1.0207219123840332,-1.9697588125811976
1708443417.183037,-2.141472578048706,-1.3340075624040146,-2.52852970758547,6.111573326378622,1.0209050178527832,-1.9685667196856897
1708443417.18507,-2.1413886547088623,-1.3340257120183487,-2.528625551854269,6.111555683403768,1.021084189414978,-1.967384163533346
1708443417.187051,-2.1413745880126953,-1.3340062212995072,-2.528741184865133,6.111421334534445,1.0213470458984375,-1.966222111378805
1708443417.1890259,-2.141289472579956,-1.3340465885451813,-2.5288236776935022,6.111430156021871,1.021502137184143,-1.9648717085467737
1708443417.1910305,-2.1412270069122314,-1.3340667945197602,-2.52897817293276,6.111308920174398,1.0217260122299194,-1.9636572043048304
1708443417.1930256,-2.141141176223755,-1.334005059008934,-2.529072348271505,6.111302959709921,1.0219181776046753,-1.962454620991842
1708443417.1950316,-2.141016960144043,-1.3340256971171875,-2.5292089621173304,6.111256468086996,1.022196650505066,-1.9611175696002405
1708443417.1970289,-2.140990972518921,-1.334065781240799,-2.5293529669391077,6.111191141396322,1.0224201679229736,-1.959717098866598
1708443417.1990187,-2.140886068344116,-1.334032194023468,-2.529452149068014,6.111114489823141,1.0226939916610718,-1.9582794348346155
1708443417.201026,-2.14081072807312,-1.3341180098107834,-2.5296455065356653,6.111075746804037,1.0229582786560059,-1.95695668855776
1708443417.2030342,-2.140789031982422,-1.3341093820384522,-2.5297606627093714,6.111030804901876,1.0232152938842773,-1.9555237928973597
1708443417.2050586,-2.140672445297241,-1.3341453832438965,-2.5299046675311487,6.110944020539083,1.0234706401824951,-1.9540312925921839
1708443417.2070491,-2.1405715942382812,-1.3341811460307618,-2.5300727526294153,6.110839712410726,1.0237369537353516,-1.9526236693011683
1708443417.2090642,-2.1405045986175537,-1.3341930669597168,-2.5302091280566614,6.110839593201437,1.0239473581314087,-1.9511845747577112
1708443417.2110133,-2.14042067527771,-1.3341962707093735,-2.530386273060934,6.110779750138082,1.0242235660552979,-1.9496906439410608
1708443417.2130346,-2.1402926445007324,-1.3342333895019074,-2.5305782000171106,6.110654222756185,1.0245801210403442,-1.9482529799090784
1708443417.2150257,-2.1401875019073486,-1.3342615824988862,-2.5306723753558558,6.110640990525045,1.0248550176620483,-1.9467175642596644
1708443417.2170227,-2.1400954723358154,-1.3342843514731904,-2.5308406988727015,6.110513555794515,1.025130271911621,-1.945120636616842
1708443417.21902,-2.140045404434204,-1.3342518222383042,-2.531036917363302,6.110528814583578,1.0254637002944946,-1.943519417439596
1708443417.2210355,-2.139932155609131,-1.3343496781638642,-2.5312381426440638,6.110489713936605,1.025763988494873,-1.9419973532306116
1708443417.223039,-2.139854669570923,-1.3343278777650376,-2.531365458165304,6.110385167389669,1.026093602180481,-1.9403703848468226
1708443417.2250326,-2.1397299766540527,-1.3344171208194275,-2.5315290133105677,6.110297071724691,1.0264644622802734,-1.9387348333941858
1708443417.2270756,-2.1396291255950928,-1.334436522131302,-2.5317254702197474,6.110237228661337,1.0267139673233032,-1.9370525519000452
1708443417.229023,-2.1395373344421387,-1.3344779473594208,-2.531901184712545,6.110203015595236,1.0271092653274536,-1.935326878224508
1708443417.2310252,-2.1394543647766113,-1.334466115837433,-2.532158676777975,6.11010109165267,1.027417540550232,-1.933554474507467
1708443417.233036,-2.1393094062805176,-1.3344552528909226,-2.5323222319232386,6.110050427704611,1.027789831161499,-1.9316704908954065
1708443417.2350388,-2.1392149925231934,-1.334487722521164,-2.5325263182269495,6.109978425293722,1.0280845165252686,-1.929885212575094
1708443417.2370324,-2.1391284465789795,-1.3345280301621933,-2.532689634953634,6.109887349396505,1.0284619331359863,-1.9279621283160608
1708443417.2390537,-2.1390647888183594,-1.3345724654248734,-2.532910172139303,6.1098383543785,1.0288150310516357,-1.92609149614443
1708443417.2410376,-2.1389524936676025,-1.3345919710448761,-2.533138100300924,6.109816896706381,1.0291697978973389,-1.9242342154132288
1708443417.24304,-2.138820171356201,-1.3346691590598603,-2.53336745897402,6.109706747322836,1.0295840501785278,-1.9223292509662073
1708443417.2450435,-2.138725757598877,-1.3346561652472992,-2.5335338751422327,6.109671938210287,1.0299689769744873,-1.92031175294985
1708443417.2470365,-2.1386337280273438,-1.3346345138600846,-2.533783022557394,6.109554159432211,1.0303744077682495,-1.9183786551104944
1708443417.2490249,-2.138493061065674,-1.334696204667427,-2.533961359654562,6.109521257668295,1.0307503938674927,-1.916382137929098
1708443417.251033,-2.138417959213257,-1.3347322952798386,-2.534205738698141,6.109452235489645,1.0311665534973145,-1.9144771734820765
1708443417.2530324,-2.138237237930298,-1.3347268414548417,-2.534487787877218,6.109388220101156,1.031600832939148,-1.912508789693014
1708443417.2550542,-2.1381046772003174,-1.3348036420396348,-2.5346525351153772,6.109341728478231,1.0319634675979614,-1.910529915486471
1708443417.25704,-2.138017177581787,-1.3348224622062226,-2.5349257628070276,6.109281766205587,1.032388687133789,-1.9085601011859339
1708443417.2590506,-2.1378698348999023,-1.3348516535810013,-2.535159413014547,6.109171497612753,1.0328105688095093,-1.9065974394427698
1708443417.261046,-2.1377856731414795,-1.3349125546268006,-2.535398070012228,6.109099733620443,1.0331716537475586,-1.9044821898089808
1708443417.2630508,-2.1376497745513916,-1.3349278581193467,-2.535614077244894,6.109102237015524,1.0336253643035889,-1.902337376271383
1708443417.2650337,-2.1376125812530518,-1.3349627566388627,-2.535882298146383,6.1090338108833215,1.0340789556503296,-1.9001143614398401
1708443417.2670336,-2.1374361515045166,-1.3349302274039765,-2.536119047795431,6.108994829445638,1.0345717668533325,-1.8978646437274378
1708443417.2691004,-2.1373157501220703,-1.3349334311536332,-2.5363743940936487,6.108939635544576,1.035016655921936,-1.8956087271319788
1708443417.2710752,-2.1371798515319824,-1.3350179356387635,-2.5365856329547327,6.108927476197042,1.035497784614563,-1.893304173146383
1708443417.273056,-2.137051820755005,-1.3350290221026917,-2.536825482045309,6.108863580017843,1.0359143018722534,-1.8910091559039515
1708443417.2750409,-2.1369571685791016,-1.3350942891887208,-2.537090841923849,6.108764755516805,1.0364084243774414,-1.8887975851642054
1708443417.2770479,-2.1368281841278076,-1.3351420027068635,-2.5373221079455774,6.10877953746871,1.0368523597717285,-1.8866270224200647
1708443417.2790391,-2.136730432510376,-1.3351376068643113,-2.537574116383688,6.1087273237998865,1.0373376607894897,-1.8844011465655726
1708443417.2810562,-2.1365411281585693,-1.3351942014745255,-2.537833277379171,6.1086957333381555,1.0377780199050903,-1.8822653929339808
1708443417.2830253,-2.1364336013793945,-1.3352495443871994,-2.5380731264697474,6.108669030457296,1.0382349491119385,-1.88013202348818
1708443417.2850332,-2.1363179683685303,-1.3353017580560227,-2.5383296648608606,6.1086076376731775,1.0387036800384521,-1.8778846899615687
1708443417.287026,-2.1362226009368896,-1.335330293779709,-2.538560454045431,6.108547794609823,1.0392178297042847,-1.875620190297262
1708443417.2890427,-2.1360909938812256,-1.3353540015271683,-2.5387914816485804,6.108594167023458,1.039703130722046,-1.8733013311969202
1708443417.2910452,-2.1359806060791016,-1.3354421269944687,-2.5390973726855677,6.108542072563925,1.0401480197906494,-1.8709901014911097
1708443417.2930567,-2.135843515396118,-1.3354583096555253,-2.539328161870138,6.108452188759603,1.040619969367981,-1.8685649077044886
1708443417.2951007,-2.1356945037841797,-1.3354690682939072,-2.5396207014666956,6.1084210751350305,1.0411250591278076,-1.8661983648883265
1708443417.297056,-2.1355717182159424,-1.3355127286962052,-2.5398815313922327,6.108413445740499,1.0415536165237427,-1.8637803236590784
1708443417.2990453,-2.135464668273926,-1.3356051456979294,-2.5401738325702112,6.108364093094625,1.0421292781829834,-1.8614352385150355
1708443417.3010397,-2.1353940963745117,-1.335608349447586,-2.540396038685934,6.1083730337913416,1.0425561666488647,-1.8590806166278284
1708443417.3030453,-2.135298252105713,-1.3357092899135132,-2.540690008793966,6.1082849381263635,1.0430654287338257,-1.856579605733053
1708443417.3050487,-2.135124921798706,-1.335736722951271,-2.5409298578845423,6.108326422959127,1.0435988903045654,-1.8541935125934046
1708443417.3070717,-2.1350176334381104,-1.3357962679914017,-2.541225258504049,6.108249056130209,1.0441052913665771,-1.8518174330340784
1708443417.309039,-2.134917974472046,-1.3358766597560425,-2.5414350668536585,6.108304011612692,1.0445966720581055,-1.8494475523578089
1708443417.3110456,-2.1347734928131104,-1.3359203350595017,-2.541757408772604,6.108298051148214,1.045142412185669,-1.847100083027975
1708443417.3130455,-2.1346821784973145,-1.3359192323735734,-2.5420709292041224,6.108213174134054,1.0456233024597168,-1.8446605841266077
1708443417.3150313,-2.1346113681793213,-1.335998610859253,-2.5423050562488,6.108181822090902,1.0460079908370972,-1.842292610798971
1708443417.3170497,-2.134442090988159,-1.336103842859604,-2.542576615010397,6.10820089557723,1.046601414680481,-1.839851204548971
1708443417.3190408,-2.1343765258789062,-1.3361194145730515,-2.5428252855883997,6.108198153763571,1.0470075607299805,-1.83732778230776
1708443417.321045,-2.1342475414276123,-1.3362365526011963,-2.5430877844439905,6.108239638596334,1.047523021697998,-1.8348234335528772
1708443417.3230412,-2.1341848373413086,-1.3362052899650116,-2.543363634740011,6.108226406365194,1.0480444431304932,-1.832186524068014
1708443417.3250358,-2.13401198387146,-1.3363268685391922,-2.5436697641955774,6.108233916550436,1.048535704612732,-1.8296244780169886
1708443417.3270671,-2.1339330673217773,-1.3363628548434754,-2.543932024632589,6.108217584877767,1.0490753650665283,-1.8269875685321253
1708443417.3290346,-2.133800745010376,-1.336429924970009,-2.5441842714892786,6.10823534706191,1.0495320558547974,-1.8245094458209437
1708443417.3310826,-2.1337130069732666,-1.336486966615059,-2.544485394154684,6.108247148781576,1.0500413179397583,-1.822012726460592
1708443417.3330302,-2.133572816848755,-1.3365377944758912,-2.544727150593893,6.108213174134054,1.0506199598312378,-1.819592301045553
1708443417.3350809,-2.1335020065307617,-1.3365172755769272,-2.545023743306295,6.1082249758537195,1.051174521446228,-1.817097012196676
1708443417.3370368,-2.133395195007324,-1.3366214048913498,-2.545332733784811,6.108278858452596,1.0516424179077148,-1.8146122137652796
1708443417.3390567,-2.1332297325134277,-1.3366571974805375,-2.545563522969381,6.108330833702841,1.0522361993789673,-1.812061611806051
1708443417.3410592,-2.1331868171691895,-1.3367494952729722,-2.545884672795431,6.108338224678793,1.0527653694152832,-1.8094595114337366
1708443417.3430448,-2.1330831050872803,-1.3367607307485123,-2.5461064020739954,6.108299839287557,1.05336332321167,-1.806859318410055
1708443417.3450563,-2.1329710483551025,-1.3368407797864457,-2.5464652220355433,6.108401524811544,1.0538965463638306,-1.8042839209186
1708443417.3470476,-2.132882833480835,-1.336917297249176,-2.5466674009906214,6.108413445740499,1.0543262958526611,-1.8015669027911585
1708443417.3490312,-2.132763624191284,-1.3369248521379014,-2.547044817601339,6.108409034996786,1.0549019575119019,-1.7989633719073694
1708443417.351052,-2.132631301879883,-1.3369551461986084,-2.5472715536700647,6.108511793404379,1.0553815364837646,-1.796307388936178
1708443417.3530426,-2.1325600147247314,-1.337007389669754,-2.5475638548480433,6.108501541405477,1.0558743476867676,-1.7936533133136194
1708443417.3550677,-2.1324782371520996,-1.3370639395764847,-2.547892395650045,6.108516561775961,1.056403398513794,-1.7911117712603968
1708443417.357044,-2.1323399543762207,-1.337115154867508,-2.548147503529684,6.108561026840963,1.0569250583648682,-1.7885311285602015
1708443417.359039,-2.1322765350341797,-1.3371834766915818,-2.5484355131732386,6.108576404839315,1.0574496984481812,-1.785985294972555
1708443417.361073,-2.1321518421173096,-1.3372639429620286,-2.5487354437457483,6.108683335572042,1.0579664707183838,-1.7833707968341272
1708443417.3630567,-2.132138729095459,-1.3372912418893357,-2.5489662329303187,6.10867332199172,1.0584310293197632,-1.7808573881732386
1708443417.3650527,-2.131981372833252,-1.337321789269783,-2.5492542425738733,6.108762848168173,1.0589478015899658,-1.7782743612872522
1708443417.3670292,-2.1319594383239746,-1.3374225211194535,-2.549583975468771,6.108780848770895,1.05937922000885,-1.7756088415728968
1708443417.3690503,-2.131840944290161,-1.3374423545650025,-2.549798313771383,6.108828890114584,1.0598931312561035,-1.7728288809405726
1708443417.3711114,-2.1317782402038574,-1.337501884703972,-2.5500410238849085,6.10888837555007,1.0604286193847656,-1.770088020955221
1708443417.3730438,-2.131654739379883,-1.3375378561070939,-2.550330464039938,6.108942138939657,1.0608996152877808,-1.767306152974264
1708443417.3750582,-2.131620168685913,-1.3376249086907883,-2.5505688826190394,6.10901557186202,1.0614423751831055,-1.7646377722369593
1708443417.37704,-2.1315407752990723,-1.337612898354866,-2.550870482121603,6.109081375389852,1.0619449615478516,-1.7618964354144495
1708443417.3790274,-2.1314029693603516,-1.337745950823166,-2.5510597864734095,6.109123456269064,1.0623955726623535,-1.75926381746401
1708443417.3810697,-2.1313302516937256,-1.3378428679755707,-2.5513537565814417,6.109207021981039,1.0628225803375244,-1.7566269079791468
1708443417.3830588,-2.1312756538391113,-1.3378282350352784,-2.5515876452075403,6.109295117646017,1.0633397102355957,-1.7541220823871058
1708443417.385061,-2.1312501430511475,-1.3379579049399872,-2.5519171396838587,6.109423744469442,1.063808560371399,-1.7514904181109827
1708443417.387034,-2.131164312362671,-1.3379850846580048,-2.552164856587545,6.109511720925131,1.0642814636230469,-1.748939339314596
1708443417.389031,-2.1310882568359375,-1.338031367664673,-2.5524094740497034,6.109549271851339,1.0648045539855957,-1.746345345173971
1708443417.3910692,-2.130969762802124,-1.3381208044341584,-2.5526776949511927,6.109613883286276,1.0652014017105103,-1.7437265555011194
1708443417.3930304,-2.131031036376953,-1.3381837171367188,-2.552929941807882,6.109692799835958,1.0656553506851196,-1.7410643736468714
1708443417.3950498,-2.1309092044830322,-1.3382895451835175,-2.5531771818744105,6.1098989126975916,1.066173791885376,-1.7383630911456507
1708443417.397053,-2.1308207511901855,-1.3382902604392548,-2.5534539858447474,6.109924423485555,1.0666471719741821,-1.7356484572040003
1708443417.3990324,-2.1307730674743652,-1.3383840781501313,-2.5536521116839808,6.110099303513326,1.0670546293258667,-1.7329447905169886
1708443417.4010642,-2.130758047103882,-1.3384346824935456,-2.553880039845602,6.110120284348287,1.0675199031829834,-1.7303059736834925
1708443417.4030252,-2.1306679248809814,-1.338469461803772,-2.554190460835592,6.110248553543844,1.0679634809494019,-1.727741543446676
1708443417.405045,-2.1306378841400146,-1.3385916215232392,-2.5544047991382044,6.11031328418807,1.0683342218399048,-1.7252071539508265
1708443417.4070365,-2.1305477619171143,-1.3385861378959198,-2.5545879046069544,6.11039553859786,1.0687545537948608,-1.7227314154254358
1708443417.4090345,-2.130558490753174,-1.338645653133728,-2.5548694769488733,6.110543477326193,1.0691943168640137,-1.720198933278219
1708443417.4110415,-2.1305062770843506,-1.3387544614127656,-2.5550273100482386,6.110659944802084,1.0695656538009644,-1.7176349798785608
1708443417.4130247,-2.1304216384887695,-1.3388025027564545,-2.5552597681628626,6.1108107445533655,1.0700443983078003,-1.715020004902975
1708443417.415038,-2.130345582962036,-1.3388414841941376,-2.555504385625021,6.1109434244926355,1.0704572200775146,-1.7124655882464808
1708443417.4170244,-2.1303162574768066,-1.3389296990684052,-2.5557530562030237,6.111030566483297,1.0708731412887573,-1.7097824255572718
1708443417.419065,-2.1303112506866455,-1.3389653724483033,-2.555898729954855,6.111194836884298,1.0712863206863403,-1.7070696989642542
1708443417.4210396,-2.130229949951172,-1.3389749091914673,-2.556159559880392,6.111293542176046,1.071628451347351,-1.7044170538531702
1708443417.4230485,-2.1302149295806885,-1.339113400583603,-2.5563352743731897,6.1114176390464685,1.0720009803771973,-1.7018402258502405
1708443417.425059,-2.1302237510681152,-1.339070515041687,-2.556530300770895,6.111544835358419,1.072340488433838,-1.6993020216571253
1708443417.4270225,-2.130174160003662,-1.3391926449588318,-2.556774441395895,6.111656892090597,1.072762131690979,-1.6968372503863733
1708443417.4290211,-2.1301276683807373,-1.3392525178245087,-2.5569260756122034,6.111796247750082,1.073084831237793,-1.6942785421954554
1708443417.4310465,-2.1300911903381348,-1.3393242818168183,-2.557188097630636,6.111951339035787,1.07345449924469,-1.691782299672262
1708443417.4330359,-2.1300911903381348,-1.3393392127803345,-2.5573349634753626,6.112087476044454,1.0738133192062378,-1.6892483870135706
1708443417.43505,-2.1300346851348877,-1.339419887667038,-2.5574877897845667,6.112223374634542,1.0742275714874268,-1.6867874304400843
1708443417.4370272,-2.130061388015747,-1.3394912344268342,-2.5577214399920862,6.112325417786398,1.0745697021484375,-1.6843145529376429
1708443417.4390543,-2.1300082206726074,-1.3395647269538422,-2.5578931013690394,6.112441885262289,1.0749388933181763,-1.6818292776690882
1708443417.4410229,-2.1300206184387207,-1.3395456832698365,-2.5580764452563685,6.11256896236495,1.075289249420166,-1.6791394392596644
1708443417.4430714,-2.129991292953491,-1.33962635815654,-2.558277193699972,6.112691390305319,1.0756452083587646,-1.6766770521747034
1708443417.445068,-2.129995822906494,-1.3396831017783661,-2.5584328810321253,6.11280773857192,1.0759856700897217,-1.674061123524801
1708443417.447059,-2.129995822906494,-1.3397382956794281,-2.558575216923849,6.11295913436965,1.0762600898742676,-1.6714728514300745
1708443417.4490404,-2.129995822906494,-1.3398307126811524,-2.558772389088766,6.113169419556417,1.0765682458877563,-1.6688936392413538
1708443417.4510481,-2.1300125122070312,-1.339780406360962,-2.5589240233050745,6.1132298586662195,1.076851725578308,-1.6663849989520472
1708443417.4530394,-2.129995822906494,-1.3398936551860352,-2.5591045061694544,6.11339687088088,1.0771312713623047,-1.6639416853534144
1708443417.455033,-2.1300127506256104,-1.3399536323598404,-2.5592437426196497,6.113602864533224,1.0774496793746948,-1.6615307966815394
1708443417.45704,-2.1299870014190674,-1.3399895888618012,-2.5594893137561243,6.1137046692665,1.0777255296707153,-1.6591337362872522
1708443417.459062,-2.1299755573272705,-1.3400985163501282,-2.5595837275134485,6.113839375763693,1.077943205833435,-1.6567309538470667
1708443417.461063,-2.1300294399261475,-1.3400729459575196,-2.5597243944751185,6.114101993828573,1.0782030820846558,-1.6543338934527796
1708443417.463026,-2.1300160884857178,-1.3401522201350708,-2.5598555246936243,6.114217507630148,1.078464388847351,-1.6518037954913538
1708443417.465077,-2.1300082206726074,-1.340143309240677,-2.5599632898913782,6.1143027422721765,1.0787421464920044,-1.649259392415182
1708443417.46703,-2.1300623416900635,-1.340273217563965,-2.5601401964770716,6.114495265274801,1.0789564847946167,-1.6467474142657679
1708443417.4690442,-2.1300363540649414,-1.340283827190735,-2.5602803866015833,6.114634382515707,1.079270362854004,-1.6442635695086878
1708443417.4711046,-2.1300365924835205,-1.3403437596610566,-2.560399595891134,6.114815342217245,1.079485297203064,-1.6417401472674769
1708443417.4730577,-2.130007266998291,-1.340392754679062,-2.5605478922473353,6.114969479828634,1.0797206163406372,-1.6392014662372034
1708443417.4750373,-2.1300160884857178,-1.3404361766627808,-2.5606308619128626,6.1151336310203455,1.079916000366211,-1.6368325392352503
1708443417.4770408,-2.1300480365753174,-1.3404392761043091,-2.5607877413379114,6.115305292397299,1.0801728963851929,-1.634491268788473
1708443417.4790566,-2.130096673965454,-1.3405321103385468,-2.5608554522143763,6.115449058800497,1.0803678035736084,-1.6321032683001917
1708443417.481037,-2.130070924758911,-1.3405321103385468,-2.5610113779651087,6.1155704138572595,1.0805600881576538,-1.629707161580221
1708443417.4830406,-2.1300876140594482,-1.3405991357615967,-2.56108266512026,6.1157511351402185,1.0807644128799438,-1.6273615995990198
1708443417.4850118,-2.1301283836364746,-1.3406542402556916,-2.5612273851977747,6.1158649800117395,1.0809861421585083,-1.6249311606036585
1708443417.4870188,-2.1301722526550293,-1.3407322329333802,-2.56130820909609,6.11610363700942,1.0811320543289185,-1.6226146856891077
1708443417.489037,-2.130147933959961,-1.3407352429679413,-2.561395231877462,6.116214144020834,1.0813498497009277,-1.6202171484576624
1708443417.4910138,-2.130182981491089,-1.3407426637462159,-2.561554018651144,6.116353380471029,1.081487774848938,-1.6177752653705042
1708443417.493018,-2.1302201747894287,-1.3408145171454926,-2.5616169611560267,6.116582143097677,1.0816650390625,-1.6153815428363245
1708443417.4950523,-2.1302459239959717,-1.3408263486674805,-2.561690632496969,6.116729008942404,1.081863522529602,-1.612971607838766
1708443417.4970431,-2.1302452087402344,-1.3408712607673188,-2.561803166066305,6.116888391762533,1.0820058584213257,-1.6105077902423304
1708443417.4990592,-2.1302475929260254,-1.3409219843200226,-2.5618839899646204,6.117030846863546,1.082133173942566,-1.6081374327289026
1708443417.5010252,-2.1302547454833984,-1.340928391819336,-2.5619307200061243,6.11722360828475,1.0822564363479614,-1.6056402365313929
1708443417.503029,-2.1303067207336426,-1.341018871670105,-2.5620444456683558,6.117344844132223,1.0824440717697144,-1.6034014860736292
1708443417.5050201,-2.130331516265869,-1.3409968179515381,-2.5621283690081995,6.117544877320089,1.082558035850525,-1.6010549704181116
1708443417.507027,-2.1303811073303223,-1.3410624724677582,-2.5622032324420374,6.117639052658834,1.0826648473739624,-1.5987909475909632
1708443417.5090282,-2.130408525466919,-1.3410688203624268,-2.5622108618365687,6.117824423104086,1.0827637910842896,-1.596553150807516
1708443417.5110452,-2.130419969558716,-1.3411658269217988,-2.5623067061053675,6.118011224060812,1.0828884840011597,-1.594311539326803
1708443417.5131521,-2.130460500717163,-1.3411314350417634,-2.562388006840841,6.11815499046401,1.083046317100525,-1.5921285788165491
1708443417.5150678,-2.130491256713867,-1.3411720258048554,-2.5624058882342737,6.1182771799858,1.0830748081207275,-1.5898645559894007
1708443417.517038,-2.1305365562438965,-1.3412284416011353,-2.56244928041567,6.11839114406661,1.0832592248916626,-1.5876644293414515
1708443417.5190468,-2.130580425262451,-1.3412763637355347,-2.56256348291506,6.118543851166525,1.0833255052566528,-1.5853317419635218
1708443417.5210502,-2.1305654048919678,-1.3412882846644898,-2.5625737349139612,6.118736374169149,1.0834007263183594,-1.5829771200763147
1708443417.5230367,-2.1306231021881104,-1.341324047451355,-2.5626474062549036,6.118866669922628,1.0834968090057373,-1.5806868712054651
1708443417.5250247,-2.130613088607788,-1.3414019507220765,-2.562674347554342,6.119053232460775,1.0835896730422974,-1.578440014516012
1708443417.5270293,-2.130706787109375,-1.341343716984131,-2.5627358595477503,6.1192206023033044,1.0836408138275146,-1.5761898199664515
1708443417.529043,-2.130737781524658,-1.341443733578064,-2.562741820012228,6.1192805645759485,1.0837414264678955,-1.5739577452289026
1708443417.5310414,-2.1307716369628906,-1.3414152425578614,-2.562798802052633,6.119477975159445,1.0837684869766235,-1.5718706289874476
1708443417.5330496,-2.130798816680908,-1.3414096695235749,-2.5628061930285853,6.119678008347311,1.0837956666946411,-1.5697029272662562
1708443417.5350604,-2.130871295928955,-1.3414675754359742,-2.5628395716296595,6.119746911316671,1.0838807821273804,-1.567646328602926
1708443417.5370512,-2.130955219268799,-1.3415032488158722,-2.5627835432635706,6.1199355004127405,1.083962082862854,-1.5655224959002894
1708443417.5390387,-2.1309666633605957,-1.3415066760829468,-2.562878195439474,6.120149004250326,1.0839859247207642,-1.5634163061725062
1708443417.541041,-2.1310267448425293,-1.3415645819953461,-2.562902275715963,6.120219099312582,1.0839587450027466,-1.5613725821124476
1708443417.5430348,-2.131053924560547,-1.3415230375579377,-2.562881056462423,6.120317923813619,1.0840250253677368,-1.5592253843890589
1708443417.5450437,-2.1311230659484863,-1.341611073618271,-2.5629428068744105,6.120518076210775,1.0840476751327515,-1.5570991675006312
1708443417.5470524,-2.1312034130096436,-1.3416243505528946,-2.5629292170154017,6.120666014939108,1.084043025970459,-1.5549781958209437
1708443417.5490382,-2.1311802864074707,-1.341585950260498,-2.5629428068744105,6.120842563896932,1.0841015577316284,-1.5527861754046839
1708443417.5510204,-2.131269693374634,-1.3416216236403962,-2.5629246870623987,6.12090419509963,1.084054946899414,-1.5507214705096644
1708443417.5530295,-2.131345272064209,-1.3416961890510102,-2.5629006067859095,6.121054994850912,1.0840476751327515,-1.5485499540912073
1708443417.555041,-2.131422519683838,-1.3416468662074585,-2.5628886858569544,6.121219384461202,1.0840684175491333,-1.5464070479022425
1708443417.5570657,-2.1314454078674316,-1.3416379553130646,-2.5628796259509485,6.1213300106819055,1.0840492248535156,-1.5443571249591272
1708443417.5590484,-2.1315460205078125,-1.34172476947818,-2.562890116368429,6.121502148896017,1.0840237140655518,-1.5422537962542933
1708443417.561062,-2.131549596786499,-1.3417247098735352,-2.562870804463522,6.1216187355811975,1.0839922428131104,-1.5402634779559534
1708443417.5630445,-2.131608724594116,-1.3416872483542939,-2.5628288427936,6.121757495194235,1.0839800834655762,-1.5382488409625452
1708443417.565035,-2.131681442260742,-1.341641293173172,-2.5628214518176478,6.121876823693075,1.0839228630065918,-1.5363367239581507
1708443417.5670528,-2.131748914718628,-1.3417767000249405,-2.5628090540515345,6.122025120049276,1.0838872194290161,-1.5343149344073694
1708443417.5690434,-2.131776809692383,-1.3416906160167237,-2.562815014516012,6.122153508454122,1.083859920501709,-1.5323942343341272
1708443417.571143,-2.1318438053131104,-1.3416982305100937,-2.562702719365255,6.1222643730934045,1.0838358402252197,-1.5304306189166468
1708443417.5730953,-2.131883382797241,-1.3416576248458405,-2.562704388295309,6.122360217362203,1.0837939977645874,-1.5284441153155726
1708443417.5750425,-2.1319921016693115,-1.3417392534068604,-2.562699858342306,6.122491705208578,1.083738088607788,-1.5263970533954065
1708443417.5770445,-2.131990432739258,-1.341669575577118,-2.56263238588442,6.122641432076254,1.0837234258651733,-1.524374787007467
1708443417.5790339,-2.132143974304199,-1.3416906160167237,-2.562624756489889,6.122723924904623,1.0836001634597778,-1.5223334471331995
1708443417.5810518,-2.132216453552246,-1.3416819137385865,-2.5626099745379847,6.122826087265768,1.0836181640625,-1.5203545729266565
1708443417.5830135,-2.1322405338287354,-1.3417185258916398,-2.5625811258899134,6.12292634227828,1.0835896730422974,-1.5182979742633265
1708443417.5850463,-2.132345676422119,-1.341706932788231,-2.562561813985006,6.12310420253829,1.0835176706314087,-1.516409699116842
1708443417.587031,-2.1323587894439697,-1.3416652542403718,-2.562516752873556,6.123174893646993,1.0834382772445679,-1.5143941084491175
1708443417.5890236,-2.132493257522583,-1.341734842663147,-2.562443558369772,6.123261797219076,1.0833946466445923,-1.512430493031637
1708443417.5910459,-2.1325247287750244,-1.341763512497284,-2.562425200139181,6.123442995339193,1.0833345651626587,-1.510498348866598
1708443417.5930407,-2.1325745582580566,-1.341730536227562,-2.562375847493307,6.123546230583944,1.0832595825195312,-1.508564297352926
1708443417.5950482,-2.132638454437256,-1.3416951161674042,-2.5623608271228235,6.1236257431800745,1.0831378698349,-1.5067203680621546
1708443417.5970497,-2.1326818466186523,-1.3416938346675416,-2.5623202959643763,6.1238067028816126,1.0830659866333008,-1.5048378149615687
1708443417.5990448,-2.132798910140991,-1.3417437386563797,-2.562284294758932,6.123902547150411,1.0829648971557617,-1.5029967466937464
1708443417.6010714,-2.1328134536743164,-1.3417142194560547,-2.5622409025775355,6.123977649002828,1.0829216241836548,-1.5011408964740198
1708443417.603031,-2.132894515991211,-1.3416906160167237,-2.562183682118551,6.124052750855245,1.0828299522399902,-1.4993498961078089
1708443417.6050417,-2.132982015609741,-1.341706932788231,-2.5621450583087366,6.124193417816915,1.0826890468597412,-1.4975069204913538
1708443417.607071,-2.133007764816284,-1.3417025369456788,-2.562096897755758,6.1242562411125085,1.0825929641723633,-1.4956887404071253
1708443417.6090457,-2.133096694946289,-1.3416982305100937,-2.562040154133932,6.124338733940878,1.0824804306030273,-1.4937189261065882
1708443417.6110446,-2.133193016052246,-1.3417114478400727,-2.5620294252978724,6.12440191486434,1.0823273658752441,-1.4918158690081995
1708443417.6130314,-2.1332530975341797,-1.3417158287814637,-2.561920229588644,6.124575245171346,1.0821782350540161,-1.4898298422442835
1708443417.61503,-2.1333165168762207,-1.341648892765381,-2.5618584791766565,6.124696719437399,1.082091212272644,-1.4880207220660608
1708443417.6170216,-2.1334006786346436,-1.3416917485049744,-2.5618706385241907,6.124713527947225,1.081968069076538,-1.486173454915182
1708443417.6190221,-2.133456230163574,-1.341669575577118,-2.561760965977804,6.124864446907797,1.0818228721618652,-1.4842727820025843
1708443417.6210346,-2.133462905883789,-1.3416380000165482,-2.5616770426379603,6.124975192337789,1.0816752910614014,-1.482476536427633
1708443417.6230323,-2.1335976123809814,-1.3416652542403718,-2.561603371297018,6.1250589964683435,1.0815508365631104,-1.4805296103106897
1708443417.6250396,-2.133664846420288,-1.3416828525117417,-2.5616019407855433,6.125171172409811,1.0814189910888672,-1.4787171522723597
1708443417.6270292,-2.1337194442749023,-1.3417025369456788,-2.5614479223834437,6.125226843148031,1.0813450813293457,-1.4769271055804651
1708443417.629022,-2.133812189102173,-1.3416695457747956,-2.561345879231588,6.125276315003195,1.0811350345611572,-1.4751246611224573
1708443417.6310472,-2.133909225463867,-1.3416872781566163,-2.5613578001605433,6.12541555145339,1.081035852432251,-1.4733622709857386
1708443417.6330314,-2.1338911056518555,-1.3416951161674042,-2.5612409750567835,6.125453102379598,1.0808707475662231,-1.4716690222369593
1708443417.6350417,-2.1340150833129883,-1.341673956518509,-2.5611653963672083,6.12556670883254,1.0807268619537354,-1.4698875586139124
1708443417.637033,-2.134042978286743,-1.3416532141021271,-2.561084810887472,6.1256388304527185,1.0805704593658447,-1.4681795279132288
1708443417.639021,-2.1340975761413574,-1.341662124996521,-2.561025683079855,6.1257104752357385,1.0804308652877808,-1.466402832661764
1708443417.6410327,-2.1342036724090576,-1.341722921734192,-2.560981575642721,6.125724303513326,1.0802701711654663,-1.4647133986102503
1708443417.6430175,-2.134246826171875,-1.3417114478400727,-2.5608816782580774,6.125861990242758,1.0801234245300293,-1.462966267262594
1708443417.6450539,-2.134310483932495,-1.341715858583786,-2.560781542454855,6.125860559731283,1.0799250602722168,-1.4611571470843714
1708443417.6470447,-2.134361743927002,-1.3416128021529694,-2.5607052485095423,6.12594901302413,1.0798182487487793,-1.4594605604754847
1708443417.6490295,-2.1344175338745117,-1.3415889602950593,-2.560662094746725,6.12609480598525,1.079604983329773,-1.4576605002032679
1708443417.6510627,-2.134554147720337,-1.3416709017804642,-2.560566250477926,6.126092421799459,1.079477310180664,-1.4558938185321253
1708443417.653024,-2.134577989578247,-1.3416546148112793,-2.5604215304004114,6.12614797332839,1.079323172569275,-1.4541915098773401
1708443417.6550486,-2.134629249572754,-1.3416261237910767,-2.5603657404529017,6.126260149269857,1.0790963172912598,-1.4524148146258753
1708443417.657033,-2.1347177028656006,-1.3416097921184083,-2.560265604649679,6.126331794052877,1.0789610147476196,-1.4507935682879847
1708443417.659027,-2.134777784347534,-1.3416142028621216,-2.560141150151388,6.126388537674703,1.0788052082061768,-1.4491451422320765
1708443417.6610718,-2.1348705291748047,-1.3416230392507096,-2.5600855986224573,6.126444208412924,1.0786653757095337,-1.4475234190570276
1708443417.6630557,-2.1349375247955322,-1.341594786649086,-2.559997860585348,6.126504170685568,1.0784971714019775,-1.4459484259234827
1708443417.6650577,-2.134943962097168,-1.3415369403413315,-2.5598936716662806,6.126571762352743,1.0783259868621826,-1.444300953541891
1708443417.6670241,-2.1350209712982178,-1.341562108402588,-2.5598343054400843,6.126619684487142,1.0781203508377075,-1.4426782766925257
1708443417.6690264,-2.1350955963134766,-1.3415784400752564,-2.5596614519702356,6.126654612808981,1.077877402305603,-1.4410694281207483
1708443417.6710813,-2.135148763656616,-1.3415991824916382,-2.5595818201648157,6.1267971871192834,1.0777299404144287,-1.4395325819598597
1708443417.673076,-2.135228157043457,-1.3415635091117402,-2.559509817753927,6.1267666695411584,1.0775712728500366,-1.4379480520831507
1708443417.6750946,-2.135324239730835,-1.341509686117508,-2.55938965479006,6.126802670746603,1.0773786306381226,-1.4363740126239222
1708443417.6770399,-2.1353230476379395,-1.3415349286845704,-2.559277359639303,6.126887786179342,1.0771565437316895,-1.4347828070269983
1708443417.6790326,-2.1354401111602783,-1.3415349286845704,-2.5591488520251673,6.1269932864005945,1.077006220817566,-1.4331415335284632
1708443417.681048,-2.135474920272827,-1.3415141862681885,-2.5590325037585657,6.126979338913717,1.0767934322357178,-1.4315546194659632
1708443417.6830537,-2.1355435848236084,-1.3415198934129258,-2.5589621702777308,6.127034652024069,1.076629638671875,-1.4298718611346644
1708443417.6850312,-2.135627508163452,-1.3414829236320038,-2.558894459401266,6.127091395645895,1.0764492750167847,-1.4282086531268519
1708443417.6870546,-2.135618209838867,-1.3414499324611207,-2.558758322392599,6.1271023629005334,1.0762619972229004,-1.4265978972064417
1708443417.6890478,-2.1357016563415527,-1.3414961260608216,-2.5586698690997522,6.127138125687399,1.0760366916656494,-1.4249303976642054
1708443417.6910326,-2.13580322265625,-1.3414349120906373,-2.5585177580462855,6.12716971614913,1.0758817195892334,-1.4233678022967737
1708443417.6930463,-2.135838747024536,-1.3414185804179688,-2.5584376494037073,6.127266752510824,1.0756970643997192,-1.4217947165118616
1708443417.6950283,-2.1359074115753174,-1.3414274019053956,-2.5583177248584192,6.127253758698263,1.07552170753479,-1.4201839605914515
1708443417.697049,-2.135941982269287,-1.3414363127997895,-2.558254067097799,6.127359378128805,1.0753039121627808,-1.4185927549945276
1708443417.6990428,-2.1359896659851074,-1.3414107275060196,-2.558146063481466,6.127367007523336,1.0751416683197021,-1.4170821348773401
1708443417.701037,-2.1360654830932617,-1.3414240640452881,-2.5580135027514856,6.12738989570693,1.0749075412750244,-1.4155843893634241
1708443417.7030392,-2.136134386062622,-1.3413318258574982,-2.5578814188586634,6.12744306305007,1.0747030973434448,-1.4140642325030726
1708443417.7050314,-2.136168956756592,-1.3413512271693726,-2.5577898661242884,6.127483474999227,1.074489951133728,-1.412530247365133
1708443417.7070255,-2.1361641883850098,-1.341343716984131,-2.5576818625079554,6.127514827042379,1.0743147134780884,-1.4111188093768519
1708443417.709025,-2.1363348960876465,-1.3413317960551758,-2.5575903097735804,6.127506124764242,1.0741225481033325,-1.4096320311175745
1708443417.7110207,-2.136357069015503,-1.3412824732116242,-2.557464901600973,6.1275465367134,1.0739314556121826,-1.408166233693258
1708443417.7130244,-2.1364095211029053,-1.341324047451355,-2.5573537985431116,6.127532231598654,1.0737636089324951,-1.4067204634295862
1708443417.7150486,-2.1364731788635254,-1.3412926954082032,-2.5572038332568567,6.127560722618856,1.0735595226287842,-1.405238453541891
1708443417.7170458,-2.1365091800689697,-1.341227040891983,-2.55714995065798,6.127629267960348,1.0733224153518677,-1.4037168661700647
1708443417.7190404,-2.136564016342163,-1.341227040891983,-2.5569892565356653,6.127698886185446,1.0730894804000854,-1.4021919409381312
1708443417.721023,-2.1365914344787598,-1.3411988478950043,-2.5569174925433558,6.127709972649374,1.072889804840088,-1.4007323423968714
1708443417.7230158,-2.1366770267486572,-1.341228411798813,-2.5568094889270228,6.1277174828346155,1.0726946592330933,-1.3992021719561976
1708443417.725013,-2.136798858642578,-1.3412297678044816,-2.5566447416888636,6.127696978836813,1.072481393814087,-1.3977025190936487
1708443417.7270527,-2.136768102645874,-1.34112702429805,-2.556544367467062,6.127777683525839,1.072251558303833,-1.3961775938617151
1708443417.7290332,-2.1368184089660645,-1.3411403459361573,-2.5564706961261194,6.127805697708883,1.07207453250885,-1.3947084585772913
1708443417.731034,-2.136887311935425,-1.3410957616618653,-2.5563536326037806,6.127858149796285,1.071873426437378,-1.3932350317584437
1708443417.733026,-2.1369314193725586,-1.3410791021636506,-2.556222979222433,6.127784001618185,1.0716482400894165,-1.3918026129352015
1708443417.735024,-2.1369996070861816,-1.3410760921290894,-2.5561135450946253,6.127889740258016,1.0714740753173828,-1.3902338186847132
1708443417.737057,-2.1370110511779785,-1.341038928633072,-2.55599815050234,6.127853739052572,1.0712443590164185,-1.3887770811664026
1708443417.7390368,-2.1371355056762695,-1.3410688203624268,-2.5558200518237513,6.12782763221816,1.0710116624832153,-1.38731557527651
1708443417.7410316,-2.13714337348938,-1.3409910064986725,-2.555733029042379,6.127889859467306,1.0707954168319702,-1.385920826588766
1708443417.7430186,-2.137228012084961,-1.341020868425705,-2.55567437807192,6.127860414772787,1.0705581903457642,-1.3845470587359827
1708443417.7450151,-2.1372711658477783,-1.341005639438965,-2.5554972330676478,6.127901541977682,1.0704203844070435,-1.3831780592547815
1708443417.747014,-2.137314796447754,-1.3409239810756226,-2.555429760609762,6.12785695770339,1.070184588432312,-1.3817694822894495
1708443417.7490387,-2.13735032081604,-1.3409461242011567,-2.55528170267214,6.127860414772787,1.0699832439422607,-1.3804624716388147
1708443417.7510233,-2.1373767852783203,-1.340916470890381,-2.555164400731222,6.1278841374214075,1.0697669982910156,-1.3791130224811
1708443417.753026,-2.137442111968994,-1.3409175437739869,-2.555089537297384,6.12782763221816,1.0695254802703857,-1.377697769795553
1708443417.7550166,-2.1374940872192383,-1.34088488042865,-2.5549772421466272,6.127872335701742,1.069351315498352,-1.3763521353351038
1708443417.7570279,-2.1375463008880615,-1.340798483496048,-2.5548420588122767,6.12791787365035,1.0691022872924805,-1.3750041166888636
1708443417.7590175,-2.1376051902770996,-1.3408784431270142,-2.554762665425436,6.127934443741598,1.0688815116882324,-1.3736661116229456
1708443417.761036,-2.137691020965576,-1.3408593100360413,-2.5546260515796106,6.127909171372213,1.0687147378921509,-1.372366730366842
1708443417.7630327,-2.137722969055176,-1.3407804530910035,-2.5544970671283167,6.127887475281515,1.0685148239135742,-1.3710315863238733
1708443417.7650366,-2.137773036956787,-1.3407848638347168,-2.5543981234179896,6.1278841374214075,1.068297266960144,-1.3696978727923792
1708443417.7670362,-2.1378121376037598,-1.3406835359385987,-2.5542779604541224,6.127938973694601,1.0680692195892334,-1.3683050314532679
1708443417.7690358,-2.137848377227783,-1.3406712871840973,-2.5541165510760706,6.127909171372213,1.0678858757019043,-1.3669098059283655
1708443417.7710707,-2.1378934383392334,-1.3407916587642212,-2.554047171269552,6.127937781601705,1.0676722526550293,-1.3656180540667933
1708443417.7731116,-2.1379523277282715,-1.3407022666982193,-2.553889815007345,6.127881037979879,1.0674577951431274,-1.3642743269549769
1708443417.77504,-2.1380045413970947,-1.3407022517970582,-2.553810183201925,6.127946364670553,1.0672614574432373,-1.362884823475973
1708443417.7770412,-2.1380319595336914,-1.3406307262233277,-2.553685967122213,6.127930152207174,1.067007303237915,-1.361594025288717
1708443417.7790396,-2.1380550861358643,-1.3406055730632325,-2.55359131494631,6.127925741463461,1.0668154954910278,-1.3602469603167933
1708443417.7810388,-2.138123035430908,-1.3405664724162598,-2.553478781376974,6.1279135821159265,1.0666292905807495,-1.358943287526266
1708443417.7830317,-2.1381804943084717,-1.3405532401851197,-2.553326193486349,6.127921449929037,1.0663752555847168,-1.3576377073871058
1708443417.7850287,-2.138252019882202,-1.3405290705016633,-2.5532389322863978,6.127946364670553,1.0661754608154297,-1.3563936392413538
1708443417.7870817,-2.1383039951324463,-1.3404814016870041,-2.553121868764059,6.127867924958029,1.0659798383712769,-1.35512620607485
1708443417.7890394,-2.138279438018799,-1.34052328885112,-2.5529781023608606,6.127900469094076,1.0657334327697754,-1.3539021650897425
1708443417.7910388,-2.1383633613586426,-1.3404827874949952,-2.5528820196734827,6.127897250443258,1.0655622482299805,-1.3526728788958948
1708443417.7930603,-2.138416051864624,-1.340491698389389,-2.5527949968921106,6.127953994065084,1.0653289556503296,-1.3514578978167933
1708443417.7950397,-2.1384763717651367,-1.3404511523297806,-2.5526586214648646,6.127909171372213,1.0651005506515503,-1.350187126790182
1708443417.797051,-2.1385080814361572,-1.3403783601573487,-2.552531067525045,6.1279127476509,1.0649011135101318,-1.3489893118487757
1708443417.7990446,-2.1385321617126465,-1.340391681795456,-2.5524798075305384,6.127860414772787,1.0647038221359253,-1.3478406111346644
1708443417.8010595,-2.138587713241577,-1.3403348487666626,-2.5523558298694056,6.1279170391853235,1.0645159482955933,-1.346614185963766
1708443417.8030317,-2.1386353969573975,-1.340339259510376,-2.5522146860705774,6.127845036774435,1.0643119812011719,-1.3454378286944788
1708443417.805056,-2.138646125793457,-1.3403226000121613,-2.5521066824542444,6.127909290581503,1.0640954971313477,-1.3442485968219202
1708443417.807025,-2.138723850250244,-1.3402378422072907,-2.5519986788379114,6.1279170391853235,1.0638744831085205,-1.3430903593646448
1708443417.809035,-2.1387016773223877,-1.3402467531016846,-2.5518620649920862,6.1278735277946375,1.063702940940857,-1.341912571583883
1708443417.8110569,-2.1387782096862793,-1.3402511936477204,-2.551671806965963,6.1279265759284876,1.0634955167770386,-1.3407476584063929
1708443417.8130436,-2.1387853622436523,-1.3401991587928315,-2.551582161580221,6.127861249237814,1.0632747411727905,-1.3394454161273401
1708443417.8150284,-2.138878107070923,-1.34016306818042,-2.551477018986837,6.127820002823629,1.0630524158477783,-1.3382847944842737
1708443417.8170485,-2.138878345489502,-1.3401599687388916,-2.551382366810934,6.127840745240011,1.0628870725631714,-1.3370145002948206
1708443417.8190455,-2.138917922973633,-1.3401718896678467,-2.551295582448141,6.1278525469596765,1.062690258026123,-1.3357780615436
1708443417.8210692,-2.138965606689453,-1.3401001256755372,-2.5511754194842737,6.127837407379904,1.0624977350234985,-1.3346436659442347
1708443417.8230674,-2.1389894485473633,-1.3400958341411133,-2.5510180632220667,6.127850520401754,1.0622648000717163,-1.3334534803973597
1708443417.8250816,-2.1390583515167236,-1.3401046109250565,-2.550922218953268,6.12779592254714,1.062042474746704,-1.332228962575094
1708443417.8270345,-2.1390621662139893,-1.340043307547905,-2.5508111158954065,6.1277480004127405,1.0618304014205933,-1.3310440222369593
1708443417.8290453,-2.1390771865844727,-1.3400161874345322,-2.5507314840899866,6.1278350231941126,1.061618447303772,-1.3298571745501917
1708443417.8310509,-2.139145851135254,-1.339988188152649,-2.5506282488452356,6.127786385803976,1.0614640712738037,-1.3287251631366175
1708443417.8330383,-2.139153003692627,-1.3399852079204102,-2.5505152384387415,6.127726304322042,1.061259388923645,-1.3275106588946741
1708443417.8350596,-2.1391725540161133,-1.3399699193290253,-2.5503791014300745,6.127680647164144,1.061029314994812,-1.3263533751117151
1708443417.8370337,-2.1392908096313477,-1.3399195236018677,-2.5502668062793177,6.1276763556297205,1.06084144115448,-1.3252738157855433
1708443417.8390431,-2.139273166656494,-1.3398926717093964,-2.5501707235919397,6.127710091858663,1.0606505870819092,-1.3242009321795862
1708443417.8410532,-2.139341115951538,-1.3398313385299225,-2.5500717798816126,6.127613055496969,1.0603952407836914,-1.3230498472796839
1708443417.843025,-2.1393816471099854,-1.3398566108993073,-2.549962107335226,6.127621638565817,1.0602236986160278,-1.321975056325094
1708443417.8450458,-2.139348268508911,-1.3398413074067612,-2.5498767534839075,6.127608525543966,1.0599998235702515,-1.3208487669574183
1708443417.8470232,-2.139437437057495,-1.339824990635254,-2.549706045781271,6.127536523133077,1.0598000288009644,-1.319791618977682
1708443417.8490467,-2.1394155025482178,-1.3397103411010285,-2.5496187845813196,6.12756513336257,1.059553623199463,-1.3186596075641077
1708443417.851077,-2.1395175457000732,-1.3397402328303833,-2.5495181719409388,6.127586829453268,1.0593615770339966,-1.3176220099078577
