Eg3-git/Classifiers/Data Collection/u8/u8www3_ur3e_joint_states.csv
time,elbow_joint,shoulder_lift_joint,shoulder_pan_joint,wrist_1_joint,wrist_2_joint,wrist_3_joint
1708443399.8409748,-2.161980390548706,-1.3407696050456543,-2.528590981160299,6.163659083634176,1.020884394645691,-2.0864155928241175
1708443399.8429537,-2.161926031112671,-1.3407904219678421,-2.5286274592029017,6.163672554283895,1.0208961963653564,-2.0864275137530726
1708443399.8449821,-2.161926031112671,-1.3407993179610749,-2.5286555925952356,6.163646924286642,1.0208888053894043,-2.086435619984762
1708443399.8469477,-2.161919116973877,-1.3407532435706635,-2.5285821596728724,6.163663613587179,1.0209262371063232,-2.086439911519186
1708443399.848941,-2.1619598865509033,-1.3407620352557679,-2.5286148230182093,6.1636918661888025,1.020884394645691,-2.086439911519186
1708443399.8512962,-2.1619598865509033,-1.3407982152751465,-2.528619352971212,6.163635003357687,1.0209128856658936,-2.086468521748678
1708443399.8529298,-2.161964178085327,-1.340732754474022,-2.5285943190204065,6.163635003357687,1.0209174156188965,-2.0864198843585413
1708443399.8549783,-2.161984920501709,-1.3407904219678421,-2.5285614172564905,6.163642394333639,1.0209128856658936,-2.0864155928241175
1708443399.8569212,-2.1619713306427,-1.340816007261612,-2.528590981160299,6.163659083634176,1.020879864692688,-2.086468521748678
1708443399.8589392,-2.1619598865509033,-1.3407829415849228,-2.5285986105548304,6.163630473404684,1.020864486694336,-2.0863950888263147
1708443399.8609684,-2.161921739578247,-1.3407129359296341,-2.5285943190204065,6.16363679149703,1.0208768844604492,-2.0864155928241175
1708443399.8629642,-2.161942958831787,-1.340721921329834,-2.5285866896258753,6.1636215327079675,1.0209174156188965,-2.0864484945880335
1708443399.864961,-2.161964178085327,-1.3407442581704636,-2.5286274592029017,6.163659083634176,1.0209007263183594,-2.0864513556109827
1708443399.8669577,-2.1619668006896973,-1.3407829415849228,-2.5285616556750696,6.163668024330892,1.0209007263183594,-2.0864599386798304
1708443399.8689365,-2.1619713306427,-1.3407904219678421,-2.5285943190204065,6.1636260626609705,1.020884394645691,-2.086464230214254
1708443399.8709416,-2.161910057067871,-1.3407532435706635,-2.52857476869692,6.163659083634176,1.0209128856658936,-2.0864556471454065
1708443399.8729455,-2.161942958831787,-1.3407371950200577,-2.5285659472094935,6.163736808090963,1.0209007263183594,-2.0864599386798304
1708443399.8749514,-2.1620004177093506,-1.340733842258789,-2.5285778681384485,6.163666593819418,1.0208932161331177,-2.0864599386798304
1708443399.8769507,-2.1619338989257812,-1.340723769073822,-2.5285568873034876,6.163659083634176,1.0208873748779297,-2.0864556471454065
1708443399.8789642,-2.1619293689727783,-1.3407293123057862,-2.528607432042257,6.163700806885519,1.020884394645691,-2.086442772542135
1708443399.8809319,-2.1619644165039062,-1.3407205057195206,-2.5285897890674036,6.163671004563131,1.0209095478057861,-2.0864723364459437
1708443399.8829467,-2.1619837284088135,-1.3407160502723237,-2.5286148230182093,6.163678514748373,1.0208873748779297,-2.086435619984762
1708443399.8849509,-2.1619598865509033,-1.3407620352557679,-2.5286150614367884,6.1636754153068445,1.0208724737167358,-2.086447064076559
1708443399.8869326,-2.1619668006896973,-1.3407041293433686,-2.5285940806018274,6.163724887162008,1.0208680629730225,-2.086402718220846
1708443399.888941,-2.1620075702667236,-1.3407532435706635,-2.528619352971212,6.1636873362358,1.0208932161331177,-2.0864766279803675
1708443399.8909254,-2.1619715690612793,-1.3406951588443299,-2.5285702387439173,6.163666593819418,1.0208888053894043,-2.086435619984762
1708443399.8929312,-2.161991596221924,-1.3407829415849228,-2.528579298649923,6.163662063866415,1.0208768844604492,-2.0864723364459437
1708443399.894959,-2.161987066268921,-1.3407460016063233,-2.5285866896258753,6.163657533913412,1.020859956741333,-2.0864556471454065
1708443399.8969543,-2.161975860595703,-1.3407205057195206,-2.5285540262805384,6.163707005768575,1.0208888053894043,-2.0864442030536097
1708443399.8989494,-2.1619579792022705,-1.3407487881234665,-2.528607432042257,6.1636754153068445,1.0208680629730225,-2.086435619984762
1708443399.900936,-2.1619746685028076,-1.3407549870065232,-2.5285866896258753,6.163699257164755,1.0208932161331177,-2.0864198843585413
1708443399.9029634,-2.1619882583618164,-1.3407904219678421,-2.5285702387439173,6.163682925492086,1.0208932161331177,-2.086447064076559
1708443399.90495,-2.1619837284088135,-1.3407829415849228,-2.5285821596728724,6.16367398479537,1.0208724737167358,-2.0864113012896937
1708443399.9069715,-2.1619746685028076,-1.3407129359296341,-2.5285421053515833,6.163753139763632,1.020879864692688,-2.0863826910602015
1708443399.9089606,-2.1619417667388916,-1.3407371950200577,-2.528513256703512,6.163671004563131,1.0208598375320435,-2.0864484945880335
1708443399.9109402,-2.1619622707366943,-1.3407293123057862,-2.528567377720968,6.163657533913412,1.0209007263183594,-2.08643609682192
1708443399.9129543,-2.161991596221924,-1.3407815259746094,-2.528583590184347,6.163662183075704,1.0208932161331177,-2.0864442030536097
1708443399.914956,-2.161991596221924,-1.3407442581704636,-2.528508726750509,6.163702595024862,1.020884394645691,-2.0864484945880335
1708443399.9169464,-2.1619417667388916,-1.340816007261612,-2.528583590184347,6.163707005768575,1.020906686782837,-2.0864198843585413
1708443399.918949,-2.161987066268921,-1.3407205057195206,-2.528517786656515,6.163666593819418,1.0209022760391235,-2.086464230214254
1708443399.92095,-2.1620051860809326,-1.3407416504672547,-2.528555456792013,6.163642394333639,1.020864486694336,-2.0864484945880335
1708443399.9229753,-2.1619882583618164,-1.3407696050456543,-2.5285730997668665,6.163703667908468,1.020884394645691,-2.0864198843585413
1708443399.9249582,-2.1619553565979004,-1.3407993179610749,-2.5285688082324427,6.163744318276205,1.0209022760391235,-2.0864198843585413
1708443399.9269795,-2.1620004177093506,-1.3407249462655564,-2.5285308996783655,6.163729417115011,1.0208768844604492,-2.0863950888263147
1708443399.9289432,-2.1620004177093506,-1.3407740455916901,-2.5284820238696497,6.163685905724325,1.0209351778030396,-2.0864155928241175
1708443399.9309368,-2.1619462966918945,-1.3407651644996186,-2.5284996668445032,6.163682925492086,1.0208978652954102,-2.0863950888263147
1708443399.9329448,-2.16203236579895,-1.3407041293433686,-2.5285146872149866,6.163662063866415,1.020884394645691,-2.0864079634295862
1708443399.9349546,-2.1619417667388916,-1.340733842258789,-2.5284908453570765,6.163669454842367,1.020864486694336,-2.086464230214254
1708443399.93694,-2.161970376968384,-1.3407460016063233,-2.5284653345691126,6.163699257164755,1.0208511352539062,-2.0864442030536097
1708443399.9389653,-2.1620004177093506,-1.3407947731069108,-2.5285115877734583,6.163665044098654,1.0208768844604492,-2.0864484945880335
1708443399.9409518,-2.1619791984558105,-1.3407993179610749,-2.5284982363330286,6.163666593819418,1.02085542678833,-2.086464230214254
1708443399.9429386,-2.1619338989257812,-1.3407993179610749,-2.5285192171679896,6.163707005768575,1.0208392143249512,-2.0864513556109827
1708443399.9449413,-2.1619577407836914,-1.34077841163192,-2.5284610430346888,6.163739669113912,1.0208768844604492,-2.086439911519186
1708443399.9469395,-2.161991596221924,-1.3407620352557679,-2.5285192171679896,6.1637189266975305,1.0208932161331177,-2.0864232222186487
1708443399.9489439,-2.1619701385498047,-1.3407873970321198,-2.5285027662860315,6.163657533913412,1.0208436250686646,-2.086390797291891
1708443399.9509294,-2.1619985103607178,-1.3407873970321198,-2.5284982363330286,6.163645732193746,1.020843505859375,-2.0864198843585413
1708443399.9529371,-2.1620235443115234,-1.340690703397133,-2.5285027662860315,6.163669454842367,1.0208481550216675,-2.0864442030536097
1708443399.9549253,-2.16203236579895,-1.3407129359296341,-2.5284608046161097,6.163678514748373,1.0208598375320435,-2.0864527861224573
1708443399.9569516,-2.161975860595703,-1.3407293123057862,-2.528510395680563,6.163691746979513,1.0208569765090942,-2.0864556471454065
1708443399.9589772,-2.161991596221924,-1.3407371950200577,-2.5285070578204554,6.1637189266975305,1.020819902420044,-2.0864513556109827
1708443399.9609368,-2.1619961261749268,-1.3407460016063233,-2.5284863154040735,6.163727867394247,1.0208287239074707,-2.086435619984762
1708443399.962952,-2.1619534492492676,-1.3407620352557679,-2.5285115877734583,6.163753139763632,1.0208406448364258,-2.08643609682192
1708443399.9649408,-2.1620004177093506,-1.3407371950200577,-2.5285308996783655,6.163707005768575,1.0208243131637573,-2.086440388356344
1708443399.966964,-2.1620190143585205,-1.3407651644996186,-2.528473202382223,6.163685905724325,1.0208450555801392,-2.08643609682192
1708443399.9689484,-2.1619985103607178,-1.3407947731069108,-2.5284908453570765,6.163681375771322,1.020800232887268,-2.0864599386798304
1708443399.9709496,-2.161965847015381,-1.340733842258789,-2.5284865538226526,6.163711535721578,1.0208046436309814,-2.0864079634295862
1708443399.97296,-2.1620278358459473,-1.34077841163192,-2.5285027662860315,6.163698065071859,1.020800232887268,-2.08646804491152
1708443399.9749372,-2.1619791984558105,-1.3407576841166993,-2.5285609404193323,6.163690316468038,1.0207924842834473,-2.086418930684225
1708443399.9769394,-2.1620144844055176,-1.340766580109932,-2.5284908453570765,6.163702595024862,1.0208091735839844,-2.0864155928241175
1708443399.9789784,-2.16203236579895,-1.3406965744546433,-2.5284610430346888,6.163702595024862,1.0207968950271606,-2.0864442030536097
1708443399.9809353,-2.1619837284088135,-1.3407620352557679,-2.5285311380969446,6.16366063335494,1.0207924842834473,-2.0864318052874964
1708443399.9829428,-2.161987066268921,-1.3407115203193207,-2.5285115877734583,6.163707005768575,1.0208135843276978,-2.0864484945880335
1708443399.9849432,-2.1620121002197266,-1.3407174807837983,-2.5284908453570765,6.163751590042867,1.0208134651184082,-2.086489979420797
1708443399.9869308,-2.161991596221924,-1.34077841163192,-2.5285399595843714,6.163681494980612,1.0207716226577759,-2.0863903204547327
1708443399.988941,-2.1620233058929443,-1.3407532435706635,-2.528493944798605,6.163648712425985,1.0207761526107788,-2.0863712469684046
1708443399.9909399,-2.161991596221924,-1.3408204478076478,-2.5285027662860315,6.163711535721578,1.0207716226577759,-2.0863993803607386
1708443399.9929214,-2.1620190143585205,-1.3407993179610749,-2.5285325686084192,6.163707005768575,1.0207924842834473,-2.0864079634295862
1708443399.9949164,-2.161982536315918,-1.3407416504672547,-2.5285235087024134,6.163681494980612,1.020768404006958,-2.0864036718951624
1708443399.996947,-2.16203236579895,-1.3407829415849228,-2.528477493916647,6.1637189266975305,1.0207761526107788,-2.0864198843585413
1708443399.9989824,-2.1619293689727783,-1.3407993179610749,-2.5285027662860315,6.1636531231696985,1.0207716226577759,-2.0864198843585413
1708443400.000927,-2.161970376968384,-1.3407205057195206,-2.5285070578204554,6.163701045304098,1.0207968950271606,-2.0863993803607386
1708443400.0029972,-2.161982774734497,-1.340766580109932,-2.5285192171679896,6.163662183075704,1.020750641822815,-2.0864484945880335
1708443400.0049381,-2.1619579792022705,-1.3407620352557679,-2.5284908453570765,6.163676965027609,1.0207594633102417,-2.086444679890768
1708443400.0069366,-2.1620006561279297,-1.34077841163192,-2.5285192171679896,6.1636695740516565,1.0207805633544922,-2.0863783995257776
1708443400.0089283,-2.1620402336120605,-1.3407460016063233,-2.528477493916647,6.163727867394247,1.0207761526107788,-2.0863993803607386
1708443400.0109355,-2.1619961261749268,-1.3408234876445313,-2.5284863154040735,6.16367386558608,1.0207761526107788,-2.0864198843585413
1708443400.0129511,-2.161987066268921,-1.340732754474022,-2.5284953753100794,6.163736808090963,1.020763874053955,-2.086440388356344
1708443400.0149705,-2.1620190143585205,-1.34077841163192,-2.5284445921527308,6.163714515953817,1.0207850933074951,-2.0864232222186487
1708443400.016923,-2.161991596221924,-1.3407892447761078,-2.5284908453570765,6.163648712425985,1.0207549333572388,-2.0863950888263147
1708443400.01893,-2.1620075702667236,-1.3407651644996186,-2.5284624735461634,6.163707005768575,1.0207728147506714,-2.0864155928241175
1708443400.020926,-2.161991596221924,-1.3407416504672547,-2.5284996668445032,6.163698065071859,1.0207761526107788,-2.0864198843585413
1708443400.0229437,-2.1620030403137207,-1.340732754474022,-2.5284953753100794,6.16375611999587,1.0207850933074951,-2.086440388356344
1708443400.024921,-2.161987066268921,-1.3407487881234665,-2.5285354296313685,6.163730847626486,1.0207594633102417,-2.0864232222186487
1708443400.0269513,-2.1620233058929443,-1.3407205057195206,-2.5284820238696497,6.163726436882772,1.0207716226577759,-2.0864198843585413
1708443400.0289395,-2.1619668006896973,-1.3407416504672547,-2.5284953753100794,6.163726436882772,1.020768404006958,-2.0864036718951624
1708443400.0309484,-2.161991596221924,-1.340766580109932,-2.5285070578204554,6.163739788323202,1.0207895040512085,-2.0864113012896937
1708443400.0329359,-2.1620030403137207,-1.3407505315593262,-2.5285070578204554,6.163714515953817,1.0207805633544922,-2.0864442030536097
1708443400.0349329,-2.1620006561279297,-1.340679870252945,-2.5284324328051966,6.163714515953817,1.0207594633102417,-2.0864318052874964
1708443400.0369358,-2.1619791984558105,-1.3407873970321198,-2.5284908453570765,6.16375611999587,1.0207850933074951,-2.0864232222186487
1708443400.0389555,-2.161987066268921,-1.3407371950200577,-2.5284741560565394,6.163739788323202,1.0207895040512085,-2.0864275137530726
1708443400.0409591,-2.161987066268921,-1.3407947731069108,-2.5284953753100794,6.163784611016073,1.0207520723342896,-2.0864318052874964
1708443400.0429487,-2.1620278358459473,-1.340816007261612,-2.5285354296313685,6.163702595024862,1.0207520723342896,-2.086468521748678
1708443400.0449393,-2.1619577407836914,-1.3407740455916901,-2.5285070578204554,6.1637189266975305,1.0207401514053345,-2.08641225496401
1708443400.0469425,-2.1619961261749268,-1.3407416504672547,-2.5284953753100794,6.163714515953817,1.0207520723342896,-2.0863869825946253
1708443400.0489464,-2.1620190143585205,-1.3407487881234665,-2.5284786860095423,6.163714515953817,1.020763874053955,-2.08641225496401
1708443400.0509672,-2.1619961261749268,-1.3407815259746094,-2.5284741560565394,6.163789140969076,1.020756483078003,-2.0864198843585413
1708443400.052947,-2.161991596221924,-1.3407993179610749,-2.5284534136401575,6.163742768555441,1.0207023620605469,-2.0863826910602015
1708443400.0549376,-2.1619701385498047,-1.3407532435706635,-2.5284996668445032,6.163681494980612,1.0207104682922363,-2.08641225496401
1708443400.0569391,-2.1620190143585205,-1.3407460016063233,-2.5284908453570765,6.163685905724325,1.0207608938217163,-2.0863669554339808
1708443400.05894,-2.1620235443115234,-1.3407740455916901,-2.5284786860095423,6.163727867394247,1.020768404006958,-2.0864036718951624
1708443400.0609505,-2.1620075702667236,-1.340732754474022,-2.5284953753100794,6.163721906929769,1.0207895040512085,-2.086395565663473
1708443400.0629578,-2.1619489192962646,-1.3407011044076462,-2.52847129503359,6.163685905724325,1.0207536220550537,-2.086464230214254
1708443400.0649698,-2.1619579792022705,-1.3407460016063233,-2.5284534136401575,6.163748729019918,1.0207194089889526,-2.0863621870623987
1708443400.0669389,-2.1620235443115234,-1.3407859665206452,-2.5285115877734583,6.163710105210104,1.0207401514053345,-2.0863621870623987
1708443400.0689507,-2.1620235443115234,-1.3407740455916901,-2.5284953753100794,6.1637412188346765,1.020741581916809,-2.0863755385028284
1708443400.0709834,-2.161991596221924,-1.3407371950200577,-2.528504196797506,6.163751709252157,1.0207202434539795,-2.086439911519186
1708443400.0729496,-2.161965847015381,-1.340766580109932,-2.5284786860095423,6.163727867394247,1.020756483078003,-2.08641225496401
1708443400.0749924,-2.161970376968384,-1.3407371950200577,-2.5284996668445032,6.163759457855978,1.0207489728927612,-2.086424175892965
1708443400.0769343,-2.161932945251465,-1.34077841163192,-2.5284624735461634,6.163751709252157,1.0207772254943848,-2.0863826910602015
1708443400.078961,-2.1620075702667236,-1.34077841163192,-2.5284865538226526,6.163709986000814,1.0207372903823853,-2.0864809195147913
1708443400.0809538,-2.161982774734497,-1.3407460016063233,-2.5285070578204554,6.163676965027609,1.0207202434539795,-2.0863869825946253
1708443400.0829303,-2.1620118618011475,-1.3407620352557679,-2.5284786860095423,6.163685905724325,1.0207202434539795,-2.0864275137530726
1708443400.084942,-2.161982536315918,-1.3407993179610749,-2.5284786860095423,6.163730847626486,1.0207579135894775,-2.0864527861224573
1708443400.0869434,-2.1619701385498047,-1.3407371950200577,-2.5284953753100794,6.163685905724325,1.0206949710845947,-2.0864198843585413
1708443400.088948,-2.1620402336120605,-1.3407416504672547,-2.5284996668445032,6.163742768555441,1.0207083225250244,-2.086424175892965
1708443400.090942,-2.1620118618011475,-1.3408323687366028,-2.5285070578204554,6.163666593819418,1.020715594291687,-2.0864079634295862
1708443400.0929549,-2.1619746685028076,-1.340811477308609,-2.5284820238696497,6.163726436882772,1.0207445621490479,-2.086444679890768
1708443400.0949726,-2.1619985103607178,-1.3407041293433686,-2.528504196797506,6.163702595024862,1.020703911781311,-2.0864155928241175
1708443400.0969565,-2.161965847015381,-1.3407696050456543,-2.5284786860095423,6.163714515953817,1.0207157135009766,-2.0864155928241175
1708443400.098984,-2.1620006561279297,-1.34077841163192,-2.5284908453570765,6.163775789528646,1.0207157135009766,-2.0864198843585413
1708443400.1009648,-2.161965847015381,-1.3407576841166993,-2.5284953753100794,6.163698184281149,1.020703911781311,-2.0863869825946253
1708443400.1029599,-2.1619985103607178,-1.3407487881234665,-2.52845007578005,6.163747179299154,1.0207157135009766,-2.0864036718951624
1708443400.1049569,-2.161965847015381,-1.3407293123057862,-2.5284579435931605,6.163685786515035,1.020699381828308,-2.0864232222186487
1708443400.1069458,-2.162031412124634,-1.3407859665206452,-2.5284786860095423,6.163715946465292,1.0206753015518188,-2.086440388356344
1708443400.10894,-2.1620075702667236,-1.3407460016063233,-2.5284579435931605,6.163677084236898,1.0207083225250244,-2.086424175892965
1708443400.1109707,-2.161987066268921,-1.3407371950200577,-2.5284293333636683,6.163744199066915,1.020691990852356,-2.086384121571676
1708443400.112937,-2.1619746685028076,-1.3407696050456543,-2.528466765080587,6.163699257164755,1.0207246541976929,-2.0863755385028284
1708443400.1149535,-2.1619534492492676,-1.3407725405744095,-2.5284457842456263,6.163702595024862,1.0207459926605225,-2.0863588492022913
1708443400.1169307,-2.161987066268921,-1.3407505315593262,-2.52847129503359,6.163702595024862,1.020691990852356,-2.0864079634295862
1708443400.1189432,-2.1620030403137207,-1.340707079773285,-2.5284293333636683,6.163739788323202,1.020699381828308,-2.0863712469684046
1708443400.1209424,-2.1619579792022705,-1.3407651346972962,-2.528482977543966,6.163730847626486,1.0207202434539795,-2.086440388356344
1708443400.122929,-2.1620278358459473,-1.3407416504672547,-2.52847129503359,6.1637189266975305,1.0206589698791504,-2.0864198843585413
1708443400.1249366,-2.1619985103607178,-1.3407815259746094,-2.52850848833193,6.163744318276205,1.0206589698791504,-2.0864155928241175
1708443400.1269534,-2.1620357036590576,-1.3407740455916901,-2.528421942387716,6.163742768555441,1.0207202434539795,-2.086395565663473
1708443400.1289265,-2.1620190143585205,-1.3407505315593262,-2.5284457842456263,6.163748729019918,1.0207083225250244,-2.0864318052874964
1708443400.1309457,-2.1620121002197266,-1.3407576841166993,-2.5284953753100794,6.163709986000814,1.020633578300476,-2.086424175892965
1708443400.1329648,-2.1620118618011475,-1.3407815259746094,-2.528504196797506,6.163678514748373,1.020709753036499,-2.0864155928241175
1708443400.1349223,-2.1620357036590576,-1.3407740455916901,-2.528482977543966,6.163730847626486,1.0207083225250244,-2.0863950888263147
1708443400.1369245,-2.1620190143585205,-1.3406996887973328,-2.528487507496969,6.1637189266975305,1.0206797122955322,-2.08644944826235
1708443400.1389923,-2.1620118618011475,-1.3407505315593262,-2.52847129503359,6.163730847626486,1.0207009315490723,-2.0863869825946253
1708443400.1409142,-2.1620030403137207,-1.340766580109932,-2.5284457842456263,6.163669454842367,1.0207083225250244,-2.086444679890768
1708443400.1429834,-2.1620583534240723,-1.3407740455916901,-2.5284996668445032,6.163685905724325,1.0206679105758667,-2.086424175892965
1708443400.144918,-2.1620075702667236,-1.340766580109932,-2.528438393269674,6.163702595024862,1.0206797122955322,-2.08643609682192
1708443400.1469557,-2.1620144844055176,-1.3407651644996186,-2.528454605733053,6.163707005768575,1.0206842422485352,-2.086461846028463
1708443400.1489198,-2.1620118618011475,-1.3407829415849228,-2.52847129503359,6.163744199066915,1.0206352472305298,-2.086391274129049
1708443400.1509223,-2.1619961261749268,-1.3407576841166993,-2.52845007578005,6.163665044098654,1.0207380056381226,-2.0863712469684046
1708443400.152938,-2.1620190143585205,-1.3407460016063233,-2.5284579435931605,6.163763868599691,1.0206753015518188,-2.0864155928241175
1708443400.1549208,-2.1619553565979004,-1.3407129359296341,-2.5284908453570765,6.163698184281149,1.0206842422485352,-2.086440388356344
1708443400.1569247,-2.162036895751953,-1.3407505315593262,-2.52845007578005,6.16375611999587,1.0206842422485352,-2.086395565663473
1708443400.1589456,-2.1620121002197266,-1.3407696050456543,-2.528438393269674,6.163715946465292,1.0207335948944092,-2.0864079634295862
1708443400.1609206,-2.161991596221924,-1.3407129359296341,-2.528466765080587,6.163694846421041,1.0207009315490723,-2.0864036718951624
1708443400.1629803,-2.161991596221924,-1.3407460016063233,-2.528426472340719,6.163672554283895,1.0206842422485352,-2.0864318052874964
1708443400.1649237,-2.1620030403137207,-1.3407740455916901,-2.528458897267477,6.163685905724325,1.0207009315490723,-2.0863826910602015
1708443400.1669633,-2.1620144844055176,-1.3407620352557679,-2.52847129503359,6.163689124375143,1.0207172632217407,-2.0863869825946253
1708443400.168935,-2.161956787109375,-1.3407904219678421,-2.52845007578005,6.163723337441244,1.02067232131958,-2.08641225496401
1708443400.1709242,-2.1620190143585205,-1.3407936853221436,-2.528421942387716,6.163690316468038,1.0207260847091675,-2.086395565663473
1708443400.1729338,-2.1620030403137207,-1.3408234876445313,-2.528447214757101,6.163744199066915,1.020703911781311,-2.086416546498434
1708443400.1749482,-2.1619985103607178,-1.3408145916512986,-2.528454605733053,6.163707005768575,1.0207290649414062,-2.0863755385028284
1708443400.1769526,-2.1619985103607178,-1.3408071112683793,-2.528458897267477,6.163662183075704,1.020691990852356,-2.0863993803607386
1708443400.1789553,-2.1620099544525146,-1.3407282096198578,-2.528475586568014,6.163739788323202,1.0207009315490723,-2.0863826910602015
1708443400.1809382,-2.1619985103607178,-1.3408056062510987,-2.5283804575549524,6.1637189266975305,1.0207260847091675,-2.08641225496401
1708443400.182967,-2.1620030403137207,-1.3407783967307587,-2.528454605733053,6.163714515953817,1.0206886529922485,-2.0864036718951624
1708443400.1849384,-2.161982774734497,-1.3407371950200577,-2.52842623392214,6.163681494980612,1.0206679105758667,-2.0863798300372522
1708443400.1869369,-2.1620051860809326,-1.3407293123057862,-2.5284679571734827,6.163665044098654,1.0207009315490723,-2.0864079634295862
1708443400.188948,-2.1620075702667236,-1.3407904219678421,-2.52846342722048,6.163682925492086,1.0206886529922485,-2.08643609682192
1708443400.1909451,-2.1620075702667236,-1.340732754474022,-2.5284515062915247,6.163707005768575,1.0206589698791504,-2.08643609682192
1708443400.1929467,-2.1620278358459473,-1.3407532435706635,-2.528430763875143,6.163698184281149,1.0207053422927856,-2.0864079634295862
1708443400.1949363,-2.1619746685028076,-1.3407947731069108,-2.528421942387716,6.163702595024862,1.0206964015960693,-2.0863869825946253
1708443400.196962,-2.1620030403137207,-1.3407371950200577,-2.52845007578005,6.163703667908468,1.0206470489501953,-2.086457077656881
1708443400.199002,-2.1619791984558105,-1.3407710206559678,-2.5284515062915247,6.163702595024862,1.0206753015518188,-2.0864198843585413
1708443400.2009437,-2.1619701385498047,-1.3407505315593262,-2.528492037449972,6.163711535721578,1.0206886529922485,-2.0864036718951624
1708443400.202951,-2.161970376968384,-1.3407620352557679,-2.5284293333636683,6.163724887162008,1.0206708908081055,-2.0864318052874964
1708443400.2049503,-2.1620278358459473,-1.3407576841166993,-2.528421942387716,6.163682925492086,1.0206797122955322,-2.086444679890768
1708443400.2069297,-2.161982536315918,-1.3407904219678421,-2.528480116521017,6.163727867394247,1.0206964015960693,-2.086399857197897
1708443400.2089462,-2.161987066268921,-1.3407829415849228,-2.528458897267477,6.163678514748373,1.0206974744796753,-2.0863869825946253
1708443400.2109451,-2.1620190143585205,-1.3407460016063233,-2.528454605733053,6.163681375771322,1.020721673965454,-2.086424175892965
1708443400.212945,-2.1620144844055176,-1.3407174807837983,-2.528414551411764,6.1637412188346765,1.0207246541976929,-2.086472813283102
1708443400.2149696,-2.1619701385498047,-1.3407829415849228,-2.528458897267477,6.163711535721578,1.0206753015518188,-2.0864484945880335
1708443400.216946,-2.161991596221924,-1.3407549870065232,-2.528458897267477,6.163757550507345,1.0206964015960693,-2.0864198843585413
1708443400.2189527,-2.1620118618011475,-1.3407947731069108,-2.528475586568014,6.163735258370199,1.0207083225250244,-2.086395565663473
1708443400.2209506,-2.161987066268921,-1.3407859665206452,-2.528454605733053,6.163744199066915,1.0207171440124512,-2.086424175892965
1708443400.2229428,-2.1619791984558105,-1.3407382828048249,-2.528438393269674,6.163711535721578,1.0206842422485352,-2.0864198843585413
1708443400.2249568,-2.1620211601257324,-1.3407460016063233,-2.528480116521017,6.163727867394247,1.020660400390625,-2.086424175892965
1708443400.226928,-2.1620118618011475,-1.3406996440938492,-2.5284786860095423,6.163720476418295,1.020699381828308,-2.0864370504962366
1708443400.2289326,-2.1619791984558105,-1.3407505315593262,-2.5284250418292444,6.163678514748373,1.0207335948944092,-2.0864198843585413
1708443400.230941,-2.1619443893432617,-1.3407371950200577,-2.528480116521017,6.163682925492086,1.0207334756851196,-2.0863669554339808
1708443400.2329333,-2.1619622707366943,-1.3408071112683793,-2.5284679571734827,6.163662183075704,1.0206679105758667,-2.086395565663473
1708443400.234941,-2.1619961261749268,-1.3407282096198578,-2.528454605733053,6.163723337441244,1.0206679105758667,-2.08643609682192
1708443400.23696,-2.161978244781494,-1.3407249462655564,-2.528438393269674,6.163671004563131,1.0206886529922485,-2.0864442030536097
1708443400.238966,-2.1620030403137207,-1.340816007261612,-2.5284457842456263,6.163608181267538,1.02067232131958,-2.0863993803607386
1708443400.2409525,-2.161970376968384,-1.3407174807837983,-2.528458897267477,6.163694846421041,1.0207009315490723,-2.0864318052874964
1708443400.2429512,-2.161991596221924,-1.3407696050456543,-2.5284844080554407,6.163694846421041,1.0207053422927856,-2.0864036718951624
1708443400.2449372,-2.1619489192962646,-1.3407829415849228,-2.528433863316671,6.163703787117758,1.0206633806228638,-2.086391274129049
1708443400.2469442,-2.1619961261749268,-1.3407532435706635,-2.52845007578005,6.1636873362358,1.020693063735962,-2.086424175892965
1708443400.2489574,-2.1619534492492676,-1.3407576841166993,-2.528458897267477,6.163694846421041,1.020691990852356,-2.0863712469684046
1708443400.2509658,-2.16203236579895,-1.340732754474022,-2.528433863316671,6.163671004563131,1.0206753015518188,-2.08643609682192
1708443400.2529428,-2.161928415298462,-1.3407416504672547,-2.52846342722048,6.163666593819418,1.020703911781311,-2.0863826910602015
1708443400.254974,-2.1619961261749268,-1.3407249462655564,-2.528492037449972,6.163699257164755,1.0207127332687378,-2.0864079634295862
1708443400.2569711,-2.161982536315918,-1.3406996887973328,-2.52845007578005,6.1636873362358,1.020691990852356,-2.0863755385028284
1708443400.2589397,-2.1620447635650635,-1.3407293123057862,-2.528454605733053,6.163699257164755,1.020705223083496,-2.0864599386798304
1708443400.260928,-2.161991596221924,-1.3407993179610749,-2.528458897267477,6.1636918661888025,1.0206589698791504,-2.0864208380328577
1708443400.2629738,-2.161987066268921,-1.3407829415849228,-2.528447214757101,6.1637457487876794,1.0207009315490723,-2.0864527861224573
1708443400.2649238,-2.1620006561279297,-1.3407371950200577,-2.528454605733053,6.163712727814474,1.0206842422485352,-2.0864771048175257
1708443400.2669601,-2.1619746685028076,-1.3407160502723237,-2.528475586568014,6.163724887162008,1.0206964015960693,-2.0863712469684046
1708443400.2689264,-2.161987066268921,-1.3407696050456543,-2.5284996668445032,6.163708197861471,1.0206842422485352,-2.0864079634295862
1708443400.2709422,-2.1620447635650635,-1.3407041293433686,-2.528458897267477,6.163703787117758,1.0207083225250244,-2.0864036718951624
1708443400.272932,-2.1620075702667236,-1.3407576841166993,-2.528475586568014,6.16365014293746,1.0207053422927856,-2.086428467427389
1708443400.2749689,-2.1619622707366943,-1.3407873970321198,-2.528433863316671,6.163690316468038,1.0206964015960693,-2.086444679890768
1708443400.276939,-2.1619746685028076,-1.3406922084144135,-2.528454605733053,6.163678514748373,1.0206679105758667,-2.0864113012896937
1708443400.2789762,-2.1620075702667236,-1.340766580109932,-2.528410021458761,6.163659083634176,1.0206753015518188,-2.0864198843585413
1708443400.2809553,-2.1619961261749268,-1.3407293123057862,-2.5284515062915247,6.16365014293746,1.0206886529922485,-2.0864318052874964
1708443400.2829409,-2.161991596221924,-1.340766580109932,-2.528405491505758,6.1636379835899255,1.020693063735962,-2.086444679890768
1708443400.2849362,-2.1619534492492676,-1.3407460016063233,-2.528393570576803,6.163641202240743,1.020691990852356,-2.0864036718951624
1708443400.286937,-2.1619579792022705,-1.3407859665206452,-2.52845007578005,6.163645732193746,1.0207009315490723,-2.0863798300372522
1708443400.2889538,-2.1620075702667236,-1.340811477308609,-2.52842623392214,6.163682925492086,1.0206633806228638,-2.086391274129049
1708443400.2909598,-2.1619746685028076,-1.3407416355660935,-2.528466765080587,6.163703667908468,1.020693063735962,-2.0864318052874964
1708443400.2929497,-2.1619961261749268,-1.3407620352557679,-2.5283847490893763,6.163659083634176,1.0207172632217407,-2.0863993803607386
1708443400.2949357,-2.1620233058929443,-1.3407696050456543,-2.52842623392214,6.163659083634176,1.020650029182434,-2.086399857197897
1708443400.296949,-2.1619837284088135,-1.3407416504672547,-2.528430763875143,6.163671004563131,1.0207172632217407,-2.0864079634295862
1708443400.2989707,-2.161991596221924,-1.3407936853221436,-2.52845007578005,6.163682925492086,1.020703911781311,-2.0863545576678675
1708443400.3009694,-2.1619462966918945,-1.3407829862884064,-2.528442684804098,6.1636379835899255,1.0206875801086426,-2.0863993803607386
1708443400.302943,-2.1619489192962646,-1.3407085847905655,-2.528442684804098,6.163671004563131,1.0206964015960693,-2.0863588492022913
1708443400.304955,-2.161991596221924,-1.3407532435706635,-2.528458897267477,6.163651335030355,1.0207335948944092,-2.086395565663473
1708443400.3069587,-2.162036895751953,-1.340704084639885,-2.528454605733053,6.163671004563131,1.0207127332687378,-2.086371723805563
1708443400.308948,-2.1620163917541504,-1.3407293123057862,-2.528475586568014,6.163642394333639,1.0207334756851196,-2.0864418188678187
1708443400.3109753,-2.1619534492492676,-1.3407665950110932,-2.528458897267477,6.163717138558187,1.0207380056381226,-2.0863884131061
1708443400.3129516,-2.161991596221924,-1.3407505315593262,-2.528475586568014,6.163705217629232,1.0207083225250244,-2.0864298979388636
1708443400.3149529,-2.161987066268921,-1.3407505464604874,-2.52845007578005,6.1636260626609705,1.0207172632217407,-2.086399857197897
1708443400.3169498,-2.1619508266448975,-1.3407371950200577,-2.528438393269674,6.163642394333639,1.0207009315490723,-2.0864041487323206
1708443400.318956,-2.1619668006896973,-1.340766580109932,-2.528475586568014,6.1636379835899255,1.0206842422485352,-2.086343590413229
1708443400.3209507,-2.1619882583618164,-1.3408038181117554,-2.528454605733053,6.163679945259847,1.0207127332687378,-2.0863884131061
1708443400.3229535,-2.1619837284088135,-1.34072499096904,-2.52845007578005,6.16365014293746,1.0206875801086426,-2.0863469282733362
1708443400.3249493,-2.161991596221924,-1.340782956486084,-2.5283966700183313,6.163605201035299,1.0206842422485352,-2.0863760153399866
1708443400.3269398,-2.1619622707366943,-1.3407460016063233,-2.528433863316671,6.163663613587179,1.020721673965454,-2.086343590413229
1708443400.3289404,-2.1620142459869385,-1.3407532435706635,-2.528433863316671,6.163663613587179,1.0206842422485352,-2.0862820784198206
1708443400.3309445,-2.1620075702667236,-1.3407129359296341,-2.528454605733053,6.163668024330892,1.0207290649414062,-2.0863269011126917
1708443400.3329554,-2.161987066268921,-1.3407620352557679,-2.5284457842456263,6.163668024330892,1.0207083225250244,-2.0863564650165003
1708443400.3349566,-2.1620254516601562,-1.3407549870065232,-2.528421942387716,6.163672435074606,1.0206753015518188,-2.086344067250387
1708443400.3369286,-2.1619746685028076,-1.3407293123057862,-2.528475586568014,6.163600790291586,1.0207083225250244,-2.086315457020895
1708443400.3389647,-2.1619338989257812,-1.3407041293433686,-2.528475586568014,6.1636394141014,1.0206964015960693,-2.086299721394674
1708443400.340947,-2.1619668006896973,-1.340755046611168,-2.52847129503359,6.163623082428732,1.0207127332687378,-2.0863073507892054
1708443400.3429768,-2.1619534492492676,-1.3407416355660935,-2.52847129503359,6.163573610573568,1.0206875801086426,-2.086348358784811
1708443400.3449492,-2.1619961261749268,-1.3407549274018784,-2.5284457842456263,6.163578140526571,1.020691990852356,-2.0862868467914026
1708443400.3469641,-2.1619417667388916,-1.3407696050456543,-2.52845007578005,6.163582670479574,1.0206797122955322,-2.0863240400897425
1708443400.3489394,-2.1620075702667236,-1.3407873970321198,-2.5283966700183313,6.163587081223287,1.020654559135437,-2.0863030592547815
1708443400.350965,-2.1620278358459473,-1.3406754595092316,-2.528475586568014,6.163560020714559,1.020703911781311,-2.086344067250387
1708443400.3529332,-2.1619338989257812,-1.3408071112683793,-2.528417412434713,6.163492667465963,1.020703911781311,-2.086339775715963
1708443400.3549464,-2.161975860595703,-1.3407460016063233,-2.528466765080587,6.163551080017843,1.0207172632217407,-2.086320225392477
1708443400.3569381,-2.1620256900787354,-1.340704084639885,-2.528504196797506,6.163548099785604,1.0207157135009766,-2.0863197485553187
1708443400.35895,-2.1619534492492676,-1.340762050156929,-2.528458897267477,6.163506138115682,1.0207246541976929,-2.086311642323629
1708443400.3609614,-2.1619746685028076,-1.340721921329834,-2.528433863316671,6.163503157883444,1.0207083225250244,-2.0863240400897425
1708443400.3629572,-2.1619577407836914,-1.340717465882637,-2.528496328984396,6.163473355561056,1.020691990852356,-2.086315457020895
1708443400.3649664,-2.1619248390197754,-1.3407859814218064,-2.528458897267477,6.16349874713973,1.0207290649414062,-2.0863521734820765
1708443400.366933,-2.1620006561279297,-1.340720461016037,-2.528438154851095,6.163536178856649,1.0207202434539795,-2.0863197485553187
1708443400.3689399,-2.1619791984558105,-1.3407550019076844,-2.528442684804098,6.163532840996542,1.0206964015960693,-2.086339775715963
1708443400.370951,-2.1620051860809326,-1.3407460016063233,-2.528454605733053,6.16347490528182,1.0207083225250244,-2.0862749258624476
1708443400.372939,-2.1619248390197754,-1.3407129359296341,-2.528442684804098,6.163446533470907,1.0207202434539795,-2.086315933858053
1708443400.374947,-2.1620051860809326,-1.3407696050456543,-2.52845007578005,6.163520920067587,1.0206992626190186,-2.086283508931295
1708443400.3769438,-2.1620097160339355,-1.3407665950110932,-2.5284293333636683,6.16345106342391,1.0206708908081055,-2.086299721394674
1708443400.3789687,-2.1620006561279297,-1.3407371801188965,-2.528442684804098,6.163428652077474,1.0207246541976929,-2.0862510840045374
1708443400.380947,-2.1619746685028076,-1.3407620352557679,-2.528454605733053,6.163531768112936,1.0207246541976929,-2.086271111165182
1708443400.3829613,-2.1619462966918945,-1.3408114624074479,-2.5284250418292444,6.163461434632101,1.0207202434539795,-2.0862754026996058
1708443400.3849385,-2.161991596221924,-1.3407460016063233,-2.5284457842456263,6.163507568627157,1.0207579135894775,-2.0862749258624476
1708443400.3869236,-2.1620006561279297,-1.3407918971828003,-2.528475586568014,6.163467395096578,1.0207246541976929,-2.086266819630758
1708443400.3889277,-2.161991596221924,-1.340729297404625,-2.52850848833193,6.163504588394918,1.0207371711730957,-2.086283508931295
1708443400.3909428,-2.1619973182678223,-1.340712921028473,-2.528442684804098,6.163500177651205,1.020699381828308,-2.086320225392477
1708443400.3929434,-2.1619791984558105,-1.3407249313643952,-2.5284293333636683,6.163532840996542,1.020741581916809,-2.086320225392477
1708443400.3949335,-2.1619668006896973,-1.3407665950110932,-2.528417412434713,6.16347490528182,1.0207371711730957,-2.086299721394674
1708443400.3969283,-2.1619553565979004,-1.3407205057195206,-2.5284579435931605,6.163519489556112,1.0207127332687378,-2.086287800465719
1708443400.3989484,-2.1619248390197754,-1.3407460016063233,-2.528496328984396,6.1634793160255334,1.0207371711730957,-2.0862792173968714
1708443400.4009585,-2.1619927883148193,-1.3407904368690033,-2.528466765080587,6.163458454399862,1.0207282304763794,-2.086263958607809
1708443400.4029543,-2.1619338989257812,-1.3407550317100068,-2.5284457842456263,6.16348813751296,1.020691990852356,-2.086344067250387
1708443400.4049592,-2.1619961261749268,-1.3407416355660935,-2.528466765080587,6.163507568627157,1.0207371711730957,-2.086304012929098
1708443400.4069679,-2.1619746685028076,-1.3407505464604874,-2.5284250418292444,6.163428652077474,1.0207371711730957,-2.086266819630758
1708443400.4089382,-2.161916971206665,-1.3407550019076844,-2.528458897267477,6.1634466526801965,1.0207282304763794,-2.0862754026996058
1708443400.4109313,-2.1619884967803955,-1.3407460016063233,-2.528442684804098,6.163442122727194,1.0207445621490479,-2.086320225392477
1708443400.4129553,-2.161975860595703,-1.340729297404625,-2.52845007578005,6.163537251740255,1.020741581916809,-2.086271111165182
1708443400.414948,-2.1619837284088135,-1.340775505905487,-2.5284996668445032,6.163483726769247,1.0207371711730957,-2.0863125959979456
1708443400.416951,-2.1619622707366943,-1.3407505464604874,-2.528475586568014,6.163458454399862,1.0207371711730957,-2.0862796942340296
1708443400.4189482,-2.1619622707366943,-1.3406590533307572,-2.528454605733053,6.163507568627157,1.0207202434539795,-2.0862625280963343
1708443400.4209476,-2.1619577407836914,-1.3407383126071473,-2.528513018284933,6.16345106342391,1.020703911781311,-2.086283508931295
1708443400.4229493,-2.161921501159668,-1.340742753153183,-2.52847129503359,6.163446533470907,1.0207157135009766,-2.0862963835345667
1708443400.424937,-2.1619462966918945,-1.3407293123057862,-2.52850848833193,6.163467395096578,1.020741581916809,-2.086238686238424
1708443400.4269557,-2.1619553565979004,-1.340705544953682,-2.52845007578005,6.16345106342391,1.020699381828308,-2.086247269307272
1708443400.4289382,-2.161938428878784,-1.3407829415849228,-2.528438393269674,6.163455474167623,1.0207290649414062,-2.0862682501422327
1708443400.4309595,-2.161975860595703,-1.3407219064286728,-2.528482977543966,6.16348825672225,1.0206663608551025,-2.0863245169269007
1708443400.4329278,-2.1619462966918945,-1.3407710802606125,-2.5284250418292444,6.16346441486434,1.0206786394119263,-2.086292092000143
1708443400.4349294,-2.1620006561279297,-1.3407549870065232,-2.528508726750509,6.163500177651205,1.020703911781311,-2.086238686238424
1708443400.436919,-2.1619598865509033,-1.3407550019076844,-2.528487507496969,6.163467395096578,1.0206619501113892,-2.0862515608416956
1708443400.4389365,-2.1619462966918945,-1.3407427829555054,-2.5284844080554407,6.16343771198348,1.0207246541976929,-2.0862234274493616
1708443400.4409297,-2.16194748878479,-1.34075319886718,-2.528491799031393,6.1634466526801965,1.0207653045654297,-2.086231056843893
1708443400.442961,-2.161975860595703,-1.3407416355660935,-2.52845007578005,6.1634466526801965,1.0207372903823853,-2.0863006750689905
1708443400.4449365,-2.1619837284088135,-1.340766654615738,-2.528442684804098,6.1635416624839685,1.0207282304763794,-2.086247269307272
1708443400.4469259,-2.161975860595703,-1.3407416355660935,-2.5284457842456263,6.163455474167623,1.0206949710845947,-2.0862515608416956
1708443400.4489334,-2.1619598865509033,-1.3407740455916901,-2.528454605733053,6.1634793160255334,1.0207326412200928,-2.0862277189837855
1708443400.4509223,-2.161938428878784,-1.3407460016063233,-2.5284250418292444,6.163458454399862,1.0207326412200928,-2.0862234274493616
1708443400.452928,-2.1619668006896973,-1.340778426533081,-2.528487507496969,6.163433301239767,1.0207326412200928,-2.086214844380514
1708443400.4549294,-2.161938428878784,-1.3407666397145768,-2.5284741560565394,6.1634912369544885,1.0207024812698364,-2.0862320105182093
1708443400.4569268,-2.1619837284088135,-1.3406922233155747,-2.528482977543966,6.163462984352865,1.0207401514053345,-2.086268726979391
1708443400.4589393,-2.1619293689727783,-1.3407710653594513,-2.528454605733053,6.163467395096578,1.0207326412200928,-2.0862067381488245
1708443400.4609177,-2.161942958831787,-1.3407651794007798,-2.5284250418292444,6.16345106342391,1.0207401514053345,-2.086263958607809
1708443400.4629261,-2.161921739578247,-1.340721921329834,-2.5284205118762415,6.163471805840292,1.0207282304763794,-2.0862234274493616
1708443400.464918,-2.1618964672088623,-1.340708540087082,-2.5284741560565394,6.16340051868514,1.0207068920135498,-2.086264435444967
1708443400.4669554,-2.1619036197662354,-1.340705544953682,-2.5284786860095423,6.1635253308113,1.0207246541976929,-2.086236302052633
1708443400.46893,-2.161980390548706,-1.3407129508307953,-2.5284741560565394,6.163480746537008,1.0207653045654297,-2.086248222981588
1708443400.4709284,-2.161984920501709,-1.340733842258789,-2.5284624735461634,6.163458454399862,1.020715594291687,-2.0862558523761194
1708443400.472922,-2.161942958831787,-1.340726376777031,-2.5284293333636683,6.163455474167623,1.0207401514053345,-2.086214844380514
1708443400.474949,-2.161942958831787,-1.340750516658165,-2.528438393269674,6.163455474167623,1.0207282304763794,-2.0862882773028772
1708443400.476938,-2.16191029548645,-1.3407382679036637,-2.5284457842456263,6.163455474167623,1.0207282304763794,-2.0862067381488245
1708443400.4789312,-2.1619668006896973,-1.3407292676023026,-2.528454605733053,6.163471805840292,1.0207326412200928,-2.0862558523761194
1708443400.480916,-2.161916971206665,-1.3407549870065232,-2.5284579435931605,6.163540708809652,1.0207653045654297,-2.0862439314471644
1708443400.4829288,-2.1619598865509033,-1.34078303099189,-2.528487507496969,6.163467395096578,1.0207401514053345,-2.0862558523761194
1708443400.4849155,-2.1619553565979004,-1.3407517236522217,-2.528458897267477,6.163425791054525,1.0207326412200928,-2.086226765309469
1708443400.4869375,-2.161921501159668,-1.3407505315593262,-2.5284865538226526,6.163471805840292,1.0207282304763794,-2.086263958607809
1708443400.488923,-2.161942958831787,-1.340708540087082,-2.52850848833193,6.16348825672225,1.0207401514053345,-2.0862234274493616
1708443400.4909213,-2.161930561065674,-1.3407011193088074,-2.528433863316671,6.163442122727194,1.0207608938217163,-2.0862439314471644
1708443400.492962,-2.161938428878784,-1.34072499096904,-2.528487507496969,6.163492667465963,1.0207816362380981,-2.0862439314471644
1708443400.4949565,-2.1619622707366943,-1.3407219064286728,-2.528433863316671,6.163471805840292,1.0207401514053345,-2.0862067381488245
1708443400.4969308,-2.161916971206665,-1.3407695305398484,-2.5284250418292444,6.163422691612997,1.0207401514053345,-2.0862725416766565
1708443400.4989634,-2.1619644165039062,-1.3406965297511597,-2.528433863316671,6.163471805840292,1.0207401514053345,-2.0862277189837855
1708443400.5009408,-2.161914587020874,-1.3407550019076844,-2.5284624735461634,6.163455474167623,1.0207895040512085,-2.0862320105182093
1708443400.5029562,-2.16196870803833,-1.340729297404625,-2.528466765080587,6.16340600231246,1.0207728147506714,-2.0861786047564905
1708443400.5049329,-2.161938428878784,-1.3407550168088456,-2.5284457842456263,6.163467395096578,1.020756483078003,-2.0861414114581507
1708443400.506978,-2.161942958831787,-1.340688781147339,-2.528487507496969,6.163434612541952,1.0207113027572632,-2.086187187825338
1708443400.508972,-2.1619350910186768,-1.340721921329834,-2.528487507496969,6.163455474167623,1.020756483078003,-2.086187187825338
1708443400.5109653,-2.16192364692688,-1.3407371205142518,-2.5284624735461634,6.16341387012557,1.0207475423812866,-2.086195770894186
1708443400.5129542,-2.16194748878479,-1.3407383126071473,-2.528475586568014,6.163443553238668,1.0207520723342896,-2.0862038771258753
1708443400.5149431,-2.1618943214416504,-1.3407416355660935,-2.528482977543966,6.1634405730064294,1.0207401514053345,-2.08622390428652
1708443400.5169446,-2.1619439125061035,-1.3407263618758698,-2.5284579435931605,6.163428413658895,1.0207520723342896,-2.086240593587057
1708443400.5189295,-2.1619393825531006,-1.340710000400879,-2.5284741560565394,6.163395631104269,1.020735740661621,-2.0862000624286097
1708443400.5209525,-2.1619393825531006,-1.3406769347241898,-2.5284457842456263,6.1633715508277795,1.0207401514053345,-2.0861709753619593
1708443400.522945,-2.16192364692688,-1.3406932812980195,-2.5284457842456263,6.163326608925619,1.020756483078003,-2.086187187825338
1708443400.5249345,-2.161881923675537,-1.3406843853047867,-2.528454605733053,6.163319217949667,1.0207728147506714,-2.0861266295062464
1708443400.526945,-2.1618499755859375,-1.3407382828048249,-2.5284491221057337,6.163307297020712,1.0207816362380981,-2.086118523274557
1708443400.5289469,-2.16186261177063,-1.3407293272069474,-2.5284996668445032,6.163333999901571,1.020735740661621,-2.086114231740133
1708443400.5309603,-2.1618542671203613,-1.3406932961991807,-2.5284953753100794,6.163209903031149,1.0207282304763794,-2.0860989729510706
1708443400.5329514,-2.1618170738220215,-1.3407562387040635,-2.52847129503359,6.163215863495626,1.0207520723342896,-2.0861108938800257
1708443400.5349514,-2.1618499755859375,-1.3407099407962342,-2.5284457842456263,6.1631860611732385,1.0207401514053345,-2.0861075560199183
1708443400.5369573,-2.1618635654449463,-1.3407353919795533,-2.528466765080587,6.163170921593466,1.0207895040512085,-2.086050812398092
1708443400.5389514,-2.1618146896362305,-1.3406408590129395,-2.528454605733053,6.1631377814109705,1.020763874053955,-2.086055103932516
1708443400.5409477,-2.16184663772583,-1.3406859201243897,-2.52845007578005,6.163095938950338,1.0208101272583008,-2.086050812398092
1708443400.5429456,-2.16184663772583,-1.3407263171723862,-2.528458897267477,6.1631048796470544,1.020715594291687,-2.085994068776266
1708443400.5449667,-2.1618192195892334,-1.3407190454057236,-2.528447214757101,6.163013803749838,1.0207475423812866,-2.0859907309161585
1708443400.5469496,-2.161832571029663,-1.3406784546426316,-2.528496328984396,6.1630074856574915,1.020768404006958,-2.085971180592672
1708443400.548937,-2.16182017326355,-1.3406531375697632,-2.5284624735461634,6.162908899575033,1.020768404006958,-2.0859554449664515
1708443400.550938,-2.1617956161499023,-1.3406471771052857,-2.5284786860095423,6.162943231850424,1.0207816362380981,-2.085891071950094
1708443400.5529394,-2.161799907684326,-1.3406263154796143,-2.5284908453570765,6.162920582085409,1.0207816362380981,-2.085883919392721
1708443400.5549803,-2.1617965698242188,-1.34064535916362,-2.52845007578005,6.162880170136251,1.020756483078003,-2.085822407399313
1708443400.5569265,-2.1617307662963867,-1.3406666380218049,-2.52845007578005,6.162851917534628,1.0207608938217163,-2.0857985655414026
1708443400.5589473,-2.1617238521575928,-1.340602235203125,-2.528504196797506,6.162786114006796,1.0207728147506714,-2.0857790152179163
1708443400.560951,-2.1616616249084473,-1.340597690348961,-2.528466765080587,6.16271852233962,1.0207728147506714,-2.0857465902911585
1708443400.562933,-2.1616833209991455,-1.3405976605466385,-2.528482977543966,6.162658679276266,1.0207194089889526,-2.085770908986227
1708443400.5649579,-2.161637783050537,-1.3406398010304947,-2.5284996668445032,6.16266022899703,1.0207194089889526,-2.085686508809225
1708443400.5669382,-2.1616604328155518,-1.3406038296273728,-2.528482977543966,6.1625791666801355,1.0207312107086182,-2.0856664816485804
1708443400.5689452,-2.1615991592407227,-1.340603770022728,-2.5284457842456263,6.162528383522787,1.0207608938217163,-2.085602108632223
1708443400.5709643,-2.1616287231445312,-1.3405962747386475,-2.5284250418292444,6.162430989533224,1.0207728147506714,-2.0856192747699183
1708443400.572954,-2.1615898609161377,-1.3405218583396454,-2.5284865538226526,6.162399399071493,1.0207326412200928,-2.0855420271502894
1708443400.5749505,-2.161510944366455,-1.3404841435006638,-2.528496328984396,6.162366497307577,1.0207372903823853,-2.0855191389666956
1708443400.5769634,-2.1614744663238525,-1.340509907608368,-2.528458897267477,6.162276613503256,1.0207489728927612,-2.0854666868792933
1708443400.578959,-2.1614811420440674,-1.3405378770879288,-2.5284741560565394,6.162167656212606,1.0207489728927612,-2.085393730794088
1708443400.5809584,-2.161442756652832,-1.340494768028595,-2.52847129503359,6.162071692734518,1.0207698345184326,-2.0853455702411097
1708443400.5829482,-2.161416530609131,-1.3404407364181061,-2.528504196797506,6.162021982460775,1.0207326412200928,-2.085285011922018
1708443400.5849462,-2.1613473892211914,-1.3404124987176438,-2.5284741560565394,6.16190384605483,1.020703911781311,-2.0852659384356897
1708443400.5869389,-2.161320209503174,-1.3404918175986786,-2.528442684804098,6.161815392761984,1.020703911781311,-2.0852134863482874
1708443400.5889494,-2.161320209503174,-1.3404168498567124,-2.52846342722048,6.161670195847311,1.0207335948944092,-2.085186783467428
1708443400.5909605,-2.161284923553467,-1.3403659921935578,-2.52845007578005,6.16164909580306,1.0207290649414062,-2.085097614918844
1708443400.592956,-2.161231756210327,-1.3403704923442383,-2.528482977543966,6.161500918656149,1.0206875801086426,-2.085050408040182
1708443400.5949585,-2.1611592769622803,-1.3403750222972413,-2.528442684804098,6.161351191788473,1.0206753015518188,-2.0849459807025355
1708443400.5969496,-2.161144256591797,-1.340391681795456,-2.528479878102438,6.161273228913107,1.0207202434539795,-2.0848730246173304
1708443400.5989785,-2.161054849624634,-1.3403794777444382,-2.5284011999713343,6.161177384644308,1.0206753015518188,-2.0848172346698206
1708443400.6009836,-2.161093235015869,-1.340379388337471,-2.52845007578005,6.161024677544393,1.020705223083496,-2.084757153187887
1708443400.6029503,-2.1610286235809326,-1.340360165839531,-2.5284457842456263,6.160876738816061,1.0206263065338135,-2.084717575703756
1708443400.6049924,-2.1610004901885986,-1.34028114498172,-2.528454605733053,6.160781967430868,1.0206679105758667,-2.0846245924579065
1708443400.6069665,-2.160919666290283,-1.3403359067491074,-2.528454605733053,6.160617458611288,1.020693063735962,-2.084553066884176
1708443400.6089585,-2.1609299182891846,-1.340300278072693,-2.52842623392214,6.160445081978597,1.0206856727600098,-2.0844858328448694
1708443400.6109447,-2.1608526706695557,-1.3402343851378937,-2.528389279042379,6.160377490311422,1.02059006690979,-2.084417168294088
1708443400.6129396,-2.1607882976531982,-1.3402434301427384,-2.528410021458761,6.160226332932272,1.0206197500228882,-2.0843375364886683
1708443400.6149495,-2.1607608795166016,-1.3402106326869507,-2.5284515062915247,6.160024273186483,1.020607829093933,-2.0842164198504847
1708443400.61693,-2.1607391834259033,-1.3401911717704316,-2.52840239206423,6.15990577915267,1.0206137895584106,-2.0841200987445276
1708443400.6189601,-2.160632610321045,-1.3401957315257569,-2.5283780733691614,6.159712779312887,1.0205836296081543,-2.0840118567096155
1708443400.6209774,-2.160581588745117,-1.3401314181140442,-2.5283995310412806,6.159587013512411,1.020564079284668,-2.0839527289019983
1708443400.6229641,-2.160520553588867,-1.3401522648385544,-2.52840239206423,6.1594146368797205,1.0204894542694092,-2.083832089100973
1708443400.6249654,-2.1604318618774414,-1.3400983077338715,-2.5284069220172327,6.159193265229025,1.0205354690551758,-2.0837324301349085
1708443400.6269422,-2.160400152206421,-1.3401239526322861,-2.5283950010882776,6.159074771195211,1.0205087661743164,-2.083632294331686
1708443400.6289268,-2.160304069519043,-1.3400641244700928,-2.5284233728991907,6.158887493401327,1.0204709768295288,-2.083535973225729
1708443400.630943,-2.1602087020874023,-1.3400972348502656,-2.5284157435046595,6.158728587418356,1.0204873085021973,-2.083395306264059
1708443400.6329558,-2.160158634185791,-1.3399955940297623,-2.5283334890948694,6.158544409066,1.0204755067825317,-2.0832751433001917
1708443400.6349454,-2.160081624984741,-1.3399955791286011,-2.5283246676074427,6.158327328949728,1.0204395055770874,-2.083196465169088
1708443400.6369457,-2.1600189208984375,-1.3400105845979233,-2.5283260981189173,6.158171760826864,1.0204439163208008,-2.0830348173724573
1708443400.638946,-2.159942865371704,-1.3399402064136048,-2.528346840535299,6.157961833267965,1.0204483270645142,-2.082926098500387
1708443400.640942,-2.1598353385925293,-1.3398624670556565,-2.5283260981189173,6.157765733986654,1.0204110145568848,-2.0827539602862757
1708443400.6429508,-2.1597139835357666,-1.339838684802391,-2.5283270517932337,6.157536494522848,1.0203704833984375,-2.0826261679278772
1708443400.644954,-2.1596503257751465,-1.339840130215027,-2.528346840535299,6.1573582766349695,1.0203465223312378,-2.0824645201312464
1708443400.6469336,-2.159604787826538,-1.339824990635254,-2.528318230305807,6.1570637104804895,1.0203430652618408,-2.0823991934405726
1708443400.6489453,-2.159503936767578,-1.3397758168033143,-2.5283570925342005,6.156884896546163,1.0203267335891724,-2.0822461287127894
1708443400.650937,-2.1594040393829346,-1.3398264807513733,-2.528310839329855,6.156615602761068,1.0203193426132202,-2.082052532826559
1708443400.6529384,-2.159306764602661,-1.3397412908128281,-2.5282941500293177,6.1564626572425745,1.0202833414077759,-2.081965748463766
1708443400.6549304,-2.159198760986328,-1.3396007430604477,-2.5283075014697474,6.15612422206954,1.020295262336731,-2.0818050543414515
1708443400.6569402,-2.1591124534606934,-1.3396233481219788,-2.5283153692828577,6.155905830651083,1.020275354385376,-2.081611935292379
1708443400.6589627,-2.1590490341186523,-1.3396202784827729,-2.5282986799823206,6.1556376097495935,1.0202797651290894,-2.0814970175372522
1708443400.66095,-2.158937692642212,-1.3396382492831727,-2.5282540957080286,6.155423271446981,1.0202351808547974,-2.08130389848818
1708443400.6629388,-2.1587929725646973,-1.3395653677037735,-2.5282374064074915,6.155200111656942,1.020230770111084,-2.081181351338522
1708443400.6649425,-2.1587541103363037,-1.339590237741806,-2.5282791296588343,6.154936301499166,1.0202229022979736,-2.0809925238238733
1708443400.6669312,-2.158613681793213,-1.3395381581834336,-2.528247658406393,6.154640185623922,1.0202363729476929,-2.0808118025409144
1708443400.668937,-2.1585261821746826,-1.3395021718791504,-2.5282629171954554,6.154355513840475,1.0201836824417114,-2.0806148687945765
1708443400.670949,-2.1584136486053467,-1.3394456666759034,-2.5282462278949183,6.154078471451559,1.0201584100723267,-2.0803988615619105
1708443400.6729467,-2.1582865715026855,-1.3393992346576233,-2.528222147618429,6.153870093613424,1.020167350769043,-2.0802343527423304
1708443400.6749473,-2.1582095623016357,-1.3394065362266083,-2.528247658406393,6.153564560204305,1.0201435089111328,-2.080005470906393
1708443400.6769447,-2.1580872535705566,-1.3393049997142334,-2.528177801762716,6.153314459114828,1.020135521888733,-2.0798657576190394
1708443400.6789649,-2.157984733581543,-1.339293048982956,-2.5282116572009485,6.152998435288229,1.020114779472351,-2.07963735262026
1708443400.6809225,-2.1578762531280518,-1.3392988008311768,-2.528156820927755,6.152722704201498,1.0200951099395752,-2.0794933477984827
1708443400.6829479,-2.157747745513916,-1.3392585527947922,-2.5281789938556116,6.152390229492941,1.0200461149215698,-2.0792487303363245
1708443400.68493,-2.1576333045959473,-1.3392511022141953,-2.5281501452075403,6.1520657418067834,1.0200505256652832,-2.0791218916522425
1708443400.68694,-2.1575279235839844,-1.3392076653293152,-2.5281832853900355,6.151827323227682,1.0200306177139282,-2.078869644795553
1708443400.6889336,-2.157374858856201,-1.3391552877477189,-2.5281055609332483,6.151544201164999,1.0200306177139282,-2.0786402861224573
1708443400.6909335,-2.157309055328369,-1.339127169256546,-2.52812630334963,6.151195156365194,1.0200111865997314,-2.0784242788897913
1708443400.6929462,-2.1571898460388184,-1.3390883070281525,-2.528114382420675,6.150831687241354,1.0199615955352783,-2.0782106558429163
1708443400.6949525,-2.1570491790771484,-1.3390182119658967,-2.528147284184591,6.150557267456808,1.0199871063232422,-2.077996079121725
1708443400.696933,-2.1569082736968994,-1.3389911216548462,-2.528098169957296,6.150307047158041,1.0199960470199585,-2.0778091589557093
1708443400.6989415,-2.156784772872925,-1.3389713776162644,-2.528086010609762,6.149871456414022,1.019963026046753,-2.077538792287008
1708443400.7009623,-2.1567258834838867,-1.338882104759552,-2.528123203908102,6.1496678469474695,1.0199148654937744,-2.077367130910055
1708443400.702978,-2.1565780639648438,-1.3389044565013428,-2.528127733861105,6.149303900986471,1.019861102104187,-2.0771310965167444
1708443400.704956,-2.1564083099365234,-1.3388207715800782,-2.528053108845846,6.148999798088827,1.0198863744735718,-2.07687217393984
1708443400.7069433,-2.1563379764556885,-1.3387803000262757,-2.5280454794513147,6.148676264076986,1.019866704940796,-2.0766566435443323
1708443400.708948,-2.1562469005584717,-1.3387651604465027,-2.5280619303332728,6.148384201317587,1.019883394241333,-2.0764616171466272
1708443400.7109447,-2.156156063079834,-1.3387502294829865,-2.5280423800097864,6.148024904518881,1.0198547840118408,-2.076207939778463
1708443400.7129595,-2.1560122966766357,-1.3387189668468018,-2.5281036535846155,6.147684800415792,1.019851803779602,-2.075984303151266
1708443400.7149203,-2.1558523178100586,-1.3386084598353882,-2.5280588308917444,6.147364485054769,1.0197739601135254,-2.0757902304278772
1708443400.7169428,-2.1557071208953857,-1.3385412257960816,-2.5280514399157923,6.1470045922096155,1.0197858810424805,-2.075475041066305
1708443400.7189722,-2.15562105178833,-1.3385170710137864,-2.528051201497213,6.146675455361166,1.0197827816009521,-2.07526666322817
1708443400.7209368,-2.15547251701355,-1.3384738725474854,-2.5279975573169153,6.146326410561361,1.0197495222091675,-2.0750139395343226
1708443400.722935,-2.155423402786255,-1.3384214651635666,-2.528060261403219,6.145990955620565,1.0196772813796997,-2.0747950712787073
1708443400.7249503,-2.155273675918579,-1.3383901578238984,-2.528006378804342,6.145659911423483,1.019694209098816,-2.074554745350973
1708443400.726938,-2.1551501750946045,-1.3383708608201523,-2.5279868284808558,6.145385610848226,1.0196653604507446,-2.0742977301227015
1708443400.7289267,-2.154989242553711,-1.3383467358401795,-2.5280242601977747,6.145024525910177,1.0196623802185059,-2.074029270802633
1708443400.730929,-2.1548779010772705,-1.338266299372055,-2.527973477040426,6.144705879479208,1.0196130275726318,-2.073817555104391
1708443400.7329435,-2.1547350883483887,-1.338209406738617,-2.5280163923846644,6.144361364632406,1.019659399986267,-2.073550049458639
1708443400.7349253,-2.1546359062194824,-1.3381495785764237,-2.527949635182516,6.144037592201986,1.019659399986267,-2.0732553640948694
1708443400.7369306,-2.1544370651245117,-1.3381015372327347,-2.5279791990863245,6.143756019860067,1.0196142196655273,-2.073049847279684
1708443400.7389724,-2.1543233394622803,-1.338089646106102,-2.5279133955584925,6.143381941109457,1.0195811986923218,-2.072791878377096
1708443400.7409186,-2.15427303314209,-1.3380256456187745,-2.527931276951925,6.143095481186666,1.0195692777633667,-2.0725439230548304
1708443400.7429266,-2.154075860977173,-1.3380103570273896,-2.5279555956469935,6.142734873085775,1.0195330381393433,-2.072367016469137
1708443400.7449262,-2.1539862155914307,-1.3379556399634858,-2.5279224554644983,6.142429101258077,1.019566297531128,-2.072096649800436
1708443400.746922,-2.153853416442871,-1.3378743392280121,-2.5279341379748743,6.142134177475729,1.0194958448410034,-2.0718396345721644
1708443400.74893,-2.153721809387207,-1.33781552434478,-2.527923647557394,6.141798364907064,1.019513726234436,-2.0715587774859827
1708443400.750923,-2.1536219120025635,-1.3378198158792038,-2.527907435094015,6.141516792565145,1.0195015668869019,-2.0713322798358362
1708443400.7529843,-2.153515338897705,-1.337792233829834,-2.527890984212057,6.141273844033041,1.0195270776748657,-2.0710561911212366
1708443400.7549474,-2.153381824493408,-1.3377361309579392,-2.527858082448141,6.140822279244222,1.019474744796753,-2.070792023335592
1708443400.75694,-2.153291702270508,-1.3376524460366745,-2.5279043356524866,6.14053903797225,1.019416093826294,-2.0706008116351526
1708443400.7589562,-2.1531591415405273,-1.3377051961473008,-2.5278595129596155,6.140203344612875,1.0194710493087769,-2.0703442732440394
1708443400.760938,-2.1530027389526367,-1.337596820001938,-2.5278669039355677,6.139855968743124,1.0193802118301392,-2.070059124623434
1708443400.7629416,-2.152850866317749,-1.3375492256930848,-2.5279086271869105,6.139523851662435,1.0194098949432373,-2.069770161305563
1708443400.7649262,-2.152784824371338,-1.3375012141517182,-2.5278802553759974,6.139216649323263,1.019336462020874,-2.0695841948138636
1708443400.7669377,-2.152648448944092,-1.337404118185379,-2.5278144518481653,6.138885366707601,1.0193201303482056,-2.0692699591266077
1708443400.7689345,-2.152523994445801,-1.3374010783484955,-2.5278266111956995,6.138635027199545,1.0193454027175903,-2.0690868536578577
1708443400.7709258,-2.1524105072021484,-1.3372802150300522,-2.527823273335592,6.138331401139059,1.0193123817443848,-2.0688064734088343
1708443400.7729428,-2.152277708053589,-1.337289274936058,-2.5278189818011683,6.138049590378561,1.0193424224853516,-2.068587128316061
1708443400.7749376,-2.1521201133728027,-1.337278203373291,-2.5277786890613,6.137661802559652,1.0192927122116089,-2.0683205763446253
1708443400.77694,-2.152090311050415,-1.337181107406952,-2.527787510548727,6.137377011566915,1.0193135738372803,-2.068065945302145
1708443400.7789552,-2.151925802230835,-1.3371535253575821,-2.527782980595724,6.137130248337545,1.0193016529083252,-2.067788902913229
1708443400.780941,-2.151825189590454,-1.3370939952186127,-2.527766291295187,6.136823045998373,1.0193060636520386,-2.067557160054342
1708443400.782933,-2.1517229080200195,-1.337062032227852,-2.52775746980776,6.136498081475057,1.019244909286499,-2.067291561757223
1708443400.7849247,-2.1516287326812744,-1.3369899851134797,-2.5277589003192347,6.136182057648458,1.0191789865493774,-2.0669735113727015
1708443400.7869222,-2.1514790058135986,-1.3370556396296998,-2.5277841726886194,6.135882961540975,1.019244909286499,-2.0667627493487757
1708443400.7889247,-2.151416540145874,-1.336963103418686,-2.5277350584613245,6.135624754219808,1.0192174911499023,-2.0664942900287073
1708443400.7909722,-2.1512670516967773,-1.3368745011142273,-2.5277143160449427,6.135418164521017,1.0192174911499023,-2.066286865864889
1708443400.7929277,-2.151155471801758,-1.336878703241684,-2.5277589003192347,6.135093199997701,1.0192099809646606,-2.0659731070147913
1708443400.7949274,-2.151069402694702,-1.336843417291977,-2.5277469793902796,6.13481758812026,1.0191603899002075,-2.065695587788717
1708443400.7969184,-2.150960683822632,-1.3367988479188462,-2.5277143160449427,6.1345794079597376,1.0191484689712524,-2.0655301252948206
1708443400.7989247,-2.1508538722991943,-1.3368318688920517,-2.527724091206686,6.1343082068260095,1.0191243886947632,-2.06523305574526
1708443400.8009639,-2.150757312774658,-1.3367800575545807,-2.527715269719259,6.134019243508138,1.019112467765808,-2.0649598280536097
1708443400.8029299,-2.150615692138672,-1.3367321354201813,-2.52771503130068,6.133771884232321,1.0191287994384766,-2.0647900740252894
1708443400.8049462,-2.1505701541900635,-1.3366924089244385,-2.527682367955343,6.133507716446676,1.019112467765808,-2.0645378271686
1708443400.8069556,-2.150442123413086,-1.3366272461465378,-2.527707640324728,6.133264648705282,1.019097089767456,-2.0642550627337855
1708443400.8089445,-2.150358200073242,-1.3366246086410065,-2.527674976979391,6.132890450745382,1.0191094875335693,-2.064019505177633
1708443400.8109634,-2.150296688079834,-1.3366049838117142,-2.5276780764209192,6.1327504990394495,1.0191468000411987,-2.063798729573385
1708443400.812947,-2.1501901149749756,-1.3365650934031983,-2.527703348790304,6.13238404968337,1.0190644264221191,-2.0635226408587855
1708443400.8149729,-2.150029420852661,-1.3365163815072556,-2.527674976979391,6.132186281472006,1.0190284252166748,-2.0633061567889612
1708443400.8169417,-2.14996337890625,-1.3364974570325394,-2.527674976979391,6.13195418098525,1.0190491676330566,-2.063108269368307
1708443400.818937,-2.149888515472412,-1.336432622080185,-2.527597252522604,6.131751763611593,1.0190294981002808,-2.0627811590777796
1708443400.8209698,-2.1498169898986816,-1.3363966208747406,-2.5276182333575647,6.131510722428121,1.0190162658691406,-2.0625856558429163
1708443400.8229434,-2.1496946811676025,-1.336369351749756,-2.5276227633105677,6.131333696633138,1.0190205574035645,-2.062338177357809
1708443400.8249667,-2.149596929550171,-1.336341307764389,-2.5276556650744837,6.131092655449667,1.0190010070800781,-2.0620930830584925
1708443400.8269281,-2.149569511413574,-1.3363420826247712,-2.5275822321521204,6.130823480873861,1.0190098285675049,-2.0618699232684534
1708443400.8289413,-2.14945387840271,-1.3362814647010346,-2.5276358763324183,6.130673634796896,1.0189727544784546,-2.061624828969137
1708443400.830949,-2.1493475437164307,-1.3362457019141694,-2.5276029745685022,6.130415785103597,1.0189528465270996,-2.061479393635885
1708443400.832947,-2.149315357208252,-1.3361850094846268,-2.5276358763324183,6.130167472153463,1.0189608335494995,-2.061258618031637
1708443400.8349555,-2.1492199897766113,-1.3362054836801072,-2.5275657812701624,6.129980313568868,1.0189034938812256,-2.0610206762896937
1708443400.836938,-2.1491012573242188,-1.3361736995032807,-2.5275748411761683,6.129797208100118,1.0188989639282227,-2.060763184224264
1708443400.8389416,-2.14900803565979,-1.3361500960639496,-2.5275493303882044,6.1296435473258875,1.018957257270813,-2.0606053511248987
1708443400.8409383,-2.1489410400390625,-1.3361224991134186,-2.527558151875631,6.1294264672096155,1.018925666809082,-2.0603812376605433
1708443400.8429582,-2.148874521255493,-1.3360738021186371,-2.527566973363058,6.129212009697714,1.0188885927200317,-2.060091797505514
1708443400.844951,-2.1488118171691895,-1.3360296946815033,-2.527587954198019,6.129020321160116,1.0188930034637451,-2.0599172751056116
1708443400.8469648,-2.1487345695495605,-1.336078794007637,-2.527583662663595,6.1288524744804285,1.0189063549041748,-2.0596864859210413
1708443400.8489544,-2.1486213207244873,-1.3359824878028412,-2.527599875126974,6.128674018173971,1.01888108253479,-2.059549633656637
1708443400.850961,-2.1485986709594727,-1.3359456968358536,-2.527583662663595,6.128449547081747,1.0188944339752197,-2.059307877217428
1708443400.852953,-2.148514747619629,-1.3359583181193848,-2.527562681828634,6.12830268123702,1.0188900232315063,-2.05908710161318
1708443400.8549747,-2.1484432220458984,-1.3359667372754593,-2.527550284062521,6.128134834557333,1.0188448429107666,-2.0589516798602503
1708443400.856948,-2.148383140563965,-1.3358980876258393,-2.527522150670187,6.128011691361227,1.0187833309173584,-2.0587285200702112
1708443400.8589573,-2.1482832431793213,-1.335862712269165,-2.527571503316061,6.1278220293815515,1.0188044309616089,-2.058556858693258
1708443400.8609614,-2.1482932567596436,-1.3358307790807267,-2.5275264422046106,6.127634632378378,1.018796682357788,-2.0583179632769983
1708443400.8629363,-2.1482138633728027,-1.3358518940261384,-2.5275190512286585,6.127401339798727,1.018796682357788,-2.0581424872027796
1708443400.8649724,-2.148104190826416,-1.3358434003642579,-2.5275474230395716,6.127303945809164,1.018789291381836,-2.0579426924334925
1708443400.8669343,-2.1480607986450195,-1.3357946884683152,-2.5275026003467005,6.127107488899984,1.0187759399414062,-2.057804886494772
1708443400.8689263,-2.148031234741211,-1.3357222241214295,-2.5274937788592737,6.1269202111061,1.0188100337982178,-2.0575674215899866
1708443400.8709471,-2.147958517074585,-1.335779832010605,-2.5275397936450403,6.126780855446615,1.018768072128296,-2.0573728720294397
1708443400.872926,-2.1478700637817383,-1.335718796854355,-2.5274863878833216,6.126641380577841,1.0187726020812988,-2.0572178999530237
1708443400.8749511,-2.147796630859375,-1.3357237142375489,-2.527478281651632,6.126469242363729,1.0187487602233887,-2.057012383137838
1708443400.8769498,-2.1477932929992676,-1.3357195121100922,-2.5274863878833216,6.126267540245809,1.0187366008758545,-2.0568483511554163
1708443400.8789775,-2.1477749347686768,-1.3356390011361619,-2.527487103139059,6.126165139466085,1.0187366008758545,-2.0566518942462366
1708443400.8809347,-2.147641181945801,-1.3356919151595612,-2.527504030858175,6.1260414002235315,1.0187288522720337,-2.056488339100973
1708443400.8829618,-2.1476430892944336,-1.335651160483696,-2.5274797121631067,6.125941502838888,1.018670678138733,-2.056328598652975
1708443400.8849301,-2.1475636959075928,-1.3356400293162842,-2.52747089067568,6.12578438499526,1.018705129623413,-2.056193176900045
1708443400.8869405,-2.14750599861145,-1.335615487103798,-2.52747089067568,6.1256974814231775,1.0187464952468872,-2.0560014883624476
1708443400.8889549,-2.1474673748016357,-1.3355955195477982,-2.52744704881777,6.125565635948934,1.0186928510665894,-2.055906597767965
1708443400.8909454,-2.147449016571045,-1.3355963093093415,-2.52747089067568,6.125379907875814,1.0186434984207153,-2.055699173604147
1708443400.8929455,-2.147400379180908,-1.335616649394371,-2.527421776448385,6.12533055522994,1.0186972618103027,-2.0555313269244593
1708443400.8949406,-2.147317886352539,-1.3355561059764405,-2.5274232069598597,6.125252592354574,1.0186645984649658,-2.0554335753070276
1708443400.89693,-2.1472597122192383,-1.3355561059764405,-2.5274394194232386,6.125119197159567,1.0186479091644287,-2.055244270955221
1708443400.898941,-2.147218942642212,-1.3354830902865906,-2.5274022261248987,6.124966490059652,1.0186569690704346,-2.0550835768329065
1708443400.9009376,-2.1471962928771973,-1.3354718697122117,-2.527430597935812,6.124859082489767,1.0186164379119873,-2.054991070424215
1708443400.902931,-2.147139549255371,-1.3354999285987397,-2.5274439493762415,6.124780761986532,1.0186371803283691,-2.0547879377948206
1708443400.9049351,-2.147120237350464,-1.33548458040271,-2.5274484793292444,6.1246670363243005,1.018623948097229,-2.054641071950094
1708443400.9069488,-2.1470227241516113,-1.3354761612466355,-2.5274110476123255,6.124589073448934,1.0186164379119873,-2.0544632116900843
1708443400.9089444,-2.1470577716827393,-1.3355211329511185,-2.5274351278888147,6.124467956810751,1.0185879468917847,-2.0543273130999964
1708443400.9109452,-2.14697527885437,-1.3354605001262208,-2.5273824373828333,6.124352443009176,1.0185624361038208,-2.0541680494891565
1708443400.9129407,-2.146955728530884,-1.3354930740645905,-2.5273991266833704,6.124252187996664,1.0185846090316772,-2.0540812651263636
1708443400.914944,-2.1469366550445557,-1.3354485791972657,-2.5273738543139856,6.12414442279891,1.0185967683792114,-2.0539396444903772
1708443400.9169323,-2.14687180519104,-1.3354892593673249,-2.5274153391467493,6.124018418579855,1.0185726881027222,-2.053781811391012
1708443400.9189496,-2.1468923091888428,-1.3354408603957673,-2.527379576359884,6.12399588802413,1.0185145139694214,-2.0536139647113245
1708443400.9209468,-2.146787166595459,-1.3354086142829438,-2.5273497740374964,6.123859631806173,1.0185593366622925,-2.0535524527179163
1708443400.922943,-2.146806001663208,-1.3353966933539887,-2.5274198690997522,6.1238146899040125,1.018577218055725,-2.05334979692568
1708443400.924936,-2.14674711227417,-1.335417018537857,-2.5273707548724573,6.1237515089805505,1.0185189247131348,-2.0532763640033167
1708443400.9269457,-2.146733283996582,-1.335376353268959,-2.527325693761007,6.123629200249471,1.0184694528579712,-2.0531018416034144
1708443400.9289486,-2.1466755867004395,-1.3353725236705323,-2.5273543039904993,6.12352882602767,1.018548607826233,-2.0529983679400843
1708443400.9309227,-2.146698236465454,-1.3353852343610306,-2.527342144642965,6.123474705010214,1.018514633178711,-2.052878204976217
1708443400.9329321,-2.146636962890625,-1.335336060529091,-2.5273333231555384,6.12335358837203,1.0185203552246094,-2.0527966658221644
1708443400.9349647,-2.1466221809387207,-1.3353521835855027,-2.527337614689962,6.123277056008138,1.018484115600586,-2.0526135603534144
1708443400.9369226,-2.1465611457824707,-1.335352973347046,-2.527395788823263,6.123199093132772,1.0184885263442993,-2.052493397389547
1708443400.9389539,-2.1465656757354736,-1.3353368502906342,-2.527371946965353,6.123102056771078,1.0184468030929565,-2.052398983632223
1708443400.9409406,-2.1465721130371094,-1.3353003722480317,-2.527337614689962,6.12313328960494,1.0185048580169678,-2.052286450062887
1708443400.9429467,-2.1464929580688477,-1.3353655946305771,-2.52733022371401,6.122986542969503,1.0184721946716309,-2.052203957234518
1708443400.9449542,-2.1465189456939697,-1.3353172105601807,-2.527346436177389,6.122959482460775,1.018497347831726,-2.052020851765768
1708443400.9469461,-2.1464879512786865,-1.33538173258815,-2.5273435751544397,6.1229145405586145,1.0184224843978882,-2.052028004323141
1708443400.9489467,-2.146413564682007,-1.335268498664238,-2.5273435751544397,6.122847306519308,1.0184974670410156,-2.0518797079669397
1708443400.9509504,-2.14640212059021,-1.335228295331337,-2.5273268858539026,6.1228335974510095,1.018457055091858,-2.0517385641681116
1708443400.9529378,-2.14634370803833,-1.335284636621811,-2.5273268858539026,6.122629987984457,1.0184314250946045,-2.0515926519977015
1708443400.954924,-2.1463329792022705,-1.3352197867682953,-2.5273597876178187,6.122585046082296,1.0184329748153687,-2.051558319722311
1708443400.9569352,-2.1463544368743896,-1.3352939200452347,-2.5273223559008997,6.1226162789161584,1.018419623374939,-2.0514143149005335
1708443400.9589403,-2.1463112831115723,-1.3352129471353074,-2.5273268858539026,6.1225072024162195,1.0184240341186523,-2.0513132254229944
1708443400.9609427,-2.146324872970581,-1.3352742058089753,-2.5272942225085657,6.122495281487264,1.0184403657913208,-2.051225010548727
1708443400.9629474,-2.14627742767334,-1.3352086556008835,-2.5272911230670374,6.122469532280721,1.0184073448181152,-2.0510667006122034
1708443400.964931,-2.1462457180023193,-1.3351975244334717,-2.5273030439959925,6.12235318401412,1.0184240341186523,-2.0509756247149866
1708443400.9669416,-2.146268129348755,-1.3351891052773972,-2.5272777716266077,6.122313964157858,1.0184118747711182,-2.0508840719806116
1708443400.968966,-2.1461822986602783,-1.335193232899048,-2.5272658506976526,6.122245180397787,1.0183792114257812,-2.0508044401751917
1708443400.9709437,-2.146158218383789,-1.3352297854474564,-2.5272868315326136,6.1221972582633875,1.0184131860733032,-2.050678078328268
1708443400.9729528,-2.146084785461426,-1.3351856035045166,-2.5272372404681605,6.12209569194869,1.0183175802230835,-2.0506003538714808
1708443400.9749436,-2.146110773086548,-1.3351856035045166,-2.5272823015796106,6.1220881817634485,1.0183672904968262,-2.050544563923971
1708443400.9769387,-2.146131992340088,-1.3351617616466065,-2.5272746721850794,6.122044789582052,1.0183850526809692,-2.0504773298846644
1708443400.9789488,-2.1460912227630615,-1.3351617616466065,-2.5272672812091272,6.122038709908285,1.0183384418487549,-2.0503934065448206
1708443400.9809444,-2.1460256576538086,-1.3351702404073258,-2.5272372404681605,6.121958124428549,1.0183472633361816,-2.0502923170672815
1708443400.9829752,-2.146026611328125,-1.3351660531810303,-2.527242962514059,6.121909010201254,1.018405795097351,-2.050211254750387
1708443400.9849365,-2.146043539047241,-1.3351660531810303,-2.5272629896747034,6.12184904792861,1.0183398723602295,-2.050065819417135
1708443400.9869587,-2.1460232734680176,-1.3351173412850876,-2.5272672812091272,6.121768343239584,1.0183143615722656,-2.050023857747213
1708443400.9889433,-2.145987033843994,-1.3351215583137055,-2.52727181116213,6.121792185097494,1.0183517932891846,-2.0499919096576136
1708443400.9909298,-2.1460232734680176,-1.335085080271103,-2.527254883443014,6.121739852219381,1.0183488130569458,-2.049912754689352
1708443400.9929318,-2.145991325378418,-1.3350934994271775,-2.5272133986102503,6.121645676880636,1.0183488130569458,-2.049783531819479
1708443400.9949558,-2.145991325378418,-1.3350774061730881,-2.527242962514059,6.121659147530355,1.0183277130126953,-2.04974872270693
1708443400.9969318,-2.1460094451904297,-1.3351264607957383,-2.527222220097677,6.121542560845175,1.018324613571167,-2.0496767202960413
1708443400.99895,-2.145947217941284,-1.3350773763707657,-2.527242962514059,6.121556031494894,1.0182795524597168,-2.0495885054217737
1708443401.0009453,-2.1459710597991943,-1.335113839512207,-2.527206007634298,6.121512639313497,1.01829195022583,-2.0495083967791956
1708443401.0029671,-2.1459641456604004,-1.3351060909083863,-2.527181927357809,6.121464955597677,1.018266201019287,-2.049403492604391
1708443401.0049498,-2.145939350128174,-1.3350659173778077,-2.5272353331195276,6.12142442443923,1.018296480178833,-2.0492895285235804
1708443401.0069723,-2.1459076404571533,-1.335106910472252,-2.527186457310812,6.121375071793356,1.0182839632034302,-2.0492709318744105
1708443401.0089562,-2.1458895206451416,-1.3350738745978852,-2.5272191206561487,6.121324407845297,1.018222689628601,-2.049237076436178
1708443401.0109637,-2.1458826065063477,-1.335033656363823,-2.527222220097677,6.121288406639852,1.0182512998580933,-2.049110714589254
1708443401.0129979,-2.1458590030670166,-1.3350462776473542,-2.527198378239767,6.121252763062277,1.0182483196258545,-2.0490806738482874
1708443401.0149353,-2.1458632946014404,-1.33498169601474,-2.5272725264178675,6.12118827083663,1.018210768699646,-2.049020592366354
1708443401.016944,-2.1458351612091064,-1.3350137037089844,-2.5272236506091517,6.121234404831686,1.0182393789291382,-2.0489018599139612
1708443401.0189338,-2.145850896835327,-1.335038648252823,-2.5272279421435755,6.121119487076559,1.0182316303253174,-2.0488627592669886
1708443401.0209277,-2.14581561088562,-1.3350709092668076,-2.5272236506091517,6.121073114662924,1.01817786693573,-2.048824135457174
1708443401.0229428,-2.145820140838623,-1.3349373501590271,-2.5271909872638147,6.121068584709921,1.0182197093963623,-2.0487516562091272
1708443401.0249326,-2.145787239074707,-1.3350018721869965,-2.527186457310812,6.121008980065145,1.0182197093963623,-2.0486462751971644
1708443401.0269415,-2.145796298980713,-1.334990994339325,-2.5271876494037073,6.121013510018148,1.0182030200958252,-2.048657242451803
1708443401.0289311,-2.1457486152648926,-1.334965632562973,-2.5272160212146204,6.120870101242819,1.0181987285614014,-2.0485103766070765
1708443401.030952,-2.145735263824463,-1.3350229126266022,-2.5271909872638147,6.120901214867391,1.018233060836792,-2.0484593550311487
1708443401.0329382,-2.145728349685669,-1.3349782687476655,-2.5272117296801966,6.120865571289816,1.018195629119873,-2.048452679310934
1708443401.0349295,-2.1457417011260986,-1.3350112301162262,-2.527175251637594,6.120848881989279,1.018195629119873,-2.0483267943011683
1708443401.0369494,-2.1456964015960693,-1.3349295568517228,-2.5272086302386683,6.1207817671592615,1.0181822776794434,-2.048283402119772
1708443401.0389276,-2.1457371711730957,-1.3349668097547074,-2.5271337668048304,6.120790707855978,1.018174648284912,-2.0482261816607874
1708443401.0409532,-2.145688533782959,-1.3349176359227677,-2.5271664301501673,6.120730626374044,1.018196702003479,-2.048166100178854
1708443401.0429347,-2.145688533782959,-1.3349261295846482,-2.5272041002856653,6.120709764748373,1.0181715488433838,-2.0480907599078577
1708443401.0449371,-2.145653247833252,-1.3349710267833252,-2.527175251637594,6.120666610985555,1.0181759595870972,-2.0480216185199183
1708443401.0469382,-2.145660161972046,-1.3349062663367768,-2.5271413961993616,6.120643961220541,1.0181385278701782,-2.0479515234576624
1708443401.0489414,-2.145632028579712,-1.334918127661087,-2.527175251637594,6.120587336808004,1.0181641578674316,-2.047915760670797
1708443401.0509608,-2.145598888397217,-1.334874005322792,-2.527163569127218,6.120555746346273,1.0181342363357544,-2.0478270689593714
1708443401.0529373,-2.1456456184387207,-1.334930346613266,-2.5271382967578333,6.120557296067037,1.0181429386138916,-2.047783676777975
1708443401.0549579,-2.1456170082092285,-1.3349062663367768,-2.527151409779684,6.120446789055624,1.0181429386138916,-2.0477312246905726
1708443401.0569382,-2.145601272583008,-1.3348824095777054,-2.527109686528341,6.120476829796591,1.0181893110275269,-2.047687355672018
1708443401.058972,-2.145548105239868,-1.334850163464882,-2.5271602312671106,6.120424496918478,1.0181803703308105,-2.0475781599627894
1708443401.0609753,-2.145552396774292,-1.334918887620308,-2.527151648198263,6.120395886688986,1.0181729793548584,-2.0475390593158167
1708443401.0629373,-2.145573854446411,-1.3348866266063233,-2.5271273295031946,6.12030183055953,1.018144130706787,-2.0474866072284144
1708443401.0649462,-2.1455445289611816,-1.3349556785872956,-2.527076784764425,6.120270478516378,1.0181114673614502,-2.0474422613727015
1708443401.0669305,-2.145528554916382,-1.334850863819458,-2.527090136204855,6.120255338936605,1.0181145668029785,-2.047427479420797
1708443401.0689332,-2.1455206871032715,-1.3348747056773682,-2.527102295552389,6.120203125267782,1.0181608200073242,-2.0473759810077112
1708443401.0709562,-2.1455037593841553,-1.3348992478898545,-2.5271111170398157,6.120196926384725,1.0181397199630737,-2.047274891530172
1708443401.0729473,-2.1454899311065674,-1.3348428469947358,-2.527155939732687,6.120180594712057,1.018099308013916,-2.0472353140460413
1708443401.0750606,-2.145521640777588,-1.3348789078048249,-2.5271604696856897,6.120149242668905,1.0181323289871216,-2.047178570424215
1708443401.0769503,-2.1454808712005615,-1.3347937327674408,-2.5270944277392786,6.120119559555807,1.0181037187576294,-2.047138039265768
1708443401.078949,-2.145449161529541,-1.3348225814155121,-2.527085606251852,6.120073067932882,1.0180917978286743,-2.047062698994772
1708443401.08097,-2.1454696655273438,-1.3348585826209565,-2.527085606251852,6.119990932732382,1.0181114673614502,-2.047030750905172
1708443401.082932,-2.14546537399292,-1.334842936401703,-2.5271318594561976,6.120038854866781,1.0180829763412476,-2.0469215551959437
1708443401.0849583,-2.145449161529541,-1.3348190647414704,-2.5271273295031946,6.119980561524191,1.0180455446243286,-2.046905819569723
1708443401.0869355,-2.1454412937164307,-1.334830955868103,-2.5270944277392786,6.11994897106246,1.0181158781051636,-2.0468576590167444
1708443401.0889363,-2.1453731060028076,-1.3348309856704255,-2.5271156469928187,6.119954812317648,1.0180710554122925,-2.0467899481402796
1708443401.0909941,-2.1453731060028076,-1.3348352026990433,-2.527069393788473,6.119904267578878,1.0180754661560059,-2.0466936270343226
1708443401.0929332,-2.1453866958618164,-1.3348267835429688,-2.5271077791797083,6.119860756188192,1.0180754661560059,-2.04667312303652
1708443401.094961,-2.1453821659088135,-1.334798739557602,-2.527098004017965,6.119801270752706,1.0181037187576294,-2.0466464201556605
1708443401.0969381,-2.1453492641448975,-1.3348072332194825,-2.527052942906515,6.119817244797506,1.0180917978286743,-2.0465291182147425
1708443401.0989423,-2.14530611038208,-1.3348275136998673,-2.5270915667163294,6.119748699456014,1.0180754661560059,-2.0465176741229456
1708443401.100984,-2.145354747772217,-1.3347749722054978,-2.5270379225360315,6.119738089829244,1.0180633068084717,-2.046482865010397
1708443401.1029963,-2.1452982425689697,-1.3347595644048234,-2.5270617643939417,6.119717228203573,1.0180555582046509,-2.0463693777667444
1708443401.1049762,-2.14528489112854,-1.3347629618695755,-2.527045551930563,6.119677054672994,1.0180511474609375,-2.046276871358053
1708443401.106936,-2.1452860832214355,-1.3347345900586625,-2.5271156469928187,6.119678485184469,1.0180587768554688,-2.04624587694277
1708443401.1089258,-2.1452362537384033,-1.3347595495036622,-2.5270543734179896,6.119691955834188,1.0180467367172241,-2.04615289369692
1708443401.1109626,-2.1452620029449463,-1.3347713959268113,-2.5271199385272425,6.119634973793783,1.0180304050445557,-2.0461137930499476
1708443401.112943,-2.1452362537384033,-1.334811733370163,-2.5270500818835657,6.119578468590536,1.0180184841156006,-2.0459960142718714
1708443401.1149716,-2.145200729370117,-1.3347430986217041,-2.5270989576922815,6.119554269104757,1.0180599689483643,-2.045953098927633
1708443401.1169326,-2.14520525932312,-1.3347269755652924,-2.527112070714132,6.119514214783468,1.0180153846740723,-2.0458605925189417
1708443401.118929,-2.14518404006958,-1.3347468388131638,-2.5270944277392786,6.119507777481832,1.0180599689483643,-2.04574424425234
1708443401.1209548,-2.145192861557007,-1.3347065460732956,-2.5270870367633265,6.119425880699911,1.017970323562622,-2.045701328908102
1708443401.122928,-2.14512038230896,-1.33472694576297,-2.5270589033709925,6.119422662049093,1.0180273056030273,-2.0455597082721155
1708443401.1249695,-2.1451408863067627,-1.3347353798202057,-2.5270543734179896,6.1193333742912195,1.0180273056030273,-2.0455482641803187
1708443401.1269505,-2.1451408863067627,-1.3347024035504838,-2.527112070714132,6.119313823967733,1.0180153846740723,-2.045424286519186
1708443401.1289296,-2.145169973373413,-1.3347388219884415,-2.5270827452289026,6.1192898629005334,1.0180362462997437,-2.0453198591815394
1708443401.1309378,-2.145097494125366,-1.3347515177777787,-2.5270915667163294,6.119295823365011,1.017986536026001,-2.0452397505389612
1708443401.1329226,-2.1450929641723633,-1.3346783232739945,-2.5271077791797083,6.119283664017477,1.018022894859314,-2.045152012501852
1708443401.1349413,-2.145076036453247,-1.334727795129158,-2.5271199385272425,6.119273173599996,1.018034815788269,-2.0450437704669397
1708443401.1369207,-2.145139455795288,-1.334719256763794,-2.5270379225360315,6.119219648628988,1.0179986953735352,-2.0449636618243616
1708443401.1389203,-2.1450657844543457,-1.334719256763794,-2.5270870367633265,6.11913417556838,1.0179986953735352,-2.0448439756976526
1708443401.140925,-2.14505672454834,-1.334707112317421,-2.5270705858813685,6.119127023011007,1.0179944038391113,-2.0446789900409144
1708443401.1429276,-2.1450204849243164,-1.334731177692749,-2.5270989576922815,6.119140374451437,1.0179898738861084,-2.044575039540426
1708443401.1449134,-2.145033121109009,-1.3347065460732956,-2.5270631949054163,6.119064199715414,1.0179986953735352,-2.044454876576559
1708443401.1469517,-2.1450161933898926,-1.3346824657968064,-2.5270827452289026,6.119059669762411,1.0179986953735352,-2.0442703405963343
1708443401.1489358,-2.1450250148773193,-1.3347396564534684,-2.5270662943469446,6.119024026184835,1.018007755279541,-2.044150177632467
1708443401.1509306,-2.144989490509033,-1.334683210854866,-2.527045551930563,6.1189894554908655,1.018003225326538,-2.044046703969137
1708443401.152941,-2.145007610321045,-1.334690974359848,-2.5270424524890345,6.118935453682699,1.0179942846298218,-2.0438621679889124
1708443401.1549375,-2.144974946975708,-1.3346590262702485,-2.5270379225360315,6.118904220848837,1.0180199146270752,-2.0437138716327112
1708443401.1569564,-2.1449456214904785,-1.3346674305251618,-2.527083937321798,6.1188968298728845,1.018028736114502,-2.0435379187213343
1708443401.1589584,-2.1449296474456787,-1.3346800071052094,-2.527079407368795,6.118905651360311,1.0180243253707886,-2.043370072041647
1708443401.1609383,-2.1449012756347656,-1.3346631985953827,-2.5270662943469446,6.1187994358833215,1.017953634262085,-2.043161217366354
1708443401.1629376,-2.1449522972106934,-1.3346510094455262,-2.5271077791797083,6.118775713234701,1.0180153846740723,-2.042948547993795
1708443401.1649408,-2.144897937774658,-1.3346715432456513,-2.527079407368795,6.118785965233602,1.0180121660232544,-2.0427282492267054
1708443401.1669724,-2.144850254058838,-1.334650994544365,-2.527079407368795,6.118754493981161,1.0179821252822876,-2.0425356070147913
1708443401.1689382,-2.1448209285736084,-1.3347120147994538,-2.5270915667163294,6.118688928871908,1.0179733037948608,-2.0422990957843226
1708443401.170941,-2.144862651824951,-1.334680051808693,-2.5270870367633265,6.118718731194296,1.017986536026001,-2.04211932817568
1708443401.172954,-2.1448004245758057,-1.334655911927559,-2.5270989576922815,6.118636476784506,1.0179944038391113,-2.041887108479635
1708443401.1749377,-2.144773006439209,-1.3346758645823975,-2.5270543734179896,6.118585693627157,1.0180199146270752,-2.0416186491595667
1708443401.1769369,-2.1447606086730957,-1.334611029630043,-2.5270913282977503,6.118549930840292,1.0180199146270752,-2.0413129965411585
1708443401.1789372,-2.1447415351867676,-1.3346152317574997,-2.527079407368795,6.1185093996818445,1.018003225326538,-2.0411017576800745
1708443401.1809378,-2.1447300910949707,-1.334638999109604,-2.5270915667163294,6.118486988335409,1.0179821252822876,-2.040902916585104
1708443401.182931,-2.1447255611419678,-1.33461149156604,-2.5271032492267054,6.118437874108114,1.0180109739303589,-2.040605370198385
1708443401.1849287,-2.14469838142395,-1.334651694898941,-2.5270751158343714,6.118415224343099,1.0180197954177856,-2.0402639547931116
1708443401.1869383,-2.14469051361084,-1.3346072000316163,-2.527079407368795,6.118389951973715,1.018068790435791,-2.0400102774249476
1708443401.1889548,-2.1446993350982666,-1.3346279722503205,-2.5271032492267054,6.118342387467184,1.018003225326538,-2.039779011403219
1708443401.1909688,-2.1446292400360107,-1.3345910620740433,-2.5271406809436243,6.1182687161262415,1.018022894859314,-2.0394275824176233
1708443401.1929429,-2.1446211338043213,-1.3346236509135743,-2.5271077791797083,6.118282186775961,1.0180480480194092,-2.039111916218893
1708443401.1949556,-2.144623279571533,-1.3346321445754548,-2.5270662943469446,6.118206369667806,1.018034815788269,-2.0388453642474573
1708443401.1969454,-2.144660472869873,-1.3345588904670258,-2.5270751158343714,6.1181644079978845,1.0180317163467407,-2.038466755543844
1708443401.1989465,-2.1446030139923096,-1.3346482825330277,-2.527112070714132,6.118174779206075,1.0180273056030273,-2.0381344000445765
1708443401.2009468,-2.1445462703704834,-1.334616408949234,-2.5270989576922815,6.118163931160726,1.0180466175079346,-2.0378273169146937
1708443401.2030113,-2.144564151763916,-1.3345672947219391,-2.5271199385272425,6.11809407451705,1.0180392265319824,-2.037478272114889
1708443401.2049742,-2.1445393562316895,-1.3345595759204407,-2.5270662943469446,6.118054973870077,1.0180436372756958,-2.0370972792254847
1708443401.2069445,-2.1444780826568604,-1.3345427078059693,-2.5270989576922815,6.118002879410543,1.018087387084961,-2.036802593861715
1708443401.2089503,-2.1445200443267822,-1.3345757287791749,-2.5271318594561976,6.117922174721517,1.0180511474609375,-2.036375347767965
1708443401.2109697,-2.144425868988037,-1.3345960688642045,-2.527139727269308,6.117904412537374,1.018087387084961,-2.0359695593463343
1708443401.2129352,-2.1444554328918457,-1.3345554333976288,-2.527106825505392,6.117860781937399,1.0180754661560059,-2.03558856645693
1708443401.214948,-2.144422769546509,-1.334551916723587,-2.5270944277392786,6.117850053101339,1.0181366205215454,-2.0351808706866663
1708443401.2169409,-2.1443898677825928,-1.3345882904580613,-2.527098004017965,6.117768275528707,1.0180784463882446,-2.034701172505514
1708443401.2189412,-2.144388437271118,-1.3345722270062943,-2.5271156469928187,6.11766670921401,1.018094778060913,-2.034269158040182
1708443401.220944,-2.1443839073181152,-1.3345315915397187,-2.527081314717428,6.117593514710226,1.0181474685668945,-2.0338195005999964
1708443401.222968,-2.14436674118042,-1.334576429133751,-2.5270944277392786,6.11766933181838,1.0181519985198975,-2.0333789030658167
1708443401.2249446,-2.1443262100219727,-1.3345365089229126,-2.5271318594561976,6.117605078011312,1.0181474685668945,-2.03288442293276
1708443401.2269514,-2.144310474395752,-1.3345159155181427,-2.5271440188037317,6.117533552437582,1.0181759595870972,-2.032419506703512
1708443401.2289598,-2.1442787647247314,-1.3345238280347367,-2.527118508015768,6.117489802628317,1.0181537866592407,-2.031962219868795
1708443401.2309356,-2.1443045139312744,-1.3345074367574234,-2.527106825505392,6.117461907654562,1.0182045698165894,-2.031440083180563
1708443401.2329433,-2.144272565841675,-1.3344920140555878,-2.5271766821490687,6.117367374687948,1.0182241201400757,-2.030823532735006
1708443401.2349403,-2.144217014312744,-1.3345638078502198,-2.527109686528341,6.117299067765035,1.0182483196258545,-2.030261818562643
1708443401.2369554,-2.1442127227783203,-1.3345568788102646,-2.527109686528341,6.117310511856832,1.0182393789291382,-2.029769245778219
1708443401.2389474,-2.1441895961761475,-1.3345200580409546,-2.527142588292257,6.117295610695638,1.0182316303253174,-2.029198948537008
1708443401.2409284,-2.1441729068756104,-1.3345286411098023,-2.527179781590597,6.117182242661276,1.01826012134552,-2.028666321431295
1708443401.2429585,-2.1441285610198975,-1.3345561039498826,-2.527159039174215,6.11712526062087,1.0182965993881226,-2.0281055609332483
1708443401.2449296,-2.144083261489868,-1.3344671440175553,-2.52717096010317,6.117131459503927,1.018369436264038,-2.0274718443499964
1708443401.2469435,-2.14412522315979,-1.334508166914322,-2.5271909872638147,6.117050635605612,1.018318772315979,-2.026831928883688
1708443401.2489324,-2.1440765857696533,-1.3345081818154831,-2.5272071997271937,6.117014872818746,1.0183550119400024,-2.026202980672018
1708443401.2509289,-2.1440279483795166,-1.3344920438579102,-2.5272279421435755,6.116959440499105,1.0184087753295898,-2.0255678335772913
1708443401.2529361,-2.1440694332122803,-1.3344798696092148,-2.527222220097677,6.116923439293661,1.018399953842163,-2.0248892943011683
1708443401.254951,-2.144050359725952,-1.3344479364207764,-2.527296845112936,6.116859423905172,1.0184073448181152,-2.0242651144610804
1708443401.2569506,-2.1439926624298096,-1.3344597828439255,-2.5272849241839808,6.116774308472433,1.0183866024017334,-2.0236223379718226
1708443401.2589538,-2.1439812183380127,-1.3344597977450867,-2.527288023625509,6.116706597595968,1.0184555053710938,-2.0229409376727503
1708443401.2609332,-2.1439528465270996,-1.3344597828439255,-2.527304474507467,6.116728889733114,1.0184811353683472,-2.0222294966327112
1708443401.2629344,-2.1439075469970703,-1.3344479662230988,-2.5272985140429896,6.116632210999288,1.0184870958328247,-2.021491352711813
1708443401.2649627,-2.143925428390503,-1.334435985689499,-2.5272942225085657,6.116616952210226,1.018533706665039,-2.0207436720477503
1708443401.2669475,-2.143881320953369,-1.3344966930202027,-2.5273478666888636,6.1165515063102625,1.018527865409851,-2.0200255552874964
1708443401.2689502,-2.143798828125,-1.3344443303397675,-2.5273972193347376,6.116467463761129,1.018560528755188,-2.0192187468158167
1708443401.2709332,-2.1438539028167725,-1.3344321560910721,-2.5273543039904993,6.11647509315566,1.018596887588501,-2.0185263792621058
1708443401.2729297,-2.1438043117523193,-1.3344647747329255,-2.5273543039904993,6.116367447167196,1.0186283588409424,-2.017759148274557
1708443401.2749345,-2.1437478065490723,-1.3344322007945557,-2.527440849934713,6.116279351502218,1.018623948097229,-2.0169556776629847
1708443401.2769635,-2.143770217895508,-1.3344237071326752,-2.5274036566363733,6.116294133454122,1.0186735391616821,-2.0162161032306116
1708443401.2789574,-2.1437203884124756,-1.334485040312149,-2.5274394194232386,6.116176354676046,1.018683910369873,-2.015397373829977
1708443401.2810016,-2.1437020301818848,-1.3344279539636155,-2.5274604002581995,6.116182195931234,1.0186961889266968,-2.0145657698260706
1708443401.2829425,-2.143702983856201,-1.334444375043251,-2.527421776448385,6.116171467095175,1.0187411308288574,-2.0137761274920862
1708443401.2849422,-2.1436657905578613,-1.3344322007945557,-2.527475420628683,6.116028296738424,1.0187532901763916,-2.0129249731646937
1708443401.286964,-2.143625020980835,-1.3343964529088517,-2.527475420628683,6.116001474648275,1.0188177824020386,-2.012137238179342
1708443401.2889524,-2.1435773372650146,-1.334421069627144,-2.527482811604635,6.11589668968276,1.0188088417053223,-2.011282745991842
1708443401.290994,-2.1435954570770264,-1.334383801822998,-2.5275102297412317,6.115893351822653,1.0188699960708618,-2.0104530493365687
1708443401.2929773,-2.1435387134552,-1.3344083738378067,-2.5275352636920374,6.11582492569045,1.018885612487793,-2.0095694700824183
1708443401.2949688,-2.143497943878174,-1.3343956780484696,-2.5275264422046106,6.115765440254965,1.0189019441604614,-2.0086944738971155
1708443401.2969387,-2.143470525741577,-1.3343880337527771,-2.527550284062521,6.115735280304708,1.0189335346221924,-2.0078490416156214
1708443401.2989423,-2.1433963775634766,-1.3343842786601563,-2.527591053639547,6.115621793061056,1.0189741849899292,-2.0069664160357874
1708443401.300979,-2.1433937549591064,-1.3343843233636399,-2.5276148954974573,6.115608083992758,1.018965244293213,-2.0060070196734827
1708443401.3029945,-2.1433370113372803,-1.334384263758995,-2.5276566187488,6.115478026657858,1.0190176963806152,-2.0050538221942347
1708443401.3049867,-2.1433820724487305,-1.334356502895691,-2.5276227633105677,6.115480887680807,1.0190491676330566,-2.004172150288717
1708443401.306949,-2.1433513164520264,-1.3343565475991745,-2.527642313634054,6.115445124893942,1.019073247909546,-2.003242317830221
1708443401.308945,-2.1432530879974365,-1.3343404245427628,-2.527666155491964,6.11535524108962,1.0190925598144531,-2.0022295157061976
1708443401.3109663,-2.1432912349700928,-1.334421069627144,-2.527649704610006,6.115316498070516,1.01915442943573,-2.001275364552633
1708443401.3129265,-2.143202066421509,-1.3344125163606186,-2.5277677218066614,6.11527298667983,1.019182562828064,-2.0002954641925257
1708443401.314951,-2.1432108879089355,-1.3343723279288788,-2.5277305285083216,6.1151912091071985,1.019202709197998,-1.9994152227984827
1708443401.3169415,-2.143141984939575,-1.334356577401497,-2.5277918020831507,6.115186321526327,1.019208550453186,-1.998462978993551
1708443401.3189406,-2.143109083175659,-1.334336594944336,-2.5278247038470667,6.115118014603414,1.0192744731903076,-1.9974363485919397
1708443401.3209672,-2.1431145668029785,-1.3344132912210007,-2.527790371571676,6.115038382797994,1.0192524194717407,-1.9964521566974085
1708443401.3229306,-2.1430983543395996,-1.3343119335225602,-2.527856175099508,6.114984857826986,1.0193334817886353,-1.9953859488116663
1708443401.324947,-2.143066883087158,-1.334364877348282,-2.527860466633932,6.1148685095603845,1.0193454027175903,-1.9943884054767054
1708443401.3269422,-2.1429696083068848,-1.3343523007682343,-2.5279043356524866,6.114886271744528,1.019385814666748,-1.9933880011187952
1708443401.3289287,-2.142942190170288,-1.3344010722688218,-2.5279117266284388,6.114901053696432,1.0194547176361084,-1.9923628012286585
1708443401.3309505,-2.1429874897003174,-1.3343572479537507,-2.5279117266284388,6.114782917290487,1.019514799118042,-1.9913676420794886
