Eg3-git/Classifiers/Data Collection/u8/u8www2_ur3e_joint_states.csv
time,elbow_joint,shoulder_lift_joint,shoulder_pan_joint,wrist_1_joint,wrist_2_joint,wrist_3_joint
1708443382.1948688,-2.142352342605591,-1.3333115589669724,-2.5255919138537806,6.110625731735983,1.0156869888305664,-3.0343778769122522
1708443382.196862,-2.1423745155334473,-1.3333080571940918,-2.5255799929248255,6.110612380295553,1.0156707763671875,-3.034398619328634
1708443382.1988373,-2.142401933670044,-1.3333036315492173,-2.5255919138537806,6.110634553223409,1.0156621932983398,-3.034403149281637
1708443382.200862,-2.142406463623047,-1.3333975088647385,-2.525611464177267,6.110610949784078,1.0156577825546265,-3.034349028264181
1708443382.2028592,-2.1423680782318115,-1.3332949888757248,-2.525619093571798,6.110597479134359,1.0157146453857422,-3.0343897978412073
1708443382.204866,-2.1423726081848145,-1.333345116381981,-2.5255664030658167,6.110592949181356,1.0156784057617188,-3.034344498311178
1708443382.2068713,-2.142397403717041,-1.333332137470581,-2.5256534258471888,6.110637652664938,1.0156902074813843,-3.034391228352682
1708443382.2088752,-2.1423275470733643,-1.3333483797362824,-2.5256534258471888,6.110589730530538,1.0157277584075928,-3.0343526045428675
1708443382.2108552,-2.1423487663269043,-1.3333288741162796,-2.52561599413027,6.110597479134359,1.0157023668289185,-3.034349028264181
1708443382.212859,-2.1423611640930176,-1.3333397221616288,-2.52561599413027,6.110571849137106,1.0157439708709717,-3.034386936818258
1708443382.214848,-2.1423532962799072,-1.3332906079343338,-2.525595251713888,6.110615360527792,1.0157023668289185,-3.034403149281637
1708443382.2168403,-2.1423885822296143,-1.3333278161338349,-2.525590483342306,6.110564338951864,1.0156739950180054,-3.034382406865255
1708443382.218888,-2.142394781112671,-1.3332906675389786,-2.525649134312765,6.110606419831075,1.0156946182250977,-3.034299914036886
1708443382.2208424,-2.1422832012176514,-1.33339315772567,-2.525595013295309,6.110643732338705,1.015715479850769,-3.0343778769122522
1708443382.2228827,-2.142352342605591,-1.333283395772316,-2.525640074406759,6.110585200577535,1.0156784057617188,-3.034328285847799
1708443382.2248354,-2.1423532962799072,-1.3333364588073273,-2.525668446217672,6.1106183407600305,1.0157233476638794,-3.0343614260302942
1708443382.2268455,-2.142336368560791,-1.33333973706279,-2.525640074406759,6.110588538437643,1.015715479850769,-3.034386936818258
1708443382.2288666,-2.1423161029815674,-1.3333527159741898,-2.5256338755237024,6.110568749695577,1.015715479850769,-3.0343778769122522
1708443382.23085,-2.1423115730285645,-1.3333440583995362,-2.5256503264056605,6.110540258675375,1.0157067775726318,-3.034382168446676
1708443382.232859,-2.14231014251709,-1.3333364737084885,-2.525703016911642,6.110613810807028,1.0157557725906372,-3.034307305012838
1708443382.2348933,-2.1423532962799072,-1.33333973706279,-2.525686566029684,6.110568749695577,1.0156652927398682,-3.034353558217184
1708443382.2368667,-2.142270803451538,-1.3333278012326737,-2.5257402102099817,6.110540258675375,1.0156989097595215,-3.034339968358175
1708443382.2388973,-2.142333745956421,-1.3333234798959275,-2.5257402102099817,6.110618221550741,1.0156902074813843,-3.034344498311178
1708443382.2408879,-2.1423544883728027,-1.3333278161338349,-2.525714937840597,6.110594141274252,1.0156826972961426,-3.034403149281637
1708443382.2428422,-2.1422789096832275,-1.3333527159741898,-2.525698486958639,6.110603201180258,1.015669584274292,-3.0343733469592493
1708443382.2448483,-2.142336368560791,-1.333287702207901,-2.5256570021258753,6.11063169220046,1.0156621932983398,-3.0343855063067835
1708443382.2468584,-2.1423544883728027,-1.3333364737084885,-2.525648895894186,6.11051236370162,1.0156902074813843,-3.034353558217184
1708443382.248857,-2.1423451900482178,-1.333299310212471,-2.525768820439474,6.110624301224508,1.0156902074813843,-3.034344498311178
1708443382.2508657,-2.142329454421997,-1.3333571267179032,-2.5257657209979456,6.11057339885787,1.0156621932983398,-3.0343571344958704
1708443382.2528703,-2.142388105392456,-1.3333364737084885,-2.525707546864645,6.110582220345297,1.0156980752944946,-3.0343943277942103
1708443382.254851,-2.1422877311706543,-1.3333364588073273,-2.525698725377218,6.110558140068807,1.015681505203247,-3.034403149281637
1708443382.2568603,-2.142296552658081,-1.3333527159741898,-2.52570611635317,6.110549199372091,1.0157277584075928,-3.0344062487231653
1708443382.2588568,-2.142320394515991,-1.333332137470581,-2.5257194677936,6.110504853516378,1.0157023668289185,-3.0343356768237513
1708443382.2608511,-2.142343044281006,-1.333332137470581,-2.5257402102099817,6.110506045609274,1.015718936920166,-3.0343704859363
1708443382.2628675,-2.1423180103302,-1.3333036315492173,-2.5257449785815638,6.110543715744772,1.0157023668289185,-3.034323755894796
1708443382.2648485,-2.1422922611236572,-1.333340884452202,-2.5257402102099817,6.110468733101644,1.0157320499420166,-3.03432804742922
1708443382.2668493,-2.14231014251709,-1.3333364588073273,-2.5257282892810267,6.110468733101644,1.015718936920166,-3.0343571344958704
1708443382.268854,-2.142263650894165,-1.3333855879357834,-2.525686804448263,6.1104822037513635,1.0157023668289185,-3.034382406865255
1708443382.270863,-2.142329454421997,-1.3332877171090622,-2.525707546864645,6.110545146256246,1.0157111883163452,-3.0343192259417933
1708443382.2728426,-2.142268180847168,-1.333368958239891,-2.5257120768176478,6.110506045609274,1.0156784057617188,-3.034337107335226
1708443382.2748559,-2.1423001289367676,-1.3333515536836167,-2.525735918675558,6.110518204956808,1.0157439708709717,-3.0343852678882044
1708443382.276848,-2.1422877311706543,-1.3332949888757248,-2.525722328816549,6.110506045609274,1.0157233476638794,-3.034353558217184
1708443382.27884,-2.1422932147979736,-1.3332992953113099,-2.5257566610919397,6.110491263657369,1.015718936920166,-3.034332577382223
1708443382.28084,-2.1422457695007324,-1.3333158803037186,-2.525710646306173,6.110539185791769,1.015669584274292,-3.034426991139547
1708443382.282837,-2.1422815322875977,-1.3333613884500046,-2.525735918675558,6.110437142639913,1.0157067775726318,-3.0343690554248255
1708443382.284858,-2.142279624938965,-1.333319069152214,-2.52574330965151,6.110527264862814,1.015715479850769,-3.034365955983297
1708443382.2868543,-2.1423089504241943,-1.3332992953113099,-2.525714937840597,6.11047779300765,1.0156902074813843,-3.034365955983297
1708443382.2888472,-2.1422922611236572,-1.333332137470581,-2.525726858769552,6.110461342125692,1.0157233476638794,-3.034386936818258
1708443382.290855,-2.142279624938965,-1.3332671386054535,-2.52574330965151,6.110531675606527,1.0156946182250977,-3.034459416066305
1708443382.2928429,-2.142333984375,-1.3333364737084885,-2.525738779698507,6.110506045609274,1.015681505203247,-3.0343943277942103
1708443382.294823,-2.142270565032959,-1.3333158803037186,-2.525747839604513,6.110440242081442,1.015718936920166,-3.034349028264181
1708443382.2968504,-2.1422886848449707,-1.3333440583995362,-2.52568227449526,6.110496985703268,1.0156813859939575,-3.034365955983297
1708443382.2988565,-2.142327070236206,-1.3333115589669724,-2.525707546864645,6.110539185791769,1.0157277584075928,-3.0343897978412073
1708443382.3008475,-2.1423144340515137,-1.3333364588073273,-2.525698486958639,6.110527264862814,1.0157103538513184,-3.034403149281637
1708443382.3028476,-2.142244577407837,-1.333320216541626,-2.5257282892810267,6.11047779300765,1.0157146453857422,-3.0343645254718226
1708443382.3048403,-2.14231014251709,-1.333368958239891,-2.525707546864645,6.110494124680319,1.0156902074813843,-3.0343075434314173
1708443382.3068504,-2.142305850982666,-1.3333364588073273,-2.5256791750537317,6.1104702828224084,1.0156980752944946,-3.0343571344958704
1708443382.3088675,-2.142272710800171,-1.3333080571940918,-2.525740448628561,6.110503065377035,1.0156946182250977,-3.034311834965841
1708443382.310847,-2.1422860622406006,-1.333320216541626,-2.525703016911642,6.110461342125692,1.0156989097595215,-3.0343526045428675
1708443382.3128622,-2.142322540283203,-1.3333352667144318,-2.5257120768176478,6.110539185791769,1.0157067775726318,-3.034316364918844
1708443382.3148518,-2.1423144340515137,-1.3333812069943924,-2.525747839604513,6.110485064774313,1.0157023668289185,-3.034353558217184
1708443382.3168557,-2.1422479152679443,-1.3333158803037186,-2.525698725377218,6.110503065377035,1.0157233476638794,-3.0343194643603724
1708443382.3188496,-2.142301082611084,-1.333320216541626,-2.525703016911642,6.110523927002706,1.015669584274292,-3.034349028264181
1708443382.3208587,-2.142268180847168,-1.333332137470581,-2.525686566029684,6.110485064774313,1.0157525539398193,-3.034403149281637
1708443382.3228993,-2.14231014251709,-1.33333973706279,-2.525703016911642,6.110498535424032,1.015735149383545,-3.0343778769122522
1708443382.3248496,-2.142301082611084,-1.3333812069943924,-2.52568227449526,6.110498535424032,1.0157277584075928,-3.034349028264181
1708443382.3268495,-2.1422841548919678,-1.3333115440658112,-2.525703016911642,6.110518204956808,1.0157111883163452,-3.034340206776754
1708443382.3288481,-2.142305612564087,-1.333352730875351,-2.5257194677936,6.110444652825155,1.0157111883163452,-3.0343526045428675
1708443382.3308353,-2.1422932147979736,-1.3333036464503785,-2.525698725377218,6.110465872078695,1.0157233476638794,-3.034344498311178
1708443382.3328555,-2.1423144340515137,-1.3333071929267426,-2.5257194677936,6.11047779300765,1.0156902074813843,-3.0343852678882044
1708443382.3348732,-2.1422932147979736,-1.333320216541626,-2.52574330965151,6.110498535424032,1.0156989097595215,-3.0344017187701624
1708443382.3368506,-2.142268180847168,-1.3333483797362824,-2.525707546864645,6.110459792404928,1.0157067775726318,-3.0343809763537806
1708443382.3388495,-2.142301082611084,-1.333368958239891,-2.52574330965151,6.110489713936605,1.0157067775726318,-3.034398619328634
1708443382.3408446,-2.1423516273498535,-1.333308072095253,-2.525698725377218,6.1104822037513635,1.015669584274292,-3.0343778769122522
1708443382.3428519,-2.1422815322875977,-1.3332993251136322,-2.525707546864645,6.110527264862814,1.0156826972961426,-3.0343735853778284
1708443382.3448517,-2.1422886848449707,-1.333299310212471,-2.5256956259356897,6.110531675606527,1.0157233476638794,-3.034353558217184
1708443382.346866,-2.142218589782715,-1.3332949888757248,-2.525698486958639,6.110456931381979,1.0157023668289185,-3.0343852678882044
1708443382.348848,-2.142277240753174,-1.3333571267179032,-2.52568227449526,6.110548126488485,1.0157557725906372,-3.0344062487231653
1708443382.3508484,-2.1422972679138184,-1.3332671386054535,-2.525731388722555,6.110510456352987,1.0157723426818848,-3.0343897978412073
1708443382.352841,-2.1422524452209473,-1.3333483797362824,-2.525714937840597,6.110559928208151,1.0157233476638794,-3.034403149281637
1708443382.354847,-2.142272710800171,-1.333342046742775,-2.5257447401629847,6.110527145653524,1.015685796737671,-3.034398619328634
1708443382.3568373,-2.1422975063323975,-1.3333036464503785,-2.525735918675558,6.110519397049703,1.0157197713851929,-3.0343733469592493
1708443382.358844,-2.142268180847168,-1.3332747381976624,-2.525735918675558,6.1104657528694055,1.015685796737671,-3.0343943277942103
1708443382.3608375,-2.142279624938965,-1.333299310212471,-2.52570611635317,6.110503065377035,1.0157395601272583,-3.0344181696521204
1708443382.3628447,-2.1422524452209473,-1.333345116381981,-2.5257120768176478,6.110506045609274,1.0157277584075928,-3.0343690554248255
1708443382.3648462,-2.142296552658081,-1.3332921278527756,-2.5256622473346155,6.110539185791769,1.0156902074813843,-3.0343852678882044
1708443382.3668487,-2.1422815322875977,-1.333287702207901,-2.5257566610919397,6.110456931381979,1.0157111883163452,-3.0343614260302942
1708443382.3688443,-2.1423089504241943,-1.3333158803037186,-2.525648895894186,6.110527264862814,1.0157395601272583,-3.0344224611865442
1708443382.3708503,-2.142230987548828,-1.3332992953113099,-2.525707546864645,6.110527264862814,1.0156652927398682,-3.034426991139547
1708443382.3728418,-2.142263650894165,-1.3333483797362824,-2.5257282892810267,6.11047779300765,1.0156739950180054,-3.034410540257589
1708443382.3748393,-2.1422312259674072,-1.3332907271436234,-2.525698725377218,6.1105360863502405,1.015669584274292,-3.0343778769122522
1708443382.3768487,-2.14231014251709,-1.333364651804306,-2.5257447401629847,6.110488164215841,1.015715479850769,-3.0343690554248255
1708443382.3788745,-2.142322540283203,-1.3333071780255814,-2.525723997746603,6.110527264862814,1.0157111883163452,-3.0344091097461146
1708443382.380842,-2.142272710800171,-1.3332921278527756,-2.52574330965151,6.110518204956808,1.0157111883163452,-3.0343855063067835
1708443382.382846,-2.142277240753174,-1.3333570671132584,-2.525740448628561,6.110522734909811,1.015718936920166,-3.0344255606280726
1708443382.3848426,-2.142305850982666,-1.3333115440658112,-2.525714937840597,6.110496985703268,1.015715479850769,-3.0343778769122522
1708443382.3868735,-2.14231014251709,-1.3332963746837159,-2.5257194677936,6.110485064774313,1.015718936920166,-3.0343943277942103
1708443382.3888948,-2.1422975063323975,-1.33326709390197,-2.525714937840597,6.110550987511434,1.015681505203247,-3.0343852678882044
1708443382.390895,-2.142261505126953,-1.333312304025032,-2.525707546864645,6.110500323563375,1.0156946182250977,-3.0344839731799524
1708443382.3928583,-2.142265796661377,-1.3332790595344086,-2.525710646306173,6.110546576767721,1.015730857849121,-3.0343690554248255
1708443382.3948977,-2.142261505126953,-1.33333212256942,-2.525726858769552,6.110506045609274,1.0157233476638794,-3.0344343821154993
1708443382.3968987,-2.1422860622406006,-1.333352730875351,-2.525747839604513,6.110546457558431,1.015718936920166,-3.0343928972827356
1708443382.3989067,-2.142305850982666,-1.3332789999297638,-2.525703016911642,6.11052571514205,1.015735149383545,-3.0344017187701624
1708443382.400885,-2.142277240753174,-1.3333571267179032,-2.525735918675558,6.110521185189047,1.0157067775726318,-3.0344298521624964
1708443382.40286,-2.142240047454834,-1.33335596442733,-2.5257194677936,6.110542046814718,1.0157395601272583,-3.0343778769122522
1708443382.4048543,-2.1422886848449707,-1.3333158952048798,-2.525714937840597,6.110594260483541,1.0157320499420166,-3.0343645254718226
1708443382.406846,-2.1422524452209473,-1.33333973706279,-2.525726858769552,6.110598671227255,1.0156989097595215,-3.0343971888171595
1708443382.408862,-2.1422860622406006,-1.3332833510688324,-2.525740448628561,6.110537636071005,1.0157111883163452,-3.034454409276144
1708443382.4108682,-2.1422975063323975,-1.33333973706279,-2.525735918675558,6.110533106118002,1.0156826972961426,-3.0344374815570276
1708443382.4128556,-2.142240047454834,-1.3332992953113099,-2.525740448628561,6.110558140068807,1.0157067775726318,-3.0344389120685022
1708443382.4148707,-2.142305612564087,-1.3332671386054535,-2.5257120768176478,6.110504853516378,1.0157067775726318,-3.0343897978412073
1708443382.4168599,-2.142240285873413,-1.3333166253617783,-2.525707546864645,6.110577809601583,1.0157111883163452,-3.0343928972827356
1708443382.418845,-2.1422975063323975,-1.3333571565202256,-2.5257194677936,6.110610949784078,1.0157103538513184,-3.0344329516040247
1708443382.4208517,-2.142277240753174,-1.3332949888757248,-2.525726858769552,6.110588419228353,1.015685796737671,-3.0344017187701624
1708443382.4228766,-2.142272710800171,-1.3333733689836045,-2.525714937840597,6.110627281456747,1.0156989097595215,-3.03440767923464
1708443382.4248505,-2.1422312259674072,-1.3333603155663987,-2.5257328192340296,6.110613810807028,1.0157146453857422,-3.0344916025744837
1708443382.4268591,-2.14225697517395,-1.3333483946374436,-2.525707546864645,6.110633122711935,1.015685796737671,-3.0344916025744837
1708443382.4288495,-2.1422815322875977,-1.3333483946374436,-2.5257285276996058,6.110725748329916,1.0157103538513184,-3.034445349370138
1708443382.4308918,-2.1422479152679443,-1.333258495931961,-2.525703016911642,6.110665905266561,1.015735149383545,-3.0344091097461146
1708443382.4328544,-2.142240047454834,-1.3333123487285157,-2.525710407887594,6.1107228873069666,1.0156902074813843,-3.0344870726214808
1708443382.434863,-2.1422905921936035,-1.3333036315492173,-2.525691095982687,6.110656964569845,1.0157233476638794,-3.0344417730914515
1708443382.4368482,-2.142272710800171,-1.333352730875351,-2.5257566610919397,6.110680806427755,1.0157277584075928,-3.034454409276144
1708443382.4388545,-2.142277240753174,-1.3333246421865006,-2.525747839604513,6.110698568611898,1.015735149383545,-3.034454409276144
1708443382.440855,-2.142305612564087,-1.3332877171090622,-2.525698486958639,6.110713827400961,1.0157067775726318,-3.0344374815570276
1708443382.4428427,-2.14231014251709,-1.3333571565202256,-2.5257194677936,6.110689866333761,1.0157470703125,-3.034445587788717
1708443382.4448454,-2.14225697517395,-1.3333451610854645,-2.525740448628561,6.110693084984579,1.0157023668289185,-3.034490172063009
1708443382.446869,-2.142272710800171,-1.3333602857640763,-2.525714937840597,6.110715377121725,1.0157395601272583,-3.034428421651022
1708443382.4488688,-2.1422932147979736,-1.33326709390197,-2.525694195424215,6.110685336380758,1.0157593488693237,-3.034473721181051
1708443382.4508584,-2.1422860622406006,-1.3332992953113099,-2.525707546864645,6.110651123314657,1.0157265663146973,-3.03448993364443
1708443382.4528573,-2.1422815322875977,-1.33333973706279,-2.525740448628561,6.110709416657247,1.0157470703125,-3.034478012715475
1708443382.4548512,-2.1422524452209473,-1.3333527457765122,-2.525714937840597,6.1107228873069666,1.0157383680343628,-3.0344648996936243
1708443382.4568455,-2.142261505126953,-1.33333212256942,-2.52570611635317,6.1106841442878626,1.0157593488693237,-3.034522835408346
1708443382.4588673,-2.142301082611084,-1.3333603006652375,-2.525723997746603,6.11071394661025,1.0157711505889893,-3.0344441572772425
1708443382.460861,-2.14231014251709,-1.3333364737084885,-2.5256956259356897,6.110716926842489,1.0157383680343628,-3.034525696431295
1708443382.4628437,-2.142322540283203,-1.3333571565202256,-2.525674883519308,6.110730278282919,1.0157593488693237,-3.0345259348498743
1708443382.4648416,-2.1422975063323975,-1.3333158952048798,-2.5257282892810267,6.110721337586202,1.0157549381256104,-3.0345903078662317
1708443382.4668415,-2.1422841548919678,-1.3333278161338349,-2.525747839604513,6.110719787865438,1.0157593488693237,-3.0345619360553187
1708443382.4688463,-2.142279624938965,-1.333364651804306,-2.5257282892810267,6.1107990620429895,1.0157743692398071,-3.034597698842184
1708443382.4708605,-2.1423134803771973,-1.3333364588073273,-2.52574330965151,6.110794532089987,1.0157625675201416,-3.034585777913229
1708443382.4728525,-2.1422886848449707,-1.3333483946374436,-2.52576452890505,6.110793101578512,1.0157755613327026,-3.034586016331808
1708443382.4748776,-2.142275094985962,-1.3333571565202256,-2.5257402102099817,6.1107603190238855,1.0157383680343628,-3.034560743962423
1708443382.476853,-2.142305850982666,-1.3333115440658112,-2.525735918675558,6.110805022507467,1.015734076499939,-3.034588877354757
1708443382.478896,-2.1423180103302,-1.333344043498375,-2.525776449834005,6.110816943436422,1.0157427787780762,-3.034602228795187
1708443382.4808571,-2.142335891723633,-1.3333397072604676,-2.525714937840597,6.110824692040243,1.0157581567764282,-3.0345681349383753
1708443382.4828866,-2.1422932147979736,-1.333332137470581,-2.52568227449526,6.11082016208724,1.0157506465911865,-3.0345845858203333
1708443382.484867,-2.1423134803771973,-1.333384395842888,-2.525735918675558,6.110800611763754,1.0157873630523682,-3.034621540700094
1708443382.486883,-2.1422841548919678,-1.333357186322548,-2.525752369557516,6.110824692040243,1.0157625675201416,-3.0345962683307093
1708443382.4888332,-2.142322540283203,-1.3333278012326737,-2.525752131138937,6.110827553063192,1.0157625675201416,-3.0345962683307093
1708443382.4908526,-2.1423020362854004,-1.333340899353363,-2.5257194677936,6.110873806267538,1.0157699584960938,-3.034642998372213
1708443382.4928432,-2.1422524452209473,-1.3333725196174164,-2.5257566610919397,6.110873806267538,1.015815019607544,-3.0346253553973597
1708443382.494869,-2.142268180847168,-1.3333234649947663,-2.525752369557516,6.110839593201437,1.0158030986785889,-3.034680191670553
1708443382.4968424,-2.1422932147979736,-1.3333397221616288,-2.525726858769552,6.110815751343527,1.0157822370529175,-3.0346458593951624
1708443382.4988601,-2.142244577407837,-1.333344043498375,-2.52574330965151,6.1108648655708215,1.0158605575561523,-3.0346460978137415
1708443382.5008771,-2.14233136177063,-1.3333278012326737,-2.525726858769552,6.1108529446418665,1.0157699584960938,-3.0346038977252405
1708443382.5028677,-2.142296552658081,-1.3333115440658112,-2.5257554689990442,6.110860335617819,1.0158400535583496,-3.0346081892596644
1708443382.5048792,-2.14231014251709,-1.3333690029433747,-2.525734249745504,6.1108529446418665,1.0158562660217285,-3.0346253553973597
1708443382.5068734,-2.1422815322875977,-1.3334006530097504,-2.5257719198810022,6.110841023712911,1.0158344507217407,-3.0346861521350306
1708443382.5088513,-2.1423089504241943,-1.3333115440658112,-2.525698486958639,6.1108929989631555,1.015826940536499,-3.0346415678607386
1708443382.510887,-2.142261505126953,-1.33339315772567,-2.5257194677936,6.110839593201437,1.015826940536499,-3.0346787611590784
1708443382.512836,-2.1422841548919678,-1.3333515536836167,-2.525740448628561,6.110942590027609,1.015826940536499,-3.0346654097186487
1708443382.5148783,-2.142263650894165,-1.3333071929267426,-2.525707546864645,6.110868203430929,1.015838861465454,-3.034640375767843
1708443382.5168393,-2.142296552658081,-1.3333158803037186,-2.525731388722555,6.110879766732015,1.0158597230911255,-3.0346861521350306
1708443382.518858,-2.1422839164733887,-1.3333071929267426,-2.525710407887594,6.110869276314535,1.015826940536499,-3.034661118184225
1708443382.5208514,-2.1422479152679443,-1.3333559793284913,-2.5257509390460413,6.110868203430929,1.0158720016479492,-3.034689251576559
1708443382.5228517,-2.142268180847168,-1.333401845102646,-2.52570611635317,6.1109094498451135,1.0158300399780273,-3.034721914921896
1708443382.5248451,-2.1423089504241943,-1.3333603155663987,-2.525752369557516,6.110893118172445,1.0158510208129883,-3.0347262064563196
1708443382.5268602,-2.14233136177063,-1.3333603304675599,-2.5257180372821253,6.110893118172445,1.0158838033676147,-3.0347262064563196
1708443382.5288482,-2.142343044281006,-1.3333071929267426,-2.525747839604513,6.110851514130392,1.015895962715149,-3.0347300211535853
1708443382.5308704,-2.1423180103302,-1.3333278012326737,-2.5257673899279993,6.1108871577079675,1.015882968902588,-3.034750763569967
1708443382.5328507,-2.142322540283203,-1.3333440583995362,-2.525747839604513,6.1108752367790125,1.015842318534851,-3.0347300211535853
1708443382.5348723,-2.142305612564087,-1.3333603155663987,-2.525726858769552,6.11090515831069,1.0158500671386719,-3.034750763569967
1708443382.53685,-2.142333745956421,-1.3333734285882493,-2.525722328816549,6.1109036085899255,1.0158663988113403,-3.0346832911120813
1708443382.5388772,-2.1423189640045166,-1.3333309602788468,-2.525722328816549,6.110888707428732,1.0158991813659668,-3.034734551106588
1708443382.540866,-2.142277240753174,-1.333332137470581,-2.525752369557516,6.1108871577079675,1.0159153938293457,-3.0347374121295374
1708443382.542905,-2.1423180103302,-1.3333515536836167,-2.525722328816549,6.1109410403068445,1.015891671180725,-3.0347581545459192
1708443382.544886,-2.142324924468994,-1.3333725643209,-2.525747839604513,6.110924708634176,1.0158960819244385,-3.0347655455218714
1708443382.5468466,-2.1422841548919678,-1.333286167388298,-2.52574330965151,6.1109574911888025,1.0159196853637695,-3.0347331205951136
1708443382.548859,-2.142296552658081,-1.3333115440658112,-2.525797430668966,6.110906708031454,1.0158751010894775,-3.0347374121295374
1708443382.550853,-2.1423497200012207,-1.3333483946374436,-2.525734249745504,6.11097418048934,1.0158905982971191,-3.0347419420825403
1708443382.552841,-2.142279624938965,-1.333352730875351,-2.5257886091815394,6.1109962342079065,1.015924096107483,-3.0346878210650843
1708443382.554848,-2.142296552658081,-1.3333115440658112,-2.5258005301104944,6.111026274948873,1.0158905982971191,-3.034736220036642
1708443382.556849,-2.142259120941162,-1.333320216541626,-2.5257464090930384,6.11102186420516,1.015891671180725,-3.0347731749164026
1708443382.5588515,-2.1422839164733887,-1.3333603155663987,-2.5257299582110804,6.111015903740682,1.0159153938293457,-3.0347731749164026
1708443382.5608459,-2.142301082611084,-1.3333515536836167,-2.5257960001574915,6.111036765366354,1.0159196853637695,-3.034768883381979
1708443382.5628448,-2.1423134803771973,-1.3333234649947663,-2.5257795492755335,6.111003982811727,1.0159153938293457,-3.0347850958453577
1708443382.5648515,-2.142301082611084,-1.3333844405463715,-2.5257554689990442,6.110966670304098,1.0159034729003906,-3.03471547762026
1708443382.5668607,-2.1422932147979736,-1.3333397221616288,-2.525738779698507,6.1110113737876794,1.015882968902588,-3.034752432500021
1708443382.5688534,-2.142272710800171,-1.3333364737084885,-2.5257509390460413,6.111017334252157,1.015960454940796,-3.034743372594015
1708443382.5708604,-2.142301082611084,-1.3333202314427872,-2.525722328816549,6.111036646157064,1.0159516334533691,-3.034780804310934
1708443382.572855,-2.1423089504241943,-1.3333440583995362,-2.5257673899279993,6.111020314484396,1.015923023223877,-3.0348272959338587
1708443382.5748518,-2.1422839164733887,-1.3333234649947663,-2.5258331934558313,6.111003982811727,1.015923023223877,-3.034780804310934
1708443382.576853,-2.1422886848449707,-1.3333843511394043,-2.5258048216449183,6.111041176110067,1.0159399509429932,-3.0348005930529993
1708443382.5788453,-2.142301082611084,-1.3333472174457093,-2.5258169809924524,6.111053097039022,1.0159516334533691,-3.034797016774313
1708443382.5808537,-2.142268180847168,-1.3333603155663987,-2.5257960001574915,6.110980140953817,1.015956163406372,-3.034809414540426
1708443382.5828948,-2.1423544883728027,-1.3333234947970887,-2.525782648717062,6.111020314484396,1.0159887075424194,-3.0348051230060022
1708443382.584847,-2.1423089504241943,-1.3333603155663987,-2.5258286635028284,6.111036646157064,1.0159592628479004,-3.034797016774313
1708443382.5869038,-2.1422841548919678,-1.333332137470581,-2.5257795492755335,6.111015903740682,1.0159964561462402,-3.034825627003805
1708443382.588856,-2.1422886848449707,-1.3333190393498917,-2.5257583300219935,6.111044156342306,1.0159549713134766,-3.034821335469381
1708443382.590882,-2.142338514328003,-1.3333036762527009,-2.5258365313159388,6.111003982811727,1.0159624814987183,-3.0348289648639124
1708443382.59284,-2.142343044281006,-1.3333603155663987,-2.5258243719684046,6.110978352814474,1.0159505605697632,-3.034825627003805
1708443382.5948367,-2.142296552658081,-1.3333812815001984,-2.5257988611804407,6.110978352814474,1.0159833431243896,-3.034830395375387
1708443382.5968378,-2.1422932147979736,-1.3333769005588074,-2.5258079210864466,6.111036646157064,1.0159995555877686,-3.0348051230060022
1708443382.598927,-2.1422841548919678,-1.3333234649947663,-2.525801960621969,6.111029374390402,1.0160249471664429,-3.0348168055163782
1708443382.6008446,-2.142301082611084,-1.3333384108594437,-2.525797430668966,6.111036646157064,1.0159797668457031,-3.034821335469381
1708443382.6028929,-2.142296552658081,-1.3333115440658112,-2.525864903126852,6.111090647965231,1.0159790515899658,-3.0348408857928675
1708443382.6048636,-2.142296552658081,-1.333344043498375,-2.525785509740011,6.110973822861471,1.0159624814987183,-3.034825627003805
1708443382.60687,-2.142322540283203,-1.3333769005588074,-2.52590519586672,6.111038195877828,1.0159995555877686,-3.034842077885763
1708443382.6088479,-2.1423590183258057,-1.3333472174457093,-2.5258470217334192,6.111041176110067,1.0159624814987183,-3.034821335469381
1708443382.610873,-2.142275094985962,-1.333352730875351,-2.525801960621969,6.110978233605184,1.0159995555877686,-3.034851137791769
1708443382.612897,-2.142279624938965,-1.3333689731410523,-2.5257883707629603,6.111024725228109,1.0159908533096313,-3.034862820302145
1708443382.6148498,-2.1423134803771973,-1.333401845102646,-2.52586800256838,6.111041176110067,1.0159703493118286,-3.034842077885763
1708443382.616847,-2.142254590988159,-1.3333559793284913,-2.5258141199695032,6.110957729607382,1.016003966331482,-3.034783665333883
1708443382.618871,-2.1422841548919678,-1.3334018600038071,-2.52584416071047,6.111039626389303,1.015987753868103,-3.0348244349109095
1708443382.6208658,-2.142322540283203,-1.3333769154599686,-2.525776449834005,6.111057507782736,1.0159952640533447,-3.0348051230060022
1708443382.622935,-2.142340898513794,-1.3333559793284913,-2.525835100804464,6.110999452858724,1.0159462690353394,-3.0348125139819544
1708443382.624869,-2.142327070236206,-1.3333309155753632,-2.525835100804464,6.111024725228109,1.0159908533096313,-3.0348735491382044
1708443382.6268957,-2.142333745956421,-1.3333352965167542,-2.525839630757467,6.1110620377357385,1.0159952640533447,-3.0348570982562464
1708443382.6288526,-2.1423544883728027,-1.3333071929267426,-2.5258589426623743,6.111048567086019,1.0159711837768555,-3.0348570982562464
1708443382.6308453,-2.1423497200012207,-1.3333603304675599,-2.525876824055807,6.1110350964363,1.0159995555877686,-3.0348125139819544
1708443382.6328564,-2.142327070236206,-1.3333190393498917,-2.5258799234973353,6.110987174301901,1.0159833431243896,-3.0348778406726282
1708443382.6348555,-2.142333745956421,-1.3332984310439606,-2.5258589426623743,6.111062156945028,1.016032338142395,-3.0348570982562464
1708443382.636879,-2.14235782623291,-1.333401845102646,-2.5258262793170374,6.111044156342306,1.0159790515899658,-3.0348199049579065
1708443382.638863,-2.1423089504241943,-1.333364651804306,-2.5258095900165003,6.111054527550497,1.0159790515899658,-3.0348363558398646
1708443382.6408617,-2.142366647720337,-1.3333472174457093,-2.525856081639425,6.111044156342306,1.0159833431243896,-3.0348244349109095
1708443382.6428838,-2.142296552658081,-1.3333725792220612,-2.525818411503927,6.111041176110067,1.0159549713134766,-3.0348690191852015
1708443382.6448522,-2.1422886848449707,-1.3333397221616288,-2.525860611592428,6.111003982811727,1.0159505605697632,-3.0349062124835413
1708443382.64687,-2.1422922611236572,-1.3333603155663987,-2.525851551686422,6.110978352814474,1.015987753868103,-3.0348570982562464
1708443382.648856,-2.1423046588897705,-1.333305985932686,-2.5258424917804163,6.111081707268514,1.0159833431243896,-3.0348897616015833
1708443382.6508393,-2.142259359359741,-1.3333811920932312,-2.525851551686422,6.111029374390402,1.016003966331482,-3.0348778406726282
1708443382.6528602,-2.142333745956421,-1.333302767281868,-2.5258382002459925,6.111098158150472,1.0159952640533447,-3.034843985234396
1708443382.654857,-2.1423180103302,-1.3333734285882493,-2.525851551686422,6.111048567086019,1.0159387588500977,-3.0348570982562464
1708443382.656858,-2.142320394515991,-1.33339315772567,-2.5258470217334192,6.111044156342306,1.0159908533096313,-3.0348482767688196
1708443382.6588645,-2.1422832012176514,-1.3333115440658112,-2.525872532521383,6.1110113737876794,1.0159790515899658,-3.0348528067218226
1708443382.6608496,-2.142345428466797,-1.3333397817662735,-2.525835100804464,6.111048567086019,1.0160118341445923,-3.0348408857928675
1708443382.6628587,-2.142345428466797,-1.3333441329053421,-2.52584416071047,6.111048567086019,1.016003966331482,-3.034849468861715
1708443382.6648493,-2.142301082611084,-1.3333725643209,-2.525835100804464,6.111044156342306,1.0159624814987183,-3.0348928610431116
1708443382.6668458,-2.142296552658081,-1.3333309602788468,-2.525839630757467,6.111036646157064,1.015987753868103,-3.0348320643054407
1708443382.6688635,-2.1423001289367676,-1.3333397221616288,-2.525851551686422,6.111048567086019,1.0159790515899658,-3.0349231402026575
1708443382.6708646,-2.142340898513794,-1.333314688210823,-2.525835100804464,6.111036646157064,1.0159865617752075,-3.034799400960104
1708443382.6728566,-2.1423046588897705,-1.3333278012326737,-2.52586800256838,6.111069786339559,1.0159790515899658,-3.0348897616015833
1708443382.6748645,-2.142324924468994,-1.3334302467158814,-2.525827471409933,6.111042845040121,1.0159908533096313,-3.0348408857928675
1708443382.676864,-2.1423487663269043,-1.3333603155663987,-2.525835100804464,6.111077296524801,1.0159833431243896,-3.034882132207052
1708443382.678904,-2.1423544883728027,-1.333368108873703,-2.525856081639425,6.11105631568984,1.0159505605697632,-3.034849468861715
1708443382.6808786,-2.1423115730285645,-1.333425910477974,-2.525869433079855,6.111044156342306,1.0159995555877686,-3.03486138979067
1708443382.682852,-2.142362117767334,-1.3333931875279923,-2.52588135400881,6.11105631568984,1.0159920454025269,-3.0348528067218226
1708443382.6848528,-2.142327308654785,-1.3334050190499802,-2.525835100804464,6.111039626389303,1.015966773033142,-3.0348690191852015
1708443382.6868904,-2.142329454421997,-1.3333559793284913,-2.52586800256838,6.1110726473625085,1.016007423400879,-3.0348156134234827
1708443382.6888614,-2.142362117767334,-1.3333278608373185,-2.525860611592428,6.1110890982444666,1.015990972518921,-3.0348897616015833
1708443382.690846,-2.142331838607788,-1.333352730875351,-2.525884453450338,6.111051904946127,1.0159995555877686,-3.034849468861715
1708443382.692867,-2.1423044204711914,-1.3333515685847779,-2.5258799234973353,6.1110350964363,1.015966773033142,-3.03486138979067
1708443382.694878,-2.1423161029815674,-1.33333973706279,-2.525835100804464,6.111060845642843,1.0159920454025269,-3.034811321889059
1708443382.6968884,-2.1423745155334473,-1.3333769154599686,-2.52584416071047,6.111113297730245,1.0159833431243896,-3.0348690191852015
1708443382.6988943,-2.1423532962799072,-1.3333681237748642,-2.525818411503927,6.11108015754775,1.0159711837768555,-3.0348528067218226
1708443382.7008524,-2.142331838607788,-1.3333768558553238,-2.52586800256838,6.111044156342306,1.0159952640533447,-3.0348363558398646
1708443382.7028646,-2.1423745155334473,-1.3333932024291535,-2.5258050600634974,6.111113297730245,1.0159387588500977,-3.03489858308901
1708443382.7048724,-2.1423885822296143,-1.3334172380021592,-2.5258305708514612,6.111108767777242,1.0159580707550049,-3.0348408857928675
1708443382.7068508,-2.14237904548645,-1.3333725643209,-2.525827471409933,6.111122119217672,1.0159754753112793,-3.0348570982562464
1708443382.7088704,-2.1423487663269043,-1.33339315772567,-2.525860611592428,6.111038315087118,1.0159549713134766,-3.0348809401141565
1708443382.7108426,-2.142331838607788,-1.3332940948060532,-2.525851551686422,6.111120331078329,1.0159995555877686,-3.034914795552389
1708443382.7128556,-2.1423726081848145,-1.3333072823337098,-2.525851551686422,6.111132252007284,1.0159387588500977,-3.0348363558398646
1708443382.7148826,-2.1423161029815674,-1.3334172678044816,-2.525839630757467,6.111174332886495,1.0159549713134766,-3.0348647276507776
1708443382.71686,-2.1423726081848145,-1.3333222729018708,-2.525872532521383,6.111169683724203,1.0159754753112793,-3.0348451773272913
1708443382.7188547,-2.142401933670044,-1.3333309304765244,-2.52586800256838,6.111132252007284,1.0160083770751953,-3.0348778406726282
1708443382.7208393,-2.142397403717041,-1.3333484095386048,-2.525851551686422,6.111118781357565,1.0159833431243896,-3.0348733107196253
1708443382.722847,-2.1424198150634766,-1.3333603155663987,-2.52582294145693,6.111127841263571,1.015987753868103,-3.0348170439349573
1708443382.7248623,-2.1423771381378174,-1.3333341491273423,-2.525785509740011,6.111127841263571,1.0159920454025269,-3.0348289648639124
1708443382.726848,-2.1423885822296143,-1.3333638173392792,-2.52588135400881,6.111102449684896,1.0159592628479004,-3.034821335469381
1708443382.7288437,-2.1423308849334717,-1.3333800596049805,-2.525790039693014,6.111174332886495,1.0159387588500977,-3.0348170439349573
1708443382.7308345,-2.1423840522766113,-1.3333974343589325,-2.525872532521383,6.111223685532369,1.0159549713134766,-3.034809414540426
1708443382.7328565,-2.1423885822296143,-1.3334006530097504,-2.525839630757467,6.111201274185934,1.0159549713134766,-3.034776035939352
1708443382.734841,-2.1423680782318115,-1.333338425760605,-2.525888744984762,6.11119698265151,1.0159592628479004,-3.034813944493429
1708443382.7368484,-2.1423566341400146,-1.33339315772567,-2.525872532521383,6.111156451493063,1.015987753868103,-3.0347731749164026
1708443382.7388775,-2.1423795223236084,-1.33335596442733,-2.52582294145693,6.111183512001791,1.0159964561462402,-3.0347612539874476
1708443382.7408864,-2.1424202919006348,-1.3333681982806702,-2.525794331227438,6.11113857009963,1.0159920454025269,-3.0347374121295374
1708443382.7428591,-2.1423749923706055,-1.3333725643209,-2.5257988611804407,6.11115192154006,1.0159790515899658,-3.0347300211535853
1708443382.7448695,-2.1424338817596436,-1.3333637875369568,-2.52584416071047,6.111187922745504,1.0159268379211426,-3.0346642176257532
1708443382.7468412,-2.1424224376678467,-1.3333681386760254,-2.525785509740011,6.111179101258077,1.0159635543823242,-3.0346861521350306
1708443382.748851,-2.1424338817596436,-1.3333603304675599,-2.525851551686422,6.111178982048788,1.0159964561462402,-3.0345755259143274
1708443382.750864,-2.142401933670044,-1.3333472323468705,-2.525851551686422,6.111159312516012,1.0159430503845215,-3.034605328236715
1708443382.752838,-2.1423590183258057,-1.3333962869695206,-2.5258305708514612,6.111183512001791,1.0159549713134766,-3.0345891157733362
1708443382.7548678,-2.1423661708831787,-1.3333681386760254,-2.525818411503927,6.111178982048788,1.0159592628479004,-3.0345738569842737
1708443382.756846,-2.142397403717041,-1.3333800745061417,-2.525860611592428,6.111162292748251,1.0159311294555664,-3.034525696431295
1708443382.7588413,-2.142338752746582,-1.3333681684783478,-2.525790039693014,6.11126075962142,1.0159516334533691,-3.0345006624804896
1708443382.7608714,-2.142413377761841,-1.3333725643209,-2.525806252156393,6.111198413162985,1.0159592628479004,-3.034424130116598
1708443382.7628512,-2.142392873764038,-1.3333725941232224,-2.52588135400881,6.111204373627462,1.0159592628479004,-3.0344298521624964
1708443382.7648318,-2.1423885822296143,-1.3333638322404404,-2.525806252156393,6.1112356064613245,1.0159505605697632,-3.0343735853778284
1708443382.7668307,-2.1424338817596436,-1.333396316771843,-2.525818411503927,6.111207353859701,1.0159592628479004,-3.0343177954303187
1708443382.7688317,-2.142404317855835,-1.3333963316730042,-2.525806252156393,6.111216294556417,1.0159430503845215,-3.0341997782336634
1708443382.7708728,-2.1424291133880615,-1.3333919507316132,-2.5258365313159388,6.111240136414327,1.0159387588500977,-3.0341981093036097
1708443382.7728279,-2.1424248218536377,-1.3333919656327744,-2.525860611592428,6.1112356064613245,1.0159920454025269,-3.034109894429342
1708443382.7748616,-2.142397403717041,-1.3333594512990494,-2.525818411503927,6.111256587296285,1.0159754753112793,-3.034003798161642
1708443382.776828,-2.1424460411071777,-1.3333756786635895,-2.52582294145693,6.11128185966567,1.0159430503845215,-3.033959929143087
1708443382.7788305,-2.142404317855835,-1.3334288609078904,-2.525860611592428,6.111198413162985,1.015967845916748,-3.03388482729067
1708443382.780848,-2.1423885822296143,-1.333412842159607,-2.5258198420154017,6.111222255020895,1.0159711837768555,-3.0338059107409876
1708443382.7828562,-2.142411470413208,-1.3333919805339356,-2.525818411503927,6.111251938133993,1.0159754753112793,-3.033684317265646
1708443382.7848377,-2.142441511154175,-1.3334085506251832,-2.525839630757467,6.111240136414327,1.0159549713134766,-3.0335808436023157
1708443382.7868514,-2.1424224376678467,-1.3333550852588196,-2.525860611592428,6.111231195717611,1.0159311294555664,-3.0334675947772425
1708443382.7888284,-2.142413377761841,-1.3333919954350968,-2.525801960621969,6.1112698195274255,1.0159268379211426,-3.0333529154406946
1708443382.7908335,-2.1424460411071777,-1.3333963018706818,-2.5258470217334192,6.1112356064613245,1.0159711837768555,-3.0332778135882776
1708443382.792845,-2.1424460411071777,-1.3334215891412278,-2.525806252156393,6.111209976464071,1.0159311294555664,-3.0331040064441126
1708443382.794868,-2.1424460411071777,-1.3334128868630906,-2.525839630757467,6.1111864922340295,1.015967845916748,-3.0330615679370325
1708443382.7968297,-2.142437219619751,-1.3333998930505295,-2.525851551686422,6.111275779991903,1.015967845916748,-3.0329225699054163
1708443382.7988303,-2.142454147338867,-1.333358423118927,-2.52586800256838,6.111222255020895,1.016016960144043,-3.03277832666506
1708443382.8008637,-2.1424381732940674,-1.3333746653846283,-2.5258470217334192,6.111181962281027,1.0159963369369507,-3.032597366963522
1708443382.8028758,-2.1423544883728027,-1.3333955717137833,-2.525792900715963,6.111243116646566,1.0159711837768555,-3.032433096562521
1708443382.8048387,-2.1424496173858643,-1.3333984327367325,-2.525818411503927,6.111222255020895,1.0159224271774292,-3.032311026250021
1708443382.8068726,-2.142397403717041,-1.333472491507866,-2.5258799234973353,6.111268389015951,1.015926718711853,-3.0321677366839808
1708443382.8088279,-2.142401933670044,-1.3334799867919465,-2.5258634726153772,6.11122344711379,1.0159797668457031,-3.0319374243365687
1708443382.810843,-2.142404317855835,-1.3334918779185791,-2.525884453450338,6.111214387207784,1.0159430503845215,-3.0318310896502894
1708443382.812841,-2.1423840522766113,-1.3335084927133103,-2.5258589426623743,6.111251938133993,1.0159473419189453,-3.031614128743307
1708443382.8148403,-2.1424248218536377,-1.3335438978723069,-2.5258470217334192,6.111218917160787,1.015966773033142,-3.0313850084887903
1708443382.816832,-2.142437219619751,-1.3334702265313645,-2.525872532521383,6.111240136414327,1.0159754753112793,-3.0312886873828333
1708443382.8188605,-2.142437219619751,-1.3334832054427643,-2.525835100804464,6.111218917160787,1.0160082578659058,-3.031076494847433
1708443382.82084,-2.1423749923706055,-1.3335114282420655,-2.525893274937765,6.111240136414327,1.0159711837768555,-3.030919138585226
1708443382.8229084,-2.142411470413208,-1.3335233491710206,-2.52584416071047,6.111214506417074,1.015987753868103,-3.0305987040149134
1708443382.8248856,-2.142408847808838,-1.3335352551988144,-2.52586800256838,6.111240136414327,1.016032338142395,-3.0304129759417933
1708443382.8268714,-2.1424293518066406,-1.333556131725647,-2.5258634726153772,6.111216175347128,1.0160359144210815,-3.030206267033712
1708443382.8288302,-2.1424248218536377,-1.3335146617940445,-2.525888744984762,6.111211764603414,1.0160402059555054,-3.0298922697650355
1708443382.8308284,-2.1424460411071777,-1.3335724037936707,-2.525856081639425,6.111220705300131,1.0160062313079834,-3.0297017733203333
1708443382.832841,-2.1424338817596436,-1.333575577741005,-2.52586800256838,6.111195432930746,1.0160391330718994,-3.0294655005084437
1708443382.8348424,-2.1424291133880615,-1.3335265231183548,-2.5258470217334192,6.11123679855422,1.0160391330718994,-3.029153649006979
1708443382.8368533,-2.1424291133880615,-1.3335430783084412,-2.525884453450338,6.111244547158041,1.0160630941390991,-3.028894011174337
1708443382.838862,-2.1423749923706055,-1.3335308593562623,-2.5258799234973353,6.111232268601217,1.016050934791565,-3.028565231953756
1708443382.8408644,-2.142432689666748,-1.333519072537758,-2.5258873144732874,6.111183512001791,1.0161046981811523,-3.028278175984518
1708443382.8428702,-2.142415761947632,-1.3335755479386826,-2.5259037653552454,6.111183512001791,1.0160675048828125,-3.0279832522021692
1708443382.8448474,-2.1423885822296143,-1.3335190278342743,-2.5259535948382776,6.11123417594985,1.0160958766937256,-3.0276268164264124
1708443382.8468525,-2.1423661708831787,-1.3335430783084412,-2.525940004979269,6.111217725067892,1.0161932706832886,-3.0273049513446253
1708443382.8488567,-2.1423614025115967,-1.3335027259639283,-2.5259936491595667,6.111171233444967,1.0161683559417725,-3.026886288319723
1708443382.8508396,-2.1423840522766113,-1.333518998031952,-2.52592641512026,6.111217725067892,1.0161552429199219,-3.026552979146139
1708443382.852839,-2.142338752746582,-1.3335190278342743,-2.5259771982776087,6.111138450890341,1.0162081718444824,-3.026184384022848
1708443382.8548343,-2.142352342605591,-1.3335114133409043,-2.5259879271136683,6.11113070228652,1.0162410736083984,-3.02578050294985
1708443382.856839,-2.1423230171203613,-1.333491177564003,-2.525954786931173,6.111144172936239,1.0162402391433716,-3.0254104773150843
1708443382.8588488,-2.1423354148864746,-1.3335071069053193,-2.525971237813131,6.111102449684896,1.0162805318832397,-3.0249581972705286
1708443382.8608336,-2.1423771381378174,-1.3335156601718445,-2.525971237813131,6.111062276154318,1.0162513256072998,-3.0245307127581995
1708443382.862859,-2.1423656940460205,-1.333520085816719,-2.5260358492480677,6.111141192704,1.0163124799728394,-3.024125639592306
1708443382.864831,-2.142324924468994,-1.3335243624499817,-2.5260074774371546,6.111059295922079,1.0163037776947021,-3.023708168660299
1708443382.8668349,-2.1423699855804443,-1.3334875863841553,-2.5260074774371546,6.1110890982444666,1.01633620262146,-3.023214880620138
1708443382.8688607,-2.142357587814331,-1.3335190278342743,-2.5260687510119837,6.111032235413351,1.0163602828979492,-3.022724692021505
1708443382.870846,-2.1423497200012207,-1.3334939938834687,-2.52606445947756,6.111024725228109,1.0163713693618774,-3.022287193928854
1708443382.8728316,-2.142301082611084,-1.3335233491710206,-2.526038948689596,6.111008393555441,1.0164203643798828,-3.0217912832843226
1708443382.8748617,-2.1422886848449707,-1.3335233491710206,-2.5260959307300013,6.110899078636923,1.0164239406585693,-3.021247212086813
1708443382.8768325,-2.1423089504241943,-1.3335233491710206,-2.526116673146383,6.11093949058608,1.0164523124694824,-3.0207675139056605
1708443382.8788497,-2.142277240753174,-1.3335438978723069,-2.5261362234698694,6.110938179283895,1.0164763927459717,-3.020308796559469
1708443382.880829,-2.1422841548919678,-1.3335604977658768,-2.5261152426349085,6.110920178681173,1.0165419578552246,-3.019761387501852
1708443382.8828795,-2.142301082611084,-1.3335146021893998,-2.52616793314089,6.110841023712911,1.016540765762329,-3.019273344670431
1708443382.8848264,-2.14225697517395,-1.333491177564003,-2.5261181036578577,6.110829102783956,1.0165441036224365,-3.018755022679464
1708443382.8868444,-2.142223358154297,-1.3334824454835434,-2.5261226336108606,6.1108213541801355,1.0166139602661133,-3.018175188695089
1708443382.88883,-2.1422321796417236,-1.3334868562272568,-2.526212517415182,6.110723125725546,1.016608476638794,-3.0175634066211146
1708443382.8909104,-2.14227032661438,-1.3335755926421662,-2.526187245045797,6.110724198609152,1.016653060913086,-3.0170169512378138
1708443382.8928642,-2.1422364711761475,-1.3335396212390442,-2.5262532869922083,6.110700475960531,1.0166815519332886,-3.016425434743063
1708443382.8948927,-2.1422278881073,-1.3335233342698594,-2.5262067953692835,6.110651004105367,1.0167341232299805,-3.0158050696002405
1708443382.8968601,-2.1422295570373535,-1.333507092004158,-2.5263057390796106,6.110673415451803,1.0167210102081299,-3.015179697667257
1708443382.898888,-2.1422226428985596,-1.333518998031952,-2.526221815739767,6.1106454012687585,1.016770362854004,-3.0146058241473597
1708443382.9008417,-2.142188787460327,-1.3335439425757905,-2.526304546986715,6.110621320992269,1.01676607131958,-3.013899628316061
1708443382.9028487,-2.14219331741333,-1.3335233193686982,-2.5263119379626673,6.110588538437643,1.0167853832244873,-3.013327185307638
1708443382.9048517,-2.1422066688537598,-1.3335481596044083,-2.5263329187976282,6.110592949181356,1.0168466567993164,-3.0126851240741175
1708443382.9068346,-2.14216947555542,-1.3335439276746293,-2.5263028780566614,6.110565888672628,1.016862154006958,-3.011939350758688
1708443382.908835,-2.1421003341674805,-1.333507092004158,-2.5263522307025355,6.110567080765524,1.0168980360031128,-3.011256519948141
1708443382.910831,-2.1420843601226807,-1.3335276705077668,-2.5263643900500696,6.110483634262838,1.0169178247451782,-3.010594431553976
1708443382.9128578,-2.14206862449646,-1.333547444348671,-2.526400391255514,6.110423910408773,1.0169538259506226,-3.009890858327047
1708443382.9148552,-2.142003059387207,-1.3334824603847046,-2.526445452366964,6.110428321152487,1.0170193910598755,-3.0092080275165003
1708443382.916832,-2.142033338546753,-1.3335156750730057,-2.5264483133899134,6.110401379853048,1.0170217752456665,-3.008435312901632
1708443382.9188619,-2.1420094966888428,-1.333495483999588,-2.5264139811145228,6.110335576325216,1.0170501470565796,-3.00779635110964
1708443382.9208312,-2.14194393157959,-1.3334756952575226,-2.5264559427844446,6.11039565780715,1.017114281654358,-3.006974522267477
1708443382.9228644,-2.1419076919555664,-1.3334788990071793,-2.526463333760397,6.110383617668905,1.0171186923980713,-3.0062409082995813
1708443382.9248726,-2.1419053077697754,-1.3335156750730057,-2.526515785847799,6.11036108711318,1.0171537399291992,-3.005371634160177
1708443382.9270165,-2.141869068145752,-1.333520085816719,-2.5264859835254114,6.110250580101766,1.0171735286712646,-3.004584852849142
1708443382.9288776,-2.1418416500091553,-1.3334868413260956,-2.5265265146838587,6.1101965782936,1.0172151327133179,-3.003795925770895
1708443382.9308553,-2.1418392658233643,-1.3335277152112504,-2.5265262762652796,6.110174286156454,1.0172795057296753,-3.003016535435812
1708443382.93285,-2.141817808151245,-1.3334626716426392,-2.526604477559225,6.110145914345541,1.0172414779663086,-3.0022297541247767
1708443382.9348948,-2.141787052154541,-1.3334997308305283,-2.526619259511129,6.110105502396383,1.0173263549804688,-3.0014033953296106
1708443382.9368732,-2.1417577266693115,-1.3334954989007493,-2.526586357747213,6.110083210259237,1.017383337020874,-3.000539843236105
1708443382.9388723,-2.1417622566223145,-1.333507092004158,-2.5266311804400843,6.110089289933004,1.017398715019226,-2.9996891657458704
1708443382.9408445,-2.1417384147644043,-1.3334876012853165,-2.5266884008990687,6.110048639565267,1.0174185037612915,-2.998847786580221
1708443382.9428475,-2.1416773796081543,-1.3335128736547013,-2.5266838709460657,6.109927761345663,1.0174543857574463,-2.9979994932757776
1708443382.9448817,-2.14169979095459,-1.3334584099105378,-2.526695791875021,6.109829175263204,1.0175353288650513,-2.9971390406238
1708443382.9468563,-2.1416544914245605,-1.3335042011788865,-2.526719633732931,6.10988877990798,1.017510175704956,-2.996185843144552
1708443382.9488652,-2.1416261196136475,-1.333471344118454,-2.5267677942859095,6.109819876938619,1.017541766166687,-2.9953118006335657
1708443382.9508355,-2.141639471054077,-1.3335041564754029,-2.5267961660968226,6.109752881317892,1.0176194906234741,-2.9943490664111536
1708443382.9528782,-2.141603469848633,-1.3335156750730057,-2.526733462010519,6.109727370529928,1.0176349878311157,-2.9933610598193567
1708443382.9548717,-2.141570568084717,-1.3335114282420655,-2.526815954838888,6.109683739929952,1.0176784992218018,-2.992502276097433
1708443382.9568713,-2.1415536403656006,-1.3334506762078782,-2.526865307484762,6.109587061196127,1.017747163772583,-2.9915669600116175
1708443382.9588768,-2.1414990425109863,-1.3334496480277558,-2.526856247578756,6.109571802407064,1.0177713632583618,-2.9905739466296595
1708443382.960882,-2.1415328979492188,-1.3334997457316895,-2.5268922487842005,6.109498965531149,1.0178031921386719,-2.98957330385317
1708443382.9628768,-2.141475200653076,-1.3335406643203278,-2.5268877188311976,6.1095420000846765,1.0178478956222534,-2.9886351267444056
1708443382.964857,-2.141453266143799,-1.3335114282420655,-2.526865069066183,6.109501588135519,1.0179123878479004,-2.9877458254443567
1708443382.9668453,-2.141390323638916,-1.3334997606328507,-2.526886049901144,6.109359490662374,1.0179274082183838,-2.9867168108569544
1708443382.9688582,-2.141371965408325,-1.3334876012853165,-2.5269761721240442,6.109368431359091,1.0179636478424072,-2.9858043829547327
1708443382.9708517,-2.1413514614105225,-1.3335128140500565,-2.526997152959005,6.109349119454183,1.01803719997406,-2.9847715536700647
1708443382.9728754,-2.1412858963012695,-1.3335171204856415,-2.5270002524005335,6.109302985459127,1.01804780960083,-2.983757559453146
1708443382.974875,-2.1412835121154785,-1.3335276705077668,-2.526989523564474,6.1093119261558435,1.0180554389953613,-2.982837502156393
1708443382.9769006,-2.1412312984466553,-1.3334831309369584,-2.52702242532839,6.10915635803298,1.0181288719177246,-2.9818180243121546
1708443382.9788814,-2.141170024871826,-1.333496243958809,-2.527072254811422,6.109136807709493,1.0181561708450317,-2.980779472981588
1708443382.9808655,-2.1411757469177246,-1.3335319322398682,-2.527104918156759,6.10906075218276,1.0181877613067627,-2.979703966771261
1708443382.9828553,-2.141122579574585,-1.3335156750730057,-2.5271034876452845,6.1090580103691,1.0182403326034546,-2.978743855153219
1708443382.9848797,-2.141111135482788,-1.333446429376938,-2.527151648198263,6.109014379769125,1.018263339996338,-2.9775999228106897
1708443382.9868789,-2.1410229206085205,-1.3334919524243851,-2.5271921793567103,6.108941066056051,1.018312692642212,-2.976619545613424
1708443382.9889066,-2.1410768032073975,-1.3334301871112366,-2.5271785894977015,6.108872163086691,1.0183892250061035,-2.9755054155932825
1708443382.9908733,-2.1410088539123535,-1.333471344118454,-2.5271952787982386,6.108915555268087,1.018388032913208,-2.974431578313009
1708443382.992859,-2.1409523487091064,-1.3334222745946427,-2.5271952787982386,6.10882734039382,1.0184118747711182,-2.9733458201037806
1708443382.9948533,-2.1409409046173096,-1.333504931335785,-2.527238432561056,6.108824360161581,1.018497109413147,-2.972140137349264
1708443382.9968557,-2.1408798694610596,-1.3334680807641526,-2.5272627512561243,6.108724343567648,1.0185778141021729,-2.971043888722555
1708443382.9988608,-2.1408469676971436,-1.3334887337735672,-2.5273001829730433,6.108682381897726,1.0186220407485962,-2.9698832670794886
1708443383.000871,-2.1408286094665527,-1.3334309172681351,-2.5273240248309534,6.108610856323995,1.0186611413955688,-2.968747679387228
1708443383.0028794,-2.1408002376556396,-1.3334962588599701,-2.5273481051074427,6.108600246697225,1.0186480283737183,-2.9676242510425013
1708443383.004827,-2.140784502029419,-1.3333984327367325,-2.527334515248434,6.1085030911262415,1.018733024597168,-2.966531578694479
1708443383.006872,-2.1407434940338135,-1.333430902366974,-2.5274201075183313,6.108459579735555,1.0187321901321411,-2.965400997792379
1708443383.0088549,-2.1406633853912354,-1.333439664249756,-2.5274277369128626,6.108416425972738,1.0188175439834595,-2.9642441908465784
1708443383.0108585,-2.140685558319092,-1.3334114712527771,-2.5274441877948206,6.108326661377706,1.0188535451889038,-2.9629929701434534
1708443383.0128388,-2.1406235694885254,-1.333391250377037,-2.527458969746725,6.108324992447653,1.0189104080200195,-2.9617331663714808
1708443383.0148497,-2.1406006813049316,-1.3334407222322007,-2.527487341557638,6.108241307526388,1.0189168453216553,-2.960515085850851
1708443383.016867,-2.140634536743164,-1.3333790016225358,-2.5275443235980433,6.108202564507284,1.0190184116363525,-2.959339205418722
1708443383.0188377,-2.1405563354492188,-1.3333550703576584,-2.5275116602527063,6.108103978424825,1.0190337896347046,-2.9580686728106897
1708443383.0208423,-2.1405255794525146,-1.3333646369031449,-2.5275760332690638,6.108097898751058,1.0190744400024414,-2.95693284669985
1708443383.022869,-2.140550374984741,-1.3333472323468705,-2.5275383631335657,6.108000623970785,1.019110083580017,-2.955759350453512
1708443383.0249038,-2.140439510345459,-1.333314762716629,-2.527588192616598,6.107941138535299,1.0191584825515747,-2.954635206853048
1708443383.0268917,-2.1404380798339844,-1.3333559793284913,-2.527583662663595,6.107867824822225,1.0192142724990845,-2.9534226099597376
1708443383.0288491,-2.1404054164886475,-1.3333246272853394,-2.5276315847979944,6.107817041664877,1.0191936492919922,-2.9522693792926233
1708443383.030873,-2.1403939723968506,-1.3333646369031449,-2.5276389757739466,6.107884037285604,1.0192162990570068,-2.9511147181140345
1708443383.0328739,-2.140305757522583,-1.3332984906486054,-2.527686897908346,6.10776303985671,1.0192941427230835,-2.949893061314718
1708443383.034867,-2.140289783477783,-1.3333527159741898,-2.527665917073385,6.10770200470046,1.019317865371704,-2.948664967213766
1708443383.0368602,-2.140233278274536,-1.3333080571940918,-2.527715269719259,6.10764633396224,1.0193336009979248,-2.94749361673464
1708443383.0388558,-2.140120267868042,-1.333332137470581,-2.5277708212481897,6.1075912592704675,1.0193979740142822,-2.9463139216052454
1708443383.040873,-2.1401379108428955,-1.3333158952048798,-2.5278127829181116,6.107547867089071,1.0194752216339111,-2.9450352827655237
1708443383.0428965,-2.140155792236328,-1.3333115589669724,-2.527811590825216,6.107438790589132,1.0194790363311768,-2.943841282521383
1708443383.0448432,-2.140110492706299,-1.3333364588073273,-2.527828041707174,6.107439982682028,1.019497275352478,-2.942571465169088
1708443383.0468705,-2.1400742530822754,-1.3332921278527756,-2.5278144518481653,6.107377397805013,1.019566297531128,-2.941336695347921
1708443383.0489016,-2.139993906021118,-1.3333494526198884,-2.5278640429126185,6.107296812325277,1.0196722745895386,-2.9400599638568323
1708443383.0508866,-2.139958620071411,-1.3332921278527756,-2.527874533330099,6.1072577116783044,1.0196948051452637,-2.9387877623187464
1708443383.0528533,-2.1399154663085938,-1.3332949739745636,-2.527879063283102,6.107139813690939,1.0197476148605347,-2.9374669233905237
1708443383.054879,-2.1399028301239014,-1.3332921278527756,-2.527947727833883,6.107077109604635,1.019798994064331,-2.936150137578146
1708443383.0568478,-2.1398587226867676,-1.3333080571940918,-2.5279176870929163,6.107008206635275,1.0198798179626465,-2.9349125067340296
1708443383.0588639,-2.1398279666900635,-1.3333288741162796,-2.5279703775988978,6.106948721199789,1.0199037790298462,-2.933577362691061
1708443383.0608523,-2.1397953033447266,-1.3332877171090622,-2.527998749409811,6.106871950417318,1.0199278593063354,-2.9323044458972376
1708443383.0628495,-2.139765739440918,-1.3333246272853394,-2.528015438710348,6.106817114144125,1.0199520587921143,-2.930953327809469
1708443383.064868,-2.1397182941436768,-1.3333246272853394,-2.5280228296863,6.1067824242408655,1.019974946975708,-2.929610077534811
1708443383.0668464,-2.1396918296813965,-1.333271474843361,-2.5280545393573206,6.1066733477409265,1.0200273990631104,-2.928354088460104
1708443383.068846,-2.1396970748901367,-1.333312304025032,-2.5280469099627894,6.106580722122946,1.0201048851013184,-2.9269819895373743
1708443383.0708578,-2.1396431922912598,-1.3333364588073273,-2.528116051350729,6.106515037804403,1.0201234817504883,-2.925652805958883
1708443383.0728388,-2.1395583152770996,-1.333283395772316,-2.528172556553976,6.106416332512655,1.020139217376709,-2.9243603388415735
1708443383.0748477,-2.139543294906616,-1.3333246272853394,-2.528147284184591,6.1063493368919275,1.0202207565307617,-2.923159424458639
1708443383.076845,-2.1395249366760254,-1.333263875251152,-2.5281716028796595,6.106283414154806,1.0202720165252686,-2.9218133131610315
1708443383.078847,-2.1394505500793457,-1.333276943569519,-2.5282073656665247,6.106223571091451,1.020312786102295,-2.920593802128927
1708443383.0808523,-2.1394240856170654,-1.333300696020462,-2.5282238165484827,6.106183039933004,1.0203356742858887,-2.9192989508258265
1708443383.0828447,-2.139392375946045,-1.3332877171090622,-2.528210226689474,6.106091844826498,1.0203882455825806,-2.9179561773883265
1708443383.0848565,-2.139322519302368,-1.3332758855870743,-2.5282719771014612,6.105948555260458,1.020436406135559,-2.916649405156271
1708443383.0868495,-2.1393277645111084,-1.3332725328258057,-2.5282793680774134,6.105972158699789,1.0204482078552246,-2.915422503148214
1708443383.088845,-2.1392643451690674,-1.3333050322583695,-2.5283361116992396,6.105851280480184,1.0204710960388184,-2.9140551725970667
1708443383.0908632,-2.139277696609497,-1.333276943569519,-2.528325859700338,6.105818259506979,1.0205485820770264,-2.912677590047018
1708443383.0928488,-2.1391634941101074,-1.3332234633019944,-2.528375212346212,6.1056885597999475,1.0205727815628052,-2.911354366933004
1708443383.0948591,-2.1391725540161133,-1.3332234633019944,-2.5283826033221644,6.105658399849691,1.020641565322876,-2.909968439732687
1708443383.0968552,-2.139055013656616,-1.3332278740457078,-2.5284069220172327,6.105582105904379,1.0206315517425537,-2.908624235783712
1708443383.0988853,-2.139073610305786,-1.3331993830255051,-2.5284562746631067,6.105479109078207,1.0206971168518066,-2.9071732203113
1708443383.1008804,-2.1389753818511963,-1.3331993830255051,-2.528459135686056,6.105361211090841,1.0207202434539795,-2.905797306691305
1708443383.1028492,-2.1389222145080566,-1.3331917834332963,-2.528454605733053,6.105331170349874,1.020756483078003,-2.9044211546527308
1708443383.104866,-2.1389172077178955,-1.3331917834332963,-2.5284999052630823,6.105226504593649,1.0207849740982056,-2.9030256907092493
1708443383.1068616,-2.138885498046875,-1.3332167726806183,-2.5285401980029505,6.10513066032485,1.020836353302002,-2.9016338030444544
1708443383.1088421,-2.1388332843780518,-1.3332167726806183,-2.528588358555929,6.105006921082296,1.0209007263183594,-2.90017277399172
1708443383.1108377,-2.138801336288452,-1.333151788716652,-2.5285537878619593,6.104975092201986,1.0209367275238037,-2.8987370173083704
1708443383.1128452,-2.138749361038208,-1.333188847904541,-2.5286439100848597,6.104911196022787,1.021005392074585,-2.897273365651266
1708443383.114865,-2.138730764389038,-1.3331474524787446,-2.5286105314837855,6.104791509896078,1.0210493803024292,-2.8958521525012415
1708443383.116848,-2.138629198074341,-1.3331726056388398,-2.5286603609668177,6.104749548226156,1.0210615396499634,-2.8943877855883997
1708443383.118837,-2.1386468410491943,-1.3331726056388398,-2.528670612965719,6.104614841728964,1.0210809707641602,-2.8929997126208704
1708443383.12084,-2.1385812759399414,-1.3331474524787446,-2.5286992231952112,6.1045416472251794,1.021182894706726,-2.8916600386248987
1708443383.1228504,-2.1385269165039062,-1.3331659150174637,-2.5287306944476526,6.104431259423055,1.0211981534957886,-2.8901689688311976
1708443383.1248646,-2.1384904384613037,-1.333124355678894,-2.5287712256061,6.104373085289755,1.0212626457214355,-2.8888402620898646
1708443383.1268723,-2.1384003162384033,-1.3331330877593537,-2.528717104588644,6.104321825295248,1.0212527513504028,-2.887378756199972
1708443383.1288917,-2.138394355773926,-1.3331366044333954,-2.5287743250476282,6.104194986611166,1.0213136672973633,-2.885958973561422
1708443383.130862,-2.1383721828460693,-1.333169088964798,-2.5288401285754603,6.104085671692648,1.0213531255722046,-2.884622875844137
1708443383.1328664,-2.1382503509521484,-1.333132268195488,-2.528846327458517,6.104047047882833,1.0213981866836548,-2.883152786885397
1708443383.1348588,-2.138237953186035,-1.3331734252027054,-2.5288265387164515,6.103930580406942,1.0214416980743408,-2.8817201296435755
1708443383.13687,-2.1382522583007812,-1.3331080985120316,-2.52889854112734,6.103836524277487,1.0215195417404175,-2.880160395299093
1708443383.138848,-2.138150453567505,-1.3331049245646973,-2.528914992009298,6.103767382889547,1.0215590000152588,-2.878767792378561
1708443383.1408439,-2.138061046600342,-1.3331659150174637,-2.5289226214038294,6.103640305786886,1.021562099456787,-2.877251927052633
1708443383.1428604,-2.1381001472473145,-1.3331298244050522,-2.5289347807513636,6.103547680168905,1.0216383934020996,-2.8757668177234095
1708443383.1448557,-2.1380648612976074,-1.3331211668303986,-2.52903658548464,6.103447544365682,1.021707534790039,-2.8742623964892786
1708443383.146837,-2.1379871368408203,-1.333125503068306,-2.528999153767721,6.10338174083785,1.0217312574386597,-2.8727334181415003
1708443383.1488402,-2.13787841796875,-1.3331080985120316,-2.5290351549731653,6.103285777359762,1.0217961072921753,-2.8711991945849817
1708443383.150855,-2.1378588676452637,-1.3330561828664322,-2.5290380159961146,6.10316942909316,1.0217905044555664,-2.8698061148272913
1708443383.1528492,-2.1378111839294434,-1.333125503068306,-2.5290754477130335,6.103073823242941,1.0218055248260498,-2.8682480494128626
1708443383.1548429,-2.1377792358398438,-1.3330200922540207,-2.529128138219015,6.1029525873954675,1.0218627452850342,-2.8668020407306116
1708443383.1568491,-2.137723684310913,-1.3330648404410859,-2.529127899800436,6.102906572609701,1.0219478607177734,-2.865265671406881
1708443383.1588614,-2.137714385986328,-1.3330659878304978,-2.5291264692889612,6.102831709175863,1.0219794511795044,-2.8638015429126185
1708443383.1608286,-2.1376240253448486,-1.3330746305039902,-2.5291340986834925,6.1026989100273035,1.0219948291778564,-2.8622964064227503
1708443383.1628454,-2.1375515460968018,-1.3330331605723877,-2.529177729283468,6.102611648827352,1.022059679031372,-2.8608012835132044
1708443383.164856,-2.1375036239624023,-1.3330081713250657,-2.5292392412768763,6.102523672371664,1.0220876932144165,-2.859352413808004
1708443383.1668599,-2.137415647506714,-1.3330331605723877,-2.529227081929342,6.1024160263831995,1.022156834602356,-2.8578456083880823
1708443383.1688437,-2.137403726577759,-1.3330136698535462,-2.5292392412768763,6.102332222252645,1.022179365158081,-2.8564775625811976
1708443383.1708293,-2.1373767852783203,-1.3329634231380005,-2.5292750040637415,6.102276909142294,1.0222275257110596,-2.8549681345569056
1708443383.1728566,-2.137312889099121,-1.3329605770162125,-2.5292659441577356,6.102141248970785,1.0222804546356201,-2.853560749684469
1708443383.1748383,-2.137239933013916,-1.3329973977855225,-2.52934700647463,6.102025973587789,1.0223369598388672,-2.8521083037005823
1708443383.1768777,-2.13722562789917,-1.3329735559276124,-2.5293918291675013,6.10189317443923,1.0223314762115479,-2.850600783024923
1708443383.1788445,-2.137157678604126,-1.3329519194415589,-2.5294085184680384,6.101879346161642,1.0223839282989502,-2.8490760962115687
1708443383.1808422,-2.1371266841888428,-1.3329938066056748,-2.5293830076800745,6.101685035019674,1.02243971824646,-2.8475423494922083
1708443383.1828306,-2.1370656490325928,-1.3329450649074097,-2.529456679021017,6.101614701538839,1.0224844217300415,-2.846074644719259
1708443383.184882,-2.1370339393615723,-1.3329407286695023,-2.5294671694384974,6.101531255036154,1.022537112236023,-2.844560686741964
1708443383.186882,-2.136932134628296,-1.3329778772643586,-2.5294745604144495,6.101387488632955,1.0225598812103271,-2.843051020299093
1708443383.1888316,-2.136918306350708,-1.3329041016152878,-2.5295615831958216,6.101281630783834,1.0225927829742432,-2.841588083897726
1708443383.1908338,-2.136861562728882,-1.3329660457423707,-2.529522482548849,6.101208197861471,1.0226856470108032,-2.840055529271261
1708443383.1928437,-2.136800765991211,-1.332970381980278,-2.529563013707296,6.101063120156088,1.0227051973342896,-2.838583771382467
1708443383.1948614,-2.1367785930633545,-1.3329050552896042,-2.5295777956592005,6.1010334370429895,1.0227534770965576,-2.836889092122213
1708443383.196861,-2.136735439300537,-1.3329224598458786,-2.5296438376056116,6.100885498314657,1.022752285003662,-2.835247580205099
1708443383.1988375,-2.136650562286377,-1.3328841638616105,-2.529658857976095,6.100780832558431,1.022833228111267,-2.8337822596179407
1708443383.2008395,-2.1365931034088135,-1.332929940228798,-2.529696528111593,6.100685107498922,1.0228900909423828,-2.8322258631335657
1708443383.2028732,-2.136598587036133,-1.3329181385091324,-2.5297024885760706,6.100655185967245,1.0228921175003052,-2.830642048512594
1708443383.2048454,-2.1365509033203125,-1.3328603220037003,-2.5297308603869837,6.100550639420309,1.0229533910751343,-2.8292160669909876
1708443383.2068448,-2.136503219604492,-1.332892806535103,-2.529776159917013,6.100456225662985,1.023022174835205,-2.8277340571032923
1708443383.2088513,-2.1364259719848633,-1.3329462570003052,-2.52979547182192,6.100339877396383,1.023057222366333,-2.8261569182025355
1708443383.2108672,-2.1363964080810547,-1.3328660291484375,-2.5298522154437464,6.100244271546163,1.0231066942214966,-2.82467228571047
1708443383.2128458,-2.1363601684570312,-1.3328896176866074,-2.529872004185812,6.100106465607443,1.0231215953826904,-2.823122803364889
1708443383.2148576,-2.1363043785095215,-1.3329224598458786,-2.529895846043722,6.100011098175802,1.0231730937957764,-2.8216233889209192
1708443383.216848,-2.136242389678955,-1.332911269073822,-2.529865805302755,6.099953877716818,1.0232386589050293,-2.8200162092791956
1708443383.2188616,-2.13612961769104,-1.3328896325877686,-2.5299320856677454,6.099819409638204,1.0232868194580078,-2.81854755083193
1708443383.2208564,-2.136153221130371,-1.332812712793686,-2.5299766699420374,6.09968780258254,1.0233019590377808,-2.8169968763934534
1708443383.2228622,-2.136096954345703,-1.3328747165254136,-2.529958788548605,6.099646317749777,1.0234071016311646,-2.8153753916369837
1708443383.224886,-2.136056900024414,-1.3328462702086945,-2.530032459889547,6.099517571717062,1.0234342813491821,-2.8137672583209437
1708443383.226891,-2.135965347290039,-1.3328462702086945,-2.5300307909594935,6.09941457489089,1.0234986543655396,-2.81218129793276
1708443383.2288535,-2.1358838081359863,-1.332859383230545,-2.5300427118884485,6.099309670716085,1.0235097408294678,-2.8105643431292933
1708443383.230863,-2.135869026184082,-1.3328300279429932,-2.53005034128298,6.099203693657675,1.0235621929168701,-2.808885637913839
1708443383.232865,-2.135829210281372,-1.3328343492797394,-2.530024592076437,6.099111068039694,1.0236802101135254,-2.807303492222921
1708443383.2348552,-2.1357367038726807,-1.332837627535202,-2.530048672352926,6.099029052048483,1.0236914157867432,-2.8056522051440638
1708443383.2368584,-2.135704517364502,-1.3328268241933365,-2.5301345030414026,6.098953950196066,1.0237469673156738,-2.803971592579977
1708443383.238879,-2.1356446743011475,-1.332826853995659,-2.5301132837878626,6.09884940364913,1.0238112211227417,-2.8023789564715784
1708443383.2408786,-2.135568857192993,-1.3328102690032502,-2.5301881472217005,6.098720776825704,1.0238595008850098,-2.800800863896505
1708443383.2428796,-2.1355667114257812,-1.3327734631351014,-2.530240837727682,6.098620641022482,1.0238953828811646,-2.7991891543017786
1708443383.2448475,-2.135432720184326,-1.3327690225890656,-2.5302422682391565,6.098533975868978,1.0239886045455933,-2.7976096312152308
1708443383.2468662,-2.1354458332061768,-1.3327820909074326,-2.5302422682391565,6.098397838860311,1.0239667892456055,-2.795966927205221
1708443383.2488804,-2.1353330612182617,-1.3327420216849823,-2.5302661100970667,6.098334061890402,1.0240728855133057,-2.794396940861837
1708443383.250875,-2.1353187561035156,-1.3327713173678895,-2.53030234972109,6.098136412888326,1.024107575416565,-2.7927942911731165
1708443383.2528849,-2.1352286338806152,-1.3327612143806,-2.5303383509265345,6.098066317826071,1.0241482257843018,-2.7912572065936487
1708443383.2548656,-2.135202169418335,-1.3327420216849823,-2.5304117838488978,6.09796296337203,1.0241917371749878,-2.7896321455584925
1708443383.2575738,-2.1351418495178223,-1.3327625703862687,-2.5303996245013636,6.097936141281881,1.0242236852645874,-2.7880592981921595
1708443383.2589161,-2.1351101398468018,-1.3327257645181199,-2.530426565800802,6.09781180599288,1.0242881774902344,-2.786474053059713
1708443383.260854,-2.1351048946380615,-1.3327301007560273,-2.5304718653308313,6.0976788876350305,1.0243359804153442,-2.784830156956808
1708443383.2628813,-2.1349823474884033,-1.3327668917230149,-2.5304821173297327,6.09762059429244,1.024404764175415,-2.783259455357687
1708443383.2648652,-2.134953737258911,-1.3327431839755555,-2.530489746724264,6.09752510765151,1.0244249105453491,-2.7816436926471155
1708443383.2668605,-2.134894609451294,-1.332692952161171,-2.530534807835714,6.097412812500753,1.0244923830032349,-2.78005820909609
1708443383.268851,-2.1348876953125,-1.332665593629219,-2.5305827299701136,6.097318756371298,1.024569034576416,-2.7783921400653284
1708443383.2708633,-2.134835720062256,-1.3326853525689621,-2.5305782000171106,6.097188579827108,1.024649977684021,-2.7767606417285364
1708443383.2728593,-2.1347272396087646,-1.332717852001526,-2.530577007924215,6.097118603974142,1.024660587310791,-2.7750936190234583
1708443383.2748399,-2.1347453594207764,-1.3327474904111405,-2.5306833426104944,6.097003447800436,1.0247373580932617,-2.773432795201437
1708443383.2768478,-2.1346607208251953,-1.3327103120139618,-2.5306907335864466,6.096908914833822,1.0247721672058105,-2.7717068831073206
1708443383.2788928,-2.1346330642700195,-1.332665578728058,-2.530771795903341,6.0968267796333215,1.0248452425003052,-2.7702043692218226
1708443383.2808495,-2.1345343589782715,-1.3326909107020875,-2.5307627359973353,6.096789586334982,1.0249097347259521,-2.7685239950763147
1708443383.2828739,-2.134490966796875,-1.3327027422240754,-2.5307746569262903,6.096644508629598,1.0249251127243042,-2.766960922871725
1708443383.2848582,-2.1344635486602783,-1.33267434061084,-2.530839268361227,6.0965847847755334,1.0249645709991455,-2.765366856251852
1708443383.2868953,-2.1343588829040527,-1.3327071380666276,-2.530813757573263,6.096512901573934,1.0250498056411743,-2.763761583958761
1708443383.2888517,-2.134347915649414,-1.3326291006854554,-2.530858580266134,6.096376764565267,1.02505624294281,-2.762216631566183
1708443383.290871,-2.1343204975128174,-1.3326302480748673,-2.5308781305896204,6.096314298897543,1.0251336097717285,-2.7606399695025843
1708443383.2928681,-2.1342320442199707,-1.33267434061084,-2.5309351126300257,6.09617959240035,1.0251810550689697,-2.7590957323657435
1708443383.2949,-2.134160041809082,-1.3326753985932847,-2.530950133000509,6.096100437432089,1.025233507156372,-2.757428232823507
1708443383.2968645,-2.134157180786133,-1.3326952469399949,-2.5309861342059534,6.096047866135397,1.0253264904022217,-2.7558541933642786
1708443383.298894,-2.1341164112091064,-1.3326259863427659,-2.531046215687887,6.095917928009786,1.0253177881240845,-2.7542150656329554
1708443383.300888,-2.1340417861938477,-1.3326743853143235,-2.531079117451803,6.095843302994528,1.0254051685333252,-2.7525809446917933
1708443383.302868,-2.1339938640594482,-1.332638831143715,-2.5310938994037073,6.095743047982015,1.0255032777786255,-2.750955406819479
1708443383.3048697,-2.133975028991699,-1.3326222610524674,-2.5311272780047815,6.095622169762411,1.0255221128463745,-2.7492662111865442
1708443383.3068767,-2.1339051723480225,-1.3326959770968934,-2.531174961720602,6.09556399562911,1.0256030559539795,-2.747584644948141
1708443383.3088524,-2.1338400840759277,-1.332666666512825,-2.531207863484518,6.095492112427511,1.0256664752960205,-2.745930258427755
1708443383.310882,-2.1338260173797607,-1.3326344800046463,-2.531215492879049,6.095387089043417,1.025694727897644,-2.744240109120504
1708443383.3129976,-2.13374924659729,-1.3326059889844437,-2.5312379042254847,6.095305073052206,1.0257713794708252,-2.7425761858569544
1708443383.314861,-2.1337013244628906,-1.3326016974500199,-2.531287733708517,6.095262992172994,1.0258640050888062,-2.7409163157092493
1708443383.316861,-2.13366961479187,-1.3326017272523423,-2.5313053766833704,6.095130312233724,1.025903344154358,-2.739220682774679
1708443383.3188548,-2.133634567260742,-1.3325984489968796,-2.5313716570483606,6.095063078194418,1.0259342193603516,-2.7376063505755823
1708443383.3208783,-2.1335716247558594,-1.3326518845609208,-2.53137451807131,6.094950663834371,1.0260190963745117,-2.735901419316427
1708443383.3228753,-2.1335184574127197,-1.3326594841531296,-2.531402889882223,6.094895708351888,1.0260672569274902,-2.7343032995807093
1708443383.3248622,-2.13350772857666,-1.3325688403895875,-2.5314133802997034,6.094828116684713,1.0261396169662476,-2.732642714177267
1708443383.326936,-2.133378267288208,-1.3326190573028107,-2.5314796606646937,6.094747650414266,1.0261834859848022,-2.7310786882983606
1708443383.3288648,-2.133382558822632,-1.3325819087079545,-2.531527582799093,6.094672906189718,1.0262432098388672,-2.7294519583331507
1708443383.330892,-2.133380651473999,-1.3326266568950196,-2.531563107167379,6.094543087273397,1.026298999786377,-2.7278953234301966
1708443383.3328593,-2.1333329677581787,-1.3326310080340882,-2.5315542856799524,6.094479906349935,1.0263103246688843,-2.726267401372091
1708443383.3348758,-2.133207082748413,-1.3325949323228379,-2.531623427067892,6.094379889756002,1.0264325141906738,-2.7246385256396692
1708443383.3368692,-2.1332085132598877,-1.33258971691642,-2.5316670576678675,6.094354617386617,1.0264434814453125,-2.7229905764209192
1708443383.3388565,-2.1332173347473145,-1.3326071959785004,-2.5316789785968226,6.094240891724386,1.026519775390625,-2.7213104406939905
1708443383.3408961,-2.133120059967041,-1.3325494986823578,-2.531743590031759,6.094116914063253,1.0266332626342773,-2.7196856180774134
1708443383.3428783,-2.133009672164917,-1.3325462949327012,-2.5317300001727503,6.094127404480734,1.026648998260498,-2.7179587523089808
1708443383.3448644,-2.1330740451812744,-1.332603634600975,-2.5318153540240687,6.093998658448019,1.0266793966293335,-2.716318194066183
1708443383.3468702,-2.1329257488250732,-1.332550586467125,-2.531789843236105,6.093905794411459,1.026793360710144,-2.7146454493152063
1708443383.3488572,-2.1329479217529297,-1.3326278042844315,-2.531792942677633,6.093838798790731,1.0268129110336304,-2.712949577962057
1708443383.350888,-2.132873058319092,-1.3325700026801606,-2.5318499247180384,6.093705642014303,1.0268480777740479,-2.711266581212179
1708443383.352847,-2.132798671722412,-1.332624466424324,-2.5319188276873987,6.09369062164382,1.0269286632537842,-2.7094789187060755
1708443383.35488,-2.132793426513672,-1.33257112026725,-2.531933848057882,6.0935799954231165,1.0270291566848755,-2.7077651659594935
1708443383.3568673,-2.1327033042907715,-1.3325418841889878,-2.5319863001452845,6.093523490219869,1.0270938873291016,-2.7060115973102015
1708443383.3588724,-2.132688283920288,-1.332566813831665,-2.532027069722311,6.093463289528646,1.0271780490875244,-2.7043147722827356
1708443383.360873,-2.1326406002044678,-1.332542971973755,-2.532041851674215,6.093337881356039,1.027226209640503,-2.702707115803854
1708443383.3628497,-2.132591485977173,-1.3325224381736298,-2.5321391264544886,6.093320119171896,1.0272947549819946,-2.701050106679098
1708443383.3648894,-2.1325652599334717,-1.3325018149665375,-2.5321229139911097,6.093211042671957,1.0273669958114624,-2.699426237736837
1708443383.3668642,-2.1324870586395264,-1.3326451194337388,-2.532170836125509,6.093206274300375,1.0274345874786377,-2.697768274937765
1708443383.3688412,-2.132465362548828,-1.3325592142394562,-2.5321949164019983,6.09310923793868,1.0274380445480347,-2.6961427370654505
1708443383.3708558,-2.1324052810668945,-1.3325462353280564,-2.5322471300708216,6.093032943993368,1.0275919437408447,-2.6944046656238
1708443383.372842,-2.1323952674865723,-1.3325765591910859,-2.532287899647848,6.092956769257345,1.0275614261627197,-2.692770306264059
1708443383.3748791,-2.132354259490967,-1.3325104725411911,-2.5322981516467493,6.09287308433608,1.0276752710342407,-2.6910374800311487
1708443383.376879,-2.1322975158691406,-1.3325386506370087,-2.5323310534106653,6.092871653824606,1.0278096199035645,-2.6893425623523157
1708443383.378865,-2.132228374481201,-1.3325018149665375,-2.532370154057638,6.092758166580953,1.0277941226959229,-2.687662903462545
1708443383.380851,-2.1321969032287598,-1.3324646663716813,-2.532374684010641,6.092644679337301,1.027854561805725,-2.685906712208883
1708443383.3828874,-2.132169485092163,-1.3325472933105011,-2.5324018637286585,6.092572557717123,1.0278908014297485,-2.684212032948629
1708443383.3848863,-2.1321263313293457,-1.3325148087790986,-2.5324795881854456,6.09251748302535,1.0279715061187744,-2.682470146809713
1708443383.3868659,-2.132077693939209,-1.3325754714063187,-2.5325022379504603,6.092461693077841,1.0280228853225708,-2.6807828585254114
1708443383.3888664,-2.1320059299468994,-1.332535372381546,-2.5324767271624964,6.092402326851644,1.0281158685684204,-2.679044310246603
1708443383.3908746,-2.1319515705108643,-1.3325148087790986,-2.5325546900378626,6.092351424485006,1.0281516313552856,-2.6773563067065638
1708443383.3928504,-2.131974220275879,-1.3324855727008362,-2.532606903706686,6.092324602394857,1.0282644033432007,-2.675666634236471
1708443383.3948617,-2.1319265365600586,-1.3324974936297913,-2.5326269308673304,6.092290150910177,1.0283045768737793,-2.6739898363696497
1708443383.396867,-2.131906270980835,-1.332566798930504,-2.5327165762530726,6.0921062109764,1.0283606052398682,-2.6722806135760706
1708443383.3988478,-2.131892442703247,-1.3325148087790986,-2.532715145741598,6.0921822665031335,1.028400182723999,-2.67069918314089
1708443383.4008632,-2.1318302154541016,-1.3324985665133973,-2.5327346960650843,6.092040407448568,1.0285005569458008,-2.669009272252218
1708443383.4028885,-2.1317973136901855,-1.3325018149665375,-2.5327585379229944,6.092006194382467,1.0285812616348267,-2.6674092451678675
1708443383.404871,-2.131787061691284,-1.3325873923352738,-2.532790247594015,6.09191774108962,1.0286251306533813,-2.6658180395709437
1708443383.4068706,-2.1317973136901855,-1.3325873923352738,-2.5328171888934534,6.091940152436056,1.0286601781845093,-2.6642025152789515
1708443383.4088588,-2.1317200660705566,-1.3325516295484086,-2.5328696409808558,6.091850507050314,1.0287482738494873,-2.662511173878805
1708443383.4108627,-2.131629467010498,-1.33255489290271,-2.5328906218158167,6.091717707901754,1.0288095474243164,-2.6608954111682337
1708443383.4128604,-2.131598711013794,-1.3325505417636414,-2.532930914555685,6.0917221186454675,1.0288569927215576,-2.659170214329855
1708443383.414877,-2.1316168308258057,-1.3325267297080536,-2.5329325834857386,6.091684686928549,1.0289126634597778,-2.657546345387594
1708443383.4168534,-2.1315929889678955,-1.3325180721334,-2.5329654852496546,6.091588961869039,1.0289689302444458,-2.6558032671557825
1708443383.4188826,-2.131528377532959,-1.3325472933105011,-2.533030096684591,6.091570961266317,1.0290162563323975,-2.654215399418966
1708443383.420845,-2.1314761638641357,-1.3325256568244477,-2.5330660978900355,6.091473686486044,1.0290733575820923,-2.6525254885302942
1708443383.4228609,-2.1314988136291504,-1.332579792743065,-2.5331154505359095,6.091426121979513,1.0291039943695068,-2.6508622805224817
1708443383.4248672,-2.131420612335205,-1.3325018149665375,-2.5331996122943323,6.091358887940206,1.0291930437088013,-2.6491437594043177
1708443383.426908,-2.131359338760376,-1.3325104725411911,-2.5331531206714075,6.091358887940206,1.029289960861206,-2.647419277821676
1708443383.4288898,-2.131307363510132,-1.3325223934701462,-2.5331934134112757,6.091287004738607,1.0293253660202026,-2.6457508246051233
1708443383.4308448,-2.1312639713287354,-1.3325386506370087,-2.533229653035299,6.091215359955587,1.029406189918518,-2.6440005938159388
1708443383.432861,-2.131256103515625,-1.3325386506370087,-2.53327447572817,6.0912078497703455,1.0294662714004517,-2.64232308069338
1708443383.4348772,-2.1312413215637207,-1.3325300079635163,-2.5333226362811487,6.091085421829977,1.0295144319534302,-2.6406381765948694
1708443383.4368434,-2.1311845779418945,-1.3325711351684113,-2.5333388487445276,6.091083991318502,1.029565691947937,-2.6390655676471155
1708443383.4388504,-2.131164312362671,-1.332542971973755,-2.5333855787860315,6.091031181603231,1.0296095609664917,-2.6374648253070276
1708443383.440849,-2.131133556365967,-1.3324570816806336,-2.5334275404559534,6.0910658715064905,1.0296742916107178,-2.6358428637133997
1708443383.4428704,-2.1310601234436035,-1.3325104725411911,-2.533433500920431,6.090917813568868,1.029746174812317,-2.634228293095724
1708443383.444848,-2.131110906600952,-1.332535372381546,-2.5334530512439173,6.090977656632223,1.0298303365707397,-2.6326516310321253
1708443383.4468813,-2.1309919357299805,-1.3325267297080536,-2.5334768931018274,6.090856539994039,1.0298629999160767,-2.630961004887716
1708443383.4488585,-2.1309714317321777,-1.3325267297080536,-2.5334964434253138,6.090848910599508,1.0299428701400757,-2.6293419043170374
1708443383.4508495,-2.1309826374053955,-1.3325635504773636,-2.533569876347677,6.090812909394064,1.029974102973938,-2.627679173146383
1708443383.452848,-2.1309285163879395,-1.3325148087790986,-2.533652369176046,6.090818869858541,1.0300673246383667,-2.6259952227221888
1708443383.4548705,-2.130869150161743,-1.3325635504773636,-2.5336344877826136,6.090683090477743,1.0301027297973633,-2.6243260542498987
1708443383.4568503,-2.1308648586273193,-1.3325841289809723,-2.533719841633932,6.09067844131545,1.0301910638809204,-2.6225999037372034
1708443383.4588563,-2.130838632583618,-1.3325310510447999,-2.5336809794055384,6.090648877411642,1.0302557945251465,-2.621009890233175
1708443383.4608545,-2.130817174911499,-1.3325180721334,-2.5337048212634485,6.090614425926962,1.0303319692611694,-2.619307343159811
1708443383.4628503,-2.130798816680908,-1.3325884503177186,-2.53375751176943,6.090578424721517,1.0303595066070557,-2.617545191441671
1708443383.464879,-2.1307151317596436,-1.3325505715659638,-2.5338006655322474,6.0904812691505334,1.030400037765503,-2.6158114115344446
1708443383.4668634,-2.1307175159454346,-1.332523451452591,-2.5338051954852503,6.090457427292623,1.0304676294326782,-2.6141558329211634
1708443383.4688618,-2.130748987197876,-1.3326079708388825,-2.533881727849142,6.090417253762045,1.030564546585083,-2.612434212361471
1708443383.4708457,-2.1306447982788086,-1.3326122921756287,-2.53388482729067,6.0904052136238,1.0306251049041748,-2.6107781569110315
1708443383.4728835,-2.1306264400482178,-1.33255489290271,-2.533905808125631,6.090382683068075,1.0306601524353027,-2.609138790761129
1708443383.4748478,-2.1305766105651855,-1.332498551612236,-2.533987108861105,6.090358483582296,1.0307040214538574,-2.60749322572817
1708443383.476856,-2.130542755126953,-1.3325841289809723,-2.5339492003070276,6.090343701630392,1.0307810306549072,-2.6058695952044886
1708443383.4788773,-2.1305336952209473,-1.3325386506370087,-2.534039084111349,6.090265738755026,1.0308163166046143,-2.604206148778097
1708443383.4808729,-2.130549430847168,-1.33257112026725,-2.5340586344348353,6.090276348381796,1.0308398008346558,-2.602579418812887
1708443383.482875,-2.130531072616577,-1.332567886715271,-2.5340784231769007,6.090198981552877,1.0309408903121948,-2.60093862215151
1708443383.4848602,-2.1305017471313477,-1.332535372381546,-2.53408128419985,6.09021674373702,1.030940055847168,-2.599344793950216
1708443383.4868588,-2.130470037460327,-1.3325635504773636,-2.534138266240255,6.09020613411025,1.031008005142212,-2.597726647053854
1708443383.4888728,-2.1304166316986084,-1.3325754714063187,-2.5341787973987024,6.090074765473165,1.031080961227417,-2.5960710684405726
1708443383.490854,-2.130467653274536,-1.3325180572322388,-2.534151617680685,6.090097057610311,1.0311366319656372,-2.594435993825094
1708443383.4928584,-2.130452871322632,-1.3325223934701462,-2.534213368092672,6.090019333153524,1.031172752380371,-2.59275466600527
1708443383.4948802,-2.1304244995117188,-1.332538680439331,-2.534274403248922,6.090016472130575,1.0312612056732178,-2.591064993535177
1708443383.4968672,-2.130399703979492,-1.332506151204445,-2.5343154112445276,6.089971768646993,1.0313254594802856,-2.5893564859973353
1708443383.4988875,-2.130326986312866,-1.3325343143991013,-2.534292761479513,6.090001570969381,1.0313246250152588,-2.5876265207873743
1708443383.500866,-2.130336046218872,-1.3325299483588715,-2.534321133290426,6.089965450554647,1.0314501523971558,-2.585867468510763
1708443383.5028672,-2.130261182785034,-1.3325505715659638,-2.5344064871417444,6.089916336327352,1.031421184539795,-2.58419639268984
1708443383.504855,-2.1302454471588135,-1.3325505715659638,-2.5344563166247767,6.089895117073812,1.0315135717391968,-2.582513157521383
1708443383.5068548,-2.1302430629730225,-1.332574413423874,-2.5344741980182093,6.089894044190206,1.0315860509872437,-2.580827061329977
1708443383.5088568,-2.1301887035369873,-1.3325386506370087,-2.534478489552633,6.089856493263998,1.0316219329833984,-2.5792296568499964
1708443383.5108423,-2.1302285194396973,-1.3325505715659638,-2.5344980398761194,6.089865433960714,1.031653881072998,-2.5775700251208704
1708443383.5128608,-2.130237340927124,-1.33253866553817,-2.534541670476095,6.089833843498983,1.0316975116729736,-2.5760796705829065
1708443383.5148473,-2.1301705837249756,-1.33255489290271,-2.534487549458639,6.089838373451986,1.031737208366394,-2.5744906107531946
1708443383.516882,-2.1301679611206055,-1.3325916689685364,-2.5346105734454554,6.0897817490394495,1.0318348407745361,-2.572918478642599
1708443383.5188494,-2.1301658153533936,-1.3325343293002625,-2.5346017519580286,6.089835393219747,1.0319069623947144,-2.571277443562643
1708443383.520853,-2.1301283836364746,-1.3325959754041214,-2.5345762411700647,6.089717495232382,1.031917691230774,-2.5697441736804407
1708443383.5228593,-2.1300785541534424,-1.3325505715659638,-2.534663263951437,6.0897594569023035,1.0319944620132446,-2.5681138674365442
1708443383.5248432,-2.130105495452881,-1.3325830560973664,-2.534666363392965,6.089693295746603,1.03202223777771,-2.566589657460348
1708443383.5268638,-2.130084276199341,-1.3325699877789994,-2.5346513430224817,6.08970998504714,1.0321112871170044,-2.5649316946612757
1708443383.5288649,-2.1300389766693115,-1.332603634600975,-2.5347302595721644,6.089665043144979,1.032138705253601,-2.5633230845080774
1708443383.5308864,-2.130056858062744,-1.3325419139913102,-2.534766737614767,6.089730965882101,1.0321954488754272,-2.5616896788226526
1708443383.5328424,-2.1300320625305176,-1.3325094145587464,-2.534724537526266,6.089644419937887,1.032210111618042,-2.56006366411318
1708443383.5348458,-2.1299946308135986,-1.332603634600975,-2.5347936789142054,6.089673983841696,1.0322635173797607,-2.5584681669818323
1708443383.536854,-2.1300365924835205,-1.3325625222972413,-2.5348640123950403,6.089578497200765,1.032331109046936,-2.556829277669088
1708443383.5388763,-2.1300127506256104,-1.3325743687203904,-2.53477126756777,6.0896174786384485,1.0323553085327148,-2.5551777521716517
1708443383.5408466,-2.1299684047698975,-1.3325711351684113,-2.5348685423480433,6.089673983841696,1.032387137413025,-2.553626600896017
1708443383.542855,-2.1299471855163574,-1.3325873923352738,-2.534940544758932,6.0896291611488245,1.032418966293335,-2.55198580423464
1708443383.5448606,-2.129995822906494,-1.3325949919274827,-2.5348761717425745,6.0895964978034876,1.0324714183807373,-2.550358597432272
1708443383.5468717,-2.1299514770507812,-1.3326321256211777,-2.5349541346179407,6.08965169170455,1.032556176185608,-2.548833672200338
1708443383.548852,-2.1299185752868652,-1.332619087105133,-2.534969154988424,6.08963834026412,1.0325675010681152,-2.5472057501422327
1708443383.5508542,-2.129948139190674,-1.3326158833554764,-2.5350261370288294,6.08965169170455,1.0325751304626465,-2.5456953684436243
1708443383.552845,-2.1299242973327637,-1.3326072257808228,-2.5350216070758265,6.08965169170455,1.0326393842697144,-2.5441747347461146
1708443383.554868,-2.1298937797546387,-1.3325830709985276,-2.5350335280047815,6.089630710869589,1.0327202081680298,-2.5426700750934046
1708443383.556861,-2.1299073696136475,-1.3326116067222138,-2.535076920186178,6.0896397707755945,1.0327354669570923,-2.541041676198141
1708443383.5588882,-2.129887104034424,-1.3325830560973664,-2.5351222197162073,6.089680182724752,1.0327675342559814,-2.5395949522601526
1708443383.560855,-2.1298959255218506,-1.3325819087079545,-2.5351460615741175,6.089553105622091,1.032889485359192,-2.53801399866213
1708443383.5628653,-2.12988018989563,-1.3326036047986527,-2.5351489225970667,6.089588868408956,1.0328516960144043,-2.536469284688131
1708443383.5648856,-2.129857301712036,-1.3326234978488465,-2.5351653734790247,6.089617359429159,1.03290855884552,-2.5349794069873255
1708443383.5669022,-2.12986421585083,-1.3325244200280686,-2.535189453755514,6.089626300125875,1.0329196453094482,-2.533431593571798
1708443383.5688634,-2.129859685897827,-1.3325656664422532,-2.535222593938009,6.089605438500204,1.0330414772033691,-2.531884495412008
1708443383.5708911,-2.129873275756836,-1.3326278042844315,-2.5352299849139612,6.089576828270712,1.033003807067871,-2.530368153248922
1708443383.57286,-2.129861831665039,-1.332668126826622,-2.5352163950549524,6.089576828270712,1.0330606698989868,-2.5287631193744105
1708443383.574886,-2.129848003387451,-1.3326036495021363,-2.535247866307394,6.0896891234214685,1.033133625984192,-2.527246061955587
1708443383.576853,-2.129873275756836,-1.3325743985227128,-2.53526741663088,6.089602219849386,1.0331448316574097,-2.5256171862231653
1708443383.5788846,-2.129812002182007,-1.3325862300447007,-2.535326067601339,6.0895858881767175,1.033213496208191,-2.524057690297262
1708443383.5808537,-2.129770278930664,-1.332656354909279,-2.535356108342306,6.0896562216575525,1.0332252979278564,-2.5225115458117884
1708443383.582839,-2.1297667026519775,-1.3326234829476853,-2.5353501478778284,6.089590298920431,1.03322434425354,-2.5209596792804163
1708443383.5848446,-2.1298255920410156,-1.3326364320567627,-2.5353859106646937,6.089590298920431,1.0333181619644165,-2.5193877855883997
1708443383.5868483,-2.1297881603240967,-1.3326104295304795,-2.535355869923727,6.089611160546102,1.0333008766174316,-2.5178454558001917
1708443383.5888553,-2.1297972202301025,-1.3326387715390702,-2.535421911870138,6.089560496598043,1.0333293676376343,-2.5163727442370813
1708443383.590855,-2.1297669410705566,-1.3326147359660645,-2.5354459921466272,6.089644181519308,1.0334022045135498,-2.5148053804980677
1708443383.592855,-2.1297972202301025,-1.3326147061637421,-2.5354698340045374,6.089618909149923,1.0333882570266724,-2.513348642979757
1708443383.594857,-2.1297483444213867,-1.3325897765210648,-2.5354517141925257,6.089611160546102,1.033449411392212,-2.5119054953204554
1708443383.596862,-2.1297779083251953,-1.332655058508255,-2.5354517141925257,6.089647161751547,1.033485770225525,-2.5104101339923304
1708443383.5988877,-2.1298015117645264,-1.3326666516116639,-2.535484854375021,6.089520323067465,1.0335336923599243,-2.5089202562915247
1708443383.6009023,-2.1297528743743896,-1.3326580983451386,-2.535513464604513,6.089647161751547,1.03351628780365,-2.5074694792376917
1708443383.6028683,-2.1298060417175293,-1.332659439449646,-2.535525385533468,6.089597689896383,1.0335450172424316,-2.5060094038592737
1708443383.604872,-2.1297619342803955,-1.332643212085106,-2.5355330149279993,6.089597689896383,1.03360915184021,-2.504498545323507
1708443383.6068676,-2.1297404766082764,-1.3326580983451386,-2.5355539957629603,6.089623439102926,1.0336496829986572,-2.5030022303210657
1708443383.608859,-2.1297316551208496,-1.332690880899765,-2.5355823675738733,6.089668023377218,1.033632516860962,-2.5014713446246546
1708443383.6108735,-2.1297450065612793,-1.3326984208873291,-2.5355735460864466,6.089560496598043,1.0337022542953491,-2.5000177065478724
1708443383.612869,-2.129748582839966,-1.3326691550067444,-2.5355854670154017,6.08965169170455,1.0337512493133545,-2.49849516550173
1708443383.614887,-2.1297359466552734,-1.3327431094697495,-2.535609308873312,6.089597689896383,1.0337907075881958,-2.49693471590151
1708443383.6168587,-2.1297574043273926,-1.332766906624176,-2.535592857991354,6.089611041336813,1.0338263511657715,-2.495504681264059
1708443383.6189075,-2.1297450065612793,-1.3327015948346634,-2.535604778920309,6.089560496598043,1.0338134765625,-2.494031016026632
1708443383.6208751,-2.1297688484191895,-1.3327308607152482,-2.535616699849264,6.089642631798544,1.0338292121887207,-2.4925268332110804
1708443383.6228583,-2.1297848224639893,-1.3327420216849823,-2.535633389149801,6.089576828270712,1.0338572263717651,-2.491047445927755
1708443383.6248782,-2.1297361850738525,-1.332725779419281,-2.535607639943258,6.089588749199667,1.033893346786499,-2.489619318638937
1708443383.6269116,-2.1297688484191895,-1.332746298318245,-2.5356739203082483,6.089588749199667,1.0338932275772095,-2.4881938139544886
1708443383.6288888,-2.129728078842163,-1.3327453446439286,-2.5356574694262903,6.0896291611488245,1.0339785814285278,-2.486656729375021
1708443383.6308892,-2.1297361850738525,-1.3327741783908387,-2.5356813112842005,6.089654552727499,1.0339903831481934,-2.4852688948260706
1708443383.6328752,-2.1297528743743896,-1.3327612143806,-2.5356603304492396,6.089678394585409,1.0340385437011719,-2.4838157335864466
1708443383.634895,-2.1297802925109863,-1.3327741485885163,-2.5356767813311976,6.089657890587606,1.034034252166748,-2.482427183781759
1708443383.6368551,-2.1297688484191895,-1.3327777546695252,-2.5356887022601526,6.089690315514364,1.0340384244918823,-2.48110276857485
1708443383.6388652,-2.129748582839966,-1.3327322465232392,-2.5357053915606897,6.089747297554769,1.034037470817566,-2.4797402063952845
1708443383.640866,-2.129786729812622,-1.3327940267375489,-2.5356932322131556,6.089721905976095,1.0340540409088135,-2.4784417788134974
1708443383.6428614,-2.1297802925109863,-1.3327525121024628,-2.535691801701681,6.089762317925253,1.0341066122055054,-2.4770472685443323
1708443383.6448817,-2.1297619342803955,-1.3327524375966568,-2.535729471837179,6.089778768807211,1.0340576171875,-2.4756508509265345
1708443383.6468568,-2.1297643184661865,-1.3328102392009278,-2.5356996695147913,6.089777338295736,1.0341428518295288,-2.4742396513568323
1708443383.6488612,-2.1297802925109863,-1.3328102690032502,-2.535757843648092,6.089841592102804,1.0341503620147705,-2.4729233423816126
1708443383.6509109,-2.1297733783721924,-1.3328267943910141,-2.5357819239245813,6.089846122055807,1.034210443496704,-2.4715448061572474
1708443383.652863,-2.129789113998413,-1.332822562461235,-2.5357773939715784,6.089895236283102,1.0342069864273071,-2.470142666493551
1708443383.6548777,-2.1297688484191895,-1.3328225177577515,-2.5357564131366175,6.089889514237203,1.0341852903366089,-2.4687450567828577
1708443383.656873,-2.129777669906616,-1.3328059327653428,-2.5357683340655726,6.089964139252462,1.0342345237731934,-2.467330519353048
1708443383.658857,-2.1297707557678223,-1.332769052391388,-2.5358179251300257,6.089904057770529,1.0342179536819458,-2.465905253087179
1708443383.660873,-2.1297779083251953,-1.3328137558749695,-2.5357804934131067,6.089949118881979,1.0342464447021484,-2.464438501988546
1708443383.6629808,-2.1297450065612793,-1.3328225326589127,-2.5358298460589808,6.089992630272665,1.0342626571655273,-2.463118855153219
1708443383.6648717,-2.1297528743743896,-1.3328343790820618,-2.535837237034933,6.090025412827291,1.034295678138733,-2.4616251627551478
1708443383.6668556,-2.1297600269317627,-1.3328430217555542,-2.53583270708193,6.090058195381918,1.034278392791748,-2.4602206389056605
1708443383.6688604,-2.1297483444213867,-1.3328430515578766,-2.535849157963888,6.090073334961691,1.0343315601348877,-2.4588304201709192
1708443383.6708577,-2.1297733783721924,-1.3328225028565903,-2.53583270708193,6.090079295426168,1.034306526184082,-2.457501236592428
1708443383.6728716,-2.129777669906616,-1.3327928644469758,-2.535861317311422,6.090095984726705,1.0342741012573242,-2.4560797850238245
1708443383.6748595,-2.1297664642333984,-1.33283323169265,-2.535837237034933,6.090135800629415,1.0343230962753296,-2.454743210469381
1708443383.6768587,-2.1297619342803955,-1.3328581911376496,-2.5358780066119593,6.090221392899313,1.0343306064605713,-2.4534507433520716
1708443383.6788547,-2.1297483444213867,-1.332824633722641,-2.5358734766589563,6.090303051262655,1.0343546867370605,-2.4521730581866663
1708443383.680881,-2.129789352416992,-1.3328863692334671,-2.5358553568469446,6.090249287873068,1.034367561340332,-2.450860087071554
1708443383.6828694,-2.1297688484191895,-1.3328906458667298,-2.5358853975879114,6.090324270516195,1.0343143939971924,-2.449542824422018
1708443383.6848483,-2.1297643184661865,-1.3328660440495987,-2.5359438101397913,6.090315329819479,1.0343503952026367,-2.4482508341418665
1708443383.686846,-2.1297926902770996,-1.3328375679305573,-2.5358927885638636,6.090318786888876,1.034358263015747,-2.4469574133502405
1708443383.6888611,-2.129796028137207,-1.3328704249909897,-2.5359018484698694,6.090330230980673,1.034371256828308,-2.445691172276632
