Eg3-git/Classifiers/Data Collection/u8/u8www1_ur3e_joint_states.csv
time,elbow_joint,shoulder_lift_joint,shoulder_pan_joint,wrist_1_joint,wrist_2_joint,wrist_3_joint
1708443365.116859,-2.151658773422241,-1.3332137328437348,-2.514731232319967,6.12342535236434,0.9954560399055481,-3.3727250734912317
1708443365.1188095,-2.151609182357788,-1.3331814122251053,-2.5147178808795374,6.123356568604269,0.9954189658164978,-3.372683350239889
1708443365.1208234,-2.151650905609131,-1.3332021695426484,-2.5147433916675013,6.123335349350729,0.9954429864883423,-3.372654978428976
1708443365.1228042,-2.151620626449585,-1.3331961345723649,-2.514698330556051,6.123401152878561,0.9954023957252502,-3.372711483632223
1708443365.1247663,-2.1516544818878174,-1.3332211536220093,-2.5147061983691614,6.123359548836508,0.9954354763031006,-3.372683350239889
1708443365.1268,-2.1516003608703613,-1.3332137328437348,-2.5147016684161585,6.123363959580221,0.9953861236572266,-3.3726945559131067
1708443365.1288016,-2.1516499519348145,-1.333200530414917,-2.5147178808795374,6.123338687210836,0.9954354763031006,-3.372692410145895
1708443365.1308398,-2.151663303375244,-1.3331439358047028,-2.514747921620504,6.123355018883505,0.9954233169555664,-3.3726967016803187
1708443365.1328142,-2.1516456604003906,-1.333188847904541,-2.5147104899035853,6.123375880509176,0.9954111576080322,-3.372732464467184
1708443365.1348057,-2.151642084121704,-1.3331932437470932,-2.5147269407855433,6.123371469765463,0.9953905940055847,-3.372683350239889
1708443365.1367972,-2.151677370071411,-1.3331932437470932,-2.5147104899035853,6.123356568604269,0.9953992366790771,-3.3727033774005335
1708443365.1387792,-2.151703119277954,-1.333200530414917,-2.514693800603048,6.123318898468771,0.9953905940055847,-3.3727012316333216
1708443365.1408112,-2.1516544818878174,-1.333151565199234,-2.5147433916675013,6.123363959580221,0.9954233169555664,-3.3727081457721155
1708443365.142795,-2.1516330242156982,-1.333184541468956,-2.5147433916675013,6.123371469765463,0.9953861236572266,-3.3726967016803187
1708443365.1447725,-2.1516499519348145,-1.3332225245288392,-2.5147061983691614,6.123387801438131,0.9954445958137512,-3.3727012316333216
1708443365.146786,-2.151674509048462,-1.3331814122251053,-2.5147391001330774,6.123368370323934,0.995418906211853,-3.3726967016803187
1708443365.1488445,-2.1516287326812744,-1.3332092326930542,-2.5147269407855433,6.123334038048544,0.9954020977020264,-3.3727033774005335
1708443365.1508179,-2.151616334915161,-1.3331858080676575,-2.5147061983691614,6.123338687210836,0.995427668094635,-3.372721258793966
1708443365.1528137,-2.151658773422241,-1.3331682246974488,-2.51473576227297,6.123363959580221,0.9954111576080322,-3.3727145830737513
1708443365.1548295,-2.151609182357788,-1.3331232380918046,-2.5147016684161585,6.1233218787010095,0.9954485297203064,-3.3727293650256556
1708443365.156812,-2.1516499519348145,-1.333184541468956,-2.5147016684161585,6.123363959580221,0.9954189658164978,-3.3727055231677454
1708443365.1588135,-2.1516244411468506,-1.3332021695426484,-2.5147391001330774,6.12337743022994,0.9954146146774292,-3.3726847807513636
1708443365.1608036,-2.1516544818878174,-1.333176926975586,-2.5147059599505823,6.123314487725057,0.9954068064689636,-3.3726967016803187
1708443365.162801,-2.1516456604003906,-1.333188847904541,-2.5147598425494593,6.123352038651266,0.9954319596290588,-3.3726475874530237
1708443365.1648095,-2.151637554168701,-1.333204836850502,-2.5147178808795374,6.123352038651266,0.9954398274421692,-3.372687880192892
1708443365.1667922,-2.151620626449585,-1.333176926975586,-2.514698330556051,6.1234134314353845,0.9954490065574646,-3.372659746800558
1708443365.1688197,-2.1516411304473877,-1.3331932437470932,-2.5147016684161585,6.123359429627218,0.9953949451446533,-3.3726893107043665
1708443365.1708186,-2.151620626449585,-1.333200530414917,-2.5147178808795374,6.12336682060317,0.9954068064689636,-3.372675959263937
1708443365.1728034,-2.1516568660736084,-1.3331395548633118,-2.5147178808795374,6.123371469765463,0.9954156279563904,-3.372721258793966
1708443365.1754432,-2.1516499519348145,-1.3332246106914063,-2.5147433916675013,6.123395550041952,0.9953992366790771,-3.3726847807513636
1708443365.1767757,-2.1516499519348145,-1.3331932586482544,-2.5147061983691614,6.1234134314353845,0.9953992366790771,-3.372753445302145
1708443365.1787841,-2.1516330242156982,-1.3331681948951264,-2.5147061983691614,6.123410212784567,0.9954278469085693,-3.3726990858661097
1708443365.1808348,-2.1516613960266113,-1.333151565199234,-2.514715019856588,6.123383271485128,0.995453417301178,-3.3726967016803187
1708443365.1827695,-2.151677370071411,-1.3331814271262665,-2.5147464911090296,6.123371350556173,0.9954156279563904,-3.3726981321917933
1708443365.1848173,-2.1516244411468506,-1.333184541468956,-2.5147061983691614,6.1233476279075525,0.9953992366790771,-3.3727100531207483
1708443365.1867638,-2.1516499519348145,-1.333151565199234,-2.514698330556051,6.123317348748007,0.9953829646110535,-3.3726893107043665
1708443365.1887805,-2.1516499519348145,-1.3331603121808548,-2.514698330556051,6.123393881111898,0.9953828454017639,-3.3726564089404505
1708443365.1908042,-2.151629686355591,-1.3331932437470932,-2.5147178808795374,6.123404490738668,0.9953992366790771,-3.3727055231677454
1708443365.1928096,-2.1516075134277344,-1.3332211536220093,-2.5146849791156214,6.123363959580221,0.9954367280006409,-3.3727169672595423
1708443365.194789,-2.1516544818878174,-1.3331558567336579,-2.5146330038653772,6.123363959580221,0.9954111576080322,-3.3726490179644983
1708443365.1967754,-2.151685953140259,-1.3331932586482544,-2.5147224108325403,6.1233922121818445,0.9954066276550293,-3.3727012316333216
1708443365.1987836,-2.151650905609131,-1.3331602823785325,-2.514693800603048,6.123338687210836,0.9954442381858826,-3.3727012316333216
1708443365.2007704,-2.151670217514038,-1.333188847904541,-2.5147345701800745,6.1233264086540125,0.9954066276550293,-3.3726444880114954
1708443365.2027583,-2.151616334915161,-1.333225594168045,-2.514744583760397,6.123384821205892,0.9954323172569275,-3.3726773897754114
1708443365.204805,-2.1516499519348145,-1.3331691336682816,-2.5147016684161585,6.123350369721212,0.9954066276550293,-3.3726728598224085
1708443365.2067866,-2.151665687561035,-1.333200530414917,-2.5147116819964808,6.123334038048544,0.9953857064247131,-3.3726609388934534
1708443365.2088048,-2.151658773422241,-1.3331602823785325,-2.514653746281759,6.123380291252889,0.9953828454017639,-3.3726936022387903
1708443365.2108297,-2.1516287326812744,-1.3332168471864243,-2.5146775881396692,6.123380291252889,0.9954233169555664,-3.3726728598224085
1708443365.212796,-2.1516499519348145,-1.333188847904541,-2.5147224108325403,6.123380291252889,0.9954156279563904,-3.3726609388934534
1708443365.2147686,-2.1516456604003906,-1.333200530414917,-2.5146775881396692,6.123384821205892,0.9953902363777161,-3.3726027647601526
1708443365.2167559,-2.1516683101654053,-1.3332334917834778,-2.514726702366964,6.123373019486227,0.9953751564025879,-3.3726936022387903
1708443365.218755,-2.151677370071411,-1.3332092624953766,-2.514682118092672,6.123365509300985,0.9954078793525696,-3.3726728598224085
1708443365.2207568,-2.1516568660736084,-1.33318583786998,-2.5147433916675013,6.123384821205892,0.9954037070274353,-3.3726475874530237
1708443365.2227612,-2.1516339778900146,-1.333200530414917,-2.5146952311145228,6.123335230141439,0.9954082369804382,-3.3727100531207483
1708443365.2247624,-2.151685953140259,-1.3331352484277268,-2.514698330556051,6.123389351158895,0.9953963160514832,-3.3726893107043665
1708443365.2267907,-2.1516568660736084,-1.333200530414917,-2.5146284739123743,6.123335349350729,0.9953661561012268,-3.3726490179644983
1708443365.2287803,-2.1516411304473877,-1.333151565199234,-2.514698330556051,6.123371469765463,0.995370626449585,-3.3726816813098353
1708443365.2307632,-2.151681661605835,-1.333200530414917,-2.5147178808795374,6.123375880509176,0.995391845703125,-3.3726444880114954
1708443365.2328174,-2.151642084121704,-1.3331352186254044,-2.5146730581866663,6.1233476279075525,0.9954082369804382,-3.37266976038088
1708443365.2347686,-2.151658773422241,-1.3331977289966126,-2.514719311391012,6.1234298823173425,0.9953542351722717,-3.372707192097799
1708443365.2368026,-2.1516366004943848,-1.333204836850502,-2.514715019856588,6.123368370323934,0.9953873157501221,-3.372674290333883
1708443365.2387671,-2.1516544818878174,-1.3331681948951264,-2.514686409627096,6.123317348748007,0.9953751564025879,-3.3726118246661585
1708443365.240775,-2.1516544818878174,-1.333200530414917,-2.5147178808795374,6.123335349350729,0.9953468441963196,-3.372674290333883
1708443365.2427866,-2.151637554168701,-1.3331932586482544,-2.5147345701800745,6.123293626099386,0.9953751564025879,-3.3726444880114954
1708443365.2447777,-2.151616334915161,-1.3332137328437348,-2.5146775881396692,6.123314487725057,0.9953840374946594,-3.372674290333883
1708443365.2467883,-2.1516544818878174,-1.3332211834243317,-2.5146330038653772,6.123375880509176,0.995379626750946,-3.3726564089404505
1708443365.2488196,-2.151637554168701,-1.3331801307252427,-2.514653746281759,6.123359548836508,0.9953513145446777,-3.3726370970355433
1708443365.2508442,-2.1516499519348145,-1.3331814122251053,-2.514682118092672,6.123352038651266,0.9953632354736328,-3.372612778340475
1708443365.252778,-2.151658773422241,-1.3331845116666337,-2.5146775881396692,6.123405802040853,0.9953632354736328,-3.3726654688464563
1708443365.2547557,-2.151658773422241,-1.3331484359553833,-2.514702860509054,6.123338687210836,0.9953513145446777,-3.372594658528463
1708443365.2567549,-2.1516330242156982,-1.3331845265677948,-2.514693800603048,6.123368489533224,0.9953557848930359,-3.3726282755481165
1708443365.2587724,-2.1516544818878174,-1.333152861600258,-2.5146849791156214,6.123375880509176,0.9953632354736328,-3.3726215998279017
1708443365.2607667,-2.1516544818878174,-1.3332048517516633,-2.5147116819964808,6.123380410462179,0.9953393936157227,-3.372575346623556
1708443365.2627869,-2.151637554168701,-1.333184541468956,-2.5146775881396692,6.123363959580221,0.9953557848930359,-3.372617308293478
1708443365.264798,-2.1516330242156982,-1.333188847904541,-2.5146775881396692,6.123392331391134,0.9953018426895142,-3.372580114995138
1708443365.2667713,-2.151616334915161,-1.333188847904541,-2.514715019856588,6.123380410462179,0.9953439235687256,-3.3725650946246546
1708443365.2687705,-2.1516942977905273,-1.333197758798935,-2.514693800603048,6.123359548836508,0.9953317046165466,-3.3725934664355677
1708443365.2707617,-2.151670217514038,-1.333148480658867,-2.5147104899035853,6.123401152878561,0.9953227043151855,-3.3725977579699915
1708443365.2728145,-2.1516942977905273,-1.3331916493228455,-2.514698330556051,6.123341548233785,0.9953197836875916,-3.3725279013263147
1708443365.2747858,-2.151679039001465,-1.3332048517516633,-2.5146730581866663,6.12334309795455,0.9953405857086182,-3.372528855000631
1708443365.2768304,-2.1516411304473877,-1.3331801158240815,-2.5146449247943323,6.123330819397726,0.9952914714813232,-3.3725696245776575
1708443365.2787802,-2.151663303375244,-1.333204836850502,-2.5146403948413294,6.123392331391134,0.9952870607376099,-3.3725324312793177
1708443365.280762,-2.151620626449585,-1.3332005006125947,-2.514702622090475,6.123352038651266,0.9952989816665649,-3.372528855000631
1708443365.2828126,-2.1516499519348145,-1.3332092326930542,-2.514686409627096,6.123330819397726,0.9953288435935974,-3.3725622336017054
1708443365.284758,-2.151663303375244,-1.3331961196712037,-2.514715019856588,6.123363959580221,0.9952870011329651,-3.3725577036487024
1708443365.2867649,-2.151670217514038,-1.3331558865359803,-2.514698330556051,6.123363959580221,0.9952700138092041,-3.3725605646716517
1708443365.2887602,-2.1516544818878174,-1.3331814122251053,-2.5146775881396692,6.12336682060317,0.99533611536026,-3.3725531736956995
1708443365.2907724,-2.151707410812378,-1.3332048517516633,-2.514698330556051,6.1233099577720544,0.9952825903892517,-3.3725577036487024
1708443365.292755,-2.151625156402588,-1.3331725162318726,-2.514662567769186,6.1233476279075525,0.9952989220619202,-3.3725486437426966
1708443365.2947621,-2.1516075134277344,-1.333200530414917,-2.514646116887228,6.123361098557272,0.9953317046165466,-3.372516934071676
1708443365.2967706,-2.1516456604003906,-1.333185852771141,-2.5146952311145228,6.123335349350729,0.9953197836875916,-3.3725443522082728
1708443365.2987783,-2.1516456604003906,-1.3332254898599167,-2.514731232319967,6.123363959580221,0.9953317046165466,-3.372524086629049
1708443365.3007696,-2.151658773422241,-1.3332255643657227,-2.514698330556051,6.12334309795455,0.9953124523162842,-3.3725605646716517
1708443365.302762,-2.1516120433807373,-1.3332066100886841,-2.514715019856588,6.123363959580221,0.9953242540359497,-3.3725577036487024
1708443365.3047693,-2.1516499519348145,-1.3331725162318726,-2.514693800603048,6.123317348748007,0.9952373504638672,-3.3725577036487024
1708443365.3067906,-2.1516544818878174,-1.333197758798935,-2.514698330556051,6.123298036843099,0.9952914714813232,-3.3725696245776575
1708443365.3087568,-2.1516330242156982,-1.3331769418767472,-2.514653746281759,6.123318898468771,0.9952373504638672,-3.3725650946246546
1708443365.3107536,-2.1516499519348145,-1.3331801158240815,-2.5146997610675257,6.1233476279075525,0.9952961206436157,-3.372512404118673
1708443365.3127656,-2.1516411304473877,-1.3331426245025177,-2.514698330556051,6.123330819397726,0.99527907371521,-3.3725815455066126
1708443365.314768,-2.1516120433807373,-1.3331515950015564,-2.5147116819964808,6.1233218787010095,0.995312511920929,-3.3725279013263147
1708443365.3167722,-2.1516075134277344,-1.3331844967654725,-2.5146952311145228,6.123344290047445,0.9952835440635681,-3.3725786844836634
1708443365.3187804,-2.151642084121704,-1.3331976991942902,-2.514693800603048,6.123293626099386,0.9953094720840454,-3.3725770155536097
1708443365.3207705,-2.151665687561035,-1.3332421344569703,-2.514686409627096,6.123352038651266,0.9952870011329651,-3.3725667635547083
1708443365.3227851,-2.1516287326812744,-1.3331559014371415,-2.514682118092672,6.123314368515768,0.9952627420425415,-3.3725152651416224
1708443365.324776,-2.151642084121704,-1.3331647974303742,-2.5146330038653772,6.123380291252889,0.9952914714813232,-3.3725367228137415
1708443365.3267686,-2.1516456604003906,-1.3332255643657227,-2.514653746281759,6.123363959580221,0.9953287839889526,-3.3725770155536097
1708443365.3287706,-2.1516544818878174,-1.3332092773965378,-2.514682118092672,6.123350488930502,0.9952870607376099,-3.3725321928607386
1708443365.3307693,-2.1516499519348145,-1.3332048517516633,-2.514698330556051,6.123362290650167,0.9952961206436157,-3.3725650946246546
1708443365.3328116,-2.151620626449585,-1.3331559014371415,-2.514731232319967,6.123363959580221,0.9952870011329651,-3.3725033442126673
1708443365.334771,-2.151670217514038,-1.3331440550139924,-2.514662567769186,6.123348820000448,0.9952914714813232,-3.3725531736956995
1708443365.3367722,-2.1516544818878174,-1.333152861600258,-2.5146449247943323,6.123344290047445,0.9953124523162842,-3.3725197950946253
1708443365.3387685,-2.1516287326812744,-1.3331681948951264,-2.514761273060934,6.123356568604269,0.9952945113182068,-3.3725696245776575
1708443365.3407674,-2.151637554168701,-1.333197758798935,-2.5146284739123743,6.123298036843099,0.9952870011329651,-3.3725934664355677
1708443365.342801,-2.1516287326812744,-1.3331515950015564,-2.514682118092672,6.123356568604269,0.99527907371521,-3.3725488821612757
1708443365.344767,-2.1516287326812744,-1.3331961047700425,-2.514719311391012,6.123359548836508,0.9952781200408936,-3.3725650946246546
1708443365.3467767,-2.1516456604003906,-1.333200530414917,-2.514653746281759,6.1233476279075525,0.9953078627586365,-3.372627560292379
1708443365.3488371,-2.1516544818878174,-1.3331769418767472,-2.5147205034839075,6.1233218787010095,0.9952626824378967,-3.3725650946246546
1708443365.3508282,-2.1516120433807373,-1.3331602674773713,-2.514653746281759,6.123323547631063,0.9952700138092041,-3.3725486437426966
1708443365.352782,-2.1516456604003906,-1.333184541468956,-2.5146330038653772,6.123339879303732,0.9952536225318909,-3.3725367228137415
1708443365.3547716,-2.1516003608703613,-1.3331351739219208,-2.51473576227297,6.123352038651266,0.9952914714813232,-3.3725815455066126
1708443365.356776,-2.151616334915161,-1.3331681799939652,-2.514702860509054,6.123314487725057,0.9953241944313049,-3.37260085741152
1708443365.358777,-2.151670217514038,-1.3331725609353562,-2.514649216328756,6.123335349350729,0.9953078627586365,-3.3725951353656214
1708443365.3607798,-2.151665687561035,-1.3332021695426484,-2.5146775881396692,6.123307096749105,0.9953123927116394,-3.3725577036487024
1708443365.3628016,-2.151663303375244,-1.3332048517516633,-2.514649216328756,6.123285877495565,0.9952671527862549,-3.3725979963885706
1708443365.3648057,-2.1515800952911377,-1.3331961345723649,-2.5147159735309046,6.123339879303732,0.995258092880249,-3.3725815455066126
1708443365.3667748,-2.151637554168701,-1.3331558269313355,-2.514693800603048,6.123330819397726,0.9953213930130005,-3.3725650946246546
1708443365.368816,-2.1516287326812744,-1.3331888628057023,-2.5147116819964808,6.1233476279075525,0.9952870011329651,-3.372551743184225
1708443365.3707747,-2.1516544818878174,-1.3331681948951264,-2.5147281328784388,6.1233160374458215,0.9953005313873291,-3.3725443522082728
1708443365.3728182,-2.151637554168701,-1.3331602823785325,-2.5147116819964808,6.123285877495565,0.9952989220619202,-3.372575346623556
1708443365.3747675,-2.1516544818878174,-1.3331814271262665,-2.5146730581866663,6.123330819397726,0.9952870011329651,-3.3725815455066126
1708443365.3768167,-2.1516120433807373,-1.3332246106914063,-2.5147159735309046,6.123348820000448,0.9952627420425415,-3.3725979963885706
1708443365.3787584,-2.1516287326812744,-1.3331681948951264,-2.5146775881396692,6.123348820000448,0.9953124523162842,-3.3726053873645228
1708443365.3807633,-2.1516544818878174,-1.3331858825734635,-2.5146284739123743,6.12336682060317,0.9953124523162842,-3.372551743184225
1708443365.3827763,-2.151620626449585,-1.3331932884505768,-2.514715019856588,6.123389351158895,0.9952700138092041,-3.372591797505514
1708443365.384775,-2.151642084121704,-1.3332048666528244,-2.5146997610675257,6.1233160374458215,0.9953169226646423,-3.372584406529562
1708443365.3867893,-2.151637554168701,-1.3331262928298493,-2.514698330556051,6.123373019486227,0.9953242540359497,-3.372629706059591
1708443365.388809,-2.151616334915161,-1.3332211387208481,-2.514702860509054,6.123356568604269,0.9952870011329651,-3.3725724856006067
1708443365.3908086,-2.1516499519348145,-1.3331725162318726,-2.514715019856588,6.1233264086540125,0.9952989220619202,-3.372559134160177
1708443365.3927767,-2.151670217514038,-1.333147109752037,-2.514719311391012,6.1233476279075525,0.9952671527862549,-3.3726096788989466
1708443365.394762,-2.151670217514038,-1.3331471991590043,-2.514686409627096,6.123335349350729,0.99527907371521,-3.37266713777651
1708443365.3967702,-2.151637554168701,-1.3331769418767472,-2.514715019856588,6.123384821205892,0.9952372908592224,-3.3726053873645228
1708443365.3988013,-2.1516456604003906,-1.3331756007722397,-2.514637295399801,6.123323547631063,0.9952671527862549,-3.3726325670825403
1708443365.400776,-2.1516499519348145,-1.3331692081740876,-2.5146775881396692,6.123350488930502,0.9952552318572998,-3.3726118246661585
1708443365.40277,-2.1516003608703613,-1.333188847904541,-2.514682118092672,6.12333236911849,0.99527907371521,-3.3726609388934534
1708443365.4047823,-2.151625156402588,-1.3331961196712037,-2.5147269407855433,6.123352038651266,0.995312511920929,-3.3726654688464563
1708443365.4067764,-2.1516287326812744,-1.3331725162318726,-2.514693800603048,6.123368370323934,0.9953124523162842,-3.3727081457721155
1708443365.4088016,-2.151637554168701,-1.3332291108420868,-2.514702622090475,6.123389351158895,0.995312511920929,-3.3727012316333216
1708443365.4107842,-2.1516499519348145,-1.3331647527268906,-2.514719311391012,6.123353349953451,0.9953197836875916,-3.3727124373065394
1708443365.4128056,-2.151616334915161,-1.3331307929805298,-2.5147116819964808,6.123380291252889,0.9952825903892517,-3.372662607823507
1708443365.414811,-2.1516048908233643,-1.333184541468956,-2.5146952311145228,6.123384821205892,0.9953033924102783,-3.3727250734912317
1708443365.4168096,-2.151637554168701,-1.333225594168045,-2.5146775881396692,6.123395550041952,0.9953108429908752,-3.372690025960104
1708443365.4187658,-2.1516330242156982,-1.3331395846656342,-2.514715019856588,6.123368489533224,0.9952914714813232,-3.372687880192892
1708443365.4208047,-2.151670217514038,-1.3332048219493409,-2.5146730581866663,6.123318898468771,0.9953078031539917,-3.3727696577655237
1708443365.4227705,-2.151642084121704,-1.3331262928298493,-2.514682118092672,6.1233264086540125,0.9953153133392334,-3.3727293650256556
1708443365.4247699,-2.151620626449585,-1.3331888628057023,-2.514715019856588,6.123368370323934,0.9952700138092041,-3.3727427164660853
1708443365.4267929,-2.1516568660736084,-1.3331932437470932,-2.5147104899035853,6.123330819397726,0.9953033924102783,-3.372760836278097
1708443365.4287617,-2.1516199111938477,-1.3331961196712037,-2.514693800603048,6.12337743022994,0.9953153133392334,-3.372748915349142
1708443365.430812,-2.1516478061676025,-1.3331932586482544,-2.514637295399801,6.123396742134847,0.9952735900878906,-3.372723642979757
1708443365.432826,-2.1516499519348145,-1.3331515204957505,-2.514686409627096,6.123368370323934,0.9953153133392334,-3.372756306325094
1708443365.4347894,-2.1516499519348145,-1.3331647676280518,-2.51473576227297,6.123365509300985,0.9952870011329651,-3.372739855443136
1708443365.4368272,-2.151620626449585,-1.333176926975586,-2.514693800603048,6.123298036843099,0.9953078031539917,-3.372760836278097
1708443365.4387767,-2.1516048908233643,-1.333233506684639,-2.5147391001330774,6.1233218787010095,0.9952536225318909,-3.372725311909811
1708443365.4408188,-2.1516287326812744,-1.3332048666528244,-2.514715019856588,6.123352038651266,0.995364785194397,-3.372748915349142
1708443365.4427707,-2.1516499519348145,-1.333233506684639,-2.514702622090475,6.123368489533224,0.995265543460846,-3.372739855443136
1708443365.444798,-2.1516544818878174,-1.3331558567336579,-2.5146403948413294,6.123373019486227,0.9953078031539917,-3.372739855443136
1708443365.4467833,-2.1516456604003906,-1.333204836850502,-2.514702622090475,6.1233160374458215,0.9953197240829468,-3.372768227254049
1708443365.4487963,-2.151637554168701,-1.3332378429225464,-2.5147061983691614,6.123368370323934,0.9952989816665649,-3.372751776372091
1708443365.4508076,-2.151642084121704,-1.3331681948951264,-2.5147059599505823,6.123426902085104,0.9953573346138,-3.372763697301046
1708443365.452812,-2.1516048908233643,-1.333164782529213,-2.5147114435779017,6.1233099577720544,0.9952825903892517,-3.3727875391589563
1708443365.4548006,-2.151677370071411,-1.333216817384102,-2.5147281328784388,6.1233099577720544,0.9953197836875916,-3.3727594057666224
1708443365.456807,-2.1516499519348145,-1.3331961345723649,-2.5146952311145228,6.123363959580221,0.99531090259552,-3.372763697301046
1708443365.458768,-2.1516411304473877,-1.333209217791893,-2.5147159735309046,6.1233476279075525,0.9953439235687256,-3.3728118578540247
1708443365.4608448,-2.1516244411468506,-1.3332335215858002,-2.514715019856588,6.1233922121818445,0.9953063130378723,-3.3728728930102747
1708443365.4627836,-2.151670217514038,-1.3331845265677948,-2.514702622090475,6.123384821205892,0.9953197836875916,-3.37282377878298
1708443365.4648268,-2.1516456604003906,-1.3331932586482544,-2.514653746281759,6.123356568604269,0.9953227043151855,-3.372835699711935
1708443365.4667764,-2.1516544818878174,-1.3331681948951264,-2.5146775881396692,6.123314487725057,0.9953349828720093,-3.3728328386889856
1708443365.468801,-2.151616334915161,-1.3332585853389283,-2.514702622090475,6.123305547028341,0.9953721165657043,-3.372794214879171
1708443365.4707687,-2.151674509048462,-1.3331515353969117,-2.514686409627096,6.1233476279075525,0.995364785194397,-3.3728700319873255
1708443365.472834,-2.1516456604003906,-1.3331682246974488,-2.514731232319967,6.123359548836508,0.995326042175293,-3.372856680546896
1708443365.474798,-2.151609182357788,-1.333176926975586,-2.5146730581866663,6.12337743022994,0.9953349232673645,-3.372864071522848
1708443365.4768229,-2.1516544818878174,-1.3332270246795197,-2.5147061983691614,6.123384821205892,0.995379626750946,-3.372864071522848
1708443365.478771,-2.151663303375244,-1.333184541468956,-2.514715019856588,6.123356568604269,0.9953542351722717,-3.37282377878298
1708443365.4807823,-2.151620626449585,-1.3332378429225464,-2.514731232319967,6.123401152878561,0.9954111576080322,-3.372887913380758
1708443365.4827938,-2.1515889167785645,-1.3332168620875855,-2.5147281328784388,6.1233264086540125,0.9954445362091064,-3.372850481663839
1708443365.4848118,-2.1516244411468506,-1.3331558865359803,-2.5146775881396692,6.123368489533224,0.9954020977020264,-3.3729057947741907
1708443365.4868245,-2.1516456604003906,-1.3331801158240815,-2.5147104899035853,6.123363959580221,0.9954518675804138,-3.372892443333761
1708443365.4888306,-2.151620626449585,-1.3331439358047028,-2.514693800603048,6.123285877495565,0.9954518675804138,-3.3728714624988
1708443365.4907815,-2.151667833328247,-1.3332255196622391,-2.5147433916675013,6.123384821205892,0.9954681992530823,-3.372843329106466
1708443365.492823,-2.151637554168701,-1.3331682246974488,-2.5147104899035853,6.123384821205892,0.9954923987388611,-3.3728416601764124
1708443365.494777,-2.151667833328247,-1.3332021695426484,-2.5147391001330774,6.123339879303732,0.9954833984375,-3.372883383427755
1708443365.496829,-2.1516048908233643,-1.3332211834243317,-2.5147464911090296,6.123302566796102,0.9954878687858582,-3.3728714624988
1708443365.4988286,-2.1516048908233643,-1.3332137775472184,-2.5147717634784144,6.123373019486227,0.9955117106437683,-3.3728914896594446
1708443365.5008008,-2.151613712310791,-1.3331515353969117,-2.514716927205221,6.12337754943923,0.9955193996429443,-3.3729077021228235
1708443365.5027776,-2.151637554168701,-1.3331725311330338,-2.5147703329669397,6.123335349350729,0.9955598711967468,-3.372866932545797
1708443365.5048056,-2.151613712310791,-1.3332467538169404,-2.5148239771472376,6.1233160374458215,0.9955464005470276,-3.3729212919818323
1708443365.5067816,-2.1516003608703613,-1.3331682544997712,-2.5147855917560022,6.123363959580221,0.9956077933311462,-3.3728957811938685
1708443365.5088356,-2.151642084121704,-1.333209292297699,-2.514810864125387,6.123353349953451,0.9955869317054749,-3.3728461901294153
1708443365.510794,-2.151606798171997,-1.3331801158240815,-2.514867369328634,6.123302566796102,0.9956771731376648,-3.3729093710528772
1708443365.5128057,-2.1515684127807617,-1.3332021844438096,-2.5148664156543177,6.123370158463278,0.9956636428833008,-3.3729167620288294
1708443365.514785,-2.151618242263794,-1.333200455909111,-2.5148871580706995,6.12337754943923,0.9957086443901062,-3.3729077021228235
1708443365.5167925,-2.151606798171997,-1.3331681948951264,-2.5148664156543177,6.123303878098287,0.9957205653190613,-3.3728714624988
1708443365.518804,-2.151585340499878,-1.3331667643836518,-2.51488167444338,6.123291957169332,0.9957144856452942,-3.3728743235217493
1708443365.5208075,-2.1515278816223145,-1.3331558567336579,-2.514902416859762,6.1232501147087,0.9958056211471558,-3.3728624025927942
1708443365.522799,-2.1515774726867676,-1.3331647676280518,-2.5149055163012903,6.123255955963888,0.9957877993583679,-3.372887913380758
1708443365.524799,-2.1515774726867676,-1.333200530414917,-2.5149877707110804,6.123244035034933,0.9958076477050781,-3.3728957811938685
1708443365.526788,-2.1515138149261475,-1.333151565199234,-2.5149710814105433,6.123220193177023,0.9958570599555969,-3.3728788534747522
1708443365.5288312,-2.1515278816223145,-1.33318583786998,-2.514948908482687,6.12314652183608,0.9958555698394775,-3.372896734868185
1708443365.5307915,-2.1515705585479736,-1.3331681799939652,-2.5150027910815638,6.123142111092367,0.9959079623222351,-3.372880522404806
1708443365.5328093,-2.151505947113037,-1.333164782529213,-2.51503831544985,6.123139130860128,0.9959532618522644,-3.372843329106466
1708443365.5347834,-2.1515297889709473,-1.333176926975586,-2.515050713215963,6.123148190766134,0.9959724545478821,-3.372868601475851
1708443365.5368018,-2.151550054550171,-1.3331515801003953,-2.515066925679342,6.123086678772726,0.996004045009613,-3.3728609720813196
1708443365.5387833,-2.151460886001587,-1.333225504761078,-2.5150910059558313,6.123100268631735,0.9959995746612549,-3.3728061358081263
1708443365.5408285,-2.1514697074890137,-1.3331916195205231,-2.5150895754443567,6.1230671284492395,0.9960808157920837,-3.372880522404806
1708443365.542792,-2.1514618396759033,-1.3332092475942154,-2.5151432196246546,6.123056876450338,0.9960956573486328,-3.37281042734255
1708443365.5448234,-2.1514370441436768,-1.3332137626460572,-2.5151825586902063,6.123011815338888,0.9961524605751038,-3.3728283087359827
1708443365.5467892,-2.1514389514923096,-1.3332661849311371,-2.5151615778552454,6.123037206917562,0.9961769580841064,-3.372803036366598
1708443365.5488245,-2.1513891220092773,-1.3332048517516633,-2.5152512232409876,6.122971284180441,0.996212899684906,-3.3727696577655237
1708443365.5508363,-2.151355266571045,-1.3332453829101105,-2.5152304808246058,6.122942912369528,0.9962652325630188,-3.3727546373950403
1708443365.5528164,-2.15134596824646,-1.333188847904541,-2.515254561101095,6.123001563339987,0.9963254332542419,-3.372744385396139
1708443365.554775,-2.1513381004333496,-1.3332168620875855,-2.515311066304342,6.122907030373373,0.9963493943214417,-3.372732464467184
1708443365.556806,-2.1512882709503174,-1.3332422536662598,-2.5153051058398646,6.1228664992149255,0.9963929057121277,-3.3726945559131067
1708443365.5587924,-2.1513142585754395,-1.3332048517516633,-2.515395228062765,6.1228710291679285,0.9964573979377747,-3.3726444880114954
1708443365.5608306,-2.1512577533721924,-1.3331725162318726,-2.5153282324420374,6.122802126198568,0.9964559078216553,-3.3726773897754114
1708443365.5627894,-2.1512081623077393,-1.333204836850502,-2.5154016653644007,6.122853028565206,0.996496319770813,-3.372612778340475
1708443365.564797,-2.1511964797973633,-1.3331769418767472,-2.5154252688037317,6.122851836472311,0.9965519905090332,-3.3725889364825647
1708443365.5668075,-2.1512064933776855,-1.3332168620875855,-2.515486542378561,6.1227526543434045,0.996632993221283,-3.372538153325216
1708443365.568796,-2.1511240005493164,-1.333200530414917,-2.5155018011676233,6.1227362034614465,0.9967305660247803,-3.3725622336017054
1708443365.5707781,-2.1511499881744385,-1.3332124513438721,-2.5155420939074915,6.12265835979537,0.9967531561851501,-3.372455898915426
1708443365.5728116,-2.1510965824127197,-1.3331725311330338,-2.515540663396017,6.122644889145651,0.9968626499176025,-3.3723748365985315
1708443365.574776,-2.1511270999908447,-1.3332005006125947,-2.5156436602221888,6.122604477196493,0.9968971610069275,-3.372331682835714
1708443365.5767727,-2.1510703563690186,-1.333200530414917,-2.515601936970846,6.122568356781759,0.9969498515129089,-3.372304979954855
1708443365.5787735,-2.151005983352661,-1.3331681948951264,-2.515653196965353,6.122483002930441,0.997016966342926,-3.3722239176379603
1708443365.5807774,-2.151005744934082,-1.3331592840007325,-2.515697781239645,6.122522103577413,0.9970892071723938,-3.37217623392214
1708443365.5827804,-2.151007890701294,-1.3331691932729264,-2.5157292524920862,6.122399556427755,0.997189998626709,-3.372157875691549
1708443365.5848134,-2.150933265686035,-1.3332168620875855,-2.5157621542560022,6.122417437821188,0.9972168803215027,-3.372077528630392
1708443365.5867813,-2.1509149074554443,-1.3332137179425736,-2.5158100763904017,6.122327434807577,0.9973292946815491,-3.371920410786764
1708443365.588807,-2.1508982181549072,-1.3332005453160782,-2.515833918248312,6.1222959635551355,0.9974392056465149,-3.3718319574939173
1708443365.5908577,-2.1508336067199707,-1.3331932884505768,-2.515857998524801,6.122318494110861,0.9974524974822998,-3.3718143145190638
1708443365.5928006,-2.1508116722106934,-1.3331516099027176,-2.5158970991717737,6.122201669007101,0.9975501894950867,-3.371709410344259
1708443365.5947657,-2.1507790088653564,-1.3332048517516633,-2.5159452597247522,6.122095572739401,0.9975875020027161,-3.371582333241598
1708443365.5967731,-2.150779962539673,-1.3331961196712037,-2.5160227457629603,6.122138845711508,0.997737467288971,-3.37144905725588
1708443365.5987723,-2.150670289993286,-1.333200530414917,-2.51603347459902,6.122042047768392,0.9978113770484924,-3.3713741938220423
1708443365.6007547,-2.1507277488708496,-1.3331961345723649,-2.516078297291891,6.122026908188619,0.9978650808334351,-3.3712714354144495
1708443365.6027787,-2.150672197341919,-1.3332048517516633,-2.51613694826235,6.121958005219259,0.9980106353759766,-3.371173922215597
1708443365.6048088,-2.150622606277466,-1.333254174595215,-2.516186300908224,6.121901500016012,0.9980739951133728,-3.371025625859396
1708443365.6068456,-2.1505815982818604,-1.3331888330033799,-2.5162461439715784,6.121814954071798,0.9981590509414673,-3.370889965687887
1708443365.6087816,-2.150538682937622,-1.3332377833179017,-2.516289536152975,6.121754634171285,0.9982494711875916,-3.3707876841174524
1708443365.6108308,-2.150479316711426,-1.3332422536662598,-2.5163047949420374,6.121641146927633,0.9983872175216675,-3.370659653340475
1708443365.612813,-2.150418519973755,-1.3331932586482544,-2.5163901487933558,6.121626245766439,0.9985045790672302,-3.3704617659198206
1708443365.6147788,-2.1504406929016113,-1.333197758798935,-2.5164201895343226,6.121540891915121,0.9985585808753967,-3.3703718821154993
1708443365.6167922,-2.1504132747650146,-1.3331932437470932,-2.516482655202047,6.121527421265402,0.9986788630485535,-3.370200220738546
1708443365.6187704,-2.1502981185913086,-1.3331394654563447,-2.516562287007467,6.121463525086202,0.9987790584564209,-3.3701208273517054
1708443365.6207774,-2.1502435207366943,-1.3332048964551468,-2.516547743474142,6.121395695000448,0.998887300491333,-3.369945828114645
1708443365.622783,-2.150240182876587,-1.3331871938756485,-2.516665760670797,6.121343600540914,0.998995304107666,-3.3698306719409388
1708443365.624793,-2.150193452835083,-1.3332168769887467,-2.5166643301593226,6.121262895851888,0.9991288781166077,-3.369617287312643
1708443365.6268263,-2.1501481533050537,-1.3332168620875855,-2.516773525868551,6.121204721718588,0.9992325305938721,-3.3694492022143763
1708443365.6287825,-2.1500566005706787,-1.3331961196712037,-2.5168336073504847,6.121074664383688,0.9993645548820496,-3.369279209767477
1708443365.6307874,-2.150000810623169,-1.3332211834243317,-2.5168889204608362,6.121068465500631,0.9994352459907532,-3.3691557089435022
1708443365.632823,-2.1498918533325195,-1.3332004708102723,-2.5169785658465784,6.120988118439474,0.9995882511138916,-3.368927542363302
1708443365.6347864,-2.149869203567505,-1.3331725162318726,-2.5170415083514612,6.120904433518209,0.9996798634529114,-3.3687267939196985
1708443365.636824,-2.1498169898986816,-1.3332092326930542,-2.517064634953634,6.120815861016073,0.9997956156730652,-3.3685324827777308
1708443365.638799,-2.149735450744629,-1.3332124215415497,-2.5171693007098597,6.1207560179527185,0.9999332427978516,-3.3683112303363245
1708443365.6408036,-2.1496472358703613,-1.333225594168045,-2.5172575155841272,6.120709645539083,1.0000193119049072,-3.3681252638446253
1708443365.6428275,-2.1496286392211914,-1.333200530414917,-2.5173338095294397,6.120638358383932,1.0001975297927856,-3.367889467869894
1708443365.64478,-2.149580955505371,-1.3332422387650986,-2.5173595587359827,6.120550143509664,1.000292420387268,-3.3676427046405237
1708443365.6468084,-2.14955472946167,-1.33326310039077,-2.517477575932638,6.120436656266012,1.0004690885543823,-3.3674100081073206
1708443365.6488206,-2.1494359970092773,-1.3332092624953766,-2.5174835363971155,6.120422947197714,1.0006027221679688,-3.3671215216266077
1708443365.6507967,-2.1493780612945557,-1.333200530414917,-2.517606560383932,6.120342242508688,1.0007332563400269,-3.3668912092791956
1708443365.6528318,-2.1493451595306396,-1.3332168769887467,-2.517664972935812,6.1202372191245935,1.0008488893508911,-3.36664063135256
1708443365.6548023,-2.149315357208252,-1.3332378578237076,-2.517745558415548,6.120162594109335,1.0010064840316772,-3.3664167563067835
1708443365.6568165,-2.1492676734924316,-1.3331916344216843,-2.517834011708395,6.120102989464559,1.0010756254196167,-3.3661654631244105
1708443365.6588001,-2.149212121963501,-1.3331602674773713,-2.51786452928652,6.120064127236166,1.0012660026550293,-3.3658130804644983
1708443365.6607764,-2.1491315364837646,-1.333254100089409,-2.5179362932788294,6.119947302132406,1.0013561248779297,-3.3655884901629847
1708443365.6627753,-2.1490671634674072,-1.3331724864295502,-2.5180333296405237,6.119872915535726,1.0015262365341187,-3.3652549425708216
1708443365.6647668,-2.1490228176116943,-1.3331592840007325,-2.5181084314929407,6.119787561684408,1.001686453819275,-3.3649397532092493
1708443365.6667712,-2.1489388942718506,-1.3332793873599549,-2.5181520620929163,6.119708168297567,1.001821517944336,-3.364631954823629
1708443365.668771,-2.1488797664642334,-1.3331756752780457,-2.5182510058032435,6.119628894120016,1.0020103454589844,-3.3643129507647913
1708443365.6708088,-2.1488568782806396,-1.3331637394479294,-2.5183406511889856,6.11955879905776,1.0021260976791382,-3.3640504519092005
1708443365.6728091,-2.148714303970337,-1.3331916493228455,-2.5183828512774866,6.119454252510824,1.0022945404052734,-3.3637271563159388
1708443365.674786,-2.148683547973633,-1.3331961047700425,-2.518447224293844,6.119358527451315,1.0024385452270508,-3.3634074370013636
1708443365.6768181,-2.1486361026763916,-1.3332048517516633,-2.518531147633688,6.119232880860128,1.0025988817214966,-3.363075081502096
1708443365.6788037,-2.148555278778076,-1.3332168769887467,-2.5185940901385706,6.119177448540487,1.002709984779358,-3.362685028706686
1708443365.6808007,-2.1484806537628174,-1.3332498234561463,-2.5186989943133753,6.119103181153097,1.0029066801071167,-3.362298313771383
1708443365.6827793,-2.148432970046997,-1.3332334917834778,-2.518790308629171,6.118938314705648,1.0030702352523804,-3.361943785344259
1708443365.6847808,-2.1483445167541504,-1.3332497787526627,-2.5189042727099817,6.118895160942831,1.0032069683074951,-3.361560646687643
1708443365.6867924,-2.1482932567596436,-1.3332246255925675,-2.5189879576312464,6.118820178299703,1.003358244895935,-3.361138407384054
1708443365.6887987,-2.1482093334198,-1.333229125743248,-2.519067351018087,6.11873077133254,1.003481388092041,-3.360715691243307
1708443365.6908035,-2.1481287479400635,-1.333216817384102,-2.5191381613360804,6.118663537293234,1.0036706924438477,-3.3603907267199915
1708443365.6927762,-2.1480517387390137,-1.333229125743248,-2.5192022959338587,6.118551480561056,1.0037908554077148,-3.359979216252462
1708443365.694787,-2.1479735374450684,-1.3331960898688813,-2.5193117300616663,6.118509280472555,1.003991723060608,-3.3595529238330286
1708443365.6967797,-2.147876024246216,-1.3332137030414124,-2.519383494053976,6.118473636894979,1.0041943788528442,-3.359150234852926
1708443365.6987734,-2.147840976715088,-1.333178461795189,-2.519491497670309,6.118336188584127,1.004304051399231,-3.358694140111105
1708443365.7008114,-2.147761583328247,-1.3332291108420868,-2.5195794741259974,6.1182899353797815,1.0044184923171997,-3.3582471052752894
1708443365.702791,-2.147686243057251,-1.3332114678672333,-2.5196953455554407,6.118202912598409,1.004625916481018,-3.3578174749957483
1708443365.7048404,-2.1476352214813232,-1.3332572740367432,-2.519755188618795,6.118171679764547,1.0047310590744019,-3.3573935667621058
1708443365.706825,-2.1475300788879395,-1.333203451042511,-2.5198631922351282,6.11798773983077,1.0049339532852173,-3.356894556676046
1708443365.708782,-2.147488594055176,-1.333266244535782,-2.5199394861804407,6.117965566902914,1.005102276802063,-3.3564890066729944
1708443365.7108073,-2.1473937034606934,-1.3332079511931916,-2.5200310389148157,6.1178908226783655,1.0052584409713745,-3.355993096028463
1708443365.712833,-2.147289752960205,-1.3331872087768097,-2.5200777689563196,6.117818701058187,1.0053609609603882,-3.355509583150045
1708443365.7148087,-2.1472926139831543,-1.3331593734076996,-2.520186964665548,6.117780077248373,1.0055140256881714,-3.3550425211535853
1708443365.7168014,-2.147190809249878,-1.3331915599158783,-2.5202656427966517,6.117624628334799,1.00568687915802,-3.354565445576803
1708443365.7188098,-2.1471078395843506,-1.333240957265236,-2.520325009022848,6.117560374527731,1.0058339834213257,-3.354116741810934
1708443365.7207975,-2.1470351219177246,-1.3332499128631135,-2.520430390034811,6.117436396866598,1.005966305732727,-3.3535457293139856
1708443365.722776,-2.146953821182251,-1.3332365167192002,-2.5205467383014124,6.117397415428915,1.0061180591583252,-3.3530338446246546
1708443365.724802,-2.1468968391418457,-1.3332290810397645,-2.5205727259265345,6.117280590325155,1.0062670707702637,-3.3525407950030726
1708443365.726784,-2.146873950958252,-1.3332246106914063,-2.520731274281637,6.117267000466146,1.0064440965652466,-3.351996962224142
1708443365.7288105,-2.1468005180358887,-1.333207980995514,-2.5207911173449915,6.117118108063497,1.006587028503418,-3.3514462153064173
1708443365.7307928,-2.146733522415161,-1.3331916195205231,-2.5208826700793665,6.117029535561361,1.006780982017517,-3.350947920476095
1708443365.7328322,-2.1466519832611084,-1.3332603734782715,-2.5209341684924524,6.116924989014425,1.0069206953048706,-3.3503556887256067
1708443365.7348113,-2.146637201309204,-1.3332321357778092,-2.5210540930377405,6.116808283119955,1.0070812702178955,-3.349772278462545
1708443365.7368257,-2.1465587615966797,-1.3333051812699814,-2.521114174519674,6.116799104004659,1.0072213411331177,-3.3492398897754114
1708443365.7388039,-2.146477222442627,-1.3333247166923066,-2.521160666142599,6.116724478989401,1.007370114326477,-3.3486486116992396
1708443365.74083,-2.1464383602142334,-1.333274320965149,-2.5213027636157435,6.116561758309164,1.0075217485427856,-3.348053518925802
1708443365.742794,-2.1463828086853027,-1.3333396476558228,-2.5213614145862024,6.116507875710287,1.007665991783142,-3.347410265599386
1708443365.744834,-2.1463024616241455,-1.3333113503507157,-2.521461550389425,6.116419780045309,1.0078178644180298,-3.3467753569232386
1708443365.7467916,-2.146244764328003,-1.3333277267268677,-2.521554772053854,6.116343486099996,1.0079139471054077,-3.3462639490710657
1708443365.748806,-2.1461777687072754,-1.3333024841598053,-2.5216551462756556,6.1162627814109705,1.0081108808517456,-3.345583740864889
1708443365.7508173,-2.146138906478882,-1.333347038631775,-2.521694008504049,6.116213428765096,1.008231282234192,-3.3449793497668665
1708443365.7528365,-2.1460506916046143,-1.3334175062230607,-2.521708075200216,6.11610888221816,1.008367896080017,-3.3443155924426478
1708443365.754792,-2.146009922027588,-1.3333681386760254,-2.521830383931295,6.116037118225851,1.008536458015442,-3.343684498463766
1708443365.756826,-2.145921468734741,-1.3333637130311509,-2.5218847433673304,6.11589943149642,1.0086761713027954,-3.343048159276144
1708443365.7588208,-2.14591908454895,-1.3333470982364197,-2.5220285097705286,6.115899550705709,1.008844256401062,-3.342431131993429
1708443365.760808,-2.1457934379577637,-1.3333470237306138,-2.5220347086535853,6.1158277867134,1.0089765787124634,-3.3417070547686976
1708443365.7627943,-2.1457669734954834,-1.3333963614753266,-2.5221336523639124,6.115772473603048,1.009095549583435,-3.3410640398608606
1708443365.7648084,-2.145728349685669,-1.3333889704993744,-2.522230927144186,6.115635144501486,1.0092980861663818,-3.3404083887683313
1708443365.7667863,-2.1456797122955322,-1.3334041398814698,-2.5222657362567347,6.115551459580221,1.0093884468078613,-3.3397837320910853
1708443365.7687817,-2.145632028579712,-1.3334008169225235,-2.5223377386676233,6.115409242897787,1.0095584392547607,-3.339008871709005
1708443365.7707691,-2.1455674171447754,-1.3333711487105866,-2.52238899866213,6.115386712342062,1.0096741914749146,-3.3383339087115687
1708443365.7728167,-2.1454720497131348,-1.333404080276825,-2.522468392048971,6.115324246674337,1.0097852945327759,-3.3376267592059534
1708443365.7747648,-2.145423173904419,-1.3333844554475327,-2.522546354924337,6.115247595101156,1.0099806785583496,-3.336931053792135
1708443365.7767577,-2.1453146934509277,-1.3333831888488312,-2.5226178804980677,6.115210521012106,1.0101280212402344,-3.33622652689089
1708443365.7787912,-2.145324468612671,-1.3334290397218247,-2.5226569811450403,6.115141379624166,1.0102063417434692,-3.3355284372912806
1708443365.780761,-2.1452155113220215,-1.333375633960106,-2.522754494343893,6.115078794747152,1.0103641748428345,-3.3347883860217493
1708443365.7827637,-2.1452221870422363,-1.3333756041577836,-2.522764031087057,6.1149892685706995,1.0105279684066772,-3.334057394658224
1708443365.7847555,-2.1451046466827393,-1.3333548170379181,-2.522882048283712,6.114926326065817,1.0106313228607178,-3.333325211201803
1708443365.7867866,-2.145028591156006,-1.333351494078972,-2.522944990788595,6.114861953049459,1.0107473134994507,-3.3325968424426478
1708443365.7887554,-2.1449639797210693,-1.3334008020213624,-2.5230096022235315,6.11475299575881,1.010859727859497,-3.3318327108966272
1708443365.7907588,-2.144909381866455,-1.3334086251309891,-2.523061815892355,6.114751565247335,1.0110342502593994,-3.3311308065997522
1708443365.792761,-2.1448254585266113,-1.3333889555982132,-2.523095194493429,6.114661919861593,1.0110836029052734,-3.3302810827838343
1708443365.7947593,-2.144782304763794,-1.3334086549333115,-2.5232225100146692,6.114594328194418,1.0112099647521973,-3.3295348326312464
1708443365.7967741,-2.1446962356567383,-1.3333547723344346,-2.523244921361105,6.11455403545455,1.0112837553024292,-3.328787867222921
1708443365.7987776,-2.144691228866577,-1.3334086400321503,-2.5233288447009485,6.114467489510336,1.0114173889160156,-3.327970329915182
1708443365.8008091,-2.144585132598877,-1.3333514642766495,-2.523426119481222,6.114382374077596,1.0115420818328857,-3.3272386232959192
1708443365.8027735,-2.1445257663726807,-1.3333637577346344,-2.5234654585467737,6.114331710129537,1.0116490125656128,-3.3263705412494105
1708443365.8047695,-2.1444828510284424,-1.3333603751710434,-2.52350885072817,6.114325392037191,1.011775255203247,-3.325559918080465
1708443365.8067865,-2.144463300704956,-1.333371178512909,-2.5235987345324915,6.114223468094625,1.0119026899337769,-3.3247526327716272
1708443365.8088021,-2.1444361209869385,-1.33340077221904,-2.5236573855029505,6.114156591683187,1.011982798576355,-3.32391864458193
1708443365.8107777,-2.14432954788208,-1.333387480383255,-2.523684565220968,6.114047515183248,1.0120817422866821,-3.3231664339648646
1708443365.8127964,-2.1443192958831787,-1.3333726239255448,-2.5237117449389856,6.114024984627523,1.0121899843215942,-3.3222652117358606
1708443365.814777,-2.1442220211029053,-1.333372638826706,-2.52380878130068,6.113903510361471,1.0122863054275513,-3.3214717547046106
1708443365.8167753,-2.1442151069641113,-1.3334086400321503,-2.5238521734820765,6.113835084229269,1.012391448020935,-3.320657555256979
1708443365.818764,-2.144162893295288,-1.3333964061788102,-2.523937765751974,6.113776552468099,1.0125324726104736,-3.3198068777667444
1708443365.8207803,-2.1441152095794678,-1.3333875399878998,-2.5240381399737757,6.113737809448995,1.012610673904419,-3.318986956273214
1708443365.822795,-2.144094944000244,-1.3333875101855774,-2.52407414117922,6.113666522293844,1.0127158164978027,-3.3181725184070032
1708443365.8247721,-2.144096851348877,-1.3333831888488312,-2.5241594950305384,6.11356149890975,1.0128151178359985,-3.3172789255725306
1708443365.8267908,-2.1440279483795166,-1.3333514791778107,-2.5241685549365442,6.113497125893392,1.0128947496414185,-3.3164125124560755
1708443365.8287723,-2.1439836025238037,-1.333449811940529,-2.5242331663714808,6.113401520043173,1.0129789113998413,-3.315465513859884
1708443365.830787,-2.1439270973205566,-1.3334379208138962,-2.524252716694967,6.11340759971694,1.0130630731582642,-3.3146944681750696
1708443365.8328078,-2.1438748836517334,-1.3333844554475327,-2.5242558161364954,6.113355266838827,1.0131728649139404,-3.3137524763690394
1708443365.8347697,-2.1438791751861572,-1.3334086549333115,-2.52431565919985,6.113287913590231,1.0132014751434326,-3.312934700642721
1708443365.836771,-2.1438405513763428,-1.3333875101855774,-2.524405304585592,6.113223659783163,1.0133321285247803,-3.312043015156881
1708443365.838766,-2.1438045501708984,-1.3333681386760254,-2.5244460741626185,6.113129365235128,1.0134282112121582,-3.31115967432131
1708443365.840776,-2.143761157989502,-1.3333919805339356,-2.5244718233691614,6.1130714295204065,1.0135079622268677,-3.3102708498584192
1708443365.842787,-2.1437113285064697,-1.3334334057620545,-2.5245330969439905,6.11303077915267,1.0135470628738403,-3.3094072977649134
1708443365.8447804,-2.1436479091644287,-1.3333800298026581,-2.524572197590963,6.112996446877279,1.013694167137146,-3.3085272947894495
1708443365.8467865,-2.1436116695404053,-1.3333787781051178,-2.524637762700216,6.112977015763082,1.013724446296692,-3.3075993696795862
1708443365.8488078,-2.1435799598693848,-1.3334114414504548,-2.524668280278341,6.112933623581686,1.0137993097305298,-3.3067126909839075
1708443365.8507757,-2.143557071685791,-1.3334201288274308,-2.524734083806173,6.112853157311239,1.013951301574707,-3.3058393637286585
1708443365.8527777,-2.1435365676879883,-1.33340077221904,-2.524785105382101,6.112781035691061,1.013984203338623,-3.304955069218771
1708443365.8547873,-2.1434519290924072,-1.3333874952844162,-2.524792734776632,6.112721550255575,1.0140701532363892,-3.3040080706225794
1708443365.8568048,-2.1434786319732666,-1.3333874654820939,-2.5248077551471155,6.112638819008627,1.0141288042068481,-3.303140703831808
1708443365.8587763,-2.143434524536133,-1.333400846724846,-2.5248974005328577,6.112595784455099,1.014214277267456,-3.3021908442126673
1708443365.860805,-2.1434309482574463,-1.3334041398814698,-2.524916950856344,6.112537729531088,1.014244556427002,-3.301305119191305
1708443365.8627903,-2.1433157920837402,-1.3334290248206635,-2.5249291102038782,6.11249731758193,1.014309048652649,-3.3003931681262415
1708443365.8647738,-2.1433141231536865,-1.3333963763764878,-2.5250306765185755,6.1124271033103845,1.0144354104995728,-3.299497191105978
1708443365.866818,-2.1432859897613525,-1.333384470348694,-2.524992052708761,6.112406122475424,1.014502763748169,-3.298532787953512
1708443365.8688328,-2.143270969390869,-1.3333875101855774,-2.5250280539142054,6.1123835919196985,1.0145342350006104,-3.2976303736316126
1708443365.8707774,-2.1432301998138428,-1.3334334206632157,-2.525014940892355,6.112310516625204,1.014545202255249,-3.2967267672168177
1708443365.872817,-2.1431658267974854,-1.3333998334458848,-2.52509576479067,6.112267124443807,1.0146666765213013,-3.2957940737353724
1708443365.8747663,-2.143162250518799,-1.333359346990921,-2.5251358191119593,6.112177359848776,1.0147029161453247,-3.2948957125293177
1708443365.876777,-2.143155336380005,-1.333417461519577,-2.5251601378070276,6.11213384845809,1.0147751569747925,-3.2939563433276575
1708443365.878779,-2.1431236267089844,-1.333359346990921,-2.525187317525045,6.112128007202902,1.0148050785064697,-3.293032471333639
1708443365.8808265,-2.1430184841156006,-1.3333998334458848,-2.5252485910998743,6.112081634789266,1.0149283409118652,-3.2921281496631067
1708443365.8828292,-2.1430270671844482,-1.3333592873862763,-2.5252843538867396,6.11200379112319,1.0149508714675903,-3.2911654154406946
1708443365.8847811,-2.142990827560425,-1.3333963763764878,-2.525304142628805,6.11195324638442,1.0149990320205688,-3.2902165094958704
1708443365.8867621,-2.142946720123291,-1.3333875250867386,-2.525324885045187,6.11193202713088,1.0150588750839233,-3.289342705403463
1708443365.8887827,-2.1429283618927,-1.3333919805339356,-2.5253682772265833,6.111851680069723,1.0150772333145142,-3.2883406321154993
1708443365.890783,-2.142878770828247,-1.3333800596049805,-2.525367323552267,6.111800420075216,1.015138864517212,-3.287450377141134
1708443365.892804,-2.1428353786468506,-1.3333831292441864,-2.525412146245138,6.111756074219503,1.015215277671814,-3.2864087263690394
1708443365.8948,-2.1428353786468506,-1.3334246140769501,-2.525411907826559,6.111747014313497,1.015225887298584,-3.2854724566089075
1708443365.8968017,-2.142738103866577,-1.3333919805339356,-2.5254479090320032,6.111711013108053,1.0152618885040283,-3.284445110951559
1708443365.8987951,-2.142747163772583,-1.3333711338094254,-2.5254753271686,6.111683833390035,1.0153189897537231,-3.283462111149923
1708443365.900814,-2.1427221298217773,-1.3333800596049805,-2.5255375544177454,6.111571895867147,1.0153820514678955,-3.282426897679464
1708443365.9027998,-2.1427083015441895,-1.333342657690384,-2.525540892277853,6.111500251084127,1.0154228210449219,-3.2814930121051233
1708443365.9048178,-2.142695903778076,-1.3334174317172547,-2.5255888144122522,6.111543643265524,1.0154423713684082,-3.2804933230029505
1708443365.9067988,-2.142673969268799,-1.3333637428334733,-2.5256128946887415,6.111437070160665,1.0154905319213867,-3.279501740132467
1708443365.9087684,-2.1426312923431396,-1.333396391277649,-2.5256174246417444,6.111450660019674,1.0155622959136963,-3.2785523573504847
1708443365.910778,-2.1425464153289795,-1.3333800596049805,-2.52560264268984,6.111365544586935,1.015579342842102,-3.2775517145739954
1708443365.912795,-2.142597198486328,-1.3333559793284913,-2.525656286870138,6.111363994866171,1.0156724452972412,-3.2766178289996546
1708443365.9147904,-2.142535924911499,-1.3333919805339356,-2.5256639162646692,6.11127136924819,1.0157006978988647,-3.2756150404559534
1708443365.9167964,-2.1425042152404785,-1.3334453415921708,-2.5257208983050745,6.111262309342184,1.0156782865524292,-3.2746577898608606
1708443365.9187777,-2.1424341201782227,-1.3333889704993744,-2.525691095982687,6.1111700413520715,1.0157471895217896,-3.2736626307116907
1708443365.9208057,-2.1424849033355713,-1.33340077221904,-2.5257194677936,6.111129390984335,1.015816569328308,-3.272717062626974
1708443365.922778,-2.142437219619751,-1.3333426874927063,-2.525731388722555,6.111169802933492,1.0158432722091675,-3.2717047373401087
1708443365.9248152,-2.142441511154175,-1.333347038631775,-2.525776211415426,6.111070978432455,1.0158677101135254,-3.270693842564718
1708443365.9267774,-2.142338752746582,-1.33340077221904,-2.5258002916919153,6.110982644348898,1.0159578323364258,-3.269724194203512
1708443365.9288106,-2.1423795223236084,-1.3333637428334733,-2.5257750193225306,6.110926019936361,1.0159400701522827,-3.2688010374652308
1708443365.930796,-2.1423354148864746,-1.3333559793284913,-2.525832001362936,6.11093949058608,1.0160058736801147,-3.267802063618795
1708443365.9328115,-2.142336368560791,-1.3334086549333115,-2.525851551686422,6.110851394921102,1.0160495042800903,-3.2668383757220667
1708443365.9348187,-2.142296552658081,-1.333388940697052,-2.52582294145693,6.110769021302023,1.0160404443740845,-3.265872065220968
1708443365.9368093,-2.142277240753174,-1.3333470684340973,-2.525884215031759,6.110788571625509,1.016088843345642,-3.264869515095846
1708443365.9387736,-2.1422524452209473,-1.3333559793284913,-2.5258591810809534,6.1107438681419275,1.01616632938385,-3.263845507298605
1708443365.9408019,-2.1421709060668945,-1.3334174913218995,-2.5258501211749476,6.110680687218466,1.016127586364746,-3.262982193623678
1708443365.9427676,-2.14220929145813,-1.3333963763764878,-2.5259116331683558,6.110665905266561,1.0161558389663696,-3.261977497731344
1708443365.9448018,-2.142204761505127,-1.3333637428334733,-2.5259457270251673,6.1105761406715295,1.0162129402160645,-3.261047903691427
1708443365.9468005,-2.142197608947754,-1.3333470982364197,-2.5259116331683558,6.1106393215949915,1.016219139099121,-3.2601047197925013
1708443365.9488053,-2.1421616077423096,-1.3333756637624283,-2.525940004979269,6.110577809601583,1.0162570476531982,-3.2591939608203333
1708443365.950815,-2.142136812210083,-1.333364800815918,-2.525869433079855,6.110431062966146,1.0162718296051025,-3.258256260548727
1708443365.9528,-2.1420767307281494,-1.3333726239255448,-2.525951687489645,6.110416519432821,1.0162718296051025,-3.257176701222555
1708443365.9548094,-2.1420934200286865,-1.3333559793284913,-2.525996748601095,6.110418069153585,1.016312599182129,-3.2562649885760706
1708443365.9567983,-2.142085552215576,-1.333384470348694,-2.5259879271136683,6.110448109894552,1.0163453817367554,-3.255256954823629
1708443365.9587765,-2.142066240310669,-1.3333603751710434,-2.5259879271136683,6.110368478089132,1.0163530111312866,-3.2543357054339808
1708443365.9608014,-2.14200496673584,-1.333372638826706,-2.526066843663351,6.110269772797384,1.0163065195083618,-3.2533276716815394
1708443365.9627962,-2.1420094966888428,-1.3333548170379181,-2.5260327498065394,6.110245930939474,1.016330599784851,-3.2523091475116175
1708443365.9648135,-2.14200496673584,-1.3333889704993744,-2.5260284582721155,6.110226261406698,1.016404151916504,-3.2513471285449427
1708443365.966774,-2.141993761062622,-1.3333559793284913,-2.5260687510119837,6.11020444610671,1.016404151916504,-3.250441376362936
1708443365.9688222,-2.1419239044189453,-1.3333637428334733,-2.5260356108294886,6.110184895783224,1.016432762145996,-3.249396626149313
1708443365.97082,-2.141930103302002,-1.3333647710135956,-2.526043478642599,6.110135304718771,1.0164523124694824,-3.2484880129443567
1708443365.9727755,-2.141925573348999,-1.3333307069591065,-2.526043478642599,6.110029089241781,1.016506314277649,-3.247563187276022
1708443365.9747963,-2.1419007778167725,-1.3333548170379181,-2.526048008595602,6.110021579056539,1.0165002346038818,-3.2466326395617884
1708443365.9768033,-2.1418285369873047,-1.3333593171885987,-2.526076380406515,6.11000822761611,1.0165663957595825,-3.24560791650881
1708443365.9787805,-2.141866683959961,-1.3333188456347962,-2.5260587374316614,6.1099634049232385,1.0165603160858154,-3.2446699778186243
1708443365.9808154,-2.141792058944702,-1.3333559793284913,-2.526120964680807,6.10990201213912,1.016543984413147,-3.243722979222433
1708443365.982794,-2.1418347358703613,-1.333372638826706,-2.5260959307300013,6.109873640328207,1.0165724754333496,-3.2427335421191614
1708443365.9848368,-2.1417782306671143,-1.3333603900722046,-2.5261240641223353,6.109855878144064,1.016593337059021,-3.2417693773852747
1708443365.9867897,-2.1418187618255615,-1.3333977919868012,-2.5261152426349085,6.109807956009664,1.0166128873825073,-3.2408769766436976
1708443365.988799,-2.1417489051818848,-1.333302528863289,-2.5261197725879114,6.109742390900411,1.016629695892334,-3.239939276372091
1708443365.9907773,-2.1417417526245117,-1.3333144050887604,-2.5261152426349085,6.109727251320638,1.0166162252426147,-3.238962475453512
1708443365.9927776,-2.1417577266693115,-1.3333604049733658,-2.5261197725879114,6.1097242710884,1.0166264772415161,-3.238077227269308
1708443365.9948044,-2.141780138015747,-1.3333188158324738,-2.526151482258932,6.109676348954,1.016701579093933,-3.2371225992785853
1708443365.9968114,-2.1417429447174072,-1.3333559793284913,-2.526139561329977,6.109645116120138,1.0166970491409302,-3.2362704912768763
1708443365.998786,-2.1417429447174072,-1.3333726239255448,-2.526151482258932,6.109633195191183,1.0167256593704224,-3.2352965513812464
1708443366.000808,-2.141716718673706,-1.3333514791778107,-2.526156012211935,6.1095852730567834,1.0166881084442139,-3.2344146410571497
1708443366.0027707,-2.1416738033294678,-1.3333603751710434,-2.526187245045797,6.109606134682455,1.0167123079299927,-3.233483378087179
1708443366.0048063,-2.141695261001587,-1.3333351773074646,-2.526212517415182,6.1096078036125085,1.0167828798294067,-3.2325614134417933
1708443366.0067763,-2.1416242122650146,-1.3333726239255448,-2.526187245045797,6.109513509064474,1.0167359113693237,-3.23159367242922
1708443366.0087738,-2.1416172981262207,-1.3333351475051423,-2.526207987462179,6.109518039017477,1.0167648792266846,-3.230690304433004
1708443366.0107696,-2.1416261196136475,-1.333437905912735,-2.526187245045797,6.109453666001119,1.0167648792266846,-3.2298463026629847
1708443366.012771,-2.1416590213775635,-1.3333514791778107,-2.5262442270862024,6.10939251163558,1.0167797803878784,-3.228889052067892
1708443366.0147793,-2.1415741443634033,-1.333314449792244,-2.5262652079211634,6.109356391220846,1.0167514085769653,-3.2280052343951624
1708443366.0168097,-2.141615629196167,-1.3334542226842423,-2.5262561480151575,6.109341609268942,1.016800880432129,-3.227151934300558
1708443366.0187774,-2.1415741443634033,-1.333339662556984,-2.5262308756457728,6.1093294499214075,1.016812801361084,-3.2261925379382532
1708443366.0207648,-2.1415445804595947,-1.333339662556984,-2.5262847582446497,6.1092519638831995,1.0168371200561523,-3.225288693104879
1708443366.0227735,-2.1415627002716064,-1.3333440583995362,-2.5262518564807337,6.1092580435569666,1.0168789625167847,-3.2243333498584192
1708443366.0247645,-2.1415467262268066,-1.3333484691432496,-2.526250425969259,6.109283315926351,1.0168728828430176,-3.2233625094043177
1708443366.0267751,-2.141515016555786,-1.3333484542420884,-2.526245896016256,6.109242903977194,1.016893982887268,-3.222449843083517
1708443366.0288038,-2.141515016555786,-1.3333396476558228,-2.5262580553637903,6.109223472862997,1.016897201538086,-3.221523110066549
1708443366.030773,-2.1415395736694336,-1.3333814603141327,-2.526316229497091,6.10919069030837,1.016925573348999,-3.2205596605883997
1708443366.0327823,-2.1415371894836426,-1.3333233159831543,-2.526287619267599,6.10914562919692,1.0169332027435303,-3.2196269671069544
1708443366.034764,-2.141484022140503,-1.3333470684340973,-2.5262940565692347,6.109077203064718,1.0169495344161987,-3.2187345663653772
1708443366.036827,-2.141451358795166,-1.333320216541626,-2.5263686815844935,6.1090876934821985,1.0169658660888672,-3.2178354899035853
1708443366.0387945,-2.141455888748169,-1.3333277267268677,-2.5263074080096644,6.109083163529196,1.0169332027435303,-3.2169159094439905
1708443366.0408034,-2.141439914703369,-1.333299146299698,-2.5263641516314905,6.108997571259298,1.0169813632965088,-3.215985123311178
1708443366.042771,-2.141448736190796,-1.333320216541626,-2.5263386408435267,6.108993041306295,1.0169390439987183,-3.2150755564319056
1708443366.0447767,-2.1414196491241455,-1.333332137470581,-2.526334349309103,6.1089918492134,1.0170096158981323,-3.2141950766192835
1708443366.0467749,-2.1413538455963135,-1.3333484691432496,-2.5263763109790247,6.1089918492134,1.017038345336914,-3.2132065931903284
1708443366.0488124,-2.141400098800659,-1.3333410185626526,-2.526400152836935,6.108975398331442,1.016984224319458,-3.2123053709613245
1708443366.0507877,-2.1413629055023193,-1.333320216541626,-2.526379410420553,6.108970868378439,1.0170173645019531,-3.211433712636129
1708443366.0528364,-2.141343593597412,-1.3332920682481308,-2.526395861302511,6.108911025315084,1.0170129537582397,-3.210517708455221
1708443366.0547988,-2.141352415084839,-1.3333158057979126,-2.526400152836935,6.108882653504171,1.017111897468567,-3.2096546331988733
1708443366.0567825,-2.141326665878296,-1.3333681386760254,-2.52641207376589,6.108912694245138,1.017037034034729,-3.2086668650256556
1708443366.0587714,-2.1412858963012695,-1.3333158057979126,-2.526395861302511,6.108844029694357,1.0170849561691284,-3.207787100468771
1708443366.0607777,-2.1412858963012695,-1.3333114248565217,-2.526423994694845,6.1087732193763635,1.0171012878417969,-3.206900660191671
1708443366.062768,-2.1413207054138184,-1.3333559793284913,-2.5264139811145228,6.108819949417867,1.0170893669128418,-3.2059224287616175
1708443366.0647733,-2.1412994861602783,-1.3332875829986115,-2.5264647642718714,6.108783948212423,1.0171375274658203,-3.2051242033587855
1708443366.0667849,-2.141296863555908,-1.333372638826706,-2.5264230410205286,6.108677613526144,1.017177939414978,-3.2042253653155726
1708443366.0687745,-2.1412155628204346,-1.333352879886963,-2.5264676252948206,6.108691203385153,1.0171358585357666,-3.203336779271261
1708443366.0707617,-2.1412270069122314,-1.3333573800376435,-2.5264273325549524,6.108754265099325,1.0171689987182617,-3.202423636113302
1708443366.0727994,-2.1412065029144287,-1.3333113950541993,-2.5264721552478235,6.108749854355612,1.0172020196914673,-3.20154577890505
1708443366.0747766,-2.141240358352661,-1.333312378530838,-2.526463333760397,6.108664500504293,1.0172065496444702,-3.2007153669940394
1708443366.0768065,-2.141244888305664,-1.3333396476558228,-2.526447121297018,6.108629691391744,1.0171526670455933,-3.1998711268054407
1708443366.0787838,-2.141249418258667,-1.3333780330470582,-2.526508156453268,6.108652341156759,1.017209768295288,-3.1989784876452845
1708443366.080831,-2.1412289142608643,-1.3333233159831543,-2.526463333760397,6.10854600647048,1.0172052383422852,-3.1980467478381556
1708443366.0827904,-2.141183614730835,-1.333364800815918,-2.526482645665304,6.108555185585775,1.0172172784805298,-3.1972509066211146
1708443366.0847793,-2.141192674636841,-1.3332831424525757,-2.526508156453268,6.108616578369894,1.0172171592712402,-3.196336094533102
1708443366.0867908,-2.1412155628204346,-1.3333233159831543,-2.526499334965841,6.108597147255697,1.0172592401504517,-3.1955185572253626
1708443366.088796,-2.141134023666382,-1.3333559793284913,-2.5264950434314173,6.1085853455360315,1.0172576904296875,-3.194645945225851
1708443366.0907638,-2.1411633491516113,-1.3333080571940918,-2.5265234152423304,6.108531343727865,1.0172502994537354,-3.193805996571676
1708443366.0928218,-2.141127109527588,-1.333299146299698,-2.5265279451953333,6.108552205353536,1.017235279083252,-3.192943874989645
1708443366.0947847,-2.141172170639038,-1.3332903248122712,-2.526505772267477,6.108533131867208,1.0172531604766846,-3.192068640385763
1708443366.0967758,-2.1411404609680176,-1.3333158057979126,-2.5265234152423304,6.108528721123495,1.0172683000564575,-3.191129748021261
1708443366.0987701,-2.1411564350128174,-1.3332991761020203,-2.5265191237079065,6.108525502472677,1.0172486305236816,-3.1903093496905726
1708443366.1007712,-2.1411314010620117,-1.333341048364975,-2.5265024344073694,6.10845040062026,1.017317771911621,-3.1893907229052942
1708443366.1027725,-2.1411359310150146,-1.3332963746837159,-2.5265517870532435,6.10846112945632,1.0172715187072754,-3.1885133425342005
1708443366.1048048,-2.1410953998565674,-1.3333080571940918,-2.5265799204455774,6.108501660614767,1.0173676013946533,-3.187707487736837
1708443366.1067815,-2.141120195388794,-1.3332593900016327,-2.5266175905810755,6.108444678574362,1.017374873161316,-3.1868682543383997
1708443366.1088035,-2.1410884857177734,-1.3332593900016327,-2.5265966097461146,6.108411896019735,1.0173659324645996,-3.1859808603869837
1708443366.1107936,-2.1410388946533203,-1.3332831424525757,-2.526587788258688,6.108453738480367,1.0173332691192627,-3.1851916948901575
1708443366.1127794,-2.1410715579986572,-1.3333334487727662,-2.526587788258688,6.108408915787496,1.0173989534378052,-3.1843159834491175
1708443366.1147883,-2.1410317420959473,-1.333255873327591,-2.526574436818258,6.108416425972738,1.017418622970581,-3.183408323918478
1708443366.1167767,-2.1410679817199707,-1.3332277101329346,-2.526604239140646,6.108462798386373,1.0173945426940918,-3.1825254599200647
1708443366.1188114,-2.1410226821899414,-1.3332484525493165,-2.526595417653219,6.10841332653121,1.0174140930175781,-3.1816723982440394
1708443366.1207826,-2.1410655975341797,-1.3332498532584687,-2.526599947606222,6.10838936546401,1.0174353122711182,-3.1809173266040247
1708443366.1227846,-2.141045093536377,-1.333234505062439,-2.526569906865255,6.108398306160726,1.0174095630645752,-3.179995838795797
1708443366.1248202,-2.1410000324249268,-1.3332211834243317,-2.5265820662127894,6.108351933747091,1.017397403717041,-3.1791709105121058
1708443366.1267698,-2.1410043239593506,-1.3331638139537354,-2.526619259511129,6.108372914582052,1.017433762550354,-3.1782880465136927
1708443366.128811,-2.1410088539123535,-1.3331801158240815,-2.526651922856466,6.108324992447653,1.017417311668396,-3.177453343068258
1708443366.1307812,-2.1409876346588135,-1.3331681948951264,-2.5266147295581263,6.108358132630148,1.017466425895691,-3.176582638417379
1708443366.132848,-2.1409661769866943,-1.3331515353969117,-2.5266268889056605,6.108338343888082,1.0174366235733032,-3.175797764454977
1708443366.13477,-2.141005277633667,-1.3331858229688187,-2.5266760031329554,6.108275878220358,1.0174500942230225,-3.1749916712390345
1708443366.1368093,-2.1408891677856445,-1.3331961196712037,-2.5266671816455286,6.10829375961379,1.0174500942230225,-3.174185816441671
1708443366.1388366,-2.140944242477417,-1.3332092326930542,-2.5266597906695765,6.108295428543844,1.017466425895691,-3.1732454935656946
1708443366.140823,-2.1409318447113037,-1.3331681948951264,-2.5267165342914026,6.108218896179952,1.0175071954727173,-3.1724303404437464
1708443366.1428053,-2.140907049179077,-1.3331961196712037,-2.5266552607165735,6.1083117602165125,1.0175235271453857,-3.1716588179217737
1708443366.1448076,-2.1409318447113037,-1.3331528466990967,-2.526679340993063,6.1083072302635095,1.017498254776001,-3.1708319822894495
1708443366.1467922,-2.1409363746643066,-1.3331814271262665,-2.526675049458639,6.10826991775588,1.0175145864486694,-3.1699498335467737
1708443366.1488357,-2.1409080028533936,-1.3331602674773713,-2.5267120043383997,6.108184683113851,1.017510175704956,-3.1691654364215296
1708443366.1508143,-2.1409213542938232,-1.3331932586482544,-2.526665989552633,6.108187186508932,1.0175011157989502,-3.168344561253683
1708443366.1528401,-2.1408753395080566,-1.3331681948951264,-2.5267284552203577,6.108177411347189,1.0175505876541138,-3.16752797762026
1708443366.1547859,-2.1408956050872803,-1.3331484359553833,-2.526707712803976,6.108198153763571,1.0175461769104004,-3.166717831288473
1708443366.1568298,-2.1408469676971436,-1.333188847904541,-2.5266509691821497,6.10817431190566,1.0175325870513916,-3.165960137044088
1708443366.1588376,-2.1409170627593994,-1.333163784151413,-2.526715103779928,6.108207213669576,1.0175795555114746,-3.165100638066427
1708443366.1607828,-2.1408886909484863,-1.3331932586482544,-2.5266552607165735,6.108162152558126,1.0175325870513916,-3.164311234151022
1708443366.1628118,-2.1408772468566895,-1.333188847904541,-2.5267120043383997,6.108120310097494,1.0175750255584717,-3.1634495894061487
1708443366.1647818,-2.140925884246826,-1.3331916195205231,-2.5267120043383997,6.108112919121542,1.0175824165344238,-3.1626527945147913
1708443366.1667843,-2.1408932209014893,-1.3332092624953766,-2.526715103779928,6.108133780747213,1.0175750255584717,-3.1617730299579065
1708443366.168828,-2.1408841609954834,-1.3331558567336579,-2.526723925267355,6.108105170517721,1.0176318883895874,-3.16095477739443
1708443366.1708024,-2.1408638954162598,-1.3332168620875855,-2.526748005543844,6.108138310700216,1.0175734758377075,-3.160182301198141
1708443366.172825,-2.1408185958862305,-1.3331725162318726,-2.526740614567892,6.108057486801901,1.0176318883895874,-3.159252945576803
1708443366.1747813,-2.140930414199829,-1.3332246106914063,-2.526731793080465,6.108048546105184,1.0175974369049072,-3.1584110895739954
1708443366.1768138,-2.1408684253692627,-1.3331515353969117,-2.526715103779928,6.108078706055441,1.0176228284835815,-3.1575751940356653
1708443366.178823,-2.1408560276031494,-1.3331932586482544,-2.526719633732931,6.108054625778951,1.0176395177841187,-3.156764809285299
1708443366.1808023,-2.1408841609954834,-1.3332211834243317,-2.5267139116870325,6.1080922959144495,1.0176591873168945,-3.155973259602682
1708443366.1828434,-2.140864849090576,-1.3331681948951264,-2.5267601648913782,6.108080017357626,1.0176351070404053,-3.155192200337545
1708443366.1848092,-2.140869379043579,-1.3331961196712037,-2.52678090730776,6.107959973603048,1.017675518989563,-3.1544111410724085
1708443366.1867933,-2.1408028602600098,-1.3332211834243317,-2.526743475590841,6.108027565270223,1.0176591873168945,-3.1535378138171595
1708443366.1888237,-2.140819787979126,-1.3332137626460572,-2.526743475590841,6.107990252762594,1.0176172256469727,-3.1527844111071985
1708443366.1907706,-2.14081072807312,-1.3332079511931916,-2.5267513434039515,6.10797809341506,1.0176424980163574,-3.1519318262683313
1708443366.1927817,-2.14082407951355,-1.3331602674773713,-2.5267470518695276,6.108018624573507,1.01767098903656,-3.151160542164938
1708443366.1947982,-2.14082407951355,-1.3331602674773713,-2.5267346541034144,6.1079620001609705,1.0176621675491333,-3.1503873507129114
1708443366.196779,-2.14082407951355,-1.3331602674773713,-2.526737991963522,6.107959973603048,1.0176904201507568,-3.149541680012838
1708443366.1987998,-2.1408002376556396,-1.3332137626460572,-2.52675444284548,6.107948529511251,1.0176904201507568,-3.148879114781515
1708443366.200773,-2.1407721042633057,-1.333200530414917,-2.5267470518695276,6.107936608582296,1.0176784992218018,-3.1480303446399134
1708443366.202846,-2.1408090591430664,-1.333175615673401,-2.5267470518695276,6.1079914448554895,1.017669439315796,-3.1472726503955286
1708443366.2048056,-2.1408047676086426,-1.3331725162318726,-2.5267675558673304,6.107979881554403,1.0177028179168701,-3.14644438425173
1708443366.2068422,-2.1407854557037354,-1.3331725162318726,-2.5267513434039515,6.1079516289527795,1.0176939964294434,-3.1456857363330286
1708443366.2088053,-2.140763998031616,-1.3331471246531983,-2.5267885367022913,6.107979881554403,1.0177102088928223,-3.1449316183673304
1708443366.2107809,-2.140777587890625,-1.3331439358047028,-2.5267706553088587,6.1079516289527795,1.0177103281021118,-3.1442015806781214
1708443366.212778,-2.1407597064971924,-1.3331814271262665,-2.5267587343799036,6.1078975079353235,1.0177266597747803,-3.1434300581561487
1708443366.214781,-2.140723466873169,-1.333188847904541,-2.526766363774435,6.107866036682882,1.0177103281021118,-3.142637316380636
1708443366.2168272,-2.140749216079712,-1.3331814271262665,-2.5267825762378138,6.107902157097616,1.0177385807037354,-3.1419242064105433
1708443366.218793,-2.1407580375671387,-1.3331558567336579,-2.5268033186541956,6.10788248756484,1.0177761316299438,-3.141115967427389
1708443366.2208152,-2.140704870223999,-1.3332092624953766,-2.5267706553088587,6.107891547470846,1.0177251100540161,-3.140345875416891
1708443366.2227821,-2.1407277584075928,-1.333188847904541,-2.5267916361438196,6.107849943428793,1.017788290977478,-3.139615837727682
1708443366.2247677,-2.1406960487365723,-1.3331515353969117,-2.526820246373312,6.107818472176351,1.017791509628296,-3.1388476530658167
1708443366.2268052,-2.1407322883605957,-1.333188847904541,-2.526839796696798,6.107818472176351,1.0177702903747559,-3.13810640970339
1708443366.228806,-2.1407368183135986,-1.3331647676280518,-2.526782814656393,6.1077942726905725,1.0177793502807617,-3.1373167673694056
1708443366.230811,-2.140700578689575,-1.3331725162318726,-2.52682334581484,6.10772870758132,1.0177793502807617,-3.136594597493307
1708443366.232816,-2.1407411098480225,-1.3331515353969117,-2.526815954838888,6.10784541347579,1.017791509628296,-3.135888640080587
1708443366.2347908,-2.140704870223999,-1.333197758798935,-2.526832167302267,6.10776303985671,1.017786979675293,-3.1351307074176233
1708443366.2368002,-2.140713691711426,-1.3332168620875855,-2.52682334581484,6.107718336373129,1.0178288221359253,-3.1342902819262903
1708443366.2387764,-2.140659809112549,-1.3332021695426484,-2.526818815861837,6.107755648880758,1.0178241729736328,-3.1335139910327356
1708443366.2408352,-2.140702486038208,-1.3332300943187256,-2.5268264452563685,6.107731807022848,1.0177658796310425,-3.132857147847311
1708443366.242796,-2.140685558319092,-1.3331932586482544,-2.526827637349264,6.10771535614089,1.017798900604248,-3.1320253054248255
1708443366.2448177,-2.1407203674316406,-1.3331681948951264,-2.526773754750387,6.107679354935446,1.0178108215332031,-3.1313164869891565
1708443366.2468,-2.1406705379486084,-1.3331725162318726,-2.52682334581484,6.1077003357704065,1.0178152322769165,-3.130474869404928
1708443366.2488427,-2.1406121253967285,-1.3331845265677948,-2.526832167302267,6.107688414841451,1.0178064107894897,-3.129721466694967
1708443366.2507863,-2.140632390975952,-1.333176926975586,-2.526881281529562,6.107659804611959,1.0178064107894897,-3.1289947668658655
1708443366.2528362,-2.140625476837158,-1.3331276041320343,-2.52686053911318,6.107677686005392,1.01786470413208,-3.128195110951559
1708443366.2548018,-2.140636920928955,-1.333176926975586,-2.5268145243274134,6.107645261078634,1.0178227424621582,-3.12746245065798
1708443366.2567797,-2.140580415725708,-1.333197758798935,-2.5268471876727503,6.10763298252181,1.0178724527359009,-3.126665178929464
1708443366.25879,-2.140638828277588,-1.3331845265677948,-2.52682334581484,6.107588279038229,1.0178227424621582,-3.1259074846850794
1708443366.2616055,-2.1406095027923584,-1.3331592840007325,-2.5268548170672815,6.107616650849142,1.017825961112976,-3.1251123587237757
1708443366.262838,-2.1405699253082275,-1.3331735891154786,-2.5268099943744105,6.107634651451864,1.0178512334823608,-3.1243155638324183
1708443366.2648358,-2.1405866146087646,-1.3332021695426484,-2.5268426577197474,6.1075477478797815,1.0178557634353638,-3.123654905949728
1708443366.2668362,-2.1405608654022217,-1.3331845265677948,-2.526872460042135,6.107532965927877,1.017825961112976,-3.1228912512408655
1708443366.268822,-2.1405575275421143,-1.3331528466990967,-2.526851479207174,6.10751365402297,1.0178512334823608,-3.1221235434161585
1708443366.2708292,-2.1405982971191406,-1.3332137626460572,-2.5268426577197474,6.1075090048606775,1.017830491065979,-3.1214011351214808
1708443366.2728107,-2.1405255794525146,-1.3331725162318726,-2.5268502871142786,6.107475983887472,1.0178512334823608,-3.1206217447863978
1708443366.2748034,-2.1405131816864014,-1.3331109446338196,-2.5269039312945765,6.10743414142684,1.0178545713424683,-3.11985952058901
1708443366.2767782,-2.1405415534973145,-1.3331681948951264,-2.5268548170672815,6.107465731888571,1.0178422927856445,-3.1190996805774134
1708443366.2787695,-2.1405222415924072,-1.3331515353969117,-2.5268307367907923,6.10740743854598,1.0178468227386475,-3.1183763186084192
1708443366.280774,-2.140468120574951,-1.3331395250609894,-2.5268753210650843,6.107422578125753,1.017825961112976,-3.1176286379443567
1708443366.2827587,-2.1405177116394043,-1.3331515353969117,-2.5268383661853235,6.107365596085348,1.0178709030151367,-3.1169472376452845
1708443366.2848082,-2.140467882156372,-1.3331439358047028,-2.526872460042135,6.107370126038351,1.0178709030151367,-3.116175953541891
1708443366.286758,-2.1404025554656982,-1.3331602674773713,-2.5268426577197474,6.1072847721870325,1.0178920030593872,-3.1154707113849085
1708443366.2887597,-2.140481472015381,-1.3331515353969117,-2.5268831888781946,6.107275831490316,1.0178500413894653,-3.1147757212268274
1708443366.2907634,-2.140486001968384,-1.3332065802863617,-2.5268877188311976,6.107242691307821,1.0178905725479126,-3.113979164754049
1708443366.2927802,-2.1404576301574707,-1.3331845265677948,-2.5268338362323206,6.107260691910543,1.0178920030593872,-3.1132941881762903
1708443366.2947745,-2.1404733657836914,-1.3331528765014191,-2.5268831888781946,6.10717128494338,1.0178619623184204,-3.112562958394186
1708443366.2967713,-2.1404292583465576,-1.333188847904541,-2.5268383661853235,6.107189285546102,1.0178786516189575,-3.111863438283102
1708443366.2987676,-2.1404337882995605,-1.3331602674773713,-2.5269082228290003,6.107168423920431,1.017883062362671,-3.111086670552389
1708443366.3007658,-2.140424966812134,-1.333197758798935,-2.5268831888781946,6.107111322670736,1.017894983291626,-3.110425058995382
1708443366.3028014,-2.1404011249542236,-1.3331439358047028,-2.5268426577197474,6.107177245407858,1.0179113149642944,-3.109710995350973
1708443366.3047976,-2.1404168605804443,-1.3331395250609894,-2.5268831888781946,6.107115852623739,1.0179097652435303,-3.108961884175436
1708443366.3067997,-2.14042592048645,-1.333176926975586,-2.5268664995776575,6.107150304108419,1.0179232358932495,-3.1083651224719446
1708443366.3087993,-2.1404144763946533,-1.3331439656070252,-2.526878897343771,6.107100713043966,1.0179024934768677,-3.107588593159811
1708443366.310784,-2.1403648853302,-1.3331725162318726,-2.526874367390768,6.107180225640096,1.0179522037506104,-3.106896940861837
1708443366.312805,-2.1403534412384033,-1.3332181733897706,-2.526874367390768,6.107069480210104,1.0179312229156494,-3.106206480656759
1708443366.3147874,-2.140373706817627,-1.3331109446338196,-2.5268951098071497,6.1070501683051965,1.0179232358932495,-3.1055262724505823
1708443366.3168306,-2.14034104347229,-1.3331814271262665,-2.5269160906421106,6.1070546982581995,1.0179321765899658,-3.104809824620382
1708443366.3187776,-2.140288829803467,-1.333181382422783,-2.52690297762026,6.10698555687026,1.017906904220581,-3.104173247014181
1708443366.3207672,-2.1403419971466064,-1.3331814271262665,-2.526874367390768,6.107023227005758,1.0178905725479126,-3.1034937540637415
1708443366.3227909,-2.1403021812438965,-1.3331484359553833,-2.5269280115710657,6.106982576638021,1.0179402828216553,-3.1027827898608606
1708443366.3247623,-2.1402368545532227,-1.3332065057805558,-2.5269160906421106,6.106971013336935,1.0179312229156494,-3.102067534123556
1708443366.3267963,-2.1402714252471924,-1.3331602674773713,-2.5269368330584925,6.106893169670858,1.0179024934768677,-3.101398770009176
1708443366.3288143,-2.140233278274536,-1.3331242811730881,-2.526907269154684,6.106873500138082,1.0179188251495361,-3.1006909052478235
1708443366.3307805,-2.140228748321533,-1.3331484359553833,-2.526919190083639,6.106885421067037,1.0179141759872437,-3.1000431219684046
1708443366.3328297,-2.140226125717163,-1.333176926975586,-2.526877466832296,6.106833326607504,1.0179522037506104,-3.099355761204855
1708443366.3347723,-2.1402058601379395,-1.3331242960742493,-2.526865545903341,6.106900441437521,1.0179550647735596,-3.098630730305807
1708443366.3368146,-2.140246629714966,-1.3331154894879838,-2.52690297762026,6.10679720619277,1.0179566144943237,-3.097948137913839
1708443366.3388245,-2.1402013301849365,-1.3331902486136933,-2.5269368330584925,6.106786954193868,1.0179312229156494,-3.0972526709186
1708443366.3407824,-2.140174150466919,-1.3331528317979355,-2.526914660130636,6.106775033264913,1.017971396446228,-3.096574131642477
1708443366.3427768,-2.1402077674865723,-1.3331276041320343,-2.526939932500021,6.106727349549093,1.0179506540298462,-3.0958738962756556
1708443366.3447747,-2.1401448249816895,-1.3331154596856614,-2.5269323031054896,6.106751191407003,1.0179431438446045,-3.0951786676989954
1708443366.3468118,-2.1401751041412354,-1.3331498217633744,-2.526923481618063,6.106698739319601,1.018001675605774,-3.0944750944720667
1708443366.3487737,-2.1401379108428955,-1.3331528317979355,-2.52690297762026,6.106670129090109,1.0179550647735596,-3.09381610551943
1708443366.3507702,-2.140129804611206,-1.3331232082894822,-2.526923481618063,6.106618034630575,1.0179685354232788,-3.093146626149313
1708443366.3528078,-2.140092611312866,-1.333103598361351,-2.526907269154684,6.106643426209249,1.017959475517273,-3.092416588460104
1708443366.3547912,-2.140171527862549,-1.3331498515656968,-2.52688175836672,6.106631505280294,1.0179970264434814,-3.0918481985675257
1708443366.3568,-2.1401174068450928,-1.3331572723439713,-2.5268951098071497,6.106565582543173,1.017922282218933,-3.091193977986471
1708443366.3588052,-2.140110492706299,-1.3331572872451325,-2.5268951098071497,6.106538879662313,1.017959475517273,-3.0905049482928675
1708443366.3607934,-2.140106201171875,-1.3331453514150162,-2.526907269154684,6.106497037201681,1.0179550647735596,-3.089820210133688
1708443366.3627934,-2.140094518661499,-1.3331287664226075,-2.52690297762026,6.106589543610372,1.0179550647735596,-3.089187208806173
1708443366.3648064,-2.140073299407959,-1.3331168454936524,-2.52692681947817,6.106467115670004,1.017971396446228,-3.08854324022402
1708443366.3667803,-2.1400866508483887,-1.3331168305924912,-2.526919190083639,6.1064385054405115,1.0180089473724365,-3.0878635088550013
1708443366.368822,-2.1400654315948486,-1.333089919095375,-2.526919190083639,6.106456386833944,1.0179461240768433,-3.0871384779559534
1708443366.3708024,-2.140099048614502,-1.3331049245646973,-2.526935640965597,6.106407630234518,1.0179550647735596,-3.086512629185812
1708443366.372816,-2.140090227127075,-1.3330331605723877,-2.526951853428976,6.106395351677694,1.0179669857025146,-3.085928026829855
1708443366.3747866,-2.140103578567505,-1.3330484491637726,-2.526910368596212,6.10640429237441,1.0179702043533325,-3.085315767918722
1708443366.3768163,-2.1400585174560547,-1.3330242794803162,-2.526907269154684,6.106373059540548,1.0179836750030518,-3.0846760908709925
1708443366.378781,-2.1400513648986816,-1.3330276769450684,-2.526923481618063,6.10621594169692,1.017971396446228,-3.0839958826648157
1708443366.3808284,-2.1400911808013916,-1.3329718720963974,-2.5269058386432093,6.106368529587545,1.0179624557495117,-3.0833237806903284
1708443366.3827853,-2.140083074569702,-1.333016799097397,-2.526951853428976,6.106312858849325,1.0179415941238403,-3.082635227833883
1708443366.3847775,-2.1399972438812256,-1.3330049526742478,-2.526910368596212,6.106287824898519,1.0179669857025146,-3.082057778035299
1708443366.386829,-2.140038013458252,-1.332976297741272,-2.5269222895251673,6.1062636254127405,1.0179836750030518,-3.0814579168902796
1708443366.3888037,-2.140026569366455,-1.3329692047885437,-2.526914660130636,6.1062848446662805,1.0179624557495117,-3.080822531376974
1708443366.3907735,-2.139998435974121,-1.3329973977855225,-2.526914660130636,6.106298315316,1.017971396446228,-3.08024770418276
1708443366.392801,-2.140031099319458,-1.3329675060561677,-2.526914660130636,6.106319176941671,1.0179669857025146,-3.0796237627612513
1708443366.3947787,-2.140019655227661,-1.33303456128154,-2.526931111012594,6.10627709606246,1.0179580450057983,-3.0790227095233362
1708443366.3968084,-2.139998197555542,-1.333064154987671,-2.526956383381979,6.106203782349386,1.0179580450057983,-3.078317944203512
1708443366.3988016,-2.139967441558838,-1.3329661202481766,-2.5269222895251673,6.106281626015463,1.0179535150527954,-3.0777209440814417
1708443366.400805,-2.1399879455566406,-1.332949475651123,-2.526910368596212,6.106236922531881,1.0179880857467651,-3.0771432558642786
1708443366.4027696,-2.1399292945861816,-1.3329852384379883,-2.526938501988546,6.106257903366842,1.0179224014282227,-3.0765567461596888
1708443366.4047759,-2.1399877071380615,-1.3329396557858963,-2.526951853428976,6.106215703278341,1.0179461240768433,-3.0758917967425745
1708443366.4067872,-2.139902114868164,-1.3329824668220063,-2.526914660130636,6.106212842255392,1.0179791450500488,-3.075254742299215
1708443366.4087782,-2.1399383544921875,-1.3329807382873078,-2.526943031941549,6.106217252999105,1.0179836750030518,-3.074726645146505
1708443366.4107814,-2.1399269104003906,-1.3329973977855225,-2.5269058386432093,6.106238114624777,1.017971396446228,-3.0740817228900355
1708443366.4128292,-2.139946937561035,-1.3329929870418091,-2.526951853428976,6.106180417328634,1.0180000066757202,-3.07350999513735
1708443366.4147813,-2.139906644821167,-1.3329852235368271,-2.526943031941549,6.106200921326437,1.0180166959762573,-3.0729687849627894
1708443366.4168015,-2.13995099067688,-1.3329852533391495,-2.526935640965597,6.10609923580245,1.0179880857467651,-3.0723026434527796
1708443366.4187942,-2.1399269104003906,-1.3330106300166626,-2.526935640965597,6.106120097428121,1.0179535150527954,-3.0717366377459925
1708443366.4208205,-2.1399340629577637,-1.3329807382873078,-2.52688175836672,6.1061532376106165,1.0179954767227173,-3.0711618105517786
1708443366.4227967,-2.1399381160736084,-1.3329735559276124,-2.526947561894552,6.106141316681661,1.0179656744003296,-3.0705247561084192
1708443366.4248006,-2.1398990154266357,-1.3329851788333436,-2.526943031941549,6.1061757681663416,1.0180121660232544,-3.069954220448629
1708443366.4267812,-2.1399383544921875,-1.3330388826182862,-2.526935640965597,6.106112825661459,1.0179954767227173,-3.0694027582751673
1708443366.4287999,-2.1399497985839844,-1.3329718869975586,-2.526935640965597,6.1060770628745935,1.0179747343063354,-3.0688663164721888
1708443366.43079,-2.1399426460266113,-1.3329852384379883,-2.526951853428976,6.1061380980308435,1.0179747343063354,-3.0682459513293665
1708443366.432814,-2.1399269104003906,-1.3329895597747345,-2.526931111012594,6.1061216471488855,1.0180000066757202,-3.0676735083209437
1708443366.434799,-2.139954090118408,-1.3329603236964722,-2.526923720036642,6.106068122177877,1.0179535150527954,-3.0670486132251185
1708443366.4367957,-2.1399922370910645,-1.3329675060561677,-2.526971403752462,6.106100904732504,1.0179954767227173,-3.066519562398092
1708443366.438779,-2.1399762630462646,-1.3329515022090455,-2.526951853428976,6.1061216471488855,1.0179624557495117,-3.0659471193896692
1708443366.4407723,-2.1399896144866943,-1.3329885762980958,-2.526923481618063,6.106108176499166,1.0179836750030518,-3.065343681965963
1708443366.4428082,-2.139962673187256,-1.3329603236964722,-2.526935640965597,6.106139528542318,1.0180121660232544,-3.064800802861349
1708443366.4447699,-2.13992977142334,-1.3329647344401856,-2.526914660130636,6.106072532921591,1.0180121660232544,-3.064195696507589
1708443366.4467883,-2.139958381652832,-1.3330212545445939,-2.526914660130636,6.106093156128683,1.0180000066757202,-3.0636583010302942
1708443366.4487977,-2.139935255050659,-1.3329316687634964,-2.526947323475973,6.106079685478964,1.0180166959762573,-3.0630984942065638
1708443366.4507787,-2.139955759048462,-1.3329973828843613,-2.526943031941549,6.106118666916647,1.017982006072998,-3.062575403844015
1708443366.4528146,-2.1399240493774414,-1.3329763275435944,-2.526914660130636,6.106126296311178,1.0180199146270752,-3.061924759541647
1708443366.4548254,-2.1399223804473877,-1.3329763275435944,-2.52692681947817,6.1061380980308435,1.0179624557495117,-3.0614638964282435
1708443366.4567997,-2.139951229095459,-1.3329852384379883,-2.5269015471087855,6.1060993550117395,1.0179580450057983,-3.0609496275531214
1708443366.4588087,-2.13995099067688,-1.333026961689331,-2.526968542729513,6.106132375984945,1.0180121660232544,-3.060373608266012
1708443366.4608138,-2.1399312019348145,-1.3329852235368271,-2.526886288319723,6.106129157334127,1.0179624557495117,-3.059861485158102
1708443366.4627988,-2.139939546585083,-1.3329647940448304,-2.526943031941549,6.106196510582723,1.017991065979004,-3.0593107382403772
1708443366.464774,-2.1399354934692383,-1.3330106300166626,-2.526919190083639,6.106079685478964,1.0179880857467651,-3.058875862752096
1708443366.4668474,-2.1399242877960205,-1.3329841655543824,-2.526898447667257,6.106100904732504,1.0180000066757202,-3.0582962671863
1708443366.4688056,-2.1399312019348145,-1.333025650387146,-2.526914660130636,6.106126296311178,1.018003225326538,-3.0577595869647425
1708443366.4707754,-2.139939785003662,-1.3329852533391495,-2.5269222895251673,6.106141316681661,1.0180288553237915,-3.057256523762838
1708443366.4727695,-2.139918327331543,-1.3329763275435944,-2.526931111012594,6.106186020165243,1.0180166959762573,-3.0567453543292444
1708443366.4747627,-2.1399381160736084,-1.3329885762980958,-2.526968542729513,6.106178629189291,1.0179535150527954,-3.0561724344836634
1708443366.4768233,-2.13999605178833,-1.3330004972270508,-2.526931111012594,6.106157767563619,1.0179880857467651,-3.055624310170309
1708443366.4787781,-2.1399335861206055,-1.3330182296088715,-2.526931111012594,6.106115686684408,1.0180166959762573,-3.055220905934469
1708443366.4808059,-2.139958620071411,-1.3329675060561677,-2.526956383381979,6.106190430908956,1.018007755279541,-3.054695431386129
1708443366.4827738,-2.139954090118408,-1.332947002058365,-2.526947323475973,6.10618149021224,1.0179580450057983,-3.054237190877096
1708443366.4847686,-2.1399831771850586,-1.3330419522574921,-2.526947323475973,6.10620533207015,1.0179296731948853,-3.0537365118609827
1708443366.4868152,-2.1399292945861816,-1.3330301207355042,-2.5269222895251673,6.106156098633566,1.0179954767227173,-3.053249184285299
1708443366.4887989,-2.1399495601654053,-1.3330123585513611,-2.526914660130636,6.106190430908956,1.0179580450057983,-3.0527663866626185
1708443366.4907744,-2.139967441558838,-1.3329762381366272,-2.526947323475973,6.106212842255392,1.0179669857025146,-3.0523112455951136
1708443366.4928029,-2.139971971511841,-1.3330419522574921,-2.5269058386432093,6.106311785965719,1.0180000066757202,-3.0518065134631556
1708443366.494775,-2.1399834156036377,-1.3330093187144776,-2.526919190083639,6.1062848446662805,1.0179836750030518,-3.0513628164874476
1708443366.496765,-2.1399946212768555,-1.3329885464957734,-2.5269551912890833,6.106296765595236,1.017991065979004,-3.05090576807131
1708443366.498774,-2.139958620071411,-1.3329841655543824,-2.526951853428976,6.106343018799581,1.0179624557495117,-3.050424400960104
1708443366.500821,-2.1399319171905518,-1.3329852235368271,-2.526951853428976,6.106316196709432,1.0179836750030518,-3.0499489943133753
1708443366.5027716,-2.139971971511841,-1.3330719482949753,-2.526935640965597,6.106389510422506,1.0179178714752197,-3.0495060125934046
1708443366.5047963,-2.139967441558838,-1.3330793690732499,-2.526910368596212,6.106396901398458,1.0180000066757202,-3.0490415732013147
1708443366.5067842,-2.1399989128112793,-1.3329973977855225,-2.52690297762026,6.106453406601705,1.0179669857025146,-3.048640314732687
1708443366.5087762,-2.139976978302002,-1.3329930019429703,-2.526919190083639,6.106446015625753,1.0179624557495117,-3.0481393972979944
1708443366.5108073,-2.1399903297424316,-1.333025650387146,-2.526939932500021,6.106419193535604,1.017974615097046,-3.0477328936206263
1708443366.5127995,-2.140002727508545,-1.3330182296088715,-2.52696401277651,6.10647605636672,1.0179252624511719,-3.0472431818591517
1708443366.5148041,-2.140015125274658,-1.333030031328537,-2.526935640965597,6.106525647431173,1.0179954767227173,-3.046833340321676
1708443366.516772,-2.140026569366455,-1.3330508929542084,-2.526939932500021,6.106523978501119,1.0179791450500488,-3.0463407675372522
1708443366.5187817,-2.140026569366455,-1.3329807382873078,-2.526951853428976,6.1065688011939905,1.0179387331008911,-3.045995060597555
1708443366.5208058,-2.1400513648986816,-1.3330300611308594,-2.526898447667257,6.106595742493429,1.017959475517273,-3.04554254213442
1708443366.5228457,-2.1400513648986816,-1.3330137443593522,-2.526910368596212,6.106635916024008,1.0179550647735596,-3.0451999346362513
1708443366.5248053,-2.1400513648986816,-1.3329929870418091,-2.526975933705465,6.106610643654623,1.0179880857467651,-3.044703547154562
1708443366.5267854,-2.1401000022888184,-1.3329852384379883,-2.526956383381979,6.106638896256246,1.0179550647735596,-3.044267002736227
1708443366.5287971,-2.1400787830352783,-1.33303755641494,-2.526919190083639,6.106736409455099,1.0179342031478882,-3.043917957936422
1708443366.530827,-2.1400654315948486,-1.3330300462296982,-2.526935640965597,6.1067672846610925,1.0179685354232788,-3.0434723536120813
1708443366.5328143,-2.1401238441467285,-1.3330749881318589,-2.526931111012594,6.106788503914633,1.0179387331008911,-3.0430637041675013
1708443366.5348103,-2.1400787830352783,-1.3330212545445939,-2.5269597212420862,6.106810796051779,1.0179595947265625,-3.042692248021261
1708443366.5367963,-2.1401264667510986,-1.3330019128373642,-2.526910368596212,6.106855737953939,1.0179475545883179,-3.0422964731799524
1708443366.5388126,-2.1401174068450928,-1.3330004674247284,-2.526919190083639,6.106863248139181,1.017926812171936,-3.0418885389911097
1708443366.5408416,-2.140183925628662,-1.332995982175209,-2.526886288319723,6.10688995102004,1.0179506540298462,-3.0414844194995325
1708443366.5427842,-2.140167236328125,-1.3330212396434327,-2.526935640965597,6.1069350121314905,1.017926812171936,-3.0410760084735315
1708443366.5448027,-2.1401379108428955,-1.3330331605723877,-2.526935640965597,6.106942403107443,1.0179522037506104,-3.040733877812521
1708443366.5468023,-2.1401705741882324,-1.3330242049745102,-2.526935640965597,6.106971013336935,1.0179475545883179,-3.040386740361349
1708443366.5487742,-2.1402058601379395,-1.333066151743271,-2.526910368596212,6.106967437058248,1.0179446935653687,-3.0399745146380823
1708443366.5507908,-2.1402058601379395,-1.3330364686301728,-2.526939932500021,6.107105481415548,1.017926812171936,-3.039586130772726
1708443366.5527768,-2.140235185623169,-1.3330242943814774,-2.526923481618063,6.10706506946639,1.0179188251495361,-3.039227072392599
1708443366.554827,-2.140235185623169,-1.3330093187144776,-2.526935640965597,6.107081401139059,1.0178934335708618,-3.0388718287097376
1708443366.5568094,-2.140230655670166,-1.333074913626053,-2.526935640965597,6.107211696892538,1.0179566144943237,-3.0384705702411097
1708443366.5587804,-2.1402668952941895,-1.33308698356662,-2.526914660130636,6.107198226242819,1.017953634262085,-3.03813606897463
1708443366.5608087,-2.1402828693389893,-1.3330153983882447,-2.526914660130636,6.107236850052633,1.0178978443145752,-3.037780825291769
1708443366.5627832,-2.1403067111968994,-1.3330242794803162,-2.526907269154684,6.107281911164083,1.0178978443145752,-3.037405077611105
1708443366.5648346,-2.14035964012146,-1.333069161777832,-2.526956383381979,6.10738359668807,1.0179024934768677,-3.03707725206484
1708443366.5667784,-2.1403305530548096,-1.333049864774086,-2.526914660130636,6.1074479697044275,1.0178786516189575,-3.0367210547076624
1708443366.5687697,-2.1403419971466064,-1.333033175473549,-2.526911799107687,6.107422578125753,1.0179113149642944,-3.0363572279559534
1708443366.570796,-2.1403462886810303,-1.3330365282348176,-2.526914660130636,6.107461201935568,1.0178741216659546,-3.036023203526632
1708443366.5727797,-2.1403756141662598,-1.3330616664937516,-2.526914660130636,6.107532965927877,1.0178786516189575,-3.0356784502612513
1708443366.5748048,-2.140310049057007,-1.3330736023238678,-2.52690297762026,6.107565748482504,1.017878532409668,-3.035309378300802
1708443366.5767715,-2.140349864959717,-1.3330321174911042,-2.52690297762026,6.107604729920187,1.017845630645752,-3.0350382963763636
1708443366.578764,-2.140406370162964,-1.3331150871566315,-2.526923481618063,6.107649791031637,1.0178920030593872,-3.0346995035754603
1708443366.5807772,-2.140430450439453,-1.3330321174911042,-2.526939932500021,6.107685434609213,1.017883062362671,-3.0343311468707483
1708443366.582784,-2.1404144763946533,-1.333134488468506,-2.526931111012594,6.107712256699362,1.0178709030151367,-3.034037415181295
1708443366.5847704,-2.140456199645996,-1.3330930036357422,-2.526870075856344,6.107736336975851,1.0178215503692627,-3.033750836049215
1708443366.5867727,-2.1404168605804443,-1.3331454259208222,-2.526919190083639,6.107809293061056,1.0178378820419312,-3.0334110895739954
1708443366.5887823,-2.1404664516448975,-1.3331586134484787,-2.526919190083639,6.107886063843527,1.0178709030151367,-3.0330823103534144
1708443366.5907772,-2.1404213905334473,-1.3331365299275895,-2.526911799107687,6.107860195427694,1.01787531375885,-3.0327840487109583
1708443366.5928147,-2.140416145324707,-1.3331647676280518,-2.5268951098071497,6.107915627747335,1.0179009437561035,-3.0324960390674036
1708443366.5947764,-2.1404736042022705,-1.3332137626460572,-2.526886288319723,6.107906567841329,1.0178709030151367,-3.0321834723102015
1708443366.596775,-2.140467882156372,-1.3331558865359803,-2.5269280115710657,6.108008253365316,1.0178422927856445,-3.031860891972677
1708443366.598796,-2.140550374984741,-1.3331932735494156,-2.526935640965597,6.107995974808492,1.0178048610687256,-3.0316177050219935
1708443366.6007798,-2.1405699253082275,-1.3332005155137558,-2.526907269154684,6.108035075455465,1.0178545713424683,-3.031402889882223
1708443366.602812,-2.1405210494995117,-1.333188847904541,-2.5269280115710657,6.108006703644552,1.0177958011627197,-3.0310707728015345
1708443366.6048086,-2.1406028270721436,-1.3332704913667222,-2.526890579854147,6.108026015549459,1.0178422927856445,-3.0308225790606897
1708443366.606774,-2.140610694885254,-1.3332048666528244,-2.5268951098071497,6.108065354615011,1.0178512334823608,-3.0305467287646692
