Eg3-git/Classifiers/Data Collection/u8/u8xyz5_ur3e_joint_states.csv
time,elbow_joint,shoulder_lift_joint,shoulder_pan_joint,wrist_1_joint,wrist_2_joint,wrist_3_joint
1708444258.7446473,-2.142322540283203,-1.333173320894577,-2.525133196507589,6.110029208451071,1.0148050785064697,-3.2769606749164026
1708444258.7466552,-2.14225697517395,-1.3331690293601532,-2.5251196066485804,6.109987246781149,1.0148471593856812,-3.276989761983053
1708444258.7486444,-2.142235517501831,-1.3331039559892197,-2.5250986258136194,6.110009658127584,1.0147839784622192,-3.2769725958453577
1708444258.7506454,-2.14231014251709,-1.3331323874047776,-2.52507454553713,6.109975683480062,1.0148471593856812,-3.2769606749164026
1708444258.7526624,-2.14225697517395,-1.3331528466990967,-2.5251241366015833,6.109984624176779,1.0148124694824219,-3.276984516774313
1708444258.7546513,-2.14225697517395,-1.3331244152835389,-2.52507454553713,6.109975683480062,1.014833688735962,-3.2769606749164026
1708444258.756633,-2.14227032661438,-1.3331452769092103,-2.5250776449786585,6.109991776734152,1.0148259401321411,-3.2769692579852503
1708444258.758655,-2.14225697517395,-1.3331323874047776,-2.5251105467425745,6.1100125191505334,1.014830470085144,-3.276956383381979
1708444258.7606394,-2.1423180103302,-1.333136649136879,-2.5250986258136194,6.109984624176779,1.0148050785064697,-3.276985470448629
1708444258.7626472,-2.142277240753174,-1.3331201386502762,-2.5250867048846644,6.109956013947286,1.0148169994354248,-3.277005974446432
1708444258.7646682,-2.1422975063323975,-1.3331323874047776,-2.5250912348376673,6.109905349999227,1.0147794485092163,-3.2769325415240687
1708444258.7666752,-2.142240285873413,-1.3331452918103714,-2.5250867048846644,6.11000822761611,1.0148214101791382,-3.2769649664508265
1708444258.7686706,-2.142277240753174,-1.33310720444236,-2.52509576479067,6.1099634049232385,1.0148259401321411,-3.2769606749164026
1708444258.7707078,-2.142261505126953,-1.333120123749115,-2.525116745625631,6.109926211624899,1.0147929191589355,-3.276886526738302
1708444258.772666,-2.1422932147979736,-1.3331125688603898,-2.5250821749316614,6.1099785445030115,1.014797329902649,-3.2769487539874476
1708444258.7746727,-2.142240285873413,-1.3330996346524735,-2.5250700155841272,6.110007273941793,1.014776587486267,-3.276928249989645
1708444258.7766426,-2.1422860622406006,-1.3331657660058518,-2.5250867048846644,6.109935152321615,1.0147839784622192,-3.2769768873797815
1708444258.7786448,-2.142277240753174,-1.3332027804902573,-2.525149647389547,6.109906542092123,1.0147675275802612,-3.276952091847555
1708444258.7806528,-2.1422815322875977,-1.3331776869348069,-2.5251286665545862,6.109887230187216,1.0148348808288574,-3.2769530455218714
1708444258.782639,-2.1422860622406006,-1.33310820282016,-2.5251286665545862,6.109821545868673,1.014830470085144,-3.276985470448629
1708444258.7846441,-2.1422533988952637,-1.333173320894577,-2.5251451174365442,6.109887230187216,1.014825701713562,-3.2769768873797815
1708444258.7866738,-2.1422948837280273,-1.3331700575402756,-2.5251451174365442,6.109900700836935,1.0148169994354248,-3.2769692579852503
1708444258.7886362,-2.1422250270843506,-1.3331571233323594,-2.5251451174365442,6.109823095589437,1.0148018598556519,-3.2769692579852503
1708444258.7906685,-2.1422364711761475,-1.3331168454936524,-2.5251618067370813,6.109921562462606,1.0148260593414307,-3.2769606749164026
1708444258.7926419,-2.142216205596924,-1.3331528466990967,-2.52509576479067,6.109863388329305,1.0147720575332642,-3.2769530455218714
1708444258.7946427,-2.1422815322875977,-1.333173320894577,-2.5251122156726282,6.109879720001974,1.014776587486267,-3.2769692579852503
1708444258.796638,-2.1422364711761475,-1.3331571233323594,-2.525032345448629,6.109830605774679,1.0147675275802612,-3.276985470448629
1708444258.7986472,-2.1422250270843506,-1.3331039261868973,-2.52509576479067,6.109823214798727,1.014814019203186,-3.2769606749164026
1708444258.800641,-2.142244577407837,-1.3331855696490784,-2.5251405874835413,6.109839546471395,1.0147961378097534,-3.2769401709186
1708444258.802641,-2.1422488689422607,-1.3331323725036164,-2.52507454553713,6.109818684845724,1.0148050785064697,-3.2769768873797815
1708444258.8046396,-2.1422579288482666,-1.3331366640380402,-2.525100294743673,6.109801995545187,1.0148096084594727,-3.2769456545459192
1708444258.8066974,-2.142249822616577,-1.333120123749115,-2.5251122156726282,6.109909641533651,1.0148096084594727,-3.2769649664508265
1708444258.808634,-2.1422321796417236,-1.333173320894577,-2.5251405874835413,6.10982762554244,1.0147794485092163,-3.2768951098071497
1708444258.8106318,-2.1422533988952637,-1.333096371298172,-2.5251150766955774,6.109863388329305,1.0147556066513062,-3.2769530455218714
1708444258.8126504,-2.1422579288482666,-1.3331657660058518,-2.5251031557666224,6.109809744149008,1.0147883892059326,-3.276928249989645
1708444258.8146312,-2.1422836780548096,-1.33320605874572,-2.5250776449786585,6.1098530171211145,1.0148096084594727,-3.2769487539874476
1708444258.816628,-2.142277240753174,-1.33310720444236,-2.5250654856311243,6.109832036286154,1.0147929191589355,-3.2769456545459192
1708444258.8186433,-2.1422488689422607,-1.3331614893725892,-2.525067154561178,6.109872329026022,1.0147557258605957,-3.276928249989645
1708444258.8206313,-2.1422622203826904,-1.3331287664226075,-2.5251196066485804,6.109881269722738,1.0148229598999023,-3.2769368330584925
1708444258.8226461,-2.1422250270843506,-1.3331287664226075,-2.5251076857196253,6.1098153469856165,1.014748215675354,-3.2769401709186
1708444258.8246293,-2.142265796661377,-1.333096371298172,-2.5251076857196253,6.10988877990798,1.0148018598556519,-3.2769411245929163
1708444258.8266757,-2.1421823501586914,-1.3331538450768967,-2.5251105467425745,6.109832155495443,1.014748215675354,-3.2769036928759974
1708444258.8286293,-2.1422622203826904,-1.333149568443634,-2.5251451174365442,6.109823214798727,1.0147899389266968,-3.2769456545459192
1708444258.8306353,-2.1421780586242676,-1.3331614893725892,-2.5251076857196253,6.109835135727682,1.014764666557312,-3.2768800894366663
1708444258.83264,-2.142254590988159,-1.333136649136879,-2.5251076857196253,6.109881269722738,1.0147690773010254,-3.2769294420825403
1708444258.8346379,-2.1422271728515625,-1.3331244003823777,-2.5250776449786585,6.1098365662391565,1.014752745628357,-3.2768755594836634
1708444258.836666,-2.1422579288482666,-1.3331201684525986,-2.5251241366015833,6.109894859581747,1.0147826671600342,-3.276892964039938
1708444258.838666,-2.142249822616577,-1.3331244003823777,-2.52507454553713,6.109848487168112,1.0147870779037476,-3.276921097432272
1708444258.8406355,-2.14220929145813,-1.33310820282016,-2.525149647389547,6.109843957215109,1.014764666557312,-3.276912514363424
1708444258.842643,-2.1421868801116943,-1.3331538003734131,-2.5250912348376673,6.1098153469856165,1.0147571563720703,-3.27686053911318
1708444258.8446398,-2.1422622203826904,-1.3331244003823777,-2.52509576479067,6.109843957215109,1.014760136604309,-3.276848618184225
1708444258.8466625,-2.1422278881073,-1.3331287664226075,-2.5250867048846644,6.1097988961036584,1.014752745628357,-3.276910130177633
1708444258.848676,-2.142254590988159,-1.333173320894577,-2.525100294743673,6.10986493805007,1.0147311687469482,-3.2768896261798304
1708444258.850637,-2.142195701599121,-1.333116890197136,-2.525116745625631,6.109882819443502,1.0147571563720703,-3.276864830647604
1708444258.8526328,-2.142195701599121,-1.3331287664226075,-2.525062624608175,6.109873878746786,1.0147104263305664,-3.276844326649801
1708444258.8546386,-2.1422317028045654,-1.3331158471158524,-2.52507454553713,6.109765755921163,1.014744758605957,-3.2768777052508753
1708444258.8566358,-2.1422181129455566,-1.3331168603948136,-2.5251076857196253,6.109869348793783,1.014723777770996,-3.2768529097186487
1708444258.8586726,-2.142195701599121,-1.3331528466990967,-2.525149647389547,6.109812485962667,1.0147372484207153,-3.276799265538351
1708444258.8606374,-2.1422250270843506,-1.333112583761551,-2.5251031557666224,6.109823214798727,1.0147870779037476,-3.2768035570727747
1708444258.8626423,-2.1422135829925537,-1.3331819784692307,-2.5251241366015833,6.109848487168112,1.0147209167480469,-3.2768529097186487
1708444258.8646705,-2.1422431468963623,-1.3331244003823777,-2.5251241366015833,6.10982762554244,1.0147165060043335,-3.2768777052508753
1708444258.8666854,-2.1422455310821533,-1.3331006479314347,-2.5250912348376673,6.109841096192159,1.0147045850753784,-3.2768166700946253
1708444258.86866,-2.1422295570373535,-1.3331323725036164,-2.5250867048846644,6.109852897911825,1.0147209167480469,-3.2768078486071985
1708444258.870736,-2.1422340869903564,-1.333136649136879,-2.5251122156726282,6.1098365662391565,1.0146849155426025,-3.2768290678607386
1708444258.8726842,-2.142195701599121,-1.3331571233323594,-2.5251122156726282,6.1098153469856165,1.0146682262420654,-3.2768290678607386
1708444258.8746653,-2.142191171646118,-1.3331244152835389,-2.5250700155841272,6.109845626145162,1.0146714448928833,-3.2768452803241175
1708444258.876643,-2.1422295570373535,-1.3331528466990967,-2.5250700155841272,6.109807956009664,1.014642596244812,-3.276787344609396
1708444258.8786552,-2.1422181129455566,-1.3331039261868973,-2.525116745625631,6.109841096192159,1.0147343873977661,-3.2768498102771204
1708444258.8806374,-2.1422364711761475,-1.3331733059934159,-2.5250912348376673,6.109848487168112,1.0147271156311035,-3.2768452803241175
1708444258.8826354,-2.1421709060668945,-1.3331168305924912,-2.5251196066485804,6.109852897911825,1.0146636962890625,-3.2768166700946253
1708444258.8852506,-2.1422295570373535,-1.3331409108689805,-2.5251360575305384,6.109857547074117,1.0146968364715576,-3.276886526738302
1708444258.8866463,-2.1422250270843506,-1.333173320894577,-2.5250986258136194,6.109803426056661,1.0146923065185547,-3.276848618184225
1708444258.8886824,-2.1422431468963623,-1.3331287664226075,-2.52509576479067,6.1098153469856165,1.0146968364715576,-3.2768290678607386
1708444258.8906846,-2.142184257507324,-1.33313304305587,-2.5251405874835413,6.109828817635336,1.0146833658218384,-3.2768121401416224
1708444258.8926313,-2.142188787460327,-1.333157093530037,-2.5250583330737513,6.109869348793783,1.014701247215271,-3.2768660227404993
1708444258.894669,-2.142204761505127,-1.3331244003823777,-2.525121275578634,6.109848487168112,1.0146849155426025,-3.276848618184225
1708444258.896629,-2.1422181129455566,-1.3331168454936524,-2.525079075490133,6.109833347588339,1.0146424770355225,-3.2768078486071985
1708444258.8986416,-2.142204761505127,-1.3331528317979355,-2.525100294743673,6.109824406891622,1.0146727561950684,-3.2768777052508753
1708444258.900669,-2.142200231552124,-1.3331409406713028,-2.52509576479067,6.10978256443099,1.0146894454956055,-3.2768378893481653
1708444258.9026296,-2.1422135829925537,-1.33313304305587,-2.5250912348376673,6.109774935036459,1.0146682262420654,-3.2768498102771204
1708444258.9046602,-2.142267942428589,-1.3331373196891327,-2.5250986258136194,6.109885680466451,1.0146605968475342,-3.27680474916567
1708444258.906651,-2.1422431468963623,-1.3331570786288758,-2.52509576479067,6.109845626145162,1.0146515369415283,-3.2768247763263147
1708444258.9086535,-2.14219331741333,-1.3331168454936524,-2.5251122156726282,6.109824406891622,1.014705777168274,-3.2768335978137415
1708444258.9106412,-2.1422667503356934,-1.3330930185369034,-2.5251122156726282,6.109824406891622,1.014647126197815,-3.2768335978137415
1708444258.9126375,-2.1422181129455566,-1.3331125688603898,-2.525062624608175,6.109845626145162,1.0146849155426025,-3.276820961629049
1708444258.914672,-2.1422135829925537,-1.3330725294402619,-2.5251241366015833,6.1098365662391565,1.0146442651748657,-3.2768247763263147
1708444258.9166355,-2.1422295570373535,-1.333133028154709,-2.525137726460592,6.109819876938619,1.0146605968475342,-3.2768004576312464
1708444258.9187093,-2.142199993133545,-1.3331287664226075,-2.525041405354635,6.109791624336996,1.0146515369415283,-3.2768035570727747
1708444258.9206517,-2.142200231552124,-1.3331168454936524,-2.5251241366015833,6.109819876938619,1.0146350860595703,-3.2767797152148646
1708444258.9226408,-2.142204761505127,-1.3331168454936524,-2.525133196507589,6.109800565033712,1.0146862268447876,-3.27680474916567
1708444258.924667,-2.142199993133545,-1.33313304305587,-2.5250821749316614,6.109852897911825,1.0146727561950684,-3.2767959276782435
1708444258.9266431,-2.142191171646118,-1.3331330728581925,-2.5251076857196253,6.109852897911825,1.0146727561950684,-3.2768529097186487
1708444258.9286475,-2.1422226428985596,-1.3331373196891327,-2.5251436869250696,6.109828817635336,1.0146650075912476,-3.27680474916567
1708444258.9306417,-2.1422295570373535,-1.333152861600258,-2.52509576479067,6.1097614643867395,1.0146650075912476,-3.276825253163473
1708444258.9326386,-2.1422431468963623,-1.3331168454936524,-2.52509576479067,6.109852897911825,1.0146470069885254,-3.2768004576312464
1708444258.9346354,-2.1422181129455566,-1.333149568443634,-2.525100294743673,6.1098365662391565,1.0146605968475342,-3.2768121401416224
1708444258.9366517,-2.1422667503356934,-1.3331287813237687,-2.5250867048846644,6.10978256443099,1.0146772861480713,-3.2767959276782435
1708444258.9386513,-2.1421682834625244,-1.3331366342357178,-2.525083605443136,6.109803426056661,1.0146470069885254,-3.2768378893481653
1708444258.940647,-2.1422181129455566,-1.3331039261868973,-2.5250912348376673,6.109833347588339,1.0146591663360596,-3.2768541018115442
1708444258.9426382,-2.1422181129455566,-1.333121122126915,-2.525100294743673,6.109808075218954,1.014705777168274,-3.2768166700946253
1708444258.9446368,-2.1422340869903564,-1.333121122126915,-2.5250986258136194,6.109866487770834,1.0146939754486084,-3.2768452803241175
1708444258.94668,-2.1422431468963623,-1.3331452918103714,-2.525100294743673,6.109887349396505,1.0146727561950684,-3.2768335978137415
1708444258.9486291,-2.1421797275543213,-1.3331244003823777,-2.52509576479067,6.109803426056661,1.0146515369415283,-3.276846472417013
1708444258.9506667,-2.14220929145813,-1.3331571233323594,-2.5251122156726282,6.109803426056661,1.0146968364715576,-3.2768166700946253
1708444258.9526463,-2.1421797275543213,-1.3331125688603898,-2.5251286665545862,6.1098378775413416,1.0146396160125732,-3.2768247763263147
1708444258.9546382,-2.142247438430786,-1.3330639612725754,-2.5251196066485804,6.109807956009664,1.0147058963775635,-3.2768035570727747
1708444258.956633,-2.1422386169433594,-1.33313304305587,-2.5251196066485804,6.109787094383993,1.0146727561950684,-3.2768378893481653
1708444258.9586244,-2.1422271728515625,-1.3331862551024933,-2.525116745625631,6.109779345780172,1.0146772861480713,-3.2767916361438196
1708444258.9606352,-2.142254590988159,-1.3330715161613007,-2.525034014378683,6.109774935036459,1.0146397352218628,-3.2768335978137415
1708444258.9626477,-2.142191171646118,-1.333136649136879,-2.5251122156726282,6.1097720740135095,1.0146849155426025,-3.2768452803241175
1708444258.964624,-2.1422340869903564,-1.3331571233323594,-2.52509576479067,6.1097988961036584,1.0146560668945312,-3.276858393345968
1708444258.9666302,-2.1422431468963623,-1.3330757927945633,-2.5250776449786585,6.109800565033712,1.0146650075912476,-3.2768121401416224
1708444258.9686449,-2.1422135829925537,-1.3331528466990967,-2.5251572767840784,6.109783875733175,1.014694094657898,-3.27680474916567
1708444258.9707277,-2.142184257507324,-1.3331409257701416,-2.525100294743673,6.109770405083456,1.0146894454956055,-3.2768660227404993
1708444258.9727206,-2.1422295570373535,-1.333096371298172,-2.525116745625631,6.109779345780172,1.0146939754486084,-3.2768078486071985
1708444258.974636,-2.142204761505127,-1.3331006330302735,-2.525100294743673,6.109859216004171,1.014665126800537,-3.27680474916567
1708444258.9766328,-2.1422317028045654,-1.3331006479314347,-2.5251076857196253,6.109845626145162,1.0146849155426025,-3.2768378893481653
1708444258.9786649,-2.1421773433685303,-1.3330920052579422,-2.5250986258136194,6.109812485962667,1.014648675918579,-3.2767754236804407
1708444258.9806433,-2.1422271728515625,-1.333190531735756,-2.52509576479067,6.1098424074943445,1.0146682262420654,-3.2767680327044886
1708444258.9826357,-2.1421797275543213,-1.3331168454936524,-2.525116745625631,6.109813916474142,1.0146560668945312,-3.2768498102771204
1708444258.9846404,-2.1422181129455566,-1.33313304305587,-2.525100294743673,6.109763014107504,1.0146682262420654,-3.2767959276782435
1708444258.9866343,-2.142247438430786,-1.333121122126915,-2.52509576479067,6.109792816429891,1.0146682262420654,-3.2767916361438196
1708444258.9886467,-2.142204761505127,-1.333068237905838,-2.5251122156726282,6.109718191414633,1.0147225856781006,-3.276874605809347
1708444258.9906354,-2.1422431468963623,-1.3331006628325959,-2.5251122156726282,6.109797227173605,1.0146515369415283,-3.2768290678607386
1708444258.9926417,-2.1422228813171387,-1.3331125688603898,-2.5251451174365442,6.109805094986715,1.0146805047988892,-3.2767797152148646
1708444258.9946554,-2.1421797275543213,-1.3330801588347931,-2.5250986258136194,6.109739529877462,1.0146560668945312,-3.2767916361438196
1708444258.9966395,-2.14220929145813,-1.3331168454936524,-2.5250867048846644,6.10978530624465,1.0146350860595703,-3.2768335978137415
1708444258.99863,-2.1422317028045654,-1.333068237905838,-2.5250583330737513,6.109718191414633,1.0146605968475342,-3.276842180882589
1708444259.0006342,-2.1421773433685303,-1.3331168454936524,-2.5250821749316614,6.1097603915031335,1.0146307945251465,-3.2768166700946253
1708444259.002655,-2.14219331741333,-1.3330887270024796,-2.5251451174365442,6.1097988961036584,1.0146849155426025,-3.276820961629049
1708444259.0046356,-2.142204761505127,-1.3331253987601777,-2.525116745625631,6.109707939415731,1.0146682262420654,-3.2768822352038782
1708444259.0066335,-2.1421730518341064,-1.3330811274102707,-2.525083605443136,6.109709489136495,1.0146514177322388,-3.2768335978137415
1708444259.0086684,-2.1422135829925537,-1.3330972802690049,-2.525088135396139,6.109696018486776,1.0146968364715576,-3.276878897343771
1708444259.0106428,-2.142184257507324,-1.3331006479314347,-2.525104824696676,6.109704959183492,1.0147104263305664,-3.2767916361438196
1708444259.0126443,-2.1422476768493652,-1.3331495237401505,-2.525100294743673,6.109742271691122,1.0146560668945312,-3.2768529097186487
1708444259.014661,-2.142204761505127,-1.3331201088479538,-2.5250731150256556,6.1096852896507166,1.0147058963775635,-3.2768660227404993
1708444259.016625,-2.1422476768493652,-1.3331125241569062,-2.525104824696676,6.1097168801124475,1.014717936515808,-3.2767916361438196
1708444259.0186336,-2.142204761505127,-1.333096371298172,-2.52509576479067,6.109718429833212,1.0147299766540527,-3.276809040700094
1708444259.020646,-2.14220929145813,-1.3331296902946015,-2.5250700155841272,6.109704959183492,1.0147135257720947,-3.276825253163473
1708444259.022626,-2.142188787460327,-1.3331210923245926,-2.525100294743673,6.109692799835958,1.014701247215271,-3.2768335978137415
1708444259.0246582,-2.14219331741333,-1.33310920119796,-2.52509576479067,6.109709489136495,1.0146560668945312,-3.2768896261798304
1708444259.0266364,-2.142188787460327,-1.33310820282016,-2.5251436869250696,6.109706151276388,1.0147135257720947,-3.276874605809347
1708444259.0286381,-2.142204761505127,-1.3331287664226075,-2.5251405874835413,6.109676348954,1.0147298574447632,-3.2767959276782435
1708444259.0306358,-2.1421773433685303,-1.3331168454936524,-2.5251241366015833,6.109660017281332,1.0146878957748413,-3.2768378893481653
1708444259.0326378,-2.1422181129455566,-1.3331125688603898,-2.52509576479067,6.109697210579672,1.0146714448928833,-3.2768378893481653
1708444259.0346596,-2.142188787460327,-1.33310820282016,-2.5251241366015833,6.109730350762167,1.0147253274917603,-3.27680474916567
1708444259.036641,-2.142200231552124,-1.3331287664226075,-2.5250821749316614,6.109664547234335,1.0146923065185547,-3.2768121401416224
1708444259.038643,-2.142186403274536,-1.3330920052579422,-2.52509576479067,6.109709489136495,1.0147045850753784,-3.2767916361438196
1708444259.0406613,-2.14219331741333,-1.3331006479314347,-2.5251360575305384,6.109643685608663,1.0147298574447632,-3.2768498102771204
1708444259.0426395,-2.142184257507324,-1.333125354056694,-2.5250940958606165,6.109730350762167,1.0147343873977661,-3.2768335978137415
1708444259.0446682,-2.14219331741333,-1.33310820282016,-2.525116745625631,6.109671819000997,1.0147209167480469,-3.2768290678607386
1708444259.0466456,-2.1421773433685303,-1.3331603568843384,-2.525079075490133,6.109712350159445,1.0147000551223755,-3.2768166700946253
1708444259.048636,-2.1422226428985596,-1.3331200939467927,-2.5250912348376673,6.10967646816329,1.0146714448928833,-3.2768614927874964
1708444259.0506213,-2.142181873321533,-1.333121122126915,-2.52509576479067,6.109643685608663,1.0147299766540527,-3.2768498102771204
1708444259.0526433,-2.142188787460327,-1.3331776422313233,-2.5251105467425745,6.1097242710884,1.0147180557250977,-3.2768409887896937
1708444259.0546663,-2.1422226428985596,-1.3331049245646973,-2.5250867048846644,6.10967646816329,1.0147463083267212,-3.276816193257467
1708444259.0566568,-2.1422157287597656,-1.3331296902946015,-2.5251451174365442,6.109721290856161,1.0147343873977661,-3.276820484791891
1708444259.0586708,-2.142127752304077,-1.3330725294402619,-2.5250821749316614,6.109671819000997,1.0147299766540527,-3.27683669725527
1708444259.0606446,-2.142160415649414,-1.3331458878568192,-2.5251076857196253,6.1096733687217615,1.0147209167480469,-3.2768734137164515
1708444259.0626266,-2.142139196395874,-1.33313304305587,-2.5251076857196253,6.109683739929952,1.0146968364715576,-3.2768614927874964
1708444259.0646403,-2.1421561241149902,-1.3331049245646973,-2.5250912348376673,6.109742271691122,1.0147253274917603,-3.2768498102771204
1708444259.0666308,-2.14219331741333,-1.3331134778312226,-2.5250986258136194,6.109725940018453,1.0147044658660889,-3.2768290678607386
1708444259.068643,-2.1421682834625244,-1.3331409257701416,-2.5250867048846644,6.109683739929952,1.0147253274917603,-3.276870314274923
1708444259.0707169,-2.14220929145813,-1.333096371298172,-2.5250867048846644,6.109671819000997,1.0147089958190918,-3.2768247763263147
1708444259.0726836,-2.1421515941619873,-1.3330844801715394,-2.5250776449786585,6.109696018486776,1.0147463083267212,-3.2768247763263147
1708444259.07465,-2.142160654067993,-1.3330682230046769,-2.5251286665545862,6.109692799835958,1.0147119760513306,-3.276820484791891
1708444259.0766356,-2.1421525478363037,-1.3331168454936524,-2.5250867048846644,6.109683739929952,1.014695644378662,-3.2768078486071985
1708444259.0786285,-2.14216947555542,-1.3331006479314347,-2.5251196066485804,6.109683739929952,1.0147536993026733,-3.2768452803241175
1708444259.080651,-2.1421658992767334,-1.333056391482689,-2.5251196066485804,6.1097333309944055,1.014723777770996,-3.2768121401416224
1708444259.0826278,-2.142186403274536,-1.3330834370902558,-2.5251286665545862,6.109685408860006,1.014695644378662,-3.276820484791891
1708444259.084628,-2.142143726348877,-1.3331581366113205,-2.5251269976245325,6.109709489136495,1.0147119760513306,-3.2768498102771204
1708444259.0866249,-2.142143726348877,-1.3331409257701416,-2.5251224676715296,6.109664428025045,1.0147809982299805,-3.2768572012530726
1708444259.0886645,-2.142181873321533,-1.3331244003823777,-2.5250805060016077,6.109650957375326,1.014797329902649,-3.276832405720846
1708444259.0906515,-2.14216947555542,-1.3331168603948136,-2.5251930395709437,6.1097333309944055,1.0147809982299805,-3.2768078486071985
1708444259.0926616,-2.1421773433685303,-1.3331452918103714,-2.525172297154562,6.109751212387838,1.0148426294326782,-3.276832405720846
1708444259.094623,-2.142197847366333,-1.333136649136879,-2.525238100682394,6.10967646816329,1.0148454904556274,-3.276820961629049
1708444259.0966458,-2.1422066688537598,-1.3331373196891327,-2.525166098271505,6.109692799835958,1.0148124694824219,-3.276832405720846
1708444259.0986702,-2.142160654067993,-1.3331297051957627,-2.525166098271505,6.109688269882955,1.014866828918457,-3.27679950395693
1708444259.1006463,-2.142181873321533,-1.3330887270024796,-2.5251780192004603,6.1097168801124475,1.0148214101791382,-3.276816193257467
1708444259.1026406,-2.142164945602417,-1.3330930036357422,-2.5252321402179163,6.109742271691122,1.014807939529419,-3.276820484791891
1708444259.1046453,-2.142186403274536,-1.333100677733757,-2.525182549153463,6.109692799835958,1.0148124694824219,-3.2768777052508753
1708444259.1066337,-2.142181873321533,-1.3330801588347931,-2.525191609059469,6.109737741738119,1.0147960186004639,-3.27683669725527
1708444259.108683,-2.142174005508423,-1.3331373196891327,-2.5252817312823694,6.109714019089498,1.0148006677627563,-3.27686578432192
1708444259.1106308,-2.142160654067993,-1.3331168454936524,-2.525203529988424,6.10972141006545,1.0148426294326782,-3.2768452803241175
1708444259.112666,-2.1421163082122803,-1.3331296902946015,-2.5251944700824183,6.109728801041403,1.0147883892059326,-3.2768290678607386
1708444259.114642,-2.14213228225708,-1.3330920052579422,-2.525215450917379,6.109700548439779,1.0148169994354248,-3.2768035570727747
1708444259.1166382,-2.142127752304077,-1.3330963861993332,-2.5252109209643763,6.109721290856161,1.0148169994354248,-3.2767959276782435
1708444259.1186578,-2.142136812210083,-1.3330487322858353,-2.5252817312823694,6.109700548439779,1.0148124694824219,-3.2768335978137415
1708444259.1206377,-2.1421782970428467,-1.3331700575402756,-2.5252185503589075,6.109737741738119,1.0148124694824219,-3.276811186467306
1708444259.122634,-2.142195224761963,-1.3331006330302735,-2.5252018610583704,6.109688269882955,1.0147989988327026,-3.2768290678607386
1708444259.1246722,-2.1422066688537598,-1.3331495386413117,-2.5252397696124476,6.109667408257284,1.0147961378097534,-3.2768290678607386
1708444259.126638,-2.14220929145813,-1.333068312411644,-2.5252607504474085,6.109696018486776,1.0148247480392456,-3.2768614927874964
1708444259.1286635,-2.1421616077423096,-1.3331500750831147,-2.5252397696124476,6.109737741738119,1.0147961378097534,-3.2768335978137415
1708444259.1306334,-2.142186403274536,-1.3331125688603898,-2.5252397696124476,6.109644996910848,1.0148214101791382,-3.2768335978137415
1708444259.1326761,-2.142195224761963,-1.3331134778312226,-2.5252442995654505,6.109688269882955,1.0148006677627563,-3.2768572012530726
1708444259.1346827,-2.14216947555542,-1.3331168305924912,-2.5252018610583704,6.109667408257284,1.014829158782959,-3.2768409887896937
1708444259.1366425,-2.1421163082122803,-1.3331049245646973,-2.5251899401294153,6.109745132714071,1.014807939529419,-3.2768290678607386
1708444259.1386607,-2.142197847366333,-1.3330844950727005,-2.5252442995654505,6.109700548439779,1.014807939529419,-3.276914660130636
1708444259.1406498,-2.142197847366333,-1.33310820282016,-2.5252726713763636,6.109718429833212,1.014866828918457,-3.2768409887896937
1708444259.1426363,-2.1421570777893066,-1.3330920350602646,-2.5252366701709192,6.109712469368734,1.014866828918457,-3.2768822352038782
1708444259.1446655,-2.1421525478363037,-1.333149568443634,-2.5252698103534144,6.109770881920614,1.0148365497589111,-3.2768247763263147
1708444259.1466355,-2.1421828269958496,-1.333121122126915,-2.5252230803119105,6.109696018486776,1.0147870779037476,-3.276816193257467
1708444259.1486588,-2.142136812210083,-1.3331082177213212,-2.5252321402179163,6.109700548439779,1.0148786306381226,-3.2768078486071985
1708444259.1506555,-2.1421163082122803,-1.3331538450768967,-2.5252321402179163,6.109712350159445,1.014791488647461,-3.2768335978137415
1708444259.1526375,-2.1421525478363037,-1.3331452918103714,-2.5252607504474085,6.109749662667074,1.0148156881332397,-3.2768409887896937
1708444259.1546335,-2.14220929145813,-1.333157093530037,-2.5252018610583704,6.10975872257308,1.0148124694824219,-3.2768529097186487
1708444259.1566617,-2.142164945602417,-1.3331049394658585,-2.5252321402179163,6.109733211785116,1.0148202180862427,-3.2768076101886194
1708444259.1586316,-2.142186403274536,-1.3331134927323838,-2.5252817312823694,6.109745132714071,1.0148247480392456,-3.2768691221820276
1708444259.160644,-2.142174005508423,-1.3331168454936524,-2.5252018610583704,6.109733211785116,1.0148695707321167,-3.276864830647604
1708444259.1626272,-2.14216947555542,-1.3331776869348069,-2.5252321402179163,6.109745132714071,1.0148532390594482,-3.2768498102771204
1708444259.1646423,-2.14213228225708,-1.3331373196891327,-2.5252488295184534,6.109714019089498,1.0148577690124512,-3.2768734137164515
1708444259.1666317,-2.142120838165283,-1.3331006479314347,-2.525182549153463,6.109703409462728,1.014919400215149,-3.2767797152148646
1708444259.168635,-2.1421515941619873,-1.33309958994899,-2.5252488295184534,6.109749662667074,1.0148786306381226,-3.2768452803241175
1708444259.1706786,-2.1421570777893066,-1.3331287664226075,-2.5252063910113733,6.109655487328329,1.014914870262146,-3.276832405720846
1708444259.1726973,-2.142195224761963,-1.333096371298172,-2.5252533594714563,6.109682547837057,1.0148532390594482,-3.2768078486071985
1708444259.1746352,-2.1422066688537598,-1.333096371298172,-2.5252488295184534,6.109733211785116,1.014919400215149,-3.276783053074972
1708444259.1766477,-2.14213228225708,-1.333043397670128,-2.525187079106466,6.109744059830465,1.0148680210113525,-3.2768529097186487
1708444259.1786337,-2.142190933227539,-1.3331049245646973,-2.5251780192004603,6.109696018486776,1.0148905515670776,-3.276832405720846
1708444259.180635,-2.142136812210083,-1.333149568443634,-2.5252321402179163,6.109682547837057,1.0148860216140747,-3.276816193257467
1708444259.182629,-2.1421525478363037,-1.3331373196891327,-2.5252140204059046,6.109719741135397,1.014878511428833,-3.2768166700946253
1708444259.1846414,-2.142197847366333,-1.3331416112235566,-2.5252018610583704,6.109721290856161,1.0148695707321167,-3.276820484791891
1708444259.186694,-2.1422066688537598,-1.33310920119796,-2.5252442995654505,6.109744059830465,1.0148859024047852,-3.2768290678607386
1708444259.1886342,-2.1421616077423096,-1.3331168454936524,-2.5252652804004114,6.109745132714071,1.01486074924469,-3.2768335978137415
1708444259.1906362,-2.1421117782592773,-1.3331819784692307,-2.5252366701709192,6.109757411270895,1.0148860216140747,-3.2768572012530726
1708444259.1926475,-2.1421616077423096,-1.3331372898868104,-2.5252321402179163,6.109698879509725,1.014935851097107,-3.2768409887896937
1708444259.1946504,-2.1421525478363037,-1.3331243854812165,-2.5252352396594446,6.1096945879753015,1.0148532390594482,-3.2768777052508753
1708444259.1966438,-2.1421570777893066,-1.333096371298172,-2.5252230803119105,6.109696018486776,1.0148365497589111,-3.2768335978137415
1708444259.198646,-2.142174005508423,-1.333149568443634,-2.5252321402179163,6.109700548439779,1.0148621797561646,-3.2768452803241175
1708444259.2006364,-2.142127752304077,-1.3330887270024796,-2.5252063910113733,6.109728801041403,1.0148321390151978,-3.2768121401416224
1708444259.2026515,-2.142186403274536,-1.3331168454936524,-2.5252397696124476,6.109757411270895,1.0148770809173584,-3.2768290678607386
1708444259.2046502,-2.14219069480896,-1.3330920052579422,-2.525219980870382,6.109745132714071,1.01486074924469,-3.2768335978137415
1708444259.206634,-2.1421456336975098,-1.3330930334380646,-2.5252276102649134,6.109674799233236,1.014835238456726,-3.2768455187426966
1708444259.2086709,-2.142134666442871,-1.333084450369217,-2.5252979437457483,6.109724390297689,1.0148814916610718,-3.2768335978137415
1708444259.2106283,-2.14219069480896,-1.3330920499614258,-2.5252185503589075,6.109815227776327,1.0148276090621948,-3.2768121401416224
1708444259.2126436,-2.142164945602417,-1.3330844205668946,-2.5252562204944056,6.109736192017355,1.0148680210113525,-3.2768455187426966
1708444259.2146294,-2.14219069480896,-1.3331006479314347,-2.5252533594714563,6.109703290253439,1.0148651599884033,-3.276893917714254
1708444259.2166302,-2.142164945602417,-1.3331006628325959,-2.5252607504474085,6.10976921299056,1.0148741006851196,-3.276820246373312
1708444259.2186372,-2.142240524291992,-1.3331125539592286,-2.5252772013293665,6.10978530624465,1.014844298362732,-3.2768381277667444
1708444259.2206743,-2.1421456336975098,-1.3331296306899567,-2.5252276102649134,6.109745251923361,1.0148860216140747,-3.276820246373312
1708444259.2226539,-2.1421828269958496,-1.333056316976883,-2.5252442995654505,6.109748351364889,1.0148814916610718,-3.276827637349264
1708444259.224643,-2.1421279907226562,-1.333133028154709,-2.5252607504474085,6.109752881317892,1.0148695707321167,-3.2768660227404993
1708444259.2266362,-2.1422181129455566,-1.3331581366113205,-2.5252442995654505,6.10978530624465,1.0148577690124512,-3.2768245379077356
1708444259.2286413,-2.1421525478363037,-1.333096371298172,-2.5251899401294153,6.109731662064352,1.0148321390151978,-3.2768691221820276
1708444259.2306283,-2.1421570777893066,-1.3331495088389893,-2.5252063910113733,6.109748351364889,1.0148532390594482,-3.276848618184225
1708444259.232635,-2.142134189605713,-1.3331200790456315,-2.5252442995654505,6.109736192017355,1.0148695707321167,-3.2768004576312464
1708444259.2346265,-2.14219069480896,-1.3331657660058518,-2.525199000035421,6.10978530624465,1.0148695707321167,-3.2768290678607386
1708444259.2366438,-2.14219069480896,-1.3330757927945633,-2.5252063910113733,6.109788405686178,1.0148695707321167,-3.276832405720846
1708444259.2386699,-2.142178535461426,-1.3331538450768967,-2.5252230803119105,6.109751331597128,1.0148532390594482,-3.2768822352038782
1708444259.2406569,-2.14214825630188,-1.333149568443634,-2.5252230803119105,6.109762894898214,1.0148742198944092,-3.276820484791891
1708444259.2426314,-2.142160654067993,-1.3331495386413117,-2.5252230803119105,6.1098378775413416,1.0148488283157349,-3.2769058386432093
1708444259.2446434,-2.142125368118286,-1.33310920119796,-2.5252442995654505,6.109791624336996,1.0148156881332397,-3.2768409887896937
1708444259.246628,-2.142186403274536,-1.33310820282016,-2.525215450917379,6.109939682274618,1.0148577690124512,-3.2768335978137415
1708444259.2486413,-2.14214825630188,-1.333141641025879,-2.525203529988424,6.10988877990798,1.01486074924469,-3.2768166700946253
1708444259.2506318,-2.142197847366333,-1.3330920499614258,-2.5252321402179163,6.109941231995382,1.0148488283157349,-3.2768290678607386
1708444259.2526336,-2.1421456336975098,-1.3331538450768967,-2.5252063910113733,6.1098917601402185,1.0148651599884033,-3.2768574396716517
1708444259.2546318,-2.142181873321533,-1.33310920119796,-2.525199000035421,6.10988877990798,1.01486074924469,-3.2768290678607386
1708444259.2566454,-2.142125368118286,-1.3331210923245926,-2.5252140204059046,6.10988866069869,1.0148488283157349,-3.2768338362323206
1708444259.2586422,-2.1421525478363037,-1.3331168454936524,-2.5252063910113733,6.109937894135275,1.0148860216140747,-3.276820484791891
1708444259.260645,-2.142148017883301,-1.3330606085113068,-2.5252442995654505,6.1098917601402185,1.0148770809173584,-3.276820246373312
1708444259.2626345,-2.1421570777893066,-1.3331039261868973,-2.5252681414233606,6.109863388329305,1.0148651599884033,-3.2768693606006067
1708444259.2646368,-2.14219069480896,-1.33313304305587,-2.5252397696124476,6.109887230187216,1.014862298965454,-3.276815716420309
1708444259.2666278,-2.1421828269958496,-1.33310920119796,-2.5252366701709192,6.109928953438558,1.0148247480392456,-3.2768076101886194
1708444259.2686377,-2.142136573791504,-1.3331125688603898,-2.525215450917379,6.1099125025566,1.0148695707321167,-3.2768247763263147
1708444259.2706513,-2.142197847366333,-1.3331125688603898,-2.5252607504474085,6.1098753092582605,1.0148651599884033,-3.2768364588366907
1708444259.272725,-2.142160654067993,-1.33310920119796,-2.525245730076925,6.109894621163168,1.0148365497589111,-3.2768245379077356
1708444259.2746718,-2.142141103744507,-1.333085374241211,-2.5252488295184534,6.109933364182272,1.014899492263794,-3.27680474916567
1708444259.2766414,-2.142197847366333,-1.33310820282016,-2.5252307097064417,6.109908091812887,1.014829158782959,-3.2767956892596644
1708444259.27863,-2.1422111988067627,-1.3331296902946015,-2.5252698103534144,6.109928953438558,1.0148695707321167,-3.2768290678607386
1708444259.2806346,-2.1421525478363037,-1.3331253987601777,-2.5252817312823694,6.109879839211263,1.014841079711914,-3.2768002192126673
1708444259.2826462,-2.1421782970428467,-1.333068237905838,-2.5252817312823694,6.109920012741842,1.0148532390594482,-3.276832167302267
1708444259.284629,-2.142127752304077,-1.3331125241569062,-2.5252063910113733,6.109933364182272,1.0148695707321167,-3.2768545786487024
1708444259.2866292,-2.14219069480896,-1.3330963861993332,-2.5252817312823694,6.109905111580648,1.0148532390594482,-3.2768212000476282
1708444259.288642,-2.1421570777893066,-1.3331168454936524,-2.5252607504474085,6.109882700234213,1.014894962310791,-3.2768121401416224
1708444259.29063,-2.1421773433685303,-1.333149568443634,-2.5252321402179163,6.109924542694845,1.0148786306381226,-3.2768381277667444
1708444259.2926528,-2.1421570777893066,-1.3331168454936524,-2.525224510823385,6.109928953438558,1.0148860216140747,-3.276820246373312
1708444259.2946336,-2.142160654067993,-1.3331452918103714,-2.525219980870382,6.109903681069174,1.0148577690124512,-3.2767866293536585
1708444259.2966316,-2.142164945602417,-1.3331168305924912,-2.5252321402179163,6.109887230187216,1.0148365497589111,-3.276776377354757
1708444259.2986288,-2.142164945602417,-1.333095283513405,-2.525215450917379,6.109893190651693,1.0148860216140747,-3.276788298283712
1708444259.3006382,-2.14214825630188,-1.3331700575402756,-2.5252698103534144,6.109893190651693,1.0148741006851196,-3.2768381277667444
1708444259.302623,-2.142165184020996,-1.3331416112235566,-2.5252276102649134,6.109903681069174,1.0148695707321167,-3.276792828236715
1708444259.3046343,-2.14213228225708,-1.3331006181291123,-2.5251780192004603,6.109876739769735,1.0148621797561646,-3.276788298283712
1708444259.3066354,-2.14213228225708,-1.333149568443634,-2.5252321402179163,6.109870898514547,1.0147870779037476,-3.276785437260763
1708444259.3086433,-2.142197847366333,-1.3331081581166764,-2.525166098271505,6.109879839211263,1.0148814916610718,-3.276789728795187
1708444259.3106294,-2.142181873321533,-1.3331253987601777,-2.525219980870382,6.1098917601402185,1.0148577690124512,-3.2767661253558558
1708444259.3126292,-2.1422066688537598,-1.3330972802690049,-2.5251944700824183,6.109924423485555,1.0148488283157349,-3.276698414479391
1708444259.3146198,-2.142199754714966,-1.3331081879189988,-2.5252321402179163,6.1099125025566,1.0148276090621948,-3.2767162958728235
1708444259.316626,-2.1421525478363037,-1.3331158471158524,-2.525224510823385,6.109858977585592,1.01486074924469,-3.2766969839679163
1708444259.3186255,-2.1421773433685303,-1.3331495535424729,-2.525208059941427,6.109879839211263,1.0148156881332397,-3.276627842579977
1708444259.3206487,-2.142165184020996,-1.3330973249724885,-2.525187079106466,6.10992597320632,1.0148814916610718,-3.276644770299093
1708444259.3226368,-2.1421561241149902,-1.3330639612725754,-2.525199000035421,6.109905111580648,1.014914870262146,-3.2765684763537806
1708444259.3246303,-2.142174005508423,-1.3331210923245926,-2.525175158177511,6.109933364182272,1.0148577690124512,-3.2765348593341272
1708444259.3266237,-2.142174005508423,-1.3331211370280762,-2.5252578894244593,6.109863388329305,1.0148321390151978,-3.276503864918844
1708444259.328635,-2.142160654067993,-1.3330810827067872,-2.525219980870382,6.109941231995382,1.0148247480392456,-3.2764347235309046
1708444259.3306227,-2.1421782970428467,-1.3331125688603898,-2.525187079106466,6.10988866069869,1.0148680210113525,-3.276461664830343
1708444259.332636,-2.142136812210083,-1.3330930483392258,-2.52521258989443,6.109870898514547,1.0148488283157349,-3.2763810793506067
1708444259.3346272,-2.1421873569488525,-1.3330801588347931,-2.5252366701709192,6.1098917601402185,1.0149149894714355,-3.2763357798205774
1708444259.336643,-2.1421163082122803,-1.3330606383136292,-2.5252018610583704,6.1098753092582605,1.0148532390594482,-3.276320997868673
1708444259.338638,-2.1421773433685303,-1.3331168305924912,-2.5251780192004603,6.1098917601402185,1.0148488283157349,-3.2762518564807337
1708444259.3406405,-2.1421828269958496,-1.333121122126915,-2.525199000035421,6.109899031906881,1.0148532390594482,-3.2762296835528772
1708444259.342622,-2.14213228225708,-1.3331168454936524,-2.525224510823385,6.109942424088278,1.0148741006851196,-3.27616793314089
1708444259.34465,-2.142186403274536,-1.333112583761551,-2.5252397696124476,6.1099456427390955,1.0149357318878174,-3.2761338392840784
1708444259.3466513,-2.14219069480896,-1.3331253689578553,-2.525241200123922,6.109849917679586,1.01486074924469,-3.2760513464557093
1708444259.3486488,-2.142190933227539,-1.3330844652703782,-2.5252488295184534,6.109933364182272,1.0148905515670776,-3.2759838739978235
1708444259.3506234,-2.1421525478363037,-1.33313304305587,-2.525219980870382,6.109921443253317,1.0148905515670776,-3.276015106831686
1708444259.3526301,-2.14219069480896,-1.3330606681159516,-2.5252276102649134,6.109920012741842,1.0148695707321167,-3.2758923212634485
1708444259.3546474,-2.142186403274536,-1.3330844354680558,-2.525199000035421,6.109900581627645,1.0149149894714355,-3.275827948247091
1708444259.3566616,-2.14216947555542,-1.333112583761551,-2.5252063910113733,6.109909522324362,1.0148651599884033,-3.2757650057422083
1708444259.3586357,-2.142202138900757,-1.333136649136879,-2.5251734892474573,6.109933364182272,1.0148634910583496,-3.2757001558886927
1708444259.3606422,-2.1421658992767334,-1.3330725294402619,-2.5252397696124476,6.109882700234213,1.0149013996124268,-3.275567118321554
1708444259.3626251,-2.142181873321533,-1.3331538897803803,-2.525224510823385,6.109928953438558,1.0148308277130127,-3.2755280176745813
1708444259.3646333,-2.1421773433685303,-1.3330725294402619,-2.525215450917379,6.109928953438558,1.0149089097976685,-3.2754276434527796
1708444259.3666215,-2.142174005508423,-1.3331006628325959,-2.5252352396594446,6.109896170883932,1.0149672031402588,-3.275343720112936
1708444259.3686373,-2.1422181129455566,-1.3331168305924912,-2.5252321402179163,6.109847056656637,1.0149133205413818,-3.2752283255206507
1708444259.370645,-2.142174005508423,-1.3330552887967606,-2.5252276102649134,6.109863388329305,1.0149537324905396,-3.275156561528341
1708444259.3727536,-2.1422066688537598,-1.3331125688603898,-2.5252276102649134,6.109905111580648,1.014991044998169,-3.275036875401632
1708444259.3747041,-2.142125368118286,-1.333133028154709,-2.5251944700824183,6.109928953438558,1.014990210533142,-3.274874989186422
1708444259.3766513,-2.142197847366333,-1.333121122126915,-2.5252488295184534,6.109893190651693,1.0149685144424438,-3.274756971989767
1708444259.3786213,-2.142197847366333,-1.3331244003823777,-2.5252018610583704,6.109896170883932,1.0149731636047363,-3.2745829264270228
1708444259.3806512,-2.1421117782592773,-1.33311681569133,-2.5252276102649134,6.109921443253317,1.0149930715560913,-3.2744649092303675
1708444259.3826394,-2.142136812210083,-1.3330758673003693,-2.5252397696124476,6.109921562462606,1.0150346755981445,-3.274353567753927
1708444259.3846393,-2.1421570777893066,-1.3331373196891327,-2.5252442995654505,6.109872329026022,1.015038013458252,-3.274214569722311
1708444259.3866334,-2.1422269344329834,-1.3330682528069993,-2.5251973311053675,6.109900581627645,1.0150425434112549,-3.2740331331836146
1708444259.3886545,-2.14219069480896,-1.3331372898868104,-2.5252488295184534,6.1098753092582605,1.0150787830352783,-3.273849074040548
1708444259.3906302,-2.1421570777893066,-1.33310820282016,-2.5252185503589075,6.1098753092582605,1.0150244235992432,-3.2736282984363
1708444259.3926377,-2.1421456336975098,-1.3331134778312226,-2.5252607504474085,6.109882700234213,1.0150742530822754,-3.2734442392932337
1708444259.394628,-2.1421525478363037,-1.3331254136613389,-2.5252636114703577,6.109867918282308,1.0151054859161377,-3.2732694784747522
1708444259.3966467,-2.142134189605713,-1.33310920119796,-2.525259081517355,6.109869348793783,1.015109896659851,-3.2730162779437464
1708444259.398637,-2.1421570777893066,-1.3331528317979355,-2.5252018610583704,6.109809624939718,1.015129804611206,-3.2728706041919153
1708444259.4006832,-2.142148017883301,-1.3331373196891327,-2.525275532399313,6.10991262176589,1.0151208639144897,-3.2725964228259485
1708444259.4026418,-2.142136812210083,-1.3331538003734131,-2.5252800623523157,6.1098753092582605,1.015128254890442,-3.2723973433123987
1708444259.404636,-2.1421616077423096,-1.3330639612725754,-2.525250021611349,6.109863388329305,1.0151747465133667,-3.2721219698535364
1708444259.4066298,-2.1422111988067627,-1.3331168454936524,-2.525325123463766,6.109867918282308,1.015194058418274,-3.2718892733203333
1708444259.4086401,-2.1421570777893066,-1.3331125688603898,-2.5252471605883997,6.1099140522773645,1.0151821374893188,-3.271647278462545
1708444259.4106624,-2.142174005508423,-1.3331006330302735,-2.5253372828113,6.109918582230367,1.0152095556259155,-3.2713218371020716
1708444259.4126446,-2.1421704292297363,-1.3331373047879715,-2.5253446737872522,6.109867918282308,1.0152394771575928,-3.2710612455951136
1708444259.414626,-2.142136573791504,-1.3331092160991211,-2.5253520647632044,6.1098530171211145,1.0151793956756592,-3.270749632512228
1708444259.4166327,-2.1421217918395996,-1.333169938330986,-2.5253925959216517,6.109838115959921,1.015237808227539,-3.270471159611837
1708444259.4186258,-2.1421263217926025,-1.3331415516189118,-2.5253265539752405,6.109918582230367,1.0152618885040283,-3.2701383272754114
1708444259.4206262,-2.1421046257019043,-1.333170012836792,-2.5253880659686487,6.109869348793783,1.0153162479400635,-3.2698386351214808
1708444259.42263,-2.1421024799346924,-1.3331453067115326,-2.525400225316183,6.109855997353353,1.0152859687805176,-3.269503180180685
1708444259.4246428,-2.142106771469116,-1.3331614446691056,-2.525424067174093,6.109893190651693,1.0153472423553467,-3.2691081205951136
1708444259.4266295,-2.14206862449646,-1.333121122126915,-2.525440518056051,6.109897720604696,1.0153597593307495,-3.2687693277942103
1708444259.4286385,-2.1420323848724365,-1.3330877733281632,-2.525386635457174,6.1098530171211145,1.0153553485870361,-3.2683406511889856
1708444259.4306324,-2.1420528888702393,-1.3331459027579804,-2.5254269281970423,6.109794485359945,1.0153566598892212,-3.2679155508624476
1708444259.4326198,-2.14202880859375,-1.3331006628325959,-2.5254557768451136,6.109819876938619,1.0153731107711792,-3.267470184956686
1708444259.4346316,-2.142066240310669,-1.333182008271553,-2.5254433790790003,6.109848487168112,1.0154061317443848,-3.267068688069479
1708444259.4366388,-2.142033338546753,-1.3330715608647843,-2.5254557768451136,6.109803426056661,1.0154722929000854,-3.2666900793658655
1708444259.4386523,-2.1420469284057617,-1.3331538301757355,-2.5255125204669397,6.109846818238058,1.0154796838760376,-3.26617938676943
1708444259.4406254,-2.1419804096221924,-1.3331243705800553,-2.525491539631979,6.1098365662391565,1.0155085325241089,-3.265822235737936
1708444259.4426453,-2.1419758796691895,-1.3331287664226075,-2.525510851536886,6.109734999924459,1.0154738426208496,-3.2653794924365442
1708444259.4446144,-2.1419801712036133,-1.3331168603948136,-2.5255170504199427,6.109773862152853,1.0155068635940552,-3.2649274508105677
1708444259.44663,-2.1419315338134766,-1.333153874879219,-2.525548521672384,6.109754192620077,1.0155519247055054,-3.264409844075338
1708444259.4486263,-2.141928195953369,-1.3331006330302735,-2.5255139509784144,6.109667289047994,1.015579342842102,-3.2640066782580774
1708444259.4506457,-2.141993761062622,-1.3331082177213212,-2.5255394617663782,6.109671819000997,1.015602946281433,-3.263401810322897
1708444259.4526308,-2.1419119834899902,-1.3330920350602646,-2.5255754629718226,6.109640586167135,1.0155941247940063,-3.262977902089254
1708444259.4546397,-2.141963005065918,-1.3331452769092103,-2.5255919138537806,6.109645116120138,1.0156466960906982,-3.2624085585223597
1708444259.4566338,-2.1419506072998047,-1.3330964160016556,-2.5255828539477747,6.109636175423422,1.015655755996704,-3.261893097554342
1708444259.4586413,-2.1419007778167725,-1.3331330728581925,-2.5255964438067835,6.109613883286276,1.0156751871109009,-3.2613418737994593
1708444259.460654,-2.1419389247894287,-1.3331039112857361,-2.5256295839892786,6.109562742501058,1.0157352685928345,-3.2607291380511683
1708444259.4626346,-2.1418497562408447,-1.3331287664226075,-2.525644604359762,6.1095385430152795,1.015730857849121,-3.2601330916034144
1708444259.4646242,-2.1418633460998535,-1.3331329983523865,-2.525635544453756,6.1095430729682825,1.015730857849121,-3.259554449711935
1708444259.4666474,-2.1418211460113525,-1.333112583761551,-2.5257018248187464,6.109516846924581,1.0157922506332397,-3.258939568196432
1708444259.4686306,-2.1418631076812744,-1.333181918864586,-2.5257001558886927,6.10953317859725,1.0157697200775146,-3.2582834402667444
1708444259.4706364,-2.141785144805908,-1.3331201386502762,-2.5256837050067347,6.109479176789083,1.0158313512802124,-3.2576146761523646
1708444259.4727385,-2.141826868057251,-1.3330810827067872,-2.5256956259356897,6.109491336136617,1.0158106088638306,-3.2570393721209925
1708444259.4746816,-2.141803026199341,-1.3331485849669953,-2.525703016911642,6.1094491360481165,1.0158631801605225,-3.2563114801989954
1708444259.4766357,-2.141777992248535,-1.3331366640380402,-2.525752369557516,6.10939251163558,1.0159035921096802,-3.255712334309713
1708444259.4786453,-2.1417489051818848,-1.3331528466990967,-2.5257206598864954,6.10938190200881,1.0159488916397095,-3.254920784627096
1708444259.4806197,-2.1417508125305176,-1.3331006628325959,-2.525780979787008,6.1093671200569055,1.015926480293274,-3.254267994557516
1708444259.482643,-2.1417508125305176,-1.3331168454936524,-2.5258033911334437,6.1093249199684045,1.0159755945205688,-3.2534430662738245
1708444259.4846244,-2.141730546951294,-1.333112583761551,-2.5257988611804407,6.109256493836202,1.015999674797058,-3.252707306538717
1708444259.4867778,-2.141723394393921,-1.3331168454936524,-2.5258410612689417,6.10928629615859,1.0160237550735474,-3.25200325647463
1708444259.4887135,-2.141686201095581,-1.3331211072257538,-2.525860611592428,6.109228002816,1.0160434246063232,-3.251244131718771
1708444259.490632,-2.1416873931884766,-1.3331657362035294,-2.525888983403341,6.109248864441671,1.0160841941833496,-3.2504809538470667
1708444259.492671,-2.1416172981262207,-1.333161474471428,-2.5258379618274134,6.109205591469564,1.0161501169204712,-3.249688688908712
1708444259.4946218,-2.1415605545043945,-1.333133028154709,-2.5258663336383265,6.10914562919692,1.0161573886871338,-3.248864714299337
1708444259.4966288,-2.1415934562683105,-1.3331082177213212,-2.5259116331683558,6.109154689102926,1.016208529472351,-3.248005215321676
1708444259.498628,-2.141578435897827,-1.3331409257701416,-2.5259116331683558,6.109142768173971,1.0162460803985596,-3.24719483057131
1708444259.5006392,-2.1415750980377197,-1.3330802035382767,-2.525944534932272,6.109078633576193,1.016223669052124,-3.246261183415548
1708444259.5026221,-2.1415467262268066,-1.3331452769092103,-2.525968376790182,6.109099614411154,1.0162479877471924,-3.245436493550436
1708444259.5046332,-2.141476631164551,-1.3330920350602646,-2.525935475026266,6.109059083252706,1.016309380531311,-3.24452788034548
1708444259.5066311,-2.141449451446533,-1.3331091862967988,-2.5259998480426233,6.109018790512838,1.0163830518722534,-3.243650023137228
1708444259.5086234,-2.1414220333099365,-1.3331580770066758,-2.5259953180896204,6.109011161118307,1.016318440437317,-3.2428153196917933
1708444259.5106363,-2.141435384750366,-1.3331699979356308,-2.5260615984546106,6.108924615174093,1.016389012336731,-3.2418697516070765
1708444259.5126476,-2.141414165496826,-1.3331409257701416,-2.526076618825094,6.108963477402487,1.0163878202438354,-3.2409921328174036
1708444259.5146418,-2.1413822174072266,-1.333198995595314,-2.526072088872091,6.10887502410964,1.0164625644683838,-3.24001127878298
1708444259.5166197,-2.1413629055023193,-1.3331081730178376,-2.5260959307300013,6.1088634608085535,1.0164945125579834,-3.2390902678119105
1708444259.5186434,-2.141331195831299,-1.3331941676190873,-2.5260584990130823,6.108844029694357,1.0164809226989746,-3.238136593495504
1708444259.5206172,-2.1413073539733887,-1.3331538152745743,-2.526100460683004,6.108810889511862,1.0165002346038818,-3.2371838728534144
1708444259.5226336,-2.141258716583252,-1.3330920350602646,-2.5261107126819056,6.108763086586752,1.0165201425552368,-3.236197296773092
1708444259.5246606,-2.1412384510040283,-1.3331049245646973,-2.5261226336108606,6.108698951988973,1.016610026359558,-3.2351935545550745
1708444259.5266256,-2.1412384510040283,-1.333141566520073,-2.526135031376974,6.108704793244161,1.0166219472885132,-3.2341252009021204
1708444259.528657,-2.1412155628204346,-1.3330887419036408,-2.526196304951803,6.108647811203756,1.016625165939331,-3.233173672352926
1708444259.5306125,-2.1411454677581787,-1.3331366640380402,-2.526158873234884,6.108550655632772,1.0166611671447754,-3.23208457628359
1708444259.5326362,-2.1412129402160645,-1.3331647676280518,-2.5261917749988,6.108549225121298,1.016710638999939,-3.231058899556295
1708444259.5346205,-2.1411359310150146,-1.3331485849669953,-2.526208225880758,6.108492600708761,1.016753911972046,-3.2300058046924036
1708444259.5366247,-2.141115665435791,-1.3331287664226075,-2.5261991659747522,6.108391034394064,1.016797661781311,-3.2289438883410853
1708444259.538627,-2.1410927772521973,-1.3331039559892197,-2.5262399355517786,6.108396994858541,1.0168142318725586,-3.2278006712542933
1708444259.5406566,-2.1410634517669678,-1.3331287664226075,-2.526200834904806,6.1083459732826135,1.0168384313583374,-3.226715151463644
1708444259.54265,-2.1410226821899414,-1.3331457835486908,-2.526242796574728,6.108308660774984,1.0168744325637817,-3.2256460825549524
1708444259.5446243,-2.1410067081451416,-1.3331244152835389,-2.526242796574728,6.108215915947714,1.0169434547424316,-3.2245355288134974
1708444259.5466547,-2.1409566402435303,-1.3330877882293244,-2.5263329187976282,6.108141171723165,1.0169254541397095,-3.223327938710348
1708444259.5486429,-2.140974760055542,-1.3331287664226075,-2.526292387639181,6.10811876037673,1.0169570446014404,-3.2222538630114954
1708444259.550643,-2.140920400619507,-1.333112583761551,-2.5263448397265833,6.108045565872946,1.016952395439148,-3.2210431734668177
1708444259.552659,-2.1409213542938232,-1.333148570065834,-2.5263403097735804,6.107959973603048,1.0169888734817505,-3.2199094931231897
1708444259.5546477,-2.1408772468566895,-1.3331211072257538,-2.5263598600970667,6.1079304096992395,1.0170173645019531,-3.218663994465963
1708444259.5566518,-2.140836477279663,-1.333133028154709,-2.526379410420553,6.107866036682882,1.0170488357543945,-3.217426840459005
1708444259.5586295,-2.1407809257507324,-1.3331168454936524,-2.526383940373556,6.10779749134139,1.0170774459838867,-3.2162845770465296
1708444259.5606248,-2.1408023834228516,-1.333141566520073,-2.5263658205615442,6.107713925629415,1.0171436071395874,-3.215008799229757
1708444259.5626588,-2.1407570838928223,-1.333149568443634,-2.5264106432544153,6.107682215958395,1.0171869993209839,-3.21377140680422
1708444259.5646274,-2.1406936645507812,-1.3331373047879715,-2.5264604727374476,6.107565867691793,1.0171526670455933,-3.21248442331423
1708444259.566623,-2.1406402587890625,-1.3331339222243805,-2.5264723936664026,6.107550608902731,1.0172232389450073,-3.2113199869738978
1708444259.5686777,-2.140625476837158,-1.3331091862967988,-2.526496235524313,6.107419001847067,1.0172425508499146,-3.210074249898092
1708444259.570625,-2.140538454055786,-1.3331125688603898,-2.526482645665304,6.107359397202291,1.0172336101531982,-3.2087863127337855
1708444259.5727034,-2.140573263168335,-1.3331253987601777,-2.5265398661242884,6.1072668907936,1.017208218574524,-3.207489315663473
1708444259.5746913,-2.1405131816864014,-1.333055318599083,-2.5265563170062464,6.1071828482444666,1.0172849893569946,-3.206210199986593
1708444259.5766277,-2.140493869781494,-1.3330810827067872,-2.5265262762652796,6.107115852623739,1.0173420906066895,-3.2049577871905726
1708444259.578677,-2.1404337882995605,-1.3331049245646973,-2.526599947606222,6.107048618584432,1.017386794090271,-3.2035444418536585
1708444259.580648,-2.14043927192688,-1.333084450369217,-2.526628319417135,6.10699890831069,1.0174487829208374,-3.2023163477527063
1708444259.5826526,-2.140385150909424,-1.333069161777832,-2.526623789464132,6.10685549953536,1.0174262523651123,-3.2009082476245325
1708444259.5846717,-2.140305757522583,-1.333056316976883,-2.526649300252096,6.106800544052877,1.017466425895691,-3.199515167866842
1708444259.5866382,-2.1402580738067627,-1.333069161777832,-2.5266311804400843,6.106718408852377,1.0175071954727173,-3.1981282869922083
1708444259.5886402,-2.1402502059936523,-1.3330331605723877,-2.5266717115985315,6.106594192772665,1.0175312757492065,-3.196719233189718
1708444259.590646,-2.1402015686035156,-1.333041713838913,-2.5266671816455286,6.106515037804403,1.017600417137146,-3.195277277623312
1708444259.592628,-2.140129804611206,-1.3330331605723877,-2.526682202016012,6.106398570328512,1.0175987482070923,-3.1938939730273646
1708444259.5946245,-2.140105962753296,-1.3330460053733368,-2.526745382939474,6.106287824898519,1.0176020860671997,-3.1924341360675257
1708444259.5966327,-2.1399927139282227,-1.3330264401486893,-2.526736323033468,6.106166946678915,1.0176665782928467,-3.190929714833395
1708444259.5986438,-2.140007257461548,-1.3330308061889191,-2.526706043873922,6.106103765755453,1.0177074670791626,-3.1895163694964808
1708444259.600633,-2.1399471759796143,-1.3329937171987076,-2.5267933050738733,6.105967628746786,1.017723798751831,-3.1879802385913294
1708444259.6026382,-2.1398544311523438,-1.332924635415413,-2.5268080870257776,6.105864751129904,1.0177717208862305,-3.186554495488302
1708444259.6046374,-2.1397862434387207,-1.3329821986011048,-2.526827875767843,6.105806338578024,1.0178033113479614,-3.1850486437426966
1708444259.6066616,-2.1397995948791504,-1.3328714829734345,-2.526827875767843,6.105644809990682,1.017786979675293,-3.1835160891162317
1708444259.6086326,-2.139678478240967,-1.332885355954506,-2.526827875767843,6.105508792191305,1.017798900604248,-3.182002131138937
1708444259.6106277,-2.1395959854125977,-1.3328809899142762,-2.5268517176257532,6.105332481652059,1.017901062965393,-3.1804216543780726
1708444259.6126232,-2.1395537853240967,-1.3329470318606873,-2.5268967787372034,6.105245816498556,1.0179203748703003,-3.178880278264181
1708444259.6146338,-2.1395206451416016,-1.3328939092210312,-2.5268951098071497,6.105133878975668,1.0179141759872437,-3.1772928873645228
1708444259.6166346,-2.139434576034546,-1.3328257513097306,-2.526890579854147,6.104954230576315,1.0179803371429443,-3.175736729298727
1708444259.6186228,-2.139383316040039,-1.3328129065087815,-2.526931111012594,6.104855406075277,1.0179669857025146,-3.174251381550924
1708444259.6209226,-2.1392815113067627,-1.332858146434166,-2.5269597212420862,6.104719626694479,1.018003225326538,-3.172657314931051
1708444259.6226294,-2.139289140701294,-1.3328624230674286,-2.5269551912890833,6.104616272240438,1.018093466758728,-3.171070162449972
1708444259.6246514,-2.1391985416412354,-1.332821474676468,-2.5270257631884974,6.104431021004476,1.0180829763412476,-3.1694396177874964
1708444259.626621,-2.1391239166259766,-1.3328145009330292,-2.526961151753561,6.104285943299093,1.0181654691696167,-3.167835299168722
1708444259.6286144,-2.1390058994293213,-1.3327811074307938,-2.527039353047506,6.104144203453817,1.0182090997695923,-3.1662545839892786
1708444259.6306257,-2.138984203338623,-1.332790659075119,-2.527072254811422,6.104047047882833,1.018254041671753,-3.164652649556295
1708444259.6326506,-2.1389048099517822,-1.3327864718488236,-2.5270751158343714,6.103910910874166,1.0182483196258545,-3.163074318562643
1708444259.6346388,-2.1388444900512695,-1.3327216666987916,-2.5271366278277796,6.103750932007589,1.018358826637268,-3.1614089647876185
1708444259.636657,-2.1388509273529053,-1.3327103418162842,-2.5271769205676478,6.10354624965743,1.0183366537094116,-3.1597517172442835
1708444259.638634,-2.1387016773223877,-1.3326898676208039,-2.527201239262716,6.103353607445516,1.0183186531066895,-3.158041540776388
1708444259.6406481,-2.138620138168335,-1.3326656979373475,-2.5271831194507044,6.103185879975118,1.0183970928192139,-3.1562863031970423
1708444259.6426315,-2.1385531425476074,-1.3326908659986039,-2.5272372404681605,6.10307668426589,1.018415093421936,-3.1544440428363245
1708444259.6446207,-2.138488531112671,-1.3325889718583603,-2.5272236506091517,6.1029019234474084,1.01848566532135,-3.15269905725588
1708444259.6466434,-2.138408899307251,-1.3326266568950196,-2.52726394334902,6.1027341959770105,1.0185545682907104,-3.150978390370504
1708444259.6486266,-2.1383306980133057,-1.3325856041959305,-2.527254883443014,6.102517592697897,1.0185458660125732,-3.1491339842425745
1708444259.6506476,-2.1381924152374268,-1.3325615239194413,-2.5273121039019983,6.102353203087606,1.018622636795044,-3.1474443117724817
1708444259.6526334,-2.138137102127075,-1.332623378639557,-2.5273268858539026,6.102178084641256,1.0186090469360352,-3.1456597487079065
1708444259.654625,-2.1380531787872314,-1.3326147359660645,-2.527376715336935,6.10195409038619,1.0186809301376343,-3.1439221541034144
1708444259.6566255,-2.1379950046539307,-1.3325344187072297,-2.527350966130392,6.101779210358419,1.018705129623413,-3.1421435515033167
1708444259.6586258,-2.137927770614624,-1.332567737703659,-2.5274668375598353,6.101604330330648,1.01876962184906,-3.1403196493731897
1708444259.660637,-2.1378347873687744,-1.3325277727893372,-2.5274322668658655,6.101409899979391,1.0188101530075073,-3.1385257879840296
1708444259.6626246,-2.1377272605895996,-1.332486407165863,-2.5274606386767786,6.101215827256002,1.0188387632369995,-3.136737648640768
1708444259.6646178,-2.137594699859619,-1.3324960482171555,-2.5274844805346888,6.100982534676351,1.0188686847686768,-3.1349273363696497
1708444259.6666145,-2.137585163116455,-1.3324582886746903,-2.527421538029806,6.100758063584127,1.0189229249954224,-3.1330626646624964
1708444259.6686525,-2.137449026107788,-1.33246365309272,-2.5275071302997034,6.1005756733711145,1.0189707279205322,-3.1312502066241663
1708444259.67062,-2.1373493671417236,-1.3324354451945801,-2.5275610128985804,6.100384580879965,1.0190010070800781,-3.129298512135641
1708444259.6726677,-2.1372361183166504,-1.3323788803866883,-2.5275428930865687,6.100143778115072,1.0190702676773071,-3.1274879614459437
1708444259.6747103,-2.13712477684021,-1.3323461574367066,-2.527553383504049,6.100017893105306,1.019085168838501,-3.1255314985858362
1708444259.6766434,-2.1370363235473633,-1.3323590767434617,-2.527628485356466,6.0997328636939905,1.0191500186920166,-3.12372857729067
1708444259.6786275,-2.1369073390960693,-1.3323634427836915,-2.5276315847979944,6.099601018219747,1.0192145109176636,-3.1217718760119837
1708444259.6806192,-2.136841297149658,-1.332302914266922,-2.5276134649859827,6.099412905960836,1.019267201423645,-3.119866196309225
1708444259.682649,-2.1367175579071045,-1.3323200357011338,-2.527695957814352,6.099181282311239,1.01932692527771,-3.117875401173727
1708444259.6846185,-2.1366055011749268,-1.3323123914054413,-2.527703348790304,6.098954069405355,1.0193513631820679,-3.115997378026144
1708444259.6866202,-2.1364853382110596,-1.3323005151799698,-2.527710739766256,6.098765718727865,1.019394874572754,-3.1140762011157435
1708444259.6886141,-2.1364352703094482,-1.3322281253388901,-2.5277350584613245,6.098528015404501,1.0194711685180664,-3.112056318913595
1708444259.690633,-2.136306047439575,-1.3322601926377793,-2.5277724901782435,6.098279940872946,1.0195406675338745,-3.1101701895343226
1708444259.6926289,-2.1361613273620605,-1.3321506393006821,-2.5277753512011927,6.097982275276937,1.0195435285568237,-3.108168903981344
1708444259.6946392,-2.1361684799194336,-1.3321927052787323,-2.5278518835650843,6.097805845528402,1.019615650177002,-3.1061816851245325
1708444259.6966197,-2.1359715461730957,-1.3321927052787323,-2.5278640429126185,6.0975427506263635,1.0196995735168457,-3.104279104863302
1708444259.6986423,-2.135859251022339,-1.332156093125679,-2.52789551416506,6.097311126976766,1.0197241306304932,-3.102276865636007
1708444259.700642,-2.135762929916382,-1.332120345239975,-2.527940336857931,6.097051131516256,1.0197991132736206,-3.100337568913595
1708444259.70263,-2.1356594562530518,-1.3321126264384766,-2.527947727833883,6.096792447357931,1.0198519229888916,-3.098231379185812
1708444259.7046237,-2.1355483531951904,-1.332056151037552,-2.5280123392688196,6.096577155381002,1.01987886428833,-3.0962405840503138
1708444259.7067513,-2.1354475021362305,-1.3320233833840867,-2.528024498616354,6.0963706848915,1.019952416419983,-3.094147268925802
1708444259.7086282,-2.1353814601898193,-1.332008646135666,-2.52804404893984,6.096104848175802,1.0199916362762451,-3.0920704046832483
1708444259.7106268,-2.135237216949463,-1.3320851188949128,-2.5280633608447474,6.095823752671041,1.020081877708435,-3.0899465719806116
1708444259.7126443,-2.135118246078491,-1.3319963079741974,-2.5281370321856897,6.095539557724752,1.0200995206832886,-3.0879557768451136
1708444259.7146213,-2.1349689960479736,-1.3320213866284867,-2.528163735066549,6.09529327133254,1.0201690196990967,-3.085820023213522
1708444259.7166193,-2.1349027156829834,-1.3319886487773438,-2.5281880537616175,6.095053899079122,1.0202245712280273,-3.083693567906515
1708444259.7186246,-2.1348073482513428,-1.331948311333992,-2.5282073656665247,6.094811904221334,1.0203462839126587,-3.0815473238574427
1708444259.720623,-2.1345977783203125,-1.3319363457015534,-2.528292957936422,6.09447859504775,1.0204018354415894,-3.079477135335104
1708444259.7226207,-2.1345343589782715,-1.3318760108998795,-2.5282838980304163,6.0942855952079675,1.0204410552978516,-3.077327076588766
1708444259.7246387,-2.1343941688537598,-1.331897334461548,-2.5283153692828577,6.094022381096639,1.0205177068710327,-3.0752528349505823
1708444259.7266273,-2.1342923641204834,-1.3319254231503983,-2.528346840535299,6.093731152802267,1.0205986499786377,-3.073148552571432
1708444259.72862,-2.1341464519500732,-1.331897334461548,-2.5283871332751673,6.0934649584587,1.0206620693206787,-3.0710085074054163
1708444259.7306151,-2.1340417861938477,-1.3318451356938859,-2.528489414845602,6.093140589981832,1.020783543586731,-3.068822209035055
1708444259.7326167,-2.1338558197021484,-1.3318494123271485,-2.528513495122091,6.092869984894552,1.0207610130310059,-3.0666521231280726
1708444259.7346191,-2.133751630783081,-1.3318017286113282,-2.5285356680499476,6.0926024792488,1.0208659172058105,-3.0644505659686487
1708444259.736621,-2.133608102798462,-1.3317657274058838,-2.528583828602926,6.092343795090475,1.020992398262024,-3.062124792729513
1708444259.7386324,-2.1334638595581055,-1.3317528080991288,-2.5286241213427942,6.0920495865638635,1.0210224390029907,-3.0599029699908655
1708444259.7406337,-2.133349895477295,-1.3317135137370606,-2.528618399296896,6.091798054962911,1.0210539102554321,-3.0576422850238245
1708444259.742636,-2.1331982612609863,-1.3316684824279328,-2.528642241154806,6.091490256577291,1.0211877822875977,-3.055420462285177
1708444259.7446191,-2.13311505317688,-1.3316814464381714,-2.5287397543536585,6.091228592186727,1.021235704421997,-3.0531700293170374
1708444259.7466147,-2.1329903602600098,-1.33166919768367,-2.5287712256061,6.09089075306014,1.0213168859481812,-3.0509358088122767
1708444259.7486153,-2.132864236831665,-1.331658200626709,-2.5288971106158655,6.0906561491783044,1.0213664770126343,-3.0486686865436
1708444259.750628,-2.1327102184295654,-1.331588791017868,-2.528858248387472,6.090406644135275,1.0214886665344238,-3.046377960835592
1708444259.7526283,-2.132516622543335,-1.3316102784923096,-2.528914992009298,6.090058553009786,1.021551489830017,-3.0441444555865687
1708444259.7546237,-2.1324281692504883,-1.331566036944725,-2.5289557615863245,6.08981608131484,1.0215948820114136,-3.0419181028949183
1708444259.7566361,-2.132321357727051,-1.3315625947764893,-2.528999153767721,6.089505302696981,1.0217034816741943,-3.0397771040545862
1708444259.758628,-2.132119655609131,-1.3315103215030213,-2.5290470759021204,6.08921371677474,1.021775484085083,-3.037499014531271
1708444259.760621,-2.131988048553467,-1.3314618480256577,-2.5291250387774866,6.0889028189475916,1.0218685865402222,-3.0352209250079554
1708444259.7626169,-2.1318767070770264,-1.3314862710288544,-2.5291476885425013,6.088646638184347,1.0219272375106812,-3.0329604784594935
1708444259.7646115,-2.1317522525787354,-1.331483156686165,-2.5292332808123987,6.088434684067526,1.0220413208007812,-3.030654017125265
1708444259.766628,-2.1316020488739014,-1.3314299893430253,-2.529222551976339,6.088062751084127,1.0221328735351562,-3.0283260981189173
1708444259.7686212,-2.131441354751587,-1.3314144623330613,-2.5292540232287806,6.087720143585958,1.022247314453125,-3.025935713444845
1708444259.7706661,-2.13130521774292,-1.3313616526177903,-2.529369656239645,6.0874647972877405,1.022326946258545,-3.023661200200216
1708444259.7726636,-2.1311326026916504,-1.3313659590533753,-2.5293756167041224,6.087119567185201,1.0223931074142456,-3.0213030020343226
1708444259.774728,-2.1310317516326904,-1.3314120930484314,-2.529419008885519,6.0868685124214075,1.0224727392196655,-3.0190027395831507
1708444259.776654,-2.13088321685791,-1.3312983673862,-2.529464069996969,6.086627590447225,1.0225900411605835,-3.0167093912707728
1708444259.7786193,-2.1307833194732666,-1.3312907975963135,-2.529522482548849,6.086319792061605,1.0226408243179321,-3.014470640813009
1708444259.780622,-2.130648136138916,-1.33130797863517,-2.529551092778341,6.0859867213066,1.0227329730987549,-3.012172047291891
1708444259.7826202,-2.1304931640625,-1.3313080233386536,-2.52962309518923,6.085802662163534,1.0228303670883179,-3.0098610560046595
1708444259.7846286,-2.130347728729248,-1.3312388521483918,-2.529654328023092,6.085458981781759,1.0229054689407349,-3.007585589085714
1708444259.7866135,-2.130183219909668,-1.3312603396228333,-2.529738251362936,6.085204708367147,1.0229970216751099,-3.005178991948263
1708444259.7886345,-2.1300482749938965,-1.3311994981816788,-2.529800001774923,6.084946024208822,1.0231235027313232,-3.002841059361593
1708444259.7906497,-2.1299335956573486,-1.3311710369637986,-2.5298855940448206,6.084621655731954,1.0232123136520386,-3.0004048983203333
1708444259.7926254,-2.1298177242279053,-1.3312208217433472,-2.5299034754382532,6.084328877716818,1.0232784748077393,-2.998040739689962
1708444259.794634,-2.1296420097351074,-1.3311722886613389,-2.5299304167376917,6.084006058960714,1.0233700275421143,-2.9955864588366907
1708444259.7966156,-2.129530668258667,-1.3311723035625,-2.5299950281726282,6.083765136986532,1.0234678983688354,-2.9932356516467493
1708444259.7986197,-2.1294491291046143,-1.3310831052115937,-2.5300472418414515,6.083560454636373,1.0235804319381714,-2.9908481279956263
1708444259.800619,-2.129274606704712,-1.3310953092626114,-2.530090872441427,6.083219516068258,1.0236481428146362,-2.9885695616351526
1708444259.8026218,-2.1291472911834717,-1.3310841035893937,-2.5301390329944056,6.082907187729635,1.0237352848052979,-2.986232105885641
1708444259.804635,-2.1289613246917725,-1.331043319111206,-2.530232016240255,6.082669245987692,1.0238360166549683,-2.9839301745044153
1708444259.8066616,-2.12884783744812,-1.3310925674489518,-2.5302541891681116,6.082368600159445,1.0239157676696777,-2.9815271536456507
1708444259.8086197,-2.128786563873291,-1.3310364049724122,-2.530332390462057,6.082163798599996,1.0240191221237183,-2.9793198744403284
1708444259.810618,-2.1285834312438965,-1.3310202074101944,-2.5303593317614954,6.081818330078878,1.0241152048110962,-2.977004591618673
1708444259.8126214,-2.128464460372925,-1.3310288500836869,-2.530377213154928,6.081581103592672,1.0241997241973877,-2.9747136274920862
1708444259.8146183,-2.1283769607543945,-1.3309685301831742,-2.5304673353778284,6.08129237869338,1.0243451595306396,-2.9723086992846888
1708444259.816613,-2.128237724304199,-1.3310132634690781,-2.530531946812765,6.0810128329093835,1.0244371891021729,-2.970055882130758
1708444259.8186285,-2.1281487941741943,-1.3309851002744217,-2.5305617491351526,6.080806481629171,1.024546504020691,-2.967666212712423
1708444259.8206172,-2.127979040145874,-1.3309527349523087,-2.530656162892477,6.080555784493246,1.0246461629867554,-2.9653785864459437
1708444259.8226237,-2.1278722286224365,-1.3309167188457032,-2.5306878725634974,6.080272900849142,1.0247468948364258,-2.9629696051227015
1708444259.8246434,-2.1276979446411133,-1.3309005510858078,-2.530747715626852,6.079996812134542,1.0248955488204956,-2.9605777899371546
1708444259.8266337,-2.12762713432312,-1.3308680963567276,-2.530783716832296,6.079754340439596,1.0249584913253784,-2.9582179228412073
1708444259.8286488,-2.127488613128662,-1.3308843684247513,-2.530855719243185,6.079524266510763,1.0250458717346191,-2.955883804951803
1708444259.8306253,-2.1273367404937744,-1.3308687967113038,-2.5308826605426233,6.079251992493429,1.0251719951629639,-2.953564469014303
1708444259.8326476,-2.127203941345215,-1.3308937561563035,-2.530963722859518,6.07903681972579,1.0252307653427124,-2.9512715975390833
1708444259.8346293,-2.127080202102661,-1.3308082830956955,-2.5310145060168665,6.078876960068502,1.025334358215332,-2.948918167744772
1708444259.836659,-2.126936674118042,-1.3308495742133637,-2.531046215687887,6.078546631127157,1.0254274606704712,-2.9467292467700403
1708444259.8386254,-2.1268715858459473,-1.3308254045299073,-2.531107489262716,6.0783119080360315,1.0256060361862183,-2.9444549719439905
1708444259.8406389,-2.1267127990722656,-1.3307921302369614,-2.5311840216266077,6.078035223274984,1.025644063949585,-2.9421003500567835
1708444259.8426242,-2.1265790462493896,-1.3308825653842469,-2.5312021414386194,6.077863323479452,1.025731086730957,-2.9397533575641077
1708444259.8446453,-2.1264891624450684,-1.3308178347400208,-2.531290594731466,6.077607738762655,1.0258933305740356,-2.9373353163348597
1708444259.846615,-2.1263110637664795,-1.3307569783977051,-2.5313552061664026,6.077340352326193,1.0259398221969604,-2.934962336217062
1708444259.8486118,-2.1261751651763916,-1.330752746467926,-2.531410519276754,6.077113139420309,1.0260902643203735,-2.9324966112719935
1708444259.850619,-2.1260526180267334,-1.3307007116130372,-2.5314210096942347,6.076869475632467,1.026218056678772,-2.93015963235964
1708444259.8526242,-2.126000165939331,-1.330709309583046,-2.5314720312701624,6.07661651352004,1.0262722969055176,-2.9277642408954065
1708444259.8546236,-2.125877857208252,-1.3306965392879029,-2.531590525303976,6.076422440796652,1.0263278484344482,-2.9255064169513147
1708444259.8566275,-2.125741481781006,-1.3306846183589478,-2.5316384474383753,6.076217758446493,1.026444673538208,-2.923044506703512
1708444259.8586357,-2.125617027282715,-1.3307016652873536,-2.5317238012896937,6.0759140131767175,1.026599645614624,-2.920751158391134
1708444259.860639,-2.125476360321045,-1.330680863266327,-2.5318079630481165,6.075766193657675,1.0266778469085693,-2.918483082448141
1708444259.8626187,-2.125396966934204,-1.330706001525261,-2.531834904347555,6.075521099358358,1.0267410278320312,-2.9161680380450647
1708444259.8646417,-2.125293493270874,-1.3307232719710846,-2.5319324175464075,6.075307476311483,1.0268659591674805,-2.9139493147479456
1708444259.866644,-2.125206470489502,-1.3306980294040223,-2.531997028981344,6.075129377632894,1.0269947052001953,-2.911668364201681
1708444259.86863,-2.125065803527832,-1.3306742918542405,-2.5320406595813196,6.074920046120443,1.0271645784378052,-2.909280840550558
1708444259.8706214,-2.124925136566162,-1.3306014400771637,-2.532055441533224,6.074758636742391,1.0272022485733032,-2.907027784978048
1708444259.8726604,-2.1248388290405273,-1.3306577515653153,-2.5320761839496058,6.074625599175253,1.0273032188415527,-2.9045849482165735
1708444259.8747423,-2.1247265338897705,-1.3305971783450623,-2.532175366078512,6.07437144496993,1.0274441242218018,-2.902264181767599
1708444259.8766775,-2.1246302127838135,-1.3307118874839325,-2.5322352091418665,6.074177014618673,1.0275481939315796,-2.8998778502093714
1708444259.8786318,-2.1245346069335938,-1.3305606555989762,-2.5322533289538782,6.073903667717733,1.0276397466659546,-2.8974652926074427
1708444259.8806305,-2.124453067779541,-1.3306299310973664,-2.5323718229876917,6.0737377283866785,1.027793049812317,-2.8951099554644983
1708444259.8826575,-2.124328136444092,-1.3305606705001374,-2.5323732534991663,6.073513614922323,1.0278726816177368,-2.892721716557638
1708444259.8846154,-2.1242079734802246,-1.3306058061173935,-2.5324557463275355,6.0733327744300745,1.027988314628601,-2.8904040495501917
1708444259.8866158,-2.1240992546081543,-1.3305700433305283,-2.5324693361865442,6.073135244637289,1.0280753374099731,-2.8880983034717005
1708444259.8886135,-2.1240241527557373,-1.3305573028377076,-2.5325923601733606,6.072936403542318,1.0282211303710938,-2.885793987904684
1708444259.8906457,-2.123978614807129,-1.3305407625487824,-2.5326598326312464,6.072773563652792,1.0282963514328003,-2.883547608052389
1708444259.8926287,-2.123849391937256,-1.3305579137853165,-2.5326536337481897,6.072589504509725,1.0284751653671265,-2.8812788168536585
1708444259.8946307,-2.123713493347168,-1.330549256210663,-2.5327511469470423,6.072441446572103,1.0285128355026245,-2.87899357477297
1708444259.8966181,-2.1236836910247803,-1.3305700284293671,-2.532818619404928,6.0722964880760095,1.0286422967910767,-2.8766217867480677
1708444259.898624,-2.1235973834991455,-1.3305615198663254,-2.5328951517688196,6.0720993159110925,1.0287383794784546,-2.874180618916647
1708444259.9006305,-2.1234636306762695,-1.330598161821701,-2.5329552332507532,6.071898925095358,1.0288540124893188,-2.8718839327441614
1708444259.902631,-2.123359441757202,-1.330537275677063,-2.5329790751086634,6.071818220406332,1.0289537906646729,-2.8695157209979456
1708444259.9046283,-2.1232709884643555,-1.3304769557765503,-2.5330587069140833,6.071653830796041,1.0290822982788086,-2.86717135110964
1708444259.906631,-2.123182773590088,-1.3305750650218506,-2.5331247488604944,6.071453559189596,1.0291697978973389,-2.8648231665240687
1708444259.908632,-2.123079299926758,-1.33051389575515,-2.533137861882345,6.071359383850851,1.0292781591415405,-2.8624663988696497
1708444259.9106271,-2.12302827835083,-1.3305016619018097,-2.5332568327533167,6.071187722473898,1.0293701887130737,-2.860129181538717
1708444259.912625,-2.1229374408721924,-1.3305352193168183,-2.533316437398092,6.0710604069526575,1.0294780731201172,-2.857755724583761
1708444259.9146168,-2.1228604316711426,-1.3305588227561493,-2.5333598295794886,6.070872294693746,1.0295943021774292,-2.8555105368243616
1708444259.9166207,-2.122771978378296,-1.3305144918015976,-2.5333734194384974,6.070757019310751,1.0296741724014282,-2.853267256413595
1708444259.9186246,-2.122696876525879,-1.3304863435081025,-2.5334635416613978,6.070547807007589,1.029819369316101,-2.85093862215151
1708444259.9206452,-2.1225950717926025,-1.3305587482503434,-2.5335281530963343,6.0704699633415125,1.0298992395401,-2.848774496709005
1708444259.922642,-2.1225154399871826,-1.3304940474084397,-2.533553425465719,6.070342767029562,1.029995322227478,-2.846475426350729
1708444259.9246264,-2.1224405765533447,-1.330542580490448,-2.5336225668536585,6.0701743243034265,1.0301196575164795,-2.844224993382589
1708444259.9266274,-2.122349739074707,-1.330465928917267,-2.533665959035055,6.070063578873434,1.0302321910858154,-2.8418267408954065
1708444259.928647,-2.122310161590576,-1.3304622930339356,-2.5337184111224573,6.069952714234152,1.0303361415863037,-2.8395898977862757
1708444259.9306242,-2.122163772583008,-1.3305035096457978,-2.533762041722433,6.0697913048561,1.0304402112960815,-2.837198797856466
1708444259.9326332,-2.1221206188201904,-1.33049829423938,-2.5338760058032435,6.0696719763572595,1.0305484533309937,-2.834958855305807
1708444259.9346244,-2.122086524963379,-1.3304778200438996,-2.5339236895190638,6.069556581764974,1.030664324760437,-2.8325849215136927
1708444259.936625,-2.1219892501831055,-1.3304821413806458,-2.5339327494250696,6.0694641945655725,1.0307363271713257,-2.8302722612964075
1708444259.938631,-2.121943712234497,-1.3304375124028702,-2.5340588728534144,6.069348919182577,1.0309054851531982,-2.828038040791647
1708444259.9406419,-2.1218621730804443,-1.330441729431488,-2.534118715916769,6.0692293522651575,1.0309569835662842,-2.8257761637317103
1708444259.942625,-2.121798515319824,-1.3304658991149445,-2.5341263453113,6.069138276367941,1.0310695171356201,-2.823566261922018
1708444259.9446294,-2.1217305660247803,-1.3304536652616044,-2.5341983477221888,6.069079863816061,1.0311862230300903,-2.821401898060934
1708444259.9466193,-2.1217076778411865,-1.3304701757482071,-2.5342655817614954,6.06893943527297,1.0312293767929077,-2.8191335836993616
1708444259.9486184,-2.121673583984375,-1.3304906499436875,-2.5342777411090296,6.068879830628195,1.031333088874817,-2.8169005552874964
1708444259.9506266,-2.121600866317749,-1.3304546487382432,-2.5343738237964075,6.068768965988912,1.0314382314682007,-2.8145952860461634
1708444259.9526205,-2.121523857116699,-1.3304658991149445,-2.5344188849078577,6.068726885109701,1.0315663814544678,-2.8123298327075403
1708444259.9546154,-2.121460437774658,-1.3304536503604432,-2.5344725290881556,6.068559634476461,1.031630277633667,-2.8100605646716517
1708444259.9566202,-2.1214046478271484,-1.3304536503604432,-2.534600321446554,6.06854926326827,1.0317469835281372,-2.8078554312335413
1708444259.9586303,-2.121344804763794,-1.3304493737271805,-2.5345357100116175,6.0684101460273645,1.0318714380264282,-2.8056207338916224
1708444259.9606245,-2.1213173866271973,-1.3305267107537766,-2.534654204045431,6.06835030296401,1.031963586807251,-2.8033576647387903
1708444259.9626327,-2.1212446689605713,-1.3304622930339356,-2.5346737543689173,6.068250167160787,1.032030701637268,-2.801129404698507
1708444259.964629,-2.121192693710327,-1.3304744523814698,-2.53477126756777,6.068190443306722,1.0321757793426514,-2.79897910753359
1708444259.9666228,-2.1211485862731934,-1.3304873716882248,-2.534811798726217,6.068085896759786,1.0322518348693848,-2.796743933354513
1708444259.9686294,-2.1211018562316895,-1.3304536503604432,-2.534820620213644,6.068039405136862,1.0322866439819336,-2.7946038881884974
1708444259.9706204,-2.1210451126098633,-1.330506832604744,-2.534931723271505,6.0679887411888025,1.0324238538742065,-2.792515818272726
1708444259.9726377,-2.120964765548706,-1.3304331314614792,-2.5349045435534876,6.067886936455526,1.0325645208358765,-2.7903812567340296
1708444259.9747152,-2.1209611892700195,-1.3304616075805207,-2.534969154988424,6.067860114365377,1.03263258934021,-2.788338009511129
1708444259.9766803,-2.1208479404449463,-1.3304906499436875,-2.5350049177752894,6.067828523903646,1.0326884984970093,-2.7862125078784388
1708444259.978629,-2.1208419799804688,-1.3304734540036698,-2.535085980092184,6.067793834000387,1.0327597856521606,-2.784085814152853
1708444259.9806218,-2.1208295822143555,-1.3304863584092637,-2.5351341406451624,6.067725527077474,1.0328397750854492,-2.7820292154895228
1708444259.9826288,-2.120786428451538,-1.3304820966771622,-2.535201613103048,6.067644941597738,1.0329562425613403,-2.779836956654684
1708444259.9846187,-2.1206843852996826,-1.330486388211586,-2.5352464357959192,6.067613351136007,1.0330861806869507,-2.7777090708362024
1708444259.9866297,-2.1206979751586914,-1.330478848224022,-2.5352781454669397,6.067602741509237,1.0331454277038574,-2.7755492369281214
1708444259.9886222,-2.120657205581665,-1.3304374527982255,-2.535347286854879,6.067569839745321,1.0332456827163696,-2.773449246083395
1708444259.9906263,-2.120556354522705,-1.330523059969284,-2.5353410879718226,6.067517745285787,1.0333223342895508,-2.771345917378561
1708444259.9926295,-2.1205034255981445,-1.3304530543139954,-2.535417381917135,6.067458021431722,1.0334261655807495,-2.769273821507589
1708444259.9946246,-2.120551586151123,-1.330416963701584,-2.5354533831225794,6.067432868271627,1.033510446548462,-2.767154041920797
1708444259.9966264,-2.120466470718384,-1.330527426009514,-2.5354729334460657,6.067402708321371,1.033574104309082,-2.7651570479022425
1708444259.998622,-2.1204540729522705,-1.330511213546135,-2.5355735460864466,6.06739495971755,1.0336787700653076,-2.763160292302267
1708444260.0006223,-2.1204142570495605,-1.3304831248572846,-2.53562575975527,6.067362415581503,1.0337183475494385,-2.761162821446554
1708444260.0026343,-2.1204030513763428,-1.330490620141365,-2.535592857991354,6.0673842308814905,1.0338306427001953,-2.7591312567340296
1708444260.0046291,-2.1203529834747314,-1.330527426009514,-2.5356813112842005,6.067345368653097,1.033902883529663,-2.75708252588381
1708444260.0066276,-2.120310068130493,-1.3304820668748398,-2.535741392766134,6.067258941918173,1.0340031385421753,-2.7551022211657923
1708444260.0086203,-2.120345115661621,-1.3304788333228608,-2.535741392766134,6.067245828896322,1.0340633392333984,-2.7530842463122767
1708444260.0106401,-2.120309829711914,-1.3304950308850785,-2.5358105341540735,6.06728874424056,1.034118413925171,-2.7510793844806116
1708444260.0126436,-2.1203010082244873,-1.3304665398648758,-2.535874907170431,6.067248213082113,1.0342309474945068,-2.7490156332599085
1708444260.014621,-2.120194435119629,-1.3304906648448487,-2.5359154383288782,6.067228781967916,1.0342955589294434,-2.746951166783468
1708444260.016636,-2.120194435119629,-1.3304788035205384,-2.5359349886523646,6.067183124810018,1.0344035625457764,-2.7449417749988
1708444260.0186129,-2.1202328205108643,-1.3305068773082276,-2.535987202321188,6.067178594857015,1.0344507694244385,-2.7428999582873743
1708444260.020612,-2.120159387588501,-1.3304896515658875,-2.5360024611102503,6.0672278282936,1.0345392227172852,-2.74089223543276
1708444260.0226667,-2.120192050933838,-1.3304940176061173,-2.5360294024096888,6.0672069666679285,1.0346081256866455,-2.7388809362994593
1708444260.0246305,-2.1202170848846436,-1.3305588227561493,-2.536053244267599,6.067199337273397,1.034651756286621,-2.7368202845202845
1708444260.026623,-2.1201400756835938,-1.3305101704648514,-2.5361583868609827,6.0672278282936,1.034764289855957,-2.73487097421755
1708444260.0286615,-2.120124101638794,-1.330514447098114,-2.536149326954977,6.067248213082113,1.0348328351974487,-2.7328723112689417
1708444260.0306406,-2.120126247406006,-1.3305144769004364,-2.5362468401538294,6.0672351000602625,1.0348762273788452,-2.731032673512594
1708444260.032626,-2.120116949081421,-1.3305068624070664,-2.536261860524313,6.067178594857015,1.0349808931350708,-2.7291365305529993
1708444260.0346215,-2.120103359222412,-1.3304606837085267,-2.536276642476217,6.067251431732931,1.0350451469421387,-2.7272794882403772
1708444260.0366228,-2.1201171875,-1.3305096489242096,-2.5363217035876673,6.067230808525839,1.0351008176803589,-2.7253721396075647
1708444260.0386379,-2.1200380325317383,-1.3305058640292664,-2.536402765904562,6.067284333496847,1.0351567268371582,-2.723440949116842
1708444260.040623,-2.1200852394104004,-1.3304812175086518,-2.5364461580859583,6.067258941918173,1.0352574586868286,-2.721509043370382
1708444260.042632,-2.120072841644287,-1.3305058640292664,-2.5364702383624476,6.067291843682089,1.035300850868225,-2.7196391264544886
1708444260.0446188,-2.1200852394104004,-1.330533043747284,-2.536497179661886,6.067291843682089,1.0353732109069824,-2.717632834111349
1708444260.04662,-2.120121479034424,-1.330505297785141,-2.5365541617022913,6.067355739861288,1.0354570150375366,-2.7157073656665247
1708444260.0486178,-2.120072841644287,-1.3305578988841553,-2.5365482012378138,6.067322242050924,1.03550124168396,-2.713888947163717
1708444260.0506284,-2.120042562484741,-1.3305700731328507,-2.536583964024679,6.067388522415914,1.0355538129806519,-2.711900774632589
1708444260.0526226,-2.120081663131714,-1.3305906069329758,-2.5366292635547083,6.067403661995687,1.0356460809707642,-2.7099199930774134
1708444260.054619,-2.1200966835021973,-1.3306229722550889,-2.5366035143481653,6.067386138230123,1.0356734991073608,-2.7080443541156214
1708444260.056645,-2.120068311691284,-1.330549256210663,-2.5366349856006067,6.067401635437765,1.035766363143921,-2.7060371080981653
1708444260.0586486,-2.1200897693634033,-1.330635206108429,-2.536738697682516,6.067483055382528,1.035752773284912,-2.70424992242922
1708444260.060628,-2.1200807094573975,-1.3306427907994767,-2.536741558705465,6.067429768830099,1.0358948707580566,-2.702315632496969
1708444260.0626256,-2.1200966835021973,-1.3305690449527283,-2.5367851893054407,6.067544209748068,1.0359500646591187,-2.7005587259875696
1708444260.0646217,-2.1200637817382812,-1.3306266081384202,-2.536804501210348,6.067543136864462,1.035949468612671,-2.6987183729754847
1708444260.0666265,-2.120051383972168,-1.3306137186339875,-2.536875311528341,6.067555057793417,1.0360792875289917,-2.6969433466540735
1708444260.0686247,-2.120068311691284,-1.3306256991675873,-2.5368571917163294,6.067603814392843,1.0361099243164062,-2.6951497236834925
1708444260.0706248,-2.12007737159729,-1.3306491684964676,-2.5369096438037317,6.06760715225295,1.0361666679382324,-2.693448607121603
1708444260.0730026,-2.120047092437744,-1.3306179654649277,-2.536978546773092,6.067573058396139,1.036226749420166,-2.6916096846209925
1708444260.0746927,-2.1200897693634033,-1.3306500774673005,-2.536974016820089,6.067692386894979,1.0363034009933472,-2.689741913472311
1708444260.0766685,-2.1200897693634033,-1.3306329560330887,-2.5369678179370325,6.067674505501547,1.036336064338684,-2.6880114714251917
1708444260.0786295,-2.120108127593994,-1.3306784641793747,-2.5369754473315638,6.067718016892233,1.0363831520080566,-2.6861124674426478
1708444260.0806317,-2.1200966835021973,-1.3307102930596848,-2.537070099507467,6.067783820420065,1.036447525024414,-2.6843321959124964
1708444260.0826297,-2.120108127593994,-1.3307102930596848,-2.5370941797839563,6.067823636322775,1.0364997386932373,-2.6825266520129603
1708444260.0846179,-2.120126247406006,-1.3306888949922104,-2.5371134916888636,6.067853796273031,1.0365360975265503,-2.680793348942892
1708444260.0866141,-2.120072841644287,-1.3307212752154847,-2.5371421019183558,6.067903268128195,1.036604642868042,-2.6789734999286097
1708444260.0886343,-2.120051383972168,-1.330684558754303,-2.537123982106344,6.067918050080099,1.0366270542144775,-2.677285973225729
1708444260.0906389,-2.1200921535491943,-1.3307016652873536,-2.5371781031238,6.068002092629232,1.0366554260253906,-2.6754778067218226
1708444260.0926597,-2.1201012134552,-1.3307459664395829,-2.5371838251696985,6.067976462631979,1.0367237329483032,-2.6736562887774866
1708444260.0946279,-2.120112657546997,-1.3307450872710724,-2.537245575581686,6.068131911545553,1.0368176698684692,-2.671917740498678
1708444260.096623,-2.1201488971710205,-1.3307246279767533,-2.537262026463644,6.068179476052084,1.0368162393569946,-2.6702612082110804
1708444260.0986288,-2.1201374530792236,-1.3308091920665284,-2.5372889677630823,6.068200695305624,1.036847710609436,-2.668581787739889
1708444260.1006331,-2.1201374530792236,-1.3308058989099045,-2.5373085180865687,6.068254577904501,1.0368958711624146,-2.666966501866476
1708444260.1026185,-2.1200990676879883,-1.330804930334427,-2.5373085180865687,6.068330633431234,1.0369497537612915,-2.6652734915362757
1708444260.1046154,-2.1201531887054443,-1.3308415424874802,-2.5373204390155237,6.0683724758918665,1.0369800329208374,-2.663631264363424
1708444260.1066356,-2.120121479034424,-1.3307929945043107,-2.5373263994800013,6.068404185562887,1.0370163917541504,-2.6619117895709437
1708444260.108627,-2.1200830936431885,-1.330853821044304,-2.5373924414264124,6.0685263750846765,1.037056803703308,-2.6603317896472376
1708444260.1106157,-2.120112419128418,-1.3308568757823487,-2.5374584833728235,6.068507182389059,1.037071704864502,-2.658602539693014
1708444260.1126146,-2.1201534271240234,-1.3308610630086442,-2.5374117533313196,6.06863688209609,1.0371123552322388,-2.6569557825671595
1708444260.1146114,-2.120116949081421,-1.3308323931745072,-2.537447992955343,6.0686926720436,1.0371276140213013,-2.655217234288351
1708444260.1166403,-2.1201534271240234,-1.3308410060456772,-2.537464443837301,6.06868206241683,1.0372010469436646,-2.653559748326437
1708444260.1186175,-2.1200857162475586,-1.3309631508639832,-2.5375004450427454,6.068783747940817,1.0372700691223145,-2.651881519948141
1708444260.120614,-2.120112419128418,-1.330884338622429,-2.5375455061541956,6.068841922074117,1.0372806787490845,-2.6501897017108362
1708444260.122662,-2.1201329231262207,-1.330912397508957,-2.5375290552722376,6.068934428482809,1.0372955799102783,-2.648564402257101
1708444260.1246555,-2.1201601028442383,-1.3309209954789658,-2.537548367177145,6.068957197457113,1.0373649597167969,-2.646893088017599
1708444260.1266212,-2.120164632797241,-1.3308886152556916,-2.53762656847109,6.069025504380026,1.0373693704605103,-2.645203177128927
1708444260.1286151,-2.1201982498168945,-1.3309493970922013,-2.537576977406637,6.06910656669692,1.037441372871399,-2.6435018221484583
1708444260.130639,-2.1201727390289307,-1.3309600514224549,-2.5375948588000696,6.069166052132406,1.0374850034713745,-2.6418631712542933
1708444260.1326134,-2.1201329231262207,-1.3309407991221924,-2.5376413504229944,6.06918882110671,1.0374776124954224,-2.6402934233294886
1708444260.1346204,-2.1201329231262207,-1.3309884828380127,-2.537698570881979,6.069232332497396,1.037500262260437,-2.6387491861926478
1708444260.136623,-2.1201443672180176,-1.331041694884636,-2.537659231816427,6.069309937744894,1.0375826358795166,-2.637122694646017
1708444260.1386254,-2.1201770305633545,-1.3310165864280243,-2.5377207438098353,6.069362389832296,1.0375572443008423,-2.6355484167682093
1708444260.141121,-2.1201770305633545,-1.331056908970215,-2.5376787821399134,6.0693997023399255,1.0375977754592896,-2.634037796651022
1708444260.1426194,-2.1201682090759277,-1.3310525876334687,-2.5376907030688685,6.069440114289083,1.0376009941101074,-2.6324296633349817
1708444260.144617,-2.120124101638794,-1.3310925674489518,-2.537759844456808,6.0694758770759485,1.0376652479171753,-2.63084060350527
1708444260.1466162,-2.1201858520507812,-1.331104577784874,-2.537755314503805,6.069532739907064,1.037714958190918,-2.6293092409717005
1708444260.148638,-2.1201488971710205,-1.3311168116382142,-2.537788216267721,6.069581854134359,1.0377631187438965,-2.6276703516589563
1708444260.1506598,-2.1201488971710205,-1.3311404895833512,-2.5378289858447474,6.069599735527792,1.0377452373504639,-2.6261301676379603
1708444260.152675,-2.120121479034424,-1.3310909581235428,-2.5378528277026575,6.069677698403158,1.0378353595733643,-2.624521557484762
1708444260.1546614,-2.12011981010437,-1.331086741094925,-2.5378392378436487,6.069650995522299,1.0378265380859375,-2.6229100863086146
1708444260.1566355,-2.120116949081421,-1.3311680120280762,-2.5378766695605677,6.069698679238119,1.0378906726837158,-2.621288601552145
1708444260.1586297,-2.1200873851776123,-1.3311475974372406,-2.537851158772604,6.0697388527686975,1.0379105806350708,-2.61971623102297
1708444260.1606245,-2.120103359222412,-1.3311828982881089,-2.537891689931051,6.0697882054145715,1.0379343032836914,-2.6182404200183313
1708444260.162623,-2.1200966835021973,-1.3312081408551713,-2.537945810948507,6.069779264717855,1.0379254817962646,-2.616610352193014
1708444260.164625,-2.120047092437744,-1.3312689822963257,-2.5379322210894983,6.069810616761007,1.0380066633224487,-2.615025345479147
1708444260.1666222,-2.1200640201568604,-1.3312233102372666,-2.5379818121539515,6.0698314783866785,1.0380184650421143,-2.6133795420276087
1708444260.1686335,-2.1200196743011475,-1.331288070683815,-2.5379818121539515,6.0698808310325525,1.038045883178711,-2.61177641550173
1708444260.1706645,-2.1200082302093506,-1.331279532318451,-2.537987772618429,6.06982587555007,1.0380550622940063,-2.6102002302752894
1708444260.1726263,-2.1200082302093506,-1.3312789064696808,-2.537978712712423,6.06982587555007,1.0380908250808716,-2.608743492756979
1708444260.1746707,-2.11997652053833,-1.3313397330096741,-2.5380523840533655,6.069846617966451,1.0381345748901367,-2.6071963945971888
1708444260.1766984,-2.119919776916504,-1.3313311052373429,-2.5380807558642786,6.069785344391622,1.0381345748901367,-2.605724875126974
1708444260.1786604,-2.1198959350585938,-1.3313754063895722,-2.5380478541003626,6.0698150275047205,1.0381375551223755,-2.604183022175924
1708444260.1806257,-2.1198971271514893,-1.3313744527152558,-2.538095537816183,6.069798695832052,1.0381824970245361,-2.602685515080587
1708444260.1826286,-2.1197926998138428,-1.3314273667386551,-2.5382230917560022,6.0697927353675745,1.0382097959518433,-2.6012333075152796
1708444260.1846335,-2.1197476387023926,-1.3314352941564103,-2.5381720701800745,6.069665896683492,1.0382261276245117,-2.5996835867511194
1708444260.1866567,-2.119724750518799,-1.3314231050065537,-2.5381720701800745,6.069698679238119,1.0382907390594482,-2.598206106816427
1708444260.1886346,-2.119643211364746,-1.3315034073642273,-2.538229290639059,6.069643246918478,1.0382786989212036,-2.5967214743243616
1708444260.1906486,-2.1196203231811523,-1.3315238666585465,-2.538236681615011,6.069622385292806,1.0383102893829346,-2.59521729150881
1708444260.1926296,-2.119544267654419,-1.331481934790947,-2.538236681615011,6.069556581764974,1.0383058786392212,-2.5937419573413294
1708444260.1946263,-2.1194558143615723,-1.3315514040044327,-2.5383058230029505,6.0695462105567834,1.038362979888916,-2.592252556477682
1708444260.196623,-2.1194005012512207,-1.3315874350121994,-2.5382922331439417,6.069580662041464,1.0383944511413574,-2.590799156819479
1708444260.198624,-2.119394540786743,-1.331578792338707,-2.538295094166891,6.069478976517477,1.038439393043518,-2.5893078486071985
1708444260.2006176,-2.1192777156829834,-1.331606001859047,-2.538327995930807,6.069472539215841,1.0384559631347656,-2.58781868616213
1708444260.2026372,-2.119159698486328,-1.3316188019565125,-2.5383971373187464,6.069353210717001,1.0384827852249146,-2.5862799326526087
1708444260.2046342,-2.11910080909729,-1.3316470247558136,-2.5383926073657435,6.069363701134481,1.038519024848938,-2.5848313013659876
1708444260.206657,-2.1189849376678467,-1.331670121555664,-2.5384705702411097,6.069250213890829,1.0385762453079224,-2.5834079424487513
1708444260.2086754,-2.118910074234009,-1.3316985678723832,-2.538473669682638,6.069248664170065,1.0386329889297485,-2.581898037587301
1708444260.2106469,-2.1188464164733887,-1.33175544560466,-2.538469139729635,6.069200742035665,1.038594365119934,-2.580458704625265
1708444260.212638,-2.1186492443084717,-1.331787110572197,-2.5385008494006556,6.069063532143392,1.0386440753936768,-2.579034153615133
1708444260.214641,-2.118553876876831,-1.3317862314036866,-2.5385082403766077,6.068954455643453,1.0386676788330078,-2.5776501337634485
1708444260.2166286,-2.1184451580047607,-1.331765742307045,-2.538593355809347,6.068857657700338,1.0386829376220703,-2.576256815587179
1708444260.2186425,-2.1183149814605713,-1.3318103563836594,-2.5385995546924036,6.068779456406393,1.0386992692947388,-2.5748449007617396
1708444260.2206223,-2.1181864738464355,-1.331793190245964,-2.5386160055743616,6.06870328167037,1.0387282371520996,-2.5735140482531946
1708444260.2226212,-2.1179914474487305,-1.331882731323578,-2.5386984984027308,6.068608987122335,1.0388015508651733,-2.572131935750143
1708444260.2246404,-2.1178791522979736,-1.3318451356938859,-2.5387092272387903,6.0684488890464685,1.0387837886810303,-2.570805374776022
1708444260.2266421,-2.1177871227264404,-1.331869215970375,-2.5387495199786585,6.068325030594625,1.0388405323028564,-2.56950813928713
1708444260.2286615,-2.117612600326538,-1.331929774289467,-2.538771931325094,6.068198191910543,1.0387778282165527,-2.5681420008288782
1708444260.2306454,-2.117422342300415,-1.3319169592908402,-2.538760010396139,6.06802915313796,1.0388590097427368,-2.566751782094137
1708444260.2326255,-2.1172678470611572,-1.3319373589805146,-2.5388410727130335,6.067866551667013,1.0388470888137817,-2.5653892199145716
1708444260.234643,-2.117126941680908,-1.3319776964238663,-2.538851563130514,6.0676612732704065,1.038878321647644,-2.563943688069479
