Eg3-git/Classifiers/Data Collection/u8/u8xyz3_ur3e_joint_states.csv
time,elbow_joint,shoulder_lift_joint,shoulder_pan_joint,wrist_1_joint,wrist_2_joint,wrist_3_joint
1708443518.3437786,-2.1417534351348877,-1.3336623472026368,-2.527088467274801,6.11100052574233,1.0179462432861328,-2.269989315663473
1708443518.345772,-2.1417579650878906,-1.3336835515550156,-2.5270467440234583,6.11102460601882,1.0179463624954224,-2.269964043294088
1708443518.3477356,-2.1417622566223145,-1.3337117445519944,-2.527039353047506,6.110993253975668,1.0179669857025146,-2.269964043294088
1708443518.3497348,-2.1417579650878906,-1.3336865168860932,-2.5270677248584192,6.110962974816122,1.0179431438446045,-2.2699106375323694
1708443518.3517458,-2.1417579650878906,-1.3336940121701737,-2.5270348230945032,6.111008393555441,1.0179625749588013,-2.2699149290667933
1708443518.3537545,-2.1417622566223145,-1.333662362103798,-2.527013365422384,6.111017095833578,1.0179953575134277,-2.269996945058004
1708443518.355753,-2.1417622566223145,-1.3336371344378968,-2.5270631949054163,6.111015903740682,1.017958164215088,-2.269985024129049
1708443518.3577566,-2.1417534351348877,-1.3336701703122635,-2.5270422140704554,6.110975968628683,1.0179582834243774,-2.2699387709247034
1708443518.3597598,-2.1417746543884277,-1.3336252135089417,-2.527017895375387,6.111008393555441,1.0179537534713745,-2.269935433064596
1708443518.361766,-2.1418004035949707,-1.33367574334655,-2.526994053517477,6.110988962441244,1.0179462432861328,-2.269968334828512
1708443518.3637702,-2.1417746543884277,-1.333674595957138,-2.5270677248584192,6.110959636956014,1.0179835557937622,-2.2699387709247034
1708443518.3657713,-2.141749143600464,-1.3336835515550156,-2.5270870367633265,6.111008393555441,1.0179866552352905,-2.269968334828512
1708443518.3677573,-2.1417958736419678,-1.333690957432129,-2.5270631949054163,6.11102460601882,1.017974853515625,-2.2699506918536585
1708443518.3697312,-2.1417579650878906,-1.3337117445519944,-2.5270796457873743,6.110955345421591,1.0179550647735596,-2.2699478308307093
1708443518.3717575,-2.1417789459228516,-1.3336865317872544,-2.527043883000509,6.111021387368002,1.0179997682571411,-2.269996468220846
1708443518.3737419,-2.1418116092681885,-1.3336593967727204,-2.5270260016070765,6.111008393555441,1.0179997682571411,-2.2699478308307093
1708443518.3757606,-2.1417534351348877,-1.333690957432129,-2.5270302931415003,6.110927927284994,1.0179791450500488,-2.2699063459979456
1708443518.3777282,-2.1417622566223145,-1.3336657297662278,-2.527076784764425,6.110943543701925,1.0179669857025146,-2.269898239766256
1708443518.3797317,-2.1417579650878906,-1.3337087792209168,-2.5270260016070765,6.1109962342079065,1.017958164215088,-2.2699220816241663
1708443518.3817542,-2.1417789459228516,-1.3336865168860932,-2.5270796457873743,6.110988843231954,1.0179388523101807,-2.26993972459902
1708443518.3837228,-2.1417667865753174,-1.3336880219033738,-2.527072254811422,6.110922562866964,1.018003225326538,-2.269956413899557
1708443518.385761,-2.1417508125305176,-1.333690957432129,-2.527076784764425,6.111033189087667,1.0179669857025146,-2.269923988972799
1708443518.387723,-2.141737461090088,-1.3336790365031739,-2.5270260016070765,6.111017811089315,1.017953872680664,-2.269935433064596
1708443518.389737,-2.1417622566223145,-1.33365053058181,-2.527039353047506,6.110972630768575,1.0179822444915771,-2.269984547291891
1708443518.3917804,-2.141741991043091,-1.3336879921010514,-2.52698523203005,6.1109856245811365,1.0179953575134277,-2.2699149290667933
1708443518.3937948,-2.1417534351348877,-1.3337207001498719,-2.5270841757403772,6.110944139748373,1.0180119276046753,-2.269973103200094
1708443518.3957512,-2.1418004035949707,-1.3336178076318284,-2.527055803929464,6.110965120583334,1.0179791450500488,-2.269952122365133
1708443518.3977332,-2.1418161392211914,-1.3337162298015137,-2.527017895375387,6.110972630768575,1.0179747343063354,-2.269989315663473
1708443518.399737,-2.1417622566223145,-1.3336505156806489,-2.5270260016070765,6.110972630768575,1.0179704427719116,-2.269993607197897
1708443518.4017565,-2.1417462825775146,-1.3336865168860932,-2.526980702077047,6.11096070983962,1.0179582834243774,-2.269930664693014
1708443518.4037309,-2.1417789459228516,-1.3336701703122635,-2.5270512739764612,6.110927927284994,1.0180197954177856,-2.2699149290667933
1708443518.4057662,-2.1417579650878906,-1.333674595957138,-2.5270422140704554,6.11096070983962,1.0179953575134277,-2.2699220816241663
1708443518.4077623,-2.1417880058288574,-1.3337087792209168,-2.527060333882467,6.111017811089315,1.018003225326538,-2.269907299672262
1708443518.409752,-2.1417295932769775,-1.3336790365031739,-2.52702242532839,6.110927927284994,1.0179953575134277,-2.269952122365133
1708443518.4117503,-2.1417508125305176,-1.3336415600827713,-2.527026955281393,6.110981333046713,1.0179879665374756,-2.269984547291891
1708443518.4137552,-2.1417922973632812,-1.3336668771556397,-2.5270677248584192,6.110916960030355,1.0180119276046753,-2.269923988972799
1708443518.4157457,-2.1417579650878906,-1.3337251406959076,-2.5270260016070765,6.110994446068563,1.0179669857025146,-2.269965473805563
1708443518.4177601,-2.1417667865753174,-1.3336252135089417,-2.527060333882467,6.110957133560934,1.0180076360702515,-2.269907299672262
1708443518.4197266,-2.1417622566223145,-1.3336490553668519,-2.527076784764425,6.110924708634176,1.0179997682571411,-2.2699134985553187
1708443518.4217331,-2.1417534351348877,-1.333674595957138,-2.5270512739764612,6.110936748772421,1.017958164215088,-2.269956413899557
1708443518.4237342,-2.1417579650878906,-1.3337400269559403,-2.527039353047506,6.11089192607955,1.0179625749588013,-2.269928280507223
1708443518.4257731,-2.1417622566223145,-1.3336953979781647,-2.5270512739764612,6.110859739571371,1.017991065979004,-2.26993972459902
1708443518.427745,-2.1417834758758545,-1.3337073189071198,-2.5270631949054163,6.110872852593221,1.0180119276046753,-2.2699149290667933
1708443518.4297452,-2.141770362854004,-1.333620772962906,-2.527055803929464,6.1107908366020105,1.017991065979004,-2.2699440161334437
1708443518.4317489,-2.141741991043091,-1.3336879921010514,-2.527017895375387,6.11085723617629,1.0179704427719116,-2.269935433064596
1708443518.433742,-2.1417295932769775,-1.3336865168860932,-2.527039353047506,6.11079632022933,1.0179704427719116,-2.269932572041647
1708443518.4357538,-2.1417293548583984,-1.3336713177016755,-2.5270512739764612,6.1108248112495325,1.017991065979004,-2.269928280507223
1708443518.4377344,-2.1418004035949707,-1.333674595957138,-2.527043883000509,6.11079632022933,1.0179953575134277,-2.2699487845050257
1708443518.4397433,-2.1417579650878906,-1.3336953532746811,-2.527072254811422,6.110849725991049,1.0180119276046753,-2.269919220601217
1708443518.4417458,-2.1417667865753174,-1.333690957432129,-2.527088467274801,6.11083351352767,1.0179704427719116,-2.2699816862689417
1708443518.443736,-2.1417622566223145,-1.3337236654809494,-2.5270348230945032,6.110781180649557,1.0179582834243774,-2.269907299672262
1708443518.4457533,-2.1417622566223145,-1.3336657297662278,-2.527118508015768,6.110805022507467,1.0179712772369385,-2.2699106375323694
1708443518.4477854,-2.1417579650878906,-1.3336460006288071,-2.527092997227804,6.1107367155845544,1.0179791450500488,-2.2699697653399866
1708443518.449763,-2.1417622566223145,-1.3336208325675507,-2.527055803929464,6.110829818039694,1.0179669857025146,-2.269928280507223
1708443518.451745,-2.1417384147644043,-1.3337653440288086,-2.5270090738879603,6.110781180649557,1.0179822444915771,-2.269928280507223
1708443518.45373,-2.1417462825775146,-1.3337400269559403,-2.526968781148092,6.110782253533163,1.0179997682571411,-2.2699530760394495
1708443518.455744,-2.1417250633239746,-1.3336668771556397,-2.526989523564474,6.110774743347921,1.0179953575134277,-2.2699368635760706
1708443518.4577246,-2.1417126655578613,-1.33365352571521,-2.527013365422384,6.110749828606405,1.0179625749588013,-2.269883457814352
1708443518.4597306,-2.1417622566223145,-1.3337236505797883,-2.5270031134234827,6.1107287285621545,1.017941951751709,-2.269911591206686
1708443518.4617453,-2.1417174339294434,-1.333690957432129,-2.52702242532839,6.110769259720602,1.0179997682571411,-2.269841972981588
1708443518.4637508,-2.1417880058288574,-1.3337117296508332,-2.527055803929464,6.110741960793295,1.0179953575134277,-2.2698877493487757
1708443518.4657578,-2.1417622566223145,-1.3336835515550156,-2.5270360151873987,6.110693084984579,1.0180041790008545,-2.2698548475848597
1708443518.4677427,-2.1417789459228516,-1.333595649605133,-2.5270348230945032,6.110676634102621,1.0179669857025146,-2.2698639074908655
1708443518.469763,-2.1417551040649414,-1.3336909425309678,-2.527055803929464,6.110721337586202,1.0179712772369385,-2.2698681990252894
1708443518.4717286,-2.1417341232299805,-1.3337162745049973,-2.5270302931415003,6.1107051251228235,1.0180120468139648,-2.2697818914996546
1708443518.4737496,-2.1417667865753174,-1.3336999130300065,-2.527104918156759,6.110758530884542,1.017941951751709,-2.269876782094137
1708443518.4757414,-2.1417384147644043,-1.3336879921010514,-2.5269761721240442,6.11074315288619,1.0179922580718994,-2.269803826008932
1708443518.477749,-2.141721725463867,-1.333688036804535,-2.527013365422384,6.110701906472006,1.0179953575134277,-2.2698572317706507
1708443518.4797382,-2.1416969299316406,-1.3336657297662278,-2.527039353047506,6.1107181189353845,1.0179791450500488,-2.2698734442340296
1708443518.481953,-2.141721725463867,-1.3336756837419053,-2.5270512739764612,6.110669123917379,1.0179791450500488,-2.2698195616351526
1708443518.4837356,-2.141721725463867,-1.3336953979781647,-2.527072254811422,6.110632526665487,1.017941951751709,-2.2698362509356897
1708443518.4857328,-2.1417293548583984,-1.3337251406959076,-2.527017895375387,6.110673415451803,1.017953872680664,-2.2698572317706507
1708443518.4877224,-2.1417295932769775,-1.3336371344378968,-2.526977841054098,6.110722529679098,1.0180076360702515,-2.2698195616351526
1708443518.4897702,-2.1417295932769775,-1.3336790365031739,-2.527017895375387,6.110641944199362,1.0179582834243774,-2.269815270100729
1708443518.4917848,-2.1417462825775146,-1.3336371344378968,-2.52702242532839,6.110677706986227,1.0179712772369385,-2.269803826008932
1708443518.493817,-2.1417462825775146,-1.3336416196874161,-2.5270512739764612,6.110686528473654,1.017974853515625,-2.269787136708395
1708443518.4957304,-2.141721725463867,-1.3336953979781647,-2.527060333882467,6.110621320992269,1.0180163383483887,-2.2698281447040003
1708443518.4977443,-2.1417551040649414,-1.3336756837419053,-2.52698523203005,6.110678779869833,1.0179463624954224,-2.2697747389422815
1708443518.4997334,-2.1417384147644043,-1.3336240214160462,-2.5270302931415003,6.1106289503868005,1.0179625749588013,-2.269803826008932
1708443518.5017588,-2.1417014598846436,-1.3336835664561768,-2.5270302931415003,6.110572206764974,1.0179997682571411,-2.26976186433901
1708443518.5037305,-2.141714572906494,-1.333702878361084,-2.527085606251852,6.110564696579733,1.0179791450500488,-2.2698362509356897
1708443518.5057535,-2.141718864440918,-1.3336579364589234,-2.527060333882467,6.110576736717977,1.0180119276046753,-2.2698238531695765
1708443518.5077515,-2.141730308532715,-1.3337117296508332,-2.527017895375387,6.110589730530538,1.017974853515625,-2.2698081175433558
1708443518.5097566,-2.1416988372802734,-1.3336668771556397,-2.52710205713381,6.110529053002157,1.0179463624954224,-2.2698195616351526
1708443518.5117664,-2.14166522026062,-1.3336371344378968,-2.5269866625415247,6.110521542816915,1.017987847328186,-2.2698329130755823
1708443518.5137384,-2.1417348384857178,-1.33365053058181,-2.52702242532839,6.110530125885763,1.017953872680664,-2.269803826008932
1708443518.5157847,-2.1417391300201416,-1.33367574334655,-2.52698523203005,6.110492932587423,1.0179669857025146,-2.2697795073138636
1708443518.5177486,-2.1416988372802734,-1.3336460155299683,-2.5270360151873987,6.110506045609274,1.0179507732391357,-2.269803826008932
1708443518.5197594,-2.141690731048584,-1.33365053058181,-2.527039353047506,6.110458123474874,1.0179791450500488,-2.269755188618795
1708443518.5217414,-2.1416609287261963,-1.3336668771556397,-2.5270467440234583,6.110485422402181,1.0179997682571411,-2.2697795073138636
1708443518.5237446,-2.141742706298828,-1.3336222481778641,-2.527060333882467,6.1104702828224084,1.0179822444915771,-2.26980430284609
1708443518.5257604,-2.1416776180267334,-1.3336835664561768,-2.527043883000509,6.110489833145895,1.0179625749588013,-2.2698124090777796
1708443518.5277336,-2.14168643951416,-1.3336208325675507,-2.526980702077047,6.110457289009847,1.0179791450500488,-2.2697837988482874
1708443518.5297546,-2.141690731048584,-1.3336835664561768,-2.527085606251852,6.110474693566122,1.0179625749588013,-2.2697837988482874
1708443518.5317628,-2.1417059898376465,-1.3336089116385956,-2.5270512739764612,6.110417234688558,1.0180041790008545,-2.26978046098818
1708443518.533756,-2.141723394393921,-1.3336296391538163,-2.527017895375387,6.110495316773214,1.017987847328186,-2.2697718779193323
1708443518.53576,-2.141695022583008,-1.3336790365031739,-2.527039353047506,6.110430228501119,1.017987847328186,-2.269710365925924
1708443518.537756,-2.1416943073272705,-1.3337207001498719,-2.527013365422384,6.110430228501119,1.0179507732391357,-2.269748036061422
1708443518.539738,-2.141636848449707,-1.3336713177016755,-2.527039353047506,6.110438811569967,1.0179625749588013,-2.269710365925924
1708443518.5417604,-2.1417031288146973,-1.33367574334655,-2.5270302931415003,6.110418307572164,1.0179669857025146,-2.269679371510641
1708443518.5437303,-2.141636848449707,-1.333666906957962,-2.5270031134234827,6.110356318741598,1.0179712772369385,-2.269714657460348
1708443518.5457492,-2.141669511795044,-1.3336534810117264,-2.5270031134234827,6.1104140160377405,1.0179712772369385,-2.2697370688067835
1708443518.547796,-2.1415998935699463,-1.3336460006288071,-2.526994053517477,6.110476600914755,1.0179431438446045,-2.269674603139059
1708443518.549751,-2.14169979095459,-1.3337251406959076,-2.527017895375387,6.110520112305441,1.0179625749588013,-2.2697117964373987
1708443518.5517793,-2.1416871547698975,-1.3336430352977295,-2.526973311101095,6.11044322231368,1.0179835557937622,-2.269674603139059
1708443518.5537446,-2.1416916847229004,-1.3336790067008515,-2.527026955281393,6.1104270098503015,1.0179375410079956,-2.2697084585772913
1708443518.5557501,-2.1416544914245605,-1.3336712431958695,-2.527072254811422,6.110454785614767,1.0179625749588013,-2.2696660200702112
1708443518.5577383,-2.1416711807250977,-1.3336924326470871,-2.527039353047506,6.110394227295675,1.0180041790008545,-2.269657913838522
1708443518.5597305,-2.141662359237671,-1.333671287899353,-2.5270360151873987,6.110398518830099,1.0179507732391357,-2.2697084585772913
1708443518.5617769,-2.141674041748047,-1.3337162745049973,-2.5270677248584192,6.110438930779257,1.0179550647735596,-2.2696965376483362
1708443518.5637722,-2.1416544914245605,-1.3336386394551774,-2.527026955281393,6.110410439759054,1.0179712772369385,-2.2697132269488733
1708443518.5657873,-2.1416587829589844,-1.333737091427185,-2.526977841054098,6.110435712128439,1.0180041790008545,-2.2697117964373987
1708443518.5677507,-2.1416501998901367,-1.3336505156806489,-2.527083937321798,6.110402810364523,1.017941951751709,-2.2696755568133753
1708443518.5697687,-2.141666889190674,-1.3336835515550156,-2.526994053517477,6.110394227295675,1.017987847328186,-2.2697013060199183
1708443518.5717723,-2.1416828632354736,-1.3336178076318284,-2.5270677248584192,6.110460626869955,1.0179997682571411,-2.2696545759784144
1708443518.5737505,-2.141641139984131,-1.3336385649493714,-2.527069155369894,6.110374676972189,1.0179756879806519,-2.2696879545794886
1708443518.5757933,-2.141645669937134,-1.3336341244033356,-2.52698523203005,6.1103495238120935,1.0179345607757568,-2.2697132269488733
1708443518.5777514,-2.141645669937134,-1.3336132627776642,-2.5270031134234827,6.110386597901144,1.0179507732391357,-2.2696712652789515
1708443518.5797467,-2.1416711807250977,-1.333666892056801,-2.527039353047506,6.110349404602804,1.0179669857025146,-2.269679371510641
1708443518.581782,-2.141613006591797,-1.3336385798505326,-2.5270360151873987,6.110358106880941,1.0179550647735596,-2.269684139882223
1708443518.5837495,-2.1416871547698975,-1.3336341691068192,-2.5270360151873987,6.110390889435568,1.0179344415664673,-2.2697084585772913
1708443518.585804,-2.1417083740234375,-1.333737002020218,-2.5270031134234827,6.11038230636672,1.01792573928833,-2.2696836630450647
1708443518.5877376,-2.1416800022125244,-1.3336505454829712,-2.527026955281393,6.110374676972189,1.0179507732391357,-2.269717518483297
1708443518.589746,-2.1416544914245605,-1.3337162298015137,-2.5270360151873987,6.110379087715902,1.0179593563079834,-2.2696545759784144
1708443518.5917587,-2.1416587829589844,-1.3336222630790253,-2.5270512739764612,6.110366093903341,1.0179835557937622,-2.2696712652789515
1708443518.5938265,-2.1416149139404297,-1.3336251837066193,-2.52702242532839,6.110346305161276,1.0179669857025146,-2.269651714955465
1708443518.595784,-2.141671895980835,-1.3336088222316285,-2.52698523203005,6.110366809159078,1.0179507732391357,-2.269684139882223
1708443518.5977545,-2.1416544914245605,-1.3336385947516938,-2.5270360151873987,6.110420214920797,1.0179431438446045,-2.2696550528155726
1708443518.5997577,-2.1416800022125244,-1.3336296093514939,-2.5270403067218226,6.1103625176246545,1.0179835557937622,-2.269667927418844
1708443518.6018007,-2.141606092453003,-1.3336637777141114,-2.527057472859518,6.110366809159078,1.0179507732391357,-2.269667927418844
1708443518.6037414,-2.1416501998901367,-1.33369533837352,-2.5270360151873987,6.110379087715902,1.0179550647735596,-2.2696965376483362
1708443518.605775,-2.141634941101074,-1.333666906957962,-2.527092997227804,6.110366809159078,1.0179669857025146,-2.2696340719806116
1708443518.6077528,-2.1416587829589844,-1.3336713177016755,-2.527026955281393,6.110341894417562,1.0179791450500488,-2.2696550528155726
1708443518.6097653,-2.1416218280792236,-1.3336549264243622,-2.52696139017214,6.110395300179281,1.0179791450500488,-2.269667927418844
1708443518.6117957,-2.1416149139404297,-1.3336880070022126,-2.526994053517477,6.110329973488607,1.0179835557937622,-2.269656006489889
1708443518.6137857,-2.1416175365448,-1.3336505156806489,-2.5270677248584192,6.110375511437216,1.0179835557937622,-2.2696755568133753
1708443518.6157725,-2.1416306495666504,-1.333643065100052,-2.526977841054098,6.110334384232321,1.0179226398468018,-2.2696550528155726
1708443518.6177595,-2.141643762588501,-1.3336549264243622,-2.527017895375387,6.110351669579305,1.0179388523101807,-2.2696474234210413
1708443518.6197348,-2.1416420936584473,-1.333645985727646,-2.527026955281393,6.110294449120321,1.0179344415664673,-2.269651714955465
1708443518.6217563,-2.1416306495666504,-1.3336713177016755,-2.527052942906515,6.110343086510458,1.0179756879806519,-2.269679848347799
1708443518.623762,-2.1416192054748535,-1.3337176752141495,-2.527060333882467,6.110317814141073,1.0179507732391357,-2.2697013060199183
1708443518.625759,-2.14164662361145,-1.3336430054954072,-2.526989523564474,6.110372173577108,1.0179344415664673,-2.2696383635150355
1708443518.6277442,-2.1415936946868896,-1.3336968582919617,-2.527039353047506,6.110297548561849,1.0179922580718994,-2.269684139882223
1708443518.6297321,-2.1416149139404297,-1.3336593222669144,-2.5270031134234827,6.110322105675497,1.0179669857025146,-2.269651714955465
1708443518.6317601,-2.141639471054077,-1.3335850846818467,-2.5270031134234827,6.1103635905082605,1.017987847328186,-2.26966363588442
1708443518.6337464,-2.141639471054077,-1.3336712431958695,-2.526994291936056,6.110319125443258,1.0179507732391357,-2.269651714955465
1708443518.6357832,-2.1416192054748535,-1.3336924326470871,-2.527055565510885,6.110301959305563,1.0179550647735596,-2.2697013060199183
1708443518.6377714,-2.1416149139404297,-1.333663822417595,-2.526989761983053,6.110319125443258,1.0179756879806519,-2.2696221510516565
1708443518.6397734,-2.141594409942627,-1.3336460304311295,-2.527026955281393,6.110371100693502,1.0179344415664673,-2.2696221510516565
1708443518.641771,-2.1416068077087402,-1.3336474758437653,-2.526989523564474,6.110338675766744,1.0179965496063232,-2.2696383635150355
1708443518.643746,-2.1416025161743164,-1.333618925218918,-2.526968781148092,6.1103106615837,1.0179431438446045,-2.269667927418844
1708443518.6457677,-2.1415855884552,-1.333684654240944,-2.5270512739764612,6.110351669579305,1.0179550647735596,-2.26966363588442
1708443518.6478033,-2.141650915145874,-1.3336296689561387,-2.5270302931415003,6.110363471298971,1.017913818359375,-2.2697013060199183
1708443518.6497626,-2.1416234970092773,-1.3336311143687745,-2.526980702077047,6.110372173577108,1.0179593563079834,-2.269627873097555
1708443518.6517882,-2.1416525840759277,-1.3336549413255234,-2.527060333882467,6.110334384232321,1.0179388523101807,-2.269717518483297
1708443518.6537576,-2.1415486335754395,-1.3336144101670762,-2.527088467274801,6.110343086510458,1.0179550647735596,-2.269656006489889
1708443518.6557417,-2.1415655612945557,-1.333593950872757,-2.527043883000509,6.110347258835592,1.0179388523101807,-2.2696264425860804
1708443518.657751,-2.1416280269622803,-1.3336430054954072,-2.526989523564474,6.110265004425802,1.0179507732391357,-2.2696312109576624
1708443518.6597395,-2.1416237354278564,-1.3336356294206162,-2.527026955281393,6.110330807953634,1.0179431438446045,-2.2696965376483362
1708443518.66175,-2.1416068077087402,-1.3336222481778641,-2.527055803929464,6.110335099488058,1.0179182291030884,-2.2696755568133753
1708443518.6637447,-2.141643762588501,-1.3336835664561768,-2.527055803929464,6.110317814141073,1.0179550647735596,-2.2696355024920862
1708443518.6657434,-2.141611099243164,-1.3336341244033356,-2.5270302931415003,6.110347258835592,1.0179550647735596,-2.269688908253805
1708443518.6677299,-2.1415655612945557,-1.3336385947516938,-2.526989523564474,6.110306250839987,1.017941951751709,-2.269672218953268
1708443518.6697645,-2.141590118408203,-1.333666906957962,-2.527069155369894,6.110338675766744,1.0179712772369385,-2.2696355024920862
1708443518.6717522,-2.141598701477051,-1.3336222779801865,-2.527085606251852,6.110351669579305,1.0179593563079834,-2.269684139882223
1708443518.673781,-2.141594409942627,-1.333695412879326,-2.527017895375387,6.110302912979879,1.0179593563079834,-2.2696965376483362
1708443518.6757352,-2.141590118408203,-1.3336713028005143,-2.5270360151873987,6.11032651641921,1.0179507732391357,-2.269672218953268
1708443518.677741,-2.14156174659729,-1.3335966032794495,-2.527043883000509,6.110359298973837,1.0179669857025146,-2.269672218953268
1708443518.679735,-2.141578435897827,-1.3336474609426041,-2.52698523203005,6.110375511437216,1.0179507732391357,-2.2696431318866175
1708443518.6817396,-2.1416068077087402,-1.3336385798505326,-2.527076784764425,6.110343086510458,1.0179625749588013,-2.269667927418844
1708443518.6837971,-2.141590118408203,-1.3336474013379593,-2.526980702077047,6.110351669579305,1.0179799795150757,-2.2696355024920862
1708443518.6857622,-2.1416068077087402,-1.3337087345174332,-2.527060333882467,6.110351669579305,1.0179057121276855,-2.2696550528155726
1708443518.687738,-2.141598701477051,-1.3336430352977295,-2.52702242532839,6.110347378044882,1.0179550647735596,-2.269688908253805
1708443518.689732,-2.1415786743164062,-1.3336879771998902,-2.527073685322897,6.110332238465109,1.017987847328186,-2.26966363588442
1708443518.6917975,-2.1415581703186035,-1.3336801391891022,-2.5270512739764612,6.11024950721816,1.0179507732391357,-2.269656006489889
1708443518.6937976,-2.141594409942627,-1.3336519759944458,-2.5270348230945032,6.110371100693502,1.0179669857025146,-2.2696922461139124
1708443518.6957722,-2.141594409942627,-1.3336519610932847,-2.5269866625415247,6.110306131630697,1.0179388523101807,-2.2696755568133753
1708443518.6977382,-2.141598701477051,-1.3336310994676133,-2.52698523203005,6.1102943299110315,1.0179344415664673,-2.2696383635150355
1708443518.6997612,-2.1415741443634033,-1.3336311143687745,-2.527043883000509,6.110323536186971,1.0179507732391357,-2.2696474234210413
1708443518.7017558,-2.1415786743164062,-1.333610014324524,-2.5270403067218226,6.110298621445455,1.0179997682571411,-2.269684139882223
1708443518.7037847,-2.1415581703186035,-1.3336562377265473,-2.52702242532839,6.110323536186971,1.0179057121276855,-2.2696192900287073
1708443518.7057545,-2.141598701477051,-1.3336311143687745,-2.526994053517477,6.11031602600173,1.0179756879806519,-2.2696178595172327
1708443518.7077312,-2.1415538787841797,-1.3336178225329895,-2.5270121733294886,6.110343086510458,1.0179519653320312,-2.2696550528155726
1708443518.7097354,-2.14158296585083,-1.3336771440557023,-2.527039353047506,6.11032651641921,1.0179507732391357,-2.2696355024920862
1708443518.7117338,-2.1415741443634033,-1.3336099845222016,-2.527026955281393,6.110273706703939,1.0179388523101807,-2.2696312109576624
1708443518.7137284,-2.1415538787841797,-1.3336266887239,-2.52702242532839,6.110297548561849,1.0179669857025146,-2.269688908253805
1708443518.7157466,-2.1415581703186035,-1.3336266589215775,-2.527026955281393,6.110314833908834,1.0179637670516968,-2.2696383635150355
1708443518.7177522,-2.1416077613830566,-1.3336430203965683,-2.527043883000509,6.110343086510458,1.0179799795150757,-2.269651714955465
1708443518.71975,-2.14156174659729,-1.3336757731488724,-2.527076784764425,6.110343086510458,1.0179712772369385,-2.2697013060199183
1708443518.721736,-2.1415176391601562,-1.3336356443217774,-2.527039353047506,6.110313522606649,1.0179593563079834,-2.269684139882223
1708443518.723752,-2.1416120529174805,-1.3336233061603089,-2.5270090738879603,6.110338675766744,1.0179474353790283,-2.269667927418844
1708443518.725747,-2.14156174659729,-1.3336341840079804,-2.526980702077047,6.110322105675497,1.0179507732391357,-2.2696712652789515
1708443518.7277486,-2.1415748596191406,-1.3336474609426041,-2.5269866625415247,6.1102943299110315,1.0179344415664673,-2.2696593443499964
1708443518.7297416,-2.1415581703186035,-1.3336099994233628,-2.527017895375387,6.110359298973837,1.0179550647735596,-2.269660298024313
1708443518.731749,-2.1415748596191406,-1.333605558877327,-2.5270360151873987,6.110269415169515,1.0179225206375122,-2.26966363588442
1708443518.7337694,-2.141533374786377,-1.3336638075164338,-2.527052942906515,6.1103635905082605,1.0179682970046997,-2.269667927418844
1708443518.7357483,-2.141592025756836,-1.3336310994676133,-2.5270302931415003,6.1102943299110315,1.0179226398468018,-2.2696712652789515
1708443518.737743,-2.1415793895721436,-1.33367574334655,-2.5270031134234827,6.110334980278768,1.0179593563079834,-2.2696312109576624
1708443518.7397342,-2.1415793895721436,-1.3336355996182938,-2.527069155369894,6.110338675766744,1.0179345607757568,-2.2696622053729456
1708443518.7417822,-2.141544818878174,-1.3336968582919617,-2.527039353047506,6.110343801766195,1.0179388523101807,-2.269623581563131
1708443518.7437313,-2.1415510177612305,-1.333647446041443,-2.52702242532839,6.110317814141073,1.0179593563079834,-2.269679848347799
1708443518.745755,-2.141566038131714,-1.3336757284453888,-2.527013365422384,6.110302912979879,1.0179474353790283,-2.269606892262594
1708443518.7477393,-2.1415793895721436,-1.3335940104774018,-2.527043883000509,6.110306131630697,1.0179550647735596,-2.269651714955465
1708443518.7497325,-2.141566753387451,-1.3336222630790253,-2.52702242532839,6.110375511437216,1.0179756879806519,-2.26966363588442
1708443518.7517364,-2.141571283340454,-1.3336356294206162,-2.5269866625415247,6.110314953118124,1.0179593563079834,-2.269601647053854
1708443518.7537403,-2.1415228843688965,-1.3336010885289689,-2.527017895375387,6.110335099488058,1.0179755687713623,-2.269667927418844
1708443518.7557673,-2.14153790473938,-1.33360110343013,-2.526989523564474,6.110265838890829,1.0179669857025146,-2.269623581563131
1708443518.757731,-2.141542434692383,-1.3336355996182938,-2.526977841054098,6.110367882042684,1.0179463624954224,-2.2696474234210413
1708443518.7597287,-2.14153790473938,-1.333602936272957,-2.527085606251852,6.1103505966956995,1.0179669857025146,-2.2696312109576624
1708443518.7617543,-2.1415836811065674,-1.333631084566452,-2.527026955281393,6.110298621445455,1.017987847328186,-2.2696312109576624
1708443518.7637281,-2.1415493488311768,-1.3336222779801865,-2.52702242532839,6.1102954027946375,1.0179269313812256,-2.269597832356588
1708443518.7657902,-2.1415963172912598,-1.3336311143687745,-2.526977841054098,6.11031054237441,1.0179474353790283,-2.26966363588442
1708443518.7677493,-2.141544818878174,-1.3336311143687745,-2.5270302931415003,6.110302912979879,1.0179312229156494,-2.2696965376483362
1708443518.7697644,-2.1415748596191406,-1.33365053058181,-2.527013365422384,6.110274541168966,1.0179388523101807,-2.2696550528155726
1708443518.7717834,-2.141526460647583,-1.3336221885732193,-2.526973311101095,6.1102943299110315,1.0179388523101807,-2.26966363588442
1708443518.7737544,-2.1415963172912598,-1.3336356294206162,-2.526977841054098,6.110338675766744,1.0179756879806519,-2.2696431318866175
1708443518.7757645,-2.1415793895721436,-1.3336520057967682,-2.526973311101095,6.1103106615837,1.0179345607757568,-2.2697013060199183
1708443518.7777333,-2.1415748596191406,-1.333684654240944,-2.526989523564474,6.110285627632894,1.0179712772369385,-2.269667927418844
1708443518.77974,-2.141591787338257,-1.33365053058181,-2.527090136204855,6.110371100693502,1.0179182291030884,-2.2696474234210413
1708443518.7817745,-2.141542434692383,-1.333610014324524,-2.526989523564474,6.110367882042684,1.0179593563079834,-2.2696593443499964
1708443518.7838094,-2.1415467262268066,-1.3336222630790253,-2.527060333882467,6.110384094506063,1.0179188251495361,-2.26963979402651
1708443518.7857656,-2.141587495803833,-1.3336399805596848,-2.527052942906515,6.1103505966956995,1.0179431438446045,-2.269667927418844
1708443518.787767,-2.141570568084717,-1.3336683076671143,-2.52702242532839,6.110354888230123,1.0179013013839722,-2.2696355024920862
1708443518.7897654,-2.14153790473938,-1.3336519759944458,-2.527052942906515,6.1102943299110315,1.0179519653320312,-2.26966363588442
1708443518.7917778,-2.1415793895721436,-1.3335731637528916,-2.5270841757403772,6.110354888230123,1.0179100036621094,-2.2696383635150355
1708443518.793824,-2.1415493488311768,-1.3336189550212403,-2.52698523203005,6.110343086510458,1.0179431438446045,-2.269656006489889
1708443518.7957997,-2.1415598392486572,-1.3336519759944458,-2.526994053517477,6.110306250839987,1.0179388523101807,-2.269651714955465
1708443518.797769,-2.1415793895721436,-1.3335984510234375,-2.527052942906515,6.110367882042684,1.0179799795150757,-2.2696965376483362
1708443518.799764,-2.14153790473938,-1.3336519759944458,-2.5270031134234827,6.110346185951986,1.0179550647735596,-2.2696965376483362
1708443518.8018131,-2.1415793895721436,-1.3336430352977295,-2.5269866625415247,6.110343086510458,1.0179756879806519,-2.269644085560934
1708443518.8037739,-2.14153790473938,-1.3336519759944458,-2.527085606251852,6.110338675766744,1.0179636478424072,-2.2696712652789515
1708443518.8057666,-2.141533374786377,-1.333638609652855,-2.527052942906515,6.110379802971639,1.0179100036621094,-2.269693199788229
1708443518.8077416,-2.141526460647583,-1.333638609652855,-2.5270031134234827,6.110367882042684,1.0179188251495361,-2.2696145216571253
1708443518.8097591,-2.141526699066162,-1.333693416123726,-2.527043883000509,6.11031054237441,1.0179550647735596,-2.269684139882223
1708443518.8117669,-2.141526460647583,-1.3336144399693985,-2.527013365422384,6.110265004425802,1.0179756879806519,-2.2696145216571253
1708443518.8137665,-2.141566038131714,-1.333610014324524,-2.526977841054098,6.110384094506063,1.0179845094680786,-2.2697013060199183
1708443518.815771,-2.1415493488311768,-1.3336638075164338,-2.5270031134234827,6.110334384232321,1.0179550647735596,-2.2696383635150355
1708443518.8177392,-2.1415963172912598,-1.333684654240944,-2.527039353047506,6.110334384232321,1.0179388523101807,-2.26966363588442
1708443518.8197272,-2.141509771347046,-1.3335896146348496,-2.527017895375387,6.11032651641921,1.0179057121276855,-2.2696312109576624
1708443518.821757,-2.1415491104125977,-1.3336430352977295,-2.5270782152758997,6.11032651641921,1.0179269313812256,-2.2696383635150355
1708443518.8237398,-2.1415538787841797,-1.3336638075164338,-2.52702242532839,6.110338675766744,1.0179100036621094,-2.2696965376483362
1708443518.825764,-2.141522169113159,-1.3336266887239,-2.5269866625415247,6.110379802971639,1.0179845094680786,-2.2696383635150355
1708443518.8277543,-2.141522169113159,-1.3336474609426041,-2.527069155369894,6.110396373062887,1.0179681777954102,-2.269656006489889
1708443518.8297687,-2.141571283340454,-1.3336549562266846,-2.5270360151873987,6.110330092697897,1.0179431438446045,-2.26967698732485
1708443518.83179,-2.1415581703186035,-1.3336474609426041,-2.5270422140704554,6.110353815346517,1.0179225206375122,-2.269651714955465
1708443518.8337693,-2.1416165828704834,-1.3336713028005143,-2.5270779768573206,6.110371100693502,1.0179388523101807,-2.2696431318866175
1708443518.8357677,-2.141587495803833,-1.333656297331192,-2.5270360151873987,6.110313522606649,1.0179269313812256,-2.269651714955465
1708443518.8377588,-2.141526460647583,-1.3336430352977295,-2.527026955281393,6.110313522606649,1.0179712772369385,-2.269679848347799
1708443518.8397598,-2.141533374786377,-1.333656297331192,-2.526989523564474,6.110346305161276,1.0179100036621094,-2.2696965376483362
1708443518.841808,-2.141542434692383,-1.3336144399693985,-2.527055803929464,6.1103625176246545,1.0179712772369385,-2.269667927418844
1708443518.843738,-2.141570568084717,-1.3336651486209412,-2.5270031134234827,6.110297548561849,1.0179057121276855,-2.269651714955465
1708443518.8457592,-2.1415836811065674,-1.3336638075164338,-2.526977841054098,6.1103625176246545,1.0179593563079834,-2.2696192900287073
1708443518.8477385,-2.141542434692383,-1.3336638075164338,-2.52702242532839,6.1103625176246545,1.0178937911987305,-2.2696312109576624
1708443518.8497384,-2.1415493488311768,-1.3336189550212403,-2.526989761983053,6.110399591713705,1.0179463624954224,-2.2696593443499964
1708443518.8517764,-2.141542434692383,-1.3336311143687745,-2.526989523564474,6.1103625176246545,1.0179431438446045,-2.2697251478778284
1708443518.8537593,-2.1415352821350098,-1.3336311143687745,-2.5270031134234827,6.1103625176246545,1.0179625749588013,-2.2696388403521937
1708443518.8557708,-2.1415748596191406,-1.3336266887239,-2.526989523564474,6.110399710922994,1.0179142951965332,-2.269717518483297
1708443518.8577592,-2.1415538787841797,-1.3336683076671143,-2.52698523203005,6.110374676972189,1.0179431438446045,-2.269679848347799
1708443518.8597512,-2.141542434692383,-1.3336474609426041,-2.5270348230945032,6.1103625176246545,1.0179344415664673,-2.269712750111715
1708443518.8617582,-2.1415741443634033,-1.3336668771556397,-2.52698523203005,6.110386597901144,1.0179550647735596,-2.2696922461139124
1708443518.8637404,-2.1416075229644775,-1.3336638075164338,-2.527026955281393,6.110353815346517,1.0179431438446045,-2.2696550528155726
1708443518.8657665,-2.141542434692383,-1.3336430203965683,-2.5270076433764856,6.11041151264266,1.0179225206375122,-2.269679848347799
1708443518.8677466,-2.141570568084717,-1.3336726439050217,-2.52702242532839,6.110414850502767,1.0179637670516968,-2.2696622053729456
1708443518.8697739,-2.1415176391601562,-1.3336638075164338,-2.5270121733294886,6.110462415009298,1.0179345607757568,-2.2696622053729456
1708443518.8717818,-2.141522169113159,-1.3336385947516938,-2.527052942906515,6.11044334152297,1.0179269313812256,-2.269679848347799
1708443518.8737462,-2.1415786743164062,-1.3336519759944458,-2.527017895375387,6.110466706543722,1.0179888010025024,-2.2696712652789515
1708443518.8757675,-2.1415493488311768,-1.3336519759944458,-2.5269702116595667,6.110425936966696,1.0179182291030884,-2.269679848347799
1708443518.8777509,-2.1415581703186035,-1.3336474609426041,-2.527052942906515,6.110462415009298,1.0179269313812256,-2.2696388403521937
1708443518.8797495,-2.1415624618530273,-1.3336519759944458,-2.527052942906515,6.11047791221694,1.0179269313812256,-2.2696922461139124
1708443518.8817534,-2.141544818878174,-1.3336222630790253,-2.5270076433764856,6.1104822037513635,1.0179357528686523,-2.269686524068014
1708443518.8837748,-2.14158296585083,-1.3336474609426041,-2.5270403067218226,6.110461699753561,1.0179474353790283,-2.269679371510641
1708443518.885769,-2.141570568084717,-1.3336399656585236,-2.5269866625415247,6.110485422402181,1.0179100036621094,-2.2697041670428675
1708443518.8877332,-2.1415963172912598,-1.333565668468811,-2.52698523203005,6.110494124680319,1.0179593563079834,-2.2697203795062464
1708443518.889744,-2.141542434692383,-1.3336222630790253,-2.526968781148092,6.1105432389076135,1.0179100036621094,-2.2696879545794886
1708443518.8917468,-2.1416120529174805,-1.3336519759944458,-2.5270031134234827,6.110449421196737,1.0179269313812256,-2.269657913838522
1708443518.8937998,-2.141542434692383,-1.3336683076671143,-2.52696139017214,6.11050962188796,1.0179506540298462,-2.2696459929095667
1708443518.8958435,-2.1416287422180176,-1.3336638075164338,-2.526994053517477,6.110530125885763,1.0179637670516968,-2.2697370688067835
1708443518.8977478,-2.1415624618530273,-1.3336189550212403,-2.5270031134234827,6.110547530442037,1.0179400444030762,-2.269723717366354
1708443518.899736,-2.1415538787841797,-1.3336366426995774,-2.5270403067218226,6.110526907234945,1.0179681777954102,-2.2697323004352015
1708443518.9017754,-2.1415741443634033,-1.3336189550212403,-2.527055803929464,6.110481011658468,1.017893671989441,-2.2697117964373987
1708443518.903763,-2.141587495803833,-1.3336430352977295,-2.5270360151873987,6.110513913422384,1.0179593563079834,-2.2697280089007776
1708443518.9057434,-2.1415836811065674,-1.333602936272957,-2.527039353047506,6.110530125885763,1.0179388523101807,-2.269761387501852
1708443518.9077518,-2.1415493488311768,-1.3336072725108643,-2.5270357767688196,6.110546338349142,1.0179269313812256,-2.269735638295309
1708443518.909748,-2.141570568084717,-1.333602936272957,-2.527073685322897,6.110464799195089,1.0179669857025146,-2.2697060743915003
1708443518.9117591,-2.1415581703186035,-1.333656297331192,-2.527069155369894,6.110533344536581,1.0179431438446045,-2.2697814146624964
1708443518.9137466,-2.1416163444519043,-1.3335865896991272,-2.5269866625415247,6.110550629883566,1.0179312229156494,-2.2697437445269983
1708443518.915738,-2.141566038131714,-1.3336189550212403,-2.5270031134234827,6.110550629883566,1.0179400444030762,-2.2697718779193323
1708443518.917757,-2.141598701477051,-1.3336341840079804,-2.526989523564474,6.110488760262289,1.0179226398468018,-2.2697394529925745
1708443518.919758,-2.141570568084717,-1.3335909259370347,-2.527052942906515,6.110545027046957,1.017918348312378,-2.269792381917135
1708443518.9217572,-2.1415538787841797,-1.333610014324524,-2.5270403067218226,6.1105865118797205,1.0179225206375122,-2.2697351614581507
1708443518.9237564,-2.14152455329895,-1.3336757284453888,-2.527043883000509,6.110553729325094,1.0179712772369385,-2.2698281447040003
1708443518.9257874,-2.141570568084717,-1.3336056035808106,-2.5270031134234827,6.110521542816915,1.0179636478424072,-2.2698124090777796
1708443518.9277828,-2.1415786743164062,-1.3336189550212403,-2.527085606251852,6.11061571815566,1.0179725885391235,-2.269799534474508
1708443518.9297426,-2.141611099243164,-1.3336519759944458,-2.5270448366748255,6.110590803414144,1.0179593563079834,-2.269815270100729
1708443518.9317515,-2.1415786743164062,-1.3336277169040223,-2.5270076433764856,6.110553729325094,1.0179474353790283,-2.2698081175433558
1708443518.9337661,-2.14158296585083,-1.3335984212211152,-2.527073685322897,6.110545027046957,1.0179269313812256,-2.2698195616351526
1708443518.9357922,-2.14158296585083,-1.3336189550212403,-2.527013365422384,6.1105702994163416,1.0179474353790283,-2.2698567549334925
1708443518.937746,-2.141636848449707,-1.3336311143687745,-2.5270405451404017,6.110562312393942,1.0179269313812256,-2.2698658148394983
1708443518.9398022,-2.141603469848633,-1.333602936272957,-2.527069155369894,6.110561597138204,1.0179507732391357,-2.2698362509356897
1708443518.941763,-2.1415741443634033,-1.333610014324524,-2.526994291936056,6.110565888672628,1.0179519653320312,-2.2698233763324183
1708443518.9437952,-2.141557216644287,-1.3336222630790253,-2.527013365422384,6.110548603325643,1.0178731679916382,-2.269885842000143
1708443518.945736,-2.1415538787841797,-1.3336474609426041,-2.527013365422384,6.110602843552389,1.0179637670516968,-2.269815270100729
1708443518.9477818,-2.141594409942627,-1.3335940104774018,-2.526994053517477,6.110577809601583,1.0179474353790283,-2.269831959401266
1708443518.9497566,-2.141570568084717,-1.333656297331192,-2.5270031134234827,6.110606300621786,1.0179593563079834,-2.2698362509356897
1708443518.9517534,-2.141603469848633,-1.3335490685752411,-2.527052942906515,6.110655057221212,1.0179593563079834,-2.2698186079608362
1708443518.953756,-2.141636848449707,-1.3336072725108643,-2.5270448366748255,6.1106018898780725,1.0179756879806519,-2.2698233763324183
1708443518.955779,-2.1416077613830566,-1.3336356294206162,-2.527017895375387,6.110606300621786,1.0179100036621094,-2.2698186079608362
1708443518.957758,-2.141587495803833,-1.3337013286403199,-2.526989523564474,6.110606300621786,1.0179474353790283,-2.269806210194723
1708443518.959746,-2.14154052734375,-1.333602936272957,-2.5270357767688196,6.110622513085165,1.0179269313812256,-2.269872490559713
1708443518.9617481,-2.14158296585083,-1.3336430352977295,-2.527039353047506,6.110626804619589,1.0179712772369385,-2.2698920408831995
1708443518.96378,-2.141557216644287,-1.3336144399693985,-2.5270512739764612,6.110613810807028,1.0179474353790283,-2.2698681990252894
1708443518.9657826,-2.1416192054748535,-1.3336399656585236,-2.527069155369894,6.110670196800985,1.0179431438446045,-2.2698600927936
1708443518.96775,-2.1415741443634033,-1.3335895848325272,-2.526989523564474,6.110689627915182,1.0179518461227417,-2.2698681990252894
1708443518.9697711,-2.141557455062866,-1.3336519759944458,-2.527072254811422,6.110624658852377,1.0179507732391357,-2.269892994557516
1708443518.971752,-2.141561508178711,-1.333638609652855,-2.52698523203005,6.1107061980064294,1.0179226398468018,-2.269913975392477
1708443518.9737523,-2.141587495803833,-1.3336801391891022,-2.527069393788473,6.110713708191671,1.0179142951965332,-2.26988393465151
1708443518.97575,-2.1416306495666504,-1.3336189550212403,-2.527052942906515,6.110668051033773,1.0178937911987305,-2.2698681990252894
1708443518.9777687,-2.14158296585083,-1.333602936272957,-2.5270031134234827,6.110741960793295,1.0179550647735596,-2.2698596159564417
1708443518.9797308,-2.1415786743164062,-1.3336311143687745,-2.52698523203005,6.110701906472006,1.0179100036621094,-2.2699416319476526
1708443518.981772,-2.141594409942627,-1.333610014324524,-2.5270360151873987,6.110725629120626,1.0179269313812256,-2.2699039618121546
1708443518.9837358,-2.14156174659729,-1.333610014324524,-2.5270031134234827,6.110754954605856,1.0179636478424072,-2.269931141530172
1708443518.9857683,-2.141566038131714,-1.3336801391891022,-2.5270403067218226,6.110750663071432,1.0179431438446045,-2.269977394734518
1708443518.987789,-2.141611099243164,-1.3336474609426041,-2.527085606251852,6.11070071437911,1.0179636478424072,-2.2699440161334437
1708443518.9897356,-2.1415786743164062,-1.333684654240944,-2.5270074049579065,6.110701906472006,1.0179799795150757,-2.2699344793902796
1708443518.9917667,-2.1416068077087402,-1.3336474609426041,-2.5270302931415003,6.110697495728292,1.0179755687713623,-2.269964043294088
1708443518.9937537,-2.1415979862213135,-1.3336011928370972,-2.52702242532839,6.110696303635397,1.0179388523101807,-2.2699673811541956
1708443518.9957604,-2.1416280269622803,-1.3336474758437653,-2.526989523564474,6.110693084984579,1.0179712772369385,-2.270013157521383
1708443518.997744,-2.1416149139404297,-1.3335865896991272,-2.527039353047506,6.110734450608053,1.0179636478424072,-2.269968334828512
1708443518.9997404,-2.1415317058563232,-1.3336606931737442,-2.526994053517477,6.110696422844686,1.0179799795150757,-2.269964043294088
1708443519.0017412,-2.14158296585083,-1.333602936272957,-2.5270031134234827,6.110721337586202,1.0179550647735596,-2.2699878851519983
1708443519.0037367,-2.1416032314300537,-1.3336189550212403,-2.527055803929464,6.110728847771444,1.0179357528686523,-2.269954029713766
1708443519.0057588,-2.1415698528289795,-1.3336056035808106,-2.527069155369894,6.1107051251228235,1.0179712772369385,-2.270054642354147
1708443519.007772,-2.141611099243164,-1.3336266887239,-2.5270467440234583,6.11072992065505,1.0179669857025146,-2.2699998060809534
1708443519.009726,-2.1416025161743164,-1.3336505007794877,-2.526984993611471,6.110693204193868,1.0179182291030884,-2.270019833241598
1708443519.011757,-2.141611099243164,-1.333656297331192,-2.5270360151873987,6.110703933029928,1.0179269313812256,-2.269970242177145
1708443519.0137372,-2.1415770053863525,-1.3336266887239,-2.5270348230945032,6.110741960793295,1.0179345607757568,-2.2700164953814905
1708443519.0157568,-2.1416025161743164,-1.3336311143687745,-2.5270031134234827,6.110725629120626,1.0179755687713623,-2.269999329243795
1708443519.0177624,-2.1416068077087402,-1.3336549562266846,-2.527060333882467,6.110680210381307,1.0179463624954224,-2.2699955145465296
1708443519.0197577,-2.1415786743164062,-1.3336968135884781,-2.526989523564474,6.110754120140829,1.0179550647735596,-2.2700374762164515
1708443519.0217795,-2.14156174659729,-1.3336505156806489,-2.526989523564474,6.110737550049581,1.0179431438446045,-2.2700656096087855
1708443519.0237389,-2.141639471054077,-1.3336770695498963,-2.5270260016070765,6.110749828606405,1.0179835557937622,-2.2700446287738245
1708443519.025764,-2.1416234970092773,-1.3335895848325272,-2.527073685322897,6.1107008335884,1.0179388523101807,-2.270007912312643
1708443519.027778,-2.141655206680298,-1.333638609652855,-2.526994053517477,6.110692012100973,1.017930030822754,-2.2700327078448694
1708443519.0297363,-2.1416306495666504,-1.3336430352977295,-2.527052942906515,6.110646354943075,1.0179388523101807,-2.270019833241598
1708443519.0317557,-2.141634941101074,-1.3336549562266846,-2.527039353047506,6.110762822418966,1.0179431438446045,-2.270015541707174
1708443519.0337727,-2.141611099243164,-1.333638609652855,-2.5270512739764612,6.110745417862692,1.0179593563079834,-2.270019833241598
1708443519.03577,-2.141672134399414,-1.3337176752141495,-2.526980702077047,6.110771643906393,1.0179550647735596,-2.270019833241598
1708443519.0377908,-2.1415979862213135,-1.3336311143687745,-2.527072254811422,6.110745417862692,1.0179506540298462,-2.2700122038470667
1708443519.0399592,-2.1415979862213135,-1.33365053058181,-2.527052942906515,6.110761630326071,1.0179463624954224,-2.2701013723956507
1708443519.0417655,-2.141590118408203,-1.3336144399693985,-2.527055803929464,6.11072992065505,1.0179431438446045,-2.270059887562887
1708443519.04374,-2.1416587829589844,-1.3335984212211152,-2.52702242532839,6.110749828606405,1.0179669857025146,-2.2700565497027796
1708443519.0457525,-2.1416263580322266,-1.3336144399693985,-2.527017895375387,6.110789882927694,1.0179388523101807,-2.270047966633932
1708443519.047811,-2.1415770053863525,-1.3336189550212403,-2.5269761721240442,6.110758411675253,1.0179388523101807,-2.270047966633932
1708443519.0497413,-2.1416149139404297,-1.3336519759944458,-2.527008835469381,6.110720264702596,1.0179669857025146,-2.2700393835650843
1708443519.0518103,-2.1416420936584473,-1.3336519759944458,-2.527026955281393,6.110728847771444,1.0179669857025146,-2.2700684706317347
1708443519.0537825,-2.141650915145874,-1.3336144250682374,-2.5270512739764612,6.110758411675253,1.0179669857025146,-2.270080868397848
1708443519.0557818,-2.1416234970092773,-1.3336593967727204,-2.527017895375387,6.110769259720602,1.017930030822754,-2.270089928303854
1708443519.057785,-2.1416263580322266,-1.3336549562266846,-2.526984993611471,6.110782253533163,1.0179345607757568,-2.2700679937945765
1708443519.059751,-2.1416800022125244,-1.3336683076671143,-2.527052942906515,6.110789882927694,1.0179835557937622,-2.270080868397848
1708443519.0617876,-2.141671895980835,-1.3336356294206162,-2.526984993611471,6.110794174462118,1.0179345607757568,-2.270109001790182
1708443519.0637486,-2.1415812969207764,-1.3336923879436036,-2.527069393788473,6.110728847771444,1.0179625749588013,-2.270027462636129
1708443519.0657728,-2.141606092453003,-1.333610014324524,-2.526989523564474,6.11076174953536,1.0179507732391357,-2.270088020955221
1708443519.067768,-2.141646385192871,-1.3336835664561768,-2.52702242532839,6.110761630326071,1.0179799795150757,-2.270076576863424
1708443519.0697389,-2.1417126655578613,-1.3336430352977295,-2.527072016392843,6.110687720566549,1.0179182291030884,-2.2700722853290003
1708443519.071763,-2.141700267791748,-1.3336100739291687,-2.52698523203005,6.1107486365135095,1.0179507732391357,-2.2700722853290003
1708443519.0737672,-2.1416587829589844,-1.3336474609426041,-2.52702242532839,6.110782372742452,1.0179507732391357,-2.270080868397848
1708443519.0766697,-2.1416757106781006,-1.3336713028005143,-2.527043883000509,6.110720145493307,1.0179997682571411,-2.2700918356524866
1708443519.077758,-2.141634941101074,-1.333690957432129,-2.5270348230945032,6.1107367155845544,1.017974853515625,-2.270113770161764
1708443519.079768,-2.1416871547698975,-1.3336011332324524,-2.5270512739764612,6.110766041069784,1.0179463624954224,-2.2700679937945765
1708443519.0817845,-2.141645669937134,-1.3336968135884781,-2.52706748643984,6.110736834793844,1.0180206298828125,-2.270088020955221
1708443519.0837762,-2.1416714191436768,-1.333613396888115,-2.5270422140704554,6.11080168464736,1.0179835557937622,-2.2700722853290003
1708443519.0857894,-2.1416544914245605,-1.3336430352977295,-2.5270467440234583,6.110712754517355,1.0179582834243774,-2.2700722853290003
1708443519.0877638,-2.141645669937134,-1.333601177935936,-2.5270751158343714,6.110769259720602,1.0179625749588013,-2.270088020955221
1708443519.0897422,-2.1416501998901367,-1.3336356294206162,-2.527052704487936,6.110723840981283,1.017987847328186,-2.2701123396502894
1708443519.0917606,-2.141641139984131,-1.3336222630790253,-2.526964251195089,6.11075638511733,1.0179835557937622,-2.2700513044940394
1708443519.0937867,-2.141666889190674,-1.3336713028005143,-2.5270467440234583,6.110822307854452,1.0179712772369385,-2.2700422445880335
1708443519.0958204,-2.1416335105895996,-1.333634228711464,-2.5270348230945032,6.110809314041891,1.0179625749588013,-2.270083729420797
1708443519.0977955,-2.1416871547698975,-1.3336519312909623,-2.5270348230945032,6.110760557442465,1.018004059791565,-2.270092312489645
1708443519.0997546,-2.1416916847229004,-1.3336311143687745,-2.527026955281393,6.110740053444662,1.017987847328186,-2.2700794378863733
1708443519.101801,-2.1416544914245605,-1.3336668771556397,-2.5270796457873743,6.1107637760932825,1.0179582834243774,-2.2700918356524866
1708443519.1037633,-2.1416995525360107,-1.3336430352977295,-2.527039353047506,6.110760557442465,1.0179791450500488,-2.270109001790182
1708443519.1057758,-2.1416544914245605,-1.3336341840079804,-2.527039353047506,6.11077247837142,1.0179997682571411,-2.2700679937945765
1708443519.107759,-2.1416757106781006,-1.3336474609426041,-2.527092997227804,6.110820400505819,1.0179345607757568,-2.270121399556295
1708443519.1097832,-2.1416711807250977,-1.3336222630790253,-2.527013365422384,6.11085735538558,1.0179755687713623,-2.270088020955221
1708443519.111779,-2.1416287422180176,-1.3336801391891022,-2.5270422140704554,6.1108659384544275,1.0179625749588013,-2.2700637022601526
1708443519.1137607,-2.141662359237671,-1.333638609652855,-2.5270677248584192,6.110845434456625,1.0179582834243774,-2.270104710255758
1708443519.1158202,-2.141658067703247,-1.3337056648782273,-2.526984993611471,6.1108248112495325,1.0179835557937622,-2.270099465047018
1708443519.11778,-2.1417479515075684,-1.3336835515550156,-2.527026955281393,6.110845315247335,1.0179669857025146,-2.2700637022601526
1708443519.1197507,-2.1417040824890137,-1.33362232268367,-2.527069393788473,6.110872852593221,1.0179835557937622,-2.2700751463519495
1708443519.121771,-2.141695022583008,-1.3336430352977295,-2.527013365422384,6.110839950829305,1.0179625749588013,-2.270059410725729
1708443519.123763,-2.141711950302124,-1.3336593818715592,-2.5270302931415003,6.110807525902548,1.0179681777954102,-2.270104710255758
1708443519.1257946,-2.141613006591797,-1.3336713028005143,-2.527055803929464,6.110835659294882,1.0180206298828125,-2.2700751463519495
1708443519.1277897,-2.141674041748047,-1.3336296391538163,-2.527043883000509,6.110844242363729,1.018004059791565,-2.270115677510397
1708443519.1298318,-2.141674041748047,-1.3336549562266846,-2.5270302931415003,6.1109540341194055,1.0179463624954224,-2.2700708548175257
1708443519.1318,-2.141641139984131,-1.3336430352977295,-2.5270305315600794,6.110913622170248,1.017974853515625,-2.2701004187213343
1708443519.1337807,-2.1417031288146973,-1.333638609652855,-2.52702242532839,6.110868441849508,1.0179625749588013,-2.2700961271869105
1708443519.1357806,-2.141669511795044,-1.3336549264243622,-2.5270467440234583,6.110839950829305,1.0179463624954224,-2.2701523939715784
1708443519.1377802,-2.141674041748047,-1.3336638075164338,-2.5270302931415003,6.110872733383932,1.0179345607757568,-2.2701409498797815
1708443519.1397562,-2.141690731048584,-1.3336757284453888,-2.527039353047506,6.110900628357687,1.018004059791565,-2.270088020955221
1708443519.1417747,-2.1417031288146973,-1.333601177935936,-2.526980702077047,6.1108929989631555,1.0179345607757568,-2.270132843648092
1708443519.1437633,-2.141730308532715,-1.3336549562266846,-2.5270257631884974,6.110897409706869,1.0180119276046753,-2.2700794378863733
1708443519.1457727,-2.1416819095611572,-1.3336835515550156,-2.526968781148092,6.110864150315084,1.0180084705352783,-2.2700708548175257
1708443519.1477585,-2.1416988372802734,-1.33365053058181,-2.527076784764425,6.1108529446418665,1.0179582834243774,-2.2701285521136683
1708443519.1497815,-2.1416776180267334,-1.33367574334655,-2.5270631949054163,6.110925423889913,1.0179550647735596,-2.2701366583453577
1708443519.1517463,-2.141711950302124,-1.333662362103798,-2.527039353047506,6.110847580223837,1.0179625749588013,-2.2700918356524866
1708443519.1537652,-2.1417391300201416,-1.3336296838572999,-2.5270631949054163,6.110921251564779,1.017991065979004,-2.270083252583639
1708443519.1557674,-2.141721725463867,-1.3336668771556397,-2.527013603840963,6.110929119377889,1.0179625749588013,-2.270087544118063
1708443519.1577423,-2.1416733264923096,-1.3336430501988907,-2.52710205713381,6.110933410912313,1.0179712772369385,-2.270087544118063
1708443519.1597738,-2.1416687965393066,-1.3337219965508957,-2.5270677248584192,6.110900628357687,1.017974853515625,-2.2701037565814417
1708443519.1617513,-2.141747236251831,-1.3336430352977295,-2.5270348230945032,6.110916125565328,1.017974853515625,-2.270111385975973
1708443519.163755,-2.1417384147644043,-1.3336099994233628,-2.5270348230945032,6.110916840821066,1.0180076360702515,-2.2701080481158655
1708443519.165798,-2.141726016998291,-1.3336713177016755,-2.527060333882467,6.110927927284994,1.0179997682571411,-2.270087544118063
1708443519.1677818,-2.141742706298828,-1.3337087345174332,-2.5270467440234583,6.110940921097555,1.0179997682571411,-2.270078484212057
1708443519.1697557,-2.141779899597168,-1.3336474758437653,-2.5270467440234583,6.110907304077902,1.017974853515625,-2.2701500097857874
1708443519.1717665,-2.1417667865753174,-1.3336835515550156,-2.527072016392843,6.110969412117758,1.0179704427719116,-2.2701242605792444
1708443519.1737623,-2.1417014598846436,-1.3336549562266846,-2.527055803929464,6.111001956253805,1.0179669857025146,-2.2700751463519495
1708443519.1757543,-2.1417295932769775,-1.3336430352977295,-2.527069155369894,6.110972630768575,1.017974853515625,-2.2701409498797815
1708443519.1777906,-2.1417622566223145,-1.3336623472026368,-2.527026955281393,6.111021387368002,1.0179791450500488,-2.270102326069967
1708443519.1797543,-2.1417462825775146,-1.3336460155299683,-2.5270305315600794,6.110968339234152,1.0179835557937622,-2.270055119191305
1708443519.1817696,-2.1417622566223145,-1.3337087792209168,-2.5270512739764612,6.111021387368002,1.018004059791565,-2.2701080481158655
1708443519.183784,-2.141775608062744,-1.3336623472026368,-2.5270677248584192,6.111004817276754,1.0179669857025146,-2.2701037565814417
1708443519.1857576,-2.141771078109741,-1.3336668771556397,-2.527017895375387,6.111012804299154,1.0179835557937622,-2.2701285521136683
1708443519.1877434,-2.1417462825775146,-1.3336296391538163,-2.527083937321798,6.110975968628683,1.0179420709609985,-2.270083252583639
1708443519.1897597,-2.1417551040649414,-1.3336713028005143,-2.527076784764425,6.111081349640646,1.017953872680664,-2.2701409498797815
1708443519.1917596,-2.141741991043091,-1.3336505603841324,-2.527043883000509,6.111107337265768,1.0179997682571411,-2.270083252583639
1708443519.1937737,-2.1417579650878906,-1.333702878361084,-2.527043883000509,6.110975849419393,1.0179669857025146,-2.270083252583639
1708443519.195796,-2.1417622566223145,-1.3336296838572999,-2.527026955281393,6.11102460601882,1.0179463624954224,-2.270137135182516
1708443519.1978,-2.1417622566223145,-1.3336430352977295,-2.526994291936056,6.111012923508444,1.0179712772369385,-2.2701366583453577
1708443519.199756,-2.1417462825775146,-1.3337117296508332,-2.527088467274801,6.1109962342079065,1.0179835557937622,-2.2700708548175257
1708443519.201785,-2.14174485206604,-1.3336879771998902,-2.527060333882467,6.111032235413351,1.0180076360702515,-2.2700708548175257
1708443519.203761,-2.1417579650878906,-1.3336790365031739,-2.526989523564474,6.111008393555441,1.0179953575134277,-2.2700751463519495
1708443519.20578,-2.1417579650878906,-1.3336713028005143,-2.526989523564474,6.111020314484396,1.0180041790008545,-2.2701080481158655
1708443519.2077465,-2.1417746543884277,-1.3336296391538163,-2.527017895375387,6.111040937691488,1.018003225326538,-2.2701123396502894
1708443519.2097473,-2.1417622566223145,-1.3336879921010514,-2.5270031134234827,6.111036526947775,1.0179755687713623,-2.270087544118063
1708443519.2117639,-2.1417834758758545,-1.3336879771998902,-2.526968781148092,6.111033189087667,1.0179997682571411,-2.2701409498797815
1708443519.2137692,-2.1417789459228516,-1.333622307782509,-2.527073685322897,6.111023413925924,1.0180076360702515,-2.2701366583453577
1708443519.2157772,-2.141798496246338,-1.33365053058181,-2.526989523564474,6.1110116122062585,1.0179669857025146,-2.2701037565814417
1708443519.217756,-2.1417746543884277,-1.3336549562266846,-2.527026955281393,6.111097442894735,1.0179669857025146,-2.2701080481158655
1708443519.2197716,-2.1418230533599854,-1.3336415600827713,-2.5269761721240442,6.111069309502401,1.018003225326538,-2.2701004187213343
1708443519.2217808,-2.1417958736419678,-1.3336371344378968,-2.5270512739764612,6.111020314484396,1.0179507732391357,-2.270115677510397
1708443519.2237628,-2.141787052154541,-1.3337132197669526,-2.527026955281393,6.111057150154867,1.0179582834243774,-2.2701409498797815
1708443519.2257845,-2.141791343688965,-1.3336790365031739,-2.527085606251852,6.11104844787673,1.0179582834243774,-2.2701037565814417
1708443519.2277658,-2.1417746543884277,-1.333701269035675,-2.527060333882467,6.111020195275106,1.0179953575134277,-2.2701080481158655
1708443519.2297928,-2.1418073177337646,-1.3336746108582993,-2.527055803929464,6.110994326859274,1.0179669857025146,-2.270115677510397
1708443519.2317889,-2.1417958736419678,-1.333690957432129,-2.527072254811422,6.1110737202461145,1.0179791450500488,-2.270057503377096
1708443519.233809,-2.141761541366577,-1.3336879921010514,-2.527017895375387,6.110971677094259,1.0180119276046753,-2.2701242605792444
1708443519.2358057,-2.141787052154541,-1.3336713028005143,-2.527055803929464,6.110974538117208,1.0180119276046753,-2.270116631184713
1708443519.2377548,-2.1418142318725586,-1.3336519759944458,-2.5270677248584192,6.111097562104025,1.0179507732391357,-2.2701037565814417
1708443519.2397573,-2.1418187618255615,-1.333622307782509,-2.527060333882467,6.111081230431356,1.0179582834243774,-2.270116631184713
1708443519.241778,-2.1418187618255615,-1.3336790365031739,-2.52702242532839,6.111052739411154,1.017974853515625,-2.270095173512594
1708443519.2437642,-2.1418187618255615,-1.3336835515550156,-2.527072016392843,6.11104844787673,1.0179712772369385,-2.2701523939715784
1708443519.245771,-2.1418027877807617,-1.3336460006288071,-2.5270512739764612,6.110999810486593,1.0179625749588013,-2.2701123396502894
1708443519.2477486,-2.141798496246338,-1.3336296838572999,-2.527076784764425,6.111007201462545,1.0179550647735596,-2.2700961271869105
1708443519.249744,-2.1418027877807617,-1.3336879771998902,-2.526952330266134,6.111027943878927,1.0179953575134277,-2.2701452414142054
1708443519.25177,-2.1418073177337646,-1.3337251406959076,-2.527060333882467,6.111052858620443,1.0179463624954224,-2.2701242605792444
1708443519.2537618,-2.1417782306671143,-1.3336579215577622,-2.527052942906515,6.111069309502401,1.0179712772369385,-2.270115677510397
1708443519.2557943,-2.1418099403381348,-1.3337207001498719,-2.527043883000509,6.111052739411154,1.017974853515625,-2.2700918356524866
1708443519.2577782,-2.1418635845184326,-1.3336879921010514,-2.527085606251852,6.110999810486593,1.0179712772369385,-2.2700918356524866
1708443519.2597523,-2.141847848892212,-1.3336790365031739,-2.5270467440234583,6.111036646157064,1.0179669857025146,-2.2701242605792444
1708443519.2617898,-2.1418099403381348,-1.3336579215577622,-2.527043883000509,6.111036646157064,1.0179791450500488,-2.2701366583453577
1708443519.2637722,-2.1418347358703613,-1.3336998981288453,-2.5270617643939417,6.111032235413351,1.0179791450500488,-2.2701285521136683
1708443519.2657883,-2.1418347358703613,-1.3336801838925858,-2.52702242532839,6.111073601036825,1.0179420709609985,-2.2701080481158655
1708443519.2677534,-2.1417739391326904,-1.3336430352977295,-2.5270305315600794,6.111052858620443,1.0179550647735596,-2.270087544118063
1708443519.2697952,-2.141805648803711,-1.3336757284453888,-2.527055803929464,6.11108015754775,1.0179431438446045,-2.270132366810934
1708443519.2718103,-2.141822338104248,-1.3337073189071198,-2.527026955281393,6.11106156089858,1.0179625749588013,-2.270087544118063
1708443519.2737548,-2.141801357269287,-1.3336701852134247,-2.526970450078146,6.111048567086019,1.0179582834243774,-2.270109001790182
1708443519.2757668,-2.1417739391326904,-1.3336430352977295,-2.526989523564474,6.11105631568984,1.0179756879806519,-2.2700708548175257
1708443519.2777407,-2.141880512237549,-1.3336594116738816,-2.5270677248584192,6.111023533135214,1.0179550647735596,-2.2701285521136683
1708443519.2797525,-2.141855001449585,-1.3336534810117264,-2.52702242532839,6.110977995186605,1.0179388523101807,-2.2701123396502894
1708443519.2817798,-2.1418099403381348,-1.333702878361084,-2.52698523203005,6.11101924160079,1.0179921388626099,-2.270116631184713
1708443519.2837546,-2.141826629638672,-1.3336820912412186,-2.5270360151873987,6.111032235413351,1.0179964303970337,-2.2701080481158655
1708443519.2857993,-2.1417922973632812,-1.3336549562266846,-2.527057472859518,6.111088740616598,1.0179712772369385,-2.270141903554098
1708443519.2877545,-2.1418099403381348,-1.3336713177016755,-2.527039353047506,6.111069428711691,1.0179345607757568,-2.270120922719137
1708443519.2897608,-2.141847848892212,-1.333604411487915,-2.527069393788473,6.111014950066366,1.0179799795150757,-2.2700708548175257
1708443519.2917912,-2.1417853832244873,-1.3337533485940476,-2.527026955281393,6.111024725228109,1.017987847328186,-2.2700918356524866
1708443519.293769,-2.1417853832244873,-1.333674595957138,-2.526973072682516,6.11108564117507,1.0179550647735596,-2.2700794378863733
1708443519.295817,-2.141822338104248,-1.3336953979781647,-2.527052942906515,6.11101924160079,1.017918348312378,-2.2700427214251917
1708443519.297802,-2.141839027404785,-1.3336953979781647,-2.527073923741476,6.111052858620443,1.0179755687713623,-2.2701004187213343
1708443519.2997613,-2.141822338104248,-1.3336505156806489,-2.5270031134234827,6.1110397455985925,1.017918348312378,-2.270092312489645
1708443519.3017783,-2.1418304443359375,-1.3336790365031739,-2.5270031134234827,6.111076938896932,1.0179431438446045,-2.270059410725729
1708443519.3037984,-2.141876220703125,-1.3336505156806489,-2.5270572344409388,6.111051904946127,1.0179269313812256,-2.270050350819723
1708443519.3057818,-2.1418135166168213,-1.3336968582919617,-2.5270360151873987,6.1110267517860315,1.0179625749588013,-2.270137135182516
1708443519.307791,-2.141855001449585,-1.3336178076318284,-2.5270348230945032,6.11108552196578,1.0179669857025146,-2.2700794378863733
1708443519.3097494,-2.141839027404785,-1.3336999130300065,-2.526980463658468,6.111068236618795,1.0179431438446045,-2.270083729420797
1708443519.3117812,-2.1418347358703613,-1.3336371344378968,-2.526973072682516,6.111032235413351,1.0179550647735596,-2.270083729420797
1708443519.3137662,-2.141850471496582,-1.3336790365031739,-2.526989523564474,6.110999810486593,1.0179269313812256,-2.270055596028463
1708443519.3157883,-2.141855001449585,-1.3336879921010514,-2.527017895375387,6.111063825875082,1.0179474353790283,-2.2700794378863733
1708443519.3177493,-2.141871929168701,-1.3336924326470871,-2.527052942906515,6.111089932709493,1.017984390258789,-2.270092312489645
1708443519.3197353,-2.141818046569824,-1.3336701554111023,-2.5270031134234827,6.111068236618795,1.0179798603057861,-2.2700679937945765
1708443519.3217669,-2.1418135166168213,-1.3336579364589234,-2.527026955281393,6.1110397455985925,1.0179269313812256,-2.270088020955221
1708443519.3237593,-2.1418259143829346,-1.3336623472026368,-2.526994053517477,6.1110607264335535,1.0179388523101807,-2.2700470129596155
1708443519.3257947,-2.1418347358703613,-1.3337132197669526,-2.526994053517477,6.111007320671835,1.017910122871399,-2.2700722853290003
1708443519.327778,-2.141822338104248,-1.3336835664561768,-2.5270031134234827,6.111016022949972,1.0178980827331543,-2.270083729420797
1708443519.3297696,-2.1418347358703613,-1.3336701703122635,-2.526989523564474,6.1110607264335535,1.0179431438446045,-2.270059887562887
1708443519.331756,-2.1418089866638184,-1.3337281060269852,-2.5270076433764856,6.111093151360311,1.0179474353790283,-2.270059410725729
1708443519.3337548,-2.141818046569824,-1.3336701703122635,-2.527069155369894,6.111072528153219,1.0179388523101807,-2.2700966040240687
1708443519.3357844,-2.1418585777282715,-1.3337073189071198,-2.527085844670431,6.111047732620992,1.0179431438446045,-2.2700064818011683
1708443519.337752,-2.141876220703125,-1.3336579215577622,-2.527013365422384,6.111052739411154,1.0179356336593628,-2.270064179097311
1708443519.3397498,-2.1418304443359375,-1.3336953979781647,-2.526989523564474,6.111011731415548,1.0179388523101807,-2.2700393835650843
1708443519.3417711,-2.1417808532714844,-1.333737002020218,-2.5269702116595667,6.111069428711691,1.0179388523101807,-2.270055596028463
1708443519.3437483,-2.1418135166168213,-1.3336623472026368,-2.526994053517477,6.111044156342306,1.0179474353790283,-2.2700403372394007
1708443519.345768,-2.141859292984009,-1.3336790365031739,-2.5270031134234827,6.11105631568984,1.0179026126861572,-2.270003620778219
1708443519.34781,-2.141839027404785,-1.3336865168860932,-2.526977841054098,6.111065017967977,1.0179593563079834,-2.270024124776022
1708443519.349753,-2.141850471496582,-1.3336623472026368,-2.5270031134234827,6.111035454064169,1.0179431438446045,-2.2700369993792933
1708443519.351785,-2.1418304443359375,-1.3337162745049973,-2.526994053517477,6.111089932709493,1.0179474353790283,-2.269975010548727
1708443519.3537803,-2.141846179962158,-1.3336549562266846,-2.5270031134234827,6.111007320671835,1.0179681777954102,-2.269975010548727
1708443519.3557572,-2.141818046569824,-1.3336668771556397,-2.527069393788473,6.111073601036825,1.0179269313812256,-2.270034138356344
1708443519.3578,-2.1418089866638184,-1.3337207001498719,-2.527057472859518,6.110954153328695,1.0179312229156494,-2.270034138356344
1708443519.3597753,-2.1418304443359375,-1.3336998683265229,-2.5269866625415247,6.110986697464742,1.0179636478424072,-2.2700369993792933
1708443519.3617506,-2.1418392658233643,-1.3337370616248627,-2.527057472859518,6.11099539974288,1.0179519653320312,-2.2699793020831507
1708443519.3637445,-2.1418259143829346,-1.3336579215577622,-2.5270121733294886,6.111035454064169,1.0179357528686523,-2.2699769178973597
1708443519.3657424,-2.1418135166168213,-1.3336668771556397,-2.52702242532839,6.111027943878927,1.0179188251495361,-2.269996468220846
1708443519.3677397,-2.1418135166168213,-1.3336460006288071,-2.5269370714770716,6.11105631568984,1.0179550647735596,-2.269968334828512
1708443519.369777,-2.141846179962158,-1.333663822417595,-2.527062002812521,6.111004102021017,1.0179431438446045,-2.2699392477618616
1708443519.3717685,-2.141805648803711,-1.3336879921010514,-2.5270405451404017,6.11099539974288,1.0179519653320312,-2.269946877156393
1708443519.3737714,-2.141818046569824,-1.333690957432129,-2.527057472859518,6.11105631568984,1.0179100036621094,-2.269984547291891
1708443519.3757567,-2.1418585777282715,-1.3336790365031739,-2.5269911924945276,6.111044156342306,1.0179100036621094,-2.2699597517596644
1708443519.3777392,-2.1418259143829346,-1.3336623323014756,-2.5270360151873987,6.1109832403953455,1.0179400444030762,-2.2699478308307093
1708443519.3797455,-2.1418347358703613,-1.333663822417595,-2.5269625822650355,6.111020314484396,1.0179400444030762,-2.269931141530172
1708443519.381748,-2.141805648803711,-1.3336712580970307,-2.526994053517477,6.111027943878927,1.0178937911987305,-2.270012680684225
1708443519.383772,-2.1418673992156982,-1.3336879921010514,-2.527026955281393,6.111036646157064,1.0179182291030884,-2.269996468220846
1708443519.3857837,-2.1418673992156982,-1.3336924326470871,-2.527057472859518,6.111004102021017,1.0179474353790283,-2.269968334828512
1708443519.3877406,-2.141850471496582,-1.33373116076503,-2.5269957224475306,6.1110408184821985,1.0179519653320312,-2.2699716726886194
1708443519.3897505,-2.1418673992156982,-1.3336623770049592,-2.527043883000509,6.111024725228109,1.0179182291030884,-2.269993607197897
1708443519.391741,-2.1418135166168213,-1.3336879921010514,-2.526956860219137,6.111008393555441,1.0179431438446045,-2.2699154059039515
1708443519.393743,-2.141818046569824,-1.3337250661901017,-2.5269747416125696,6.111029016762533,1.0178937911987305,-2.269964043294088
1708443519.3957567,-2.1418709754943848,-1.3336701703122635,-2.526984993611471,6.111016976624288,1.0179357528686523,-2.2699888388263147
1708443519.397768,-2.141850471496582,-1.3336505156806489,-2.526935402547018,6.110975968628683,1.0179312229156494,-2.270005528126852
1708443519.39975,-2.1418135166168213,-1.3336968582919617,-2.527043883000509,6.111020314484396,1.0178744792938232,-2.2699888388263147
1708443519.401758,-2.1418259143829346,-1.3336460006288071,-2.526968542729513,6.110990988999166,1.0179269313812256,-2.2699220816241663
1708443519.4037824,-2.141796827316284,-1.333702878361084,-2.526935402547018,6.110959756165304,1.0179269313812256,-2.269956413899557
1708443519.4057748,-2.1418099403381348,-1.33369234324012,-2.5269747416125696,6.11106156089858,1.0179519653320312,-2.269935433064596
1708443519.4077382,-2.1417853832244873,-1.3336865168860932,-2.5270031134234827,6.111082303314962,1.0179400444030762,-2.269956413899557
1708443519.4097557,-2.141839027404785,-1.333671287899353,-2.5270031134234827,6.1110408184821985,1.0179026126861572,-2.2699597517596644
1708443519.4117556,-2.141876220703125,-1.3336713028005143,-2.526994053517477,6.111012804299154,1.0179142951965332,-2.269935433064596
1708443519.4137423,-2.1418135166168213,-1.3336953979781647,-2.52702242532839,6.1109962342079065,1.0178894996643066,-2.2699154059039515
1708443519.4157548,-2.1417651176452637,-1.333641604786255,-2.527055803929464,6.1109845516975305,1.017956256866455,-2.269911591206686
1708443519.4177523,-2.141850471496582,-1.3336746108582993,-2.5270360151873987,6.1109715578849695,1.0179100036621094,-2.2699597517596644
1708443519.419764,-2.141843557357788,-1.333702878361084,-2.5269866625415247,6.110987531929769,1.017906904220581,-2.2699573675738733
1708443519.421762,-2.1417527198791504,-1.3336834919503708,-2.526994053517477,6.111004817276754,1.017906904220581,-2.2699154059039515
1708443519.4237714,-2.141855001449585,-1.3336668473533173,-2.527057472859518,6.110991823464193,1.0179519653320312,-2.26993972459902
1708443519.4257822,-2.141818046569824,-1.3336865317872544,-2.5270031134234827,6.111000406533041,1.017906904220581,-2.269952122365133
1708443519.4277883,-2.1418259143829346,-1.3337028634599228,-2.527076784764425,6.110987531929769,1.0179312229156494,-2.269895378743307
1708443519.4297671,-2.141871929168701,-1.333679051404335,-2.527039353047506,6.110967266350546,1.0178906917572021,-2.26993972459902
1708443519.4317646,-2.141822338104248,-1.333699883227684,-2.527026955281393,6.111021387368002,1.0179431438446045,-2.2699525992022913
1708443519.4337678,-2.141796827316284,-1.3336880070022126,-2.5270031134234827,6.110975849419393,1.01789391040802,-2.269928280507223
1708443519.43576,-2.141794204711914,-1.333662362103798,-2.5270031134234827,6.110952007561483,1.0178982019424438,-2.2699196974383753
1708443519.4377725,-2.141855001449585,-1.3336578917554398,-2.5269702116595667,6.110988843231954,1.0179400444030762,-2.2699154059039515
1708443519.4397426,-2.141855001449585,-1.3337116700461884,-2.527072254811422,6.111021387368002,1.0179144144058228,-2.2699649969684046
1708443519.4417489,-2.141826629638672,-1.3337147694877167,-2.527026955281393,6.111034381180563,1.0179100036621094,-2.2699478308307093
1708443519.4437525,-2.1418099403381348,-1.3337162149003525,-2.5270348230945032,6.110972630768575,1.0179026126861572,-2.2699902693377894
1708443519.4457538,-2.141796827316284,-1.3336701852134247,-2.526977602635519,6.110939848213949,1.0179100036621094,-2.2699483076678675
1708443519.4477751,-2.141839027404785,-1.3336252135089417,-2.526994053517477,6.110965120583334,1.0179357528686523,-2.2698996702777308
1708443519.4497495,-2.141805648803711,-1.3336341840079804,-2.527052942906515,6.11096070983962,1.017956256866455,-2.26993972459902
1708443519.4517689,-2.1417782306671143,-1.3336790365031739,-2.5270031134234827,6.110973822861471,1.0179026126861572,-2.2699368635760706
1708443519.4537556,-2.141794204711914,-1.3336746257594605,-2.527043883000509,6.110924708634176,1.0179274082183838,-2.269903008137838
1708443519.4557514,-2.1418142318725586,-1.333662362103798,-2.526984993611471,6.110916125565328,1.0179188251495361,-2.2699692885028284
1708443519.4577858,-2.1417527198791504,-1.3336623770049592,-2.527052942906515,6.11089180687026,1.0179188251495361,-2.2699158827411097
1708443519.4597335,-2.141826629638672,-1.3336490851691742,-2.526973072682516,6.110872852593221,1.0179269313812256,-2.2698877493487757
1708443519.4617527,-2.141826629638672,-1.333690957432129,-2.5270076433764856,6.110877024918356,1.0179400444030762,-2.2699201742755335
1708443519.4637747,-2.141798496246338,-1.333646060233452,-2.5270031134234827,6.1108367321784876,1.0179269313812256,-2.2699411551104944
1708443519.4657502,-2.141787052154541,-1.3336623323014756,-2.5270360151873987,6.110808121948995,1.0179474353790283,-2.2699039618121546
1708443519.467783,-2.141859292984009,-1.3336549562266846,-2.5270448366748255,6.11091028431014,1.0179269313812256,-2.2698639074908655
1708443519.469763,-2.141843557357788,-1.3336801689914246,-2.5269702116595667,6.1108659384544275,1.0179057121276855,-2.2699125448810022
1708443519.4717426,-2.1418354511260986,-1.3337281060269852,-2.5270031134234827,6.110787617951193,1.0179269313812256,-2.269900623952047
1708443519.47382,-2.1418099403381348,-1.3336880219033738,-2.526994053517477,6.110849725991049,1.0179100036621094,-2.2698639074908655
1708443519.4757984,-2.1418347358703613,-1.3337131601623078,-2.526973072682516,6.1107756970222376,1.0179142951965332,-2.2699082533465784
1708443519.477783,-2.1417782306671143,-1.333666892056801,-2.527052942906515,6.11083351352767,1.0179474353790283,-2.2698429266559046
1708443519.4797647,-2.1418142318725586,-1.3336593520692368,-2.526994053517477,6.110808241158285,1.0179226398468018,-2.2699125448810022
1708443519.4818046,-2.141839027404785,-1.3336713028005143,-2.526984993611471,6.110829102783956,1.01792311668396,-2.2698472181903284
1708443519.483813,-2.141831159591675,-1.3336865168860932,-2.5270448366748255,6.110829102783956,1.0179388523101807,-2.269876782094137
1708443519.4858024,-2.141847848892212,-1.333732621078827,-2.527090136204855,6.110780107765951,1.0179142951965332,-2.269855801259176
1708443519.4877694,-2.141765832901001,-1.333666906957962,-2.526977602635519,6.110746490746298,1.017960548400879,-2.2698681990252894
1708443519.48976,-2.1418099403381348,-1.333637223844864,-2.5270360151873987,6.110849725991049,1.0179269313812256,-2.2698310057269495
1708443519.4917996,-2.141831159591675,-1.3336385947516938,-2.5270360151873987,6.110784399300375,1.0179519653320312,-2.269904915486471
1708443519.493781,-2.1418397426605225,-1.3336371791413804,-2.5270405451404017,6.110809314041891,1.017906904220581,-2.269855801259176
1708443519.4957843,-2.141787052154541,-1.3336701703122635,-2.527069393788473,6.1108367321784876,1.0179474353790283,-2.269855801259176
1708443519.4977622,-2.1418521404266357,-1.333716170196869,-2.527039353047506,6.110842096596517,1.017956256866455,-2.26988393465151
1708443519.4997618,-2.141787052154541,-1.3336879921010514,-2.5270360151873987,6.110787617951193,1.0178980827331543,-2.269913975392477
1708443519.5017712,-2.141794204711914,-1.3337280017188569,-2.5270031134234827,6.110784518509664,1.0179026126861572,-2.269913975392477
1708443519.5037682,-2.141826629638672,-1.3336342138103028,-2.5270031134234827,6.110831129341879,1.0179636478424072,-2.269881073628561
1708443519.5057724,-2.141765832901001,-1.3336746108582993,-2.527026955281393,6.110780107765951,1.0178937911987305,-2.269872490559713
1708443519.5077538,-2.141761541366577,-1.3336923879436036,-2.526989523564474,6.110788810044088,1.0179026126861572,-2.269848171864645
1708443519.509756,-2.141761541366577,-1.3336835515550156,-2.526977841054098,6.110768186836996,1.0179142951965332,-2.269913975392477
1708443519.5117652,-2.141782760620117,-1.333649070268013,-2.5270076433764856,6.110776889115133,1.0179226398468018,-2.269876782094137
1708443519.513784,-2.1418187618255615,-1.3336953681758423,-2.527052942906515,6.110805022507467,1.0179474353790283,-2.2698600927936
1708443519.5157657,-2.1418442726135254,-1.3337177497199555,-2.526984993611471,6.1108378050620935,1.0179188251495361,-2.269872490559713
1708443519.517765,-2.1418354511260986,-1.3336416494897385,-2.5269911924945276,6.110813605576315,1.0178937911987305,-2.269881073628561
1708443519.519756,-2.1418073177337646,-1.3337369722178956,-2.5270031134234827,6.110842096596517,1.0179519653320312,-2.269810978566305
1708443519.5217729,-2.1418073177337646,-1.3336998981288453,-2.526989523564474,6.110711562424459,1.0179681777954102,-2.269848171864645
1708443519.5237513,-2.1417746543884277,-1.3336371344378968,-2.526989523564474,6.110793101578512,1.017956256866455,-2.269799534474508
1708443519.5257976,-2.1417739391326904,-1.333708794122078,-2.527057472859518,6.110741126328268,1.0179431438446045,-2.2698362509356897
1708443519.5277536,-2.1418354511260986,-1.3336835217526932,-2.527043883000509,6.110757338791647,1.0179431438446045,-2.2697952429400843
1708443519.5297425,-2.141757011413574,-1.3337043535760422,-2.5270076433764856,6.110781180649557,1.0179100036621094,-2.2698362509356897
1708443519.5317621,-2.14174485206604,-1.3336370897344132,-2.527069393788473,6.11078559139327,1.0179400444030762,-2.2698238531695765
1708443519.5337632,-2.1418354511260986,-1.3336416494897385,-2.52702242532839,6.110753047257223,1.0178980827331543,-2.269843880330221
1708443519.5357985,-2.1418073177337646,-1.3336579215577622,-2.527060333882467,6.110776889115133,1.0179269313812256,-2.2698448340045374
1708443519.5377703,-2.1418142318725586,-1.3336372536471863,-2.526994053517477,6.110760676651754,1.0179636478424072,-2.2697952429400843
1708443519.5397568,-2.141765832901001,-1.3336953532746811,-2.5269866625415247,6.110810386925497,1.0179474353790283,-2.2698448340045374
1708443519.5417662,-2.1417572498321533,-1.333620936875679,-2.5270360151873987,6.110749947815695,1.0179669857025146,-2.2697795073138636
1708443519.5437622,-2.141787052154541,-1.3336386543563385,-2.5269866625415247,6.110785472183981,1.0179312229156494,-2.2697675863849085
1708443519.545797,-2.1417746543884277,-1.3337043535760422,-2.527085844670431,6.11082552650527,1.0179474353790283,-2.26975661913027
1708443519.5477848,-2.1418187618255615,-1.333679051404335,-2.5270360151873987,6.110785472183981,1.0179474353790283,-2.269679371510641
1708443519.5497615,-2.1418116092681885,-1.333690957432129,-2.526977841054098,6.110748755722799,1.0179188251495361,-2.2696879545794886
1708443519.5517778,-2.141787052154541,-1.3336968135884781,-2.5270512739764612,6.110838520317831,1.0179519653320312,-2.2696312109576624
1708443519.5537596,-2.141770362854004,-1.3336746108582993,-2.526989523564474,6.110785472183981,1.0179100036621094,-2.26954156557192
1708443519.5557609,-2.141798496246338,-1.3337162149003525,-2.52702242532839,6.110809314041891,1.0178980827331543,-2.269557778035299
1708443519.557758,-2.1418230533599854,-1.33369234324012,-2.527060333882467,6.110777961998739,1.0179312229156494,-2.2695840040790003
1708443519.5597577,-2.1418230533599854,-1.3336638522199173,-2.526994053517477,6.110781180649557,1.0179474353790283,-2.269511047993795
1708443519.561764,-2.1417958736419678,-1.3336953979781647,-2.5270450750934046,6.110794174462118,1.0179269313812256,-2.269519631062643
1708443519.563761,-2.141827344894409,-1.3336746257594605,-2.527017895375387,6.11069534996108,1.0179269313812256,-2.269479576741354
1708443519.5657856,-2.141765832901001,-1.3336459708264847,-2.52702242532839,6.110793101578512,1.0179312229156494,-2.269407097493307
1708443519.5677555,-2.141749143600464,-1.333674595957138,-2.5269792715655726,6.110789882927694,1.0179431438446045,-2.269353691731588
1708443519.5697498,-2.141822338104248,-1.333666892056801,-2.5270031134234827,6.110806095391073,1.0179431438446045,-2.2693427244769495
1708443519.5717561,-2.1418187618255615,-1.3336460155299683,-2.5270348230945032,6.110810267716207,1.0179312229156494,-2.269359890614645
1708443519.5737736,-2.141791343688965,-1.333725095992424,-2.5270121733294886,6.110773551255026,1.0179026126861572,-2.2692626158343714
1708443519.5757625,-2.141782760620117,-1.3336702150157471,-2.526977602635519,6.110745417862692,1.0179188251495361,-2.2692349592791956
1708443519.577758,-2.1417579650878906,-1.333692417745926,-2.526973072682516,6.110785472183981,1.0179100036621094,-2.2692392508136194
1708443519.5797632,-2.141787052154541,-1.33365352571521,-2.52702242532839,6.1107897637184045,1.0179388523101807,-2.2691834608661097
1708443519.5817742,-2.1418073177337646,-1.3336504709771653,-2.5270031134234827,6.110786545067587,1.0178818702697754,-2.269106690083639
1708443519.5838118,-2.141822338104248,-1.3336801689914246,-2.527085844670431,6.110806095391073,1.0179474353790283,-2.2690871397601526
1708443519.5859215,-2.1418142318725586,-1.3336342138103028,-2.5270405451404017,6.110773551255026,1.0179400444030762,-2.2689812819110315
1708443519.5877752,-2.1418440341949463,-1.3336998683265229,-2.5270031134234827,6.110776889115133,1.01792311668396,-2.268954102193014
1708443519.5897605,-2.141791343688965,-1.3336579364589234,-2.526994053517477,6.110764968186178,1.0179142951965332,-2.268923584614889
1708443519.5917509,-2.14174485206604,-1.3336835664561768,-2.5269702116595667,6.110744344979086,1.0179474353790283,-2.268805805836813
1708443519.593769,-2.141761541366577,-1.333620847468712,-2.527073923741476,6.110766041069784,1.0179357528686523,-2.268745724354879
1708443519.5957577,-2.1417782306671143,-1.3336713028005143,-2.526994053517477,6.110788810044088,1.0179312229156494,-2.2686689535724085
1708443519.5977542,-2.141787052154541,-1.3336624068072815,-2.52702242532839,6.110782372742452,1.0179431438446045,-2.268592659627096
1708443519.5997417,-2.1418142318725586,-1.3336505156806489,-2.5270302931415003,6.110756265908041,1.0179474353790283,-2.2685545126544397
1708443519.601763,-2.141770362854004,-1.3337073040059586,-2.5270031134234827,6.110789882927694,1.0179357528686523,-2.2684081236468714
1708443519.6037588,-2.1417534351348877,-1.3337116998485108,-2.527017895375387,6.110702860146322,1.0179550647735596,-2.268350426350729
1708443519.6057363,-2.1417579650878906,-1.3337043535760422,-2.527043883000509,6.110766041069784,1.0178937911987305,-2.2681801954852503
1708443519.6077409,-2.141794204711914,-1.3336713326028367,-2.526994053517477,6.110809314041891,1.0179269313812256,-2.2681496779071253
1708443519.6097715,-2.1418027877807617,-1.3336371344378968,-2.526994053517477,6.110794174462118,1.0179388523101807,-2.268029514943258
1708443519.6117527,-2.1418116092681885,-1.3337116700461884,-2.5270031134234827,6.110793101578512,1.0179026126861572,-2.267887894307272
1708443519.613768,-2.141831159591675,-1.3337206554463883,-2.5270121733294886,6.110744464188375,1.0179312229156494,-2.2678211371051233
1708443519.6157486,-2.141782760620117,-1.3336835217526932,-2.526984993611471,6.110793101578512,1.0179312229156494,-2.267712418233053
1708443519.6177423,-2.1418073177337646,-1.3337162745049973,-2.526973072682516,6.11083351352767,1.0179312229156494,-2.267515007649557
1708443519.619751,-2.1417622566223145,-1.3336909425309678,-2.5270031134234827,6.110674845963278,1.0179312229156494,-2.2673657576190394
1708443519.621753,-2.141787052154541,-1.3336415749839325,-2.5269444624530237,6.110794174462118,1.0179431438446045,-2.267258946095602
1708443519.6237433,-2.1418187618255615,-1.3336865317872544,-2.5270360151873987,6.110769259720602,1.0179519653320312,-2.2671435515033167
1708443519.625762,-2.141827344894409,-1.333690957432129,-2.5270405451404017,6.110756265908041,1.0179269313812256,-2.2669628302203577
1708443519.6277397,-2.1417534351348877,-1.3336701703122635,-2.526977602635519,6.110751974373617,1.0179312229156494,-2.266831700001852
1708443519.6297455,-2.1417746543884277,-1.3337236654809494,-2.5270405451404017,6.110788810044088,1.0179142951965332,-2.266707245503561
1708443519.6317546,-2.1418027877807617,-1.3336865168860932,-2.5270405451404017,6.110797393112936,1.017956256866455,-2.266515080128805
1708443519.6337583,-2.1417958736419678,-1.3337206554463883,-2.5270031134234827,6.110744464188375,1.0179357528686523,-2.2663381735431116
1708443519.635766,-2.141782760620117,-1.3336790067008515,-2.5270405451404017,6.110813724785604,1.0179142951965332,-2.2661379019366663
1708443519.6377532,-2.141787052154541,-1.3336835515550156,-2.5269957224475306,6.110805022507467,1.0179142951965332,-2.2659581343280237
1708443519.6397738,-2.1417958736419678,-1.3336416345885773,-2.5270572344409388,6.1107919094856165,1.0179519653320312,-2.265700642262594
1708443519.64176,-2.141744613647461,-1.3337370616248627,-2.5270031134234827,6.110772597580709,1.0179269313812256,-2.2655580679522913
1708443519.643739,-2.1417746543884277,-1.3337043535760422,-2.5270360151873987,6.110842811852255,1.0179431438446045,-2.26536208788027
1708443519.6458015,-2.1417579650878906,-1.3336701554111023,-2.5269866625415247,6.110838520317831,1.0179312229156494,-2.2651494185077112
1708443519.6477575,-2.141765832901001,-1.333716244702675,-2.527052942906515,6.110776889115133,1.0179400444030762,-2.2649248282061976
1708443519.649739,-2.1418027877807617,-1.3336490553668519,-2.52702242532839,6.110813724785604,1.0178980827331543,-2.264716927205221
1708443519.6517467,-2.141791343688965,-1.3336713177016755,-2.527073685322897,6.11082552650527,1.0179431438446045,-2.2644484678851526
1708443519.6537561,-2.141770362854004,-1.3336415153792878,-2.5270405451404017,6.110793101578512,1.017906904220581,-2.2641666571246546
1708443519.655749,-2.1417462825775146,-1.3336999130300065,-2.5270450750934046,6.1108378050620935,1.0179431438446045,-2.263923947011129
1708443519.6577566,-2.1417579650878906,-1.3336416345885773,-2.527052942906515,6.110809314041891,1.0179269313812256,-2.2636998335467737
1708443519.6597412,-2.1417958736419678,-1.3337162894061585,-2.5270031134234827,6.110825645714559,1.0179431438446045,-2.263402287160055
1708443519.661744,-2.1417579650878906,-1.333666892056801,-2.526994053517477,6.110809314041891,1.0179312229156494,-2.263129536305563
1708443519.6637447,-2.141770362854004,-1.3336879771998902,-2.527026955281393,6.11079620102004,1.0179142951965332,-2.2628334204303187
1708443519.6657517,-2.141787052154541,-1.333666892056801,-2.526980463658468,6.110820519715109,1.0179312229156494,-2.2625377813922327
1708443519.667753,-2.1417746543884277,-1.3336371940425416,-2.527052942906515,6.110845315247335,1.0179142951965332,-2.2622035185443323
1708443519.6697485,-2.141770362854004,-1.3336623472026368,-2.526956621800558,6.11079632022933,1.0178906917572021,-2.261909310017721
1708443519.6717417,-2.1417534351348877,-1.3336669367602845,-2.527017895375387,6.11079632022933,1.0179357528686523,-2.2615721861468714
1708443519.6737661,-2.141787052154541,-1.3336578768542786,-2.527026955281393,6.110829102783956,1.0179312229156494,-2.261256519948141
1708443519.67578,-2.141749143600464,-1.3336879771998902,-2.527085844670431,6.11085723617629,1.0179026126861572,-2.2609451452838343
1708443519.677796,-2.141749143600464,-1.3336505454829712,-2.5270617643939417,6.11083351352767,1.0179269313812256,-2.2605794111834925
1708443519.6797776,-2.1417534351348877,-1.3336460006288071,-2.5270405451404017,6.110763895302572,1.0179142951965332,-2.260202709828512
1708443519.6817887,-2.141749143600464,-1.3336953830770035,-2.526977602635519,6.110845315247335,1.0179357528686523,-2.2598546187030237
1708443519.6837666,-2.1417789459228516,-1.333646060233452,-2.526989523564474,6.110825645714559,1.0179474353790283,-2.2594245115863245
1708443519.6857579,-2.1417579650878906,-1.333690957432129,-2.527043883000509,6.110812532692709,1.0179269313812256,-2.2591503302203577
1708443519.6877635,-2.141770362854004,-1.33369234324012,-2.527085844670431,6.1108648655708215,1.0178894996643066,-2.2587645689593714
1708443519.6897573,-2.1417622566223145,-1.3336953532746811,-2.527043883000509,6.110811698227682,1.0179474353790283,-2.258371655141012
1708443519.69179,-2.141794204711914,-1.3336460453322907,-2.5269866625415247,6.110799658089437,1.0179269313812256,-2.257972065602438
1708443519.6937723,-2.1417958736419678,-1.3336623472026368,-2.527043883000509,6.1108529446418665,1.0178980827331543,-2.257604424153463
1708443519.6957936,-2.1417579650878906,-1.3336746406606217,-2.5270031134234827,6.110841023712911,1.0179798603057861,-2.2572243849383753
1708443519.697789,-2.1417622566223145,-1.3337116849473496,-2.527072254811422,6.1109050391014,1.0179312229156494,-2.256803337727682
1708443519.6997676,-2.1418116092681885,-1.3336746108582993,-2.527052942906515,6.110861646920004,1.0179312229156494,-2.256448570881979
1708443519.7017784,-2.1417746543884277,-1.3336549413255234,-2.5269702116595667,6.110795247345724,1.0179357528686523,-2.2560113112079065
1708443519.7037654,-2.1417534351348877,-1.3336505454829712,-2.527043883000509,6.110873448639669,1.017956256866455,-2.255594555531637
1708443519.7057672,-2.1417880058288574,-1.3336821359447022,-2.527026955281393,6.110832321434774,1.0179312229156494,-2.255169693623678
1708443519.707744,-2.141771078109741,-1.3336579215577622,-2.527026955281393,6.110816228180685,1.0179057121276855,-2.254720989857809
1708443519.7097697,-2.1417579650878906,-1.3336535108140488,-2.5270302931415003,6.110808241158285,1.0179507732391357,-2.254284683858053
1708443519.711758,-2.1417746543884277,-1.3337369722178956,-2.526994053517477,6.110860454827108,1.0179519653320312,-2.2538321653949183
1708443519.7137728,-2.1417579650878906,-1.333670200114586,-2.526984993611471,6.110869157105245,1.0179681777954102,-2.2533801237689417
1708443519.715784,-2.1417622566223145,-1.333699883227684,-2.526984993611471,6.1108648655708215,1.0179269313812256,-2.2529686133014124
1708443519.717759,-2.1417622566223145,-1.3336623770049592,-2.5270031134234827,6.110909211426534,1.017972469329834,-2.25244647661318
1708443519.7198055,-2.1417462825775146,-1.3336534810117264,-2.5270841757403772,6.110885727196493,1.0178852081298828,-2.2520034948932093
1708443519.7217908,-2.1417462825775146,-1.3336702299169083,-2.527013365422384,6.110913622170248,1.0179431438446045,-2.2514737288104456
1708443519.7237911,-2.1417622566223145,-1.3336460453322907,-2.5270305315600794,6.1108648655708215,1.0179507732391357,-2.2509687582599085
1708443519.7257962,-2.1417789459228516,-1.3336460453322907,-2.527072254811422,6.11082802990035,1.0179014205932617,-2.2504852453814905
1708443519.727778,-2.1417622566223145,-1.3336746108582993,-2.52702242532839,6.110856282501974,1.0179835557937622,-2.2499569098102015
1708443519.729749,-2.1417789459228516,-1.3336953681758423,-2.527060333882467,6.110916840821066,1.0179593563079834,-2.2494567076312464
1708443519.7317536,-2.1417667865753174,-1.3336790216020127,-2.5270631949054163,6.110892879753866,1.0179507732391357,-2.2489073912249964
1708443519.7337706,-2.1417789459228516,-1.3336790216020127,-2.5270631949054163,6.110888707428732,1.0179669857025146,-2.248357597981588
1708443519.735788,-2.141771078109741,-1.3336701554111023,-2.526984993611471,6.110885727196493,1.0179921388626099,-2.247793499623434
1708443519.737807,-2.1417789459228516,-1.333720625644066,-2.527055803929464,6.110884415894308,1.0179345607757568,-2.2472947279559534
1708443519.7397652,-2.1417126655578613,-1.3336535108140488,-2.5270796457873743,6.1108929989631555,1.0179712772369385,-2.2467053572284144
1708443519.7417703,-2.1417384147644043,-1.3336505007794877,-2.5270841757403772,6.1108518717582605,1.017987847328186,-2.2460830847369593
1708443519.7437499,-2.14168119430542,-1.333711714749672,-2.527104918156759,6.110860454827108,1.017991065979004,-2.2456091086017054
1708443519.7457902,-2.1417171955108643,-1.3336790365031739,-2.527105156575338,6.110803949623861,1.0179953575134277,-2.244967285786764
1708443519.7477672,-2.141718864440918,-1.333690957432129,-2.5270631949054163,6.110869157105245,1.0180329084396362,-2.24439508119692
1708443519.7497616,-2.1416988372802734,-1.3336490404656907,-2.5270677248584192,6.110885727196493,1.0180163383483887,-2.24380332628359
1708443519.7517705,-2.141730308532715,-1.333702878361084,-2.5270631949054163,6.110831367760458,1.0179704427719116,-2.2432101408587855
1708443519.753766,-2.1417508125305176,-1.3337280613235016,-2.5270331541644495,6.1108529446418665,1.018003225326538,-2.2425811926471155
1708443519.7557867,-2.1416943073272705,-1.3336790216020127,-2.5270751158343714,6.110881435662069,1.0180197954177856,-2.24203330675234
1708443519.7577844,-2.141763925552368,-1.3336953830770035,-2.5270960966693323,6.110892879753866,1.0180315971374512,-2.241391960774557
1708443519.7597733,-2.1416900157928467,-1.3337325763753434,-2.5271337668048304,6.110881435662069,1.0180315971374512,-2.2408083120929163
1708443519.761775,-2.1417014598846436,-1.3336998981288453,-2.5271156469928187,6.1108529446418665,1.018067717552185,-2.2401555220233362
1708443519.7637675,-2.141723394393921,-1.3336460155299683,-2.5270660559283655,6.110897290497579,1.0180349349975586,-2.239474121724264
1708443519.765768,-2.141718864440918,-1.3336296838572999,-2.5271156469928187,6.110890137940206,1.0180511474609375,-2.2388508955584925
1708443519.7678657,-2.141711950302124,-1.3336732697537919,-2.5270734469043177,6.110914695053854,1.0180960893630981,-2.238230053578512
1708443519.7697551,-2.1416988372802734,-1.3337162149003525,-2.527123037968771,6.110869157105245,1.0181078910827637,-2.237629238759176
1708443519.7717824,-2.141726016998291,-1.3336657744697114,-2.5271111170398157,6.110819446831503,1.018087387084961,-2.236985508595602
1708443519.7737675,-2.141707420349121,-1.3337355715087433,-2.527109448109762,6.110829221993246,1.0180948972702026,-2.2362993399249476
1708443519.7757628,-2.141690731048584,-1.3336701852134247,-2.527071777974264,6.110840070038595,1.0181158781051636,-2.235631767903463
1708443519.7777407,-2.14166522026062,-1.333702878361084,-2.527118508015768,6.1108929989631555,1.0181396007537842,-2.235039536152975
1708443519.7797441,-2.1417031288146973,-1.333641604786255,-2.527123037968771,6.11082802990035,1.018114686012268,-2.2343772093402308
1708443519.7817976,-2.141669511795044,-1.333641604786255,-2.527142588292257,6.110811698227682,1.0181474685668945,-2.233708206807272
1708443519.7837772,-2.141711950302124,-1.3337399822524567,-2.5271499792682093,6.110901701241293,1.0181596279144287,-2.2330473105060022
1708443519.7857904,-2.1416783332824707,-1.3336746257594605,-2.527138058339254,6.110877024918356,1.0181553363800049,-2.232424561177389
1708443519.7877698,-2.141711950302124,-1.3336701405099411,-2.5272133986102503,6.1108248112495325,1.0182043313980103,-2.231746021901266
1708443519.78976,-2.141695022583008,-1.3336668771556397,-2.527196709309713,6.1108529446418665,1.0181715488433838,-2.231082264577047
1708443519.791792,-2.141669511795044,-1.3336865317872544,-2.5272088686572474,6.110803949623861,1.0182162523269653,-2.2304819265948694
1708443519.7937624,-2.1417434215545654,-1.33365352571521,-2.527175490056173,6.1108529446418665,1.0182197093963623,-2.229719940816061
1708443519.7957714,-2.141690731048584,-1.3336865317872544,-2.5271573702441614,6.110885727196493,1.018248200416565,-2.2290552298175257
1708443519.797773,-2.14169979095459,-1.3336668771556397,-2.5272071997271937,6.110829102783956,1.0181944370269775,-2.2283504644977015
1708443519.799779,-2.141695022583008,-1.3337192249349137,-2.5271785894977015,6.110820400505819,1.0182806253433228,-2.2276251951800745
1708443519.801795,-2.1416501998901367,-1.3337073040059586,-2.527198139821188,6.110861527710714,1.0182719230651855,-2.226905171071188
1708443519.8037717,-2.1416501998901367,-1.333690957432129,-2.5271952787982386,6.1108367321784876,1.018247127532959,-2.226240936909811
1708443519.8057752,-2.1416995525360107,-1.3337236505797883,-2.527226511632101,6.110829102783956,1.018263339996338,-2.2255428473102015
1708443519.8077946,-2.141662359237671,-1.3337117445519944,-2.5272026697741907,6.110866057663717,1.0183212757110596,-2.2248790899859827
1708443519.8097558,-2.1416544914245605,-1.3336865317872544,-2.527221981679098,6.110854136734762,1.01829195022583,-2.224203888569967
1708443519.8117552,-2.1417083740234375,-1.333702878361084,-2.5272355715381067,6.110800611763754,1.0183038711547852,-2.2235220114337366
1708443519.8137612,-2.1416378021240234,-1.333702878361084,-2.527189079915182,6.110779988556661,1.0182833671569824,-2.2227614561664026
1708443519.8157837,-2.1416757106781006,-1.3337236505797883,-2.5272236506091517,6.110825645714559,1.0183604955673218,-2.222104851399557
1708443519.8177571,-2.1416332721710205,-1.3337073189071198,-2.527242962514059,6.110793101578512,1.018307089805603,-2.221396271382467
1708443519.8197544,-2.1416501998901367,-1.3337698888829728,-2.5272672812091272,6.110756265908041,1.0183442831039429,-2.2206657568561
1708443519.82177,-2.1416149139404297,-1.3337236505797883,-2.527259413396017,6.110809314041891,1.0183517932891846,-2.2199905554400843
1708443519.823779,-2.1416332721710205,-1.333702878361084,-2.52722937265505,6.110797393112936,1.0183517932891846,-2.21924859682192
1708443519.8257577,-2.1416218280792236,-1.3337355715087433,-2.5272746721850794,6.110818016320028,1.0183473825454712,-2.218519989644186
1708443519.8277981,-2.1416306495666504,-1.3336701852134247,-2.527250353490011,6.110781180649557,1.0183770656585693,-2.21790057817568
1708443519.829757,-2.141650915145874,-1.3337117296508332,-2.52727181116213,6.110846507340231,1.0183639526367188,-2.217212978993551
1708443519.8317828,-2.1416306495666504,-1.333702878361084,-2.527208391820089,6.110773551255026,1.0183675289154053,-2.21645957628359
1708443519.8337684,-2.1416192054748535,-1.3337117296508332,-2.5273166338550013,6.110761630326071,1.0183923244476318,-2.2157300154315394
1708443519.8357694,-2.1416192054748535,-1.3336984378150483,-2.527288262044088,6.110773551255026,1.018416166305542,-2.2150419394122522
