Eg3-git/Classifiers/Data Collection/u8/u8xyz4_ur3e_joint_states.csv
time,elbow_joint,shoulder_lift_joint,shoulder_pan_joint,wrist_1_joint,wrist_2_joint,wrist_3_joint
1708443558.5701149,-2.145561456680298,-1.334444375043251,-2.5255919138537806,6.119116532593527,1.0152242183685303,-2.3473406473742884
1708443558.5721362,-2.1455578804016113,-1.3344431084445496,-2.525578323994772,6.119116532593527,1.0152785778045654,-2.3473287264453333
1708443558.5741112,-2.145556926727295,-1.334411473279335,-2.5255618731128138,6.119125234871664,1.0152333974838257,-2.3473482767688196
1708443558.5761397,-2.1455705165863037,-1.334481419329979,-2.5255828539477747,6.119153487473287,1.0152497291564941,-2.3474023977862757
1708443558.5781431,-2.145552396774292,-1.334481419329979,-2.5255919138537806,6.119140374451437,1.0152664184570312,-2.3473437468158167
1708443558.580094,-2.145556926727295,-1.3344114136746903,-2.5255828539477747,6.119173633843221,1.0152740478515625,-2.3473528067218226
1708443558.5821285,-2.145556926727295,-1.334407017832138,-2.5255635420428675,6.119173633843221,1.0152573585510254,-2.347417418156759
1708443558.5841146,-2.145596742630005,-1.334432215695717,-2.5255919138537806,6.11912094333724,1.0152618885040283,-2.347379748021261
1708443558.586117,-2.145569324493408,-1.3344233346036454,-2.5255664030658167,6.11912094333724,1.0153026580810547,-2.3473978678332728
1708443558.588126,-2.145565986633301,-1.3345017445138474,-2.5255754629718226,6.119063246041097,1.0152995586395264,-2.3473179976092737
1708443558.590092,-2.145530939102173,-1.3344277304461976,-2.5255964438067835,6.119103657990255,1.0152451992034912,-2.34739333788027
1708443558.5921,-2.1455647945404053,-1.334439979200699,-2.5255544821368616,6.119124161988058,1.0153162479400635,-2.347388807927267
1708443558.594107,-2.145569324493408,-1.3344313365272065,-2.5255709330188196,6.119148957520284,1.0152287483215332,-2.347367588673727
1708443558.596121,-2.145582914352417,-1.334415928726532,-2.5255754629718226,6.119145858078756,1.0152785778045654,-2.34743839899172
1708443558.5981433,-2.145617961883545,-1.3344724637321015,-2.5256131331073206,6.119185912400045,1.015219807624817,-2.3473857084857386
1708443558.6001015,-2.145589590072632,-1.334453211431839,-2.5255544821368616,6.119087087899008,1.0152573585510254,-2.347426478062765
1708443558.6021311,-2.1455445289611816,-1.3344277453473588,-2.5255544821368616,6.119128453522482,1.0152361392974854,-2.34743839899172
1708443558.6040998,-2.14552640914917,-1.33444436014209,-2.5255873839007776,6.1191327450569055,1.0152573585510254,-2.347391668950216
1708443558.606105,-2.1456100940704346,-1.334453211431839,-2.5256040732013147,6.119177210121908,1.0152740478515625,-2.347388807927267
1708443558.6081529,-2.145535469055176,-1.3344431531480332,-2.525578323994772,6.119124161988058,1.0152605772018433,-2.347405258809225
1708443558.61012,-2.145552396774292,-1.3344365817359467,-2.5255499521838587,6.119144665985861,1.0152573585510254,-2.34743839899172
1708443558.6121361,-2.145585298538208,-1.3344365817359467,-2.5255590120898646,6.119205343514242,1.0152785778045654,-2.347409788762228
1708443558.614109,-2.145530939102173,-1.334469498401024,-2.525599543248312,6.11916862705306,1.0152859687805176,-2.3474202791797083
1708443558.6161084,-2.145596742630005,-1.334439979200699,-2.5255664030658167,6.119156348496237,1.015290379524231,-2.3474038282977503
1708443558.6181216,-2.145569324493408,-1.3344694536975403,-2.525649134312765,6.119184958725729,1.0152696371078491,-2.3474157492267054
1708443558.6201017,-2.145594358444214,-1.334469498401024,-2.5256040732013147,6.119155633240499,1.0152814388275146,-2.347375218068258
1708443558.6221044,-2.145578384399414,-1.3344409775784989,-2.5255754629718226,6.119128453522482,1.0153117179870605,-2.3474083582507532
1708443558.6240966,-2.145592212677002,-1.3344114583781739,-2.5256131331073206,6.119156348496237,1.0152696371078491,-2.347433869038717
1708443558.6261463,-2.1456010341644287,-1.334418923859932,-2.5255709330188196,6.119184839516439,1.0152649879455566,-2.3474412600146692
1708443558.6281002,-2.145634889602661,-1.3344858300736924,-2.525595013295309,6.119152056961813,1.0152814388275146,-2.3474202791797083
1708443558.630094,-2.1455559730529785,-1.334439979200699,-2.5256250540362757,6.119205343514242,1.0152950286865234,-2.347379748021261
1708443558.6320963,-2.145613431930542,-1.33445759237323,-2.5256040732013147,6.119119870453634,1.0152497291564941,-2.347412888203756
1708443558.634133,-2.145552396774292,-1.3344651472619553,-2.5255873839007776,6.11912094333724,1.0152528285980225,-2.3474248091327112
1708443558.636139,-2.145576238632202,-1.334427685742714,-2.5255828539477747,6.11916862705306,1.0152785778045654,-2.347466770802633
1708443558.6381025,-2.145613431930542,-1.33443999410186,-2.525553051625387,6.119139063149252,1.0152696371078491,-2.3474562803851526
1708443558.6401439,-2.1455719470977783,-1.3344443452409287,-2.525599543248312,6.119192349701681,1.0152981281280518,-2.347429339085714
1708443558.6421013,-2.145617961883545,-1.334444375043251,-2.5255919138537806,6.119164216309347,1.0153026580810547,-2.3474698702441614
1708443558.6441162,-2.145576238632202,-1.3344518554261704,-2.5255590120898646,6.11922167518691,1.0152814388275146,-2.3474352995501917
1708443558.6461205,-2.1456124782562256,-1.3344769489816208,-2.5255873839007776,6.119159924774923,1.015290379524231,-2.3474865595446985
1708443558.6480885,-2.145613431930542,-1.3344488900950928,-2.5255664030658167,6.119201171189108,1.0152769088745117,-2.347468439732687
1708443558.650119,-2.145592212677002,-1.3344443005374451,-2.5255799929248255,6.1191924689109705,1.0152649879455566,-2.3474653402911585
1708443558.6520936,-2.1456215381622314,-1.3344322007945557,-2.5255919138537806,6.119176137238302,1.0152891874313354,-2.3474534193622034
1708443558.6540904,-2.145609140396118,-1.3344651025584717,-2.5256040732013147,6.119139063149252,1.0153191089630127,-2.3474729696856897
1708443558.6560988,-2.145609140396118,-1.3344651323607941,-2.5255335013019007,6.1191643355186365,1.015321969985962,-2.3475027720080774
1708443558.6581013,-2.1456124782562256,-1.3344650876573105,-2.525602404271261,6.119212972908773,1.0152724981307983,-2.3474352995501917
1708443558.6601145,-2.145637273788452,-1.3343984198621293,-2.5256040732013147,6.119212972908773,1.0152859687805176,-2.3474488894092005
1708443558.6621318,-2.1456258296966553,-1.3344885420850296,-2.5255873839007776,6.119191276818075,1.015359878540039,-2.3474069277392786
1708443558.6641338,-2.145583391189575,-1.3344277751496811,-2.525578323994772,6.11922167518691,1.015321969985962,-2.3474984804736536
1708443558.6661277,-2.1456544399261475,-1.3344026517919083,-2.5255873839007776,6.119188058167257,1.0153056383132935,-2.3474774996386927
1708443558.6681097,-2.1455764770507812,-1.3343995374492188,-2.525599543248312,6.119195568352499,1.015321969985962,-2.3474608103381556
1708443558.6701152,-2.1455910205841064,-1.334469498401024,-2.5255754629718226,6.119158732682028,1.0153191089630127,-2.3474562803851526
1708443558.67213,-2.145583391189575,-1.3344321858933945,-2.52561599413027,6.119257795601644,1.0153100490570068,-2.347484890614645
1708443558.674083,-2.1456215381622314,-1.334418923859932,-2.525628153477804,6.119182574539938,1.0153309106826782,-2.3474398295031946
1708443558.6761227,-2.1456170082092285,-1.3344841760447999,-2.5255544821368616,6.119268524437704,1.0153144598007202,-2.3475146929370325
1708443558.678104,-2.1456215381622314,-1.3344841760447999,-2.525578323994772,6.119296657830038,1.0153263807296753,-2.3474698702441614
1708443558.6800897,-2.1456124782562256,-1.3344114136746903,-2.525649134312765,6.119291531830587,1.0153145790100098,-2.3474367300616663
1708443558.6820965,-2.145583391189575,-1.334451900129654,-2.52563721338381,6.119255530625143,1.0153553485870361,-2.3474579493152063
1708443558.6840997,-2.145609140396118,-1.3344562214664002,-2.5255590120898646,6.119320738106527,1.0153011083602905,-2.347445789967672
1708443558.6861,-2.145583391189575,-1.3344147068313141,-2.5255964438067835,6.119307744293966,1.0153011083602905,-2.3473811785327356
1708443558.6880991,-2.1456000804901123,-1.3344355833581467,-2.5256040732013147,6.119267451554098,1.0153553485870361,-2.3473361174212855
1708443558.6900969,-2.145587682723999,-1.3344453585198899,-2.525628153477804,6.11927496173934,1.0153263807296753,-2.3473361174212855
1708443558.6921139,-2.1456000804901123,-1.3344606322101136,-2.525578323994772,6.119291531830587,1.015296459197998,-2.3473783175097864
1708443558.6941066,-2.1456124782562256,-1.334460662012436,-2.525595013295309,6.1193251488502405,1.0153175592422485,-2.3473451773272913
1708443558.696097,-2.1456034183502197,-1.33444436014209,-2.5255964438067835,6.119316446572103,1.0153056383132935,-2.3473618666278284
1708443558.6981132,-2.1456236839294434,-1.334456281071045,-2.5256534258471888,6.119246828347006,1.0153056383132935,-2.347330156956808
1708443558.7000988,-2.1456215381622314,-1.334465117459633,-2.525590483342306,6.1193358776863,1.0153011083602905,-2.347264115010397
1708443558.7021053,-2.1456711292266846,-1.3343951118043442,-2.5256040732013147,6.1192946312721155,1.0153127908706665,-2.347276035939352
1708443558.7041101,-2.1456124782562256,-1.3344562661698838,-2.525595013295309,6.11931203582839,1.0153011083602905,-2.3472145239459437
1708443558.7061083,-2.145657777786255,-1.334439979200699,-2.5255828539477747,6.119316446572103,1.0153428316116333,-2.3472159544574183
1708443558.708093,-2.1456408500671387,-1.3344576072743912,-2.525606934224264,6.119316446572103,1.0153100490570068,-2.3471995035754603
1708443558.7100801,-2.1456782817840576,-1.3344365668347855,-2.525611464177267,6.119287240296163,1.0153011083602905,-2.347172562276022
1708443558.712138,-2.1456170082092285,-1.334469498401024,-2.5256086031543177,6.11928282955245,1.0153263807296753,-2.3471363226519983
1708443558.714094,-2.1456692218780518,-1.3344885420850296,-2.525557343159811,6.11924563625411,1.0153292417526245,-2.347083870564596
1708443558.7161222,-2.1456871032714844,-1.3344443452409287,-2.525611464177267,6.119299161225118,1.0153248310089111,-2.3470478693591517
1708443558.7181582,-2.1456499099731445,-1.3344562512687226,-2.5256205240832728,6.119257557183065,1.0153292417526245,-2.3470328489886683
1708443558.7200978,-2.1456499099731445,-1.334451900129654,-2.525595013295309,6.119291531830587,1.015333890914917,-2.3469424883471888
1708443558.7221084,-2.1456034183502197,-1.3344769489816208,-2.525599543248312,6.119323956757345,1.0153509378433228,-2.3469110170947474
1708443558.724109,-2.145657777786255,-1.3344365668347855,-2.5256040732013147,6.119295823365011,1.0153383016586304,-2.3468390146838587
1708443558.7261145,-2.145664691925049,-1.3345140528729935,-2.525649134312765,6.119304525643148,1.0153626203536987,-2.3467863241778772
1708443558.728149,-2.145657777786255,-1.3344606918147583,-2.52561599413027,6.1192630408103845,1.0153292417526245,-2.3466931025134485
1708443558.7301056,-2.145657777786255,-1.3344531816295166,-2.5256508032428187,6.119316565781393,1.0153383016586304,-2.346612278615133
1708443558.732097,-2.1456034183502197,-1.3344842058471222,-2.5255873839007776,6.119328248291769,1.0153292417526245,-2.3465762774096888
1708443558.7341104,-2.145627498626709,-1.3344726127437134,-2.525599543248312,6.119323956757345,1.0153175592422485,-2.3465431372271937
1708443558.736108,-2.145653247833252,-1.3344974678805848,-2.525611464177267,6.119377362519064,1.015321969985962,-2.3465026060687464
1708443558.7381246,-2.1456079483032227,-1.3344443452409287,-2.525573794041769,6.119307744293966,1.0153417587280273,-2.3464303652392786
1708443558.740097,-2.1456239223480225,-1.334439979200699,-2.525578323994772,6.1193251488502405,1.0153582096099854,-2.346367422734396
1708443558.7421017,-2.1455821990966797,-1.3344355833581467,-2.5255919138537806,6.11931203582839,1.015337347984314,-2.34622031847109
1708443558.7440894,-2.1456124782562256,-1.33444436014209,-2.525590483342306,6.1192630408103845,1.015337347984314,-2.3461526075946253
1708443558.746123,-2.1456735134124756,-1.3344322007945557,-2.525569264088766,6.11931203582839,1.0153462886810303,-2.3461013476001185
1708443558.7481048,-2.1456940174102783,-1.334393949513771,-2.525595013295309,6.119279253273763,1.0153582096099854,-2.3460081259356897
1708443558.7500994,-2.1456453800201416,-1.33451400816951,-2.525595013295309,6.119316446572103,1.015312910079956,-2.345924202595846
1708443558.7521203,-2.145664691925049,-1.3344322007945557,-2.525585953389303,6.119365441590109,1.015312910079956,-2.345874611531393
1708443558.754116,-2.1456735134124756,-1.3344973784736176,-2.525611464177267,6.119290339737692,1.0153509378433228,-2.3457604090320032
1708443558.7561064,-2.145660161972046,-1.3344488155892869,-2.525599543248312,6.119344579964437,1.0153672695159912,-2.3456268946277063
1708443558.7581291,-2.1456079483032227,-1.3344725680402298,-2.5256040732013147,6.11931203582839,1.0153582096099854,-2.3455427328692835
1708443558.7600868,-2.1456284523010254,-1.3344147068313141,-2.525599543248312,6.119320738106527,1.0153701305389404,-2.345464531575338
1708443558.7621105,-2.1455910205841064,-1.3344158989242096,-2.525578323994772,6.119300234108724,1.0154120922088623,-2.345335308705465
1708443558.764178,-2.145648717880249,-1.3344594103148957,-2.5256040732013147,6.11927496173934,1.0153909921646118,-2.345227066670553
1708443558.7661438,-2.1456124782562256,-1.3344901663115998,-2.52561599413027,6.11927496173934,1.015365719795227,-2.3451715151416224
1708443558.768121,-2.1456363201141357,-1.3344321709922333,-2.525599543248312,6.119295823365011,1.0153987407684326,-2.345034901295797
1708443558.7700982,-2.145648717880249,-1.3344488155892869,-2.525628153477804,6.119304525643148,1.0153987407684326,-2.3449552694903772
1708443558.7721274,-2.1456692218780518,-1.3345017594150086,-2.525578323994772,6.119309532433309,1.0153775215148926,-2.3448637167560022
1708443558.7741175,-2.1456894874572754,-1.334456281071045,-2.525585953389303,6.119300234108724,1.0153775215148926,-2.344727102910177
1708443558.776124,-2.1456735134124756,-1.334390790467598,-2.525590483342306,6.119226205139913,1.0154061317443848,-2.344639841710226
1708443558.7781053,-2.1456692218780518,-1.3343875420144578,-2.52561599413027,6.119295823365011,1.0154151916503906,-2.344510618840353
1708443558.780094,-2.1456079483032227,-1.3344268661788483,-2.525602404271261,6.119276034622946,1.0153971910476685,-2.3443904558764856
1708443558.7821329,-2.145632028579712,-1.3344488155892869,-2.525599543248312,6.119259822159567,1.0154228210449219,-2.3442614714251917
1708443558.784116,-2.1456193923950195,-1.3344233644059678,-2.5255828539477747,6.1192641136939905,1.0153851509094238,-2.3441413084613245
1708443558.7861507,-2.1456408500671387,-1.3344114434770127,-2.525653664265768,6.119280445366659,1.0154469013214111,-2.3440662066089075
1708443558.7881246,-2.1456408500671387,-1.3344488453916092,-2.525595013295309,6.119227278023519,1.0153807401657104,-2.343917433415548
1708443558.790105,-2.1456034183502197,-1.334460662012436,-2.525619093571798,6.119244682579794,1.015397071838379,-2.343764368687765
1708443558.7921553,-2.1455821990966797,-1.334435598259308,-2.5256040732013147,6.119244682579794,1.0154469013214111,-2.3436453978167933
1708443558.7940989,-2.1456329822540283,-1.3344202798656006,-2.525632683430807,6.1191468117530725,1.0154796838760376,-2.3435373942004603
1708443558.7961366,-2.1456034183502197,-1.3344606322101136,-2.525602404271261,6.119164216309347,1.0154346227645874,-2.343372408543722
1708443558.7981207,-2.1456170082092285,-1.3344738644412537,-2.525611464177267,6.119119870453634,1.0154542922973633,-2.343241516743795
1708443558.8001091,-2.1455743312835693,-1.334451900129654,-2.525640074406759,6.119055616646566,1.015425682067871,-2.3430748621570032
1708443558.8021307,-2.1456499099731445,-1.334451900129654,-2.525602404271261,6.118998157769003,1.01544988155365,-2.3429141680346888
1708443558.804137,-2.145592212677002,-1.3344769489816208,-2.525623623524801,6.11898826339797,1.0154751539230347,-2.342799965535299
1708443558.8061385,-2.145576238632202,-1.3344189834645768,-2.525644604359762,6.119028556137838,1.0154874324798584,-2.3425987402545374
1708443558.8081582,-2.1456258296966553,-1.334460662012436,-2.525677506123678,6.119073855667867,1.0154616832733154,-2.342417065297262
1708443558.8101342,-2.145583152770996,-1.3344488155892869,-2.5256474653827112,6.1190130589301965,1.0154873132705688,-2.3422966639148157
1708443558.8121393,-2.1455719470977783,-1.334465117459633,-2.525623623524801,6.118960845261373,1.015515923500061,-2.342175308858053
1708443558.8141274,-2.1455955505371094,-1.3344189387610932,-2.525623623524801,6.118944632797994,1.0154616832733154,-2.341957394276754
1708443558.8161423,-2.1456215381622314,-1.3345095378211518,-2.525672976170675,6.118953215866842,1.0155115127563477,-2.3418265024768274
1708443558.8181076,-2.14552640914917,-1.334465117459633,-2.525677506123678,6.118920433312216,1.0155143737792969,-2.341641966496603
1708443558.8201017,-2.1455602645874023,-1.3344409477761765,-2.525632683430807,6.11879454830245,1.0155143737792969,-2.341482464467184
1708443558.822169,-2.1455647945404053,-1.334460662012436,-2.5256474653827112,6.1188533184821985,1.015535593032837,-2.341294829045431
1708443558.8241036,-2.1455490589141846,-1.3344322007945557,-2.525644604359762,6.118801343231954,1.0155384540557861,-2.3411055246936243
1708443558.8261306,-2.1456103324890137,-1.33444436014209,-2.525651995335714,6.118772733002462,1.0155384540557861,-2.3409088293658655
1708443558.8281457,-2.1455399990081787,-1.334460662012436,-2.525668446217672,6.118691193848409,1.0155837535858154,-2.3406458536731165
1708443558.830086,-2.1455252170562744,-1.334456281071045,-2.5256429354297083,6.118745553284445,1.0155532360076904,-2.340548340474264
1708443558.8321052,-2.1455445289611816,-1.3344277453473588,-2.5256593863116663,6.1187336323554895,1.0155746936798096,-2.3403363863574427
1708443558.8341143,-2.1455252170562744,-1.3344233346036454,-2.5256639162646692,6.1186935780342,1.0156104564666748,-2.340156141911642
1708443558.8361285,-2.1454551219940186,-1.3344488155892869,-2.5256758371936243,6.118572580605306,1.0155941247940063,-2.339914623891012
1708443558.8381166,-2.1454720497131348,-1.334465117459633,-2.5257166067706507,6.1186349270637415,1.0156524181365967,-2.3397179285632532
1708443558.8401046,-2.1454968452453613,-1.3344233644059678,-2.5257194677936,6.118569838791647,1.0155985355377197,-2.339539114628927
1708443558.8421063,-2.145465135574341,-1.3344158989242096,-2.525714937840597,6.118550050049581,1.0156182050704956,-2.3392778078662317
1708443558.8441088,-2.1454412937164307,-1.33443999410186,-2.525734249745504,6.118468391686239,1.0156512260437012,-2.3390284220324915
1708443558.8461227,-2.1454367637634277,-1.3344365817359467,-2.5257673899279993,6.118478286057272,1.0156466960906982,-2.3388074080096644
1708443558.8481214,-2.145383596420288,-1.3344365817359467,-2.525701347981588,6.118417250901022,1.015660285949707,-2.338616673146383
1708443558.8500972,-2.1454367637634277,-1.3344321858933945,-2.5257554689990442,6.11838589885787,1.0156421661376953,-2.338379685078756
1708443558.8521101,-2.145390033721924,-1.3345095378211518,-2.5257554689990442,6.118386733322897,1.0156466960906982,-2.338146750126974
1708443558.8540957,-2.1453912258148193,-1.3344695282033463,-2.5257628599749964,6.118330347328939,1.015655755996704,-2.337979857121603
1708443558.856111,-2.1453912258148193,-1.3344114434770127,-2.5257795492755335,6.118291127472677,1.0156573057174683,-2.3376932779895228
1708443558.858164,-2.145313024520874,-1.3344488155892869,-2.5257824102984827,6.118206727295675,1.0156782865524292,-2.3374696413623255
1708443558.860095,-2.1453628540039062,-1.3344127100757142,-2.5257869402514856,6.118211734085836,1.015723466873169,-2.3372860590564173
1708443558.8621264,-2.145317554473877,-1.3344114434770127,-2.5257673899279993,6.118146407395162,1.0156826972961426,-2.337090555821554
1708443558.864141,-2.1452226638793945,-1.3344277453473588,-2.5257795492755335,6.118067133217611,1.015702247619629,-2.3368096987353724
1708443558.866145,-2.14524507522583,-1.334396393304207,-2.52582294145693,6.118014085083761,1.015702247619629,-2.336581532155172
1708443558.8681426,-2.145233631134033,-1.3344409775784989,-2.5258410612689417,6.11795853355483,1.0157684087753296,-2.336332384740011
1708443558.8700995,-2.145159959793091,-1.3344334971955796,-2.5258033911334437,6.117922770767965,1.0157712697982788,-2.3361247221576136
1708443558.8721333,-2.1452019214630127,-1.3344158989242096,-2.5257869402514856,6.117908704071798,1.0158374309539795,-2.3358305136310022
1708443558.8741198,-2.1451823711395264,-1.3344858300736924,-2.5258153120623987,6.117815005570211,1.0157742500305176,-2.335609499608175
1708443558.8761022,-2.1451869010925293,-1.3343833100846787,-2.5258243719684046,6.1177629111106775,1.0158330202102661,-2.3354395071612757
1708443558.878135,-2.1450910568237305,-1.334448830490448,-2.5258033911334437,6.117752182274618,1.0158478021621704,-2.3351665178882044
1708443558.8800955,-2.145106554031372,-1.334448830490448,-2.525848690663473,6.117699849396505,1.0158225297927856,-2.334909502659933
1708443558.882115,-2.145049810409546,-1.3344246608069916,-2.525832001362936,6.117660629540243,1.015838861465454,-2.3346977869616907
1708443558.8841012,-2.1450090408325195,-1.3344039779952546,-2.52584416071047,6.117597567826071,1.015842080116272,-2.3344574610339563
1708443558.8860943,-2.1450135707855225,-1.334375412469246,-2.5258470217334192,6.117521393090048,1.0158631801605225,-2.33423358598818
1708443558.8880985,-2.145034074783325,-1.3344290566495438,-2.525877062474386,6.117432701378622,1.0159155130386353,-2.3340428511248987
1708443558.8901217,-2.1449525356292725,-1.334437907939293,-2.5258827845202845,6.11742256858901,1.0158751010894775,-2.3337319532977503
1708443558.8921044,-2.144986391067505,-1.3343842786601563,-2.5259297529803675,6.117345797806539,1.015897512435913,-2.333512608204977
1708443558.8941061,-2.144913673400879,-1.3343591105989,-2.5259206930743616,6.117318379669943,1.015902042388916,-2.3332436720477503
1708443558.8960917,-2.1449103355407715,-1.3343723577312012,-2.5259161631213587,6.117233264237203,1.0159772634506226,-2.332998816167013
1708443558.8981376,-2.1448934078216553,-1.3344095957330246,-2.5259280840503138,6.117160665779867,1.0159400701522827,-2.3327751795398157
1708443558.9001186,-2.144796133041382,-1.3343158078244706,-2.52590257326235,6.117130148201742,1.0159354209899902,-2.332543913518087
1708443558.9021206,-2.144845724105835,-1.33432029307399,-2.525898043309347,6.117053973465719,1.0159310102462769,-2.332294289265768
1708443558.9040954,-2.1448140144348145,-1.3342679750970383,-2.525940004979269,6.116997706681051,1.0159473419189453,-2.3319969812976282
1708443558.9061198,-2.1448025703430176,-1.3342635047486802,-2.525940004979269,6.1169670698936365,1.0159711837768555,-2.331801716481344
1708443558.9081059,-2.1447370052337646,-1.3342679750970383,-2.525971237813131,6.116948354035177,1.0160417556762695,-2.331622902547018
1708443558.9101243,-2.1447479724884033,-1.3343018007329484,-2.525959316884176,6.116920220642843,1.0160237550735474,-2.331292454396383
1708443558.9121401,-2.1446690559387207,-1.3342529100230713,-2.525938336049215,6.116831171303549,1.0160030126571655,-2.331069056187765
1708443558.9141154,-2.1446621417999268,-1.3342604500106354,-2.5259879271136683,6.116796481400289,1.0160030126571655,-2.3308358828174036
1708443558.9161286,-2.1446211338043213,-1.334215910439827,-2.5260165373431605,6.116747486382284,1.0160315036773682,-2.330571715031759
1708443558.9181273,-2.1446774005889893,-1.3342855286649247,-2.5259667078601282,6.116715776711263,1.0160390138626099,-2.3303359190570276
1708443558.920092,-2.14457106590271,-1.3342127662948151,-2.5259998480426233,6.116651880532064,1.0160688161849976,-2.330116573964254
1708443558.9221199,-2.1445326805114746,-1.334220291381218,-2.5260329882251185,6.116547691612997,1.0160629749298096,-2.329813305531637
1708443558.9241138,-2.1445109844207764,-1.3342542362264176,-2.5260029474841517,6.116532194405355,1.0160675048828125,-2.3296449820147913
1708443558.9261098,-2.1444756984710693,-1.3342366081527253,-2.5260615984546106,6.116407382279196,1.0161246061325073,-2.329369846974508
1708443558.9281542,-2.1444554328918457,-1.3342216175845643,-2.5259771982776087,6.116381037026205,1.0161067247390747,-2.3291059176074427
1708443558.9300976,-2.144378423690796,-1.3342216175845643,-2.526052538548605,6.116389739304342,1.0161467790603638,-2.328902784978048
1708443558.932094,-2.1443533897399902,-1.3341723692468186,-2.5260403792010706,6.116272437363424,1.0161304473876953,-2.328641716633932
1708443558.9341006,-2.1443839073181152,-1.3342127662948151,-2.526059929524557,6.116249429970541,1.016234278678894,-2.3284342924701136
1708443558.9361017,-2.144360065460205,-1.3342422854951401,-2.526026789342062,6.116206156998434,1.0161548852920532,-2.3281458059894007
1708443558.9381042,-2.1443192958831787,-1.3341930669597168,-2.526046339665548,6.116162526398458,1.0162039995193481,-2.3279295603381556
1708443558.9401183,-2.1442713737487793,-1.334204987888672,-2.526068989430563,6.116119134217062,1.0162162780761719,-2.3277416864978235
1708443558.9421046,-2.1442670822143555,-1.33420184374366,-2.526067558919088,6.11601077297286,1.0161832571029663,-2.3275345007525843
1708443558.944108,-2.144242525100708,-1.334204987888672,-2.526104990636007,6.115913617401876,1.0162371397018433,-2.3272655645953577
1708443558.9461274,-2.1442039012908936,-1.334160478120186,-2.5261033217059534,6.11588333824233,1.0161741971969604,-2.3269832769977015
1708443558.9481266,-2.144228458404541,-1.3341811460307618,-2.5261107126819056,6.115883219033041,1.0162073373794556,-2.326730791722433
1708443558.9501143,-2.1441426277160645,-1.3342181158116837,-2.5260987917529505,6.115754949837484,1.016219139099121,-2.3265281359301966
1708443558.952109,-2.1441502571105957,-1.334218145614006,-2.5261362234698694,6.115748512535848,1.0162643194198608,-2.3262742201434534
1708443558.954133,-2.144106149673462,-1.3342303943685074,-2.5260852018939417,6.115626919060507,1.016243577003479,-2.3260627428637903
1708443558.9561455,-2.1441285610198975,-1.334119052892067,-2.5261316935168665,6.115612494736471,1.016309380531311,-2.3257980982409876
1708443558.9581802,-2.144099473953247,-1.33420184374366,-2.5261405150042933,6.115548240929403,1.016312599182129,-2.3255820910083216
1708443558.96015,-2.144047260284424,-1.3341736954501648,-2.526097122822897,6.115454780846395,1.0163244009017944,-2.325374428425924
1708443558.9621158,-2.1440234184265137,-1.3341613721898575,-2.5261016527758997,6.1153918383415125,1.0163604021072388,-2.3251386324511927
1708443558.964122,-2.1439826488494873,-1.3341604483178635,-2.526160542164938,6.1153437969978235,1.0163723230361938,-2.324848715459005
1708443558.9661644,-2.143967866897583,-1.3341823828271409,-2.5261226336108606,6.115292894631185,1.0164058208465576,-2.324629608784811
1708443558.9681141,-2.143965244293213,-1.3341322255185624,-2.526163403187887,6.1152440188224695,1.0163755416870117,-2.3244131247149866
1708443558.970135,-2.1439855098724365,-1.3341570657542725,-2.526163403187887,6.115193116455831,1.0163967609405518,-2.3241546789752405
1708443558.972099,-2.143921136856079,-1.3341780018857499,-2.526209894810812,6.11517761924819,1.0163997411727905,-2.3239896933185022
1708443558.9741223,-2.1438565254211426,-1.3342063140920182,-2.526175324116842,6.1150845167930505,1.0164613723754883,-2.3237386385547083
1708443558.9761126,-2.143864393234253,-1.334190012221672,-2.5261781851397913,6.115053760796346,1.0164401531219482,-2.323519531880514
1708443558.978126,-2.1438405513763428,-1.3341586303761979,-2.526179854069845,6.115009057312765,1.0164568424224854,-2.3232865969287317
1708443558.9800994,-2.1438539028167725,-1.3341213029674073,-2.526208225880758,6.114978778153219,1.0164809226989746,-2.323115412388937
1708443558.982144,-2.143756628036499,-1.3341050010970612,-2.5262489954577845,6.114872085839071,1.0164883136749268,-2.322894875203268
1708443558.9841197,-2.143752336502075,-1.3340930801681061,-2.5262203852282923,6.114862310677328,1.0164839029312134,-2.3226617018329065
1708443558.9861047,-2.1437418460845947,-1.3340842139771958,-2.5262113253222864,6.114883887558737,1.0165408849716187,-2.3224380652057093
1708443558.9881215,-2.1437294483184814,-1.3341050010970612,-2.5261810461627405,6.114725696831503,1.0165619850158691,-2.3222501913653772
1708443558.9901369,-2.143636465072632,-1.3341630113175889,-2.5262563864337366,6.1147591946418665,1.0165529251098633,-2.322031084691183
1708443558.9921215,-2.1436703205108643,-1.3340767633965989,-2.5262308756457728,6.114776479988851,1.0165647268295288,-2.3217981497394007
1708443558.9941466,-2.143625020980835,-1.334101842050888,-2.526238266621725,6.114650594979086,1.0165736675262451,-2.3215728441821497
1708443558.9961243,-2.1436057090759277,-1.334081159239151,-2.526238266621725,6.114627587586202,1.0165770053863525,-2.3214133421527308
1708443558.9981332,-2.1435818672180176,-1.3340482127717515,-2.526245657597677,6.114566671639242,1.0165843963623047,-2.321204725896017
1708443559.000148,-2.1435277462005615,-1.334061474805214,-2.52631646791567,6.114482033043661,1.0166369676589966,-2.321017090474264
1708443559.0021737,-2.1435704231262207,-1.3340777617743989,-2.5263074080096644,6.114552485733785,1.0165965557098389,-2.320792023335592
1708443559.0041006,-2.143484592437744,-1.3340988171151658,-2.5263238588916224,6.114492642670431,1.0166325569152832,-2.320595089589254
1708443559.006118,-2.143489122390747,-1.3340614599040528,-2.5263431707965296,6.114355671196737,1.0166656970977783,-2.3204432169543665
1708443559.008113,-2.143481969833374,-1.3340525937131424,-2.526372019444601,6.114290463715353,1.0166820287704468,-2.3203006426440638
1708443559.0101116,-2.1434121131896973,-1.3340777468732377,-2.526329580937521,6.114309060364523,1.0167182683944702,-2.320091787968771
1708443559.0121317,-2.1434662342071533,-1.334040791993477,-2.5263598600970667,6.114273059159078,1.0167182683944702,-2.319857422505514
1708443559.0141041,-2.1434218883514404,-1.3340495389750977,-2.52630860010256,6.114265548973837,1.0167286396026611,-2.319719378148214
1708443559.0161242,-2.1433980464935303,-1.3340658408454438,-2.526367489491598,6.1141525385673425,1.0167330503463745,-2.3195601145373743
1708443559.01814,-2.1433980464935303,-1.334085540180542,-2.526393000279562,6.114156830101766,1.0167315006256104,-2.319366518651144
1708443559.020101,-2.1433777809143066,-1.3340570789626618,-2.5263822714435022,6.114097106247701,1.01683509349823,-2.319211546574728
1708443559.022106,-2.143285036087036,-1.3340701174787064,-2.5264528433429163,6.114024150162496,1.0168217420578003,-2.318923298512594
1708443559.024104,-2.1433379650115967,-1.3340495389750977,-2.5264650026904505,6.114050137787618,1.0168790817260742,-2.3187881151782435
1708443559.026122,-2.1432645320892334,-1.3340537560037156,-2.5263987223254603,6.113969671517172,1.0168744325637817,-2.3186784426318567
1708443559.0281305,-2.1432993412017822,-1.334033564930298,-2.5264437834369105,6.113977539330282,1.0168895721435547,-2.318472448979513
1708443559.030125,-2.143254041671753,-1.3340378564647217,-2.5265052954303187,6.113918530731954,1.0169227123260498,-2.3183255831347864
1708443559.0321357,-2.1432301998138428,-1.334045098429062,-2.5264514128314417,6.113918530731954,1.0169540643692017,-2.318256203328268
1708443559.034135,-2.1432507038116455,-1.3340538901141663,-2.526496235524313,6.11382936218337,1.0169659852981567,-2.3180041948901575
1708443559.0361426,-2.143202066421509,-1.3340256971171875,-2.526487175618307,6.1137815592582605,1.0169932842254639,-2.3179152647601526
1708443559.0381393,-2.1431353092193604,-1.3340628457120438,-2.526529375706808,6.113750326424398,1.0170186758041382,-2.317714039479391
1708443559.0401447,-2.1431915760040283,-1.3340423715165635,-2.526470724736349,6.113754737168112,1.0170173645019531,-2.3175039927112024
1708443559.0421453,-2.143141984939575,-1.3340628457120438,-2.526515785847799,6.113711106568136,1.017074465751648,-2.317371193562643
1708443559.044135,-2.1431260108947754,-1.3340671968511124,-2.5265143553363245,6.113687026291647,1.017037034034729,-2.3172619978534144
1708443559.0461347,-2.143101215362549,-1.3340423864177247,-2.5265143553363245,6.113671052246847,1.017098307609558,-2.317075554524557
1708443559.0481582,-2.1430647373199463,-1.3340256971171875,-2.526587788258688,6.113585817604818,1.017122745513916,-2.3169854323016565
1708443559.0500987,-2.143073797225952,-1.3340495389750977,-2.526578728352682,6.113566505699911,1.017134666442871,-2.316824976597921
1708443559.0521295,-2.1430580615997314,-1.3339766275933762,-2.526628319417135,6.113600122719564,1.0171842575073242,-2.3166146914111536
1708443559.0541117,-2.1430397033691406,-1.3340093356421967,-2.526602808629171,6.113514530449667,1.017177939414978,-2.3165484110461634
1708443559.0561306,-2.143059730529785,-1.3340256971171875,-2.5266311804400843,6.113462078362264,1.0171902179718018,-2.316399637852804
1708443559.0581133,-2.142981767654419,-1.334010810857155,-2.526619259511129,6.113499033242025,1.0172425508499146,-2.3162840048419397
1708443559.0601342,-2.142965078353882,-1.3340658855489274,-2.526679340993063,6.1135045168693445,1.0171964168548584,-2.316099230443136
1708443559.062121,-2.142962694168091,-1.334009350543358,-2.5266507307635706,6.113500106125631,1.0172531604766846,-2.315974537526266
1708443559.0641572,-2.1429343223571777,-1.3339899343303223,-2.5266552607165735,6.113435137062826,1.0172743797302246,-2.3158589045154017
1708443559.0661397,-2.1429264545440674,-1.3340018552592774,-2.526724163685934,6.113394725113668,1.0173250436782837,-2.315707270299093
1708443559.0681388,-2.142948865890503,-1.3340601486018677,-2.526736323033468,6.113440382271566,1.0173496007919312,-2.3155420462237757
1708443559.0701272,-2.1429193019866943,-1.334071622495987,-2.526748243962423,6.113322961121359,1.017418622970581,-2.3154550234424036
1708443559.0721736,-2.1429476737976074,-1.3339766275933762,-2.5267677942859095,6.1133304713066,1.0174307823181152,-2.3153227011310022
1708443559.0741022,-2.142911434173584,-1.3340345633080979,-2.5268428961383265,6.113359916001119,1.0174590349197388,-2.315195147191183
1708443559.0761206,-2.142915964126587,-1.3340225678733368,-2.526761595402853,6.113311159401693,1.017466425895691,-2.3150628248797815
1708443559.0781143,-2.142874240875244,-1.3339688342860718,-2.526832405720846,6.113356578141012,1.0174696445465088,-2.3149171511279505
1708443559.0800982,-2.1428637504577637,-1.3340018552592774,-2.52686053911318,6.113364207535543,1.0175386667251587,-2.3147714773761194
1708443559.0821402,-2.1428096294403076,-1.3340301376632233,-2.526818815861837,6.1132967350776575,1.0175750255584717,-2.314681355153219
1708443559.0841112,-2.142864942550659,-1.3340137761882325,-2.5268967787372034,6.113283622055807,1.0176317691802979,-2.314552132283346
1708443559.0861309,-2.1427903175354004,-1.3340345484069367,-2.526935640965597,6.113316523819723,1.0176514387130737,-2.314453188573019
1708443559.0880885,-2.1428184509277344,-1.3339511466077347,-2.526968781148092,6.1132686016853235,1.017663598060608,-2.3143299261676233
1708443559.0901227,-2.1428239345550537,-1.334018201833107,-2.5269597212420862,6.113292443543234,1.0177327394485474,-2.314193312321798
1708443559.092123,-2.1427876949310303,-1.3340301376632233,-2.5269625822650355,6.11328803279952,1.017722249031067,-2.314060990010397
1708443559.094119,-2.142738103866577,-1.3340256971171875,-2.527062002812521,6.113301145821371,1.017783761024475,-2.313943926488058
1708443559.096133,-2.1427628993988037,-1.3340018552592774,-2.527057472859518,6.113265025406637,1.0178316831588745,-2.3137739340411585
1708443559.0980928,-2.14277982711792,-1.334031568174698,-2.5270705858813685,6.113280522614279,1.0178468227386475,-2.3136959711657923
1708443559.1001027,-2.142697334289551,-1.3339854937842865,-2.5270705858813685,6.113317596703329,1.0178875923156738,-2.313575808201925
1708443559.1021104,-2.142747163772583,-1.333992989068367,-2.5270944277392786,6.11322699764327,1.017927646636963,-2.313446585332052
1708443559.104109,-2.142731189727783,-1.334046797161438,-2.5271320978747767,6.113256442337789,1.0179431438446045,-2.3133655230151575
1708443559.1060863,-2.1426870822906494,-1.3340211671641846,-2.527139727269308,6.113256442337789,1.018049716949463,-2.3132439295398157
1708443559.1081288,-2.1426994800567627,-1.3340672713569184,-2.52717096010317,6.113216626435079,1.0180273056030273,-2.3130832354175013
1708443559.1101155,-2.142704725265503,-1.3340047907880326,-2.5271921793567103,6.113248812943258,1.0180963277816772,-2.3129704634295862
1708443559.1120918,-2.142656087875366,-1.3340628010085602,-2.5272117296801966,6.113256442337789,1.0181564092636108,-2.3129075209247034
1708443559.114111,-2.142660617828369,-1.3340137761882325,-2.5272443930255335,6.113200056343832,1.0181922912597656,-2.312754217778341
1708443559.1161046,-2.142683506011963,-1.3340211820653458,-2.5272191206561487,6.113305437355795,1.0182691812515259,-2.3126850763904017
1708443559.1180913,-2.1426198482513428,-1.3340256971171875,-2.527259413396017,6.1132123349006555,1.0183217525482178,-2.3125346342669886
1708443559.120098,-2.1426243782043457,-1.3340672862580796,-2.5273166338550013,6.113244521408834,1.018357753753662,-2.3124223391162317
1708443559.1220977,-2.1426243782043457,-1.3340004694512864,-2.5272820631610315,6.113269316941061,1.0184015035629272,-2.312341038380758
1708443559.1241057,-2.1426050662994385,-1.3340628010085602,-2.5273600260363978,6.113232600479879,1.0184043645858765,-2.312216345463888
1708443559.1261322,-2.1425747871398926,-1.3340300929597397,-2.527384106312887,6.113236772805013,1.0184885263442993,-2.312070671712057
1708443559.128094,-2.1426005363464355,-1.3340048354915162,-2.5274458567248743,6.113228308945455,1.018515944480896,-2.311929527913229
1708443559.13009,-2.1425836086273193,-1.3340628457120438,-2.5274081865893763,6.1132643101509,1.0185891389846802,-2.3117767016040247
1708443559.1320953,-2.142542839050293,-1.334030107860901,-2.5274396578418177,6.113256442337789,1.0186703205108643,-2.3116517702685755
1708443559.134117,-2.142564296722412,-1.3340423864177247,-2.527417008076803,6.113309848099508,1.0186645984649658,-2.3115854899035853
1708443559.1361234,-2.142592668533325,-1.3340335053256531,-2.527463499699728,6.113203632622518,1.0187005996704102,-2.3114548365222376
1708443559.1381133,-2.142564296722412,-1.3339884591153641,-2.52747089067568,6.113191473274984,1.0187487602233887,-2.3112807909594935
1708443559.1401172,-2.1425607204437256,-1.3340495240739365,-2.5275116602527063,6.113265025406637,1.018796682357788,-2.3111634890185755
1708443559.1421475,-2.142533540725708,-1.3340378564647217,-2.5275428930865687,6.113265025406637,1.018877625465393,-2.311019484196798
1708443559.1441169,-2.142512083053589,-1.3339766424945374,-2.527562443410055,6.113247740059652,1.0189093351364136,-2.310911242161886
1708443559.1461143,-2.142483949661255,-1.3340628457120438,-2.5276451746570032,6.113260853081503,1.018961787223816,-2.3108254114734095
1708443559.148107,-2.1424996852874756,-1.333976687198021,-2.5276766459094446,6.113253104477682,1.019026517868042,-2.3106513659106653
1708443559.150106,-2.142483949661255,-1.3340495240739365,-2.5276270548449915,6.113257515221395,1.0190702676773071,-2.310509983693258
1708443559.1521032,-2.1424543857574463,-1.334058405166008,-2.5276885668383997,6.113252031594076,1.0191348791122437,-2.3104124704944056
1708443559.1541252,-2.1424758434295654,-1.3340538752130051,-2.5277650992022913,6.113260733872213,1.0191948413848877,-2.3102219740497034
1708443559.1561308,-2.142489194869995,-1.334030107860901,-2.5277515093432825,6.1132123349006555,1.0192549228668213,-2.310089651738302
1708443559.1581166,-2.142456531524658,-1.3340495389750977,-2.5277424494372767,6.113260733872213,1.0192819833755493,-2.3099799791919153
1708443559.1601093,-2.1424813270568848,-1.3340212267688294,-2.527820650731222,6.113273012429037,1.0193469524383545,-2.309784714375631
1708443559.1621192,-2.1424858570098877,-1.3340212267688294,-2.5278144518481653,6.113252031594076,1.019378423690796,-2.3096824328051966
1708443559.164116,-2.1424238681793213,-1.3340169352344056,-2.5278263727771204,6.113248932152548,1.0194637775421143,-2.309469525014059
1708443559.1661496,-2.142395496368408,-1.3340777319720765,-2.5278504530536097,6.113228308945455,1.019547939300537,-2.3093324343310755
1708443559.1681118,-2.142415761947632,-1.3340451431325455,-2.527857844029562,6.1132240174110315,1.019537329673767,-2.309201780949728
1708443559.170116,-2.1424202919006348,-1.3340538454106827,-2.527914826069967,6.1132651446159265,1.019648790359497,-2.3090291658984583
1708443559.1721082,-2.142437219619751,-1.3340495389750977,-2.5279510656939905,6.113247740059652,1.0196995735168457,-2.308889452611105
1708443559.17413,-2.1423749923706055,-1.3340538454106827,-2.5279958883868616,6.113297927170553,1.0197149515151978,-2.308721129094259
1708443559.176114,-2.1423795223236084,-1.3340451580337067,-2.528015438710348,6.113243329315939,1.019787311553955,-2.308617655430929
1708443559.1781223,-2.142352342605591,-1.3340658408454438,-2.5280259291278284,6.1132643101509,1.0199058055877686,-2.3084359804736536
1708443559.1801085,-2.1423635482788086,-1.3340658408454438,-2.5280616919146937,6.1132686016853235,1.019866704940796,-2.3081911245929163
1708443559.182113,-2.1423611640930176,-1.3340482276729126,-2.528111521397726,6.113260018616476,1.019964337348938,-2.3080361525165003
1708443559.1840951,-2.1423656940460205,-1.3341063273004075,-2.528142754231588,6.113317715912618,1.019974946975708,-2.3078468481646937
1708443559.1861262,-2.142270803451538,-1.3340777617743989,-2.528159205113546,6.113300311356344,1.0200639963150024,-2.307666603718893
1708443559.1881258,-2.142320394515991,-1.3340614599040528,-2.5281863848315638,6.113292443543234,1.0200905799865723,-2.307495419179098
1708443559.190129,-2.1423046588897705,-1.3340451580337067,-2.5282283465014856,6.113309013634481,1.0202016830444336,-2.307265822087423
1708443559.1921153,-2.142320394515991,-1.3340855252793808,-2.528259817753927,6.113332855492391,1.0202077627182007,-2.3071394602404993
1708443559.1941633,-2.1423089504241943,-1.3340855252793808,-2.528255287800924,6.113309013634481,1.0202678442001343,-2.3069220224963587
1708443559.1961102,-2.142324924468994,-1.3341225546649476,-2.5283153692828577,6.113324153214254,1.020349144935608,-2.3066888491259974
1708443559.1981144,-2.142301082611084,-1.3341063273004075,-2.528327290211813,6.113344657212057,1.0203973054885864,-2.3064640204059046
1708443559.2000973,-2.1422841548919678,-1.3341256988099595,-2.528396193181173,6.113336074143209,1.0204859972000122,-2.3062623182879847
1708443559.202111,-2.1422886848449707,-1.334167407160141,-2.5284159819232386,6.113293635636129,1.0205252170562744,-2.3061135450946253
1708443559.2041075,-2.142279624938965,-1.3341701936772843,-2.528438154851095,6.1133718369300745,1.0206105709075928,-2.305826727543966
1708443559.2061226,-2.142240285873413,-1.3341497641852875,-2.528454605733053,6.113425242691793,1.0206375122070312,-2.3056677023517054
1708443559.2081234,-2.142240285873413,-1.3341570359519501,-2.5284622351275843,6.113432752877035,1.0206531286239624,-2.305415217076437
1708443559.210115,-2.1422860622406006,-1.334157095556595,-2.5285237471209925,6.113453376084127,1.020774483680725,-2.3051448504077356
1708443559.2121274,-2.1422533988952637,-1.3341570806554337,-2.52855092683901,6.113435971527853,1.0207984447479248,-2.3049541155444544
1708443559.2141082,-2.1422791481018066,-1.3341525954059144,-2.528558317814962,6.1134525416191,1.0208210945129395,-2.304718319569723
1708443559.216115,-2.1422860622406006,-1.3341437739184876,-2.5286241213427942,6.113492595940389,1.0208778381347656,-2.3044284025775355
1708443559.2181158,-2.1422250270843506,-1.3341692102006455,-2.5286439100848597,6.113464104920187,1.02096688747406,-2.304159704838888
1708443559.2201092,-2.1422533988952637,-1.3342423003963013,-2.528630320225851,6.11345540264205,1.021010160446167,-2.3039522806750696
1708443559.222114,-2.142191171646118,-1.334209383731224,-2.528682533894674,6.113520848542013,1.0210301876068115,-2.3036802450763147
1708443559.2241054,-2.1422135829925537,-1.3342392903617402,-2.528682533894674,6.113552439003744,1.0210809707641602,-2.303436819707052
1708443559.22612,-2.142188787460327,-1.3342586767724534,-2.5287728945361536,6.113523947983541,1.0211424827575684,-2.3031426111804407
1708443559.2281582,-2.14220929145813,-1.3342290383628388,-2.5287426153766077,6.113540518074789,1.021228313446045,-2.302878204976217
1708443559.230109,-2.142195701599121,-1.3342005175403138,-2.5287652651416224,6.113531815796652,1.021217703819275,-2.3025854269610804
1708443559.2321079,-2.1422271728515625,-1.3342290383628388,-2.5288100878344935,6.1135480282600305,1.0212332010269165,-2.3022926489459437
1708443559.2341473,-2.142251968383789,-1.3342290830663224,-2.5287891069995325,6.113562929421224,1.0213093757629395,-2.302037064229147
1708443559.236104,-2.142204761505127,-1.334175394182541,-2.5288293997394007,6.113587128907003,1.021363615989685,-2.3017802874194544
1708443559.2381244,-2.142188787460327,-1.3341710430434723,-2.528877560292379,6.113619553833761,1.0213696956634521,-2.3014679590808313
1708443559.2401385,-2.1422431468963623,-1.3342453849366684,-2.5289483706103724,6.113619553833761,1.0214269161224365,-2.3011494318591517
1708443559.2421587,-2.1422317028045654,-1.3342246872237702,-2.5289438406573694,6.113704430847921,1.0214869976043701,-2.3009241263019007
1708443559.2441306,-2.1422111988067627,-1.3341635179570694,-2.5289631525622767,6.1136512635047815,1.0215437412261963,-2.3006883303271692
1708443559.2461216,-2.1421525478363037,-1.3342126917890091,-2.5289750734912317,6.113695609360494,1.021571159362793,-2.3003578821765345
1708443559.2481794,-2.14214825630188,-1.3342453104308625,-2.528970543538229,6.113666760712423,1.0216115713119507,-2.3000617663012903
1708443559.250113,-2.142125368118286,-1.334261716609337,-2.5290351549731653,6.1137446043785,1.0216474533081055,-2.2997406164752405
1708443559.2521544,-2.142174005508423,-1.3342409890941163,-2.5290187040912073,6.113698947220602,1.0216447114944458,-2.2994940916644495
1708443559.254119,-2.1421749591827393,-1.3342497509768982,-2.5290663878070276,6.113772022515096,1.0217152833938599,-2.2991202513324183
1708443559.2561536,-2.1421570777893066,-1.334215910439827,-2.529090706502096,6.113718735962667,1.0217634439468384,-2.2988529841052454
1708443559.2581222,-2.1421477794647217,-1.3342974197915574,-2.529132668172018,6.113779651909628,1.0218158960342407,-2.2984843889819544
1708443559.260103,-2.142120838165283,-1.334273563032486,-2.529144589100973,6.113775241165914,1.0218232870101929,-2.298191849385397
1708443559.2621362,-2.1421353816986084,-1.334215910439827,-2.5291100184070032,6.113791453629293,1.0218521356582642,-2.2978673616992396
1708443559.2641065,-2.1421217918395996,-1.3342886430076142,-2.529098097478048,6.113762366562643,1.02187180519104,-2.297504250203268
1708443559.2661593,-2.1421139240264893,-1.334269182091095,-2.52916390100588,6.113750445633688,1.0218583345413208,-2.297185722981588
1708443559.268124,-2.142118215560913,-1.3342648309520264,-2.5291460196124476,6.113814341812887,1.0219184160232544,-2.2968326250659388
1708443559.2701213,-2.142059803009033,-1.3342441779426117,-2.5291672388659876,6.113774287491598,1.0219347476959229,-2.296455685292379
1708443559.2721283,-2.1420888900756836,-1.3342886877110978,-2.52921969095339,6.113822924881735,1.0219919681549072,-2.2961445490466517
1708443559.2741196,-2.1420979499816895,-1.3342560541680832,-2.529186550770895,6.1137980101402185,1.022015929222107,-2.295804802571432
1708443559.276129,-2.1421139240264893,-1.3343260151198884,-2.529177490864889,6.113785850792684,1.02204430103302,-2.2954564730273646
1708443559.2781227,-2.1421217918395996,-1.3343498420766373,-2.529222551976339,6.113818633347311,1.0220670700073242,-2.295124355946676
1708443559.2801006,-2.1420934200286865,-1.3342886728099366,-2.5292511622058313,6.113855469017782,1.022070050239563,-2.2947714964496058
1708443559.2821236,-2.142138719558716,-1.3342842620662232,-2.529252592717306,6.113777029305258,1.0221573114395142,-2.2943247000323694
1708443559.2841203,-2.1420888900756836,-1.3342961382916947,-2.5292511622058313,6.113879668503561,1.0221720933914185,-2.2939518133746546
1708443559.2861168,-2.1420934200286865,-1.3342785698226471,-2.5292347113238733,6.113821851998129,1.0221422910690308,-2.2936134974109095
1708443559.288112,-2.142134189605713,-1.3343049746802826,-2.529231611882345,6.1138415215309045,1.0221872329711914,-2.293269459401266
1708443559.2901058,-2.1421048641204834,-1.3343466979316254,-2.529259983693258,6.113814341812887,1.0222069025039673,-2.2928348223315638
1708443559.292113,-2.1420979499816895,-1.3342961233905335,-2.529243771229879,6.113874065666952,1.0221705436706543,-2.292417351399557
1708443559.2941067,-2.1421263217926025,-1.3342873466065903,-2.5292301813708704,6.113821851998129,1.022257924079895,-2.292033020650045
1708443559.2961178,-2.1421048641204834,-1.3343335402062912,-2.5292211214648646,6.113842475205221,1.0222443342208862,-2.291616741810934
1708443559.298104,-2.1421048641204834,-1.3343040210059662,-2.5292511622058313,6.113908159523763,1.0221692323684692,-2.291248623524801
1708443559.3001037,-2.1421048641204834,-1.334382788544037,-2.5292630831347864,6.11386655548171,1.0222651958465576,-2.290819231663839
1708443559.3021278,-2.1420934200286865,-1.334317223434784,-2.5292421022998255,6.113935935288229,1.02223539352417,-2.2903946081744593
1708443559.3041146,-2.1420767307281494,-1.334291772251465,-2.5292630831347864,6.113918530731954,1.0222187042236328,-2.2899673620807093
1708443559.3061383,-2.1421520709991455,-1.3343899112990876,-2.5292392412768763,6.113918530731954,1.0222232341766357,-2.2895336786853235
1708443559.3081157,-2.1420810222625732,-1.3343453717282792,-2.5292180220233362,6.113947021752157,1.0222113132476807,-2.2891247908221644
1708443559.310107,-2.1421024799346924,-1.3343378913453598,-2.5292180220233362,6.113960015564718,1.02223539352417,-2.288666311894552
1708443559.3121173,-2.142118215560913,-1.33432029307399,-2.5292375723468226,6.113918530731954,1.022220253944397,-2.2882590929614466
1708443559.314112,-2.1420810222625732,-1.3343172085336228,-2.5292375723468226,6.113939034729757,1.022253394126892,-2.287841860448019
1708443559.3161256,-2.1420979499816895,-1.3342994910529633,-2.5292375723468226,6.113931524544515,1.0222113132476807,-2.287431780491964
1708443559.3181143,-2.1420438289642334,-1.3343039763024827,-2.5292704741107386,6.113927113800802,1.0222276449203491,-2.286961380635397
1708443559.3200922,-2.1421353816986084,-1.3342710149339219,-2.5292466322528284,6.113905536919393,1.0222113132476807,-2.2865257898913782
1708443559.3221364,-2.1421024799346924,-1.3343620014241715,-2.5292585531817835,6.113939034729757,1.022215723991394,-2.28603965440859
1708443559.3241146,-2.142106771469116,-1.3342951399138947,-2.5292375723468226,6.11393831947402,1.0221614837646484,-2.285563055668966
1708443559.3261287,-2.1421003341674805,-1.3343049746802826,-2.5292959848987024,6.113899338036337,1.0222039222717285,-2.285074059163229
1708443559.3281298,-2.142073154449463,-1.3342680048993607,-2.5292585531817835,6.1138906357581995,1.0222039222717285,-2.2846551577197474
1708443559.330119,-2.14206862449646,-1.334340975885727,-2.5292630831347864,6.113873350411215,1.0221631526947021,-2.284177843724386
1708443559.3321316,-2.142127275466919,-1.3343320947936554,-2.5292089621173304,6.113934862404623,1.0222084522247314,-2.2836645285235804
1708443559.334129,-2.1421396732330322,-1.3343695414117356,-2.5292330423938196,6.113922822266378,1.0222173929214478,-2.2832468191729944
1708443559.3360915,-2.142077684402466,-1.3343335402062912,-2.5292001406299036,6.113836276322164,1.0221468210220337,-2.282774273549215
1708443559.3381119,-2.1421024799346924,-1.3343650561622162,-2.5292347113238733,6.113873350411215,1.0221794843673706,-2.2822817007647913
1708443559.3401134,-2.142059803009033,-1.33432029307399,-2.5291927496539515,6.113902318268575,1.0221720933914185,-2.281747643147604
1708443559.3421364,-2.1420934200286865,-1.3343497824719925,-2.5292180220233362,6.113895046501913,1.0221647024154663,-2.281250301991598
1708443559.344125,-2.142122745513916,-1.334329054956772,-2.5292044321643274,6.113857853203573,1.0220731496810913,-2.2807791868792933
1708443559.3461256,-2.142122745513916,-1.334329054956772,-2.5292511622058313,6.113902318268575,1.0221014022827148,-2.2802942434894007
1708443559.3481357,-2.1421139240264893,-1.3343409907868882,-2.5292676130877894,6.113909947663107,1.0221014022827148,-2.2798150221454065
1708443559.3501525,-2.142090082168579,-1.33432029307399,-2.5292180220233362,6.113862263947286,1.0220714807510376,-2.279257122670309
1708443559.3520944,-2.1421024799346924,-1.3343453717282792,-2.5292511622058313,6.113902318268575,1.0220834016799927,-2.2787440458880823
1708443559.35409,-2.1421093940734863,-1.3342917275479813,-2.52921969095339,6.113931524544515,1.0220507383346558,-2.27824050584902
1708443559.356106,-2.1420507431030273,-1.3343664717725296,-2.5292466322528284,6.113845932274618,1.0220264196395874,-2.2777679602252405
1708443559.3581007,-2.142064332962036,-1.3343487542918702,-2.529206101094381,6.113878476410665,1.0220308303833008,-2.2772563139544886
1708443559.3601096,-2.142127275466919,-1.3343782436898728,-2.529189411793844,6.113857853203573,1.0220352411270142,-2.2767728010760706
1708443559.3621068,-2.142064332962036,-1.3343039763024827,-2.529156510029928,6.113865601807394,1.0220189094543457,-2.2762067953692835
1708443559.3640997,-2.142106771469116,-1.334348739390709,-2.5291596094714563,6.11386655548171,1.021952748298645,-2.2757189909564417
1708443559.3661106,-2.142106771469116,-1.334382788544037,-2.529203001652853,6.1138906357581995,1.0219544172286987,-2.2752655188189905
1708443559.368098,-2.142064332962036,-1.3343498420766373,-2.529156510029928,6.113882052689352,1.0219138860702515,-2.2746456305133265
1708443559.3700879,-2.142122745513916,-1.3343487542918702,-2.529186550770895,6.113862263947286,1.0219184160232544,-2.2741411367999476
1708443559.3721032,-2.1420369148254395,-1.334324674015381,-2.5291910807238978,6.11386655548171,1.0218523740768433,-2.2736499945269983
1708443559.3741176,-2.142059803009033,-1.3343409460834046,-2.5291627089129847,6.11386655548171,1.0218746662139893,-2.2730677763568323
1708443559.3760884,-2.142122745513916,-1.334340975885727,-2.5291581789599817,6.1138590452964685,1.0218493938446045,-2.2725890318499964
1708443559.3781092,-2.142106771469116,-1.3343083721450348,-2.5291369597064417,6.11376570442275,1.0218085050582886,-2.2720258871661585
1708443559.3801022,-2.1420979499816895,-1.3343695414117356,-2.529153649006979,6.1138765690620325,1.0218431949615479,-2.2715018431292933
1708443559.3821254,-2.1421024799346924,-1.334324674015381,-2.5291460196124476,6.113839256554403,1.0218143463134766,-2.270933453236715
1708443559.3840976,-2.142090082168579,-1.3343453717282792,-2.5291174093829554,6.113762366562643,1.021752953529358,-2.2704628149615687
1708443559.3861632,-2.142127275466919,-1.3343246591142197,-2.529135529194967,6.113806712418356,1.02177095413208,-2.269904438649313
1708443559.3881137,-2.1420483589172363,-1.3343203377774735,-2.529060665761129,6.113746154099264,1.0217288732528687,-2.2694228331195276
1708443559.390127,-2.1421396732330322,-1.3343365800431748,-2.5290663878070276,6.113751160889425,1.0217349529266357,-2.268897358571188
1708443559.3921072,-2.1420819759368896,-1.3342917275479813,-2.5290663878070276,6.113702404289999,1.021673560142517,-2.2683237234698694
1708443559.3941145,-2.1420979499816895,-1.3342710447362442,-2.5290544668780726,6.113669621735372,1.0216671228408813,-2.2677510420428675
1708443559.3961024,-2.1420631408691406,-1.3343202781728287,-2.5290215651141565,6.113699066429891,1.0216087102890015,-2.26722222963442
1708443559.3981152,-2.1420979499816895,-1.334340975885727,-2.5290306250201624,6.1136783240135095,1.0216251611709595,-2.266820732747213
1708443559.4001317,-2.1420810222625732,-1.3343941879323502,-2.528969113026754,6.113617646485128,1.0215859413146973,-2.266238514577047
1708443559.402148,-2.1420719623565674,-1.334336594944336,-2.5290022532092493,6.113654839783468,1.0215368270874023,-2.265714470540182
1708443559.4041069,-2.1420934200286865,-1.3343172085336228,-2.528952423726217,6.113614308625021,1.0215049982070923,-2.2651899496661585
1708443559.4061515,-2.1420810222625732,-1.3342829209617157,-2.528961483632223,6.1136231301124475,1.0214645862579346,-2.2647059599505823
1708443559.4081297,-2.142085552215576,-1.334340975885727,-2.528966013585226,6.113610851555624,1.0214253664016724,-2.2642152945147913
1708443559.4101167,-2.142090082168579,-1.3342679303935547,-2.528937641774313,6.113649236946859,1.0214660167694092,-2.2636850515948694
1708443559.412203,-2.142073154449463,-1.3342961382916947,-2.5289347807513636,6.113594639092245,1.021368145942688,-2.2631195227252405
1708443559.4141192,-2.142122745513916,-1.3343335402062912,-2.5288849512683313,6.113583910256185,1.0213696956634521,-2.2626035849200647
1708443559.416117,-2.14206862449646,-1.3343202483705063,-2.5288849512683313,6.113571631699362,1.0213412046432495,-2.2620695273028772
1708443559.4181688,-2.1420810222625732,-1.3343498718789597,-2.528914992009298,6.113588201790609,1.021304726600647,-2.2615354696856897
1708443559.4201238,-2.1421263217926025,-1.3343202781728287,-2.528846327458517,6.113555657654562,1.021231770515442,-2.260986630116598
1708443559.4221325,-2.1420888900756836,-1.3342383962920685,-2.5288718382464808,6.113454329758444,1.0212161540985107,-2.2604597250567835
1708443559.4241014,-2.142118215560913,-1.334317223434784,-2.5288644472705286,6.1134915230567834,1.0212132930755615,-2.2599337736712855
1708443559.4261265,-2.142064332962036,-1.3343259406140824,-2.5287936369525355,6.113458621292867,1.0211727619171143,-2.2593844572650355
1708443559.4281163,-2.1421024799346924,-1.3343334955028077,-2.5287817160235804,6.113439547806539,1.0211246013641357,-2.258874241505758
1708443559.4301076,-2.1420483589172363,-1.334329054956772,-2.5287743250476282,6.113472807198324,1.0211246013641357,-2.258303467427389
1708443559.432104,-2.142090082168579,-1.3343542230180283,-2.5287485758410853,6.1134153483207605,1.0210719108581543,-2.2577856222735804
1708443559.4341452,-2.142118215560913,-1.3342873764089127,-2.528708044682638,6.113412129669943,1.021040439605713,-2.2572453657733362
1708443559.436095,-2.142090082168579,-1.3342828762582322,-2.528759304677145,6.113417613297262,1.0210374593734741,-2.2566750685321253
1708443559.4381146,-2.14206862449646,-1.3342961382916947,-2.5287097136126917,6.113339292794027,1.0210211277008057,-2.256122414265768
1708443559.4401186,-2.142064332962036,-1.334329054956772,-2.5287306944476526,6.113327371865072,1.0209566354751587,-2.255594078694479
1708443559.4421167,-2.1420552730560303,-1.3342635345510026,-2.528649632130758,6.113324153214254,1.0209040641784668,-2.2550652662860315
1708443559.4441335,-2.142057180404663,-1.3342516732266922,-2.528682533894674,6.113324034004965,1.020848035812378,-2.2545416990863245
1708443559.4461226,-2.1421353816986084,-1.3343005937388916,-2.528661553059713,6.113276231079855,1.0208525657653809,-2.2540343443499964
1708443559.448181,-2.14206862449646,-1.3342961233905335,-2.528604809437887,6.113243448525228,1.02076256275177,-2.253406826649801
1708443559.4501183,-2.1420810222625732,-1.3343049746802826,-2.5286319891559046,6.113207924156942,1.0208014249801636,-2.252911392842428
1708443559.4521239,-2.142064332962036,-1.3342798513225098,-2.5285521189319056,6.113208758621969,1.0207202434539795,-2.2523425261126917
1708443559.454131,-2.142094373703003,-1.3343137216619034,-2.5286195913897913,6.11319254615859,1.0206828117370605,-2.251835648213522
1708443559.456121,-2.142073154449463,-1.3342428666404267,-2.5285611788379114,6.11322175243453,1.0206396579742432,-2.251298729573385
1708443559.4581592,-2.142059803009033,-1.3343137514642258,-2.528567377720968,6.113176214485922,1.020660400390625,-2.2507455984698694
1708443559.4601026,-2.142127275466919,-1.3343216192773362,-2.528583828602926,6.113112079888143,1.020558476448059,-2.2501476446734827
1708443559.462135,-2.142073154449463,-1.334321604376175,-2.52850848833193,6.113113152771749,1.0205762386322021,-2.2496898810016077
1708443559.4641166,-2.1421308517456055,-1.3343260151198884,-2.5285101572619837,6.113105523377218,1.0205073356628418,-2.249190155659811
1708443559.4661279,-2.1421093940734863,-1.3342396926930924,-2.5284696261035364,6.113089310913839,1.0205117464065552,-2.248631779347555
1708443559.4681497,-2.142061710357666,-1.334263489847519,-2.5285237471209925,6.11306523063735,1.0204544067382812,-2.2480929533587855
1708443559.4701173,-2.1420979499816895,-1.3343005788377305,-2.5284081141101282,6.112999903946676,1.020434856414795,-2.2475646177874964
1708443559.4721394,-2.1421315670013428,-1.3342767369798203,-2.528400723134176,6.1130010960395715,1.0204076766967773,-2.247028175984518
1708443559.474154,-2.1420392990112305,-1.334219054584839,-2.528451744710104,6.11301730850295,1.0203794240951538,-2.246511761342184
1708443559.4761183,-2.1420483589172363,-1.3342234951308747,-2.528430763875143,6.1129642603691,1.020310401916504,-2.245974842702047
1708443559.4781415,-2.1420528888702393,-1.3342648160508652,-2.5284069220172327,6.112965333252706,1.0202789306640625,-2.24551231065859
1708443559.4801128,-2.1421139240264893,-1.334214673643448,-2.5283167997943323,6.112949001580038,1.0202789306640625,-2.2449377218829554
1708443559.4821343,-2.142094373703003,-1.3342485290816803,-2.5283406416522425,6.112904298096456,1.0202049016952515,-2.244471851979391
1708443559.4841738,-2.142127275466919,-1.334219143991806,-2.5283213297473353,6.112852322846212,1.0202559232711792,-2.243988339100973
1708443559.486148,-2.1420528888702393,-1.3342485141805192,-2.528334919606344,6.112893569260397,1.0202077627182007,-2.2434166113482874
1708443559.4881182,-2.14206862449646,-1.3342040342143555,-2.528348509465353,6.112893569260397,1.0201375484466553,-2.2428720633136194
1708443559.4901075,-2.142064332962036,-1.3342246872237702,-2.528327290211813,6.112899052887716,1.0201220512390137,-2.2423880735980433
1708443559.4921587,-2.1420528888702393,-1.3342334491065522,-2.52832276025881,6.112866508751669,1.020098328590393,-2.2418835798846644
1708443559.4941432,-2.1420979499816895,-1.3342616570046921,-2.5282748381244105,6.112805592804708,1.0200414657592773,-2.241403404866354
1708443559.496112,-2.14206862449646,-1.3342823845199128,-2.5282371679889124,6.112785804062643,1.0200549364089966,-2.240858856831686
1708443559.4981306,-2.142122745513916,-1.334217132335045,-2.528238836918966,6.112805473595419,1.020006775856018,-2.2403934637652796
1708443559.500121,-2.142064332962036,-1.334204987888672,-2.528205696736471,6.112797605782308,1.0200201272964478,-2.239816490803854
1708443559.5021355,-2.142094373703003,-1.3341930669597168,-2.528196636830465,6.112711894303121,1.0200246572494507,-2.2392810026751917
1708443559.5041454,-2.142090082168579,-1.3341262650540848,-2.528198305760519,6.112770902901449,1.0199389457702637,-2.238781277333395
1708443559.5061789,-2.142115831375122,-1.3341394823840638,-2.5282118956195276,6.112705576210775,1.0198802947998047,-2.2383301893817347
1708443559.5081394,-2.142077684402466,-1.3342585575631638,-2.5281081835376185,6.112710821419515,1.0198863744735718,-2.237784210835592
1708443559.5101671,-2.142061710357666,-1.3341974479011078,-2.5281835238086146,6.11269890049056,1.0198997259140015,-2.2373245398150843
1708443559.5121493,-2.142077684402466,-1.3341887158206482,-2.5281456152545374,6.112658726959982,1.0198637247085571,-2.236893955861227
1708443559.5141692,-2.142073154449463,-1.3341647994569321,-2.5281851927386683,6.112613308220663,1.0197858810424805,-2.236434284840719
1708443559.5161345,-2.142061710357666,-1.3341855269721528,-2.528142754231588,6.112627017288961,1.019770622253418,-2.2359254995929163
1708443559.518133,-2.142077684402466,-1.334209368830063,-2.528151814137594,6.112569558411398,1.019775152206421,-2.2354362646686
1708443559.5201204,-2.142057180404663,-1.334239200954773,-2.528090302144186,6.112603175431051,1.0197539329528809,-2.2349799315081995
1708443559.5221143,-2.142033338546753,-1.3342150312713166,-2.5280829111682337,6.112610804825582,1.0196682214736938,-2.2344802061664026
1708443559.524178,-2.142057180404663,-1.3341071021607895,-2.5280783812152308,6.1125454781349084,1.019637107849121,-2.234009091054098
1708443559.5261245,-2.142054796218872,-1.3341899824193497,-2.5280874411212366,6.112489092140951,1.019641637802124,-2.2335451284991663
1708443559.5281143,-2.142075300216675,-1.334160478120186,-2.5280633608447474,6.112490165024557,1.01964271068573,-2.2331202665912073
1708443559.5301163,-2.142066240310669,-1.3341366362622757,-2.5280092398272913,6.112524020462789,1.0196309089660645,-2.2326324621783655
1708443559.5321202,-2.1420795917510986,-1.3341613572886963,-2.5280514399157923,6.112491118698873,1.0195692777633667,-2.2322047392474573
1708443559.5341334,-2.142075300216675,-1.3340961647084733,-2.528006378804342,6.1124098179634,1.01957368850708,-2.231760327016012
1708443559.5361013,-2.142029047012329,-1.3341334623149415,-2.528015438710348,6.112427222519674,1.0195209980010986,-2.23129111925234
1708443559.5381112,-2.142033338546753,-1.3341247898391266,-2.52797776857485,6.112439143448629,1.0195329189300537,-2.230842892323629
1708443559.5401223,-2.1420254707336426,-1.3340710562518616,-2.5279584566699427,6.11242293098525,1.0194926261901855,-2.230384651814596
1708443559.5421085,-2.1420209407806396,-1.3341213029674073,-2.527982298527853,6.112370478897848,1.0195014476776123,-2.229962174092428
1708443559.544124,-2.1420254707336426,-1.3341422987035294,-2.5279584566699427,6.112387883454122,1.01947021484375,-2.2295101324664515
1708443559.5461223,-2.142000436782837,-1.3341334623149415,-2.52794319788088,6.112338888436117,1.0194578170776367,-2.229023281727926
1708443559.5481105,-2.14200496673584,-1.3341124516776581,-2.5279176870929163,6.112299072533407,1.0194578170776367,-2.22855788866152
1708443559.5501208,-2.1420681476593018,-1.3340961200049897,-2.527935806904928,6.112279164582052,1.0193935632705688,-2.228164021168844
1708443559.5521328,-2.1420469284057617,-1.3341005456498642,-2.527935806904928,6.112312066345968,1.0193768739700317,-2.227722946797506
1708443559.5541003,-2.1419928073883057,-1.3341050010970612,-2.527898375188009,6.112287986069479,1.0194143056869507,-2.2272589842425745
1708443559.556116,-2.1420469284057617,-1.3340724122575303,-2.527916495000021,6.112287986069479,1.0193438529968262,-2.226835076008932
1708443559.5581183,-2.1420228481292725,-1.334085540180542,-2.527886454259054,6.1123084900672815,1.0192956924438477,-2.2263978163348597
1708443559.5601437,-2.1420254707336426,-1.3340733808330079,-2.527874533330099,6.112256276398458,1.0193302631378174,-2.2259820143329065
1708443559.5621295,-2.1419804096221924,-1.334085540180542,-2.527883593236105,6.112268197327413,1.0193090438842773,-2.2255218664752405
1708443559.564105,-2.1420388221740723,-1.334085540180542,-2.5278428236590784,6.112195598870077,1.0193257331848145,-2.2251294294940394
1708443559.5661173,-2.1420061588287354,-1.3340974611094971,-2.5278473536120813,6.11220000961379,1.019294261932373,-2.2247136274920862
1708443559.5681338,-2.1420342922210693,-1.334085540180542,-2.5278144518481653,6.112177002220907,1.019277572631836,-2.2243102232562464
1708443559.570106,-2.142010450363159,-1.3340495389750977,-2.527790371571676,6.112196671753683,1.0192493200302124,-2.2239015738116663
1708443559.572137,-2.142019510269165,-1.3340495389750977,-2.527828041707174,6.112140166550436,1.0192415714263916,-2.2234633604632776
1708443559.574121,-2.141989231109619,-1.3340451133302231,-2.527807060872213,6.11212037780837,1.019250512123108,-2.2230351606952112
1708443559.5761135,-2.142010450363159,-1.3340123754790802,-2.527828041707174,6.112095701485433,1.0192219018936157,-2.222640339528219
1708443559.5781078,-2.1419732570648193,-1.3340583902648468,-2.5277543703662317,6.112104403763571,1.019230842590332,-2.222207848225729
1708443559.5800998,-2.142019510269165,-1.3340048652938385,-2.527787510548727,6.1120924828346155,1.0191725492477417,-2.221762005482809
1708443559.5821307,-2.1419663429260254,-1.3340168458274384,-2.5277634302722376,6.112075912743368,1.0191484689712524,-2.2213743368731897
1708443559.5840988,-2.1419708728790283,-1.3340256971171875,-2.5277095476733606,6.112063872605123,1.0191410779953003,-2.220957104359762
1708443559.5861185,-2.141991138458252,-1.3340211820653458,-2.5276880900012415,6.112065064698019,1.019136667251587,-2.220527950917379
1708443559.5881178,-2.141986608505249,-1.3340345484069367,-2.5277095476733606,6.112094509392538,1.0191500186920166,-2.2201722303973597
1708443559.590108,-2.141953945159912,-1.3340211820653458,-2.5277276674853724,6.112037765770712,1.0191214084625244,-2.2198131720172327
1708443559.5921078,-2.142000198364258,-1.3340181869319458,-2.5276806990252894,6.112061846047201,1.0191214084625244,-2.219461743031637
1708443559.5941265,-2.1419460773468018,-1.3339974296144028,-2.5277395884143274,6.111980306893148,1.0191015005111694,-2.219085995350973
1708443559.5961199,-2.141975164413452,-1.3340271276286622,-2.5277231375323694,6.112012851029196,1.0190479755401611,-2.2186477820025843
1708443559.5981174,-2.1418850421905518,-1.3340225976756592,-2.527694288884298,6.111920463829794,1.0190658569335938,-2.2182920614825647
1708443559.6001134,-2.141963005065918,-1.3340272170356293,-2.527682367955343,6.111908542900839,1.0190116167068481,-2.2179368177997034
1708443559.6021237,-2.141916513442993,-1.3339988899281998,-2.527644936238424,6.111875760346212,1.0190283060073853,-2.2175267378436487
1708443559.6041334,-2.141941547393799,-1.3339568984559556,-2.527649466191427,6.111921655922689,1.0189710855484009,-2.2171509901629847
1708443559.6061044,-2.1419389247894287,-1.3340646934560318,-2.527719799672262,6.111890184670248,1.0190010070800781,-2.21678334871401
1708443559.6081054,-2.141930103302002,-1.3339778047851105,-2.5276299158679407,6.1118730185325525,1.019026517868042,-2.2164433638202112
1708443559.6101649,-2.1419551372528076,-1.3339614284089585,-2.527663056050436,6.1118695614631555,1.0190025568008423,-2.21600848833193
1708443559.6121242,-2.1419460773468018,-1.3340197068503876,-2.5276225248919886,6.111882674485006,1.0189608335494995,-2.2156856695758265
1708443559.6141095,-2.1419053077697754,-1.333965854053833,-2.5276344458209437,6.111812937050619,1.0189743041992188,-2.215341869984762
1708443559.6161115,-2.1419389247894287,-1.3339450520328064,-2.5276601950274866,6.111817347794332,1.0189409255981445,-2.2149656454669397
1708443559.6181118,-2.1418533325195312,-1.3339866560748597,-2.5276315847979944,6.111756551056661,1.0189365148544312,-2.2146170775042933
1708443559.6201413,-2.141934633255005,-1.333925725226738,-2.5276029745685022,6.111728179245748,1.0189335346221924,-2.2143057028399866
1708443559.6221406,-2.1419177055358887,-1.3339658242515107,-2.5275774637805384,6.111761081009664,1.0188841819763184,-2.2139561812030237
1708443559.624125,-2.1419098377227783,-1.3339283776334305,-2.527541224156515,6.111773955612936,1.0189138650894165,-2.213616673146383
1708443559.6261072,-2.1419177055358887,-1.3339094084552308,-2.5276103655444544,6.1118355868156335,1.0188766717910767,-2.2132142225848597
1708443559.6281097,-2.1418964862823486,-1.333958463077881,-2.527623955403463,6.111758577614584,1.0188885927200317,-2.2129200140582483
1708443559.6301012,-2.1418778896331787,-1.333971620803215,-2.527609173451559,6.11175416687087,1.0188477039337158,-2.212576214467184
1708443559.6321242,-2.141935348510742,-1.3339212399772187,-2.527571503316061,6.111648547440328,1.01888108253479,-2.2122181097613733
1708443559.6341283,-2.141918420791626,-1.3339389127543946,-2.527545754109518,6.1116734621818445,1.0188567638397217,-2.2118991057025355
1708443559.6361074,-2.141862154006958,-1.3339911264232178,-2.527533833180563,6.111652958184042,1.0188448429107666,-2.211550537739889
1708443559.638108,-2.1418755054473877,-1.333950550561287,-2.5275805632220667,6.111636984139242,1.0188133716583252,-2.211259190236227
1708443559.6400948,-2.1418416500091553,-1.3339137446931382,-2.5275054613696497,6.11159776428298,1.0188285112380981,-2.2109397093402308
1708443559.6421278,-2.1419098377227783,-1.333915190105774,-2.5275564829455774,6.111577021866598,1.0188088417053223,-2.2105405966388147
1708443559.6441417,-2.141902446746826,-1.3338973981193085,-2.5275383631335657,6.11165868022994,1.0188207626342773,-2.2102897802936
1708443559.6461108,-2.1418371200561523,-1.3339062494090577,-2.527500931416647,6.111602055817404,1.0187937021255493,-2.2099483648883265
1708443559.6481087,-2.1418755054473877,-1.3339107644608994,-2.5275145212756556,6.1115572331245325,1.018768072128296,-2.2096455732928675
1708443559.6501477,-2.1418371200561523,-1.3338821691325684,-2.5275071302997034,6.111607539444723,1.0187443494796753,-2.2093079725848597
1708443559.6527817,-2.1418416500091553,-1.3338480454734345,-2.5275400320636194,6.1115338681037805,1.0187562704086304,-2.209086243306295
1708443559.654135,-2.141876459121704,-1.3338613969138642,-2.5275490919696253,6.11159514167861,1.018710970878601,-2.208752457295553
1708443559.656103,-2.141822338104248,-1.3338821691325684,-2.5275161902057093,6.111489879875936,1.018739938735962,-2.208414379750387
1708443559.6581037,-2.1418087482452393,-1.333853842025139,-2.5275026003467005,6.1115139601524255,1.0187244415283203,-2.2081239859210413
1708443559.6601293,-2.141796588897705,-1.333840550189354,-2.5275116602527063,6.111489879875936,1.018699049949646,-2.2077301184283655
1708443559.6621535,-2.1418302059173584,-1.3338702333024521,-2.52747089067568,6.111489879875936,1.018762230873108,-2.2074626127826136
1708443559.6641026,-2.141822338104248,-1.3338791889003296,-2.5274906794177454,6.1114704487617395,1.0187005996704102,-2.207202736531393
1708443559.66613,-2.141826868057251,-1.3338298213532944,-2.527504269276754,6.1114715216453455,1.018705129623413,-2.206944290791647
1708443559.6681578,-2.141850709915161,-1.333895520572998,-2.527458969746725,6.11142264583663,1.0186972618103027,-2.206634823475973
1708443559.6701105,-2.141843557357788,-1.3338416528752823,-2.527463499699728,6.111471402436056,1.0187017917633057,-2.2063258329974573
1708443559.6721125,-2.1418144702911377,-1.3338658374599,-2.527458969746725,6.111423957138815,1.0186736583709717,-2.2060421148883265
1708443559.6741192,-2.141801118850708,-1.3338672679713746,-2.5274351278888147,6.11137484291152,1.0186601877212524,-2.2057822386371058
1708443559.676122,-2.1418232917785645,-1.3338253063014527,-2.5274351278888147,6.111341941147604,1.0186524391174316,-2.205513302479879
1708443559.6781516,-2.141789674758911,-1.3339000207236786,-2.5274232069598597,6.111346351891317,1.0186402797698975,-2.2052062193499964
1708443559.680113,-2.141757011413574,-1.3338672679713746,-2.5274770895587366,6.111371624260702,1.0186402797698975,-2.204911533986227
1708443559.682134,-2.1417489051818848,-1.3338494312814255,-2.5273900667773646,6.111371624260702,1.0185999870300293,-2.204632584248678
1708443559.68411,-2.1418187618255615,-1.3339118671468277,-2.5274186770068567,6.111298668175497,1.018623948097229,-2.2044127623187464
1708443559.6861231,-2.1417746543884277,-1.3338093620589753,-2.5273855368243616,6.111299741059103,1.0186371803283691,-2.204132382069723
1708443559.688153,-2.1417958736419678,-1.333846167927124,-2.5273945967303675,6.111237633019247,1.0186164379119873,-2.2038472334491175
1708443559.6901295,-2.14180064201355,-1.3338638556054612,-2.5274696985827845,6.111263859062948,1.018612027168274,-2.2036498228656214
1708443559.6921215,-2.1417622566223145,-1.333813802605011,-2.5273945967303675,6.111255156784811,1.0186076164245605,-2.203423325215475
1708443559.6941237,-2.1417791843414307,-1.3338716191104432,-2.5274110476123255,6.111203062325277,1.0186090469360352,-2.2031152884112757
1708443559.6961293,-2.1418278217315674,-1.3337974858335038,-2.5273869673358362,6.11118363121108,1.018575668334961,-2.2028024832354944
1708443559.698145,-2.1417293548583984,-1.3338593405536194,-2.5273779074298304,6.111179220467367,1.0185801982879639,-2.2025993506061
1708443559.7001321,-2.1417462825775146,-1.333813802605011,-2.5274110476123255,6.111199843674459,1.0185638666152954,-2.2023800055133265
1708443559.7021332,-2.1417124271392822,-1.3338298213532944,-2.5273869673358362,6.111143219261923,1.0185801982879639,-2.2020872274981897
1708443559.704116,-2.1417713165283203,-1.333782122736313,-2.5273779074298304,6.111132132797994,1.0185846090316772,-2.2018263975726526
1708443559.706124,-2.1417057514190674,-1.3338137877038498,-2.5273569265948694,6.111071455269613,1.0185728073120117,-2.2015660444842737
1708443559.7081082,-2.1417553424835205,-1.3337895435145875,-2.527384106312887,6.111062872200765,1.0185322761535645,-2.2013095060931605
1708443559.7101045,-2.1417031288146973,-1.3337973368218918,-2.527379576359884,6.111010539322653,1.0185561180114746,-2.201099220906393
1708443559.71212,-2.141756296157837,-1.3337361824563523,-2.5273705164538782,6.111035454064169,1.018527865409851,-2.2008636633502405
1708443559.714137,-2.141723394393921,-1.3338151437095185,-2.527375046406881,6.111020314484396,1.018515944480896,-2.200630489979879
1708443559.716119,-2.1417031288146973,-1.3337317568114777,-2.527337376271383,6.111012804299154,1.0185203552246094,-2.2003729979144495
1708443559.7181342,-2.141690731048584,-1.3338195842555542,-2.527325455342428,6.111036526947775,1.0184869766235352,-2.200235191975729
1708443559.7201033,-2.141666889190674,-1.3337865632823487,-2.527339045201437,6.11096070983962,1.0185048580169678,-2.199904266987936
1708443559.7221391,-2.1416873931884766,-1.3337954145720978,-2.527363125477926,6.110957252770223,1.0185366868972778,-2.1996758619891565
1708443559.724124,-2.1416375637054443,-1.3337954145720978,-2.52735406557192,6.110936629563131,1.018463373184204,-2.1994527021991175
1708443559.7261071,-2.1417088508605957,-1.3337999147227784,-2.527325455342428,6.110904919892111,1.0184499025344849,-2.1992371718036097
1708443559.7281113,-2.1416499614715576,-1.333770216708519,-2.5273659865008753,6.110859620362081,1.0185004472732544,-2.1990020910846155
1708443559.7301102,-2.1416146755218506,-1.3337627363255997,-2.527355496083395,6.110860454827108,1.0185294151306152,-2.1987646261798304
1708443559.732113,-2.141596794128418,-1.3337865632823487,-2.527393166218893,6.110820400505819,1.0185004472732544,-2.198482338582174
1708443559.7341223,-2.1416633129119873,-1.3337627214244385,-2.527381245289938,6.110870349198141,1.0184811353683472,-2.1982839743243616
1708443559.7361622,-2.1416642665863037,-1.3337538701346894,-2.527334515248434,6.110809314041891,1.018434762954712,-2.1980465094195765
1708443559.7381098,-2.14159893989563,-1.3337505620769043,-2.527350966130392,6.110809314041891,1.0184555053710938,-2.1978638807879847
1708443559.7401474,-2.141589879989624,-1.33378358305011,-2.527393166218893,6.110753047257223,1.0184437036514282,-2.1976516882525843
1708443559.7421305,-2.1416373252868652,-1.3337133687785645,-2.527355496083395,6.110724437027731,1.018419623374939,-2.1974104086505335
1708443559.7441318,-2.14159893989563,-1.3337386411479493,-2.5273059050189417,6.110680091172018,1.018457055091858,-2.197256867085592
1708443559.7461312,-2.141570568084717,-1.333754987721779,-2.5273013750659388,6.110685336380758,1.018419623374939,-2.1970441977130335
1708443559.7481391,-2.1415793895721436,-1.3336970222047348,-2.5273435751544397,6.110664713173666,1.0184240341186523,-2.19678241411318
1708443559.7501287,-2.1415750980377197,-1.3336896163276215,-2.527325455342428,6.110645520478048,1.018398404121399,-2.19656211534609
1708443559.7521262,-2.1415421962738037,-1.3337627214244385,-2.5272849241839808,6.110633241921224,1.0184073448181152,-2.1963651815997522
1708443559.7541542,-2.1415140628814697,-1.3337716621211548,-2.5272820631610315,6.110643136292257,1.0184285640716553,-2.1961820761310022
1708443559.7561052,-2.141509532928467,-1.3337311458638688,-2.527339045201437,6.110577809601583,1.0183910131454468,-2.1960156599627894
1708443559.7581244,-2.1415016651153564,-1.3336984527162095,-2.527313295994894,6.110529053002157,1.018399953842163,-2.1957948843585413
1708443559.760103,-2.1415555477142334,-1.3337236952832718,-2.5273616949664515,6.110553729325094,1.018419623374939,-2.1955249945269983
1708443559.7621088,-2.1415274143218994,-1.3337563288262864,-2.5273359457599085,6.110525834351339,1.0183717012405396,-2.19534141222109
1708443559.7641504,-2.1414787769317627,-1.3336940270713349,-2.5273314158069056,6.110489833145895,1.0184043645858765,-2.1951730887042444
1708443559.7661579,-2.1414742469787598,-1.3337073040059586,-2.5273030439959925,6.110417234688558,1.0183550119400024,-2.1950023810016077
1708443559.7681541,-2.141449451446533,-1.3337192249349137,-2.5272658506976526,6.110405313759603,1.0183550119400024,-2.1947696844684046
1708443559.770187,-2.1414449214935303,-1.3337073189071198,-2.5272985140429896,6.110430228501119,1.0183969736099243,-2.194580380116598
1708443559.7721224,-2.141453981399536,-1.3337192249349137,-2.5273330847369593,6.110361683159628,1.0183639526367188,-2.1944616476642054
1708443559.7741108,-2.1414716243743896,-1.33365352571521,-2.5272491613971155,6.110346305161276,1.0184162855148315,-2.1942408720599573
1708443559.7761345,-2.141467332839966,-1.33365352571521,-2.5272939840899866,6.110304701119222,1.0183924436569214,-2.1940444151507776
1708443559.7781148,-2.141394853591919,-1.33365352571521,-2.5273075739489954,6.110347378044882,1.0183383226394653,-2.1938775221454065
1708443559.7801006,-2.141432046890259,-1.3337236505797883,-2.5272701422320765,6.1103811142738245,1.0184015035629272,-2.193700615559713
1708443559.782108,-2.1413991451263428,-1.3336984527162095,-2.5272746721850794,6.110319125443258,1.0183517932891846,-2.193479839955465
1708443559.7841063,-2.141406297683716,-1.3336865317872544,-2.527288262044088,6.11025499084548,1.0183607339859009,-2.1933115164386194
1708443559.7861128,-2.1414082050323486,-1.3336385947516938,-2.5272792021380823,6.110185730248251,1.0183354616165161,-2.1931565443622034
1708443559.7881153,-2.1413776874542236,-1.3336549562266846,-2.527254883443014,6.1102309105689905,1.018314242362976,-2.192967716847555
1708443559.7901983,-2.1413559913635254,-1.3336460155299683,-2.5272672812091272,6.110227572708883,1.0183354616165161,-2.1928041617022913
1708443559.7920997,-2.141371965408325,-1.3336835515550156,-2.527233902608053,6.110175597458639,1.018314242362976,-2.192631546651022
1708443559.7941298,-2.1413605213165283,-1.33365053058181,-2.527247492467062,6.110135304718771,1.0183321237564087,-2.192418400441305
1708443559.7961276,-2.141364812850952,-1.3336757284453888,-2.527288262044088,6.110135304718771,1.0183202028274536,-2.192324940358297
1708443559.7981257,-2.141326665878296,-1.3336579364589234,-2.5272837320910853,6.11008762100295,1.0183157920837402,-2.1921194235431116
1708443559.800143,-2.141268014907837,-1.3336474609426041,-2.527233902608053,6.11000286319808,1.0183277130126953,-2.191958729420797
1708443559.8021176,-2.1412699222564697,-1.3336356294206162,-2.527254883443014,6.110007154732504,1.0183113813400269,-2.191803757344381
1708443559.8041477,-2.1413118839263916,-1.3336549562266846,-2.5272837320910853,6.110024678498068,1.0183606147766113,-2.19166070619692
1708443559.8061063,-2.1413333415985107,-1.3336474609426041,-2.527250353490011,6.1099517224128626,1.0182785987854004,-2.19142991701235
1708443559.8081017,-2.141328811645508,-1.3336341840079804,-2.527242962514059,6.109910475998678,1.0183113813400269,-2.1913068930255335
1708443559.8101113,-2.1412880420684814,-1.3335984212211152,-2.5272672812091272,6.109886395722189,1.018270492553711,-2.1911147276507776
1708443559.812123,-2.1412463188171387,-1.3336178076318284,-2.52720553079714,6.1098636267478845,1.0182349681854248,-2.190962616597311
1708443559.814169,-2.1412508487701416,-1.3336056035808106,-2.527221981679098,6.109924304276266,1.0182965993881226,-2.190805260335104
1708443559.8161445,-2.141188621520996,-1.3337176752141495,-2.527231041585104,6.1098235724265955,1.0183172225952148,-2.1906374136554163
1708443559.818096,-2.1412642002105713,-1.3336189550212403,-2.5272682348834437,6.109857308655538,1.01829195022583,-2.1904900709735315
1708443559.820088,-2.141268491744995,-1.3335613173297425,-2.527254883443014,6.1098540900047205,1.0182557106018066,-2.190383259450094
1708443559.822098,-2.141240358352661,-1.3336266887239,-2.527214590703146,6.109769093781271,1.018296480178833,-2.190202061329977
1708443559.8241134,-2.141256093978882,-1.3336474609426041,-2.5272071997271937,6.109744298249044,1.0182632207870483,-2.190007034932272
1708443559.826123,-2.1412110328674316,-1.3336399656585236,-2.5272026697741907,6.109789478569784,1.018281102180481,-2.189917866383688
1708443559.8281004,-2.1412110328674316,-1.3336144399693985,-2.527247492467062,6.109774815827169,1.0182349681854248,-2.1897080580340784
1708443559.8301148,-2.1412041187286377,-1.3336311143687745,-2.527198139821188,6.109734284668722,1.0182929039001465,-2.189634148274557
1708443559.832119,-2.1411499977111816,-1.333582104449608,-2.5272191206561487,6.10968958118514,1.018222689628601,-2.1894529501544397
1708443559.8341289,-2.1411473751068115,-1.3335702282241364,-2.527198139821188,6.109633195191183,1.018210768699646,-2.189291779194967
1708443559.8361187,-2.141131639480591,-1.3336356294206162,-2.5272026697741907,6.109604942589559,1.0182483196258545,-2.189218346272604
1708443559.838137,-2.1410953998565674,-1.3335702431252976,-2.527247492467062,6.10958098152236,1.0182527303695679,-2.1890276114093226
1708443559.8401382,-2.141131639480591,-1.3336366426995774,-2.527247492467062,6.109593975334921,1.0182468891143799,-2.188925568257467
1708443559.8421085,-2.141113042831421,-1.3336232912591477,-2.5272520224200647,6.109553563385763,1.0182260274887085,-2.188765350972311
1708443559.8441267,-2.1410937309265137,-1.3336320680430909,-2.5272026697741907,6.109537589340963,1.0182360410690308,-2.1886852423297327
1708443559.8461812,-2.1410768032073975,-1.333644376402237,-2.527238432561056,6.109464752465048,1.0182393789291382,-2.188549343739645
1708443559.848125,-2.1410272121429443,-1.3336116981557389,-2.5272401014911097,6.109453666001119,1.0182271003723145,-2.188392464314596
1708443559.8501306,-2.1410202980041504,-1.3336072725108643,-2.5271862188922327,6.109413373261251,1.0182437896728516,-2.188248936329977
1708443559.8521235,-2.1410133838653564,-1.3336321276477356,-2.5272517840014856,6.109398472100057,1.0182138681411743,-2.1881569067584437
1708443559.8541336,-2.1409308910369873,-1.3336683225682755,-2.527189079915182,6.109366881638326,1.0182557106018066,-2.1880624930011194
1708443559.856121,-2.1409566402435303,-1.333590955739357,-2.5272727648364466,6.109337436943807,1.0182393789291382,-2.187843147908346
1708443559.8581383,-2.1409363746643066,-1.3336321276477356,-2.5271907488452356,6.10932623127059,1.018264651298523,-2.1877320448504847
1708443559.860147,-2.1408727169036865,-1.3336474609426041,-2.52726394334902,6.109188425331869,1.0182557106018066,-2.187631432210104
1708443559.8621023,-2.1408603191375732,-1.3335984212211152,-2.5272355715381067,6.109267937927999,1.0182632207870483,-2.1874783674823206
1708443559.8641038,-2.140856981277466,-1.3336232912591477,-2.527247492467062,6.109158146172323,1.0182557106018066,-2.1874287764178675
1708443559.866124,-2.1408331394195557,-1.333602951174118,-2.5271573702441614,6.109109151154318,1.0182557106018066,-2.1872876326190394
1708443559.8681417,-2.1408069133758545,-1.3336519759944458,-2.5272684733020228,6.109049665718832,1.0182973146438599,-2.1871469656573694
1708443559.8701375,-2.140744686126709,-1.3336072725108643,-2.5272520224200647,6.109095084458151,1.018222689628601,-2.1870625654803675
1708443559.8721232,-2.140709400177002,-1.3336072725108643,-2.527189079915182,6.1090383408363245,1.01826012134552,-2.1869753042804163
1708443559.874123,-2.140676736831665,-1.333610014324524,-2.527250353490011,6.108957874565878,1.018272042274475,-2.1868837515460413
1708443559.876151,-2.140645742416382,-1.3336311441710968,-2.527242962514059,6.1089504835899255,1.0182216167449951,-2.1867831389056605
1708443559.8781075,-2.1405892372131348,-1.3336443615010758,-2.5272565523730677,6.108905780106344,1.018301010131836,-2.1866090933429163
1708443559.880125,-2.1405441761016846,-1.3336232763579865,-2.527259413396017,6.10888301113204,1.0182422399520874,-2.186596695576803
1708443559.882118,-2.1404874324798584,-1.3336474609426041,-2.527238432561056,6.108847367554464,1.0182676315307617,-2.1864383856402796
1708443559.8841414,-2.1404645442962646,-1.3336266887239,-2.5272956530200403,6.108782875328817,1.018312931060791,-2.186380688344137
1708443559.8861315,-2.14044189453125,-1.3336683076671143,-2.5272701422320765,6.108699428826132,1.018345594406128,-2.186214272175924
1708443559.888126,-2.1403651237487793,-1.333684654240944,-2.5273121039019983,6.1086392281349084,1.0183277130126953,-2.1861513296710413
1708443559.8901472,-2.140317440032959,-1.3336879771998902,-2.5273223559008997,6.10858844497756,1.018356204032898,-2.186059300099508
1708443559.8921704,-2.140237331390381,-1.33365053058181,-2.5273223559008997,6.108463513642111,1.0183231830596924,-2.1859005133258265
1708443559.8941402,-2.1402015686035156,-1.3336415600827713,-2.5273481051074427,6.108419525414266,1.0183277130126953,-2.185876194630758
1708443559.8961499,-2.1401467323303223,-1.3336296391538163,-2.527397696171896,6.108355748444357,1.0183924436569214,-2.18575889268984
1708443559.8981128,-2.1400258541107178,-1.3336865317872544,-2.527339045201437,6.108297335892477,1.018399953842163,-2.1857031027423304
1708443559.9001493,-2.139941930770874,-1.3336865317872544,-2.527412716542379,6.108160245209493,1.0184448957443237,-2.1855910460101526
1708443559.9021273,-2.1398422718048096,-1.3337191951325913,-2.5274232069598597,6.108061420708456,1.0184224843978882,-2.185462299977438
1708443559.9041753,-2.139798164367676,-1.3337430667928238,-2.5274680296527308,6.107973086624899,1.018496036529541,-2.185422722493307
1708443559.9061432,-2.1397647857666016,-1.333729700451233,-2.5275116602527063,6.107873070030966,1.0185368061065674,-2.1853302160846155
1708443559.9081173,-2.139549732208252,-1.3337984842113038,-2.5275190512286585,6.107766377716818,1.0185530185699463,-2.1852996985064905
1708443559.9101367,-2.139478921890259,-1.3337984842113038,-2.5275383631335657,6.107629287033834,1.0185891389846802,-2.1852200667010706
1708443559.9121206,-2.139370918273926,-1.3338385981372376,-2.527583662663595,6.107513296395101,1.0185801982879639,-2.185138527547018
1708443559.9141228,-2.139266014099121,-1.3338865798762818,-2.5276194254504603,6.107410776406088,1.01865816116333,-2.1850221792804163
1708443559.9161615,-2.139159679412842,-1.3338910204223176,-2.5276270548449915,6.107266413956442,1.0186446905136108,-2.1849873701678675
1708443559.9181147,-2.1389718055725098,-1.333947868352272,-2.527658526097433,6.107134926110067,1.0186854600906372,-2.184913937245504
1708443559.9201224,-2.1388611793518066,-1.3338688921979447,-2.5277486483203333,6.106979357987203,1.0186750888824463,-2.184838596974508
1708443559.9221392,-2.138725519180298,-1.3340242070010682,-2.5277395884143274,6.106812107353964,1.01876962184906,-2.184791866933004
1708443559.9241462,-2.138519763946533,-1.3339988750270386,-2.5277798811541956,6.106641161232748,1.0188297033309937,-2.1847427527057093
1708443559.926136,-2.13838529586792,-1.3339688193849106,-2.5278309027301233,6.106444704323568,1.0188820362091064,-2.184601608906881
1708443559.9281166,-2.138200283050537,-1.3340626668981095,-2.5279017130481165,6.106256472855367,1.0188930034637451,-2.1845205465899866
1708443559.930122,-2.138038396835327,-1.3340451580337067,-2.527952257786886,6.106154668122091,1.0189815759658813,-2.18447715440859
1708443559.9321425,-2.137801170349121,-1.3340855252793808,-2.5279930273639124,6.1059433100517175,1.01905357837677,-2.1845081488238733
1708443559.934128,-2.137622356414795,-1.3341063273004075,-2.527982298527853,6.1056686518485925,1.0191468000411987,-2.184425655995504
1708443559.9361565,-2.137394905090332,-1.3341701340726395,-2.5281129519092005,6.105452167778768,1.0191365480422974,-2.1843746344195765
1708443559.9381464,-2.1371588706970215,-1.3342031103423615,-2.528139893208639,6.10516511180953,1.019267201423645,-2.184326950703756
1708443559.9401505,-2.1369194984436035,-1.3341724437526246,-2.52821928659548,6.104890215187826,1.0193346738815308,-2.184269730244772
1708443559.9421241,-2.1366517543792725,-1.3342572909644623,-2.528292957936422,6.104638922005453,1.0194069147109985,-2.1842668692218226
1708443559.944127,-2.1364407539367676,-1.3342854988626023,-2.5282941500293177,6.1043879864509485,1.0194926261901855,-2.184218708668844
1708443559.946139,-2.136235237121582,-1.334329054956772,-2.5283871332751673,6.104116308480062,1.0195767879486084,-2.184178177510397
1708443559.9481242,-2.135979413986206,-1.3343575906804581,-2.528513495122091,6.103836762696066,1.0196560621261597,-2.184127155934469
1708443559.95012,-2.1357076168060303,-1.3343606752208252,-2.528597418461935,6.1035852310951135,1.0197526216506958,-2.184086624776022
1708443559.95216,-2.135427713394165,-1.3344497245601197,-2.5286410490619105,6.103355991631307,1.0199189186096191,-2.1840909163104456
1708443559.954136,-2.1351687908172607,-1.3344322007945557,-2.52871281305422,6.103007066040792,1.0199686288833618,-2.183993641530172
1708443559.9561489,-2.134800434112549,-1.334505097275116,-2.528844658528463,6.102679598122396,1.0201144218444824,-2.1839903036700647
1708443559.9581227,-2.1345012187957764,-1.334519312982895,-2.528900210057394,6.102292644768514,1.0202347040176392,-2.184006992970602
1708443559.960118,-2.134178638458252,-1.334568203692772,-2.529029432927267,6.102021801262655,1.0203219652175903,-2.1839664618121546
1708443559.962119,-2.1338629722595215,-1.3346724820188065,-2.529104296361105,6.1015992043311975,1.0204498767852783,-2.1839798132525843
1708443559.9641306,-2.1334877014160156,-1.3346832555583497,-2.5292001406299036,6.10122965553359,1.020581841468811,-2.1839798132525843
1708443559.9661603,-2.133124589920044,-1.3347268116525193,-2.529336754475729,6.100861060410299,1.0206738710403442,-2.183951203023092
1708443559.9681394,-2.132737159729004,-1.3348117035678406,-2.5294445196734827,6.100504505425253,1.020838975906372,-2.183960262929098
1708443559.9701946,-2.1323788166046143,-1.334883452658989,-2.529567543660299,6.100080477982321,1.0209723711013794,-2.1839750448810022
1708443559.9721618,-2.131993055343628,-1.334935502415039,-2.529672447835104,6.099648701935568,1.021115779876709,-2.1839588324176233
1708443559.9741476,-2.1315715312957764,-1.33501190066848,-2.529825512562887,6.099279987602987,1.0213302373886108,-2.183963123952047
1708443559.9761395,-2.131112813949585,-1.3351281446269532,-2.5299814383136194,6.098801004677572,1.0215153694152832,-2.184027973805563
1708443559.9781263,-2.1306514739990234,-1.3351257604411622,-2.5301674048053187,6.098277079849996,1.021669864654541,-2.1840203444110315
1708443559.9801083,-2.1301920413970947,-1.335234524016716,-2.53027850786318,6.097749697953024,1.0218337774276733,-2.1840112845050257
1708443559.982156,-2.1298136711120605,-1.33528687179599,-2.5303850809680384,6.0972797749336145,1.0220096111297607,-2.184035126362936
1708443559.98411,-2.1293294429779053,-1.335361809735634,-2.530548397694723,6.096757161408224,1.0222035646438599,-2.1840503851519983
1708443559.9861543,-2.128833770751953,-1.3354529303363343,-2.5307298342334192,6.096271025925436,1.0223795175552368,-2.1840999762164515
1708443559.9881227,-2.1282975673675537,-1.3355324876359482,-2.5309398810016077,6.095753538399496,1.0225342512130737,-2.1841281096087855
1708443559.9901571,-2.127875328063965,-1.3356620383313675,-2.5310538450824183,6.095202433853903,1.0227398872375488,-2.1841629187213343
1708443559.9921148,-2.127305030822754,-1.3357457679561158,-2.5312426725970667,6.094591486244955,1.022960901260376,-2.184182945881979
1708443559.9941308,-2.126709222793579,-1.3358697158149262,-2.531437698994772,6.093978392868795,1.0232478380203247,-2.1842764059649866
1708443559.996126,-2.1261048316955566,-1.3359521490386506,-2.5316742102252405,6.093358981400289,1.0234506130218506,-2.1842992941485804
1708443559.9981542,-2.1255342960357666,-1.3360105615905304,-2.5318456331836146,6.092693435936727,1.0236536264419556,-2.18433648744692
1708443560.0001512,-2.1249642372131348,-1.3361794364503403,-2.5320661703692835,6.092064010887899,1.0239076614379883,-2.184418026600973
1708443560.0021458,-2.124350070953369,-1.336263121371605,-2.532236639653341,6.09145079830245,1.0240942239761353,-2.184398953114645
1708443560.0041106,-2.1237759590148926,-1.3363903623870392,-2.532511297856466,6.0908033726509,1.0243196487426758,-2.184467617665426
1708443560.0061605,-2.123080015182495,-1.3365093779614945,-2.5326688925372522,6.090153562813558,1.0245227813720703,-2.1845529715167444
1708443560.008108,-2.1224114894866943,-1.3366541427424927,-2.5329342524157923,6.089469182282247,1.0248695611953735,-2.18453818956484
1708443560.0101297,-2.121741771697998,-1.3368064922145386,-2.5332520643817347,6.088732230454244,1.0251580476760864,-2.1846163908587855
1708443560.012133,-2.12104868888855,-1.3369131249240418,-2.533475462590353,6.087974178581991,1.0254660844802856,-2.1846960226642054
1708443560.0141153,-2.120299816131592,-1.337011770611145,-2.5337305704699915,6.087220418244161,1.0257667303085327,-2.184789005910055
1708443560.0161407,-2.1195855140686035,-1.3371998828700562,-2.533961598073141,6.08637427070693,1.0260928869247437,-2.184863869343893
1708443560.0181162,-2.1188228130340576,-1.3373165440610428,-2.534276787434713,6.085678565293112,1.026381492614746,-2.185009304677145
1708443560.020115,-2.1180810928344727,-1.3374644976905365,-2.5344935099231165,6.084838974266805,1.0266731977462769,-2.185141388569967
1708443560.022148,-2.1173527240753174,-1.337627263074257,-2.5348900000201624,6.0839929459388635,1.0269824266433716,-2.1852296034442347
1708443560.0241094,-2.1164820194244385,-1.3377998036197205,-2.535123650227682,6.083175647049703,1.0272786617279053,-2.1854446570025843
1708443560.0261412,-2.115640163421631,-1.3379342716983338,-2.5354071299182337,6.082339751511373,1.0276237726211548,-2.185587231312887
1708443560.0281186,-2.114773750305176,-1.3381209534457703,-2.5357115904437464,6.081373083382406,1.028010606765747,-2.1857598463641565
1708443560.0301175,-2.1139373779296875,-1.3382689368775864,-2.5360401312457483,6.080513226776876,1.0283501148223877,-2.1859472433673304
1708443560.0321276,-2.1131083965301514,-1.3384364706328888,-2.536389414464132,6.0796313164527795,1.0287060737609863,-2.1861770788775843
1708443560.0341167,-2.112185478210449,-1.3386084300330658,-2.5366790930377405,6.078804480820455,1.0290776491165161,-2.1863158384906214
1708443560.0361443,-2.111323833465576,-1.338780165915825,-2.537051026021139,6.077862846642294,1.0293891429901123,-2.186544720326559
1708443560.038117,-2.110405921936035,-1.3389477592757721,-2.537290636693136,6.076932894974508,1.02982759475708,-2.186720673237936
1708443560.0401115,-2.109471321105957,-1.3391641688397904,-2.5376763979541224,6.075995075493612,1.0302246809005737,-2.186904255543844
1708443560.042153,-2.1085095405578613,-1.3392972213080903,-2.5379863421069544,6.074997651367941,1.0306655168533325,-2.1871331373797815
1708443560.044121,-2.107494354248047,-1.3395425242236634,-2.5383878389941614,6.073932873993673,1.0311470031738281,-2.1873424688922327
1708443560.0461626,-2.1064629554748535,-1.3397668165019532,-2.5388219992267054,6.0729256747062585,1.0315840244293213,-2.1876066366778772
1708443560.048132,-2.1054794788360596,-1.3399910491755982,-2.539163653050558,6.071860301285543,1.0320374965667725,-2.1878798643695276
1708443560.050132,-2.1044528484344482,-1.340147690182068,-2.5395684877978724,6.070830929070272,1.0324705839157104,-2.1880748907672327
1708443560.0521235,-2.1034226417541504,-1.3404003244689484,-2.539973322545187,6.069768535881796,1.0328999757766724,-2.1884005705462855
1708443560.0541322,-2.1023929119110107,-1.3405755919269104,-2.5403152147876185,6.068772661476888,1.03339421749115,-2.188664261494772
1708443560.0561266,-2.101308822631836,-1.3407909286073227,-2.540743891392843,6.067648637085714,1.0338633060455322,-2.188894573842184
1708443560.0581346,-2.100203514099121,-1.341029779320099,-2.541184727345602,6.06660937049941,1.0343188047409058,-2.1892364660846155
1708443560.0601146,-2.0991485118865967,-1.3413300824216385,-2.541591469441549,6.0654770014579675,1.0348647832870483,-2.1895087401019495
