Eg3-git/Classifiers/Data Collection/u8/u8xyz1_ur3e_joint_states.csv
time,elbow_joint,shoulder_lift_joint,shoulder_pan_joint,wrist_1_joint,wrist_2_joint,wrist_3_joint
1708443462.823326,-2.1574416160583496,-1.3384553802064438,-2.5258243719684046,6.149393546372213,1.0156962871551514,-1.81374437013735
1708443462.8253653,-2.1573495864868164,-1.3384489131024857,-2.5258365313159388,6.149083363800802,1.0157325267791748,-1.8135460058795374
1708443462.8273191,-2.1571762561798096,-1.3383815300515671,-2.52584416071047,6.148792612343588,1.015730857849121,-1.8134120146380823
1708443462.8293266,-2.1570661067962646,-1.3384182912162323,-2.525835100804464,6.148470389633932,1.0157668590545654,-1.8132227102862757
1708443462.8313298,-2.156863212585449,-1.338305414920189,-2.5258634726153772,6.148088919907369,1.0158287286758423,-1.813075367604391
1708443462.833322,-2.1567983627319336,-1.33826099455867,-2.5259037653552454,6.147774207382955,1.0158240795135498,-1.8128417173968714
1708443462.835328,-2.1566500663757324,-1.3382250529578705,-2.5258618036853235,6.147372948914327,1.0158600807189941,-1.8126619497882288
1708443462.8373253,-2.156477451324463,-1.3381943863681336,-2.5259161631213587,6.147092330246725,1.0158510208129883,-1.8125188986407679
1708443462.839322,-2.1563503742218018,-1.3381456595710297,-2.525909964238302,6.146728622704305,1.015933632850647,-1.8123176733600062
1708443462.841333,-2.1562142372131348,-1.338097707634308,-2.5259891192065638,6.14631866195754,1.0159111022949219,-1.8120763937579554
1708443462.843336,-2.1560826301574707,-1.33806628108535,-2.525971237813131,6.146008002548971,1.0159518718719482,-1.8118270079242151
1708443462.8453496,-2.1559433937072754,-1.3380511862090607,-2.5259295145617884,6.145624029427328,1.0159772634506226,-1.811704460774557
1708443462.8473377,-2.1558239459991455,-1.3379660558751603,-2.5259953180896204,6.145332801132955,1.0159862041473389,-1.8114708105670374
1708443462.8493257,-2.1556508541107178,-1.3379834455302735,-2.5259698073016565,6.144998299866476,1.0160270929336548,-1.8112672011004847
1708443462.8513174,-2.1555678844451904,-1.3379357767156144,-2.5260358492480677,6.14464699009017,1.0160688161849976,-1.8110464254962366
1708443462.8533173,-2.1554505825042725,-1.3378112477115174,-2.526048008595602,6.144303667336263,1.0160720348358154,-1.8107479254352015
1708443462.8553164,-2.155280590057373,-1.337852106695511,-2.52606445947756,6.14389048793868,1.0161620378494263,-1.8105571905719202
1708443462.8573477,-2.155195474624634,-1.3378083866885682,-2.526055399571554,6.143571364670553,1.0161818265914917,-1.8103860060321253
1708443462.8593845,-2.155001640319824,-1.3377283972552796,-2.526092831288473,6.1432076571281335,1.0162101984024048,-1.8100298086749476
1708443462.8613214,-2.1548566818237305,-1.3376074892333527,-2.526121203099386,6.142828690796652,1.0161757469177246,-1.809850041066305
1708443462.8633163,-2.1546809673309326,-1.3376079362681885,-2.5261152426349085,6.142459141999044,1.016211748123169,-1.8096306959735315
1708443462.865317,-2.1545794010162354,-1.3375958514264603,-2.52614409128298,6.142197954445638,1.016223669052124,-1.8093622366534632
1708443462.8673363,-2.154404878616333,-1.3375242513469239,-2.5261197725879114,6.141854989319601,1.0162627696990967,-1.8091581503497522
1708443462.8693163,-2.1542959213256836,-1.3375206899693985,-2.5261107126819056,6.14153145530776,1.016312599182129,-1.8088787237750452
1708443462.8713315,-2.154193639755249,-1.3375011843493958,-2.526158873234884,6.141218530922689,1.0163273811340332,-1.8086727301227015
1708443462.8733459,-2.1540236473083496,-1.3374328327229996,-2.526172463093893,6.140907275467672,1.0163768529891968,-1.8084128538714808
1708443462.875302,-2.153876543045044,-1.337393419151642,-2.526151482258932,6.1405761120613,1.0163936614990234,-1.8080981413470667
1708443462.8773499,-2.1537232398986816,-1.3373823922923584,-2.5261901060687464,6.14022849777297,1.0164177417755127,-1.8078787962542933
1708443462.8793516,-2.153608560562134,-1.3372892153314133,-2.5262370745288294,6.139888274460592,1.016416072845459,-1.807671848927633
1708443462.8813648,-2.153465747833252,-1.3372413379004975,-2.5262113253222864,6.139602410584249,1.0164778232574463,-1.8073447386371058
1708443462.8833687,-2.153301239013672,-1.3372506362250824,-2.5262325445758265,6.139234053879537,1.0164432525634766,-1.807117764149801
1708443462.8853223,-2.153202533721924,-1.3371618849090119,-2.5262399355517786,6.13885389545516,1.0165047645568848,-1.8068645636187952
1708443462.8873606,-2.1530954837799072,-1.3370777529529114,-2.526275936757223,6.138609039574423,1.0164958238601685,-1.8065674940692347
1708443462.8893538,-2.152968645095825,-1.3370989126018067,-2.526287857686178,6.1381666539009,1.016550064086914,-1.8063314596759241
1708443462.891341,-2.1528449058532715,-1.3369860512069245,-2.526287857686178,6.137896406441488,1.016532063484192,-1.8060486952411097
1708443462.8933516,-2.152661085128784,-1.337007300262787,-2.52631646791567,6.13760136344985,1.0165889263153076,-1.8057978788958948
1708443462.895337,-2.152573823928833,-1.3369588416865845,-2.5263102690326136,6.137330877571859,1.016634225845337,-1.8055585066424769
1708443462.8973503,-2.1524171829223633,-1.3368947964957734,-2.5263403097735804,6.137002217560568,1.0166747570037842,-1.8052566687213343
1708443462.899343,-2.1523096561431885,-1.3368433874896546,-2.5263147989856165,6.136703836708822,1.0166534185409546,-1.804960076008932
1708443462.9013352,-2.1521494388580322,-1.3368073862842103,-2.5263810793506067,6.136371600418844,1.0166566371917725,-1.8046510855304163
1708443462.90339,-2.1520497798919678,-1.3367796403220673,-2.5263477007495325,6.136085259705343,1.0166970491409302,-1.8043659369098108
1708443462.9053864,-2.151934862136841,-1.3367435497096558,-2.526388470326559,6.135744201927938,1.0167003870010376,-1.8041036764727991
1708443462.90734,-2.15181827545166,-1.3366959554008027,-2.526370350514547,6.135395633965292,1.016757607460022,-1.8037613073932093
1708443462.9093506,-2.1516799926757812,-1.3366759282401581,-2.526416842137472,6.135214912682333,1.0167813301086426,-1.8034847418414515
1708443462.9113781,-2.1516003608703613,-1.3366725605777283,-2.526407782231466,6.13488136509017,1.0168143510818481,-1.8031962553607386
1708443462.9133122,-2.1515138149261475,-1.3365761798671265,-2.526395861302511,6.1346266148384,1.0168462991714478,-1.8029478232013147
1708443462.9153352,-2.1513190269470215,-1.336625413303711,-2.5264318625079554,6.134355413704672,1.016829490661621,-1.8026273886310022
1708443462.917322,-2.1512441635131836,-1.336544321184494,-2.5264273325549524,6.134023177414694,1.016919732093811,-1.8022692839251917
1708443462.9193103,-2.1511242389678955,-1.336512879734375,-2.5264559427844446,6.133751857071676,1.016875982284546,-1.801960293446676
1708443462.9213426,-2.1509764194488525,-1.3364525598338624,-2.5264468828784388,6.133481251984396,1.0168850421905518,-1.801729981099264
1708443462.9233775,-2.1508610248565674,-1.3364282858422776,-2.5264888445483606,6.133176314621725,1.0169165134429932,-1.8013599554644983
1708443462.9253328,-2.1507859230041504,-1.33641271412883,-2.526458803807394,6.132884132653036,1.016928791999817,-1.8010719458209437
1708443462.9273293,-2.150679111480713,-1.33638151109729,-2.52649170557131,6.132641064911642,1.0169615745544434,-1.800758186970846
1708443462.9293208,-2.1505541801452637,-1.336369366650917,-2.526482645665304,6.13237880447463,1.0169479846954346,-1.8004382292376917
1708443462.9313512,-2.1504287719726562,-1.3363540482572098,-2.52649170557131,6.132135855942526,1.0169813632965088,-1.8001578489886683
1708443462.9333322,-2.150341272354126,-1.336280570631363,-2.5265443960772913,6.131835329323568,1.016996145248413,-1.7997849623309534
1708443462.9353454,-2.150205373764038,-1.3362660569003602,-2.526569668446676,6.131558644562521,1.017038345336914,-1.7994769255267542
1708443462.9373403,-2.150071382522583,-1.3362011176398774,-2.5265353361712855,6.131358969002523,1.0170791149139404,-1.7991083304034632
1708443462.9393172,-2.150047540664673,-1.336156652574875,-2.5265398661242884,6.131160604744711,1.017090916633606,-1.798861328755514
1708443462.9413552,-2.149930477142334,-1.336169348364212,-2.5265725294696253,6.130909430771627,1.0170774459838867,-1.7985199133502405
1708443462.9433484,-2.1498894691467285,-1.3361628514579316,-2.5265308062182825,6.13069366195754,1.0171183347702026,-1.7981742064105433
1708443462.9453232,-2.1498146057128906,-1.3360567402890702,-2.5265472571002405,6.130461323052206,1.0170966386795044,-1.7978947798358362
1708443462.9474325,-2.149595022201538,-1.336106390958168,-2.5265427271472376,6.130222070008077,1.0171494483947754,-1.7975824514972132
1708443462.9493322,-2.1495277881622314,-1.336038039331772,-2.5265710989581507,6.129944073944845,1.0172005891799927,-1.7971232573138636
1708443462.9513288,-2.1494405269622803,-1.3359654408744355,-2.5265637079821985,6.129804241448202,1.0171571969985962,-1.7968443075763147
1708443462.9533582,-2.149324893951416,-1.3359663051417847,-2.5265710989581507,6.129535066872396,1.0172066688537598,-1.7964995543109339
1708443462.9553351,-2.1492409706115723,-1.3359663051417847,-2.526637379323141,6.129267322808065,1.017235279083252,-1.7961304823504847
1708443462.9573472,-2.1491658687591553,-1.335885913377144,-2.5265501181231897,6.129066812783041,1.0172216892242432,-1.7958219687091272
1708443462.9593394,-2.1490581035614014,-1.33588262022052,-2.526604477559225,6.128840076714315,1.0172336101531982,-1.795408074055807
1708443462.961385,-2.1489651203155518,-1.3358584654382248,-2.526649300252096,6.128640877991476,1.0172457695007324,-1.7951396147357386
1708443462.963339,-2.1488914489746094,-1.3358434003642579,-2.526644531880514,6.128441321640768,1.0172126293182373,-1.7948029677020472
1708443462.9653902,-2.1488072872161865,-1.335778461103775,-2.526644770299093,6.128218042641439,1.0172531604766846,-1.7943971792804163
1708443462.9673562,-2.1487109661102295,-1.3358397048762818,-2.52664024034609,6.12798176982955,1.0172908306121826,-1.7940939108477991
1708443462.9693215,-2.1486270427703857,-1.3357348603061219,-2.5266431013690394,6.127855288773336,1.0173029899597168,-1.793736759816305
1708443462.9713519,-2.1485509872436523,-1.335759477024414,-2.5267046133624476,6.127581941872396,1.0172772407531738,-1.7933667341815394
1708443462.9733286,-2.148496389389038,-1.3357560199550171,-2.5266462008105677,6.127386915474691,1.017317771911621,-1.7930715719806116
1708443462.9753575,-2.1483638286590576,-1.3356672388366242,-2.5266507307635706,6.127273547440328,1.0173511505126953,-1.792767349873678
1708443462.9773216,-2.148296594619751,-1.335646854048111,-2.5266838709460657,6.126971113472738,1.0173795223236084,-1.7923248449908655
1708443462.9793334,-2.1482126712799072,-1.3356315654567261,-2.526679340993063,6.126811849861898,1.0173659324645996,-1.7920745054828089
1708443462.9813232,-2.1481447219848633,-1.335611955528595,-2.526682202016012,6.126624452858724,1.017374873161316,-1.7916668097125452
1708443462.9832947,-2.1480724811553955,-1.3355555695346375,-2.526745144520895,6.126452314644613,1.0173733234405518,-1.791342560444967
1708443462.9853601,-2.1480515003204346,-1.335600571041443,-2.526719633732931,6.126233088761129,1.0174078941345215,-1.7910073439227503
1708443462.9873178,-2.1479790210723877,-1.3355561357787629,-2.526715103779928,6.126110303192892,1.0174109935760498,-1.7906048933612269
1708443462.9893124,-2.147836208343506,-1.335504100923874,-2.526785675679342,6.125921237259664,1.017423152923584,-1.7902815977679651
1708443462.9913106,-2.1478474140167236,-1.3354879480651398,-2.5267723242389124,6.125689136772909,1.0174517631530762,-1.7898924986468714
1708443462.9933121,-2.1477317810058594,-1.3354401153377076,-2.5267346541034144,6.125529038697042,1.0174217224121094,-1.7896001974688929
1708443462.9953077,-2.147625207901001,-1.335485116844513,-2.5267255941974085,6.125372874527731,1.0174050331115723,-1.7891987005816858
1708443462.997333,-2.147557258605957,-1.3354612749866028,-2.5267422834979456,6.125233638077535,1.0174590349197388,-1.788874928151266
1708443462.9993048,-2.14750599861145,-1.3354008954814454,-2.5267513434039515,6.125049578934469,1.0174787044525146,-1.7885378042804163
1708443463.001308,-2.1474087238311768,-1.3353847426227112,-2.5267632643329065,6.124886023789205,1.0174665451049805,-1.7881611029254358
1708443463.0033169,-2.1474030017852783,-1.3352917295745392,-2.5267842451678675,6.124718653946676,1.0174908638000488,-1.7878287474261683
1708443463.0053194,-2.147301197052002,-1.3353368204883118,-2.526820484791891,6.124579179077902,1.017510175704956,-1.7874797026263636
1708443463.007363,-2.147251844406128,-1.3353203398040314,-2.5267871061908167,6.124395000725546,1.017498254776001,-1.7871101538287562
1708443463.0093126,-2.1471714973449707,-1.3352438074401398,-2.5268035570727747,6.12429295757369,1.0175011157989502,-1.7867372671710413
1708443463.011312,-2.147115707397461,-1.3352973622134705,-2.526799027119772,6.124140369683065,1.0174893140792847,-1.7864096800433558
1708443463.0133054,-2.1470184326171875,-1.3352812093547364,-2.526827875767843,6.124033558159628,1.0175386667251587,-1.7860448996173304
1708443463.015316,-2.146953821182251,-1.3352366548827668,-2.5268035570727747,6.123860108643331,1.0175297260284424,-1.7856786886798304
1708443463.0173435,-2.1469366550445557,-1.3351842922023316,-2.526881519948141,6.123716342240133,1.0175325870513916,-1.7853525320636194
1708443463.0193331,-2.146867275238037,-1.3352171343616028,-2.526802364979879,6.123647081642904,1.0175371170043945,-1.78503925005068
1708443463.0213325,-2.1467461585998535,-1.33522983015094,-2.526839796696798,6.123430359154501,1.0175795555114746,-1.784677807484762
1708443463.0233428,-2.146740436553955,-1.3351813715747376,-2.526806894932882,6.123264181404867,1.0175914764404297,-1.784285847340719
1708443463.025331,-2.146716594696045,-1.3351652187160035,-2.526872698460714,6.123165356903829,1.0175868272781372,-1.7839191595660608
1708443463.0273335,-2.146620273590088,-1.3352102202228089,-2.5268262068377894,6.123025882035055,1.017627477645874,-1.7836082617389124
1708443463.0293636,-2.1466550827026367,-1.335198388700821,-2.5268262068377894,6.122914898186483,1.0176351070404053,-1.7831829229937952
1708443463.0313225,-2.14658784866333,-1.3351745468429108,-2.5268426577197474,6.122781979828634,1.0176559686660767,-1.7828906218158167
1708443463.0333018,-2.146509885787964,-1.3351334494403382,-2.5268922487842005,6.122678267746725,1.0176352262496948,-1.7825301329242151
1708443463.0353327,-2.1464338302612305,-1.3351045113852997,-2.5268471876727503,6.122522699623861,1.0176559686660767,-1.7822144667254847
1708443463.0373316,-2.14636492729187,-1.3351257604411622,-2.5268545786487024,6.1223463890846155,1.017626166343689,-1.7818363348590296
1708443463.0393589,-2.1463615894317627,-1.335097686653473,-2.5268965403186243,6.122300612717428,1.0176457166671753,-1.781532112752096
1708443463.0413253,-2.146331548690796,-1.3350653809360047,-2.5268800894366663,6.122106897621908,1.0177037715911865,-1.7811315695392054
1708443463.0434146,-2.1462185382843018,-1.3351308566382905,-2.5269084612475794,6.122012364655294,1.0176857709884644,-1.780815903340475
1708443463.0453253,-2.146193504333496,-1.3350866299918671,-2.5268831888781946,6.1219239113624475,1.017723798751831,-1.7804339567767542
1708443463.0473208,-2.146125555038452,-1.3350615960410614,-2.526890579854147,6.12178515174941,1.017664909362793,-1.780097786580221
1708443463.049317,-2.146136522293091,-1.3350743812373658,-2.526869837437765,6.121701109200277,1.017740249633789,-1.7797625700580042
1708443463.0513117,-2.146066427230835,-1.3350786131671448,-2.5268996397601526,6.121581661492147,1.0176894664764404,-1.7794020811664026
1708443463.0533192,-2.146003007888794,-1.3350336116603394,-2.526907269154684,6.121457803040304,1.0177175998687744,-1.7790740172015589
1708443463.0553126,-2.1459710597991943,-1.3350301545909424,-2.526881519948141,6.1213592169578455,1.0177310705184937,-1.7787006537066858
1708443463.057339,-2.1458895206451416,-1.3350387078574677,-2.526893917714254,6.121214377671041,1.0177597999572754,-1.7783921400653284
1708443463.0593476,-2.1459031105041504,-1.3350222271731873,-2.526968781148092,6.121132004051962,1.0177552700042725,-1.7780020872699183
1708443463.0613067,-2.145778179168701,-1.3350344759276886,-2.526910130177633,6.120949852257528,1.0177507400512695,-1.7776668707477015
1708443463.0633156,-2.145796298980713,-1.334994376902916,-2.5269177595721644,6.120900499611654,1.0177462100982666,-1.7773221174823206
1708443463.065314,-2.14571475982666,-1.3349132996848603,-2.5269551912890833,6.120788204460897,1.0177748203277588,-1.7769201437579554
1708443463.0673177,-2.1457009315490723,-1.3349092614701767,-2.526943031941549,6.1206939099128626,1.017798900604248,-1.7765801588641565
1708443463.0693064,-2.145622968673706,-1.3349541586688538,-2.526980463658468,6.120597946434774,1.0178033113479614,-1.7763093153582972
1708443463.0713146,-2.1456148624420166,-1.3349303168109437,-2.5270167032824915,6.120465028076925,1.0178033113479614,-1.775942627583639
1708443463.0733185,-2.1455061435699463,-1.3349180680564423,-2.5269339720355433,6.1203826544578455,1.0177944898605347,-1.7755945364581507
1708443463.0752976,-2.1455037593841553,-1.3349180680564423,-2.5269747416125696,6.120283949166097,1.017807960510254,-1.775233570729391
1708443463.0773222,-2.145517349243164,-1.334854320888855,-2.5269747416125696,6.12015854099349,1.0178197622299194,-1.7749088446246546
1708443463.0793002,-2.145399570465088,-1.334846631889679,-2.5269911924945276,6.120083677559652,1.0178602933883667,-1.7745564619647425
1708443463.0813122,-2.1453776359558105,-1.3348627847484131,-2.5270076433764856,6.119980561524191,1.017830491065979,-1.7742074171649378
1708443463.083311,-2.1453583240509033,-1.3348789376071473,-2.526973311101095,6.119835841446676,1.0178635120391846,-1.7738621870623987
1708443463.0853324,-2.145256280899048,-1.3348063987544556,-2.5270076433764856,6.119756567269125,1.0178468227386475,-1.773477856312887
1708443463.087336,-2.1452362537384033,-1.3347936135581513,-2.5270572344409388,6.119641530304708,1.0178635120391846,-1.7731617132769983
1708443463.0893211,-2.145176887512207,-1.3347822290709992,-2.526977841054098,6.119508731156149,1.0178574323654175,-1.7728374640094202
1708443463.0913143,-2.1451656818389893,-1.3348156374743958,-2.5270403067218226,6.119400727539816,1.0178993940353394,-1.7725289503680628
1708443463.093347,-2.145111083984375,-1.3347749573043366,-2.527043883000509,6.119288909226217,1.0179402828216553,-1.7721598784076136
1708443463.095312,-2.14499568939209,-1.3347430986217041,-2.5270076433764856,6.11921392658309,1.0179232358932495,-1.771839443837301
1708443463.09734,-2.1449568271636963,-1.3347790998271485,-2.527069393788473,6.1191197512443445,1.0179431438446045,-1.7715404669391077
1708443463.0993268,-2.1449239253997803,-1.3347509813359757,-2.527026955281393,6.119035708695211,1.0179803371429443,-1.7712004820453089
1708443463.101339,-2.1448798179626465,-1.3347671341947098,-2.527013365422384,6.118898379593649,1.0179882049560547,-1.770858112965719
1708443463.1033313,-2.1448163986206055,-1.3347354096225281,-2.5270796457873743,6.118802773743429,1.017971396446228,-1.7705186049090784
1708443463.1053112,-2.144777536392212,-1.334731177692749,-2.5271123091327112,6.118753301888265,1.0179954767227173,-1.7702019850360315
1708443463.1073825,-2.1447031497955322,-1.334699423318245,-2.5270422140704554,6.118633615761556,1.0179624557495117,-1.769860569630758
1708443463.1093256,-2.144718647003174,-1.3346547049335022,-2.5270841757403772,6.118479954987325,1.018049955368042,-1.7695272604571741
1708443463.1113513,-2.1446735858917236,-1.334633932714798,-2.5270467440234583,6.118368255883016,1.017991065979004,-1.769223992024557
1708443463.113321,-2.1446845531463623,-1.3346674305251618,-2.5270422140704554,6.118306505471029,1.018003225326538,-1.7688944975482386
1708443463.1153414,-2.1446118354797363,-1.3346550923636933,-2.5271156469928187,6.118202197342672,1.0180108547210693,-1.768599812184469
1708443463.1173515,-2.1445302963256836,-1.3346432608417054,-2.5271156469928187,6.118111002236166,1.0180392265319824,-1.7682660261737269
1708443463.1193104,-2.1445279121398926,-1.334659368996956,-2.5271034876452845,6.118034469872274,1.018018364906311,-1.7679665724383753
1708443463.1213498,-2.1444756984710693,-1.3345826429179688,-2.5271034876452845,6.117926943093099,1.0180633068084717,-1.7676380316363733
1708443463.1233363,-2.1444506645202637,-1.334607185130455,-2.5271320978747767,6.11779414394454,1.0180466175079346,-1.7673009077655237
1708443463.1253266,-2.1443400382995605,-1.3346284639886399,-2.527123037968771,6.117735492974081,1.0181339979171753,-1.7669599691974085
1708443463.1273298,-2.144351005554199,-1.3346037727645417,-2.5271111170398157,6.117640006333151,1.0180890560150146,-1.766679588948385
1708443463.129322,-2.1443352699279785,-1.3345834177783509,-2.5271111170398157,6.117553102761068,1.0181174278259277,-1.7663667837726038
1708443463.131334,-2.144296646118164,-1.3345638525537034,-2.5271363894092005,6.117378937989034,1.018078327178955,-1.766033951436178
1708443463.1333468,-2.1441948413848877,-1.3345603507808228,-2.52714711824526,6.1172876236732385,1.018087387084961,-1.7657344977008265
1708443463.1353502,-2.1441876888275146,-1.3345441979220887,-2.527139727269308,6.117262589722433,1.0181279182434082,-1.7654383818255823
1708443463.1373332,-2.144151449203491,-1.3345603507808228,-2.52714711824526,6.117101895600118,1.0181654691696167,-1.7650883833514612
1708443463.1393306,-2.1441285610198975,-1.334503100519516,-2.527175490056173,6.116984236031332,1.0181070566177368,-1.764759365712301
1708443463.1413183,-2.1440234184265137,-1.3344997477582474,-2.527126137410299,6.116925704270162,1.0181307792663574,-1.7644842306720179
1708443463.1433363,-2.1440064907073975,-1.3344274324229737,-2.52717096010317,6.116839754372396,1.0181353092193604,-1.7642119566546839
1708443463.1453154,-2.143967866897583,-1.3344755631736298,-2.5271843115436,6.11673532703475,1.0181474685668945,-1.763913933430807
1708443463.1473215,-2.143965244293213,-1.334447906618454,-2.5272043387042444,6.116561281472006,1.0181641578674316,-1.7636211554156702
1708443463.149313,-2.1439120769500732,-1.334452049141266,-2.5271619001971644,6.116630184441366,1.0181715488433838,-1.7632773558246058
1708443463.1513436,-2.1438465118408203,-1.334492490892746,-2.5271499792682093,6.116440880089559,1.0181671380996704,-1.7630036512957972
1708443463.153332,-2.143820285797119,-1.33444436014209,-2.5272026697741907,6.11636911609725,1.0181671380996704,-1.7627089659320276
1708443463.155363,-2.143725633621216,-1.3344364029220124,-2.5271907488452356,6.116199481278219,1.0182708501815796,-1.7624190489398401
1708443463.1573384,-2.143719434738159,-1.3344083589366456,-2.5271740595446985,6.116107690125265,1.0182360410690308,-1.7621138731585901
1708443463.1593823,-2.143704652786255,-1.3343799722245713,-2.5271952787982386,6.116041886597433,1.0182602405548096,-1.7618110815631312
1708443463.1613638,-2.1436896324157715,-1.3343921911767502,-2.527193609868185,6.115958082466879,1.0182437896728516,-1.7615340391742151
1708443463.1633327,-2.1436657905578613,-1.334363804464676,-2.5272563139544886,6.115890848427572,1.0182393789291382,-1.7612655798541468
1708443463.1653275,-2.1436383724212646,-1.3343487691930314,-2.527231041585104,6.115712272911825,1.0182795524597168,-1.7609499136554163
1708443463.167304,-2.1435434818267822,-1.3343077462962647,-2.527214590703146,6.115702497750082,1.0182795524597168,-1.7606342474566858
1708443463.1693175,-2.1435205936431885,-1.334373415713646,-2.527210060750143,6.115566479950704,1.0182839632034302,-1.7603872458087366
1708443463.1713514,-2.1435296535491943,-1.3343204420856019,-2.5272026697741907,6.115475284844198,1.018312931060791,-1.7601049582110804
1708443463.1733117,-2.143497943878174,-1.3343161207488556,-2.5272563139544886,6.115375268250265,1.018341064453125,-1.759808365498678
1708443463.1753669,-2.1434457302093506,-1.3342673492482682,-2.527242962514059,6.115259992867269,1.0183038711547852,-1.7595251242267054
1708443463.1773207,-2.1433777809143066,-1.3342759174159546,-2.527254883443014,6.1152135012443445,1.0183157920837402,-1.7592151800738733
1708443463.1793554,-2.1433053016662598,-1.3343417209437867,-2.527247492467062,6.1150808213050745,1.0183231830596924,-1.7589176336871546
1708443463.1813385,-2.1433255672454834,-1.3342563670924683,-2.527250353490011,6.115013229637899,1.0183354616165161,-1.7587044874774378
1708443463.183293,-2.1432769298553467,-1.3343091023019333,-2.527288262044088,6.11488043048934,1.0183730125427246,-1.7584026495562952
1708443463.1853588,-2.143282413482666,-1.3342886877110978,-2.527254883443014,6.114838468819418,1.0183186531066895,-1.7580893675433558
1708443463.1873093,-2.143197536468506,-1.3342571419528504,-2.5272367636310022,6.114766704827108,1.0183382034301758,-1.7577922979937952
1708443463.189357,-2.1431825160980225,-1.3342452210238953,-2.527245823537008,6.114673959999838,1.0184208154678345,-1.7575648466693323
1708443463.191352,-2.143150806427002,-1.3342452359250565,-2.5272627512561243,6.114554512291708,1.0183717012405396,-1.7572959105121058
1708443463.193334,-2.143143892288208,-1.3342655462077637,-2.527316395436422,6.1145033715064905,1.018399953842163,-1.7570813337909144
1708443463.1953764,-2.1430623531341553,-1.3342494827559968,-2.5272672812091272,6.114342319756307,1.0184208154678345,-1.756833855305807
1708443463.197361,-2.143075704574585,-1.3341683757356186,-2.5272956530200403,6.114312159806051,1.0184330940246582,-1.7565200964557093
1708443463.199348,-2.142958164215088,-1.3341845732978364,-2.5273075739489954,6.114231574326315,1.0184073448181152,-1.7562196890460413
1708443463.2013438,-2.1428887844085693,-1.334144265656807,-2.5272865931140345,6.114119517594137,1.0184240341186523,-1.7560017744647425
1708443463.2033265,-2.142939805984497,-1.3341207665256043,-2.5272865931140345,6.114025223046102,1.0184285640716553,-1.7557252089129847
1708443463.2053385,-2.142878770828247,-1.3341611933759232,-2.5273075739489954,6.113968717842855,1.0184494256973267,-1.7554367224322718
1708443463.2073681,-2.1428399085998535,-1.3341170263341446,-2.5273569265948694,6.1138731119926355,1.0184571743011475,-1.7550972143756312
1708443463.209318,-2.1427528858184814,-1.3341581535390397,-2.5272942225085657,6.113776910095968,1.0184526443481445,-1.7548792997943323
1708443463.2113478,-2.142751455307007,-1.3341334474137803,-2.5272777716266077,6.113676893502035,1.018473505973816,-1.754667107258932
1708443463.2133036,-2.1427266597747803,-1.3340983253768464,-2.5273149649249476,6.113585698395529,1.0184314250946045,-1.7543700377093714
1708443463.2153563,-2.142695903778076,-1.3341094565442582,-2.5273435751544397,6.113562929421224,1.0184390544891357,-1.754195515309469
1708443463.2173316,-2.142643690109253,-1.3340776425651093,-2.5273552576648157,6.113433348923483,1.0184721946716309,-1.7539008299456995
1708443463.219379,-2.142648220062256,-1.3340572130731125,-2.5273764769183558,6.113379227906027,1.018500566482544,-1.753636662160055
1708443463.2213707,-2.142592668533325,-1.3340410155108948,-2.527339045201437,6.113258468895712,1.0184437036514282,-1.7534101645099085
1708443463.2233334,-2.1425135135650635,-1.3340571981719513,-2.5273643175708216,6.113214957505026,1.0184632539749146,-1.7531607786761683
1708443463.2253363,-2.1424953937530518,-1.3341188740781327,-2.5273268858539026,6.113140094071188,1.0185503959655762,-1.7529032866107386
1708443463.2273755,-2.142516613006592,-1.3340452772429963,-2.5273104349719446,6.113072979241171,1.0184555053710938,-1.7526596228228968
1708443463.2293227,-2.142472505569458,-1.334037871365883,-2.527341906224386,6.112947690277853,1.0184885263442993,-1.7523892561541956
1708443463.2313254,-2.1424193382263184,-1.3340495389750977,-2.5273435751544397,6.112917291909017,1.0184869766235352,-1.752178970967428
1708443463.2333155,-2.142400026321411,-1.3340051633170624,-2.5273223559008997,6.112730252533712,1.0184721946716309,-1.7519343535052698
1708443463.2353396,-2.1423635482788086,-1.334021345978119,-2.5273597876178187,6.112717258721151,1.018496036529541,-1.7516701857196253
1708443463.2373288,-2.1423399448394775,-1.334021345978119,-2.527355496083395,6.112638222962179,1.0185503959655762,-1.751507584248678
1708443463.239322,-2.142340898513794,-1.3340256822160264,-2.527355496083395,6.112565028458395,1.0185366868972778,-1.7512219587909144
1708443463.2413492,-2.1423542499542236,-1.3339933019927521,-2.527371946965353,6.11254249790267,1.018496036529541,-1.751014534627096
1708443463.2433414,-2.142277240753174,-1.3340222996524354,-2.5273435751544397,6.1124422428901575,1.0185339450836182,-1.7507198492633265
1708443463.2453403,-2.1422815322875977,-1.333941013818123,-2.527355496083395,6.112374770432272,1.0184869766235352,-1.7505205313311976
1708443463.2473888,-2.1421751976013184,-1.3339245331338425,-2.5273435751544397,6.112290131836691,1.0185458660125732,-1.7502873579608362
1708443463.2493253,-2.14220929145813,-1.3340234023383637,-2.527350966130392,6.1122673628623865,1.018527865409851,-1.7500022093402308
1708443463.2513592,-2.1421561241149902,-1.3339691174081345,-2.527367655430929,6.112211811333456,1.0185233354568481,-1.7498438994037073
1708443463.253362,-2.142174005508423,-1.3339495968869706,-2.527325455342428,6.112119304924764,1.0185458660125732,-1.7496116797076624
1708443463.2553384,-2.14212965965271,-1.3340190810016175,-2.527350966130392,6.112063872605123,1.018527865409851,-1.7493980566607874
1708443463.2573485,-2.1421263217926025,-1.3339172911695023,-2.527339045201437,6.112041103630819,1.0185322761535645,-1.7491934935199183
1708443463.2593803,-2.1420888900756836,-1.3339701455882569,-2.527363125477926,6.111944544106283,1.0185502767562866,-1.7489951292621058
1708443463.2613707,-2.1420323848724365,-1.3339744818261643,-2.527367655430929,6.111863958626547,1.0185322761535645,-1.7488082090960901
1708443463.2633178,-2.1420164108276367,-1.3339215529016037,-2.527339045201437,6.1118366596992395,1.0185233354568481,-1.7485502401935022
1708443463.2653508,-2.1419880390167236,-1.3339624863914032,-2.527400557194845,6.11180196979598,1.0185322761535645,-1.7483013311969202
1708443463.2673478,-2.1420016288757324,-1.3339754205993195,-2.52733022371401,6.111794340401449,1.0185441970825195,-1.7481372992144983
1708443463.2693565,-2.1419529914855957,-1.3338935387185593,-2.527346436177389,6.111701953202047,1.0185024738311768,-1.7479208151446741
1708443463.2713437,-2.141916513442993,-1.3338854324868699,-2.527350966130392,6.111661541252889,1.0185694694519043,-1.7477005163775843
1708443463.2733247,-2.14188289642334,-1.3338684004596253,-2.5273705164538782,6.111564743309774,1.0185322761535645,-1.7475126425372522
1708443463.2753587,-2.141880512237549,-1.3338897389224549,-2.527355496083395,6.111521470337667,1.0185322761535645,-1.7473567167865198
1708443463.2773275,-2.141862392425537,-1.3338977259448548,-2.527334515248434,6.111525761872091,1.0185366868972778,-1.7472212950335901
1708443463.2793353,-2.141845464706421,-1.3338821691325684,-2.527384106312887,6.11149417141036,1.018515944480896,-1.746972386037008
1708443463.2813454,-2.1418631076812744,-1.333898351793625,-2.527325455342428,6.111409532814779,1.018479585647583,-1.7468202749835413
1708443463.2833438,-2.1418302059173584,-1.3338540506413956,-2.52738863626589,6.111418354302206,1.0185234546661377,-1.7465994993792933
1708443463.2853541,-2.1417691707611084,-1.3338418167880555,-2.527367655430929,6.111437189369955,1.0185294151306152,-1.746390167866842
1708443463.2873096,-2.1418232917785645,-1.3338702482036133,-2.527341906224386,6.111329901009359,1.0185487270355225,-1.7462347189532679
1708443463.2893443,-2.141805410385132,-1.3338504296592255,-2.527346436177389,6.1112462160880945,1.0184868574142456,-1.7460630575763147
1708443463.2913525,-2.1417746543884277,-1.3337978583625336,-2.527339045201437,6.111263859062948,1.018500566482544,-1.7458704153644007
1708443463.293315,-2.1417622566223145,-1.333826796417572,-2.5273104349719446,6.111211764603414,1.0185368061065674,-1.7456839720355433
1708443463.2953331,-2.1417248249053955,-1.333781437282898,-2.527306143437521,6.111143219261923,1.0185294151306152,-1.7455347220050257
1708443463.2973444,-2.1417622566223145,-1.3338063818267365,-2.527346436177389,6.1111594317253015,1.018515944480896,-1.7453296820269983
1708443463.2993329,-2.1417012214660645,-1.3337856245091935,-2.527325455342428,6.1110912440116785,1.0184661149978638,-1.7451337019549769
1708443463.3013215,-2.141710042953491,-1.3338105988553544,-2.527334515248434,6.111055004387655,1.0184659957885742,-1.7449639479266565
1708443463.3033464,-2.1417393684387207,-1.3338070523789902,-2.527346436177389,6.11105631568984,1.0184632539749146,-1.7448480764972132
1708443463.3053148,-2.1417348384857178,-1.3338354688933869,-2.5273149649249476,6.110983001976766,1.018484115600586,-1.7446678320514124
1708443463.307326,-2.1416943073272705,-1.3338021647981186,-2.527297083531515,6.11100052574233,1.0185339450836182,-1.7445443312274378
1708443463.3093312,-2.141686201095581,-1.333766059284546,-2.527355496083395,6.11087857463912,1.0184812545776367,-1.744305435811178
1708443463.3113132,-2.141719102859497,-1.3338027161410828,-2.5273059050189417,6.110940921097555,1.0184301137924194,-1.7441828886615198
1708443463.3133214,-2.141627550125122,-1.3337703806212922,-2.5273149649249476,6.110888707428732,1.01846444606781,-1.7440384070025843
1708443463.3153255,-2.141653299331665,-1.3337832403234025,-2.5273223559008997,6.110811459809103,1.0184179544448853,-1.7438619772540491
1708443463.3173258,-2.1416738033294678,-1.333839790230133,-2.5273435751544397,6.110820400505819,1.0184403657913208,-1.743744198475973
1708443463.3193178,-2.141686201095581,-1.3337703806212922,-2.5273223559008997,6.110797512322225,1.0184285640716553,-1.7435076872455042
1708443463.3213193,-2.1417076587677,-1.3337541383555909,-2.5273268858539026,6.110753047257223,1.0184195041656494,-1.743392292653219
1708443463.3233252,-2.1416714191436768,-1.3337671023658295,-2.5273194948779505,6.110728847771444,1.0184162855148315,-1.7432807127581995
1708443463.3253205,-2.141686201095581,-1.3337660890868683,-2.5273059050189417,6.110746371537008,1.0183908939361572,-1.743124787007467
1708443463.3273191,-2.1416919231414795,-1.3337333810380478,-2.5273688475238245,6.1107226488883875,1.0183836221694946,-1.7430089155780237
1708443463.3293061,-2.1416738033294678,-1.3337713789990921,-2.527306143437521,6.110718238144674,1.0183717012405396,-1.7428410688983362
1708443463.331309,-2.1416783332824707,-1.3337505620769043,-2.5273075739489954,6.110633241921224,1.0183472633361816,-1.742749039326803
1708443463.3333175,-2.141669511795044,-1.3337181967547913,-2.5272820631610315,6.110677826195516,1.0183308124542236,-1.7425597349749964
1708443463.3353415,-2.14169979095459,-1.333767132168152,-2.5272865931140345,6.1106570837791345,1.0183113813400269,-1.742415730153219
1708443463.3373654,-2.1416409015655518,-1.3337713939002533,-2.5272911230670374,6.110683309822836,1.0183353424072266,-1.7422669569598597
1708443463.3393142,-2.1416454315185547,-1.3337224584868927,-2.5272837320910853,6.110612618714132,1.0183113813400269,-1.742126766835348
1708443463.3413577,-2.1416454315185547,-1.3337138456157227,-2.527250353490011,6.110630142479696,1.0183067321777344,-1.7420108954059046
1708443463.3433254,-2.1416828632354736,-1.3337505620769043,-2.527250353490011,6.110630142479696,1.018265962600708,-1.7418835798846644
1708443463.3453305,-2.1416420936584473,-1.3337019395879288,-2.527292791997091,6.110560285836019,1.018312931060791,-1.7417586485492151
1708443463.3473277,-2.1416802406311035,-1.333735243683197,-2.5273073355304163,6.110606300621786,1.0182512998580933,-1.741638485585348
1708443463.3493252,-2.1416714191436768,-1.3336943250945588,-2.527250353490011,6.1106018898780725,1.0182271003723145,-1.7415650526629847
1708443463.3513355,-2.1416172981262207,-1.333755762582161,-2.52727181116213,6.11063443401412,1.01826012134552,-1.7414029280291956
1708443463.353393,-2.14169979095459,-1.333685742025711,-2.527292553578512,6.110627043038168,1.0182197093963623,-1.7412989775287073
1708443463.3553371,-2.1416590213775635,-1.333706260924675,-2.527221981679098,6.11063443401412,1.0182030200958252,-1.7411788145648401
1708443463.357356,-2.1416544914245605,-1.3336900186589737,-2.5272608439074915,6.110564577370443,1.0181580781936646,-1.741025749837057
1708443463.3593638,-2.1416544914245605,-1.3336533618024369,-2.527210299168722,6.1105689881141565,1.018162488937378,-1.7409384886371058
1708443463.3613777,-2.1416172981262207,-1.3337190759233017,-2.527247492467062,6.110646354943075,1.0181834697723389,-1.7408049742328089
1708443463.3633454,-2.141657829284668,-1.3336618852666398,-2.5272355715381067,6.110561477928915,1.018105387687683,-1.7406967321978968
1708443463.365351,-2.1416454315185547,-1.3337395799211045,-2.527198139821188,6.110597479134359,1.0181474685668945,-1.7406004110919397
1708443463.3673341,-2.1416499614715576,-1.333743841653206,-2.5271740595446985,6.110580909043112,1.0181487798690796,-1.7405226866351526
1708443463.369317,-2.1416172981262207,-1.3337148141912003,-2.5271907488452356,6.11057339885787,1.018078327178955,-1.7404382864581507
1708443463.3713534,-2.1416454315185547,-1.3336995852044602,-2.5272043387042444,6.110643255501547,1.018103837966919,-1.7403104940997522
1708443463.3733294,-2.1416172981262207,-1.333662526016571,-2.52717096010317,6.110627043038168,1.0180710554122925,-1.7402170340167444
1708443463.375362,-2.1416802406311035,-1.3337276589921494,-2.527151648198263,6.110544907837667,1.0180256366729736,-1.7401087919818323
1708443463.3773468,-2.1417043209075928,-1.333621473317482,-2.527163569127218,6.110565888672628,1.0180301666259766,-1.7399876753436487
1708443463.379324,-2.1416285037994385,-1.333698646431305,-2.527135197316305,6.110615122109213,1.0179975032806396,-1.7399094740497034
1708443463.3813553,-2.1416499614715576,-1.3336463582566758,-2.527130667363302,6.110528933792867,1.0180109739303589,-1.7398322264300745
1708443463.3833463,-2.141662359237671,-1.3336704832366486,-2.5272133986102503,6.110622632294454,1.0180153846740723,-1.7397649923907679
1708443463.3853323,-2.1416375637054443,-1.3336986017278214,-2.527151648198263,6.1105702994163416,1.0180526971817017,-1.7396448294269007
1708443463.387325,-2.1416499614715576,-1.3336996001056214,-2.527139727269308,6.110560285836019,1.017986536026001,-1.7395966688739222
1708443463.389326,-2.1416873931884766,-1.3336823892644425,-2.5271111170398157,6.110561477928915,1.0179580450057983,-1.739471737538473
1708443463.3913217,-2.141716718673706,-1.3337276440909882,-2.5270989576922815,6.110577809601583,1.018012285232544,-1.7394254843341272
1708443463.3933175,-2.1416544914245605,-1.3337114316276093,-2.527106587086813,6.11057339885787,1.0179506540298462,-1.7393654028521937
1708443463.395331,-2.1416172981262207,-1.333720089202263,-2.5271034876452845,6.110531794815817,1.017975926399231,-1.7392523924456995
1708443463.397355,-2.1416375637054443,-1.3336704534343262,-2.5271320978747767,6.110549318581381,1.0179431438446045,-1.7392013708697718
1708443463.399321,-2.1417043209075928,-1.3336624962142487,-2.5270989576922815,6.110574590950765,1.0178978443145752,-1.7390831152545374
1708443463.4013617,-2.1416332721710205,-1.3336996299079438,-2.5271111170398157,6.110520112305441,1.0179024934768677,-1.7390230337726038
1708443463.403314,-2.1416499614715576,-1.3336747598699112,-2.5271080175982874,6.110582220345297,1.0179232358932495,-1.738972012196676
1708443463.405337,-2.1416757106781006,-1.333702878361084,-2.5270422140704554,6.110552656441488,1.0178663730621338,-1.738875691090719
1708443463.4073284,-2.1416802406311035,-1.3337199699929734,-2.5270543734179896,6.110577809601583,1.017883062362671,-1.738812271748678
1708443463.409325,-2.1416499614715576,-1.333724395637848,-2.5270302931415003,6.1105984328086755,1.0178921222686768,-1.7387312094317835
1708443463.411351,-2.1416544914245605,-1.3336147081903,-2.527088467274801,6.110582220345297,1.0178377628326416,-1.7387045065509241
1708443463.4133036,-2.1416351795196533,-1.3336711388877411,-2.527060333882467,6.110561477928915,1.01787531375885,-1.73859149614443
1708443463.4153395,-2.141666889190674,-1.3335973632386704,-2.527052942906515,6.110537755280294,1.0178589820861816,-1.7385271231280726
1708443463.4173033,-2.1416757106781006,-1.3336877089789887,-2.527039353047506,6.1105702994163416,1.0178303718566895,-1.738495175038473
1708443463.419313,-2.1416962146759033,-1.333646298652031,-2.527069155369894,6.110565888672628,1.0178271532058716,-1.7384684721576136
1708443463.421333,-2.1416828632354736,-1.333610252743103,-2.5270572344409388,6.1105984328086755,1.0178439617156982,-1.7383630911456507
1708443463.4233208,-2.1416499614715576,-1.3336182695678254,-2.527052942906515,6.110557186394491,1.0178062915802002,-1.7383135000811976
1708443463.425347,-2.1416332721710205,-1.3336060357144852,-2.5270405451404017,6.110577809601583,1.0178316831588745,-1.7382577101336878
1708443463.4273748,-2.1416499614715576,-1.333703876738884,-2.5269911924945276,6.110606300621786,1.0177825689315796,-1.7382190863238733
1708443463.4293432,-2.1417131423950195,-1.3336840134910126,-2.5269625822650355,6.1105360863502405,1.017798900604248,-1.73818284669985
1708443463.4313529,-2.1416828632354736,-1.3336258244565506,-2.5270121733294886,6.110577809601583,1.017765760421753,-1.7381184736834925
1708443463.4333851,-2.1416499614715576,-1.3336301159909745,-2.5270121733294886,6.110610711365499,1.0177748203277588,-1.7381194273578089
1708443463.435327,-2.1416218280792236,-1.333675430422165,-2.5269911924945276,6.110610711365499,1.017786979675293,-1.7380674521075647
1708443463.4373453,-2.14169979095459,-1.3336840283921738,-2.5269625822650355,6.11057339885787,1.0177748203277588,-1.7379844824420374
1708443463.439323,-2.1416873931884766,-1.3336344820312043,-2.5269418398486536,6.110582220345297,1.0178170204162598,-1.7379949728595179
1708443463.4413612,-2.1416873931884766,-1.3336796921542664,-2.5269866625415247,6.1105689881141565,1.0177534818649292,-1.7379663626300257
1708443463.4433167,-2.141666889190674,-1.3337330532125016,-2.5269580523120325,6.110582220345297,1.0177371501922607,-1.737967316304342
1708443463.4453497,-2.1416544914245605,-1.3336344820312043,-2.5269625822650355,6.110528933792867,1.0177793502807617,-1.737887207661764
1708443463.44737,-2.1416873931884766,-1.3336668771556397,-2.526943031941549,6.110640156060018,1.017786979675293,-1.7378419081317347
1708443463.449332,-2.1416714191436768,-1.3336473119309922,-2.5269926230060022,6.110577809601583,1.0177204608917236,-1.7378271261798304
1708443463.4514034,-2.14172101020813,-1.3336018186858674,-2.5269597212420862,6.1105127213294885,1.0177431106567383,-1.7378271261798304
1708443463.453323,-2.141605854034424,-1.3336720031550904,-2.5269041697131556,6.110503899842062,1.0177717208862305,-1.7377737204181116
1708443463.4553576,-2.141662359237671,-1.33358587444339,-2.5269010702716272,6.110607135086813,1.0177295207977295,-1.7377670446978968
1708443463.4573314,-2.141662359237671,-1.333638773565628,-2.5269222895251673,6.110635745316305,1.0177266597747803,-1.7377308050738733
1708443463.45931,-2.1416332721710205,-1.3336796474507828,-2.5269625822650355,6.110546457558431,1.0177507400512695,-1.737668816243307
1708443463.461352,-2.1416757106781006,-1.3336225611022492,-2.526943031941549,6.1105702994163416,1.0177340507507324,-1.737751309071676
1708443463.463324,-2.141662359237671,-1.3335868281177063,-2.5269625822650355,6.110558020859518,1.0177266597747803,-1.7376897970782679
1708443463.4653249,-2.1416544914245605,-1.3336354953101655,-2.5269506613360804,6.110533344536581,1.0177385807037354,-1.7377226988421839
1708443463.4673433,-2.1416873931884766,-1.3336102825454255,-2.5269551912890833,6.110509502678671,1.0177597999572754,-1.7377360502826136
1708443463.46931,-2.1416873931884766,-1.3336231869510193,-2.526943031941549,6.110549318581381,1.0177310705184937,-1.7376826445208948
1708443463.4713218,-2.1416375637054443,-1.3336182695678254,-2.526943031941549,6.11058663108901,1.0177552700042725,-1.7377155462848108
1708443463.4732985,-2.1416103839874268,-1.3336102825454255,-2.526947561894552,6.1105008004005334,1.0177385807037354,-1.7377269903766077
1708443463.475313,-2.1416332721710205,-1.3336189550212403,-2.526947561894552,6.110582220345297,1.0177385807037354,-1.73771840730776
1708443463.4773238,-2.1416828632354736,-1.3336396676352997,-2.526935640965597,6.1106159565742395,1.0177552700042725,-1.737711254750387
1708443463.4793034,-2.1416285037994385,-1.3336030703834076,-2.5269373098956507,6.11058663108901,1.0177552700042725,-1.737685505543844
1708443463.4813292,-2.1416590213775635,-1.3336430203965683,-2.526938501988546,6.110537755280294,1.0177429914474487,-1.737716023121969
1708443463.4833457,-2.1416172981262207,-1.3336182695678254,-2.526980463658468,6.110517012863912,1.0176938772201538,-1.7377694288836878
1708443463.485311,-2.1416757106781006,-1.3336473268321534,-2.5269461313830774,6.110583293228903,1.0177057981491089,-1.7377069632159632
1708443463.487346,-2.1416590213775635,-1.333610327248909,-2.526980463658468,6.1106029627616785,1.0177385807037354,-1.7377846876727503
1708443463.4893258,-2.1416332721710205,-1.3336550009301682,-2.526947561894552,6.110521542816915,1.0177552700042725,-1.7377894560443323
1708443463.4913316,-2.1416714191436768,-1.3335901659778138,-2.526943031941549,6.1105137942130945,1.017713189125061,-1.7377217451678675
1708443463.493347,-2.1416633129119873,-1.3335910749486466,-2.5269716421710413,6.110546457558431,1.0177295207977295,-1.7377427260028284
1708443463.495311,-2.1416420936584473,-1.3336797517589112,-2.5269716421710413,6.1105008004005334,1.0177266597747803,-1.7377803961383265
1708443463.497369,-2.1416420936584473,-1.3336071980050583,-2.5269551912890833,6.110518204956808,1.0177429914474487,-1.7377918402301233
1708443463.4992929,-2.1416375637054443,-1.3335944277099152,-2.526931111012594,6.110521542816915,1.0177642107009888,-1.737781826649801
1708443463.5013134,-2.14169979095459,-1.3336558204940339,-2.52690560022463,6.110485303192892,1.0177507400512695,-1.7378652731524866
1708443463.5032918,-2.1416499614715576,-1.333651752477028,-2.526947561894552,6.110501515656271,1.0177475214004517,-1.7378924528705042
1708443463.505309,-2.1416633129119873,-1.3336431098035355,-2.526935640965597,6.110518204956808,1.0177295207977295,-1.7378762404071253
1708443463.5073595,-2.141662359237671,-1.3335825961879273,-2.526931111012594,6.110497104912557,1.0177102088928223,-1.7379120031939905
1708443463.5093107,-2.1416714191436768,-1.3335610342076798,-2.5269177595721644,6.110510456352987,1.0177295207977295,-1.7379363218890589
1708443463.5113525,-2.1416332721710205,-1.3336354804090043,-2.5269926230060022,6.110519158631124,1.017701268196106,-1.737927261983053
1708443463.513314,-2.141666889190674,-1.3336516630700608,-2.5269551912890833,6.110506045609274,1.0177221298217773,-1.7379630247699183
1708443463.5153296,-2.1416919231414795,-1.3336061102202912,-2.526943031941549,6.110519158631124,1.0177310705184937,-1.7380035559283655
1708443463.517324,-2.14169979095459,-1.3336310696652909,-2.526952091847555,6.1104493019874475,1.0177310705184937,-1.7380355040179651
1708443463.5193245,-2.1416544914245605,-1.33364391446624,-2.526910130177633,6.110446202545919,1.0177671909332275,-1.7380717436419886
1708443463.52131,-2.1416633129119873,-1.3336115193418046,-2.5269222895251673,6.110453712731161,1.017729640007019,-1.738091293965475
1708443463.5233514,-2.1416351795196533,-1.3336354506066819,-2.526926581059591,6.110453712731161,1.0177507400512695,-1.738227669392721
1708443463.5253057,-2.1416499614715576,-1.3335953515819092,-2.526926581059591,6.1104668257530115,1.0177221298217773,-1.7381961981402796
1708443463.527329,-2.1416499614715576,-1.3336189550212403,-2.526943031941549,6.110450494080343,1.0177580118179321,-1.7382238546954554
1708443463.5293167,-2.1416420936584473,-1.3336189550212403,-2.52696401277651,6.11039291599349,1.017767071723938,-1.7383177916156214
1708443463.5313067,-2.1416420936584473,-1.3336316657117386,-2.5269177595721644,6.110438930779257,1.0177748203277588,-1.7382953802691858
1708443463.5333402,-2.1416590213775635,-1.333618940120079,-2.526931111012594,6.110389697342672,1.0177463293075562,-1.7383855024920862
1708443463.5353148,-2.1416802406311035,-1.3335953515819092,-2.526964251195089,6.110414850502767,1.0177581310272217,-1.7384384314166468
1708443463.5373616,-2.141650915145874,-1.3336354804090043,-2.5269761721240442,6.11038218715743,1.017767071723938,-1.7384818235980433
1708443463.5393214,-2.14164400100708,-1.3335791689208527,-2.526947561894552,6.110349285393514,1.0177371501922607,-1.7385204474078577
1708443463.5413234,-2.1415696144104004,-1.3335825514844437,-2.5269551912890833,6.110448944359579,1.017786979675293,-1.7386229673968714
1708443463.5433593,-2.1416068077087402,-1.3336679500392457,-2.526968781148092,6.110346185951986,1.0177748203277588,-1.738675896321432
1708443463.545325,-2.1416022777557373,-1.3336030852845688,-2.526975933705465,6.110357987671652,1.017723798751831,-1.7387178579913538
1708443463.5473402,-2.1415810585021973,-1.3336558949998398,-2.5269761721240442,6.110355007439413,1.0177748203277588,-1.7387822310077112
1708443463.5493283,-2.1415741443634033,-1.3335541945746918,-2.5269296805011194,6.110329973488607,1.0178362131118774,-1.7388423124896448
1708443463.551315,-2.141561508178711,-1.3336396974376221,-2.526938501988546,6.1103505966956995,1.0178152322769165,-1.7389143149005335
1708443463.5533698,-2.141589879989624,-1.3336072576097031,-2.5269597212420862,6.110338675766744,1.0178439617156982,-1.7389534155475062
1708443463.5553234,-2.1415741443634033,-1.3336644780686875,-2.5269506613360804,6.1103060124214075,1.0178271532058716,-1.7390826384173792
1708443463.5573537,-2.141561508178711,-1.3335910898498078,-2.5269716421710413,6.110301720886984,1.0178349018096924,-1.739117447529928
1708443463.559376,-2.141578435897827,-1.3335620027831574,-2.5269506613360804,6.110330807953634,1.0177973508834839,-1.7391851584063929
1708443463.5613797,-2.141592025756836,-1.333618940120079,-2.5269551912890833,6.110277998238363,1.0178680419921875,-1.7393110434161585
1708443463.5633342,-2.14153790473938,-1.3336225611022492,-2.5270255247699183,6.110286581307211,1.0178180932998657,-1.7394374052630823
1708443463.565345,-2.1416008472442627,-1.333635465507843,-2.5269928614245813,6.110290992050924,1.017901062965393,-1.7395294348346155
1708443463.5673263,-2.1414883136749268,-1.3335706752589722,-2.5270255247699183,6.11024175861434,1.0178589820861816,-1.739530388508932
1708443463.5693693,-2.141530752182007,-1.3335498583367844,-2.5269625822650355,6.110283243447103,1.0178709030151367,-1.7396553198443812
1708443463.5713344,-2.141526460647583,-1.3336397123387833,-2.526938501988546,6.110271322518148,1.0178650617599487,-1.739755932484762
1708443463.5733595,-2.1415140628814697,-1.3335995984128495,-2.5269671122180384,6.110266911774435,1.017911434173584,-1.7398565451251429
1708443463.575333,-2.141526460647583,-1.3336115640452881,-2.5269222895251673,6.110238659172811,1.0179367065429688,-1.7399194876300257
1708443463.577354,-2.141526460647583,-1.3335869175246735,-2.5269551912890833,6.110226499825277,1.017906904220581,-1.7400248686419886
1708443463.5793378,-2.14147686958313,-1.3336316657117386,-2.5269296805011194,6.110213267594137,1.0179431438446045,-1.7401464621173304
1708443463.5813377,-2.1414926052093506,-1.3335541945746918,-2.5270119349109095,6.11021767833785,1.0179141759872437,-1.7402175108539026
1708443463.583315,-2.1415016651153564,-1.3336157959750672,-2.5269625822650355,6.110198604851522,1.0179312229156494,-1.7402985731707972
1708443463.5853243,-2.1414945125579834,-1.3335626286319275,-2.5270164648639124,6.11026822307662,1.0179550647735596,-1.7404397169696253
1708443463.5873227,-2.1414945125579834,-1.3336231422475358,-2.5269838015185755,6.110251891403951,1.0179431438446045,-1.7405312697040003
1708443463.5893376,-2.1414902210235596,-1.3335345697453995,-2.5269957224475306,6.110198604851522,1.0179927349090576,-1.7406061331378382
1708443463.5913243,-2.1414830684661865,-1.3335626137307663,-2.5269461313830774,6.110178816109457,1.0179882049560547,-1.7407353560077112
1708443463.5933225,-2.1414830684661865,-1.3335834455541153,-2.5269702116595667,6.1102439043815515,1.0179669857025146,-1.7408106962787073
1708443463.5953407,-2.141449451446533,-1.3336287152818223,-2.526994053517477,6.110216009407797,1.0180317163467407,-1.740887467061178
1708443463.5973291,-2.141515016555786,-1.3335797798684617,-2.5269866625415247,6.110178816109457,1.0180498361587524,-1.740979019795553
1708443463.5993133,-2.1414787769317627,-1.3335878264955063,-2.5269580523120325,6.110153782158651,1.0180317163467407,-1.741091553364889
1708443463.6013606,-2.141479730606079,-1.333522380595543,-2.5270002524005335,6.11023639419631,1.0180436372756958,-1.7411592642413538
1708443463.603322,-2.141488552093506,-1.3335094016841431,-2.527069155369894,6.110174405365743,1.0180392265319824,-1.7412660757647913
1708443463.6053715,-2.14145827293396,-1.3335755479386826,-2.5270031134234827,6.1101876375968835,1.0180392265319824,-1.7413128058062952
1708443463.6073155,-2.141493082046509,-1.3335388463786622,-2.52702242532839,6.110166895180502,1.0180600881576538,-1.7414959112750452
1708443463.6093576,-2.141439914703369,-1.3335550737432023,-2.5270260016070765,6.1101428149040125,1.0180466175079346,-1.741514031087057
1708443463.6113865,-2.1414601802825928,-1.3335877519897004,-2.52702242532839,6.110213029175558,1.0180466175079346,-1.7417214552508753
1708443463.6133146,-2.1414096355438232,-1.3335920584252854,-2.5270422140704554,6.1101146815116785,1.0181009769439697,-1.7417634169207972
1708443463.615359,-2.141435384750366,-1.3335388910821457,-2.527072016392843,6.110180127411642,1.018087387084961,-1.7418564001666468
1708443463.617368,-2.1414761543273926,-1.3335431677154084,-2.527013365422384,6.1101726172264,1.018078327178955,-1.7419527212726038
1708443463.6193402,-2.141422986984253,-1.3335551035455246,-2.527043883000509,6.110168206482687,1.018078327178955,-1.742047135029928
1708443463.6213539,-2.141422986984253,-1.333519072537758,-2.527043883000509,6.110139715462484,1.0180498361587524,-1.742138687764303
1708443463.6233535,-2.141418695449829,-1.3336125624230881,-2.527026955281393,6.110155927925863,1.0180902481079102,-1.7422850767718714
1708443463.625342,-2.141448736190796,-1.3335834306529541,-2.5270677248584192,6.110118973046102,1.0181533098220825,-1.742364231740133
1708443463.6273355,-2.1414105892181396,-1.3335464608720322,-2.5270467440234583,6.110089528351583,1.0180858373641968,-1.7425263563739222
1708443463.6293218,-2.141427516937256,-1.3335841608098526,-2.527100388203756,6.110135304718771,1.0181307792663574,-1.7426255385028284
1708443463.6313539,-2.141448736190796,-1.3335953962853928,-2.5270541349994105,6.110139715462484,1.0181353092193604,-1.7427008787738245
1708443463.633325,-2.1414105892181396,-1.3335147213986893,-2.5270751158343714,6.110102760582723,1.0181609392166138,-1.7427848021136683
1708443463.635589,-2.141406297683716,-1.3335550737432023,-2.527106587086813,6.110118973046102,1.0181519985198975,-1.7430046240436
1708443463.6373706,-2.1413652896881104,-1.333575577741005,-2.527085606251852,6.110115873604574,1.0181609392166138,-1.7430251280414026
1708443463.6393552,-2.1414287090301514,-1.3335104596665879,-2.5271077791797083,6.110144006996908,1.0181596279144287,-1.7431471983539026
1708443463.6413424,-2.141394853591919,-1.3335507226041337,-2.5270989576922815,6.110095131188192,1.0181686878204346,-1.7432344595538538
1708443463.6433108,-2.1414151191711426,-1.3336330366185685,-2.5270825068103235,6.110115873604574,1.018196940422058,-1.7433188597308558
1708443463.6453538,-2.1414196491241455,-1.333608241086342,-2.5271275679217737,6.110055076866903,1.018204689025879,-1.7434929052936
1708443463.6473503,-2.1414036750793457,-1.3335302484086533,-2.5271199385272425,6.110103952675619,1.0181671380996704,-1.7435229460345667
1708443463.6493485,-2.141383409500122,-1.3335190576365967,-2.5270989576922815,6.110078918724813,1.0182210206985474,-1.7436474005328577
1708443463.6513233,-2.1413822174072266,-1.3335722994855423,-2.527118508015768,6.110080110817709,1.0181715488433838,-1.743751351033346
1708443463.6533344,-2.141400098800659,-1.3335636419108887,-2.527155939732687,6.110071289330282,1.0181671380996704,-1.7438514868365687
1708443463.6553402,-2.141378879547119,-1.3335636121085663,-2.5271275679217737,6.110103952675619,1.0182242393493652,-1.7439840475665491
1708443463.6573389,-2.1413912773132324,-1.3336288046887894,-2.527064625416891,6.11008762100295,1.0182197093963623,-1.7440951506244105
1708443463.659328,-2.1414036750793457,-1.3336244237473984,-2.5271814505206507,6.110062587052145,1.0181654691696167,-1.7441700140582483
1708443463.6613677,-2.1413629055023193,-1.333538831477501,-2.527126137410299,6.110071289330282,1.018212080001831,-1.7443040052997034
1708443463.663313,-2.1413776874542236,-1.333579809670784,-2.527123037968771,6.110092031746664,1.0182197093963623,-1.7444618383990687
1708443463.6653695,-2.1413912773132324,-1.3335395169309159,-2.527139727269308,6.110090839653768,1.0182106494903564,-1.7445419470416468
1708443463.6673408,-2.1414196491241455,-1.3335722249797364,-2.5271769205676478,6.110083210259237,1.0182437896728516,-1.7446401754962366
1708443463.6693418,-2.1413958072662354,-1.333501787190773,-2.527156178151266,6.110078918724813,1.018206238746643,-1.7447131315814417
1708443463.671375,-2.141400098800659,-1.3335473996451874,-2.527135197316305,6.110149729042806,1.0182691812515259,-1.744845215474264
1708443463.6733675,-2.1413912773132324,-1.3335797798684617,-2.527118508015768,6.110071289330282,1.018276572227478,-1.74492055574526
1708443463.6753628,-2.1413514614105225,-1.3335679483464737,-2.527156178151266,6.110072600632467,1.0182557106018066,-1.7450164000140589
1708443463.677356,-2.1413912773132324,-1.3335061979344864,-2.527130667363302,6.110128867417135,1.0182181596755981,-1.745178524647848
1708443463.6793332,-2.141348123550415,-1.333494172697403,-2.527126137410299,6.110075700073995,1.0182557106018066,-1.745195213948385
1708443463.6813524,-2.141374349594116,-1.3335995835116883,-2.527163569127218,6.110120165138998,1.0183099508285522,-1.7453826109515589
1708443463.6833272,-2.141378879547119,-1.3335395467332383,-2.527105156575338,6.110111462860861,1.0182467699050903,-1.745478932057516
1708443463.6853292,-2.141383409500122,-1.3335431677154084,-2.527175490056173,6.110133397370138,1.0182632207870483,-1.745608154927389
1708443463.6873338,-2.141378879547119,-1.333519072537758,-2.527118508015768,6.110096323281088,1.018288493156433,-1.7456205526935022
1708443463.6893487,-2.1413347721099854,-1.3335593354753037,-2.527168099080221,6.110092031746664,1.0182585716247559,-1.7457988897906702
1708443463.691349,-2.1413538455963135,-1.3335669350675126,-2.527175490056173,6.110100853234091,1.0182421207427979,-1.745849911366598
1708443463.6933665,-2.141400098800659,-1.3335593801787873,-2.5271456877337855,6.110046374588766,1.0182585716247559,-1.7460005919085901
1708443463.6953356,-2.141383409500122,-1.3335061234286805,-2.52717096010317,6.110058176308431,1.018312931060791,-1.7461159865008753
1708443463.6973555,-2.141378879547119,-1.3335309040597458,-2.52717096010317,6.110100853234091,1.0182795524597168,-1.7462170759784144
1708443463.6993206,-2.141404628753662,-1.3335233193686982,-2.5271876494037073,6.110029685288229,1.0183247327804565,-1.7462919394122522
1708443463.7013505,-2.141376256942749,-1.33357127130542,-2.527229611073629,6.110055076866903,1.0182749032974243,-1.7463749090777796
1708443463.703344,-2.141371965408325,-1.3335755330375214,-2.527154509221212,6.110128867417135,1.018301010131836,-1.7464588324176233
1708443463.7053416,-2.1413586139678955,-1.3335593354753037,-2.5271502176867884,6.110071289330282,1.0182949304580688,-1.7465789953814905
1708443463.7073605,-2.141378879547119,-1.3335464012673874,-2.5271876494037073,6.110055076866903,1.0182949304580688,-1.746681038533346
1708443463.709362,-2.1413538455963135,-1.3335352700999756,-2.5272086302386683,6.110120165138998,1.0183247327804565,-1.74675161043276
1708443463.7113717,-2.1413674354553223,-1.333530918960907,-2.5271411577807825,6.110096323281088,1.0183366537094116,-1.7468236128436487
1708443463.713329,-2.141400098800659,-1.3335388910821457,-2.5271619001971644,6.1101170656974695,1.0183038711547852,-1.746965233479635
1708443463.7153432,-2.1413259506225586,-1.333579809670784,-2.5272281805621546,6.110042798310079,1.0183444023132324,-1.7470491568194788
1708443463.717339,-2.1413912773132324,-1.333538831477501,-2.5271998087512415,6.110066997795858,1.0182740688323975,-1.7471140066729944
1708443463.7193375,-2.141378879547119,-1.333592028622963,-2.5271862188922327,6.110059368401327,1.0183186531066895,-1.74721604982485
1708443463.7213347,-2.1414287090301514,-1.33357226968322,-2.5272443930255335,6.109997141152181,1.0183353424072266,-1.7473214308368128
1708443463.7233958,-2.1413674354553223,-1.3335920584252854,-2.527165238057272,6.110071289330282,1.018290400505066,-1.7473648230182093
1708443463.7253323,-2.1413514614105225,-1.3335963201573868,-2.5272117296801966,6.110046374588766,1.018302321434021,-1.7474897543536585
1708443463.7273948,-2.141404628753662,-1.3335834604552765,-2.5271907488452356,6.110092031746664,1.0183067321777344,-1.7475898901568812
1708443463.7293286,-2.1413629055023193,-1.3335583818009873,-2.5272160212146204,6.110084521561422,1.018372893333435,-1.747662369404928
1708443463.7313464,-2.141383409500122,-1.3336115342429657,-2.5271785894977015,6.110066997795858,1.0183321237564087,-1.7477119604693812
1708443463.733366,-2.141378879547119,-1.3335669350675126,-2.5272372404681605,6.110080110817709,1.0183608531951904,-1.74785024324526
1708443463.735366,-2.1413629055023193,-1.3335669201663514,-2.527214590703146,6.110080110817709,1.018302321434021,-1.7479174772845667
1708443463.7374053,-2.141378879547119,-1.3335180294564744,-2.527231041585104,6.110066997795858,1.0183639526367188,-1.7480395475970667
1708443463.7393436,-2.141376256942749,-1.33357127130542,-2.527242962514059,6.110075700073995,1.0183398723602295,-1.7481148878680628
1708443463.7413232,-2.1413958072662354,-1.3335963201573868,-2.527231041585104,6.110096323281088,1.0183897018432617,-1.7481611410724085
1708443463.7433202,-2.141392230987549,-1.3335877817920228,-2.527210299168722,6.110145318299093,1.0183607339859009,-1.7482712904559534
1708443463.7453947,-2.1413605213165283,-1.3335920584252854,-2.527181927357809,6.110100853234091,1.0183517932891846,-1.7483671347247522
1708443463.7473202,-2.1413586139678955,-1.3335583818009873,-2.5272191206561487,6.110080110817709,1.0183897018432617,-1.7484000364886683
1708443463.7493207,-2.141383409500122,-1.3336083155921479,-2.527233902608053,6.110128986626425,1.0183354616165161,-1.7485187689410608
1708443463.7513242,-2.141383409500122,-1.3335791689208527,-2.5272026697741907,6.110103952675619,1.0183730125427246,-1.7486117521869105
1708443463.7533312,-2.141376256942749,-1.3336072874120255,-2.527198378239767,6.110112654953756,1.0183337926864624,-1.7486498991595667
1708443463.7553039,-2.141380786895752,-1.3335920584252854,-2.527238432561056,6.110038387566366,1.018376111984253,-1.748730484639303
1708443463.7573712,-2.141387701034546,-1.3336030852845688,-2.527231041585104,6.110092031746664,1.0183337926864624,-1.748814884816305
1708443463.7593365,-2.141385316848755,-1.3335798245719452,-2.527205769215719,6.110120165138998,1.0183594226837158,-1.7489169279681605
1708443463.7613397,-2.1413559913635254,-1.3335663986257096,-2.527221981679098,6.11008762100295,1.0183836221694946,-1.7489965597735804
1708443463.7633255,-2.1412930488586426,-1.3336189550212403,-2.527217451726095,6.110124575882711,1.0184162855148315,-1.749047581349508
1708443463.7653174,-2.141364812850952,-1.3335669201663514,-2.527259413396017,6.110062587052145,1.0183627605438232,-1.749110523854391
1708443463.7674766,-2.1413064002990723,-1.333558351998665,-2.527233902608053,6.11005066612319,1.0183656215667725,-1.749199692402975
1708443463.7693264,-2.141352415084839,-1.3336030852845688,-2.527250353490011,6.1100995419319055,1.0184330940246582,-1.7492850462542933
1708443463.7713354,-2.141319751739502,-1.3335706752589722,-2.5272584597217005,6.110071289330282,1.0183908939361572,-1.749298397694723
1708443463.7733536,-2.141324281692505,-1.3336072576097031,-2.5272865931140345,6.110124575882711,1.0184073448181152,-1.7494128386126917
1708443463.775338,-2.1413028240203857,-1.3336396676352997,-2.5272746721850794,6.110030877381124,1.0184314250946045,-1.7494681517230433
1708443463.7773094,-2.141265630722046,-1.3335953515819092,-2.5273447672473353,6.110038387566366,1.0184314250946045,-1.749495808278219
1708443463.7793179,-2.141258716583252,-1.3336145889810105,-2.5272777716266077,6.110083210259237,1.0184690952301025,-1.7495916525470179
1708443463.7813451,-2.1412720680236816,-1.3336473119309922,-2.5273447672473353,6.110128986626425,1.0184555053710938,-1.7496517340289515
1708443463.7833357,-2.1412270069122314,-1.333651677971222,-2.5272820631610315,6.110014545708456,1.0184677839279175,-1.7497618834124964
1708443463.7853205,-2.1412312984466553,-1.3336473119309922,-2.5273314158069056,6.110047209053793,1.0184677839279175,-1.7497809568988245
1708443463.78735,-2.1411702632904053,-1.3336268377355118,-2.527339045201437,6.109998214035787,1.0185366868972778,-1.7498696486102503
1708443463.7893403,-2.1411969661712646,-1.333626852636673,-2.5273643175708216,6.110044109612264,1.0185368061065674,-1.7499249617206019
1708443463.7913277,-2.1411564350128174,-1.3336225611022492,-2.527363125477926,6.110036599427023,1.0184824466705322,-1.7499445120440882
1708443463.7933218,-2.141118049621582,-1.3336430352977295,-2.527355496083395,6.110020267754354,1.018598198890686,-1.750049893056051
1708443463.7953207,-2.141127109527588,-1.33366251111541,-2.527405087147848,6.109917747765341,1.018575668334961,-1.7500723044024866
1708443463.7973444,-2.1410679817199707,-1.3336344820312043,-2.5273662249194544,6.10993658283309,1.0185846090316772,-1.750174347554342
1708443463.7993155,-2.1410088539123535,-1.333646298652031,-2.5273662249194544,6.109879958420553,1.0186090469360352,-1.750246826802389
1708443463.801352,-2.1409308910369873,-1.3336582344821473,-2.5274110476123255,6.1098365662391565,1.0186628103256226,-1.7502573172198694
1708443463.803359,-2.140915870666504,-1.3336738359979172,-2.527442518864767,6.109735357552328,1.0186312198638916,-1.7503083387957972
1708443463.8053186,-2.140859603881836,-1.333743841653206,-2.527475420628683,6.109675156861105,1.0186810493469238,-1.7504003683673304
1708443463.8073215,-2.140793800354004,-1.3337105226567765,-2.5275116602527063,6.1096393940742395,1.0186961889266968,-1.7504780928241175
1708443463.8093348,-2.140784502029419,-1.3337095093778153,-2.5275116602527063,6.109627592354574,1.0187487602233887,-1.750514332448141
1708443463.8113432,-2.140768527984619,-1.3337471944144745,-2.5275355021106165,6.109570848732748,1.018784761428833,-1.7505820433246058
1708443463.813314,-2.1407277584075928,-1.3337746423533936,-2.527588192616598,6.109531628876486,1.0188207626342773,-1.7506373564349573
1708443463.8153384,-2.1406075954437256,-1.3337591153434296,-2.52759558359255,6.1094515202339075,1.0188612937927246,-1.7507231871234339
1708443463.817365,-2.1405892372131348,-1.333770365720131,-2.5276389757739466,6.109428512841024,1.0188766717910767,-1.7508114019977015
1708443463.819319,-2.1404874324798584,-1.333823562865593,-2.5277121702777308,6.109353649407186,1.0189094543457031,-1.7508209387408655
1708443463.8213346,-2.140404224395752,-1.3338063669255753,-2.5277367273913782,6.10928093174056,1.0189123153686523,-1.7508986631976526
1708443463.823345,-2.1403493881225586,-1.333834246998169,-2.5277231375323694,6.109217631607809,1.018945336341858,-1.7510293165790003
1708443463.8253365,-2.140261173248291,-1.3338669699481507,-2.5277543703662317,6.1091370461280725,1.0189862251281738,-1.7509978453265589
1708443463.8273184,-2.140164375305176,-1.3338950884393235,-2.527811590825216,6.109077560692587,1.0190430879592896,-1.7510746161090296
1708443463.8293195,-2.140084743499756,-1.3339191687158127,-2.527872864400045,6.10898910739974,1.018989086151123,-1.751143757496969
1708443463.8313308,-2.1399965286254883,-1.333971844320633,-2.5279088656054896,6.108930933266439,1.0190372467041016,-1.7512415091144007
1708443463.8333485,-2.139921188354492,-1.3339754205993195,-2.527902905141012,6.108846056252279,1.0190491676330566,-1.75126821199526
1708443463.835382,-2.1398258209228516,-1.3340072196773072,-2.5279811064349573,6.108783948212423,1.0191015005111694,-1.7513240019427698
1708443463.837337,-2.1397383213043213,-1.3339820516160508,-2.5280032793628138,6.108553278237142,1.019175410270691,-1.7513750235186976
1708443463.8393106,-2.139590263366699,-1.3340256971171875,-2.528048340474264,6.10846637466506,1.019223690032959,-1.7514084021197718
1708443463.8413355,-2.139516592025757,-1.3340536814979096,-2.5280633608447474,6.108298766403951,1.0192747116088867,-1.7514904181109827
1708443463.8433118,-2.139331340789795,-1.3340622347644349,-2.528123442326681,6.108200061112203,1.0192853212356567,-1.751540486012594
1708443463.845336,-2.1391706466674805,-1.3340648275664826,-2.5281761328326624,6.108075964241781,1.0193617343902588,-1.7516081968890589
1708443463.8473465,-2.139014959335327,-1.3341383200934906,-2.52821928659548,6.107923853188314,1.0194189548492432,-1.7516306082354944
1708443463.8493278,-2.1389002799987793,-1.3341739934733887,-2.5282719771014612,6.107751953392782,1.0194957256317139,-1.7517059485064905
1708443463.8513417,-2.1387126445770264,-1.3341769141009827,-2.5283692518817347,6.107646572380819,1.0195554494857788,-1.75177508989443
1708443463.8533292,-2.138543128967285,-1.3341769141009827,-2.528421942387716,6.107433545380392,1.0196399688720703,-1.7518485228167933
1708443463.855334,-2.138343334197998,-1.3342656058124085,-2.5284398237811487,6.107249843865194,1.0197032690048218,-1.7518981138812464
1708443463.8573854,-2.138197422027588,-1.3342648309520264,-2.5285282770739954,6.107019412308492,1.019824743270874,-1.7519834677325647
1708443463.8593545,-2.1380090713500977,-1.3342886728099366,-2.528632942830221,6.1068235514457605,1.0199205875396729,-1.7520607153521937
1708443463.8613436,-2.1377902030944824,-1.3343776923469086,-2.528675142918722,6.1066051600273035,1.0200247764587402,-1.7521322409259241
1708443463.863329,-2.137631416320801,-1.3344012063792725,-2.5287440458880823,6.106379973679342,1.0201084613800049,-1.752204720173971
1708443463.865327,-2.137375831604004,-1.3343964380076905,-2.5288191477404993,6.106145608216085,1.0201809406280518,-1.7523101011859339
1708443463.8673353,-2.137070417404175,-1.3345089715770264,-2.528928343449728,6.105929958611288,1.0202769041061401,-1.7523396650897425
1708443463.8693213,-2.1368160247802734,-1.3345208925059815,-2.529053036366598,6.105629670410909,1.020349144935608,-1.752463165913717
1708443463.8713522,-2.1365880966186523,-1.3345323664001008,-2.5291369597064417,6.105362403183737,1.020478367805481,-1.7524855772601526
1708443463.873343,-2.1363065242767334,-1.33458764970813,-2.529269043599264,6.10507212856368,1.0205864906311035,-1.7525866667376917
1708443463.875348,-2.1359622478485107,-1.3345910173705597,-2.5293529669391077,6.104725229531088,1.0207518339157104,-1.7526658217059534
1708443463.8773265,-2.1356699466705322,-1.3346636456302186,-2.5295148531543177,6.104414331703939,1.0208182334899902,-1.7527740637408655
1708443463.879336,-2.1353955268859863,-1.3347723496011277,-2.529646698628561,6.104123222618856,1.020972728729248,-1.7528327147113245
1708443463.881346,-2.135080575942993,-1.3347907823375245,-2.529712978993551,6.103759991913595,1.0211125612258911,-1.7529500166522425
1708443463.8833241,-2.1346843242645264,-1.3348072630218049,-2.5298612753497522,6.10346947887496,1.0212030410766602,-1.7530501524554651
1708443463.8853424,-2.1343655586242676,-1.3349070113948365,-2.5299857298480433,6.1031120894248865,1.0213444232940674,-1.7531183401690882
1708443463.8873353,-2.1340298652648926,-1.3350199472955246,-2.530099693928854,6.102712023049154,1.021554708480835,-1.753260914479391
1708443463.8893228,-2.1336350440979004,-1.335071013574936,-2.530252758656637,6.102280843048849,1.0216805934906006,-1.753402058278219
1708443463.8913605,-2.1331756114959717,-1.3351496022990723,-2.5303714911090296,6.101813661843099,1.0218791961669922,-1.7534139792071741
1708443463.8933227,-2.1327733993530273,-1.3352140051177521,-2.5305782000171106,6.101330745011129,1.022050380706787,-1.7535432020770472
1708443463.8953626,-2.132338285446167,-1.3352939945510407,-2.530746046696798,6.100884187012472,1.0222563743591309,-1.7536895910846155
1708443463.8973591,-2.1319029331207275,-1.3354107600501557,-2.5308571497546595,6.100376474648275,1.0223994255065918,-1.7538097540484827
1708443463.8993204,-2.1314218044281006,-1.3354221445373078,-2.530992094670431,6.099947321205892,1.0225553512573242,-1.7539098898517054
1708443463.90134,-2.130977153778076,-1.3354931336692353,-2.5311718622790735,6.099407422333517,1.022760033607483,-1.7539880911456507
1708443463.9033027,-2.130516767501831,-1.3356620532325287,-2.531402889882223,6.098872411042013,1.0229476690292358,-1.754103962575094
1708443463.9053164,-2.129967212677002,-1.3357288104346772,-2.531597677861349,6.098325955658712,1.0231729745864868,-1.754266087208883
1708443463.907321,-2.1294753551483154,-1.3357840937427063,-2.5318437258349817,6.097776758461752,1.0234346389770508,-1.7544224897967737
1708443463.9093676,-2.128896474838257,-1.3359200221351166,-2.5320192019092005,6.097198235779562,1.0236825942993164,-1.754484001790182
1708443463.911322,-2.1283748149871826,-1.336076320414879,-2.5322380701648157,6.096581208496847,1.0238733291625977,-1.7546990553485315
1708443463.9133096,-2.1277430057525635,-1.336211846475937,-2.5324631373034876,6.095965373307028,1.0241693258285522,-1.7548263708697718
1708443463.9153652,-2.1271746158599854,-1.3363069158843537,-2.532656733189718,6.0953876850898645,1.024299144744873,-1.7550295034991663
1708443463.9173217,-2.126627206802368,-1.3364432913115998,-2.5329442659961146,6.094713079720297,1.0245482921600342,-1.7551572958575647
1708443463.9192932,-2.1259498596191406,-1.3365545135787507,-2.5331018606769007,6.094079720764913,1.0247886180877686,-1.7553332487689417
1708443463.9213276,-2.125309705734253,-1.3366611760905762,-2.533358399068014,6.093406069069662,1.0250742435455322,-1.7555316130267542
1708443463.9233267,-2.1246449947357178,-1.3368539375117798,-2.533626381550924,6.092664110451498,1.0253417491912842,-1.755615536366598
1708443463.9253466,-2.123962163925171,-1.3369210970452805,-2.533914629613058,6.091906893044271,1.0256935358047485,-1.7558420340167444
1708443463.9273167,-2.1232309341430664,-1.3370807033828278,-2.534170929585592,6.091058718949117,1.0259819030761719,-1.7560423056231897
1708443463.9293134,-2.1225500106811523,-1.3371873658946534,-2.534388844166891,6.0903756497199915,1.0262662172317505,-1.7562106291400355
1708443463.9313276,-2.1218056678771973,-1.337372065787651,-2.5347512404071253,6.089525091439047,1.0265668630599976,-1.756423298512594
1708443463.9333577,-2.12105393409729,-1.337506816988327,-2.535006348286764,6.088780391007223,1.0268223285675049,-1.7566235701190394
1708443463.9353416,-2.120299816131592,-1.3376752746156235,-2.5352657477008265,6.087917434960165,1.0271319150924683,-1.7567828337298792
1708443463.937341,-2.1195428371429443,-1.3378064346364518,-2.535555426274435,6.08705352523879,1.027387261390686,-1.7570412794696253
1708443463.9393718,-2.11873459815979,-1.3379953664592286,-2.535902802144186,6.086183655052938,1.0277208089828491,-1.7572768370257776
1708443463.9413593,-2.1178934574127197,-1.3381247532418747,-2.536215130482809,6.085265981941976,1.0280667543411255,-1.757477108632223
1708443463.943361,-2.1170263290405273,-1.3383488071015854,-2.536489550267355,6.084349977761068,1.0284481048583984,-1.757702652608053
1708443463.945347,-2.1161892414093018,-1.3384595078280945,-2.5368478933917444,6.08335970619277,1.0287669897079468,-1.7579577604876917
1708443463.9473581,-2.1153218746185303,-1.3387214255383988,-2.5371795336352747,6.082370388298788,1.0291470289230347,-1.7581561247455042
1708443463.9493515,-2.1143417358398438,-1.3388436448625107,-2.5375152269946497,6.0814376948173425,1.0294549465179443,-1.7584522406207483
1708443463.9513319,-2.113480567932129,-1.3390511286309739,-2.5378885904895228,6.080512749939718,1.0298563241958618,-1.7586668173419397
1708443463.953332,-2.1125760078430176,-1.339174048309662,-2.538203303013937,6.0795103190238855,1.030212163925171,-1.7589405218707483
1708443463.9553301,-2.111717939376831,-1.3394023340991517,-2.538534704838888,6.07848488071517,1.0305771827697754,-1.7591765562640589
1708443463.9573567,-2.1107640266418457,-1.3395902675441285,-2.538863007222311,6.077519881516256,1.0309789180755615,-1.7594483534442347
1708443463.9593132,-2.109797477722168,-1.339744196539261,-2.5392349402057093,6.076449739723959,1.0313351154327393,-1.7597129980670374
1708443463.9613361,-2.1088314056396484,-1.3399553012898942,-2.5395873228656214,6.075402247696676,1.0316585302352905,-1.7600520292865198
1708443463.963338,-2.107837677001953,-1.3401991140893479,-2.5399635473834437,6.074337947159567,1.0321131944656372,-1.7602971235858362
1708443463.9653137,-2.106815814971924,-1.3403946322253724,-2.5403102079974573,6.073160397797384,1.0325055122375488,-1.7606037298785608
1708443463.967365,-2.1057698726654053,-1.3405326765826722,-2.540747944508688,6.072000491410055,1.032927393913269,-1.7609418074237269
1708443463.9693263,-2.1047024726867676,-1.3408706945231934,-2.5411346594439905,6.070946800499716,1.033327579498291,-1.761237923298971
1708443463.9713283,-2.10371994972229,-1.3410109889558335,-2.541478220616476,6.069857942848959,1.0336956977844238,-1.761538330708639
1708443463.9733443,-2.1026241779327393,-1.341267393236496,-2.541935745869772,6.068718302040853,1.0341086387634277,-1.7618888060199183
1708443463.9753287,-2.1015331745147705,-1.3415274184993287,-2.5423150698291224,6.067595708161154,1.0345510244369507,-1.7622044722186487
1708443463.977361,-2.100423812866211,-1.3417218190482636,-2.542718235646383,6.066427218704977,1.035017728805542,-1.7625330130206507
1708443463.9793255,-2.0993399620056152,-1.3420425218394776,-2.543192450200216,6.065219390183248,1.0354375839233398,-1.762923542653219
1708443463.981325,-2.0981693267822266,-1.342195839887001,-2.543558422719137,6.063962685852804,1.0358821153640747,-1.763270680104391
1708443463.983358,-2.0970726013183594,-1.3424143207124253,-2.544039789830343,6.062794196396627,1.0363272428512573,-1.7636316458331507
1708443463.9853334,-2.0959110260009766,-1.3427630972913285,-2.544447724019186,6.061534034996786,1.0367929935455322,-1.7639954725848597
1708443463.9873455,-2.0947110652923584,-1.3430023205331345,-2.544853989277975,6.060315596848287,1.0371886491775513,-1.7643840948687952
1708443463.9893315,-2.0935921669006348,-1.3431960505298157,-2.545339647923605,6.058985101967611,1.0376248359680176,-1.764707390462057
1708443463.9913392,-2.0924127101898193,-1.3434469413808365,-2.545807425175802,6.0577618954475305,1.0381282567977905,-1.7651546637164515
1708443463.993354,-2.091172695159912,-1.3437470656684418,-2.546255890523092,6.056465375214376,1.0386085510253906,-1.7654646078692835
1708443463.995315,-2.0899853706359863,-1.3440099519542237,-2.5467029253589075,6.055139887123861,1.039061188697815,-1.7659109274493616
1708443463.9973571,-2.088665008544922,-1.3443136674216767,-2.547211233769552,6.053812730103292,1.0395781993865967,-1.766372028981344
1708443463.9993138,-2.0873606204986572,-1.3446080398610611,-2.5477002302752894,6.052347647934713,1.0400639772415161,-1.7668231169330042
1708443464.0013108,-2.086137533187866,-1.344920040374138,-2.548195187245504,6.050972211151876,1.0405653715133667,-1.767245117818014
1708443464.003331,-2.084817409515381,-1.3451829266599198,-2.5486884752856653,6.049544322281637,1.041042685508728,-1.7676990667926233
1708443464.0053208,-2.0835678577423096,-1.345458210711815,-2.5491579214679163,6.048177110939779,1.0414974689483643,-1.7681573073016565
1708443464.0073216,-2.0822410583496094,-1.3457197558930893,-2.549649778996603,6.046745765000143,1.0420072078704834,-1.7686336676227015
1708443464.009327,-2.080965757369995,-1.3460188818028946,-2.5501251856433313,6.045365440636434,1.042467474937439,-1.7690284887896937
1708443464.0113246,-2.079615831375122,-1.3462579560330887,-2.5506137053119105,6.0438724634941,1.0429768562316895,-1.7694972197162073
1708443464.0133307,-2.078291177749634,-1.346625493173935,-2.551166597996847,6.042436349182882,1.0435205698013306,-1.7700231711017054
1708443464.0153525,-2.076939344406128,-1.3469089430621644,-2.5517190138446253,6.040925133019247,1.0440378189086914,-1.7705681959735315
1708443464.01734,-2.075493097305298,-1.3471949708512803,-2.5522597471820276,6.039424407273092,1.044557809829712,-1.771107021962301
1708443464.0193498,-2.074131488800049,-1.3475102198174973,-2.552753750477926,6.03791235664443,1.045095443725586,-1.771606747304098
1708443464.021341,-2.072749614715576,-1.3478290152600785,-2.553290669118063,6.03652714469985,1.0455526113510132,-1.7721598784076136
1708443464.023358,-2.0713753700256348,-1.3481082183173676,-2.5538461844073694,6.035023438721456,1.0460753440856934,-1.772679630910055
1708443464.0253234,-2.0699684619903564,-1.348414809708931,-2.554382864628927,6.033513772278585,1.0466060638427734,-1.7732551733600062
1708443464.0273273,-2.0685086250305176,-1.3487537962249299,-2.5548976103412073,6.0320836184318445,1.0470376014709473,-1.7737134138690394
1708443464.029347,-2.067136287689209,-1.349125013952591,-2.555436913167135,6.03064392784194,1.0475635528564453,-1.77435809770693
1708443464.0313606,-2.0656254291534424,-1.3493944269469758,-2.5559919516192835,6.029136884003439,1.048064112663269,-1.774909798298971
1708443464.0333235,-2.0641160011291504,-1.3498099160245438,-2.5565574804889124,6.027568566590109,1.048634648323059,-1.7755287329303187
1708443464.0353203,-2.0625998973846436,-1.3501774978688736,-2.557166639958517,6.026058423310079,1.0492355823516846,-1.776149098073141
1708443464.0373492,-2.061174154281616,-1.3505037885955353,-2.5577083269702356,6.0244792578514,1.0497276782989502,-1.7767298857318323
1708443464.0393355,-2.0596466064453125,-1.35080739975486,-2.558263127003805,6.022861945420065,1.0501855611801147,-1.7773359457599085
1708443464.0413606,-2.0582454204559326,-1.3511421394399186,-2.5588846842395228,6.0213509676750085,1.0506545305252075,-1.777984921132223
1708443464.0433226,-2.0566563606262207,-1.351545364861824,-2.55937105814089,6.019807803421774,1.0511491298675537,-1.7786172072040003
1708443464.045361,-2.055180311203003,-1.3517866742661973,-2.560017172490255,6.018203484802999,1.0517395734786987,-1.7792089621173304
1708443464.0473151,-2.05358624458313,-1.3522473138621827,-2.560568396245138,6.016514289170065,1.0523048639297485,-1.7799041906939905
1708443464.0493042,-2.0520520210266113,-1.3526302141002198,-2.5611148516284388,6.014931905060568,1.0529365539550781,-1.7805736700641077
1708443464.051326,-2.050520181655884,-1.352930338387825,-2.5618069807635706,6.013264405518331,1.0535120964050293,-1.7811930815326136
1708443464.053312,-2.0489416122436523,-1.353358418946602,-2.562357489262716,6.011728513031759,1.0540679693222046,-1.7819412390338343
1708443464.0553317,-2.047386646270752,-1.353798509841301,-2.5629075209247034,6.009997832566061,1.0546046495437622,-1.7826264540301722
1708443464.0573256,-2.045882225036621,-1.354103611116745,-2.5634761492358606,6.008429395943441,1.0550795793533325,-1.783245865498678
1708443464.0593317,-2.044330596923828,-1.3544823241284867,-2.564125124608175,6.006835686951437,1.0556222200393677,-1.7839511076556605
1708443464.0613418,-2.0427486896514893,-1.354893149142601,-2.5646804014789026,6.005199420243063,1.0561965703964233,-1.7845962683307093
1708443464.0633745,-2.0411925315856934,-1.3553069990924378,-2.565293614064352,6.003531205445089,1.0567810535430908,-1.7853601614581507
1708443464.0653465,-2.039592742919922,-1.3556696039489289,-2.5659127871142786,6.001912820130148,1.0573713779449463,-1.7860515753375452
1708443464.0673354,-2.0380122661590576,-1.356160582309105,-2.566549603139059,6.0002713082130334,1.0579489469528198,-1.786720101033346
1708443464.0693192,-2.0364506244659424,-1.3565835517695923,-2.567185703908102,5.998578893929281,1.0584518909454346,-1.78748065630068
1708443464.0713847,-2.0348410606384277,-1.356985093360283,-2.5677347818957728,5.996989834099569,1.0589600801467896,-1.788232151662008
1708443464.0733442,-2.0332412719726562,-1.3573671293309708,-2.5683520475970667,5.995364415436544,1.0595550537109375,-1.789011303578512
1708443464.0753489,-2.0316262245178223,-1.3577978026917954,-2.5689812342273157,5.993713485985555,1.0600558519363403,-1.7897141615497034
1708443464.0773542,-2.0300376415252686,-1.3582667720368882,-2.5695961157428187,5.992068636208334,1.0605664253234863,-1.790431324635641
1708443464.0793326,-2.0284712314605713,-1.3586684179357071,-2.5701759497271937,5.990439641266622,1.0611389875411987,-1.7912386099444788
1708443464.0813384,-2.026970148086548,-1.3590868425420304,-2.5707626978503626,5.988839375763693,1.0616095066070557,-1.7920005957232874
1708443464.0833023,-2.025388240814209,-1.3595138651183625,-2.571366850529806,5.9871487496192834,1.0621308088302612,-1.7927525679217737
1708443464.0853462,-2.0237696170806885,-1.3598796439221879,-2.571921412144796,5.985535490303793,1.0625773668289185,-1.7935178915606897
1708443464.0873237,-2.0221786499023438,-1.3603095722249527,-2.572575394307272,5.983855473786154,1.0631530284881592,-1.7943413893329065
1708443464.0893154,-2.0205674171447754,-1.360826001768448,-2.5731568972217005,5.982179868012228,1.0636731386184692,-1.7951653639422815
1708443464.091336,-2.0190088748931885,-1.361166388993599,-2.573803249989645,5.980559932976522,1.0642471313476562,-1.7959783712970179
1708443464.0933247,-2.0173838138580322,-1.3616253298572083,-2.5743497053729456,5.978952753334799,1.0647835731506348,-1.796807591115133
1708443464.0953412,-2.015814781188965,-1.362077386384346,-2.5749781767474573,5.977300512581625,1.0652439594268799,-1.7976377646075647
1708443464.097326,-2.0142691135406494,-1.362445981507637,-2.5755255858050745,5.975692260056295,1.0657562017440796,-1.7984831968890589
1708443464.099314,-2.012601375579834,-1.3628528130105515,-2.576162640248434,5.974150287895956,1.0662624835968018,-1.7993219534503382
1708443464.1013467,-2.0110700130462646,-1.3632465314916153,-2.5767293612109583,5.972568261414327,1.0667645931243896,-1.800180737172262
1708443464.103314,-2.009408473968506,-1.3637296569398423,-2.57733399072756,5.970990288048544,1.0672670602798462,-1.8009803930865687
1708443464.1053474,-2.0077531337738037,-1.3642618519118805,-2.577927891408102,5.96949182727889,1.0678043365478516,-1.8018997351275843
1708443464.1073232,-2.006192684173584,-1.3646800530007859,-2.578545395527975,5.967965471535482,1.0683314800262451,-1.8028276602374476
1708443464.10931,-2.0045266151428223,-1.365146206026413,-2.5792062918292444,5.966350662499227,1.0688327550888062,-1.8036802450763147
1708443464.1113465,-2.002875566482544,-1.365556300883629,-2.579806629811422,5.964724886208334,1.0693447589874268,-1.8045700232135218
1708443464.1133244,-2.0013267993927,-1.3659952145865937,-2.580418650303976,5.963219749718466,1.0698295831680298,-1.8054311911212366
1708443464.1153443,-1.9997256994247437,-1.3664541405490418,-2.5810299555407923,5.961661565094747,1.0702844858169556,-1.8063457647906702
1708443464.117352,-1.99808931350708,-1.366880403166153,-2.581608835850851,5.960161077767172,1.0707006454467773,-1.8071616331683558
1708443464.1193197,-1.9964998960494995,-1.3672973674586792,-2.5822280089007776,5.958586442261495,1.0711091756820679,-1.808112923298971
1708443464.121346,-1.9949235916137695,-1.3677845162204285,-2.5828197638141077,5.957023250847616,1.0715339183807373,-1.8090723196612757
1708443464.1233356,-1.9932310581207275,-1.3682109427503129,-2.583411518727438,5.9554492113883875,1.0720040798187256,-1.810025993977682
1708443464.1253526,-1.9916131496429443,-1.3687180441669007,-2.5840466658221644,5.953821527748861,1.0724966526031494,-1.810969654713766
1708443464.127342,-1.9899348020553589,-1.3691522043994446,-2.5846367518054407,5.952275502472677,1.0729680061340332,-1.8118651548968714
1708443464.1293383,-1.9883475303649902,-1.3696215909770508,-2.585231606160299,5.950708734780111,1.0735411643981934,-1.8128045240985315
1708443464.1313565,-1.9867455959320068,-1.370040239100792,-2.5858944098102015,5.9491944191749475,1.073982834815979,-1.8137643972979944
1708443464.133322,-1.9850791692733765,-1.3705063623240967,-2.5864742437945765,5.947671401291647,1.0743954181671143,-1.814699951802389
1708443464.1353626,-1.983616828918457,-1.371013344531395,-2.58707839647402,5.946120250016012,1.0748202800750732,-1.8156140486346644
1708443464.1373286,-1.9820220470428467,-1.3714230370572587,-2.587611977254049,5.9446120140846155,1.075192928314209,-1.8166092077838343
1708443464.1393487,-1.9803556203842163,-1.3719134640744706,-2.5881956259356897,5.943082558899679,1.0756505727767944,-1.8174946943866175
1708443464.141349,-1.9787217378616333,-1.372449205522873,-2.588861052189962,5.941540109902181,1.0761313438415527,-1.8184097448932093
1708443464.143325,-1.9771140813827515,-1.3729426574758072,-2.5894017855273646,5.940037357598104,1.0766642093658447,-1.8193815390216272
1708443464.1453395,-1.975546956062317,-1.3735189896873017,-2.590058151875631,5.938541042595663,1.0770500898361206,-1.8203304449664515
1708443464.1473382,-1.973942518234253,-1.373892904525139,-2.590628687535421,5.9371152994926355,1.0774658918380737,-1.8213217894183558
1708443464.1493325,-1.972424030303955,-1.374442921285965,-2.591212574635641,5.935642349510946,1.0778995752334595,-1.8222339789019983
1708443464.1513412,-1.9708107709884644,-1.3749505889466782,-2.591713015233175,5.934191810875692,1.0782138109207153,-1.823231045399801
1708443464.1533155,-1.9692037105560303,-1.3754371267608185,-2.592325512562887,5.932747113495626,1.0786232948303223,-1.8242095152484339
1708443464.1553428,-1.967597246170044,-1.3759750437787552,-2.5928917566882532,5.931222069054403,1.0790318250656128,-1.8252361456500452
1708443464.1573584,-1.965983271598816,-1.3764662903598328,-2.5935073534594935,5.929726826935568,1.0795302391052246,-1.8262031714068812
1708443464.1593463,-1.9643335342407227,-1.3770382863334198,-2.5941157976733606,5.928292619972982,1.0799217224121094,-1.8272350470172327
1708443464.1613953,-1.9627195596694946,-1.3775533002666016,-2.5947235266314905,5.926807391434469,1.0802927017211914,-1.8282197157489222
1708443464.163356,-1.9611388444900513,-1.3780677926591416,-2.5952613989459437,5.92531048038558,1.0806608200073242,-1.8293045202838343
1708443464.165351,-1.95949387550354,-1.3786108952811738,-2.5958126227008265,5.923821556359091,1.0810424089431763,-1.830372158681051
1708443464.1673374,-1.9579471349716187,-1.3790610295585175,-2.5964158217059534,5.92233561256484,1.0814214944839478,-1.8314254919635218
1708443464.1693318,-1.9563064575195312,-1.3796051007560273,-2.5969870726214808,5.9209738848503015,1.081774115562439,-1.8324011007892054
1708443464.1713445,-1.9547092914581299,-1.3801289808801194,-2.597599808369772,5.919558036118307,1.0821468830108643,-1.8335512320147913
1708443464.1733396,-1.9531341791152954,-1.3807170999101182,-2.598168436680929,5.918119418412008,1.0825388431549072,-1.8345840612994593
1708443464.175351,-1.951534628868103,-1.3812268835357209,-2.5987444559680384,5.916633713036337,1.082929015159607,-1.8356660048114222
1708443464.1774008,-1.949850082397461,-1.381778971557953,-2.599377695714132,5.915266740113058,1.0832520723342896,-1.8367484251605433
1708443464.1793203,-1.9482522010803223,-1.3823169332793732,-2.599898640309469,5.913759219437399,1.0835986137390137,-1.8378680388080042
1708443464.18132,-1.946652889251709,-1.3828156751445313,-2.6004870573626917,5.912432300835409,1.0839065313339233,-1.8389337698565882
1708443464.183346,-1.9450619220733643,-1.383398027425148,-2.601048771535055,5.911088096886434,1.084263563156128,-1.839999024068014
1708443464.1853142,-1.943485975265503,-1.3839914214662095,-2.6016045252429407,5.9098055241401575,1.084603190422058,-1.841109577809469
1708443464.187339,-1.9418662786483765,-1.3845255982926865,-2.602129046116964,5.908470618515768,1.084951639175415,-1.8422334829913538
1708443464.1893222,-1.9402529001235962,-1.3850284826806565,-2.6027215162860315,5.907173383026876,1.085242748260498,-1.8432930151568812
1708443464.1913326,-1.9386833906173706,-1.3855304431966324,-2.6032982508288782,5.905853259354391,1.0855427980422974,-1.8442776838885706
1708443464.1933224,-1.9370770454406738,-1.3861110222390671,-2.6038244406329554,5.90452657917098,1.0858759880065918,-1.845398251210348
1708443464.1953392,-1.9355261325836182,-1.3866367054036637,-2.6043551603900355,5.903269636421957,1.086167573928833,-1.8465216795550745
1708443464.197368,-1.933965802192688,-1.3872251522592087,-2.604964081441061,5.901942717819967,1.0865172147750854,-1.8475812117206019
1708443464.1993082,-1.9323936700820923,-1.3877707135728379,-2.6054919401751917,5.900594579964437,1.0868130922317505,-1.8486092726336878
1708443464.2013135,-1.9307597875595093,-1.3883425754359742,-2.605997864400045,5.899282204895773,1.087108850479126,-1.8496711889850062
1708443464.2033167,-1.929234266281128,-1.3889187288335343,-2.606520716344015,5.898005115776815,1.0873475074768066,-1.850684944783346
1708443464.2054014,-1.9276835918426514,-1.3894409549287339,-2.6069939772235315,5.896730768471517,1.0876777172088623,-1.8517068068133753
1708443464.2073357,-1.926047682762146,-1.389934242968895,-2.607546631489889,5.895443546562948,1.0879524946212769,-1.8527839819537562
1708443464.2093222,-1.9245033264160156,-1.3905745160630723,-2.6080976168261927,5.894162285118856,1.0882285833358765,-1.8538301626788538
1708443464.2113225,-1.922963261604309,-1.3911825281432648,-2.6085804144488733,5.892918216973104,1.0885725021362305,-1.8549297491656702
1708443464.2133164,-1.9213860034942627,-1.3917285960963746,-2.60915977159609,5.8916042921836755,1.0888144969940186,-1.856015984212057
1708443464.2153363,-1.9197938442230225,-1.3923111718944092,-2.6097009817706507,5.890324342041769,1.0891308784484863,-1.8570635954486292
1708443464.2173762,-1.918258547782898,-1.3929145497134705,-2.610211197529928,5.889029848366537,1.089362382888794,-1.8581774870501917
1708443464.219327,-1.916750192642212,-1.3935015213540574,-2.6107268969165247,5.8878506300743005,1.0896836519241333,-1.8592641989337366
1708443464.2213373,-1.9151960611343384,-1.3940636229566117,-2.6113110224353235,5.886565434723654,1.0898998975753784,-1.8603413740741175
1708443464.2233596,-1.9136408567428589,-1.3946668219617386,-2.6118126551257532,5.885331618576803,1.09009850025177,-1.8615544478045862
1708443464.2253535,-1.9121525287628174,-1.3952289533666153,-2.612335268651144,5.884129154473104,1.0903308391571045,-1.8626650015460413
1708443464.227373,-1.9106273651123047,-1.3958050918630143,-2.612871233616964,5.882874119072714,1.0905544757843018,-1.8637469450580042
1708443464.229329,-1.909066081047058,-1.396403045659401,-2.613366190587179,5.881677615433492,1.0907089710235596,-1.8648136297809046
1708443464.2313962,-1.9075157642364502,-1.3970335286906739,-2.6139231363879603,5.88045762756423,1.0909340381622314,-1.8660061995135706
1708443464.2333348,-1.905942440032959,-1.3975470972112198,-2.6144214312182825,5.879215824394979,1.0911638736724854,-1.8671353499041956
1708443464.2353175,-1.904373049736023,-1.3981791150620957,-2.6149984041797083,5.878091561585226,1.0913450717926025,-1.8683136145221155
1708443464.2373443,-1.9028326272964478,-1.3987824481776734,-2.615439001713888,5.876912581711569,1.0915865898132324,-1.869394604359762
1708443464.239344,-1.9013296365737915,-1.399381474857666,-2.615958038960592,5.87582145908431,1.0917904376983643,-1.8706000486956995
1708443464.2413511,-1.8997849225997925,-1.3999968332103272,-2.6164448896991175,5.874682771950521,1.0919740200042725,-1.871746842061178
1708443464.2433217,-1.8982508182525635,-1.4005649101785203,-2.616964642201559,5.873545276909628,1.0921499729156494,-1.8729327360736292
1708443464.2453375,-1.896733045578003,-1.4011721473983307,-2.6174750963794153,5.872426020890035,1.092347502708435,-1.8740719000445765
1708443464.247372,-1.8951501846313477,-1.4018275153687973,-2.617987934743063,5.871245729714193,1.0924409627914429,-1.8752153555499476
1708443464.2493632,-1.8935067653656006,-1.402495489721634,-2.618469778691427,5.870118367462911,1.0926991701126099,-1.8763721624957483
1708443464.2513351,-1.8919389247894287,-1.4030823570540925,-2.6189356485949915,5.869020807534017,1.092874526977539,-1.8775442282306116
1708443464.2533376,-1.8904168605804443,-1.4037140768817444,-2.6194403807269495,5.867824184685507,1.0930547714233398,-1.8786409536944788
1708443464.2553554,-1.8888533115386963,-1.4043203753283997,-2.6199103037463587,5.866747009545126,1.093206524848938,-1.8797624746905726
1708443464.2573898,-1.887310266494751,-1.4048525852015992,-2.620380703602926,5.865634667664327,1.0933955907821655,-1.8808262983905237
1708443464.2593398,-1.8856947422027588,-1.405508355503418,-2.620852295552389,5.864565002709188,1.0934741497039795,-1.8819826284991663
1708443464.2613919,-1.8841451406478882,-1.4061235052398224,-2.62134033838381,5.863472807198324,1.0936509370803833,-1.883064095173971
1708443464.2633388,-1.88252854347229,-1.406746358876564,-2.6218393484698694,5.862331616669454,1.0938313007354736,-1.8841736952411097
1708443464.265351,-1.8809479475021362,-1.407438875441887,-2.6223512331592005,5.861267673760214,1.093897819519043,-1.8853042761432093
1708443464.2673662,-1.8794341087341309,-1.4080284994891663,-2.6228588263141077,5.860118973046102,1.0940803289413452,-1.886423412953512
1708443464.269323,-1.8778101205825806,-1.4086925846389313,-2.623309914265768,5.859138595848837,1.0941359996795654,-1.8875487486468714
1708443464.2713733,-1.8762613534927368,-1.4092949342778702,-2.6237826983081263,5.858041274338522,1.0941979885101318,-1.8887556234942835
1708443464.2733586,-1.874725103378296,-1.4099375319531937,-2.6242287794696253,5.8570018885429285,1.0943312644958496,-1.889843765889303
1708443464.2753305,-1.873242974281311,-1.4105494183352967,-2.6247366110431116,5.855977642327108,1.0943868160247803,-1.8910329977618616
1708443464.2773507,-1.8716650009155273,-1.4111965757659455,-2.6251960436450403,5.854940998345175,1.094438076019287,-1.8921530882464808
1708443464.2793176,-1.8700759410858154,-1.4117875558188935,-2.6256588141070765,5.853921758919515,1.0945266485214233,-1.8933561483966272
1708443464.281347,-1.8685927391052246,-1.4124297213605423,-2.6261594931231897,5.852873432427206,1.094614863395691,-1.8945921103106897
1708443464.283372,-1.866934061050415,-1.4130191963962098,-2.626617972050802,5.851837861328878,1.09464693069458,-1.8957789579974573
1708443464.285349,-1.8654273748397827,-1.4137549561313172,-2.627097193394796,5.850747334748068,1.0948083400726318,-1.8969939390765589
1708443464.2873466,-1.8638559579849243,-1.4144438666156312,-2.6275320688830774,5.849784362107076,1.0948430299758911,-1.8981989065753382
1708443464.289322,-1.8622956275939941,-1.4150652152350922,-2.6279988924609583,5.848772871285238,1.0948705673217773,-1.8992927710162562
1708443464.291351,-1.8607330322265625,-1.4156785023263474,-2.628486935292379,5.84779845455245,1.0948902368545532,-1.900562588368551
1708443464.2933247,-1.8591910600662231,-1.416432486181595,-2.628927532826559,5.846793401032247,1.0949381589889526,-1.9017003218280237
1708443464.2953331,-1.8577213287353516,-1.4170626562884827,-2.6294096151935022,5.845872390061178,1.0949982404708862,-1.9028337637530726
1708443464.2973752,-1.8561646938323975,-1.4176833790591736,-2.629874054585592,5.844944822579183,1.0950145721435547,-1.9041226545916956
1708443464.2993126,-1.854625940322876,-1.4183939111283799,-2.630289379750387,5.843980300217428,1.0950884819030762,-1.9052942434894007
1708443464.3013544,-1.8530863523483276,-1.4190779042294999,-2.630753819142477,5.842996227532186,1.0950899124145508,-1.9065430800067347
1708443464.3033433,-1.8515381813049316,-1.4197322589210053,-2.6311801115619105,5.842024671822347,1.0950572490692139,-1.9076836744891565
1708443464.3053267,-1.8499631881713867,-1.4204311084798356,-2.6315622965442103,5.841088998108663,1.095048189163208,-1.9088175932513636
1708443464.307345,-1.8484809398651123,-1.4211107057384034,-2.6319907347308558,5.8401530859764,1.0950660705566406,-1.9100330511676233
1708443464.3093214,-1.8469372987747192,-1.4217568200877686,-2.6324458757983606,5.8391995308692834,1.0950735807418823,-1.9111464659320276
