Eg3-git/Classifiers/Data Collection/u8/u8xyz2_ur3e_joint_states.csv
time,elbow_joint,shoulder_lift_joint,shoulder_pan_joint,wrist_1_joint,wrist_2_joint,wrist_3_joint
1708443497.6575916,-2.141444444656372,-1.333508388405182,-2.526628319417135,6.10964189746932,1.0171138048171997,-2.080374542866842
1708443497.6596036,-2.141406297683716,-1.3335199666074296,-2.526590887700216,6.10966573932723,1.0171093940734863,-2.0802844206439417
1708443497.6615813,-2.141427516937256,-1.3334714037230988,-2.526586357747213,6.109658109932699,1.0170924663543701,-2.080320183430807
1708443497.663583,-2.141432046890259,-1.3334997308305283,-2.5265820662127894,6.109710085182943,1.0171051025390625,-2.080320183430807
1708443497.6655793,-2.141418695449829,-1.3334756654552002,-2.526611868535177,6.1096733687217615,1.0171051025390625,-2.080320183430807
1708443497.6675797,-2.141427516937256,-1.33345082521949,-2.5266431013690394,6.109706866532125,1.0171300172805786,-2.080320183430807
1708443497.6695855,-2.141422986984253,-1.3334832203439255,-2.5266311804400843,6.109677660256185,1.0171375274658203,-2.0803335348712366
1708443497.6715858,-2.1413652896881104,-1.3334799420884629,-2.526607338582174,6.109644043236532,1.0171093940734863,-2.080315891896383
1708443497.6735797,-2.1413731575012207,-1.3335004311851044,-2.526611868535177,6.109653818398275,1.0171213150024414,-2.080324951802389
1708443497.6756206,-2.1414036750793457,-1.3335156303695221,-2.5266640822040003,6.109673249512472,1.017129898071289,-2.080378834401266
1708443497.6775792,-2.1414105892181396,-1.333442361359932,-2.5266223589526575,6.109710085182943,1.0171747207641602,-2.0803282896624964
1708443497.679614,-2.1414363384246826,-1.3334594827941437,-2.526656452809469,6.109681951790609,1.017133116722107,-2.080292050038473
1708443497.6816204,-2.141453266143799,-1.33354044080291,-2.5266431013690394,6.10968958118514,1.0171332359313965,-2.0803044478045862
1708443497.6835847,-2.1414647102355957,-1.3334842187217255,-2.526623789464132,6.109697091370382,1.0171375274658203,-2.080324951802389
1708443497.6855977,-2.1414105892181396,-1.3334875863841553,-2.5265939871417444,6.109693872719564,1.017128825187683,-2.080329243336813
1708443497.6875837,-2.141427516937256,-1.3334396940520783,-2.5266431013690394,6.10962342002944,1.0171213150024414,-2.08033258119692
1708443497.6896203,-2.141394853591919,-1.333484248524048,-2.5265820662127894,6.109673249512472,1.0171375274658203,-2.080391232167379
1708443497.6916072,-2.141444444656372,-1.3334594678929825,-2.5266147295581263,6.109657037049093,1.0171418190002441,-2.0803869406329554
1708443497.6935904,-2.14141845703125,-1.3334713888219376,-2.5266311804400843,6.1096558449561975,1.017145037651062,-2.0803373495685022
1708443497.6956205,-2.141406297683716,-1.333491863017418,-2.5265820662127894,6.109709369927206,1.0171332359313965,-2.080341641102926
1708443497.697599,-2.141390323638916,-1.3335404706052323,-2.526635710393087,6.109676587372579,1.0171494483947754,-2.080353562031881
1708443497.6995811,-2.1414196491241455,-1.333435298209526,-2.526656452809469,6.109672057419576,1.0171573162078857,-2.080378834401266
1708443497.7016168,-2.1414647102355957,-1.333487556581833,-2.5265865961657923,6.109712469368734,1.0171494483947754,-2.0803869406329554
1708443497.7035735,-2.1414647102355957,-1.3334508699229737,-2.526607338582174,6.109762418061056,1.0171704292297363,-2.0803282896624964
1708443497.7056015,-2.141422986984253,-1.333450810318329,-2.526619259511129,6.1096839783485315,1.0171537399291992,-2.080378834401266
1708443497.7075567,-2.141444444656372,-1.333491863017418,-2.526628080998556,6.109703767090597,1.017145037651062,-2.0803282896624964
1708443497.7095773,-2.141422986984253,-1.3334670078805466,-2.5266686121570032,6.109752881317892,1.017128825187683,-2.0803735891925257
1708443497.71161,-2.141455888748169,-1.3334310364774247,-2.5266640822040003,6.109785067826071,1.0171616077423096,-2.080391232167379
1708443497.7135706,-2.141432046890259,-1.3334389489940186,-2.5266431013690394,6.1098540900047205,1.0171571969985962,-2.0804150740252894
1708443497.7155662,-2.1414196491241455,-1.3334466230920334,-2.5266385714160364,6.109788405686178,1.0171778202056885,-2.080362621937887
1708443497.7175732,-2.141444444656372,-1.3335168820670624,-2.5266178289996546,6.109788405686178,1.0171616077423096,-2.080374542866842
1708443497.7195613,-2.141448736190796,-1.3334832203439255,-2.526652161275045,6.109841811447897,1.017128825187683,-2.0803611914264124
1708443497.7216074,-2.141432046890259,-1.3335285496762772,-2.5266266504870813,6.109845268517294,1.0171900987625122,-2.0803564230548304
1708443497.7235875,-2.1414196491241455,-1.333475650554039,-2.5266431013690394,6.1098331091697595,1.0171856880187988,-2.0803821722613733
1708443497.725581,-2.1414852142333984,-1.3334961396506806,-2.526644531880514,6.109800565033712,1.017145037651062,-2.0803893248187464
1708443497.727592,-2.141414165496826,-1.3335047972253342,-2.5266640822040003,6.109815704613485,1.0172184705734253,-2.080402676259176
1708443497.7295697,-2.1414196491241455,-1.3334918183139344,-2.5266597906695765,6.109800565033712,1.0172107219696045,-2.0803802649127405
1708443497.7315788,-2.1414601802825928,-1.3334713739207764,-2.526673142110006,6.109815704613485,1.017194390296936,-2.0803893248187464
1708443497.733572,-2.1414647102355957,-1.3334432405284424,-2.5266104380237024,6.109845387726583,1.017160415649414,-2.0803850332843226
1708443497.7355745,-2.1413815021514893,-1.3335083735040207,-2.5265894571887415,6.109808194428243,1.0172019004821777,-2.0803850332843226
1708443497.7375677,-2.141394853591919,-1.3335004311851044,-2.5266643206225794,6.109861600189962,1.0171931982040405,-2.0804298559771937
1708443497.7395551,-2.141427516937256,-1.333422453408577,-2.5266686121570032,6.109791862755575,1.0171725749969482,-2.0804298559771937
1708443497.74157,-2.1414363384246826,-1.3334799271873017,-2.5266850630389612,6.109798300057211,1.017237901687622,-2.0803850332843226
1708443497.7435565,-2.141453266143799,-1.3335004311851044,-2.526640001927511,6.109882104187765,1.017242193222046,-2.080392662678854
1708443497.7455804,-2.141368865966797,-1.3334713888219376,-2.5266101996051233,6.109816777497091,1.0172532796859741,-2.0804227034198206
1708443497.7475786,-2.1413495540618896,-1.3334595125964661,-2.5266431013690394,6.109791862755575,1.0172860622406006,-2.0804389158831995
1708443497.749569,-2.141422986984253,-1.333438978796341,-2.526640001927511,6.109824406891622,1.0173070430755615,-2.080409351979391
1708443497.7515898,-2.1414601802825928,-1.3335275960019608,-2.5266476313220423,6.1098365662391565,1.0173263549804688,-2.080442253743307
1708443497.7535775,-2.1414151191711426,-1.3335004311851044,-2.5266311804400843,6.109808194428243,1.0172358751296997,-2.0804675261126917
1708443497.7555864,-2.141390323638916,-1.333515615468361,-2.526607338582174,6.1098331091697595,1.017290472984314,-2.080442253743307
1708443497.7575865,-2.1413822174072266,-1.3334756654552002,-2.526607338582174,6.109824406891622,1.0173394680023193,-2.08041221300234
1708443497.7595549,-2.1414601802825928,-1.3334832054427643,-2.5266805330859583,6.1098365662391565,1.0173263549804688,-2.080453697835104
1708443497.7615664,-2.141427516937256,-1.333426148896553,-2.526602808629171,6.1098540900047205,1.0173026323318481,-2.0804289023028772
1708443497.7635863,-2.141488552093506,-1.3334756803563614,-2.5266476313220423,6.109861600189962,1.0172532796859741,-2.080421272908346
1708443497.7655785,-2.141448736190796,-1.333484248524048,-2.5266385714160364,6.109832274704733,1.0173307657241821,-2.0804575125323694
1708443497.7675812,-2.141444444656372,-1.3335041266730805,-2.5265968481646937,6.1098365662391565,1.0172773599624634,-2.080440346394674
1708443497.7695978,-2.1414601802825928,-1.3334180575660248,-2.526619259511129,6.109832274704733,1.0173513889312744,-2.080466095601217
1708443497.771582,-2.141427516937256,-1.3335168969682236,-2.526673142110006,6.1098941443260095,1.0172983407974243,-2.080498997365133
1708443497.7736022,-2.141451358795166,-1.3335083735040207,-2.5266597906695765,6.109819996147909,1.0173176527023315,-2.0804899374591272
1708443497.7755837,-2.141458034515381,-1.333491863017418,-2.526677672063009,6.109787452011862,1.0173263549804688,-2.0804899374591272
1708443497.7775936,-2.141427516937256,-1.3334432405284424,-2.5266686121570032,6.109819996147909,1.0172983407974243,-2.080487076436178
1708443497.7796264,-2.1414601802825928,-1.3334714037230988,-2.5266147295581263,6.109812485962667,1.0173513889312744,-2.080482784901754
1708443497.7816336,-2.141418695449829,-1.3334961545518418,-2.5266311804400843,6.109811293869772,1.0173089504241943,-2.08044940630068
1708443497.7835867,-2.141385793685913,-1.3334918183139344,-2.5265894571887415,6.109778868943014,1.017368197441101,-2.080488983784811
1708443497.7856348,-2.141427516937256,-1.3335127097419281,-2.5266059080706995,6.1098365662391565,1.0173264741897583,-2.0805276075946253
1708443497.7875857,-2.1414692401885986,-1.333430455332138,-2.5266223589526575,6.109877812653341,1.0172773599624634,-2.0804737249957483
1708443497.7895863,-2.141444444656372,-1.3334637594274064,-2.526665512715475,6.109857189446249,1.017317771911621,-2.0804899374591272
1708443497.791611,-2.1414310932159424,-1.3334961247495194,-2.5266297499286097,6.1098235724265955,1.0173594951629639,-2.0804856459247034
1708443497.7935758,-2.1414647102355957,-1.3334756654552002,-2.5266926924334925,6.109860408097067,1.0173470973968506,-2.0805113951312464
1708443497.7955718,-2.141427516937256,-1.3334637445262452,-2.526656452809469,6.109857189446249,1.0172611474990845,-2.0805261770831507
1708443497.7975752,-2.141455888748169,-1.3334304255298157,-2.5266850630389612,6.109872329026022,1.017317771911621,-2.0804813543902796
1708443497.799568,-2.141439914703369,-1.3334713888219376,-2.5266552607165735,6.109845268517294,1.017317771911621,-2.0805309454547327
1708443497.8015773,-2.1414105892181396,-1.3334876012853165,-2.5266147295581263,6.109857189446249,1.0173134803771973,-2.0805028120623987
1708443497.8035803,-2.1414601802825928,-1.3334267449430008,-2.5266686121570032,6.109889733582296,1.017317771911621,-2.0805094877826136
1708443497.8056188,-2.1414647102355957,-1.3334918481162568,-2.5266552607165735,6.109861600189962,1.0173466205596924,-2.0804765860186976
1708443497.807591,-2.1414105892181396,-1.33352846026931,-2.5266476313220423,6.109860408097067,1.017333984375,-2.0805276075946253
1708443497.809577,-2.1414151191711426,-1.3335242134383698,-2.5266552607165735,6.10989402511672,1.0173134803771973,-2.0805471579181116
1708443497.8115783,-2.14138126373291,-1.3334594678929825,-2.5266266504870813,6.1098646996314905,1.017333984375,-2.0804765860186976
1708443497.8135653,-2.141432046890259,-1.333504081969597,-2.5266552607165735,6.109848487168112,1.017317771911621,-2.0804980436908167
1708443497.8155923,-2.141401767730713,-1.3334637594274064,-2.5266717115985315,6.109847414284506,1.017317771911621,-2.0805309454547327
1708443497.8175879,-2.141394853591919,-1.3334594827941437,-2.5266385714160364,6.109897243767538,1.0172853469848633,-2.080529514943258
1708443497.819579,-2.1414363384246826,-1.3334267747453232,-2.5266972223864954,6.109815704613485,1.0172983407974243,-2.0805261770831507
1708443497.8215792,-2.1414105892181396,-1.3335041117719193,-2.5266717115985315,6.109839784889974,1.0173046588897705,-2.080512825642721
1708443497.823554,-2.141484022140503,-1.3334552210620423,-2.5266552607165735,6.1098517058189294,1.017317771911621,-2.080526653920309
1708443497.8255901,-2.1414310932159424,-1.3334756654552002,-2.5266507307635706,6.109807002335348,1.0173134803771973,-2.080458466206686
1708443497.8275878,-2.141455888748169,-1.333536223774292,-2.5266431013690394,6.109884249954977,1.0173920392990112,-2.080463234578268
1708443497.8295743,-2.141418695449829,-1.3334799867919465,-2.5266342798816126,6.109904873162069,1.0172765254974365,-2.080488983784811
1708443497.831579,-2.141439914703369,-1.3334756654552002,-2.5266881624804896,6.109872329026022,1.017317771911621,-2.0805004278766077
1708443497.8335812,-2.1414601802825928,-1.333467037682869,-2.5266507307635706,6.109847414284506,1.0173671245574951,-2.0805004278766077
1708443497.8355944,-2.1414761543273926,-1.3334875714829941,-2.5266881624804896,6.109929668694296,1.0173466205596924,-2.0805047194110315
1708443497.8375864,-2.141439914703369,-1.3334790480187912,-2.5266342798816126,6.109929787903585,1.017333984375,-2.080533806477682
1708443497.8396206,-2.141435384750366,-1.3334756654552002,-2.5266640822040003,6.109848487168112,1.0173296928405762,-2.0805051962481897
1708443497.8416076,-2.141484022140503,-1.3335242432406922,-2.5266717115985315,6.109860408097067,1.0173509120941162,-2.0805309454547327
1708443497.8435729,-2.1414601802825928,-1.333512620334961,-2.5266431013690394,6.109839784889974,1.0173208713531494,-2.0805051962481897
1708443497.8455794,-2.1414761543273926,-1.3334756952575226,-2.5266385714160364,6.109881031304159,1.0173513889312744,-2.0805185476886194
1708443497.8475869,-2.141455888748169,-1.3334389638951798,-2.526646439229147,6.1098646996314905,1.0173420906066895,-2.0805051962481897
1708443497.8495774,-2.141455888748169,-1.333475650554039,-2.5266717115985315,6.109844195633688,1.0173671245574951,-2.0805004278766077
1708443497.8515763,-2.141455888748169,-1.3334756654552002,-2.5266552607165735,6.109884249954977,1.017333984375,-2.0805380980121058
1708443497.853592,-2.141418695449829,-1.3335155856660386,-2.5266671816455286,6.109909164696493,1.0173420906066895,-2.080561939870016
1708443497.8555999,-2.141418695449829,-1.333435283308365,-2.5266760031329554,6.109888541489401,1.0173509120941162,-2.080529514943258
1708443497.8575811,-2.141479730606079,-1.3334713739207764,-2.5266640822040003,6.109921085625448,1.0173628330230713,-2.080575768147604
1708443497.8595836,-2.141493082046509,-1.333467037682869,-2.5266385714160364,6.109847414284506,1.017383337020874,-2.080521885548727
1708443497.86162,-2.1414310932159424,-1.333536149268486,-2.5266717115985315,6.109888541489401,1.0172643661499023,-2.080503765736715
1708443497.8635843,-2.141451358795166,-1.333504096870758,-2.5266760031329554,6.109905946045675,1.0173134803771973,-2.080526653920309
1708443497.8655708,-2.1414105892181396,-1.3335446876338501,-2.5266507307635706,6.109884249954977,1.0173377990722656,-2.080545727406637
1708443497.867591,-2.1414716243743896,-1.3335083735040207,-2.5266431013690394,6.109782087593832,1.0173509120941162,-2.0805004278766077
1708443497.869571,-2.141435384750366,-1.3334832352450867,-2.5266385714160364,6.109847414284506,1.0173134803771973,-2.080533806477682
1708443497.871566,-2.141435384750366,-1.3334799271873017,-2.5266297499286097,6.109872329026022,1.017317771911621,-2.0805137793170374
1708443497.8735948,-2.141418695449829,-1.3335199815085907,-2.5266507307635706,6.1098636267478845,1.017317771911621,-2.080542866383688
1708443497.8755786,-2.141439914703369,-1.3334552210620423,-2.5266640822040003,6.109860408097067,1.0173509120941162,-2.0805590788470667
1708443497.877611,-2.1414053440093994,-1.333504096870758,-2.5266552607165735,6.109819280892172,1.0173134803771973,-2.080561939870016
1708443497.879601,-2.141500949859619,-1.333491863017418,-2.5266431013690394,6.109888541489401,1.0173296928405762,-2.080517594014303
1708443497.8816035,-2.141505479812622,-1.3334832352450867,-2.5266552607165735,6.109871256142416,1.0173509120941162,-2.080570999776022
1708443497.8836052,-2.141496419906616,-1.333495558505394,-2.5266476313220423,6.109924304276266,1.0173509120941162,-2.080550018941061
1708443497.8855731,-2.141439914703369,-1.333504096870758,-2.5266926924334925,6.109887468605795,1.0173251628875732,-2.080566708241598
1708443497.8875844,-2.141451358795166,-1.3334918481162568,-2.5266640822040003,6.109909164696493,1.017317771911621,-2.080529514943258
1708443497.889616,-2.1414096355438232,-1.333515615468361,-2.5266385714160364,6.109912383347311,1.017333984375,-2.080550018941061
1708443497.8915873,-2.141493082046509,-1.333504096870758,-2.5266640822040003,6.109844195633688,1.0173509120941162,-2.080517594014303
1708443497.8935905,-2.1414310932159424,-1.3334500056556244,-2.5266476313220423,6.109916794091024,1.017333984375,-2.080533806477682
1708443497.8955667,-2.141488552093506,-1.3334842038205643,-2.5266805330859583,6.109928715019979,1.0173134803771973,-2.080521885548727
1708443497.8975832,-2.141453981399536,-1.3334918481162568,-2.5266266504870813,6.1098517058189294,1.0172722339630127,-2.0805261770831507
1708443497.8995674,-2.141414165496826,-1.3334670525840302,-2.526637379323141,6.109916794091024,1.0173134803771973,-2.0804994742022913
1708443497.9015954,-2.14139723777771,-1.333515615468361,-2.5266760031329554,6.109949576645651,1.0173251628875732,-2.0805380980121058
1708443497.903592,-2.1414425373077393,-1.333495558505394,-2.5266881624804896,6.109887468605795,1.0173296928405762,-2.080508534108297
1708443497.9056146,-2.141479730606079,-1.333467037682869,-2.5266013781176966,6.109915601998129,1.0173583030700684,-2.080541435872213
1708443497.907607,-2.141479730606079,-1.333504096870758,-2.5266626516925257,6.109891879349508,1.0173046588897705,-2.080533806477682
1708443497.909604,-2.14145827293396,-1.333515615468361,-2.5266881624804896,6.109896170883932,1.0173509120941162,-2.08051568666567
1708443497.9115763,-2.1414175033569336,-1.3334876012853165,-2.5266760031329554,6.109871256142416,1.0173757076263428,-2.080587689076559
1708443497.9135735,-2.1414706707000732,-1.333467037682869,-2.526651922856466,6.109912383347311,1.0172860622406006,-2.080550018941061
1708443497.9156077,-2.1414265632629395,-1.3334714037230988,-2.5267046133624476,6.1098906872566126,1.0173046588897705,-2.0805590788470667
1708443497.9175773,-2.1414761543273926,-1.333495558505394,-2.5266431013690394,6.109891879349508,1.0173671245574951,-2.0805261770831507
1708443497.9195712,-2.141451358795166,-1.333507166509964,-2.5266717115985315,6.109977829247274,1.0173134803771973,-2.080554787312643
1708443497.9215767,-2.141479730606079,-1.3334508550218125,-2.5266342798816126,6.109973418503561,1.0173251628875732,-2.080533806477682
1708443497.9236088,-2.1414449214935303,-1.3334961396506806,-2.5266717115985315,6.109927880554952,1.0173466205596924,-2.0805380980121058
1708443497.9255772,-2.14145827293396,-1.333495558505394,-2.5266760031329554,6.109927880554952,1.017333984375,-2.0805051962481897
1708443497.92756,-2.141446828842163,-1.333495558505394,-2.5266597906695765,6.109919178276815,1.0173296928405762,-2.080493752156393
1708443497.9295657,-2.141435384750366,-1.3335028898767014,-2.5266104380237024,6.109947311669149,1.0172810554504395,-2.080524746571676
1708443497.9316058,-2.141509771347046,-1.333536149268486,-2.5266297499286097,6.109943020134725,1.017333984375,-2.0805004278766077
1708443497.9335759,-2.141484022140503,-1.333504096870758,-2.5266760031329554,6.109922396927633,1.0173134803771973,-2.080582920704977
1708443497.935575,-2.141451358795166,-1.3335199666074296,-2.5266717115985315,6.109980094223776,1.0173134803771973,-2.0805204550372522
1708443497.9375637,-2.1414761543273926,-1.3334832352450867,-2.5266059080706995,6.109984504967489,1.0173134803771973,-2.0805323759662073
1708443497.9395692,-2.141479730606079,-1.3334875863841553,-2.5266507307635706,6.109971511154928,1.0173296928405762,-2.080542866383688
1708443497.9416091,-2.1414706707000732,-1.3334756654552002,-2.5266476313220423,6.109963524132528,1.0173296928405762,-2.080542866383688
1708443497.9435654,-2.141467332839966,-1.3335242730430146,-2.5266266504870813,6.110016691475668,1.0173134803771973,-2.0805004278766077
1708443497.9455996,-2.141505479812622,-1.3334705096534272,-2.5266252199756067,6.110000479012289,1.0173296928405762,-2.080550018941061
1708443497.9476109,-2.141467332839966,-1.333455206160881,-2.526646439229147,6.109991776734152,1.0173296928405762,-2.080554787312643
1708443497.949566,-2.141446828842163,-1.3335114282420655,-2.5266762415515345,6.110033261566915,1.0172765254974365,-2.080570999776022
1708443497.9515789,-2.141484022140503,-1.333458588724472,-2.5266385714160364,6.110033261566915,1.0172817707061768,-2.080541435872213
1708443497.9536078,-2.1414289474487305,-1.3335083735040207,-2.5266431013690394,6.109996068268575,1.0173470973968506,-2.080541435872213
1708443497.9555707,-2.1414921283721924,-1.333504096870758,-2.5267017523394983,6.110004770546713,1.017317771911621,-2.080521885548727
1708443497.9575963,-2.14145827293396,-1.333507166509964,-2.5266223589526575,6.109996068268575,1.0172687768936157,-2.080484692250387
1708443497.9595501,-2.141484022140503,-1.3334875863841553,-2.5267046133624476,6.110012280731954,1.0172810554504395,-2.080521885548727
1708443497.9615908,-2.14145827293396,-1.333434672360756,-2.526673142110006,6.109980094223776,1.0173307657241821,-2.080541435872213
1708443497.9635627,-2.1414334774017334,-1.3335446876338501,-2.5267298857318323,6.109971511154928,1.017317771911621,-2.0805309454547327
1708443497.9655674,-2.141446828842163,-1.3334918481162568,-2.5266385714160364,6.109980094223776,1.0172853469848633,-2.080550018941061
1708443497.9675622,-2.141439914703369,-1.3334304851344605,-2.5267091433154505,6.109956013947286,1.0173251628875732,-2.0805051962481897
1708443497.9695814,-2.141455888748169,-1.3335126352361222,-2.5266760031329554,6.1099949953849695,1.0173307657241821,-2.080541435872213
1708443497.971578,-2.1414425373077393,-1.333467037682869,-2.526646439229147,6.110028850823202,1.0172489881515503,-2.080625359212057
1708443497.9735746,-2.141446828842163,-1.3335199666074296,-2.5266760031329554,6.109922516136923,1.0172983407974243,-2.0805380980121058
1708443497.9755764,-2.141446828842163,-1.3334997457316895,-2.5266760031329554,6.1099387286003015,1.0173134803771973,-2.080508534108297
1708443497.977582,-2.1414380073547363,-1.333536149268486,-2.5266881624804896,6.110003697663107,1.0172686576843262,-2.0805051962481897
1708443497.9795759,-2.141446828842163,-1.333458588724472,-2.526673142110006,6.110003697663107,1.017317771911621,-2.0805261770831507
1708443497.9816,-2.141488552093506,-1.3335126352361222,-2.5266431013690394,6.110016691475668,1.0172853469848633,-2.0804765860186976
1708443497.9835906,-2.141500949859619,-1.3335199666074296,-2.5267091433154505,6.110000479012289,1.017333984375,-2.080521885548727
1708443497.985604,-2.1414265632629395,-1.333495558505394,-2.5266552607165735,6.110028850823202,1.0172643661499023,-2.0804722944842737
1708443497.9875758,-2.141446828842163,-1.3335028898767014,-2.5266805330859583,6.110015857010641,1.01728093624115,-2.0804980436908167
1708443497.9895988,-2.141462802886963,-1.3335199666074296,-2.5266476313220423,6.110012280731954,1.017333984375,-2.0804436842547815
1708443497.9916294,-2.141507863998413,-1.3334714037230988,-2.5266805330859583,6.109996068268575,1.0172481536865234,-2.0804856459247034
1708443497.9935954,-2.1415035724639893,-1.3334628653577347,-2.5266929308520716,6.109975802689352,1.0173426866531372,-2.0805113951312464
1708443497.99564,-2.1414380073547363,-1.3335126650384446,-2.5266552607165735,6.109999286919393,1.0172773599624634,-2.0804947058307093
1708443497.9975915,-2.141500949859619,-1.3334912967732926,-2.5266266504870813,6.109959232598104,1.017317771911621,-2.0804575125323694
1708443497.9996035,-2.141523838043213,-1.3334790480187912,-2.526641909276144,6.109971511154928,1.017317771911621,-2.0804899374591272
1708443498.0015986,-2.14145827293396,-1.3334747862866898,-2.5266552607165735,6.110012280731954,1.017317771911621,-2.080416504536764
1708443498.0035987,-2.141467332839966,-1.3334756654552002,-2.5266507307635706,6.110000479012289,1.0172853469848633,-2.080458466206686
1708443498.0055938,-2.1414706707000732,-1.3334832352450867,-2.5266385714160364,6.109996068268575,1.0173426866531372,-2.0804107824908655
1708443498.0075855,-2.141505479812622,-1.333504096870758,-2.5266717115985315,6.110036480217733,1.017293930053711,-2.0804269949542444
1708443498.009577,-2.14145827293396,-1.3335199666074296,-2.5266311804400843,6.11006127574996,1.0172687768936157,-2.0803473631488245
1708443498.01158,-2.141453981399536,-1.3334747862866898,-2.5266507307635706,6.110000479012289,1.0173351764678955,-2.0804017225848597
1708443498.0135767,-2.1414875984191895,-1.3335003864816208,-2.5266507307635706,6.110024678498068,1.0172860622406006,-2.080357853566305
1708443498.0155926,-2.141455888748169,-1.3334912967732926,-2.5266385714160364,6.10994719245986,1.017293930053711,-2.080341641102926
1708443498.017583,-2.141479730606079,-1.3334714037230988,-2.5266223589526575,6.109980094223776,1.017317771911621,-2.0802510420428675
1708443498.0195744,-2.1414875984191895,-1.333515615468361,-2.5266762415515345,6.110020267754354,1.0173134803771973,-2.0802601019488733
1708443498.0215957,-2.141512393951416,-1.3334628653577347,-2.5266626516925257,6.109984504967489,1.0173308849334717,-2.080236260090963
1708443498.0235882,-2.141453981399536,-1.3334832352450867,-2.5266926924334925,6.109971511154928,1.01728093624115,-2.08024245897402
1708443498.0256336,-2.141512393951416,-1.333504096870758,-2.5266671816455286,6.109950530319967,1.017317771911621,-2.0801976362811487
1708443498.027579,-2.141446828842163,-1.3334756654552002,-2.5266671816455286,6.110024559288778,1.0173264741897583,-2.0801523367511194
1708443498.029591,-2.141519546508789,-1.3334790480187912,-2.5266552607165735,6.109975921898641,1.0173557996749878,-2.080141846333639
1708443498.0315945,-2.141496419906616,-1.3334918481162568,-2.5266626516925257,6.1100408909614465,1.0173134803771973,-2.0800426642047327
1708443498.033607,-2.141528367996216,-1.333524228339531,-2.5266266504870813,6.109999286919393,1.0172773599624634,-2.0800398031817835
1708443498.0356088,-2.141528367996216,-1.3335168969682236,-2.5266552607165735,6.109980094223776,1.0172773599624634,-2.080041233693258
1708443498.0376067,-2.1414706707000732,-1.3334594827941437,-2.5266552607165735,6.109971511154928,1.0173351764678955,-2.0799482504474085
1708443498.0395782,-2.14151930809021,-1.3334918481162568,-2.5266881624804896,6.109996068268575,1.017317771911621,-2.0799077192889612
1708443498.0416183,-2.141475200653076,-1.333495558505394,-2.5266221205340784,6.109950530319967,1.0173307657241821,-2.079888168965475
1708443498.043575,-2.1414966583251953,-1.3334918481162568,-2.5266132990466517,6.110012280731954,1.0172611474990845,-2.0798190275775355
1708443498.0456026,-2.1414706707000732,-1.3334799271873017,-2.5266385714160364,6.109963524132528,1.0172773599624634,-2.079770867024557
1708443498.0475857,-2.141446828842163,-1.3334390085986634,-2.5266178289996546,6.109984504967489,1.0172611474990845,-2.0797107855426233
1708443498.0495741,-2.1414380073547363,-1.333524228339531,-2.5266671816455286,6.109996068268575,1.017333984375,-2.079653565083639
1708443498.0516016,-2.141453981399536,-1.3334832352450867,-2.526691261922018,6.109930979996481,1.0173307657241821,-2.0796240011798304
1708443498.0535824,-2.141462802886963,-1.3335317981294175,-2.5266597906695765,6.1099679348762415,1.017317771911621,-2.079538170491354
1708443498.055629,-2.141512393951416,-1.333467037682869,-2.5266385714160364,6.109984504967489,1.0172611474990845,-2.079503838215963
1708443498.0575655,-2.141449451446533,-1.3335083735040207,-2.5266385714160364,6.109993207245626,1.0172773599624634,-2.0794013182269495
1708443498.0595756,-2.141512393951416,-1.3334832352450867,-2.5265939871417444,6.10999749878005,1.017259955406189,-2.079395596181051
1708443498.0616035,-2.141475200653076,-1.333446667795517,-2.5267255941974085,6.109962808876791,1.0173296928405762,-2.0792997519122522
1708443498.0635965,-2.141507863998413,-1.3334912967732926,-2.5266431013690394,6.1099809286888025,1.0173307657241821,-2.0792396704303187
1708443498.0656333,-2.141496419906616,-1.3334747862866898,-2.5267046133624476,6.109886276512899,1.0172853469848633,-2.079179588948385
1708443498.0676327,-2.1414875984191895,-1.333524228339531,-2.5266385714160364,6.109932172089376,1.017293930053711,-2.079033676777975
1708443498.0695894,-2.1414425373077393,-1.3335114282420655,-2.5266178289996546,6.109948384552755,1.0172525644302368,-2.078975025807516
1708443498.0716145,-2.141484022140503,-1.333467037682869,-2.5266552607165735,6.1099398014839075,1.0172655582427979,-2.0789106527911585
1708443498.0735977,-2.141453981399536,-1.3334747862866898,-2.5266507307635706,6.109927880554952,1.017248272895813,-2.0787814299212855
1708443498.07561,-2.1414265632629395,-1.3334799271873017,-2.5266881624804896,6.109935390740194,1.0172853469848633,-2.0786355177508753
1708443498.0776064,-2.141479730606079,-1.333515615468361,-2.5266717115985315,6.109985339432516,1.0173263549804688,-2.0786240736590784
1708443498.0796094,-2.14145827293396,-1.3334799271873017,-2.5266884008990687,6.109985339432516,1.0172817707061768,-2.0784996191607874
1708443498.0815852,-2.141475200653076,-1.3334842038205643,-2.526679340993063,6.109957206040182,1.0172686576843262,-2.0783684889422815
1708443498.083595,-2.141462802886963,-1.3335361343673249,-2.5267046133624476,6.1099398014839075,1.0172773599624634,-2.0782693068133753
1708443498.085609,-2.1414425373077393,-1.3335233491710206,-2.5266926924334925,6.109891879349508,1.0172687768936157,-2.0781119505511683
1708443498.0875952,-2.141462802886963,-1.3335047376206894,-2.5266717115985315,6.109904873162069,1.017317771911621,-2.0779836813556116
1708443498.0896282,-2.1414265632629395,-1.3335083735040207,-2.5266926924334925,6.10987554767684,1.0173426866531372,-2.0778759161578577
1708443498.0916047,-2.141512393951416,-1.3335523170283814,-2.526712242756979,6.109807002335348,1.0172983407974243,-2.0777557531939905
1708443498.0935972,-2.1414966583251953,-1.333536149268486,-2.526641909276144,6.109815704613485,1.0173026323318481,-2.0776074568377894
1708443498.0956113,-2.1414380073547363,-1.3334832352450867,-2.5266926924334925,6.109885322838583,1.0173351764678955,-2.077470127736227
1708443498.0975873,-2.1414334774017334,-1.3334912967732926,-2.5266926924334925,6.109852778702535,1.0172983407974243,-2.0773771444903772
1708443498.0995815,-2.141496419906616,-1.3335199666074296,-2.5266838709460657,6.109787452011862,1.0173134803771973,-2.077224079762594
1708443498.1015973,-2.1414706707000732,-1.3335317981294175,-2.526679340993063,6.109811293869772,1.0172687768936157,-2.0770185629474085
1708443498.1035745,-2.141475200653076,-1.3334913116744538,-2.526646439229147,6.109827863961019,1.0172817707061768,-2.076887909566061
1708443498.1056004,-2.141507863998413,-1.3334637445262452,-2.5266552607165735,6.1098540900047205,1.0172810554504395,-2.0767367521869105
1708443498.1076229,-2.1414220333099365,-1.3334465783885499,-2.5266552607165735,6.109877812653341,1.017317771911621,-2.076550308858053
1708443498.1095843,-2.141446828842163,-1.3335199666074296,-2.5266717115985315,6.109775292664327,1.0173509120941162,-2.0763610045062464
1708443498.1116323,-2.1414663791656494,-1.3335233491710206,-2.5266671816455286,6.109775292664327,1.017317771911621,-2.0761941115008753
1708443498.1135945,-2.141475200653076,-1.3335126799396058,-2.5266342798816126,6.109783994942465,1.0173307657241821,-2.076038185750143
1708443498.115613,-2.141467332839966,-1.333515615468361,-2.5266597906695765,6.109837519913473,1.017333984375,-2.075815502797262
1708443498.1175902,-2.141451358795166,-1.3334747862866898,-2.5266838709460657,6.109832274704733,1.017317771911621,-2.075616184865133
1708443498.1195939,-2.1415371894836426,-1.3334832203439255,-2.52666145959963,6.109816777497091,1.0173263549804688,-2.075373951588766
1708443498.1216125,-2.141523838043213,-1.333527610903122,-2.5266597906695765,6.109796273499288,1.0172852277755737,-2.0752208868609827
1708443498.123576,-2.1414289474487305,-1.333446667795517,-2.526679340993063,6.109828698426046,1.0173512697219849,-2.0749672094928187
1708443498.125602,-2.141453742980957,-1.333515615468361,-2.5267165342914026,6.1098331091697595,1.0172853469848633,-2.074770752583639
1708443498.1276126,-2.1414921283721924,-1.3334628653577347,-2.5266552607165735,6.109828698426046,1.0173420906066895,-2.074542824422018
1708443498.129566,-2.1414334774017334,-1.333524228339531,-2.526695791875021,6.109788405686178,1.0173296928405762,-2.0743187109576624
1708443498.131616,-2.14145827293396,-1.3335071367076416,-2.5266385714160364,6.109815585404196,1.0172852277755737,-2.074049774800436
1708443498.1335847,-2.14144229888916,-1.333515615468361,-2.5266838709460657,6.109829771309652,1.0173208713531494,-2.0738332907306116
1708443498.1355906,-2.1414310932159424,-1.333536149268486,-2.526691261922018,6.109828698426046,1.017293930053711,-2.0736053625689905
1708443498.137592,-2.141467332839966,-1.333467037682869,-2.5266252199756067,6.109825598984518,1.0173509120941162,-2.0733912626849573
1708443498.1395757,-2.141462802886963,-1.3334961247495194,-2.5267000834094446,6.109775292664327,1.0173791646957397,-2.07310659090151
1708443498.141601,-2.14145827293396,-1.3334918332150956,-2.526686731969015,6.109852778702535,1.017399549484253,-2.0728681723224085
1708443498.1436048,-2.1414921283721924,-1.333483250146248,-2.526637379323141,6.109791862755575,1.0173496007919312,-2.0726235548602503
1708443498.14561,-2.141479730606079,-1.3334628653577347,-2.5266881624804896,6.109783160477438,1.0173208713531494,-2.0723264853106897
1708443498.1475852,-2.141462802886963,-1.333446667795517,-2.5266252199756067,6.109808194428243,1.0173659324645996,-2.0720747152911585
1708443498.1495974,-2.141449451446533,-1.3335489940694352,-2.526724163685934,6.109825598984518,1.0173497200012207,-2.0718191305743616
1708443498.1516206,-2.141455888748169,-1.3334756654552002,-2.52669865289797,6.1098331091697595,1.0173410177230835,-2.0715306440936487
1708443498.1536043,-2.1414921283721924,-1.3335603189519425,-2.526658360158102,6.1098211882408044,1.0173659324645996,-2.071282688771383
1708443498.1555798,-2.141479730606079,-1.3334997457316895,-2.5267165342914026,6.109846102982321,1.0173572301864624,-2.07099420229067
1708443498.1576357,-2.1414716243743896,-1.3335523468307038,-2.5266838709460657,6.1098211882408044,1.017398715019226,-2.0706966559039515
1708443498.159572,-2.1414220333099365,-1.3334832352450867,-2.526637379323141,6.109791862755575,1.0173821449279785,-2.070404354725973
1708443498.1616223,-2.14145827293396,-1.3335523468307038,-2.526695791875021,6.1097590802009485,1.0173778533935547,-2.070178810750143
1708443498.1635816,-2.1414875984191895,-1.333504096870758,-2.526679340993063,6.109763371735372,1.0174227952957153,-2.0698230902301233
1708443498.1655943,-2.141516923904419,-1.333532766704895,-2.526686731969015,6.109816777497091,1.0174062252044678,-2.069491688405172
1708443498.1676154,-2.141514539718628,-1.3334799271873017,-2.52667481104006,6.109813558846273,1.0173778533935547,-2.069187943135397
1708443498.1696372,-2.141500949859619,-1.3335028451732178,-2.526691261922018,6.109764802246847,1.0173944234848022,-2.068932835255758
1708443498.1715844,-2.141500949859619,-1.3334790480187912,-2.526695791875021,6.109792697220602,1.017385721206665,-2.068611447011129
1708443498.1736221,-2.141435384750366,-1.3335523468307038,-2.5267165342914026,6.1098211882408044,1.017401933670044,-2.068294350300924
1708443498.1755953,-2.141500949859619,-1.3334832352450867,-2.5267165342914026,6.109813558846273,1.0173821449279785,-2.067986313496725
1708443498.1776156,-2.141467332839966,-1.3334870350411911,-2.526707712803976,6.109776484757223,1.017435073852539,-2.06760818163027
1708443498.1795719,-2.1414220333099365,-1.333504096870758,-2.526679340993063,6.109788405686178,1.017439365386963,-2.0673092047320765
1708443498.1816075,-2.141467332839966,-1.3334875863841553,-2.526724163685934,6.109744298249044,1.0174272060394287,-2.0669191519366663
1708443498.1836207,-2.14145827293396,-1.3335126352361222,-2.526686731969015,6.109776484757223,1.0174262523651123,-2.06657058397402
1708443498.1856062,-2.1414380073547363,-1.3334704798511048,-2.526740614567892,6.109772193222799,1.0174140930175781,-2.0662506262408655
1708443498.1876056,-2.141467332839966,-1.333504096870758,-2.5267284552203577,6.109792697220602,1.017435073852539,-2.0658567587481897
1708443498.189607,-2.141488552093506,-1.3334985387376328,-2.526679340993063,6.109767782479086,1.0174468755722046,-2.065514866505758
1708443498.1916049,-2.141484022140503,-1.3334705096534272,-2.526694361363546,6.109776484757223,1.0173975229263306,-2.06521445909609
1708443498.1936016,-2.1414647102355957,-1.3335233491710206,-2.526736084614889,6.109780776291647,1.0174468755722046,-2.06476861635317
1708443498.1955736,-2.141462802886963,-1.3334997308305283,-2.5267227331744593,6.10974000671462,1.0173845291137695,-2.064489189778463
1708443498.1975856,-2.1414921283721924,-1.3334955138019104,-2.5267391840564173,6.109813558846273,1.0174140930175781,-2.064064327870504
1708443498.199604,-2.1414310932159424,-1.3334756654552002,-2.526748005543844,6.109727847367086,1.0174543857574463,-2.063673798237936
1708443498.2016022,-2.1414601802825928,-1.333455206160881,-2.526715103779928,6.109756219177999,1.017405390739441,-2.063307587300436
1708443498.2036052,-2.1414806842803955,-1.3335114133409043,-2.526707712803976,6.109776484757223,1.0174306631088257,-2.0629594961749476
1708443498.205584,-2.1414425373077393,-1.3335241836360474,-2.526694361363546,6.1098049757774255,1.0174176692962646,-2.0625465551959437
1708443498.2075849,-2.141451358795166,-1.3335317981294175,-2.5267930666552942,6.109763371735372,1.017435073852539,-2.062204186116354
1708443498.2096066,-2.141451358795166,-1.333524228339531,-2.5267391840564173,6.109792697220602,1.0174219608306885,-2.0617650190936487
1708443498.2115903,-2.1414716243743896,-1.3334997457316895,-2.5267840067492884,6.109751808434286,1.0174140930175781,-2.061378304158346
1708443498.213592,-2.141451358795166,-1.333507166509964,-2.5267587343799036,6.109796273499288,1.0174381732940674,-2.061014954243795
1708443498.2156105,-2.1414921283721924,-1.333483250146248,-2.5267797152148646,6.109800565033712,1.0174586772918701,-2.0605929533587855
1708443498.2175977,-2.141462802886963,-1.3334997457316895,-2.5267587343799036,6.1098211882408044,1.0174262523651123,-2.0601723829852503
1708443498.2195985,-2.141475200653076,-1.3335028898767014,-2.526799027119772,6.109788405686178,1.017405390739441,-2.0597222487079065
1708443498.2216105,-2.141516923904419,-1.333515615468361,-2.526778046284811,6.109735595970907,1.0174424648284912,-2.059364620839254
1708443498.223592,-2.141401767730713,-1.333507166509964,-2.5268247763263147,6.109788405686178,1.0174140930175781,-2.058934036885397
1708443498.2255938,-2.141453981399536,-1.333515615468361,-2.5268457571612757,6.109769093781271,1.0174306631088257,-2.0585392157184046
1708443498.2275715,-2.141467332839966,-1.3334670227817078,-2.526785675679342,6.10980378368453,1.0174262523651123,-2.0580924193011683
1708443498.2296004,-2.141422986984253,-1.3334870350411911,-2.5267916361438196,6.109792697220602,1.0174306631088257,-2.0576890150653284
1708443498.231625,-2.141462802886963,-1.3334594827941437,-2.526818815861837,6.109792697220602,1.0174468755722046,-2.0572403112994593
1708443498.2335973,-2.141467332839966,-1.333540455704071,-2.5268035570727747,6.109780776291647,1.0174262523651123,-2.0568273703204554
1708443498.2356188,-2.141500949859619,-1.3334628653577347,-2.526820246373312,6.109788405686178,1.0174185037612915,-2.05640679994692
1708443498.2376125,-2.141467332839966,-1.3335041117719193,-2.52686053911318,6.109796988755026,1.0174227952957153,-2.056016270314352
1708443498.239584,-2.141467332839966,-1.3334705096534272,-2.52682334581484,6.109744298249044,1.0174140930175781,-2.055586640034811
1708443498.2415984,-2.141435384750366,-1.333504096870758,-2.526794497166769,6.109791862755575,1.0174132585525513,-2.0551751295672815
1708443498.2436135,-2.141439914703369,-1.3335028898767014,-2.526778046284811,6.109731185227194,1.0174096822738647,-2.0547507444964808
1708443498.2456095,-2.141451358795166,-1.3334997457316895,-2.526794497166769,6.109760510712423,1.0174185037612915,-2.054293934498922
1708443498.247583,-2.141467332839966,-1.3335114282420655,-2.526749912892477,6.109727728157797,1.0174663066864014,-2.053852383290426
1708443498.2495785,-2.1414220333099365,-1.3334826690009614,-2.5268035570727747,6.109747516899862,1.0174185037612915,-2.053427521382467
1708443498.2515957,-2.141435384750366,-1.3335114133409043,-2.5267871061908167,6.109809267311849,1.0174140930175781,-2.0529993216144007
1708443498.2536106,-2.141467332839966,-1.3334870350411911,-2.5267916361438196,6.109780776291647,1.0174219608306885,-2.0525267759906214
1708443498.2555985,-2.141484022140503,-1.333527610903122,-2.526799027119772,6.109748589783468,1.0174630880355835,-2.052159611378805
1708443498.257592,-2.141451358795166,-1.333515615468361,-2.526815954838888,6.109779703408041,1.0174424648284912,-2.051695171986715
1708443498.2595706,-2.1414308547973633,-1.3334747862866898,-2.526757303868429,6.109715688019552,1.0173813104629517,-2.0512083212481897
1708443498.261598,-2.141453981399536,-1.333539531832077,-2.526811424885885,6.1098331091697595,1.0174424648284912,-2.0508955160724085
1708443498.2635713,-2.1414425373077393,-1.3334790480187912,-2.526778046284811,6.1098049757774255,1.0173813104629517,-2.0504215399371546
1708443498.2656033,-2.1414425373077393,-1.3335404259017487,-2.526811424885885,6.109760510712423,1.017364740371704,-2.0500295797931116
1708443498.2676039,-2.1414875984191895,-1.3334912967732926,-2.526827875767843,6.109760510712423,1.0173691511154175,-2.0496280829059046
1708443498.2695887,-2.141475200653076,-1.3335318279317399,-2.526806894932882,6.109788405686178,1.0174096822738647,-2.049187485371725
1708443498.2716029,-2.141479730606079,-1.333495558505394,-2.5268078486071985,6.109783994942465,1.0173604488372803,-2.0487993399249476
1708443498.2735877,-2.141484022140503,-1.333524228339531,-2.5267871061908167,6.109767782479086,1.0173813104629517,-2.0484026114093226
1708443498.275598,-2.141479730606079,-1.333543823366501,-2.52683669725527,6.1098211882408044,1.0173975229263306,-2.04798394838442
1708443498.2776093,-2.141439914703369,-1.3334912967732926,-2.526806894932882,6.1097590802009485,1.0174106359481812,-2.047544304524557
1708443498.279593,-2.141455888748169,-1.333519072537758,-2.5268078486071985,6.109825598984518,1.0173944234848022,-2.04712421098818
1708443498.2816112,-2.1414265632629395,-1.3334594827941437,-2.5268078486071985,6.109808194428243,1.0173900127410889,-2.0467155615436
1708443498.2836006,-2.1414875984191895,-1.333495558505394,-2.526749912892477,6.109796273499288,1.0174227952957153,-2.0463197867022913
1708443498.2855868,-2.141451358795166,-1.333524228339531,-2.5268078486071985,6.109841811447897,1.017401933670044,-2.045922581349508
1708443498.2875817,-2.141455888748169,-1.3334756803563614,-2.5267213026629847,6.109792697220602,1.0174227952957153,-2.045506779347555
1708443498.2895885,-2.141488552093506,-1.3335114282420655,-2.5267959276782435,6.109812485962667,1.0173813104629517,-2.0451224485980433
1708443498.2915816,-2.141496419906616,-1.3334832203439255,-2.526766363774435,6.109756338387289,1.0173944234848022,-2.0446646849261683
1708443498.2935677,-2.141467332839966,-1.3334913116744538,-2.526820484791891,6.109788405686178,1.017401933670044,-2.0443714300738733
1708443498.2955747,-2.141453981399536,-1.3334869903377076,-2.5267916361438196,6.109796988755026,1.0174150466918945,-2.0439065138446253
1708443498.2975907,-2.141446828842163,-1.3334997457316895,-2.5268123785602015,6.109747516899862,1.0173453092575073,-2.0435197989093226
1708443498.2995796,-2.141488552093506,-1.33354044080291,-2.5267961660968226,6.109845387726583,1.0173734426498413,-2.04311973253359
1708443498.3015826,-2.141475200653076,-1.3335114282420655,-2.5267825762378138,6.109776484757223,1.0173778533935547,-2.0426977316485804
1708443498.3035693,-2.141505479812622,-1.333495558505394,-2.526794497166769,6.109841811447897,1.0173410177230835,-2.0423148314105433
1708443498.3055856,-2.141446828842163,-1.3335233491710206,-2.5267961660968226,6.109813558846273,1.0173121690750122,-2.041921917592184
1708443498.3076277,-2.14145827293396,-1.3335317385247727,-2.5268078486071985,6.109738695412435,1.0173540115356445,-2.041508499776022
1708443498.3096173,-2.141467332839966,-1.3334508550218125,-2.526794497166769,6.109852897911825,1.0173509120941162,-2.041133228932516
1708443498.3115935,-2.141467332839966,-1.33347042024646,-2.5268412272082728,6.109845387726583,1.0173089504241943,-2.0407970587359827
1708443498.3135695,-2.141505479812622,-1.3334799420884629,-2.526799027119772,6.109825598984518,1.0173264741897583,-2.040412727986471
1708443498.3156002,-2.1414966583251953,-1.333508388405182,-2.5267706553088587,6.109862673073568,1.017317771911621,-2.040036980305807
1708443498.3176064,-2.14145827293396,-1.3335404855063935,-2.5267632643329065,6.109754669457235,1.0172532796859741,-2.039619270955221
1708443498.319574,-2.14145827293396,-1.3335114282420655,-2.526794497166769,6.109849679261007,1.0172524452209473,-2.0392378012286585
1708443498.3216362,-2.141479730606079,-1.333515615468361,-2.526733462010519,6.109808194428243,1.0172655582427979,-2.0389207045184534
1708443498.3235986,-2.141484022140503,-1.3335156005671998,-2.5268035570727747,6.109808194428243,1.017244577407837,-2.0385072867022913
1708443498.3256176,-2.141446828842163,-1.3334747415832062,-2.52683669725527,6.109791862755575,1.0172698497772217,-2.0380805174456995
1708443498.3275764,-2.141475200653076,-1.3335041117719193,-2.5267825762378138,6.109824406891622,1.0172204971313477,-2.037849251423971
1708443498.3295906,-2.141462802886963,-1.3334747713855286,-2.5267840067492884,6.1098540900047205,1.0172947645187378,-2.0374539534198206
1708443498.3316014,-2.1414875984191895,-1.3335318279317399,-2.5267706553088587,6.1098540900047205,1.0172532796859741,-2.0370987097369593
1708443498.3335834,-2.141484022140503,-1.3334790480187912,-2.5267513434039515,6.109845268517294,1.0172414779663086,-2.0367286841021937
1708443498.335597,-2.141435384750366,-1.333519996409752,-2.5268004576312464,6.1097906706626794,1.0172457695007324,-2.036445919667379
1708443498.3375838,-2.1414380073547363,-1.3334790480187912,-2.5267468134509485,6.109876620560446,1.017274260520935,-2.0360425154315394
1708443498.339597,-2.141453981399536,-1.3335490238717576,-2.5267558733569544,6.109787452011862,1.0172532796859741,-2.0356934706317347
1708443498.3416095,-2.1414966583251953,-1.3334790182164689,-2.5267840067492884,6.109819996147909,1.0172576904296875,-2.035299603139059
1708443498.3435776,-2.141496419906616,-1.3335199815085907,-2.526733462010519,6.109824406891622,1.017244577407837,-2.0349796454059046
1708443498.3456216,-2.141475200653076,-1.333547980790474,-2.5267601648913782,6.109799372940817,1.0172619819641113,-2.0346644560443323
1708443498.3476117,-2.141488552093506,-1.3335126650384446,-2.5267391840564173,6.109799372940817,1.0172457695007324,-2.0343263784991663
1708443498.3496041,-2.141453981399536,-1.3335276258042832,-2.52674371400942,6.109857189446249,1.017212986946106,-2.034005943928854
1708443498.3515987,-2.141516923904419,-1.3334747862866898,-2.526764694844381,6.109827863961019,1.0172576904296875,-2.033685032521383
1708443498.3536143,-2.1414380073547363,-1.3335071516088028,-2.526710573826925,6.109889733582296,1.0172674655914307,-2.0332897345172327
1708443498.3556402,-2.141475200653076,-1.3334594678929825,-2.526694361363546,6.109839784889974,1.0172054767608643,-2.0330522696124476
1708443498.3576005,-2.1414921283721924,-1.3334875863841553,-2.526679340993063,6.109848487168112,1.017212986946106,-2.032660786305563
1708443498.3596013,-2.14145827293396,-1.333515615468361,-2.5266671816455286,6.109872329026022,1.0171931982040405,-2.0323522726642054
1708443498.3615985,-2.1414875984191895,-1.3335480254939576,-2.526646439229147,6.109925377159872,1.017197608947754,-2.0320637861834925
1708443498.3635771,-2.141475200653076,-1.3335242730430146,-2.5266507307635706,6.109856116562643,1.0171769857406616,-2.0318291823016565
1708443498.3656158,-2.141453981399536,-1.3334713888219376,-2.5266552607165735,6.109921085625448,1.017197608947754,-2.0315001646624964
1708443498.3675883,-2.14144229888916,-1.333508388405182,-2.5266147295581263,6.1098354933555505,1.0172063112258911,-2.031215492879049
1708443498.3695772,-2.141455888748169,-1.3334912967732926,-2.5266013781176966,6.109876739769735,1.017181396484375,-2.030876938496725
1708443498.3716075,-2.141493082046509,-1.3335361790708085,-2.526635710393087,6.109933006554403,1.0171778202056885,-2.030616585408346
1708443498.3735893,-2.141453981399536,-1.3334713888219376,-2.526640001927511,6.109908091812887,1.0171486139297485,-2.0302918593036097
1708443498.3756275,-2.141467332839966,-1.3335317981294175,-2.5266104380237024,6.1099374172981165,1.0171537399291992,-2.030055824910299
1708443498.3775976,-2.1415414810180664,-1.3334997755340119,-2.526651922856466,6.109838712006368,1.0171822309494019,-2.029750172291891
1708443498.3796017,-2.14144229888916,-1.3334997606328507,-2.5266311804400843,6.10989938953475,1.0171126127243042,-2.029550377522604
1708443498.3816035,-2.1414265632629395,-1.333495558505394,-2.5266266504870813,6.109944093018331,1.0171494483947754,-2.0292256514178675
1708443498.3836114,-2.141475200653076,-1.3335114282420655,-2.5266507307635706,6.109957206040182,1.0171006917953491,-2.0289772192584437
1708443498.3856,-2.141435384750366,-1.3335480254939576,-2.5266686121570032,6.1099809286888025,1.0171006917953491,-2.0287278334247034
1708443498.387611,-2.141512393951416,-1.3335041117719193,-2.526619259511129,6.109923469811239,1.0171093940734863,-2.0284794012652796
1708443498.3896074,-2.1414830684661865,-1.3334997159293671,-2.5266385714160364,6.109988796501913,1.0170881748199463,-2.0282023588763636
1708443498.391631,-2.1414663791656494,-1.333508388405182,-2.5266552607165735,6.109932172089376,1.017146110534668,-2.027945343648092
1708443498.3935907,-2.141484022140503,-1.3334799420884629,-2.5266640822040003,6.109976637154379,1.017118215560913,-2.027684990559713
1708443498.395598,-2.141462802886963,-1.3335362088731308,-2.526656452809469,6.109948384552755,1.017129898071289,-2.02751332918276
1708443498.3975782,-2.141516923904419,-1.3335199815085907,-2.526635710393087,6.1099679348762415,1.0171012878417969,-2.0272539297686976
1708443498.3995674,-2.1414663791656494,-1.3335276258042832,-2.5266686121570032,6.110009181290426,1.0171055793762207,-2.026999298726217
1708443498.401607,-2.141479730606079,-1.3335083735040207,-2.5266760031329554,6.10996030548171,1.0170481204986572,-2.0267751852618616
1708443498.4035687,-2.1414966583251953,-1.3334713888219376,-2.5266597906695765,6.1099398014839075,1.0171055793762207,-2.0265420118915003
1708443498.4055717,-2.141475200653076,-1.3334832203439255,-2.5266311804400843,6.11001347282485,1.0171098709106445,-2.0262892881976526
1708443498.4076164,-2.141512393951416,-1.3335071516088028,-2.526635710393087,6.109952914505758,1.0171098709106445,-2.0260775724994105
1708443498.4095967,-2.141496419906616,-1.333524228339531,-2.526681963597433,6.10996030548171,1.017118215560913,-2.025860611592428
1708443498.4116266,-2.141523838043213,-1.333495558505394,-2.5266476313220423,6.109993207245626,1.017073154449463,-2.0256484190570276
1708443498.4135962,-2.1414921283721924,-1.3336013418487092,-2.526635710393087,6.109932172089376,1.017073154449463,-2.0254719893084925
1708443498.4155865,-2.141484022140503,-1.3334875863841553,-2.526619259511129,6.109930979996481,1.0170643329620361,-2.025259319935934
1708443498.4175901,-2.141479730606079,-1.3334997457316895,-2.526640001927511,6.1099679348762415,1.0171136856079102,-2.0250538031207483
1708443498.419583,-2.141479730606079,-1.3334997457316895,-2.5265939871417444,6.1099517224128626,1.0170979499816895,-2.024825398121969
1708443498.4215882,-2.1414990425109863,-1.3335276258042832,-2.526590887700216,6.109944093018331,1.017122507095337,-2.0246403853045862
1708443498.423578,-2.141484022140503,-1.3334832203439255,-2.526651922856466,6.109922516136923,1.017085075378418,-2.024435822163717
1708443498.4255686,-2.141500949859619,-1.3334869903377076,-2.526635710393087,6.109956013947286,1.0171267986297607,-2.024301830922262
1708443498.4275727,-2.1414449214935303,-1.3334876012853165,-2.5266476313220423,6.109956013947286,1.017035961151123,-2.0241382757769983
1708443498.429578,-2.1414921283721924,-1.333536149268486,-2.5266104380237024,6.109976637154379,1.0170643329620361,-2.0239513556109827
1708443498.4315999,-2.14145827293396,-1.3335041266730805,-2.526635710393087,6.10996030548171,1.0170643329620361,-2.023820702229635
1708443498.4335694,-2.1415035724639893,-1.3334997457316895,-2.5266686121570032,6.109930979996481,1.0170774459838867,-2.023619000111715
1708443498.4355903,-2.141515016555786,-1.3335276258042832,-2.526619259511129,6.109923469811239,1.017056941986084,-2.023440186177389
1708443498.4375887,-2.1414921283721924,-1.3335114282420655,-2.52665359178652,6.109993207245626,1.017086148262024,-2.0232494513141077
1708443498.4396048,-2.141462802886963,-1.3334955436042328,-2.526548687611715,6.109927880554952,1.0170533657073975,-2.0231059233294886
1708443498.4415927,-2.1414573192596436,-1.3334585440209885,-2.526602808629171,6.1099398014839075,1.0170979499816895,-2.022933308278219
1708443498.4435847,-2.1414449214935303,-1.333560900097229,-2.5265985170947474,6.10996030548171,1.0170403718948364,-2.0228055159198206
1708443498.4456103,-2.1414990425109863,-1.3334997457316895,-2.526578728352682,6.109971511154928,1.0170979499816895,-2.022640053425924
1708443498.4475765,-2.141507863998413,-1.333543823366501,-2.526574198399679,6.109935390740194,1.017086148262024,-2.0225256125079554
1708443498.4495902,-2.141500949859619,-1.3335318130305787,-2.526562039052145,6.109956013947286,1.017073154449463,-2.0223644415484827
1708443498.4515905,-2.141508102416992,-1.33347903311763,-2.526587788258688,6.109963524132528,1.0170446634292603,-2.022224728261129
1708443498.4535792,-2.1414380073547363,-1.3334628206542511,-2.526583258305685,6.10999749878005,1.0170742273330688,-2.0220845381366175
1708443498.4555979,-2.1415035724639893,-1.3335362088731308,-2.5265637079821985,6.110037672310629,1.0170817375183105,-2.0218680540667933
1708443498.4575758,-2.1414787769317627,-1.333515615468361,-2.5265637079821985,6.109935390740194,1.0170576572418213,-2.02179462114443
1708443498.4595962,-2.1414990425109863,-1.333508388405182,-2.5265219847308558,6.110016691475668,1.017069935798645,-2.0217326323138636
1708443498.461639,-2.141523838043213,-1.3335395169309159,-2.5265517870532435,6.109993207245626,1.0170371532440186,-2.0215962568866175
1708443498.4635816,-2.1414921283721924,-1.3335028749755402,-2.5265591780291956,6.109980094223776,1.0170620679855347,-2.021409336720602
1708443498.4656084,-2.141453981399536,-1.3334997308305283,-2.5265517870532435,6.10989390590743,1.0170284509658813,-2.0212515036212366
1708443498.467586,-2.1414921283721924,-1.3335233342698594,-2.52656060854067,6.109972226410665,1.0170663595199585,-2.0211942831622522
1708443498.4695883,-2.1414875984191895,-1.3335114282420655,-2.5265219847308558,6.109881984978475,1.0170533657073975,-2.021069351826803
1708443498.471604,-2.141512393951416,-1.3335071516088028,-2.5265472571002405,6.1099517224128626,1.017004370689392,-2.020973030720846
1708443498.4735916,-2.1414875984191895,-1.3334713888219376,-2.5265308062182825,6.1099398014839075,1.0170130729675293,-2.020883385335104
1708443498.4756,-2.1414945125579834,-1.3335190576365967,-2.5265560785876673,6.109956013947286,1.0170904397964478,-2.0207369963275355
1708443498.477593,-2.141475200653076,-1.333508388405182,-2.5265067259417933,6.109976637154379,1.0170371532440186,-2.0206525961505335
1708443498.479584,-2.1415035724639893,-1.333515615468361,-2.52656060854067,6.109902608185568,1.0170663595199585,-2.0205352942096155
1708443498.4816034,-2.1414875984191895,-1.3334997457316895,-2.5265353361712855,6.109972226410665,1.0170576572418213,-2.0204480330096644
1708443498.4835644,-2.141515016555786,-1.333543823366501,-2.5265353361712855,6.109932172089376,1.0170533657073975,-2.0203564802752894
1708443498.485662,-2.1415035724639893,-1.33347903311763,-2.5265024344073694,6.109964716225424,1.0170501470565796,-2.020264450703756
1708443498.4875956,-2.141536235809326,-1.3335114282420655,-2.5265472571002405,6.110025274544515,1.0170173645019531,-2.020172897969381
1708443498.489584,-2.14151930809021,-1.3335352700999756,-2.5265398661242884,6.10999749878005,1.0169920921325684,-2.0200536886798304
1708443498.4916208,-2.141510486602783,-1.3334997606328507,-2.5265429655658167,6.109944093018331,1.0170422792434692,-2.019966427479879
1708443498.4935992,-2.1415035724639893,-1.3334790629199524,-2.5265591780291956,6.109894978791036,1.0169920921325684,-2.019841972981588
1708443498.495609,-2.1414945125579834,-1.333508388405182,-2.526544157658712,6.109969126969137,1.017033576965332,-2.0198405424701136
1708443498.4976006,-2.1414706707000732,-1.3334997308305283,-2.5265265146838587,6.109919178276815,1.0170414447784424,-2.0196946302997034
1708443498.499604,-2.1414990425109863,-1.3334747415832062,-2.5265353361712855,6.110029685288229,1.0170458555221558,-2.0196221510516565
1708443498.5016263,-2.1415059566497803,-1.3334997159293671,-2.5265067259417933,6.1099398014839075,1.017054557800293,-2.0195425192462366
1708443498.503572,-2.1414661407470703,-1.3335284453681489,-2.5265308062182825,6.1099068997199915,1.0170130729675293,-2.019420925770895
1708443498.5055883,-2.14151930809021,-1.3334826242974778,-2.5265353361712855,6.109898197441854,1.0169920921325684,-2.019388977681295
1708443498.507626,-2.1415016651153564,-1.3334670674851914,-2.5265398661242884,6.10993658283309,1.0170007944107056,-2.0193045775042933
1708443498.5096023,-2.1415059566497803,-1.3334832203439255,-2.5265145937549036,6.109993207245626,1.0170707702636719,-2.0192583242999476
1708443498.5116048,-2.1414945125579834,-1.333426148896553,-2.5265188852893274,6.109969126969137,1.0170007944107056,-2.0191319624530237
1708443498.5135727,-2.141496419906616,-1.3334594678929825,-2.5265234152423304,6.109976637154379,1.0170707702636719,-2.019088093434469
1708443498.5155866,-2.1414902210235596,-1.3335071367076416,-2.5265067259417933,6.109914767533102,1.0170007944107056,-2.0190208593951624
1708443498.5175908,-2.141512393951416,-1.3334875714829941,-2.5265145937549036,6.109927880554952,1.017054557800293,-2.0189016501056116
1708443498.5195847,-2.1415486335754395,-1.33347903311763,-2.526511255894796,6.109920012741842,1.0170130729675293,-2.018871609364645
1708443498.5216498,-2.1414945125579834,-1.3334594678929825,-2.5265067259417933,6.109976637154379,1.0169920921325684,-2.0188444296466272
1708443498.5235841,-2.1415059566497803,-1.3334997457316895,-2.5264905134784144,6.109973418503561,1.017033576965332,-2.0187514464007776
1708443498.5256143,-2.1414945125579834,-1.3335233193686982,-2.526532236729757,6.109948384552755,1.0170292854309082,-2.018745247517721
1708443498.5275962,-2.1415016651153564,-1.3334704500487824,-2.5265279451953333,6.110001909523763,1.0170130729675293,-2.0186761061297815
1708443498.5295866,-2.141515016555786,-1.3334670227817078,-2.5265353361712855,6.10989927032546,1.0170501470565796,-2.018625084553854
1708443498.5316029,-2.141510486602783,-1.3335041117719193,-2.5265398661242884,6.109969126969137,1.0170303583145142,-2.0185182730304163
1708443498.5336165,-2.141515016555786,-1.3334714782289048,-2.5265308062182825,6.109902608185568,1.0170173645019531,-2.0185001532184046
1708443498.5356157,-2.1414990425109863,-1.3335446578315278,-2.5265427271472376,6.109985339432516,1.0170173645019531,-2.0184524695025843
1708443498.5375893,-2.1415600776672363,-1.3334912669709702,-2.5265398661242884,6.109932172089376,1.017005205154419,-2.0183618704425257
1708443498.5396183,-2.1415274143218994,-1.3334466230920334,-2.5265145937549036,6.109894978791036,1.0169965028762817,-2.018322769795553
1708443498.5416198,-2.1414902210235596,-1.3335361045650025,-2.526565138493673,6.1098787663276575,1.01698899269104,-2.0182836691485804
1708443498.5435796,-2.1414899826049805,-1.3334585440209885,-2.5265145937549036,6.109969126969137,1.0169965028762817,-2.01821738878359
1708443498.5456119,-2.1415228843688965,-1.3334670078805466,-2.526565138493673,6.109944093018331,1.0170303583145142,-2.0181949774371546
1708443498.5476072,-2.1414899826049805,-1.3334756654552002,-2.5265188852893274,6.1098906872566126,1.0169932842254639,-2.018163506184713
1708443498.5496004,-2.141510486602783,-1.3335276258042832,-2.52656060854067,6.1099527952964685,1.0169517993927002,-2.0180910269366663
1708443498.551616,-2.1414661407470703,-1.3334713888219376,-2.5265517870532435,6.109952914505758,1.0169682502746582,-2.01804763475527
1708443498.553618,-2.1414787769317627,-1.3334997457316895,-2.5265234152423304,6.109898197441854,1.0170217752456665,-2.0179899374591272
1708443498.5556254,-2.1414706707000732,-1.333483265047409,-2.5265398661242884,6.109957206040182,1.0170094966888428,-2.017979447041647
1708443498.557605,-2.1415317058563232,-1.3334955436042328,-2.526532236729757,6.109977829247274,1.0170094966888428,-2.0179107824908655
1708443498.5595958,-2.1415486335754395,-1.333504096870758,-2.5265188852893274,6.109944093018331,1.0169932842254639,-2.017841641102926
1708443498.5616128,-2.1414945125579834,-1.3335071069053193,-2.5264859835254114,6.109920012741842,1.016977071762085,-2.0178468863116663
1708443498.5635993,-2.1415319442749023,-1.3334831905416031,-2.526515785847799,6.10987006404952,1.0169605016708374,-2.017782513295309
1708443498.5656073,-2.1414663791656494,-1.333515615468361,-2.5265517870532435,6.109948384552755,1.0170094966888428,-2.017754379902975
1708443498.56762,-2.1415319442749023,-1.3334713888219376,-2.5264771620379847,6.109957206040182,1.01698899269104,-2.0176895300494593
1708443498.5695903,-2.1415398120880127,-1.3334997606328507,-2.5264979044543665,6.10989938953475,1.0169692039489746,-2.0176456610309046
1708443498.5716107,-2.14151930809021,-1.3334746819785614,-2.5265398661242884,6.109915601998129,1.0170063972473145,-2.0176261107074183
1708443498.5735924,-2.1415486335754395,-1.333515615468361,-2.52651554742922,6.1099527952964685,1.0170007944107056,-2.0174863974200647
1708443498.5756202,-2.14146089553833,-1.333511398439743,-2.526494805012838,6.109977710037985,1.016977071762085,-2.0174878279315394
1708443498.5776026,-2.1415317058563232,-1.333484248524048,-2.5265398661242884,6.109849440842428,1.016977071762085,-2.017406765614645
1708443498.5796366,-2.1414706707000732,-1.3335242730430146,-2.5265560785876673,6.109915601998129,1.017005205154419,-2.0174081961261194
1708443498.5816636,-2.1414945125579834,-1.3334790033153077,-2.526553217564718,6.109920012741842,1.0169975757598877,-2.0173571745501917
1708443498.5836177,-2.1415059566497803,-1.3334756803563614,-2.5264859835254114,6.109916794091024,1.0169932842254639,-2.0173733870135706
1708443498.5856624,-2.1415059566497803,-1.3334955287030716,-2.526494805012838,6.109928715019979,1.0169562101364136,-2.017276112233297
1708443498.587638,-2.14151930809021,-1.3334912669709702,-2.5265725294696253,6.109932172089376,1.0169975757598877,-2.0171988646136683
1708443498.5895872,-2.1414902210235596,-1.3335028898767014,-2.526499334965841,6.109887468605795,1.0169683694839478,-2.017207924519674
1708443498.591605,-2.1415443420410156,-1.3335765612176438,-2.5265308062182825,6.109884249954977,1.0169813632965088,-2.017101589833395
1708443498.5936286,-2.1414618492126465,-1.333511398439743,-2.5264771620379847,6.109961497574606,1.0169692039489746,-2.017095390950338
1708443498.5956144,-2.1414830684661865,-1.3335156005671998,-2.5264979044543665,6.109879839211263,1.0169727802276611,-2.0170634428607386
1708443498.5976326,-2.1414573192596436,-1.333495558505394,-2.5265234152423304,6.1098636267478845,1.0170260667800903,-2.0170486609088343
1708443498.5995827,-2.141515016555786,-1.3335028451732178,-2.5264814535724085,6.109839784889974,1.017001986503601,-2.016996208821432
1708443498.6016374,-2.141528367996216,-1.3334790480187912,-2.5264979044543665,6.109906065254965,1.0169845819473267,-2.016923729573385
1708443498.603615,-2.141515016555786,-1.33347903311763,-2.5264979044543665,6.109812485962667,1.0169605016708374,-2.0168760458575647
1708443498.6056108,-2.1415059566497803,-1.3335114282420655,-2.526532236729757,6.109800445824423,1.0169727802276611,-2.016773525868551
1708443498.6076124,-2.1414990425109863,-1.3334586185267945,-2.5265279451953333,6.109845387726583,1.0169975757598877,-2.0167749563800257
1708443498.6096418,-2.1415317058563232,-1.3335318577340622,-2.5265234152423304,6.109809267311849,1.0170217752456665,-2.0166924635516565
1708443498.6116345,-2.1415035724639893,-1.333512694840767,-2.5265679995166224,6.109792697220602,1.016977071762085,-2.016723934804098
1708443498.613611,-2.1415059566497803,-1.333495558505394,-2.5264859835254114,6.109799372940817,1.0170137882232666,-2.01666766801943
1708443498.6156125,-2.141510486602783,-1.333515615468361,-2.5265398661242884,6.109731185227194,1.0169845819473267,-2.0165656248675745
1708443498.6175783,-2.141515016555786,-1.3334423464587708,-2.5265308062182825,6.109702694206991,1.016977071762085,-2.016604725514547
1708443498.6195831,-2.1415183544158936,-1.333508388405182,-2.526532236729757,6.1097720740135095,1.0170007944107056,-2.0165231863604944
1708443498.621605,-2.14151930809021,-1.333519072537758,-2.5265560785876673,6.109796988755026,1.0169975757598877,-2.0164335409747522
1708443498.6236198,-2.141515016555786,-1.3335083586028595,-2.52653676668276,6.109767663269796,1.017001986503601,-2.0164063612567347
1708443498.6256204,-2.141496419906616,-1.333511398439743,-2.5265725294696253,6.109767663269796,1.0169647932052612,-2.016358200703756
1708443498.6275764,-2.141519546508789,-1.3335156452706833,-2.5265308062182825,6.109702694206991,1.0169975757598877,-2.0162604490863245
1708443498.6295748,-2.141515016555786,-1.3335084033063431,-2.5265889803515833,6.109792697220602,1.0170063972473145,-2.016233269368307
1708443498.6316295,-2.1415035724639893,-1.333495558505394,-2.5265234152423304,6.109792697220602,1.0169647932052612,-2.0161779562579554
1708443498.6335897,-2.1414945125579834,-1.3334756952575226,-2.5265560785876673,6.109796988755026,1.0169932842254639,-2.0161383787738245
1708443498.6356008,-2.1415486335754395,-1.333531842832901,-2.526565138493673,6.109727728157797,1.01698899269104,-2.0160062948810022
1708443498.6375923,-2.141512393951416,-1.3334832352450867,-2.526544157658712,6.109744298249044,1.0169975757598877,-2.0159624258624476
1708443498.6395807,-2.1414971351623535,-1.3334747415832062,-2.5265067259417933,6.109785067826071,1.0169857740402222,-2.015956703816549
1708443498.6416295,-2.1415035724639893,-1.3335041266730805,-2.5265517870532435,6.109817969589987,1.0170094966888428,-2.015893284474508
1708443498.6435804,-2.141523838043213,-1.3335156005671998,-2.52656060854067,6.109843003540792,1.0169965028762817,-2.0158408323871058
1708443498.6456177,-2.1415398120880127,-1.3335318130305787,-2.5265308062182825,6.109817850380697,1.0170139074325562,-2.0157187620746058
1708443498.647584,-2.14144229888916,-1.3335233193686982,-2.526494805012838,6.109715688019552,1.017008662223816,-2.0156996885882776
1708443498.649575,-2.1414921283721924,-1.3334955734065552,-2.526494805012838,6.109724509506979,1.0170173645019531,-2.0156076590167444
1708443498.6516273,-2.141515016555786,-1.333508388405182,-2.5265234152423304,6.109720098763265,1.0170501470565796,-2.0155580679522913
1708443498.653578,-2.1414921283721924,-1.3335155707648774,-2.5265067259417933,6.1098025915916345,1.0170458555221558,-2.015475098286764
1708443498.655579,-2.1414875984191895,-1.3335199517062684,-2.5265398661242884,6.1097450135047815,1.017008662223816,-2.0154150168048304
1708443498.6575866,-2.1414406299591064,-1.3334790629199524,-2.5265188852893274,6.109728801041403,1.0170379877090454,-2.015312973652975
1708443498.6595838,-2.1414921283721924,-1.3335114133409043,-2.526565138493673,6.109765994339742,1.0170248746871948,-2.015278164540426
1708443498.6615949,-2.1414875984191895,-1.3334912371686478,-2.5265188852893274,6.1097779152686975,1.0170501470565796,-2.015172783528463
1708443498.6635761,-2.1414830684661865,-1.3335126054337998,-2.5265560785876673,6.10973750331954,1.0169919729232788,-2.0151050726519983
1708443498.6656146,-2.1414573192596436,-1.3335242432406922,-2.5265024344073694,6.109709489136495,1.0170042514801025,-2.015052620564596
1708443498.6675854,-2.14151930809021,-1.3334831905416031,-2.526548687611715,6.109692799835958,1.0170173645019531,-2.0149906317340296
1708443498.6695979,-2.1414990425109863,-1.3334180575660248,-2.5265679995166224,6.109725701599874,1.0170327425003052,-2.014869038258688
1708443498.671589,-2.141496419906616,-1.333568812613823,-2.5265188852893274,6.109648334770956,1.0169878005981445,-2.014778439198629
1708443498.6735842,-2.141479730606079,-1.333504081969597,-2.5265279451953333,6.109632122307577,1.0170248746871948,-2.014712635670797
1708443498.6755931,-2.1414380073547363,-1.3335233342698594,-2.5265265146838587,6.109621393471517,1.0170742273330688,-2.0146029631244105
1708443498.6775732,-2.1414663791656494,-1.3334912371686478,-2.5265725294696253,6.109592783242025,1.0170414447784424,-2.0145562330829065
1708443498.6795979,-2.14145827293396,-1.3335285496762772,-2.5265472571002405,6.109573352127828,1.017048954963684,-2.0144880453692835
1708443498.6816063,-2.141500949859619,-1.3334997308305283,-2.5265725294696253,6.1095852730567834,1.0170612335205078,-2.0143759886371058
1708443498.6836114,-2.1414875984191895,-1.333491863017418,-2.5265308062182825,6.109520184784689,1.017068862915039,-2.0142419973956507
1708443498.6856399,-2.141496419906616,-1.3334918779185791,-2.5265353361712855,6.1095290062721155,1.0171055793762207,-2.0141409079181116
1708443498.6876652,-2.1414990425109863,-1.3334832352450867,-2.5265188852893274,6.109540450363912,1.017129898071289,-2.0140941778766077
1708443498.6896489,-2.141484022140503,-1.3334961098483582,-2.5265472571002405,6.109513509064474,1.0171136856079102,-2.014014546071188
1708443498.6916008,-2.141484022140503,-1.3334594827941437,-2.5265591780291956,6.109557854920187,1.0171375274658203,-2.0138729254352015
1708443498.6936007,-2.141467332839966,-1.3334508401206513,-2.5265472571002405,6.109553563385763,1.017128825187683,-2.013843361531393
1708443498.6956043,-2.141446828842163,-1.3334997308305283,-2.5265517870532435,6.1095090983207605,1.017166018486023,-2.0137208143817347
1708443498.69761,-2.141449451446533,-1.333458588724472,-2.5265546480761927,6.109550702362814,1.0171746015548706,-2.01359206834902
1708443498.699578,-2.141435384750366,-1.3334876012853165,-2.5265398661242884,6.109452473908224,1.0171691179275513,-2.0135706106769007
1708443498.7016392,-2.141475200653076,-1.333511398439743,-2.5265262762652796,6.109530913620748,1.0171778202056885,-2.0134008566485804
1708443498.7036042,-2.1414425373077393,-1.333474726682045,-2.5265923182116907,6.109464752465048,1.017194390296936,-2.0132954756366175
1708443498.705638,-2.141462802886963,-1.3335242581418534,-2.526533905659811,6.1094984886939905,1.0172019004821777,-2.013200585042135
1708443498.707605,-2.1414096355438232,-1.333523304467537,-2.5265501181231897,6.109474289208212,1.017181396484375,-2.013045612965719
1708443498.7096446,-2.141414165496826,-1.3335190427354355,-2.5265710989581507,6.1094655869300745,1.0172141790390015,-2.0129626433001917
1708443498.7116377,-2.141401767730713,-1.333515540962555,-2.5266087690936487,6.109409200936117,1.017209768295288,-2.012850586568014
1708443498.713618,-2.1414647102355957,-1.3334918481162568,-2.52661639848818,6.1094257710273645,1.0172785520553589,-2.0126941839801233
1708443498.7156343,-2.141368865966797,-1.3335083735040207,-2.526578728352682,6.1093917963798425,1.0172576904296875,-2.012623135243551
1708443498.7176223,-2.141427516937256,-1.3334507805160065,-2.526548687611715,6.109443175583639,1.0172860622406006,-2.0124481360064905
1708443498.7196002,-2.141385793685913,-1.3335083735040207,-2.526590887700216,6.109482991486349,1.0172698497772217,-2.0123661200152796
1708443498.721668,-2.1414105892181396,-1.3334997457316895,-2.5266104380237024,6.10938976982192,1.0172817707061768,-2.0122621695147913
1708443498.7236078,-2.1414151191711426,-1.3334628653577347,-2.5266476313220423,6.10937665680007,1.0173134803771973,-2.0120800177203577
1708443498.7256124,-2.1414127349853516,-1.3335083586028595,-2.5266266504870813,6.10938976982192,1.017317771911621,-2.011974636708395
1708443498.7275903,-2.1414287090301514,-1.333455206160881,-2.5266552607165735,6.109443175583639,1.017333984375,-2.0118559042560022
1708443498.7295973,-2.1414036750793457,-1.333515615468361,-2.5266178289996546,6.109390604286947,1.0173509120941162,-2.011735264454977
1708443498.7316036,-2.1413912773132324,-1.333446667795517,-2.5266760031329554,6.109337436943807,1.0173540115356445,-2.0116198698626917
1708443498.7335904,-2.1414363384246826,-1.3334875863841553,-2.5266626516925257,6.109353768616476,1.017383337020874,-2.011454407368795
1708443498.73561,-2.1414127349853516,-1.3334790480187912,-2.526646439229147,6.109411465912618,1.0173616409301758,-2.011343304310934
1708443498.737614,-2.1414082050323486,-1.3334756654552002,-2.526658360158102,6.109386193543234,1.017398715019226,-2.0111759344684046
1708443498.7396295,-2.1414036750793457,-1.3334842038205643,-2.5266717115985315,6.109329569130697,1.0174106359481812,-2.0110767523394983
1708443498.741634,-2.1413514614105225,-1.3335003864816208,-2.5266626516925257,6.109369981079855,1.0174062252044678,-2.010944191609518
1708443498.7435987,-2.1413378715515137,-1.3335126352361222,-2.526712242756979,6.109379756241598,1.0174262523651123,-2.0107577482806605
1708443498.7456112,-2.1413674354553223,-1.3334628653577347,-2.5266881624804896,6.109440791397848,1.0174262523651123,-2.0106800238238733
1708443498.747624,-2.141317844390869,-1.333446667795517,-2.526707712803976,6.1093177674110315,1.0174468755722046,-2.0105069319354456
1708443498.7496035,-2.141404628753662,-1.3334756654552002,-2.526691261922018,6.109338271408834,1.0174577236175537,-2.010345760975973
1708443498.7516105,-2.1413471698760986,-1.3334714037230988,-2.5267000834094446,6.109301793366232,1.0174176692962646,-2.0102227369891565
1708443498.7536085,-2.1413018703460693,-1.3335688573173066,-2.526724163685934,6.109329569130697,1.0174620151519775,-2.010085407887594
1708443498.7556093,-2.141310930252075,-1.3335114282420655,-2.526653830205099,6.109313356667318,1.0175113677978516,-2.009993378316061
1708443498.7575831,-2.141339063644409,-1.3334875863841553,-2.526724163685934,6.109297382622518,1.017432689666748,-2.0098326841937464
1708443498.759589,-2.141376256942749,-1.333504096870758,-2.5267120043383997,6.109277474671163,1.017498254776001,-2.009730641041891
1708443498.7616425,-2.141298294067383,-1.3334637445262452,-2.526719633732931,6.109343755036154,1.017486333847046,-2.0095861593829554
1708443498.7636,-2.141326665878296,-1.333527610903122,-2.526715103779928,6.109310376435079,1.0174939632415771,-2.009454075490133
1708443498.7656376,-2.141352415084839,-1.3334832352450867,-2.526736084614889,6.109277474671163,1.0175342559814453,-2.0092909971820276
1708443498.767589,-2.141315221786499,-1.333483250146248,-2.5267558733569544,6.109310376435079,1.0175793170928955,-2.009134594594137
1708443498.76959,-2.1413028240203857,-1.3334875863841553,-2.526748005543844,6.109220969467916,1.0175093412399292,-2.0090325514422815
1708443498.7716277,-2.1413028240203857,-1.333524228339531,-2.5267632643329065,6.10928629615859,1.0176030397415161,-2.0088794867144983
1708443498.7735777,-2.1412746906280518,-1.3334747862866898,-2.5267677942859095,6.109277593880453,1.01760733127594,-2.0087302366839808
1708443498.775594,-2.1412949562072754,-1.3334756654552002,-2.5267871061908167,6.10925708988265,1.0176314115524292,-2.008566204701559
1708443498.7775981,-2.1412858963012695,-1.3334832352450867,-2.5268078486071985,6.109249341278829,1.0175977945327759,-2.0084126631366175
1708443498.77961,-2.1413028240203857,-1.3334875863841553,-2.526815954838888,6.109290587693014,1.017622709274292,-2.0082533995257776
1708443498.7816029,-2.1412880420684814,-1.3335114282420655,-2.526839796696798,6.109277474671163,1.0176140069961548,-2.008113209401266
1708443498.783574,-2.1412949562072754,-1.333536149268486,-2.526802364979879,6.1093071577842615,1.0176262855529785,-2.0079243818866175
1708443498.7855914,-2.1412551403045654,-1.333467037682869,-2.526835266743795,6.109320270806112,1.017638087272644,-2.007763210927145
1708443498.7875812,-2.141242742538452,-1.333434672360756,-2.526827875767843,6.109294998436727,1.0176546573638916,-2.0076115767108362
1708443498.789578,-2.1412642002105713,-1.333536149268486,-2.52686053911318,6.109249341278829,1.0176870822906494,-2.0074666182147425
1708443498.7915862,-2.1412596702575684,-1.3335361641696473,-2.5268755594836634,6.109298455506124,1.0177028179168701,-2.0073068777667444
1708443498.793572,-2.1412179470062256,-1.3334628653577347,-2.5268664995776575,6.10932348945693,1.017735242843628,-2.007134262715475
1708443498.795581,-2.141247272491455,-1.333488554959633,-2.526907269154684,6.109277593880453,1.017730951309204,-2.0069521109210413
1708443498.7975738,-2.141235828399658,-1.3334714037230988,-2.5268710295306605,6.109270083695211,1.0177428722381592,-2.0067747274981897
1708443498.799571,-2.1412065029144287,-1.3334637445262452,-2.5269535223590296,6.109283077507772,1.0177298784255981,-2.00663930574526
1708443498.8015766,-2.1412198543548584,-1.3335168969682236,-2.5268622080432337,6.109274375229635,1.0177792310714722,-2.0064590612994593
1708443498.8035715,-2.1412243843078613,-1.3334424060634156,-2.526881519948141,6.109296071320333,1.017815113067627,-2.0063565413104456
1708443498.8055968,-2.1412041187286377,-1.3334637445262452,-2.5268786589251917,6.1092450497444055,1.017827033996582,-2.006120506917135
1708443498.807602,-2.1412155628204346,-1.333467037682869,-2.526914660130636,6.109241831093588,1.0178183317184448,-2.0059941450702112
1708443498.8096235,-2.14125394821167,-1.3334799271873017,-2.526952091847555,6.109287488251486,1.0178838968276978,-2.005833450947897
1708443498.8116198,-2.141195058822632,-1.3335603189519425,-2.526947561894552,6.109287488251486,1.0178589820861816,-2.005652729664938
1708443498.8135903,-2.1412289142608643,-1.333467037682869,-2.5270002524005335,6.109266745835104,1.0179316997528076,-2.005505386983053
1708443498.8156197,-2.1411995887756348,-1.333467037682869,-2.5269792715655726,6.109261262207784,1.017956256866455,-2.0053370634662073
1708443498.817589,-2.1412041187286377,-1.333455206160881,-2.5270076433764856,6.109306204109945,1.0179388523101807,-2.0052011648761194
1708443498.8195708,-2.141192674636841,-1.333504096870758,-2.5270031134234827,6.109220969467916,1.0179344415664673,-2.0049694220172327
1708443498.8216407,-2.1412174701690674,-1.333455206160881,-2.527073685322897,6.109307276993551,1.0179835557937622,-2.004835907612936
1708443498.8236275,-2.1411972045898438,-1.3335199666074296,-2.5270305315600794,6.109265672951498,1.0180119276046753,-2.004612747822897
1708443498.8256114,-2.1411848068237305,-1.333507166509964,-2.527109448109762,6.109290587693014,1.0180197954177856,-2.004474465047018
1708443498.827631,-2.1411430835723877,-1.333515615468361,-2.5270631949054163,6.109258162766256,1.0180153846740723,-2.0043180624591272
1708443498.8295944,-2.1411314010620117,-1.3335352700999756,-2.5271244684802454,6.1093037007148645,1.0180842876434326,-2.0041073004352015
1708443498.8316345,-2.1411359310150146,-1.3334875863841553,-2.527090136204855,6.109258162766256,1.0180798768997192,-2.0039313475238245
1708443498.833603,-2.1411564350128174,-1.3334747415832062,-2.527090136204855,6.109290587693014,1.018112301826477,-2.003763500844137
1708443498.835669,-2.141118049621582,-1.3334670227817078,-2.5271111170398157,6.109298455506124,1.0181158781051636,-2.003617588673727
1708443498.8376093,-2.141120195388794,-1.3334475618651886,-2.527155939732687,6.109307276993551,1.0181145668029785,-2.003394428883688
1708443498.8395908,-2.1410953998565674,-1.3334832352450867,-2.527159039174215,6.1092450497444055,1.0181474685668945,-2.003214184437887
1708443498.8415902,-2.141104221343994,-1.3334918481162568,-2.5272086302386683,6.1093037007148645,1.0181913375854492,-2.0030248800860804
1708443498.8435786,-2.141131639480591,-1.3334019643119355,-2.5271876494037073,6.109273302346029,1.018273115158081,-2.0028532187091272
1708443498.8455837,-2.1410839557647705,-1.3335083288005372,-2.527198378239767,6.1093190787132166,1.018248200416565,-2.0026543776141565
1708443498.847578,-2.141108512878418,-1.3335083735040207,-2.5271907488452356,6.109249341278829,1.0183050632476807,-2.0024874846087855
1708443498.8495705,-2.1410317420959473,-1.3334790480187912,-2.527226511632101,6.1093190787132166,1.01829195022583,-2.0023449102984827
1708443498.8516052,-2.14103627204895,-1.3334705096534272,-2.5272236506091517,6.10923312881545,1.0183289051055908,-2.002129856740133
1708443498.8535943,-2.141075849533081,-1.3335199666074296,-2.527280632649557,6.109322058945455,1.018372654914856,-2.00195819536318
1708443498.8558528,-2.141036033630371,-1.3334985387376328,-2.5272584597217005,6.109249341278829,1.0184054374694824,-2.001810852681295
1708443498.8576193,-2.1410937309265137,-1.3335317981294175,-2.5272956530200403,6.109273302346029,1.018363118171692,-2.0016539732562464
1708443498.8595822,-2.141045093536377,-1.3335114282420655,-2.5272777716266077,6.10928629615859,1.018465518951416,-2.0013907591449183
1708443498.8616154,-2.141056537628174,-1.3334747862866898,-2.5273149649249476,6.109336483269491,1.0184687376022339,-2.0012572447406214
1708443498.8635955,-2.1410226821899414,-1.333446667795517,-2.5273643175708216,6.109302866249838,1.0185047388076782,-2.0010598341571253
1708443498.8656137,-2.1410655975341797,-1.3335523468307038,-2.527379576359884,6.109278666764059,1.0185322761535645,-2.0008958021747034
1708443498.8676114,-2.140997886657715,-1.333530918960907,-2.5273991266833704,6.109302866249838,1.0185726881027222,-2.0007107893573206
1708443498.8695846,-2.1410202980041504,-1.3335317981294175,-2.5274065176593226,6.10923324802474,1.0185561180114746,-2.0005348364459437
1708443498.8716493,-2.1410586833953857,-1.3334832352450867,-2.5274439493762415,6.109302866249838,1.0186002254486084,-2.0003817717181605
1708443498.8736076,-2.1409783363342285,-1.3334912967732926,-2.5274933020221155,6.1092941639717,1.0186402797698975,-2.0001848379718226
1708443498.8756273,-2.1410248279571533,-1.3335317981294175,-2.5275006929980677,6.109285580902853,1.0186808109283447,-2.000004593526022
1708443498.8776197,-2.141038179397583,-1.3335028898767014,-2.527532402669088,6.10928629615859,1.018688440322876,-1.9998615423785608
1708443498.8795977,-2.140968084335327,-1.3334912967732926,-2.5274997393237513,6.109302866249838,1.0187582969665527,-1.999643627797262
1708443498.881644,-2.1409752368927,-1.3334912967732926,-2.5275309721576136,6.109240877419271,1.0187811851501465,-1.999446217213766
1708443498.8836205,-2.14098858833313,-1.333467037682869,-2.527522150670187,6.10923312881545,1.018800973892212,-1.9992998282061976
1708443498.8856108,-2.1409928798675537,-1.333547980790474,-2.527534071599142,6.109330642014303,1.0188207626342773,-1.9991033712970179
1708443498.8876011,-2.140961170196533,-1.333467037682869,-2.5276029745685022,6.109261262207784,1.0188772678375244,-1.9988883177386683
1708443498.8896134,-2.140970230102539,-1.3334912967732926,-2.52759558359255,6.109335052758016,1.018925428390503,-1.998737637196676
1708443498.8916187,-2.140974760055542,-1.3334997457316895,-2.5276270548449915,6.109261262207784,1.018970251083374,-1.9985554854022425
1708443498.8935974,-2.1408913135528564,-1.3335190874389191,-2.5276837984668177,6.109261262207784,1.0189976692199707,-1.9984591642962855
1708443498.895622,-2.1409080028533936,-1.3335317981294175,-2.527658526097433,6.109290587693014,1.0190503597259521,-1.9982531706439417
1708443498.897594,-2.1409125328063965,-1.3335190874389191,-2.527703348790304,6.1093060849006555,1.019041657447815,-1.9980095068561
1708443498.8995905,-2.1408727169036865,-1.3334542673877259,-2.527682367955343,6.10940037944869,1.0190937519073486,-1.9978144804583948
1708443498.9016206,-2.1408557891845703,-1.333527610903122,-2.5277438799487513,6.109343635826864,1.019134521484375,-1.9977324644671839
1708443498.9035764,-2.1408727169036865,-1.3335233491710206,-2.52773362794985,6.109313356667318,1.019194483757019,-1.9975069204913538
1708443498.9055946,-2.1408681869506836,-1.333458588724472,-2.527787510548727,6.109322058945455,1.0192229747772217,-1.99730092683901
1708443498.9076378,-2.140810489654541,-1.3335114282420655,-2.527778450642721,6.109338271408834,1.019274353981018,-1.9971235434161585
1708443498.9095883,-2.140845537185669,-1.3334705096534272,-2.527807060872213,6.10933397987441,1.0192941427230835,-1.9969642798053187
1708443498.91162,-2.140878438949585,-1.3335114282420655,-2.5278638044940394,6.109409081726827,1.0193467140197754,-1.9968245665179651
1708443498.91363,-2.140819549560547,-1.3334985089353104,-2.527858082448141,6.109391557961263,1.0193945169448853,-1.9966767469989222
1708443498.9157865,-2.140819787979126,-1.3335233491710206,-2.527879063283102,6.109248268395223,1.0194264650344849,-1.996441666279928
1708443498.917602,-2.1408071517944336,-1.3334997457316895,-2.527874533330099,6.109261262207784,1.0194919109344482,-1.9962990919696253
1708443498.9195733,-2.1408162117004395,-1.3334997457316895,-2.527944628392355,6.10937117317275,1.0195635557174683,-1.9961188475238245
1708443498.9216163,-2.1408047676086426,-1.3335114282420655,-2.52796441713442,6.10937117317275,1.0195631980895996,-1.995925251637594
1708443498.9236186,-2.1408047676086426,-1.3335233491710206,-2.52796441713442,6.109395968704977,1.019643783569336,-1.9957488218890589
1708443498.9256203,-2.1408464908599854,-1.333543823366501,-2.5279422442065638,6.109326350479879,1.0196470022201538,-1.9955561796771448
1708443498.9275906,-2.1407899856567383,-1.3335147213986893,-2.5279584566699427,6.109341847687521,1.0196785926818848,-1.9954655806170862
1708443498.9295728,-2.140763998031616,-1.3335190874389191,-2.527998749409811,6.109325277596273,1.0197031497955322,-1.9952600638019007
1708443498.9316435,-2.1407763957977295,-1.333515615468361,-2.528027359639303,6.109322058945455,1.019791603088379,-1.9951255957232874
1708443498.9336,-2.1407434940338135,-1.3335233491710206,-2.528055731450216,6.109337436943807,1.0198066234588623,-1.9948614279376429
1708443498.9356353,-2.1407854557037354,-1.3334912967732926,-2.5280423800097864,6.10938190200881,1.0198918581008911,-1.9947136084186
1708443498.937594,-2.140740156173706,-1.333495558505394,-2.5281127134906214,6.109369981079855,1.019944429397583,-1.9945362249957483
1708443498.9396212,-2.140744686126709,-1.3335798245719452,-2.5281322638141077,6.109378683357992,1.019976019859314,-1.9943931738482874
1708443498.9416232,-2.140716314315796,-1.3335190874389191,-2.528184954320089,6.109350549965658,1.0199915170669556,-1.9942415396319788
1708443498.9436586,-2.1407909393310547,-1.333539531832077,-2.528147284184591,6.109386193543234,1.0200273990631104,-1.994077507649557
1708443498.9455924,-2.140704870223999,-1.3335266423276444,-2.5281835238086146,6.109398472100057,1.0200262069702148,-1.9938681761371058
1708443498.9475882,-2.1406960487365723,-1.3336049926332016,-2.5281744639026087,6.109415876656332,1.0201116800308228,-1.993683163319723
1708443498.9495811,-2.1407277584075928,-1.333579809670784,-2.528231207524435,6.109343874245443,1.0201566219329834,-1.9935105482684534
1708443498.951598,-2.140700340270996,-1.33356365681205,-2.528247658406393,6.1094257710273645,1.020208716392517,-1.9933751265155237
1708443498.9535785,-2.1407454013824463,-1.3335147064975281,-2.5282629171954554,6.109434473305502,1.0202199220657349,-1.9932063261615198
1708443498.9556162,-2.1406891345977783,-1.3335345101407547,-2.5283077398883265,6.10946677902297,1.0202720165252686,-1.993000332509176
1708443498.9575865,-2.140709400177002,-1.3335834306529541,-2.5282660166369837,6.1094655869300745,1.02032470703125,-1.9928577581988733
1708443498.9595926,-2.1406900882720947,-1.3335910749486466,-2.528334919606344,6.109498369484701,1.0203605890274048,-1.992676083241598
1708443498.9615934,-2.1406617164611816,-1.3336030852845688,-2.528358761464254,6.1094655869300745,1.0203925371170044,-1.9924996534930628
1708443498.9636629,-2.1406280994415283,-1.3336797219565888,-2.5284083525287073,6.109482157021322,1.020400047302246,-1.992359463368551
1708443498.9656262,-2.140632390975952,-1.3336635094932099,-2.5284395853625696,6.109526502877035,1.0204644203186035,-1.992237393056051
1708443498.9675941,-2.1406121253967285,-1.3336747598699112,-2.5284114519702356,6.109486448555746,1.0204929113388062,-1.9920061270343226
1708443498.9695945,-2.140658140182495,-1.333720089202263,-2.5284891764270228,6.1094481823738,1.0205042362213135,-1.991877857838766
1708443498.9716165,-2.140641450881958,-1.3336943250945588,-2.5284579435931605,6.109505879669943,1.0205411911010742,-1.9916651884662073
1708443498.973592,-2.140601634979248,-1.3336738359979172,-2.5284579435931605,6.109502780228414,1.0205442905426025,-1.9915459791766565
1708443498.9755964,-2.140597105026245,-1.3337233525565644,-2.5285280386554163,6.109433042794027,1.0206090211868286,-1.9913814703570765
1708443498.9775834,-2.140571355819702,-1.3337309819510956,-2.5285611788379114,6.109456884651937,1.0206658840179443,-1.9912493864642542
1708443498.9795787,-2.1406095027923584,-1.3337591153434296,-2.5285266081439417,6.10948537567214,1.020676612854004,-1.9910643736468714
1708443498.9816043,-2.140575885772705,-1.333754838710167,-2.5285311380969446,6.109505879669943,1.0207332372665405,-1.9909003416644495
1708443498.983587,-2.140634536743164,-1.333762751226761,-2.5285208860980433,6.1094939587409876,1.020728349685669,-1.990739647542135
1708443498.9856005,-2.140610694885254,-1.3337505620769043,-2.528517786656515,6.1095430729682825,1.020796775817871,-1.9905713240252894
1708443498.9875908,-2.140625476837158,-1.3337548089078446,-2.528546396886007,6.109489667206564,1.0208208560943604,-1.990413014088766
1708443498.9895957,-2.1406502723693848,-1.3337918680957337,-2.528579298649923,6.1094984886939905,1.0208121538162231,-1.990216080342428
1708443498.991606,-2.1406209468841553,-1.3337908250144501,-2.5285494963275355,6.109436261444845,1.020909309387207,-1.9900973478900355
1708443498.993614,-2.1405882835388184,-1.3337300431779404,-2.5286150614367884,6.109473454743185,1.0209050178527832,-1.989910904561178
1708443498.9956198,-2.1406185626983643,-1.33370956898246,-2.5285895506488245,6.109497296601095,1.0209215879440308,-1.9898174444781702
1708443498.9975927,-2.1406185626983643,-1.3337461960366745,-2.5286527315722864,6.109504806786337,1.020927906036377,-1.9895833174334925
1708443498.9995806,-2.1405892372131348,-1.3337541830590744,-2.528634850178854,6.109504806786337,1.0209698677062988,-1.9894550482379358
1708443499.0016143,-2.140592575073242,-1.3337865632823487,-2.5286229292498987,6.10951708534316,1.0210133790969849,-1.9892986456500452
1708443499.0035777,-2.140625476837158,-1.3337951016477128,-2.528609577809469,6.1095090983207605,1.0210089683532715,-1.9891675154315394
1708443499.0056224,-2.140584707260132,-1.3337865632823487,-2.5286646525012415,6.1095090983207605,1.0210211277008057,-1.9890111128436487
1708443499.0076017,-2.1406502723693848,-1.3337670874646683,-2.528646771107809,6.109544980316915,1.0210777521133423,-1.988903824483053
1708443499.0095975,-2.140551805496216,-1.3337703806212922,-2.5286393801318567,6.109565484314718,1.0210896730422974,-1.9887507597552698
1708443499.011624,-2.1405937671661377,-1.3337376725724717,-2.528642241154806,6.109576451569357,1.0210647583007812,-1.988544766102926
1708443499.0135884,-2.140622854232788,-1.3337822717479249,-2.528658692036764,6.10958098152236,1.0211141109466553,-1.9884093443499964
1708443499.0156083,-2.1405866146087646,-1.3337541681579133,-2.528621498738424,6.109560239105978,1.021134614944458,-1.9882438818561
1708443499.0175848,-2.140577793121338,-1.333758459692337,-2.528658692036764,6.1096181748206995,1.0210933685302734,-1.988105599080221
1708443499.0195785,-2.1405892372131348,-1.3337917935899277,-2.528675142918722,6.109616982727804,1.0210764408111572,-1.9879191557513636
1708443499.0216682,-2.1405937671661377,-1.3337994527867814,-2.528670612965719,6.109670030861654,1.0211095809936523,-1.9878032843219202
1708443499.0236435,-2.1405892372131348,-1.3338149946979065,-2.528670612965719,6.109661328583517,1.021069049835205,-1.9876964727984827
1708443499.0255945,-2.1405394077301025,-1.3337951016477128,-2.528637949620382,6.109633195191183,1.0210978984832764,-1.987540070210592
1708443499.027582,-2.140638828277588,-1.33370956898246,-2.528663221989767,6.109640824585714,1.021069049835205,-1.9873984495746058
1708443499.029596,-2.140577793121338,-1.3338321459344407,-2.528670612965719,6.109661328583517,1.0210516452789307,-1.9872468153582972
1708443499.031632,-2.140577793121338,-1.3337865632823487,-2.528666083012716,6.109673249512472,1.021085262298584,-1.9870737234698694
1708443499.033587,-2.14062762260437,-1.3337627214244385,-2.528637949620382,6.109680878907003,1.0210933685302734,-1.9869158903705042
1708443499.0356226,-2.140634298324585,-1.3337214899114151,-2.528663221989767,6.109667765885153,1.0211095809936523,-1.9867685476886194
1708443499.037602,-2.1405892372131348,-1.3337703359178086,-2.528666083012716,6.109692799835958,1.0211052894592285,-1.986603085194723
1708443499.0395906,-2.140658140182495,-1.3337704104236145,-2.528687063847677,6.109709369927206,1.0210847854614258,-1.9865005652057093
1708443499.041608,-2.140630006790161,-1.3337951016477128,-2.528675142918722,6.109720098763265,1.0210809707641602,-1.9863188902484339
1708443499.043607,-2.1406185626983643,-1.333790810113289,-2.528675142918722,6.109793889313497,1.021085262298584,-1.9862239996539515
1708443499.0455787,-2.140625476837158,-1.3337461811355134,-2.528649870549337,6.109764802246847,1.0210658311843872,-1.9860437552081507
1708443499.047591,-2.140662670135498,-1.333741919403412,-2.5286675135241907,6.10975609996871,1.0210037231445312,-1.9859383741961878
1708443499.0495942,-2.1406095027923584,-1.3337779355100174,-2.528633419667379,6.109788405686178,1.02105712890625,-1.985774342213766
1708443499.0515978,-2.1405928134918213,-1.3337746423533936,-2.528654162083761,6.109785067826071,1.0210449695587158,-1.9855883757220667
1708443499.0536175,-2.140597105026245,-1.3337823015502472,-2.528651301060812,6.109735476761617,1.0210658311843872,-1.9854934851275843
1708443499.0555952,-2.140634298324585,-1.3338112843087693,-2.528646771107809,6.109809386521139,1.0210089683532715,-1.9853084723102015
1708443499.057635,-2.1405928134918213,-1.3337371212295075,-2.5286839644061487,6.109779584198751,1.0210211277008057,-1.9852340857135218
1708443499.0595915,-2.140625476837158,-1.3337627214244385,-2.528691355382101,6.10984097698287,1.0210089683532715,-1.9850719610797327
1708443499.0615995,-2.140625476837158,-1.333758444791176,-2.528630320225851,6.109800565033712,1.0209805965423584,-1.9849079290973108
1708443499.063598,-2.1406209468841553,-1.3337898415378113,-2.5286274592029017,6.109857308655538,1.0209934711456299,-1.9847338835345667
1708443499.0655825,-2.1406502723693848,-1.3337865632823487,-2.5286439100848597,6.1098822233970544,1.0209567546844482,-1.984598461781637
1708443499.0676475,-2.1406502723693848,-1.3337661039880295,-2.528630320225851,6.1098646996314905,1.0209497213363647,-1.9845150152789515
1708443499.069609,-2.140597105026245,-1.3337462109378357,-2.5285688082324427,6.109860408097067,1.0209453105926514,-1.9843710104571741
1708443499.0716074,-2.1406538486480713,-1.3337053221515198,-2.5285866896258753,6.109872329026022,1.020880103111267,-1.9842384497271937
1708443499.0736163,-2.1406049728393555,-1.33370095611129,-2.52861196199526,6.109896170883932,1.0208232402801514,-1.9841273466693323
1708443499.075601,-2.1406493186950684,-1.3337908399156113,-2.528529946004049,6.109933006554403,1.0208406448364258,-1.983940903340475
1708443499.0776021,-2.1406404972076416,-1.3337746423533936,-2.5285220781909388,6.109954106598654,1.0208287239074707,-1.9838250319110315
1708443499.0795789,-2.1406402587890625,-1.333795116548874,-2.528480354939596,6.109935390740194,1.0208003520965576,-1.983692471181051
1708443499.0816274,-2.1406617164611816,-1.3337214303067704,-2.5285101572619837,6.109980094223776,1.0208090543746948,-1.9835122267352503
1708443499.0835893,-2.1406946182250977,-1.3337908399156113,-2.5285146872149866,6.109993207245626,1.0207477807998657,-1.98340350786318
1708443499.0855966,-2.1406900882720947,-1.3337994825891037,-2.5284953753100794,6.110021102219381,1.0207445621490479,-1.9832714239703577
1708443499.0875945,-2.1406900882720947,-1.3337951016477128,-2.5284128824817103,6.110020267754354,1.0206712484359741,-1.983143154774801
1708443499.0895982,-2.140707015991211,-1.3337333512357255,-2.5284457842456263,6.11003206947402,1.0206928253173828,-1.9829705397235315
1708443499.0915797,-2.140713691711426,-1.333807037477829,-2.528442684804098,6.109990584641256,1.02064847946167,-1.9828460852252405
1708443499.09359,-2.1407227516174316,-1.333778904085495,-2.52847129503359,6.110076892166891,1.0205873250961304,-1.9826810995685022
1708443499.0955849,-2.140713691711426,-1.3337789189866562,-2.528418842946188,6.11005591133193,1.020564079284668,-1.9825313727008265
1708443499.097588,-2.140716314315796,-1.3337627214244385,-2.5283950010882776,6.110030877381124,1.0205399990081787,-1.9824932257281702
1708443499.099612,-2.140786647796631,-1.3337627214244385,-2.5283995310412806,6.110075700073995,1.0204582214355469,-1.982328240071432
1708443499.1016026,-2.140777587890625,-1.3338113290122529,-2.528342310582296,6.11006377914504,1.0204222202301025,-1.9822447935687464
1708443499.1035674,-2.1407899856567383,-1.333770365720131,-2.528372112904684,6.110075700073995,1.0203783512115479,-1.98212176958193
1708443499.1056457,-2.1408021450042725,-1.3337865632823487,-2.52826434770693,6.110068189888754,1.020387053489685,-1.981943432484762
1708443499.1076221,-2.1408069133758545,-1.333795116548874,-2.5282822291003626,6.110047209053793,1.0203139781951904,-1.9818437735186976
1708443499.1096032,-2.1408207416534424,-1.3338027757457276,-2.5282583872424524,6.110100734024801,1.0202909708023071,-1.981711212788717
1708443499.111651,-2.1407933235168457,-1.3337617230466385,-2.5282419363604944,6.1100714085395715,1.020275354385376,-1.9815328756915491
1708443499.1136909,-2.1408207416534424,-1.3337865632823487,-2.5282703081714075,6.110062706261434,1.0202112197875977,-1.9814494291888636
1708443499.1156137,-2.140825033187866,-1.3337908399156113,-2.528214756642477,6.110078918724813,1.0201337337493896,-1.9813411871539515
1708443499.1175928,-2.140836477279663,-1.333789811735489,-2.528210226689474,6.110095250397482,1.0201306343078613,-1.9811881224261683
1708443499.119603,-2.1408274173736572,-1.3337498766234894,-2.528198305760519,6.110164630204,1.0201029777526855,-1.9811137358294886
1708443499.1216023,-2.140895128250122,-1.3337746423533936,-2.5281336943255823,6.110126483231344,1.0200144052505493,-1.9810131231891077
1708443499.1235852,-2.14081072807312,-1.3337703806212922,-2.528142754231588,6.110139596253195,1.0199739933013916,-1.9808524290667933
1708443499.1256227,-2.1408886909484863,-1.3337214303067704,-2.5281501452075403,6.110167014389791,1.0199705362319946,-1.980748478566305
1708443499.1275828,-2.1408886909484863,-1.3337865483811875,-2.528114382420675,6.110196339875021,1.0198974609375,-1.9806283156024378
1708443499.1296024,-2.140904664993286,-1.3337994825891037,-2.528111521397726,6.11012219169692,1.0198907852172852,-1.9804943243609827
1708443499.131626,-2.1409623622894287,-1.3337875616601487,-2.5280917326556605,6.110195386200704,1.0198054313659668,-1.9803784529315394
1708443499.1335895,-2.1409125328063965,-1.333741919403412,-2.5280380884753626,6.110211598664083,1.0197904109954834,-1.9802458922015589
1708443499.1356015,-2.1409080028533936,-1.333795116548874,-2.528010908757345,6.110243785172262,1.0197422504425049,-1.980117146168844
1708443499.137593,-2.140920400619507,-1.333741919403412,-2.5280242601977747,6.110211717873373,1.019646167755127,-1.9800146261798304
1708443499.1395938,-2.140911340713501,-1.3337746423533936,-2.5280032793628138,6.110260474472799,1.0195980072021484,-1.9799016157733362
1708443499.1416197,-2.140961170196533,-1.333783285026886,-2.527937714253561,6.110210168152609,1.0195457935333252,-1.979781452809469
1708443499.1435993,-2.140961170196533,-1.3337461960366745,-2.52794319788088,6.110218989640035,1.0195225477218628,-1.9796612898456019
1708443499.1456242,-2.14094877243042,-1.3337756109288712,-2.527910296116964,6.110291826515951,1.0194165706634521,-1.9795196692096155
1708443499.1476173,-2.1409752368927,-1.3337505620769043,-2.5278802553759974,6.110243069916525,1.0193727016448975,-1.9794324080096644
1708443499.1496184,-2.1409616470336914,-1.333718166952469,-2.5278263727771204,6.110266911774435,1.019329309463501,-1.9793732802020472
