Eg3-git/Classifiers/Data Collection/u1/u1abc1_ur3e_joint_states.csv
time,elbow_joint,shoulder_lift_joint,shoulder_pan_joint,wrist_1_joint,wrist_2_joint,wrist_3_joint
1708433246.4055562,-2.150355339050293,-1.3354596507600327,-2.5245359579669397,6.129689204483785,1.0133941173553467,-2.970776383076803
1708433246.4075873,-2.150271415710449,-1.3354562681964417,-2.5246134440051478,6.129549252777853,1.013397216796875,-2.970731560383932
1708433246.4095643,-2.1502206325531006,-1.3353958886912842,-2.5246570746051233,6.129341590195455,1.013486623764038,-2.970743719731466
1708433246.4115973,-2.1501522064208984,-1.3354324263385315,-2.5246198813067835,6.12912009933547,1.0135438442230225,-2.970696989689962
1708433246.4135573,-2.1500284671783447,-1.3353763085654755,-2.5246649424182337,6.129005658417501,1.0135502815246582,-2.970651690159933
1708433246.4155588,-2.1499385833740234,-1.335381032233574,-2.524696652089254,6.128829705506124,1.013619065284729,-2.970639769230978
1708433246.4175715,-2.1498634815216064,-1.3353810471347352,-2.5246921221362513,6.128637659340658,1.013688087463379,-2.9706319014178675
1708433246.41956,-2.1498332023620605,-1.3353445392898102,-2.5246997515307825,6.1284546730811975,1.013711929321289,-2.970600668584005
1708433246.4215736,-2.149733543395996,-1.3352883619121094,-2.524731461201803,6.128331410675802,1.01377534866333,-2.970510546361105
1708433246.4235985,-2.1496450901031494,-1.3353495311788102,-2.5247519651996058,6.1280943033988855,1.0138354301452637,-2.970557514821188
1708433246.4256413,-2.1495726108551025,-1.3353058260730286,-2.524817768727438,6.127979743271627,1.0138968229293823,-2.9704929033862513
1708433246.4276514,-2.149484395980835,-1.3352812093547364,-2.5248001257525843,6.127823817520895,1.0139446258544922,-2.970423761998312
1708433246.429618,-2.1494295597076416,-1.3352608394673844,-2.5247958342181605,6.127623665123739,1.0139515399932861,-2.97040301958193
1708433246.4315932,-2.149338722229004,-1.3352205467275162,-2.5248566309558313,6.127476203232565,1.014028787612915,-2.9703999201404017
1708433246.433605,-2.1492416858673096,-1.3352939498475571,-2.5248435179339808,6.127292501717367,1.0140726566314697,-2.9703970591174524
1708433246.435578,-2.149141788482666,-1.3351813715747376,-2.5248635450946253,6.127133357315817,1.0141655206680298,-2.970360819493429
1708433246.4375906,-2.1490983963012695,-1.3352140200189133,-2.5248590151416224,6.126900541573324,1.014143705368042,-2.9703407923327845
1708433246.4395678,-2.1490302085876465,-1.3351609420827408,-2.5249365011798304,6.126749741822042,1.0142080783843994,-2.9702962080584925
1708433246.441577,-2.148963689804077,-1.3351770502379914,-2.524939839039938,6.126564729004659,1.0142978429794312,-2.970271889363424
1708433246.4435816,-2.148859739303589,-1.3351575446179886,-2.524939839039938,6.126385915070333,1.0143132209777832,-2.970210854207174
1708433246.4455903,-2.1487627029418945,-1.335141898398735,-2.5249787012683313,6.126157510071554,1.0143764019012451,-2.970219675694601
1708433246.4475849,-2.148712158203125,-1.335097686653473,-2.5250325838672083,6.1260119555290125,1.0144052505493164,-2.9701595942126673
1708433246.4496987,-2.1486196517944336,-1.3351223033717652,-2.525076929722921,6.125910150795736,1.0144530534744263,-2.9701150099383753
1708433246.45158,-2.1485111713409424,-1.3350370836308976,-2.525075976048605,6.125655758171835,1.0144803524017334,-2.970111910496847
1708433246.453563,-2.1484358310699463,-1.3350335967591782,-2.525059525166647,6.12550579288558,1.0145198106765747,-2.970137421284811
1708433246.455618,-2.1483519077301025,-1.335053102379181,-2.5251479784594935,6.125349867134847,1.0146300792694092,-2.9700847307788294
1708433246.4575593,-2.148252248764038,-1.3349882078221817,-2.525189463292257,6.125144469528951,1.014666199684143,-2.9700399080859583
1708433246.4595687,-2.1482176780700684,-1.3350950938514252,-2.5251765886889856,6.124955880432882,1.0146968364715576,-2.970037047063009
1708433246.4615839,-2.1481661796569824,-1.3350263696959992,-2.525207821522848,6.12483178356246,1.0147209167480469,-2.9700282255755823
1708433246.4635832,-2.148087739944458,-1.3349975955537339,-2.525245014821188,6.124671447068014,1.0147690773010254,-2.9699674288379114
1708433246.4655774,-2.1479570865631104,-1.3350428205779572,-2.5252276102649134,6.124496090203085,1.014800786972046,-2.9700048605548304
1708433246.4675858,-2.1478536128997803,-1.33493027210746,-2.5252724329577845,6.124279129296102,1.014890193939209,-2.969945255910055
1708433246.4695878,-2.1478271484375,-1.33494225264106,-2.525332276021139,6.124109732895651,1.0149785280227661,-2.969874445592062
1708433246.4716094,-2.1477432250976562,-1.3349668246558686,-2.5253194014178675,6.123983847885885,1.015030026435852,-2.9698761145221155
1708433246.4735823,-2.1476478576660156,-1.334959254865982,-2.525389019642965,6.123766767769613,1.0150409936904907,-2.9698389212237757
1708433246.4756203,-2.1475465297698975,-1.3348662716201325,-2.525367323552267,6.123590218811788,1.0150935649871826,-2.9698568026172083
1708433246.4775906,-2.1474783420562744,-1.3349223893931885,-2.525399986897604,6.123443233757772,1.0151220560073853,-2.969757858906881
1708433246.479563,-2.1473987102508545,-1.3348908585361023,-2.525447670613424,6.123357879906454,1.0151482820510864,-2.969759527836935
1708433246.4816031,-2.147331714630127,-1.3348381978324433,-2.5254808107959192,6.123169052391805,1.015213966369629,-2.9697848002063196
1708433246.4835966,-2.147247552871704,-1.3348866266063233,-2.5254345575915735,6.122973072319784,1.0152784585952759,-2.9697518984424036
1708433246.485647,-2.147151231765747,-1.334822566514351,-2.5255327860461634,6.122808086663046,1.0153306722640991,-2.9697185198413294
1708433246.487578,-2.1470720767974854,-1.334855170255043,-2.5255189577685755,6.122640478401937,1.0153745412826538,-2.9696503321277063
1708433246.4895852,-2.1470322608947754,-1.334847168331482,-2.5255473295794886,6.1225716946418665,1.0154139995574951,-2.969651762639181
1708433246.4915648,-2.146944999694824,-1.3348190796426316,-2.5255962053882044,6.122383105545797,1.0154949426651,-2.9696934858905237
1708433246.4935684,-2.1468923091888428,-1.3347790998271485,-2.525611464177267,6.122152197151937,1.0155633687973022,-2.9696481863604944
1708433246.4955616,-2.146759510040283,-1.3347864759019394,-2.525635544453756,6.122038590698995,1.0155665874481201,-2.969623867665426
1708433246.497585,-2.146745204925537,-1.3347629618695755,-2.525641981755392,6.121926772385397,1.01563560962677,-2.969595495854513
1708433246.4996161,-2.1466727256774902,-1.3347545576146622,-2.5257695356952112,6.121768343239584,1.0157045125961304,-2.969611946736471
1708433246.501591,-2.1466164588928223,-1.3347918403199692,-2.525752131138937,6.121657597809591,1.0156826972961426,-2.969555441533224
1708433246.5036004,-2.1465415954589844,-1.3347510409406205,-2.5257847944842737,6.121464597969808,1.0157636404037476,-2.9695642630206507
1708433246.5055566,-2.1464450359344482,-1.334719256763794,-2.525764052067892,6.121255385666647,1.0158075094223022,-2.9696062246905726
1708433246.5075579,-2.146421194076538,-1.3347397309592743,-2.525832716618673,6.12121998050765,1.0158675909042358,-2.9695027510272425
1708433246.509566,-2.1463828086853027,-1.3347396862557908,-2.525843922291891,6.121035802155294,1.0159242153167725,-2.969536844884054
1708433246.5116005,-2.146270751953125,-1.334707112317421,-2.5258927981006067,6.120846020966329,1.0159605741500854,-2.96950871149172
1708433246.5135744,-2.1462502479553223,-1.334670515065529,-2.525888506566183,6.1207443354423425,1.0160248279571533,-2.969504181538717
1708433246.5155594,-2.146179676055908,-1.3346832555583497,-2.5259247461902063,6.1206411001975916,1.0160359144210815,-2.9694469610797327
1708433246.5175674,-2.1460535526275635,-1.3346432757428666,-2.5259035269366663,6.1204110262687585,1.0160465240478516,-2.969496790562765
1708433246.519565,-2.1460018157958984,-1.3346916896155854,-2.5259397665606897,6.120313989907064,1.0161405801773071,-2.9694111982928675
1708433246.5215821,-2.145949363708496,-1.3346109849265595,-2.525943104420797,6.120152103691854,1.016208291053772,-2.969396416340963
1708433246.523572,-2.1458699703216553,-1.3346517247012635,-2.5259636084186,6.1200328944023035,1.0162192583084106,-2.969384495412008
1708433246.525613,-2.145854949951172,-1.3346355718425293,-2.5259791056262415,6.119933831482687,1.0163133144378662,-2.969351116810934
1708433246.5276198,-2.1457719802856445,-1.3346199256232758,-2.5260401407824915,6.119774210243978,1.016337513923645,-2.969339195881979
1708433246.5295682,-2.1457107067108154,-1.3345630329898377,-2.526027027760641,6.119621860771932,1.0163484811782837,-2.9693198839770716
1708433246.5315683,-2.1456544399261475,-1.3346407127431412,-2.5260639826404017,6.119522797852316,1.0163764953613281,-2.9693029562579554
1708433246.5335972,-2.1456408500671387,-1.334559590821602,-2.526104513798849,6.119388448982992,1.016387939453125,-2.969304625188009
1708433246.53556,-2.145552158355713,-1.3345918667367478,-2.5260914007769983,6.119283664017477,1.016444444656372,-2.969309155141012
1708433246.5375814,-2.14547061920166,-1.3345195812037964,-2.526144568120138,6.119177567749777,1.0164850950241089,-2.96925932565798
1708433246.5395737,-2.145493984222412,-1.334511162047722,-2.5261314550982874,6.119092452317037,1.0165002346038818,-2.969231192265646
1708433246.541582,-2.1454403400421143,-1.3345722717097779,-2.5261719862567347,6.118942963867941,1.0165133476257324,-2.9692726770984095
1708433246.5435865,-2.1453733444213867,-1.3345243495753785,-2.526163403187887,6.118851649552145,1.016543984413147,-2.9691653887378138
1708433246.545594,-2.1452932357788086,-1.3344878268292923,-2.526163403187887,6.118724572449484,1.016589879989624,-2.9692042509662073
1708433246.547556,-2.1452653408050537,-1.3345039647868653,-2.526187245045797,6.118603813439169,1.0165799856185913,-2.9691322485553187
1708433246.549547,-2.1452574729919434,-1.3344963502934952,-2.5261829535113733,6.118512499123373,1.0166215896606445,-2.9691694418536585
1708433246.5515501,-2.145164728164673,-1.3344479215196152,-2.5261991659747522,6.118440854340353,1.016669750213623,-2.9691441694842737
1708433246.553564,-2.1451258659362793,-1.334460513000824,-2.5261948744403284,6.1183568117912195,1.0166282653808594,-2.9690914789782923
1708433246.5555894,-2.145052671432495,-1.334472419028618,-2.526193920766012,6.1182747958000085,1.0166969299316406,-2.96908408800234
1708433246.5575802,-2.1450252532958984,-1.334399939780571,-2.5262604395495813,6.118158328324117,1.0167135000228882,-2.969055716191427
1708433246.5595558,-2.144909620285034,-1.3344322007945557,-2.5262234846698206,6.118046033173361,1.0167092084884644,-2.968994681035177
1708433246.5615504,-2.144897222518921,-1.3344236773303528,-2.5262277762042444,6.117966758995809,1.016732931137085,-2.9690454641925257
1708433246.5635564,-2.1448750495910645,-1.3344287139228364,-2.5262396971331995,6.117829549103536,1.0167529582977295,-2.969003740941183
1708433246.5655882,-2.1448259353637695,-1.3343630147031327,-2.526259247456686,6.117750274925985,1.0167930126190186,-2.968959156666891
1708433246.5675657,-2.1447911262512207,-1.3343681407025834,-2.526219193135397,6.117729174881735,1.0167843103408813,-2.968931261693136
1708433246.5695517,-2.1447012424468994,-1.3344049614718934,-2.526177469884054,6.117596018105306,1.0167843103408813,-2.9689281622516077
1708433246.5715423,-2.14471435546875,-1.3343885105899354,-2.526214663182394,6.1174930212791345,1.016845941543579,-2.9688618818866175
1708433246.573568,-2.144686698913574,-1.3343723726323624,-2.5262561480151575,6.1174484370048425,1.016796588897705,-2.9688919226275843
1708433246.5755742,-2.1446385383605957,-1.3343361479095002,-2.5262354055987757,6.117358672409811,1.0168664455413818,-2.9688754717456263
1708433246.5775979,-2.1446404457092285,-1.3343445223620911,-2.5262680689441126,6.117216694145956,1.0168336629867554,-2.968881432210104
1708433246.5795815,-2.1445467472076416,-1.3343565326980134,-2.5262635389911097,6.117182123451986,1.016796588897705,-2.96885329881777
1708433246.5815814,-2.1445350646972656,-1.3343606752208252,-2.526231114064352,6.117069828301229,1.016862154006958,-2.9687634150134485
1708433246.5835927,-2.144545316696167,-1.3343606901219864,-2.526231114064352,6.11702190616683,1.0168249607086182,-2.9687634150134485
1708433246.5855896,-2.1444759368896484,-1.3343692284873505,-2.5262320677386683,6.116972791939535,1.016812801361084,-2.968748394642965
1708433246.5876,-2.1444509029388428,-1.3343978387168427,-2.5262396971331995,6.116862404137411,1.016862154006958,-2.968740526829855
1708433246.589593,-2.1444597244262695,-1.3342920404723664,-2.5262299219714563,6.116839754372396,1.016845941543579,-2.96869141260256
1708433246.5916154,-2.1444191932678223,-1.3342758876136322,-2.5262234846698206,6.116747128754415,1.0168083906173706,-2.9686928431140345
1708433246.5935576,-2.1443753242492676,-1.3343005937388916,-2.526219193135397,6.116708147316732,1.0167996883392334,-2.9686644713031214
1708433246.5955625,-2.1444051265716553,-1.3342597347548981,-2.526226584111349,6.116633283882894,1.0167921781539917,-2.9686570803271692
1708433246.597579,-2.144388437271118,-1.3342725199512024,-2.5262561480151575,6.1165809510047815,1.0168083906173706,-2.9685993830310267
1708433246.5995467,-2.1443519592285156,-1.3342971366694947,-2.5262070337878626,6.116509425431051,1.0167843103408813,-2.9685846010791224
1708433246.6016128,-2.144319534301758,-1.3342682880214234,-2.526257101689474,6.116469013481893,1.0167680978775024,-2.968546692525045
1708433246.6035864,-2.1442630290985107,-1.3343132895282288,-2.5262604395495813,6.11641679981307,1.016796588897705,-2.968518320714132
1708433246.6055822,-2.1442761421203613,-1.3342725199512024,-2.5262070337878626,6.1162956831748865,1.0168052911758423,-2.96847373643984
1708433246.6076078,-2.1442506313323975,-1.3342801195434113,-2.5262113253222864,6.1163179753120325,1.0167399644851685,-2.9684796969043177
1708433246.6095695,-2.144199848175049,-1.334212915306427,-2.5262561480151575,6.1162123558814905,1.0167680978775024,-2.9684723059283655
1708433246.6115537,-2.144239902496338,-1.3342690628818055,-2.5261948744403284,6.116206037789144,1.0167399644851685,-2.968403164540426
1708433246.613563,-2.144224166870117,-1.3341888350299378,-2.5262025038348597,6.116144645005026,1.0167737007141113,-2.968412224446432
1708433246.6155596,-2.1442301273345947,-1.3342376512340088,-2.5261786619769495,6.11608515956954,1.0167855024337769,-2.9683340231524866
1708433246.6175656,-2.144217014312744,-1.3341845136931916,-2.526179615651266,6.1160985110099695,1.0167198181152344,-2.968328301106588
1708433246.6195908,-2.1441876888275146,-1.3342214685729523,-2.5262070337878626,6.116090762406149,1.0167360305786133,-2.968295399342672
1708433246.621559,-2.1441922187805176,-1.3342257005027314,-2.5261502901660364,6.116030919342794,1.0166926383972168,-2.96828800836672
1708433246.6235778,-2.144155263900757,-1.3342290681651612,-2.526203457509176,6.115995156555929,1.0166796445846558,-2.9682393709765833
1708433246.6256053,-2.1441473960876465,-1.334197298889496,-2.526196066533224,6.1159084914024255,1.016671895980835,-2.968182150517599
1708433246.6276245,-2.144155979156494,-1.3341692251018067,-2.5262077490436,6.115902292519369,1.016676425933838,-2.968163077031271
1708433246.6295931,-2.1441850662231445,-1.3341485124877472,-2.526191536580221,6.115859019547262,1.016623854637146,-2.9681480566607874
1708433246.631592,-2.1441516876220703,-1.3341570657542725,-2.526151482258932,6.115856039315023,1.0166444778442383,-2.9680491129504603
1708433246.6336083,-2.1441683769226074,-1.3340965968421479,-2.5261264483081263,6.115828859597006,1.016592264175415,-2.9680076281176966
1708433246.635596,-2.1441516876220703,-1.3341250878623505,-2.526114050542013,6.115808117180624,1.016593098640442,-2.9680567423449915
1708433246.6375887,-2.1441850662231445,-1.3341654402068635,-2.5261719862567347,6.115702020912924,1.0165234804153442,-2.96800405183901
1708433246.639572,-2.144176959991455,-1.334116981630661,-2.5261719862567347,6.115708100586691,1.0164990425109863,-2.9679439703570765
1708433246.6416323,-2.144181251525879,-1.3340898615172883,-2.52614409128298,6.115746843605795,1.0165441036224365,-2.9678614775287073
1708433246.6436062,-2.1441402435302734,-1.3340733659318467,-2.526081625615255,6.115651476174154,1.0164545774459839,-2.967839304600851
1708433246.6455479,-2.144160270690918,-1.3340410751155396,-2.5261152426349085,6.115669357567587,1.0164512395858765,-2.9677446524249476
1708433246.647572,-2.144148826599121,-1.334100828771927,-2.5260706583606165,6.1155749438102625,1.0164436101913452,-2.967804495488302
1708433246.6495497,-2.144120216369629,-1.3340690594962616,-2.5260544458972376,6.115569340973654,1.0164642333984375,-2.9677189032184046
1708433246.6515481,-2.1441893577575684,-1.3340614599040528,-2.526099983845846,6.11558090427474,1.0164239406585693,-2.9676459471331995
1708433246.6535683,-2.1441855430603027,-1.3340528172305604,-2.5260468165027063,6.115537750511923,1.016416072845459,-2.967585865651266
1708433246.6555593,-2.1441807746887207,-1.3340495389750977,-2.526018206273214,6.115483748703756,1.0164010524749756,-2.9675496260272425
1708433246.6575644,-2.144155979156494,-1.3340785068324585,-2.5260313192950647,6.115468966751852,1.0163472890853882,-2.9675403277026575
1708433246.659561,-2.1441402435302734,-1.334049553876259,-2.526043478642599,6.115440714150228,1.0163722038269043,-2.9674583117114466
1708433246.6615615,-2.1441855430603027,-1.3340537262013932,-2.5260282198535364,6.115386831551351,1.0163275003433228,-2.9674399534808558
1708433246.6635702,-2.144181251525879,-1.3340213310769578,-2.5260074774371546,6.115364181786337,1.0163242816925049,-2.9673708120929163
1708433246.665607,-2.1441726684570312,-1.3340256971171875,-2.5259669462787073,6.115397202759542,1.0162749290466309,-2.967283074055807
1708433246.6675973,-2.1441078186035156,-1.3340657365373154,-2.5259581247912806,6.11532877662734,1.0162749290466309,-2.967222277318136
1708433246.6695933,-2.144164562225342,-1.334018037920334,-2.525971237813131,6.115304577141561,1.0162392854690552,-2.9671860376941126
1708433246.671602,-2.1441359519958496,-1.3339975786260148,-2.5259550253497522,6.1153015969093225,1.0162030458450317,-2.967107359563009
1708433246.6736274,-2.1441359519958496,-1.33402572691951,-2.525935475026266,6.115259635239401,1.0162029266357422,-2.9670262972461146
1708433246.6757088,-2.1441402435302734,-1.3339727234891434,-2.5258904139148157,6.115310537606039,1.0161552429199219,-2.966928784047262
1708433246.6775885,-2.144176959991455,-1.3339889657548447,-2.525903050099508,6.115240204125204,1.0161306858062744,-2.966910425816671
1708433246.679607,-2.144153118133545,-1.3340137761882325,-2.5258668104754847,6.1152089712913416,1.016070008277893,-2.9669249693499964
1708433246.6816015,-2.1441245079040527,-1.3339770895293732,-2.5258992354022425,6.115228402405538,1.0160753726959229,-2.96679932275881
1708433246.6836631,-2.1441445350646973,-1.3340104979327698,-2.525867764149801,6.115200030594625,1.0160185098648071,-2.9666898886310022
1708433246.6856349,-2.1441078186035156,-1.3340094995549698,-2.525851551686422,6.115164029389181,1.0159865617752075,-2.9666343371020716
1708433246.6875722,-2.1441287994384766,-1.3339701306870957,-2.5258100668536585,6.115172970085897,1.0160118341445923,-2.9665496985064905
1708433246.689589,-2.1441688537597656,-1.333953933124878,-2.5258153120623987,6.115195262223043,1.0159624814987183,-2.966454092656271
1708433246.6916134,-2.1441688537597656,-1.3339330864003678,-2.5257871786700647,6.115163671761312,1.0159399509429932,-2.966370169316427
1708433246.6935925,-2.1441445350646973,-1.3339582991651078,-2.5258122126208704,6.1151267168815515,1.015894889831543,-2.9663153330432337
1708433246.6955914,-2.1441445350646973,-1.3339625310948868,-2.5257542769061487,6.115101563721456,1.0158706903457642,-2.966264073048727
1708433246.697599,-2.144137382507324,-1.3339459610036393,-2.5257795492755335,6.1150773642356775,1.0158095359802246,-2.9661155382739466
1708433246.6996036,-2.1441619396209717,-1.3339545291713257,-2.5257468859301966,6.115107166558065,1.0157945156097412,-2.96598464647402
1708433246.7015958,-2.144146203994751,-1.3338983666947861,-2.5257511774646204,6.11505805233077,1.0157581567764282,-2.965909783040182
1708433246.703601,-2.1441705226898193,-1.3339224469712754,-2.52578050294985,6.114984857826986,1.0157506465911865,-2.965816322957174
1708433246.7055538,-2.144101142883301,-1.3338854324868699,-2.5257518927203577,6.115029442101278,1.0157023668289185,-2.965710226689474
1708433246.7075756,-2.144108295440674,-1.3338487607291718,-2.525703255330221,6.115042793541708,1.0156545639038086,-2.965609852467672
1708433246.709615,-2.1440589427948,-1.3338573288968583,-2.525703255330221,6.1149728176887415,1.015634536743164,-2.965494457875387
1708433246.7115762,-2.1441128253936768,-1.3338374954513093,-2.5257445017444056,6.1149951098258875,1.0155855417251587,-2.9653940836535853
1708433246.7136328,-2.1440844535827637,-1.3338418018868943,-2.525675598775045,6.114962088852682,1.0155704021453857,-2.9653189818011683
1708433246.715566,-2.1440720558166504,-1.3339191389134903,-2.5256925264941614,6.11490677574233,1.0155222415924072,-2.965189282094137
1708433246.7175684,-2.14408016204834,-1.333886445765831,-2.5256593863116663,6.114921915322103,1.0154905319213867,-2.965024773274557
1708433246.719607,-2.1441214084625244,-1.3338375252536316,-2.5256105105029505,6.114877331047811,1.0154705047607422,-2.964867655430929
1708433246.7215855,-2.144080638885498,-1.333849774008133,-2.525627915059225,6.114833700447836,1.0153844356536865,-2.9648264090167444
1708433246.7235684,-2.1440606117248535,-1.3338745099357148,-2.525574270878927,6.1148754236991785,1.0154061317443848,-2.9646197001086634
1708433246.725612,-2.1440649032592773,-1.3338384342244645,-2.525583092366354,6.114847171097555,1.0153701305389404,-2.964471165333883
1708433246.7275991,-2.1440577507019043,-1.3338384342244645,-2.525583092366354,6.114836442261495,1.0153614282608032,-2.9643614927874964
1708433246.7296045,-2.1440324783325195,-1.3338140857270737,-2.525578562413351,6.114775407105245,1.015329360961914,-2.9641838709460657
1708433246.7315898,-2.144044876098633,-1.3338063669255753,-2.525550429021017,6.114750134735861,1.0152851343154907,-2.964118305836813
1708433246.7335863,-2.14404559135437,-1.3337727201035996,-2.5255351702319544,6.114748346596517,1.0152902603149414,-2.963923994694845
1708433246.735607,-2.1440083980560303,-1.3337856394103547,-2.5255842844592493,6.114732014923849,1.0152740478515625,-2.9637883345233362
1708433246.7376027,-2.144041061401367,-1.3338268411210557,-2.5255022684680384,6.114704715996542,1.0152291059494019,-2.96362811723818
1708433246.7395773,-2.143991708755493,-1.3337779355100174,-2.5255842844592493,6.11462293842391,1.01517653465271,-2.9635027090655726
1708433246.7416048,-2.1440091133117676,-1.3338268411210557,-2.525494639073507,6.114639270096578,1.0151931047439575,-2.963297192250387
1708433246.7436087,-2.143979549407959,-1.3338027608445664,-2.5254948774920862,6.114607798844137,1.0151777267456055,-2.9631245771991175
1708433246.7455592,-2.143979549407959,-1.3337984842113038,-2.525519673024313,6.114542352944174,1.015190839767456,-2.9628990332232874
1708433246.7475803,-2.143968105316162,-1.3338063669255753,-2.525491539631979,6.114585387497701,1.01515793800354,-2.962743107472555
1708433246.7495577,-2.1439924240112305,-1.3338192713311692,-2.5254958311664026,6.114515530854025,1.0151548385620117,-2.9625635782824915
1708433246.7515569,-2.143944263458252,-1.3337865632823487,-2.5254796187030237,6.114422786026754,1.0150892734527588,-2.962358538304464
1708433246.7535892,-2.143965244293213,-1.333807037477829,-2.525442663823263,6.114415395050802,1.0150859355926514,-2.962217156087057
1708433246.7555606,-2.14396595954895,-1.3337498766234894,-2.5254557768451136,6.1144165871436975,1.015082836151123,-2.9619014898883265
1708433246.757626,-2.1439077854156494,-1.333807037477829,-2.5254557768451136,6.114379274636068,1.0150291919708252,-2.9616897741900843
1708433246.7595654,-2.1439247131347656,-1.3337376725724717,-2.5254109541522425,6.114356744080343,1.0150378942489624,-2.9614790121661585
1708433246.7615664,-2.143953561782837,-1.3337994825891037,-2.52541953722109,6.11432837226943,1.0150094032287598,-2.9612742106067103
1708433246.763577,-2.143892765045166,-1.3337461811355134,-2.5254152456866663,6.114275920182028,1.0149974822998047,-2.961029831563131
1708433246.7655914,-2.1439170837402344,-1.3337591153434296,-2.5253871122943323,6.114302980690756,1.0149275064468384,-2.9608801046954554
1708433246.7676048,-2.1439127922058105,-1.3336975288442154,-2.5253987948047083,6.114249217301168,1.0149855613708496,-2.960639778767721
1708433246.7695663,-2.143840789794922,-1.333754838710167,-2.5254161993609827,6.114225375443258,1.0149731636047363,-2.9603546301471155
1708433246.7716074,-2.143836498260498,-1.33370956898246,-2.525379244481222,6.1141443131263635,1.0149612426757812,-2.9600818792926233
1708433246.773596,-2.1438608169555664,-1.3337756109288712,-2.525411907826559,6.114141452103414,1.0149002075195312,-2.959846798573629
1708433246.7755902,-2.1438379287719727,-1.333690033560135,-2.52535850206484,6.114131438523092,1.0149418115615845,-2.9596152941333216
1708433246.77759,-2.14378023147583,-1.333702878361084,-2.5253716150866907,6.114074456482687,1.0149295330047607,-2.9593258539782923
1708433246.7795682,-2.1438255310058594,-1.3337062460235138,-2.5254161993609827,6.114003646164694,1.0149505138397217,-2.959054772053854
1708433246.7815623,-2.143834114074707,-1.3337233376554032,-2.525367323552267,6.113960611611166,1.0148357152938843,-2.9588144461261194
1708433246.7835603,-2.1437482833862305,-1.3337267202189942,-2.525334421788351,6.113948690682211,1.0148770809173584,-2.9584744612323206
1708433246.7855728,-2.143724203109741,-1.3336952191642304,-2.5253594557391565,6.113888847618856,1.0148323774337769,-2.958217446004049
1708433246.787599,-2.1437454223632812,-1.3336996001056214,-2.5253801981555384,6.1138532040412805,1.0148577690124512,-2.957876745854513
1708433246.7895668,-2.143737316131592,-1.333702878361084,-2.5253520647632044,6.11378430107192,1.0148247480392456,-2.9575932661639612
1708433246.7915792,-2.1437249183654785,-1.3336996001056214,-2.525322500859396,6.113800632744589,1.0148204565048218,-2.957259718571798
1708433246.7936108,-2.1437628269195557,-1.3336952340653916,-2.5253682772265833,6.1136947748954675,1.014829158782959,-2.9569438139544886
1708433246.7955642,-2.143733501434326,-1.3336790365031739,-2.5253194014178675,6.11368094661788,1.0148082971572876,-2.9566314856158655
1708433246.7975998,-2.1436939239501953,-1.3337114316276093,-2.5253475348102015,6.113703477173605,1.0148422718048096,-2.9563480059253138
1708433246.7995858,-2.1436614990234375,-1.3336668771556397,-2.525364939366476,6.113630282669821,1.0147680044174194,-2.9560089747058313
1708433246.8015616,-2.1437106132507324,-1.3336952340653916,-2.525315825139181,6.113630282669821,1.014779806137085,-2.9556761423694056
1708433246.803596,-2.143685817718506,-1.3336952340653916,-2.5252864996539515,6.113648402481832,1.014800786972046,-2.9553638140307825
1708433246.8055584,-2.1436452865600586,-1.3336549562266846,-2.5252910296069544,6.113558280258932,1.014800786972046,-2.9550066629992884
1708433246.8075829,-2.1436049938201904,-1.333642066722252,-2.525336805974142,6.113531815796652,1.0147809982299805,-2.9547293821917933
1708433246.8096013,-2.143618106842041,-1.333691955809929,-2.525315825139181,6.113441812783041,1.0147110223770142,-2.954343859349386
1708433246.8115547,-2.143580436706543,-1.3336103123477479,-2.525299612675802,6.113423931389608,1.0147359371185303,-2.953958813344137
1708433246.8135757,-2.1435933113098145,-1.3336225611022492,-2.525287453328268,6.113358127861776,1.0147733688354492,-2.9535661379443567
1708433246.815548,-2.1435282230377197,-1.333635465507843,-2.5252953211413782,6.11333595493392,1.0147895812988281,-2.95321494737734
1708433246.8175838,-2.1435282230377197,-1.333598719244339,-2.525332276021139,6.113319504051962,1.0147616863250732,-2.9528594652758997
1708433246.8195512,-2.1435368061065674,-1.3335663092187424,-2.5252419153796595,6.113283383637228,1.0147616863250732,-2.9524579683886927
1708433246.8215535,-2.143554210662842,-1.3336354804090043,-2.5252953211413782,6.113289582520284,1.014765977859497,-2.9520841280566614
1708433246.823562,-2.143542766571045,-1.3335498434356232,-2.52525502840151,6.113228189736166,1.014765977859497,-2.951737705861227
1708433246.8255663,-2.143500804901123,-1.3336158257773896,-2.5252636114703577,6.113172995835104,1.0147240161895752,-2.951306168233053
1708433246.8275745,-2.143497943878174,-1.3335791689208527,-2.525238577519552,6.113114583283224,1.014729619026184,-2.9509146849261683
1708433246.8295732,-2.143486499786377,-1.3335706752589722,-2.52525502840151,6.113083469658651,1.0147004127502441,-2.9505189100848597
1708433246.8315568,-2.1434829235076904,-1.3335953515819092,-2.5252462069140833,6.113089310913839,1.014716625213623,-2.9501197973834437
1708433246.8336136,-2.143425941467285,-1.333620162015297,-2.525250498448507,6.11306523063735,1.0146960020065308,-2.9496544043170374
1708433246.8355742,-2.1434388160705566,-1.3335542392781754,-2.5252636114703577,6.113026129990377,1.014745831489563,-2.9491923491107386
1708433246.8376179,-2.1433982849121094,-1.333579809670784,-2.5252679030047815,6.112948763161459,1.0147134065628052,-2.9488475958453577
1708433246.8395836,-2.1434097290039062,-1.3335464310697098,-2.525226656590597,6.112861978798666,1.0146968364715576,-2.9483664671527308
1708433246.8415954,-2.143415689468384,-1.333611549144127,-2.5252354780780237,6.112876999169149,1.0147134065628052,-2.9479573408709925
1708433246.843626,-2.1433663368225098,-1.3335507226041337,-2.5252679030047815,6.112893330841818,1.014729619026184,-2.9474478403674524
1708433246.845567,-2.143312931060791,-1.3335834306529541,-2.5252767244922083,6.112862098007955,1.0146640539169312,-2.9470413366900843
1708433246.8476503,-2.1433467864990234,-1.3335431826165696,-2.5252066294299524,6.112846839218893,1.0146675109863281,-2.946564022694723
1708433246.8495667,-2.1433215141296387,-1.3335474294475098,-2.5252023378955286,6.112766492157736,1.014655351638794,-2.9460881392108362
1708433246.8515763,-2.1433229446411133,-1.3335180294564744,-2.5252605120288294,6.112683760910787,1.0147134065628052,-2.945608441029684
1708433246.8535833,-2.1432693004608154,-1.3335636121085663,-2.5252023378955286,6.1126794693763635,1.0147383213043213,-2.9451358954059046
1708433246.8555932,-2.14333176612854,-1.3335266423276444,-2.525231901799337,6.112661349564352,1.0146924257278442,-2.944644037877218
1708433246.8575675,-2.1432905197143555,-1.3335474294475098,-2.5252023378955286,6.112630474358358,1.0146474838256836,-2.944118324910299
1708433246.8595707,-2.1432628631591797,-1.3334985089353104,-2.525214497243063,6.112615215569296,1.0146968364715576,-2.9435458819018763
1708433246.8615668,-2.1432628631591797,-1.3335352700999756,-2.525252882634298,6.112537729531088,1.0146806240081787,-2.9430745283709925
1708433246.8635757,-2.1431937217712402,-1.3335636270097275,-2.5252111593829554,6.112548339157858,1.0146849155426025,-2.9425633589373987
1708433246.865574,-2.143214702606201,-1.3335147213986893,-2.5252276102649134,6.112449276238241,1.0146937370300293,-2.9420469442950647
1708433246.8675864,-2.143223285675049,-1.3335190874389191,-2.5252111593829554,6.112449276238241,1.0146474838256836,-2.9414530436145228
1708433246.869599,-2.1431896686553955,-1.3335028749755402,-2.5252066294299524,6.112431514054098,1.0146937370300293,-2.9409387747394007
1708433246.8715708,-2.143174648284912,-1.3335190874389191,-2.525240723286764,6.112416732102194,1.0146980285644531,-2.9404423872577112
1708433246.8736875,-2.14320707321167,-1.3334955734065552,-2.5252397696124476,6.11232219913558,1.0147055387496948,-2.939945999776022
1708433246.8755982,-2.143174648284912,-1.3335041117719193,-2.525207821522848,6.11231957653121,1.014664888381958,-2.939323965703146
1708433246.877572,-2.1431055068969727,-1.3335318279317399,-2.5252485910998743,6.112328517227926,1.0146937370300293,-2.938848082219259
1708433246.8796103,-2.1431832313537598,-1.3335114282420655,-2.5252111593829554,6.1122790453727625,1.014639973640442,-2.9382293860064905
1708433246.8815782,-2.1431350708007812,-1.333495558505394,-2.525215450917379,6.11222659328536,1.0146517753601074,-2.937660519276754
1708433246.88361,-2.143105983734131,-1.333556057219841,-2.525203529988424,6.112228143006124,1.014689326286316,-2.9371209780322474
1708433246.8855772,-2.143056631088257,-1.3334875863841553,-2.5251947085009974,6.112216222077169,1.0146937370300293,-2.93658954301943
1708433246.8876054,-2.1431233882904053,-1.3334832352450867,-2.525207821522848,6.112110125809469,1.0146561861038208,-2.9359939734088343
1708433246.889581,-2.1431117057800293,-1.3334832203439255,-2.52523643175234,6.112135517388143,1.014689326286316,-2.935418430958883
1708433246.8915884,-2.143078327178955,-1.333504096870758,-2.525181595479147,6.1121113179023645,1.0146561861038208,-2.934812609349386
1708433246.8936045,-2.1430583000183105,-1.3335276258042832,-2.525203529988424,6.112092363625326,1.0146640539169312,-2.9342806974994105
1708433246.8955944,-2.1430554389953613,-1.3334997457316895,-2.525191609059469,6.1120186922843835,1.014668345451355,-2.93364125887026
1708433246.8976042,-2.1430230140686035,-1.3334713888219376,-2.5252485910998743,6.1120276329811,1.0146640539169312,-2.9330406824695032
1708433246.899587,-2.14306378364563,-1.3335114282420655,-2.5251711050616663,6.112024771958151,1.0146814584732056,-2.9324286619769495
1708433246.9015753,-2.1430439949035645,-1.333446667795517,-2.5251665751086634,6.11203824260787,1.0146771669387817,-2.9318087736712855
1708433246.9035783,-2.143031597137451,-1.3334832203439255,-2.525207821522848,6.11197708824233,1.0146517753601074,-2.9311323801623743
1708433246.9055617,-2.142974376678467,-1.3334875863841553,-2.52523643175234,6.111957776337423,1.014664888381958,-2.9304948488818567
1708433246.9075994,-2.1429786682128906,-1.33347141862426,-2.5251784960376185,6.1118637202079675,1.0146355628967285,-2.929908577595846
1708433246.90957,-2.14296293258667,-1.333455206160881,-2.5251711050616663,6.11184715011672,1.0146937370300293,-2.929260555897848
1708433246.9115655,-2.1429996490478516,-1.3334637445262452,-2.525191609059469,6.111877071648397,1.0146640539169312,-2.928610865269796
1708433246.913592,-2.142984390258789,-1.333467037682869,-2.52523643175234,6.111877071648397,1.0147099494934082,-2.9279912153827112
1708433246.9156034,-2.1429266929626465,-1.333438978796341,-2.525219742451803,6.111824619560995,1.0146640539169312,-2.927307669316427
1708433246.9176006,-2.142988920211792,-1.3335047972253342,-2.5252187887774866,6.111821639328756,1.0146727561950684,-2.926692787800924
1708433246.9196143,-2.142890453338623,-1.3333901327899476,-2.5252066294299524,6.111804950028219,1.0146640539169312,-2.926046911870138
1708433246.9215577,-2.1429643630981445,-1.3334561747363587,-2.525224033986227,6.111797559052267,1.0146806240081787,-2.92542535463442
1708433246.9235868,-2.1429476737976074,-1.3334310364774247,-2.525203529988424,6.111794578820028,1.0146849155426025,-2.9248183409320276
1708433246.9256287,-2.142894744873047,-1.3334310364774247,-2.525219742451803,6.1117663262184045,1.014668345451355,-2.9241629282580774
1708433246.9275868,-2.1428747177124023,-1.333488554959633,-2.5252066294299524,6.11169599273757,1.0146968364715576,-2.9235721270190638
1708433246.929598,-2.1429483890533447,-1.3334723871997376,-2.525231901799337,6.111742365151205,1.014689326286316,-2.9229148069964808
1708433246.93158,-2.142894744873047,-1.3334561747363587,-2.5252111593829554,6.1117063639457605,1.0147134065628052,-2.9222574869738978
1708433246.9335835,-2.1428961753845215,-1.3334961247495194,-2.5252111593829554,6.111672150879659,1.0147011280059814,-2.921678606663839
1708433246.9355776,-2.1428918838500977,-1.3334604513696213,-2.5252397696124476,6.111677872925558,1.014668345451355,-2.9209757486926478
1708433246.9376063,-2.142871856689453,-1.3334723722985764,-2.5251947085009974,6.11165868022994,1.0146806240081787,-2.9204064051257532
1708433246.9395757,-2.1428918838500977,-1.3334310215762635,-2.525219742451803,6.111621129303732,1.0146849155426025,-2.919812027608053
1708433246.9416127,-2.1428847312927246,-1.3334439408830185,-2.525248352681295,6.111663329392233,1.0146805047988892,-2.919025961552755
1708433246.943622,-2.1428680419921875,-1.3334158223918458,-2.525231901799337,6.111639129906454,1.0146968364715576,-2.91844088235964
1708433246.9456353,-2.1428442001342773,-1.3334234666875382,-2.52523643175234,6.111622679024496,1.0147459506988525,-2.917779509221212
1708433246.9476025,-2.1427862644195557,-1.333410532479622,-2.5252111593829554,6.111577737122335,1.0147545337677002,-2.9172030130969446
1708433246.9495606,-2.1428232192993164,-1.3334191006473084,-2.5252233187304896,6.111582267075338,1.0147252082824707,-2.9165707270251673
1708433246.9515624,-2.1428399085998535,-1.3334029030850907,-2.525219742451803,6.111598956375875,1.0147490501403809,-2.9159539381610315
1708433246.9535577,-2.1427836418151855,-1.3334158223918458,-2.5252721945392054,6.11162434795455,1.0147533416748047,-2.9152024427997034
1708433246.95555,-2.142774820327759,-1.3335047376206894,-2.5251784960376185,6.111530053406515,1.0147252082824707,-2.9146156946765345
1708433246.9575775,-2.1427993774414062,-1.33345182359729,-2.5251830259906214,6.111562716751852,1.0147490501403809,-2.913910214100973
1708433246.9595675,-2.1428446769714355,-1.3334072840264817,-2.525231901799337,6.111530053406515,1.0147616863250732,-2.9131813685046595
1708433246.9615712,-2.1427345275878906,-1.3334310364774247,-2.5252397696124476,6.111510741501608,1.0147359371185303,-2.9125633875476282
1708433246.9635744,-2.1427669525146484,-1.3334439408830185,-2.5252111593829554,6.111543524056234,1.0147690773010254,-2.911847178136007
1708433246.9655876,-2.142796516418457,-1.33345182359729,-2.5252111593829554,6.1114985821540735,1.014740228652954,-2.9111321608172815
1708433246.9676683,-2.142792224884033,-1.3334320199540635,-2.5252023378955286,6.1115198014076135,1.0148181915283203,-2.910522524510519
1708433246.9695513,-2.1427431106567383,-1.3334482473186036,-2.525269095097677,6.111512052803793,1.0148059129714966,-2.9097967783557337
1708433246.971589,-2.142730474472046,-1.3334482175162812,-2.5252066294299524,6.11147032955245,1.0147809982299805,-2.909121576939718
1708433246.9735944,-2.1428050994873047,-1.3334277433208008,-2.5251904169665735,6.111471760063925,1.0147809982299805,-2.9084492365466517
1708433246.9756095,-2.1427717208862305,-1.3334072840264817,-2.525215450917379,6.111483800202169,1.0148378610610962,-2.9078062216388147
1708433246.9776304,-2.142690896987915,-1.3334353131106873,-2.5252354780780237,6.11136423328475,1.014825701713562,-2.9070876280414026
1708433246.9796157,-2.1427390575408936,-1.3334115457585831,-2.5252605120288294,6.11145960071639,1.014829158782959,-2.9064419905291956
1708433246.9816048,-2.1427223682403564,-1.3334115457585831,-2.5252605120288294,6.111463892250814,1.014841079711914,-2.9057496229754847
1708433246.983575,-2.142731189727783,-1.3334277433208008,-2.525226656590597,6.111407387047567,1.014841079711914,-2.905073944722311
1708433246.9855754,-2.1427066326141357,-1.333402932887413,-2.5252767244922083,6.111365663796224,1.0148813724517822,-2.9044373671161097
1708433246.9875813,-2.1427268981933594,-1.3334353131106873,-2.5252843538867396,6.111365663796224,1.014828085899353,-2.9037278334247034
1708433246.9896028,-2.1426706314086914,-1.3334475618651886,-2.525292936955587,6.11132966259078,1.0148608684539795,-2.903034273778097
1708433246.9916506,-2.1426916122436523,-1.33345182359729,-2.5252233187304896,6.111350524216451,1.0148770809173584,-2.9023340384112757
1708433246.993634,-2.142735481262207,-1.3334277433208008,-2.525259319935934,6.11132966259078,1.0149461030960083,-2.90163499513735
1708433246.9955869,-2.142716884613037,-1.3333749038032074,-2.525242869053976,6.111385214119711,1.0149418115615845,-2.900856320058004
1708433246.9976368,-2.1426706314086914,-1.3334561747363587,-2.525309149418966,6.111355054169454,1.0149418115615845,-2.9002891222583216
1708433246.9995608,-2.1427369117736816,-1.3334243607572098,-2.5252180735217493,6.111363994866171,1.0149493217468262,-2.899544064198629
1708433247.0015957,-2.142667770385742,-1.3334561747363587,-2.525250498448507,6.111307370453634,1.014965534210205,-2.8988876978503626
1708433247.0035648,-2.142643928527832,-1.3334928762963791,-2.525266949330465,6.111302959709921,1.0149612426757812,-2.898102347050802
1708433247.0055513,-2.142704486846924,-1.3334234666875382,-2.525238577519552,6.111283528595724,1.0149569511413574,-2.8974595705615442
1708433247.0075994,-2.142639636993408,-1.3334158223918458,-2.525275532399313,6.111320841103353,1.0149943828582764,-2.8966861406909388
1708433247.009571,-2.142664909362793,-1.3334396493485947,-2.525283161793844,6.111307370453634,1.0149812698364258,-2.896031681691305
1708433247.0115638,-2.142639636993408,-1.3334604662707825,-2.5252581278430384,6.11129258850173,1.0150508880615234,-2.895311419163839
1708433247.0135717,-2.142611503601074,-1.3334072840264817,-2.5252907911883753,6.111229526787557,1.0150583982467651,-2.8946149984942835
1708433247.0155756,-2.1426243782043457,-1.3334320199540635,-2.525353018437521,6.111280309944906,1.015033483505249,-2.893916908894674
1708433247.0175505,-2.142648220062256,-1.3334482175162812,-2.525360647832052,6.111229526787557,1.0150291919708252,-2.893332544957296
1708433247.0195537,-2.1426525115966797,-1.333402932887413,-2.5253270308123987,6.11123405674056,1.0150947570800781,-2.892606321965353
1708433247.0215664,-2.142604351043701,-1.3334320050529023,-2.5253637472735804,6.111250388413229,1.0151152610778809,-2.8919675985919397
1708433247.0235713,-2.1426243782043457,-1.3334041398814698,-2.525421682988302,6.111218917160787,1.0151066780090332,-2.89122444788088
1708433247.0256164,-2.142591953277588,-1.3333870631507416,-2.5253551642047327,6.1112356064613245,1.015114188194275,-2.8905158678637903
1708433247.027606,-2.1426005363464355,-1.3334277433208008,-2.525399986897604,6.111260878830709,1.0150892734527588,-2.88985258737673
1708433247.029566,-2.1425724029541016,-1.3333586615375062,-2.525416437779562,6.111195432930746,1.0151054859161377,-2.8891926447497767
1708433247.0315764,-2.1425881385803223,-1.3334439408830185,-2.5254650751696985,6.11123679855422,1.015129804611206,-2.8885093371020716
1708433247.0335948,-2.1426172256469727,-1.3333749038032074,-2.52541953722109,6.11125801780776,1.0151833295822144,-2.887771193181173
1708433247.0355678,-2.1425554752349854,-1.3334277433208008,-2.525374714528219,6.111192452698507,1.01515793800354,-2.8871081511126917
1708433247.0375865,-2.1425681114196777,-1.3333999526551743,-2.525407616292135,6.111195432930746,1.015144944190979,-2.8863962332354944
1708433247.0395815,-2.142596960067749,-1.3334041398814698,-2.525456492100851,6.111183392792501,1.0151777267456055,-2.885728899632589
1708433247.0416248,-2.1425204277038574,-1.3334158223918458,-2.5254433790790003,6.111184704094686,1.0151852369308472,-2.8850114981280726
1708433247.0436132,-2.142547607421875,-1.3334320199540635,-2.5254271666156214,6.111165511399069,1.0152053833007812,-2.884352986012594
1708433247.0455637,-2.142568588256836,-1.333411530857422,-2.5254390875445765,6.111109840660848,1.0152626037597656,-2.8836191336261194
1708433247.0476365,-2.1425490379333496,-1.3334200096181412,-2.5254557768451136,6.111177313118734,1.0152453184127808,-2.8829291502581995
1708433247.0495706,-2.142540454864502,-1.3334604513696213,-2.5254557768451136,6.1111323712165735,1.0153275728225708,-2.882195536290304
1708433247.0515509,-2.142544746398926,-1.3334234368852158,-2.5254839102374476,6.111124861031332,1.0152859687805176,-2.8814902941333216
1708433247.053565,-2.142536163330078,-1.3334362220815201,-2.5254796187030237,6.111108767777242,1.0152729749679565,-2.8807340304004114
1708433247.0555565,-2.142551898956299,-1.33337918043647,-2.5254557768451136,6.111108767777242,1.015305757522583,-2.8800671736346644
1708433247.0576098,-2.1425297260284424,-1.333439664249756,-2.525471035634176,6.111132252007284,1.015321969985962,-2.8793674151050013
1708433247.0595553,-2.1425209045410156,-1.3333748590997239,-2.5255001227008265,6.111066806107321,1.0153508186340332,-2.878688160573141
1708433247.0615692,-2.1425042152404785,-1.3334320199540635,-2.5254796187030237,6.111122238426962,1.0153833627700806,-2.8779259363757532
1708433247.0635974,-2.1424803733825684,-1.3334115457585831,-2.525552574788229,6.111054646759786,1.015398621559143,-2.8772550264941614
1708433247.0655527,-2.142484188079834,-1.3334310066751023,-2.525503460560934,6.1110890982444666,1.015402913093567,-2.876537863408224
1708433247.067602,-2.1424548625946045,-1.3334277433208008,-2.525527540837423,6.111072766571798,1.015418291091919,-2.8758793512927454
1708433247.0696707,-2.1424927711486816,-1.3334158223918458,-2.5255516211139124,6.1110726473625085,1.0154345035552979,-2.8751500288592737
1708433247.0716197,-2.1424803733825684,-1.3334115457585831,-2.525527540837423,6.111069786339559,1.015430212020874,-2.8744450251208704
1708433247.073618,-2.142427682876587,-1.3334234815886994,-2.5255559126483362,6.111047374993124,1.0154500007629395,-2.873802725468771
1708433247.0756702,-2.1424522399902344,-1.3334029030850907,-2.5255427996264856,6.111051785736837,1.0154423713684082,-2.873117272053854
1708433247.077576,-2.14249324798584,-1.3333748590997239,-2.52555495897402,6.110995042115011,1.0154662132263184,-2.872375790272848
1708433247.079591,-2.1424522399902344,-1.3334277433208008,-2.525566879902975,6.111044156342306,1.015482783317566,-2.8717435042010706
1708433247.0816329,-2.1424241065979004,-1.333444820051529,-2.525595251713888,6.111015903740682,1.0154905319213867,-2.8710132280932825
1708433247.0836253,-2.142449378967285,-1.3334689450315018,-2.5256202856646937,6.111012923508444,1.0155143737792969,-2.870286528264181
1708433247.0856056,-2.142465114593506,-1.333370493059494,-2.525599543248312,6.111041056900778,1.0155309438705444,-2.8695972601519983
1708433247.0875866,-2.142432689666748,-1.33344058812175,-2.5256486574756067,6.111060845642843,1.0155665874481201,-2.8688727060901087
1708433247.089646,-2.1424455642700195,-1.3334234666875382,-2.525656286870138,6.111020314484396,1.0155503749847412,-2.868142906819479
1708433247.0915983,-2.1424288749694824,-1.3334448647550126,-2.5256193319903772,6.110975611000814,1.0155534744262695,-2.8673930803882044
1708433247.0936553,-2.1423888206481934,-1.3334320199540635,-2.5256148020373743,6.110975611000814,1.0156234502792358,-2.8667693773852747
1708433247.0956094,-2.142359495162964,-1.3334072691253205,-2.5256267229663294,6.110980140953817,1.0156147480010986,-2.866044823323385
1708433247.097614,-2.1424245834350586,-1.333439664249756,-2.5256624857531946,6.1109845516975305,1.0156598091125488,-2.865347925816671
1708433247.0995665,-2.1424131393432617,-1.3334191006473084,-2.525707546864645,6.110944020539083,1.0156301259994507,-2.8645907084094446
1708433247.1015642,-2.1424062252044678,-1.3334041398814698,-2.5256837050067347,6.110965239792623,1.0156511068344116,-2.863957468663351
1708433247.103589,-2.1423683166503906,-1.3334072691253205,-2.5257249514209192,6.110981690674581,1.0156826972961426,-2.8632031122790735
1708433247.1056037,-2.1423768997192383,-1.3334320199540635,-2.5256999174701136,6.110927569657125,1.0157320499420166,-2.8625338713275355
1708433247.1075606,-2.14235258102417,-1.3334234666875382,-2.525686804448263,6.110903489380636,1.0157067775726318,-2.8618796507464808
1708433247.1095898,-2.1423444747924805,-1.3334158223918458,-2.5257325808154505,6.110899078636923,1.0157233476638794,-2.8611908594714563
1708433247.111546,-2.1423277854919434,-1.3334482324174424,-2.5257194677936,6.1109574911888025,1.0157427787780762,-2.8605321089373987
1708433247.113553,-2.1423654556274414,-1.3333913844874878,-2.525727097188131,6.110936629563131,1.015730857849121,-2.8598225752459925
1708433247.1155875,-2.1423091888427734,-1.3334277433208008,-2.5257194677936,6.110872614174642,1.0157743692398071,-2.85911733308901
1708433247.117563,-2.142333507537842,-1.333439664249756,-2.52578050294985,6.110872614174642,1.0158030986785889,-2.8584333101855677
1708433247.1195886,-2.1423048973083496,-1.3334158223918458,-2.525771681462423,6.110872614174642,1.015860676765442,-2.8577922026263636
1708433247.1215537,-2.1423134803771973,-1.3334647429040452,-2.5257795492755335,6.110855924874105,1.015843152999878,-2.8571000734912317
1708433247.1235623,-2.1423537731170654,-1.3333999526551743,-2.5257301966296595,6.110832083016195,1.015842318534851,-2.856421772633688
1708433247.1255848,-2.14229679107666,-1.3334158223918458,-2.5257957617389124,6.110881554871359,1.0158138275146484,-2.8557375113116663
1708433247.1275954,-2.142305612564087,-1.3334115457585831,-2.5258362928973597,6.110881435662069,1.0158793926239014,-2.855023447667257
1708433247.12962,-2.1422574520111084,-1.3334158223918458,-2.5257871786700647,6.110857474594869,1.0158458948135376,-2.8543291727649134
1708433247.1315863,-2.14224910736084,-1.3334234666875382,-2.52579909959902,6.110833632736959,1.015919804573059,-2.8536694685565394
1708433247.133588,-2.1423099040985107,-1.3334115457585831,-2.525843922291891,6.1108648655708215,1.0159273147583008,-2.8530288378344935
1708433247.1355808,-2.14227294921875,-1.3334361922791977,-2.525811020527975,6.110788571625509,1.0159766674041748,-2.8522542158709925
1708433247.1375966,-2.1422576904296875,-1.333439664249756,-2.5258308092700403,6.110788690834799,1.0159549713134766,-2.8515499273883265
1708433247.139587,-2.142245292663574,-1.3334158223918458,-2.5258591810809534,6.110805022507467,1.0159505605697632,-2.850809876118795
1708433247.1416352,-2.1421959400177,-1.3333956611207505,-2.5258634726153772,6.110772239952841,1.0159995555877686,-2.850154463444845
1708433247.1435652,-2.142205238342285,-1.3334115457585831,-2.5258753935443323,6.1107438681419275,1.0159952640533447,-2.8494284788714808
1708433247.1455853,-2.1422269344329834,-1.3333914291909714,-2.5258916060077112,6.110778200417318,1.0160118341445923,-2.848729197178976
1708433247.1476274,-2.142209053039551,-1.3334277433208008,-2.5258947054492396,6.110721337586202,1.0160434246063232,-2.8480241934405726
1708433247.1495607,-2.142204761505127,-1.3334234964898606,-2.525874201451437,6.1107122776801965,1.016063928604126,-2.847290579472677
1708433247.1515467,-2.142152786254883,-1.3334406179240723,-2.5259767214404505,6.110742199211874,1.01608407497406,-2.8465967814074915
1708433247.1535852,-2.1421170234680176,-1.3334244054606934,-2.5259442965136927,6.1106841442878626,1.01608407497406,-2.845905367528097
1708433247.155562,-2.142141342163086,-1.3334396493485947,-2.525935475026266,6.110702025681295,1.0160796642303467,-2.8452327887164515
1708433247.157587,-2.142134189605713,-1.3334234666875382,-2.525959316884176,6.11068223693923,1.016127586364746,-2.844560448323385
1708433247.1595607,-2.1421217918395996,-1.333415837293007,-2.525971237813131,6.110673415451803,1.0161395072937012,-2.8437894026385706
1708433247.1615846,-2.1421384811401367,-1.3334234368852158,-2.525975529347555,6.110621320992269,1.016160011291504,-2.8431316057788294
1708433247.163555,-2.1421005725860596,-1.333439664249756,-2.5259669462787073,6.110637652664938,1.0161683559417725,-2.8424223105060022
1708433247.1655595,-2.1420724391937256,-1.33344820261512,-2.5259833971606653,6.1106018898780725,1.0161962509155273,-2.841773573552267
1708433247.1675904,-2.142057418823242,-1.3334603917649765,-2.526004139577047,6.110597479134359,1.0161876678466797,-2.8410642782794397
1708433247.1695755,-2.142073154449463,-1.3334072691253205,-2.526004139577047,6.110610830574789,1.016211748123169,-2.840370003377096
1708433247.171599,-2.142016649246216,-1.3334604662707825,-2.5260444323169153,6.110521304398336,1.0162204504013062,-2.8396440188037317
1708433247.1735654,-2.142042636871338,-1.3334072691253205,-2.5260477701770228,6.110479104309835,1.0162192583084106,-2.8389204184161585
1708433247.1755965,-2.141989231109619,-1.3334320199540635,-2.5260523001300257,6.110468613892355,1.0162479877471924,-2.838238302861349
1708433247.1776106,-2.141964912414551,-1.3334267449430008,-2.526076380406515,6.11047779300765,1.0162436962127686,-2.8374903837787073
1708433247.1795607,-2.1419663429260254,-1.33345182359729,-2.526034657155172,6.1104256985481165,1.0162761211395264,-2.8368006388293665
1708433247.1815853,-2.141925573348999,-1.3334439408830185,-2.526067558919088,6.110410439759054,1.0162631273269653,-2.836087767277853
1708433247.1835742,-2.141892194747925,-1.333435298209526,-2.5260914007769983,6.11039565780715,1.016304612159729,-2.8353992144214075
1708433247.1855514,-2.14193058013916,-1.3334561896375199,-2.5260751883136194,6.110379206925192,1.0163406133651733,-2.8347623983966272
1708433247.1875775,-2.1418864727020264,-1.333439664249756,-2.5260914007769983,6.110356557160177,1.0163440704345703,-2.83405048051943
1708433247.1895683,-2.1418216228485107,-1.333439664249756,-2.5261195341693323,6.110310423165121,1.016323208808899,-2.8333938757525843
1708433247.1915896,-2.1417970657348633,-1.3334224385074158,-2.5261557737933558,6.1103237746055505,1.016384482383728,-2.8327189127551478
1708433247.1935816,-2.1417899131774902,-1.3333956611207505,-2.526151482258932,6.110257851868429,1.016387939453125,-2.832035843526022
1708433247.1955771,-2.1417746543884277,-1.3334518384984513,-2.5261884371386927,6.110191929131307,1.0164860486984253,-2.8314085642444056
1708433247.1975996,-2.1417295932769775,-1.333456204538681,-2.526179615651266,6.1101698754127405,1.0164488554000854,-2.8307347933398646
1708433247.1995904,-2.1416821479797363,-1.3334875863841553,-2.5261829535113733,6.110168564110555,1.016431450843811,-2.83010703722109
1708433247.2015884,-2.1416537761688232,-1.3334832054427643,-2.5262156168567103,6.110079991608419,1.0164357423782349,-2.829461161290304
1708433247.2035527,-2.1416587829589844,-1.3334637743285676,-2.5262323061572474,6.110107052117147,1.0164555311203003,-2.8288090864764612
1708433247.2055714,-2.1415743827819824,-1.3334517788938065,-2.5262354055987757,6.110059249192037,1.0165376663208008,-2.8281362692462366
1708433247.2075858,-2.141542434692383,-1.3334799271873017,-2.526219193135397,6.1099902270133875,1.0165420770645142,-2.8275137583362024
1708433247.2095525,-2.141470432281494,-1.3334918481162568,-2.5262933413134974,6.109982716828146,1.0165733098983765,-2.8268781344043177
1708433247.2115676,-2.14141845703125,-1.3335084182075043,-2.526280228291647,6.109873759537496,1.0165724754333496,-2.826268259678976
1708433247.2136095,-2.1414318084716797,-1.3334432703307648,-2.5262518564807337,6.109879839211263,1.0165843963623047,-2.8256242910968226
1708433247.2155538,-2.1413631439208984,-1.333449975853302,-2.52627140680422,6.109773623734274,1.0165756940841675,-2.825007740651266
1708433247.2175922,-2.1412906646728516,-1.3334790480187912,-2.5263248125659388,6.109780895500936,1.0166337490081787,-2.8243961969958704
1708433247.219562,-2.141221046447754,-1.3334997308305283,-2.5263236204730433,6.109757411270895,1.0166250467300415,-2.82381779352297
1708433247.2215655,-2.1411821842193604,-1.3335114282420655,-2.526310745869772,6.10967646816329,1.0166566371917725,-2.8231523672686976
1708433247.223592,-2.1411519050598145,-1.3335276258042832,-2.526367489491598,6.109529721527853,1.016685128211975,-2.8225894610034388
1708433247.2255816,-2.1410927772521973,-1.333547980790474,-2.526371781026022,6.109486567765035,1.0166926383972168,-2.821956459675924
1708433247.2275665,-2.1410272121429443,-1.3335266572288056,-2.526423994694845,6.109419333725729,1.0167373418807983,-2.8213704268084925
1708433247.2295938,-2.140961170196533,-1.3335029047778626,-2.5263662973987024,6.109311568527975,1.0167529582977295,-2.820799175892965
1708433247.23159,-2.140815019607544,-1.3335352850011368,-2.5263989607440394,6.109232532769003,1.0167737007141113,-2.8201494852649134
1708433247.2336323,-2.140784740447998,-1.3335147213986893,-2.526447836552755,6.109186160355367,1.0168182849884033,-2.8195887247668665
1708433247.2355878,-2.1406922340393066,-1.33357127130542,-2.5264840761767786,6.109065282135763,1.0167843103408813,-2.8189106623279017
1708433247.2376373,-2.140596628189087,-1.3335996282151719,-2.5264959971057337,6.108997571259298,1.0168503522872925,-2.8183921019183558
1708433247.2396631,-2.140561103820801,-1.3335834306529541,-2.5264950434314173,6.108878242760458,1.0168285369873047,-2.8178251425372522
1708433247.2415717,-2.1404402256011963,-1.3335707050612946,-2.526527706776754,6.108763086586752,1.0168728828430176,-2.8172290960894983
1708433247.243638,-2.140324115753174,-1.3335987341455002,-2.526560370122091,6.108585226326742,1.016897201538086,-2.816727940236227
1708433247.2455611,-2.1402697563171387,-1.3335869175246735,-2.5265875498401087,6.108471858292379,1.0169419050216675,-2.816160504017965
1708433247.2476115,-2.140158176422119,-1.3336146038821717,-2.5266204516040247,6.108343112259664,1.0169657468795776,-2.8155844847308558
1708433247.249566,-2.140000581741333,-1.3336754006198426,-2.5266149679767054,6.108154880791464,1.0169647932052612,-2.815026585255758
1708433247.2515597,-2.1399495601654053,-1.333708108668663,-2.526668373738424,6.1080232737358,1.0169813632965088,-2.8145411650287073
1708433247.253575,-2.139785051345825,-1.333679051404335,-2.5267043749438685,6.107912409096517,1.0170217752456665,-2.8139682451831263
1708433247.255579,-2.139678955078125,-1.3336549562266846,-2.526723925267355,6.107724296837606,1.0170458555221558,-2.813448492680685
1708433247.2576294,-2.1395061016082764,-1.3337395650199433,-2.526715103779928,6.107565867691793,1.0170742273330688,-2.812948767338888
1708433247.2595818,-2.139370918273926,-1.3337019246867676,-2.526742760335104,6.107337224274435,1.0171267986297607,-2.8124571482287806
1708433247.2615595,-2.1392436027526855,-1.3337798726609726,-2.526788298283712,6.10717140415267,1.017118215560913,-2.8119829336749476
1708433247.263567,-2.1390390396118164,-1.3337713342956086,-2.526848379765646,6.106897699623861,1.017129898071289,-2.8114801088916224
1708433247.2655761,-2.138855218887329,-1.3337908250144501,-2.526872221623556,6.106772053032675,1.017166018486023,-2.8109870592700403
1708433247.2675946,-2.1387085914611816,-1.3337832701257248,-2.5269292036639612,6.106495249062338,1.0172141790390015,-2.810556475316183
1708433247.2696116,-2.1385037899017334,-1.333810643558838,-2.5269561449633997,6.106320607453146,1.017242193222046,-2.8100550810443323
1708433247.2715762,-2.1383490562438965,-1.3338675063899537,-2.526919190083639,6.10605155208663,1.0172829627990723,-2.8096542994128626
1708433247.2735913,-2.1381285190582275,-1.333854080443718,-2.5269671122180384,6.105833518296041,1.0173263549804688,-2.809148613606588
1708433247.2755914,-2.1379005908966064,-1.3338455271771927,-2.5270031134234827,6.105577814369955,1.0173583030700684,-2.8087876478778284
1708433247.277587,-2.137693405151367,-1.333898351793625,-2.5270686785327356,6.105238663941183,1.0173864364624023,-2.8083394209491175
1708433247.2795894,-2.1374738216400146,-1.333926798110344,-2.5270751158343714,6.104943978577413,1.017401099205017,-2.8079236189471644
1708433247.281667,-2.137218952178955,-1.3339374226382752,-2.5271111170398157,6.104630219727316,1.0174994468688965,-2.8075268904315394
1708433247.28362,-2.136972188949585,-1.3339906644872208,-2.527135197316305,6.104338395386495,1.0175472497940063,-2.8071520964251917
1708433247.2856362,-2.136687994003296,-1.3340180230191727,-2.527208391820089,6.104021537094869,1.0175879001617432,-2.806747023259298
1708433247.287576,-2.136472225189209,-1.3340341311744233,-2.527210299168722,6.103744971543112,1.0176314115524292,-2.8063631693469446
1708433247.2895765,-2.1362087726593018,-1.3340536814979096,-2.5272517840014856,6.103462803154745,1.0176140069961548,-2.80601674715151
1708433247.2915645,-2.135918617248535,-1.33406217515979,-2.527316157017843,6.1030815718467615,1.0177159309387207,-2.805636707936422
1708433247.2935743,-2.135662317276001,-1.3340656769326706,-2.5273311773883265,6.1027753231819055,1.017707347869873,-2.8053181807147425
1708433247.2955997,-2.1354236602783203,-1.3340648424676438,-2.5274208227740687,6.102365004807272,1.0177958011627197,-2.8049469629870813
1708433247.2975936,-2.1350884437561035,-1.3341008734754105,-2.527407948170797,6.101928698807516,1.0178313255310059,-2.8046677748309534
1708433247.2996066,-2.1347734928131104,-1.334173546438553,-2.5274482409106653,6.101600038796224,1.0178511142730713,-2.8043113390551966
1708433247.3016455,-2.1344406604766846,-1.3341570806554337,-2.5274997393237513,6.101124512940206,1.0179691314697266,-2.804030958806173
1708433247.3036058,-2.134207010269165,-1.3341692102006455,-2.5275965372668665,6.10073600986556,1.0179681777954102,-2.8037923018084925
1708433247.3056002,-2.1338846683502197,-1.3342256557992478,-2.527607504521505,6.1002564308936975,1.018024206161499,-2.803504769002096
1708433247.3075614,-2.1335337162017822,-1.3342129302075882,-2.527717177067892,6.099874603539266,1.0180230140686035,-2.8032644430743616
1708433247.3095691,-2.1331613063812256,-1.3342648160508652,-2.527674976979391,6.099432098656454,1.0181245803833008,-2.8030222097979944
1708433247.311549,-2.132772922515869,-1.3342928898385544,-2.527792755757467,6.099001991539755,1.0181889533996582,-2.802824083958761
1708433247.3135493,-2.1324446201324463,-1.3343006086400528,-2.527799193059103,6.098505961685934,1.0182087421417236,-2.8025780359851282
1708433247.3155859,-2.1320695877075195,-1.334295780663826,-2.5278266111956995,6.097996103554525,1.0183137655258179,-2.8023338953601282
1708433247.3175554,-2.131706476211548,-1.3343934428742905,-2.527890984212057,6.097449171334066,1.0183769464492798,-2.8021557966815394
1708433247.3195658,-2.131239891052246,-1.3344007444432755,-2.528020683919088,6.096935021668234,1.018388032913208,-2.8019500414477747
1708433247.321578,-2.1308274269104004,-1.3344406646541138,-2.5280359427081507,6.096340167313375,1.018480896949768,-2.801807705556051
1708433247.3236163,-2.1303610801696777,-1.3344681870988389,-2.5280588308917444,6.0958629725273035,1.018545389175415,-2.8015952746020716
1708433247.3255968,-2.129957914352417,-1.334475578074791,-2.528123203908102,6.095271098404684,1.0186220407485962,-2.801458183919088
1708433247.3275638,-2.129535436630249,-1.3344836098006745,-2.5282397905932825,6.094680893212118,1.0187145471572876,-2.8013113180743616
1708433247.3295867,-2.1290714740753174,-1.3345441830209275,-2.528276030217306,6.094102251320638,1.0187093019485474,-2.8012338320361536
1708433247.3316045,-2.128612756729126,-1.3345680248788376,-2.528343741093771,6.093460428505697,1.0188219547271729,-2.8010805288897913
1708433247.333561,-2.128073215484619,-1.334599645142891,-2.528449360524313,6.0927783129508875,1.0188729763031006,-2.800986353551046
1708433247.3355846,-2.1275413036346436,-1.3346441251090546,-2.528479878102438,6.092082965164938,1.0189615488052368,-2.8008888403521937
1708433247.337624,-2.12703800201416,-1.3346994084170838,-2.5285308996783655,6.091409551888265,1.019066572189331,-2.800763193761007
1708433247.3395646,-2.1265530586242676,-1.3347070825150986,-2.5285986105548304,6.09075807312087,1.0191715955734253,-2.8008201758014124
1708433247.3415902,-2.125985622406006,-1.334735394721367,-2.528724018727438,6.089985239296713,1.0192676782608032,-2.800755564366476
1708433247.3435512,-2.125478982925415,-1.3347875040820618,-2.5288170019732874,6.08931730964736,1.019274353981018,-2.800699059163229
1708433247.345589,-2.1249639987945557,-1.334847943191864,-2.5288758913623255,6.088623511582174,1.0193629264831543,-2.800675694142477
1708433247.34759,-2.1244070529937744,-1.3348840487054368,-2.5289555231677454,6.087865936547079,1.0194557905197144,-2.800692860280172
1708433247.3495615,-2.1237998008728027,-1.3348754954389115,-2.5290654341327112,6.087076890259542,1.019482135772705,-2.8006473223315638
1708433247.351605,-2.1232166290283203,-1.3349516105702897,-2.5291321913348597,6.086144792824545,1.019635796546936,-2.8007124106036585
1708433247.3535666,-2.122576951980591,-1.3349829775146027,-2.5292072931872767,6.085377800255575,1.0197932720184326,-2.8007734457599085
1708433247.3555813,-2.1219871044158936,-1.3349583756974717,-2.529316012059347,6.0845234272773645,1.0198240280151367,-2.8008621374713343
1708433247.357584,-2.121344566345215,-1.335079402928688,-2.5293665567981165,6.083649503975668,1.0198841094970703,-2.800880257283346
1708433247.3595936,-2.120697021484375,-1.3350378435901185,-2.529536549245016,6.0827687857444666,1.0199848413467407,-2.8010016123401087
1708433247.3616312,-2.120042085647583,-1.3351265054992218,-2.529599730168478,6.081862437516012,1.0200974941253662,-2.801040236149923
1708433247.3635662,-2.1194119453430176,-1.3351822209409256,-2.5297003428088587,6.0809703944023035,1.0201311111450195,-2.801082436238424
1708433247.3655634,-2.118708610534668,-1.33521822214637,-2.5297513643847864,6.080043661385336,1.0202807188034058,-2.8012169043170374
1708433247.3675935,-2.1180596351623535,-1.3352621358684083,-2.529850784932272,6.079108106880941,1.0203850269317627,-2.801321808491842
1708433247.3695726,-2.117312431335449,-1.3353457611850281,-2.529917303715841,6.078151333123007,1.0205060243606567,-2.8014546076404017
1708433247.3716042,-2.11657452583313,-1.3353537184051056,-2.5300546328174036,6.077149736672201,1.0205771923065186,-2.8015669027911585
1708433247.3736336,-2.1158761978149414,-1.3354654622128983,-2.530188862477438,6.076225745468893,1.0207016468048096,-2.801713768635885
1708433247.3756065,-2.115126132965088,-1.335444377069809,-2.5302391687976282,6.075181710511007,1.0208263397216797,-2.8019161860095423
1708433247.377644,-2.114375591278076,-1.335533322100975,-2.5303764978991907,6.074200737267294,1.0209389925003052,-2.802040163670675
1708433247.3795886,-2.113616943359375,-1.3355801862529297,-2.5304563681231897,6.073133814125814,1.021005392074585,-2.8022425810443323
1708433247.3815808,-2.112839460372925,-1.3356281083873291,-2.5305684248553675,6.07206009605483,1.021134614944458,-2.802429501210348
1708433247.3835697,-2.112032175064087,-1.3356919300607224,-2.530646864567892,6.071073281555929,1.0212351083755493,-2.802682940159933
1708433247.3855753,-2.1112658977508545,-1.335751773124077,-2.530738417302267,6.069948899536886,1.0213394165039062,-2.8029397169696253
1708433247.387569,-2.110394239425659,-1.335819349890091,-2.530879084263937,6.068784463196554,1.0215203762054443,-2.8031790892230433
1708433247.3895931,-2.109605312347412,-1.335903824572899,-2.530992571507589,6.067704427033224,1.0216407775878906,-2.803481403981344
1708433247.3916008,-2.1087965965270996,-1.335972086792328,-2.531062428151266,6.066634762078085,1.021711826324463,-2.8037944475757044
1708433247.3935933,-2.1079530715942383,-1.3360964518836518,-2.5312073866473597,6.0654629347618005,1.0218110084533691,-2.804060761128561
1708433247.3955896,-2.1070830821990967,-1.3360619407943268,-2.5313690344439905,6.064386355667867,1.0219478607177734,-2.804385010396139
1708433247.3975968,-2.10624098777771,-1.3361905676177521,-2.5314562956439417,6.063222992211141,1.0220887660980225,-2.8046487013446253
1708433247.3995683,-2.1053245067596436,-1.336242825990059,-2.5315640608416956,6.061975943833151,1.0222375392913818,-2.8049915472613733
1708433247.4015684,-2.1044692993164062,-1.3362576079419632,-2.531679932271139,6.060780989914694,1.022312879562378,-2.8053110281573694
1708433247.4035664,-2.1035544872283936,-1.3363624674132843,-2.531836811696188,6.059495436936178,1.0224496126174927,-2.8057037035571497
1708433247.4055808,-2.102628469467163,-1.336401642566063,-2.531919781361715,6.05830596664504,1.0225281715393066,-2.8061180750476282
1708433247.4075863,-2.1016957759857178,-1.3364170056632538,-2.532064978276388,6.057023155480184,1.0226736068725586,-2.8064072767840784
1708433247.4095614,-2.100836992263794,-1.336565689449646,-2.532229487095968,6.055764663010397,1.0227981805801392,-2.8068509737597864
1708433247.4115548,-2.0999436378479004,-1.336596579556801,-2.5323079268084925,6.054423320084371,1.0229182243347168,-2.8071730772601526
1708433247.4135997,-2.0990054607391357,-1.3367136728814621,-2.5324443022357386,6.0531712649162195,1.0230056047439575,-2.8076422850238245
1708433247.4155853,-2.098116397857666,-1.3367730987123032,-2.5325077215777796,6.0519025204475305,1.0231752395629883,-2.8080621401416224
1708433247.4175682,-2.097144365310669,-1.3367880445769806,-2.532647196446554,6.050611841469564,1.023292064666748,-2.8084848562823694
1708433247.4195678,-2.096296787261963,-1.3368888211301346,-2.532766882573263,6.049257385521688,1.0233993530273438,-2.808822218571798
1708433247.421571,-2.095304489135742,-1.3368913245252152,-2.5328739325152796,6.04796992519454,1.0235358476638794,-2.8092594782458704
1708433247.4235952,-2.0943801403045654,-1.3370115023902436,-2.533032242451803,6.046596634178915,1.0236725807189941,-2.809749190007345
1708433247.4256077,-2.093377113342285,-1.3370467734387894,-2.5331183115588587,6.0453446982200525,1.0237752199172974,-2.8101468721972864
1708433247.4275987,-2.092468500137329,-1.3371470135501404,-2.533254686986105,6.043990719109335,1.0239120721817017,-2.8105714956866663
1708433247.4295905,-2.091515302658081,-1.3372183603099366,-2.5333710352527063,6.042629587441244,1.0240695476531982,-2.8110089937793177
1708433247.4315815,-2.090557336807251,-1.3372986924699326,-2.533482615147726,6.04125331619338,1.0241731405258179,-2.8114948908435267
1708433247.4336035,-2.089595079421997,-1.3373742264560242,-2.533618752156393,6.03992639759139,1.024284839630127,-2.811995808278219
1708433247.4355776,-2.0886425971984863,-1.3374294352582474,-2.533759657536642,6.038617479592123,1.0243884325027466,-2.812387530003683
1708433247.4375927,-2.0876309871673584,-1.3375861209682007,-2.5338383356677454,6.0372609970863245,1.0245532989501953,-2.812821690236227
1708433247.4396143,-2.0866570472717285,-1.3376376044801255,-2.534027878438131,6.03589283207015,1.0246978998184204,-2.8133750597583216
1708433247.441603,-2.0856802463531494,-1.3377134811929245,-2.5341313521014612,6.0344629166419885,1.0248377323150635,-2.813887898121969
1708433247.443608,-2.0847041606903076,-1.3378008616021653,-2.5342426935779017,6.033083426743307,1.0249425172805786,-2.814469877873556
1708433247.4455786,-2.0837137699127197,-1.3379584562829514,-2.5343626181231897,6.031759011536398,1.0250661373138428,-2.8149338404284876
1708433247.4475963,-2.0827364921569824,-1.3379891079715271,-2.534490172063009,6.030329215317526,1.0252028703689575,-2.8154175917254847
1708433247.4495826,-2.0817267894744873,-1.3380891245654603,-2.5346384684192103,6.028875577240743,1.025294542312622,-2.8158558050738733
1708433247.451575,-2.0807549953460693,-1.3381847155145188,-2.53481632867922,6.0275131342704675,1.025410771369934,-2.816368643437521
1708433247.45359,-2.079685688018799,-1.3382019412568589,-2.5348830858813685,6.026095855026998,1.0255197286605835,-2.81688100496401
1708433247.455571,-2.0786774158477783,-1.3383356791785737,-2.5349953810321253,6.024677264481344,1.0255987644195557,-2.817423645650045
1708433247.4575965,-2.077625036239624,-1.3383825880340119,-2.5351184050189417,6.023242103844442,1.0257558822631836,-2.8179245630847376
1708433247.4595804,-2.0765936374664307,-1.3384334754994889,-2.535250250493185,6.021802055626669,1.0258804559707642,-2.8184495607959192
1708433247.4615846,-2.075593948364258,-1.3385705959847947,-2.5353878180133265,6.020345437317648,1.0259472131729126,-2.81898004213442
1708433247.463571,-2.0745184421539307,-1.3386866611293335,-2.5355363527881067,6.0188084719474695,1.0261088609695435,-2.819568697606222
1708433247.4655766,-2.073542594909668,-1.338708610539772,-2.535553757344381,6.017296421318807,1.026208519935608,-2.820123259221212
1708433247.4676182,-2.072445869445801,-1.3388572347215195,-2.535731617604391,6.015942799835958,1.0263744592666626,-2.8207131067859095
1708433247.469601,-2.0714707374572754,-1.3389499646476288,-2.535814348851339,6.014552104264059,1.0264443159103394,-2.8212061564074915
1708433247.471612,-2.070460081100464,-1.3390337240746994,-2.535959307347433,6.013189542084493,1.0265824794769287,-2.8218091169940394
1708433247.4736392,-2.0694615840911865,-1.3391497147134324,-2.536039177571432,6.011695372849264,1.0266858339309692,-2.8223419825183313
1708433247.4755967,-2.0684001445770264,-1.3392421168139954,-2.5361667315112513,6.010174500733175,1.026733160018921,-2.8229292074786585
1708433247.4776685,-2.067351818084717,-1.3393161606839676,-2.536283318196432,6.008719551354208,1.0268654823303223,-2.8234782854663294
1708433247.4796054,-2.066269874572754,-1.3394127798131485,-2.536382261906759,6.0071990368659876,1.0270105600357056,-2.82401687303652
1708433247.481607,-2.065289258956909,-1.3394632053426285,-2.5365188757525843,6.0057939169700525,1.0271100997924805,-2.8246870676623743
1708433247.4836123,-2.064235210418701,-1.3396193546107789,-2.536598269139425,6.004359710007467,1.0272181034088135,-2.8252370993243616
1708433247.4856055,-2.0632247924804688,-1.3396990460208436,-2.536767546330587,6.002903568535604,1.0272729396820068,-2.8258193174945276
1708433247.4875944,-2.062189817428589,-1.3398184043220063,-2.5368295351611536,6.001473295479574,1.0274152755737305,-2.8264461199389856
1708433247.4895933,-2.0611588954925537,-1.3399108064225693,-2.53686768213381,6.000017630844869,1.0275485515594482,-2.826980177556173
1708433247.4915733,-2.060141086578369,-1.3400013160756608,-2.537074867879049,5.998538720398702,1.027631402015686,-2.8276007811175745
1708433247.493627,-2.059101104736328,-1.3401131641915818,-2.5371981302844446,5.99702929237441,1.0277067422866821,-2.828151051198141
1708433247.4956324,-2.058051109313965,-1.3402325224927445,-2.5373192469226282,5.995515572815695,1.0277984142303467,-2.8288119474994105
1708433247.497585,-2.057018995285034,-1.3403529983809968,-2.5373783747302454,5.99404917934493,1.0278959274291992,-2.8293631712542933
1708433247.4995956,-2.056021213531494,-1.3404772144607087,-2.5374577681170862,5.992578017502584,1.0279878377914429,-2.829954449330465
1708433247.5015664,-2.0549874305725098,-1.3405846071294327,-2.5376063028918665,5.991067874222555,1.0280674695968628,-2.8305509726153772
1708433247.5035818,-2.053950786590576,-1.3407118183425446,-2.5376606623279017,5.989616977959432,1.0281192064285278,-2.8311503569232386
1708433247.5055983,-2.0529446601867676,-1.3408478212407609,-2.53782302538027,5.988106834679403,1.0282195806503296,-2.831721846257345
1708433247.5075645,-2.0518789291381836,-1.340959982281067,-2.537894074116842,5.986578333168783,1.0283528566360474,-2.8323002497302454
1708433247.5095694,-2.0508310794830322,-1.3410783273032685,-2.537989918385641,5.985054003983297,1.0284327268600464,-2.832871977482931
1708433247.511562,-2.0498149394989014,-1.3412392002395173,-2.538077418004171,5.983606803208151,1.0284392833709717,-2.833463732396261
1708433247.513565,-2.048818349838257,-1.3413336885026474,-2.53821045557131,5.982176291733541,1.028602123260498,-2.8340769449817103
1708433247.5155604,-2.047773599624634,-1.3414566677859803,-2.5382538477527063,5.980693805008688,1.0286403894424438,-2.8345966974841517
1708433247.5175614,-2.0467634201049805,-1.3415882748416443,-2.5383365789996546,5.9792460081870935,1.0287463665008545,-2.835233751927511
1708433247.519591,-2.0458016395568848,-1.3416914951852341,-2.5384417215930384,5.977753388672628,1.0288219451904297,-2.8358050028430384
1708433247.52158,-2.044773817062378,-1.341832847600319,-2.538525644932882,5.976226675301351,1.0288656949996948,-2.8363686243640345
1708433247.5235586,-2.0437469482421875,-1.3419620108655472,-2.5385897795306605,5.974835145264425,1.0289454460144043,-2.836956802998678
1708433247.5255818,-2.0427441596984863,-1.3421152544072648,-2.5387020746814173,5.973347055702963,1.0289808511734009,-2.837561909352438
1708433247.527581,-2.04170298576355,-1.3422383081964036,-2.5388012568103235,5.971878516464987,1.0290489196777344,-2.8381176630603235
1708433247.5295734,-2.040689468383789,-1.3424030107310791,-2.5388570467578333,5.970483886986532,1.0291125774383545,-2.8386839071856897
1708433247.531578,-2.0397145748138428,-1.3424773675254364,-2.538961712514059,5.969052541046896,1.0291930437088013,-2.8392704168902796
1708433247.5336125,-2.0386884212493896,-1.342641444211342,-2.538980309163229,5.967593776970663,1.029281497001648,-2.839900557194845
1708433247.535571,-2.037705898284912,-1.3427488815835495,-2.5390804449664515,5.966158377915182,1.029301643371582,-2.8404057661639612
1708433247.537583,-2.036736488342285,-1.342900426392891,-2.539173428212301,5.9647631523902795,1.0293372869491577,-2.8410359064685267
1708433247.5395808,-2.0357418060302734,-1.34304794788871,-2.539253060017721,5.963331687241354,1.0293446779251099,-2.841656271611349
1708433247.5415878,-2.034705877304077,-1.343146876697876,-2.5393083731280726,5.961954939156332,1.0294044017791748,-2.8421767393695276
1708433247.5435922,-2.0337395668029785,-1.3432502758554001,-2.5394285360919397,5.960468637734213,1.029477596282959,-2.8427160421954554
1708433247.545592,-2.032747507095337,-1.3434425306371232,-2.5395224730121058,5.95909737327651,1.0295220613479614,-2.8432121912585657
1708433247.5475886,-2.031794309616089,-1.3435470920852204,-2.5395856539355677,5.9576772330100916,1.0295178890228271,-2.8437190691577356
1708433247.5496013,-2.0307657718658447,-1.3436654222062607,-2.5396040121661585,5.9562123892600916,1.029598593711853,-2.844337765370504
1708433247.5516112,-2.02978777885437,-1.3438003224185486,-2.5397380034076136,5.954765903740682,1.0296303033828735,-2.844809118901388
1708433247.5536175,-2.028837203979492,-1.3439200085452576,-2.5397525469409388,5.953352439194479,1.0296218395233154,-2.84536320367922
1708433247.5555768,-2.0278663635253906,-1.3440870505622406,-2.5397875944720667,5.951973664551534,1.029706597328186,-2.8458572069751185
1708433247.5575974,-2.026980400085449,-1.3442144405892869,-2.539896313344137,5.9506040690238855,1.0297471284866333,-2.8463452498065394
1708433247.5595891,-2.026005983352661,-1.3444079023650666,-2.5399978796588343,5.94923101642684,1.0296974182128906,-2.8468084971057337
1708433247.5616226,-2.024996519088745,-1.3445068311742325,-2.5399673620807093,5.947868335037985,1.0297216176986694,-2.8473342100726526
1708433247.5635889,-2.0240986347198486,-1.3446698051742096,-2.5401178042041224,5.9465075609977625,1.0297659635543823,-2.8478170076953333
1708433247.56558,-2.0230872631073,-1.3448383671096344,-2.540156904851095,5.945152747422018,1.0298672914505005,-2.848300282155172
1708433247.5675821,-2.0221495628356934,-1.3449850988439103,-2.540168110524313,5.9437118647392175,1.0298340320587158,-2.8487921396838587
1708433247.5696058,-2.0212109088897705,-1.3451037567904969,-2.540232245122091,5.94236575344161,1.0298786163330078,-2.8492570559131067
1708433247.5715878,-2.020226240158081,-1.345271037226059,-2.5403173605548304,5.941010701447286,1.0298700332641602,-2.8497396151172083
1708433247.5735853,-2.019301176071167,-1.3454925429872056,-2.5403359572040003,5.939705121308126,1.0298864841461182,-2.850229326878683
1708433247.5755985,-2.018346071243286,-1.3456145387938996,-2.5404210726367396,5.938286530762472,1.0298821926116943,-2.8506837526904505
1708433247.577591,-2.017439842224121,-1.3457615983537217,-2.5404484907733362,5.937025058060446,1.0298737287521362,-2.851143185292379
1708433247.5795898,-2.0164883136749268,-1.34591660023246,-2.5404918829547327,5.9356599924858,1.0298492908477783,-2.851628367100851
1708433247.5815954,-2.0155296325683594,-1.3461415332606812,-2.540544335042135,5.934307324677267,1.0298255681991577,-2.8520529905902308
1708433247.583646,-2.014568328857422,-1.3462513846210022,-2.5405998865710657,5.932864415436544,1.029841661453247,-2.852527443562643
1708433247.5855982,-2.013648509979248,-1.3464763474515458,-2.5406857172595423,5.931496012001791,1.0297971963882446,-2.853020970021383
1708433247.5876062,-2.012683391571045,-1.3466112625649949,-2.5406511465655726,5.930128800659933,1.0298298597335815,-2.8534165064441126
1708433247.5895922,-2.011671781539917,-1.3467862021974106,-2.5407612959491175,5.928787696152487,1.0298057794570923,-2.85389215150942
1708433247.591581,-2.010692596435547,-1.3469297599843522,-2.5407517592059534,5.927414524346151,1.0297809839248657,-2.8542638460742396
1708433247.593575,-2.0097949504852295,-1.3470896643451233,-2.5408037344561976,5.926040994911947,1.0298099517822266,-2.8546739260302942
1708433247.5955963,-2.0087673664093018,-1.3472116005471726,-2.5409095923053187,5.924725043564596,1.029822826385498,-2.855086628590719
1708433247.5976105,-2.0079009532928467,-1.3474679303220292,-2.5408628622638147,5.923346864968099,1.0297772884368896,-2.855544392262594
1708433247.599579,-2.006897211074829,-1.347594903116562,-2.5409696737872522,5.921977150231161,1.0297489166259766,-2.8559356371508997
1708433247.6015856,-2.005951404571533,-1.3477820617011567,-2.540959898625509,5.920751678734579,1.0297576189041138,-2.8563767115222376
1708433247.6035748,-2.0050289630889893,-1.3479579997113724,-2.5410166422473353,5.9193328497703455,1.029733419418335,-2.856770102177755
1708433247.6056817,-2.004081964492798,-1.3481527429870148,-2.5410807768451136,5.917945730477133,1.0297011137008667,-2.857162062321798
1708433247.6075935,-2.003082752227783,-1.3483569783023377,-2.541112486516134,5.916664111405172,1.0296766757965088,-2.8575292269336146
1708433247.6095746,-2.0021636486053467,-1.3485765320113678,-2.5411692301379603,5.915372836380758,1.0296895503997803,-2.85795766512026
1708433247.611574,-2.001237392425537,-1.348748267894127,-2.5411561171161097,5.914074289589681,1.0296980142593384,-2.858312193547384
1708433247.6135957,-2.0002574920654297,-1.3489603263190766,-2.5411911646472376,5.912796485214987,1.0296251773834229,-2.8586679140674036
1708433247.6155736,-1.9993051290512085,-1.3491180551103135,-2.541276995335714,5.911418545037069,1.0296261310577393,-2.859091583882467
1708433247.617607,-1.9982868432998657,-1.3493625086596985,-2.541239086781637,5.910085189133444,1.0295730829238892,-2.8594537417041224
1708433247.619578,-1.997347354888916,-1.3495779198459168,-2.541312281285421,5.908792960434713,1.0295614004135132,-2.859821383153097
1708433247.62157,-1.9963651895523071,-1.3497853589108963,-2.5413196722613733,5.907431709557333,1.0295486450195312,-2.8601365725146692
1708433247.623595,-1.9954121112823486,-1.3499592256597062,-2.5413885752307337,5.906081545143881,1.0295205116271973,-2.8604887167560022
1708433247.6256013,-1.9944077730178833,-1.3502237361720582,-2.5413549582110804,5.904825556069174,1.0295130014419556,-2.860875431691305
1708433247.6276143,-1.9934154748916626,-1.3504017007401963,-2.5414112249957483,5.903472530632772,1.0294766426086426,-2.861185375844137
1708433247.6295862,-1.9924269914627075,-1.3505965632251282,-2.541497532521383,5.902076828270712,1.0294440984725952,-2.8615172545062464
1708433247.6315851,-1.9914597272872925,-1.3508454871228714,-2.541459385548727,5.900786149292745,1.029403805732727,-2.8618291060077112
1708433247.6336544,-1.9904674291610718,-1.351063997750618,-2.541515890751974,5.89939175823287,1.0294578075408936,-2.8621445337878626
1708433247.6355855,-1.9894311428070068,-1.3513072741082688,-2.5415726343738,5.898015486985006,1.029396891593933,-2.8624776045428675
1708433247.637602,-1.9884562492370605,-1.3515504163554688,-2.5415716806994837,5.896569359093466,1.0293041467666626,-2.8628087679492396
1708433247.6395788,-1.9874156713485718,-1.3518390220454712,-2.54162842432131,5.895183312683859,1.0293288230895996,-2.8631702105151575
1708433247.6416364,-1.986399531364441,-1.3520533454469223,-2.541685167943136,5.893797266274252,1.0292723178863525,-2.8634164969073694
1708433247.6435785,-1.9853626489639282,-1.3523170512965699,-2.5416765848742884,5.892418610840597,1.0292407274246216,-2.8637571970569056
1708433247.645585,-1.9843697547912598,-1.3525476467660447,-2.541699234639303,5.891079771309652,1.0292004346847534,-2.8640409151660364
1708433247.6475937,-1.9833734035491943,-1.352725864653923,-2.541743818913595,5.88969777801589,1.029172658920288,-2.8643375078784388
1708433247.6495855,-1.9823976755142212,-1.3530615729144593,-2.541755024586813,5.888475405960836,1.0291239023208618,-2.8645830790149134
1708433247.651573,-1.981418251991272,-1.353261874323227,-2.5417941252337855,5.887080776482382,1.0291039943695068,-2.864884678517477
1708433247.6535823,-1.9804469347000122,-1.3535236430219193,-2.541823689137594,5.8857600567634485,1.0290765762329102,-2.8652103582965296
1708433247.6555839,-1.9794381856918335,-1.3538085532239457,-2.5418508688556116,5.884355532913961,1.0290480852127075,-2.8655179182635706
1708433247.6575754,-1.9783763885498047,-1.3540508908084412,-2.541866127644674,5.883100020676412,1.0289912223815918,-2.865744654332296
1708433247.659652,-1.9773720502853394,-1.3543099027923127,-2.541910950337545,5.881660449295797,1.0289148092269897,-2.8660135904895228
1708433247.6615644,-1.976357340812683,-1.3546248239329834,-2.5419631640063685,5.8802785752113245,1.0289157629013062,-2.8662894407855433
1708433247.6635854,-1.9753046035766602,-1.3548109841397782,-2.5420079866992396,5.878911244660177,1.0288513898849487,-2.866596762334005
1708433247.6655772,-1.9742859601974487,-1.3551108849099656,-2.542039457951681,5.877613651543417,1.0288316011428833,-2.8668890635119837
1708433247.667573,-1.973288893699646,-1.3553501677564164,-2.5420473257647913,5.8763290522392175,1.0287597179412842,-2.8671236673938196
1708433247.6696012,-1.9722820520401,-1.3555967521718522,-2.5420668760882776,5.874989616661825,1.0287320613861084,-2.8673766295062464
1708433247.6715977,-1.9712498188018799,-1.3558438134244462,-2.542123619710104,5.873688804894247,1.0286917686462402,-2.867629114781515
1708433247.6736307,-1.9701837301254272,-1.3561502558043976,-2.5421116987811487,5.872324573784628,1.0286023616790771,-2.8678887526141565
1708433247.675599,-1.9690980911254883,-1.3564619284919281,-2.542192284260885,5.870923268585958,1.0285866260528564,-2.868173901234762
1708433247.6775813,-1.9680505990982056,-1.3567537528327485,-2.5422075430499476,5.869523513108053,1.0285507440567017,-2.8684046904193323
1708433247.6795924,-1.9669800996780396,-1.3570447129062195,-2.54225999513735,5.868103134423055,1.028527855873108,-2.8686683813678187
1708433247.6816185,-1.965943694114685,-1.3573235285333176,-2.542276207600729,5.8667863486106775,1.0284677743911743,-2.8688071409808558
1708433247.6837125,-1.9648873805999756,-1.3575695914081116,-2.542304579411642,5.865402328758993,1.0283658504486084,-2.869089190159933
1708433247.6856453,-1.9638224840164185,-1.357897625570633,-2.5423033873187464,5.864063489228048,1.0282938480377197,-2.8693118731128138
1708433247.6876101,-1.9627056121826172,-1.358115242128708,-2.5423839727984827,5.862681138306417,1.0282460451126099,-2.8695078531848353
1708433247.6895716,-1.9616169929504395,-1.3584598016789933,-2.5423885027514856,5.861226427346029,1.028234839439392,-2.8697357813464563
1708433247.6915758,-1.9605424404144287,-1.3587294977954407,-2.542420212422506,5.859843003540792,1.0281168222427368,-2.8700059095965784
1708433247.6935909,-1.9594582319259644,-1.3590490084937592,-2.5424681345569056,5.858464467316427,1.028061032295227,-2.870114866887228
1708433247.6955912,-1.9583125114440918,-1.3593313854983826,-2.5425131956683558,5.857102024346151,1.028001070022583,-2.870385233555929
1708433247.6976187,-1.9572426080703735,-1.3596661698869248,-2.5425401369677942,5.855700003891744,1.0279440879821777,-2.8705840746508997
1708433247.6996574,-1.9561272859573364,-1.359940619473793,-2.542518202458517,5.854338156967916,1.027917742729187,-2.870821539555685
1708433247.7016013,-1.9549976587295532,-1.3602980387261887,-2.5425990263568323,5.852979051857748,1.0278403759002686,-2.87101394334902
1708433247.703609,-1.9538776874542236,-1.3605872702649613,-2.5426185766803187,5.851615536003866,1.0278335809707642,-2.8711801210986536
1708433247.7055929,-1.9527778625488281,-1.3608621668866654,-2.542642656956808,5.850276696472921,1.0277419090270996,-2.8713393847094935
1708433247.7075949,-1.9516501426696777,-1.361201362018921,-2.5426786581622522,5.848850953369894,1.027651309967041,-2.8715692202197474
1708433247.7095814,-1.9505144357681274,-1.3615615528872986,-2.5427516142474573,5.847410785942831,1.027632474899292,-2.871756140385763
1708433247.7115781,-1.9493769407272339,-1.361880050306656,-2.54276687303652,5.8460274813468835,1.0275440216064453,-2.871915642415182
1708433247.7135901,-1.9482606649398804,-1.3622117352536698,-2.542819325123922,5.844655978470602,1.0275452136993408,-2.8720908800708216
1708433247.7155972,-1.947080373764038,-1.3624961090138932,-2.5428672472583216,5.843298661499777,1.0274641513824463,-2.872275416051046
1708433247.7175663,-1.945913314819336,-1.362855927353241,-2.5428958574878138,5.842018830567159,1.027411937713623,-2.872434441243307
1708433247.7195678,-1.9448082447052002,-1.3631909948638459,-2.542943541203634,5.840580808907308,1.0273518562316895,-2.872685972844259
1708433247.7215817,-1.943651556968689,-1.3635059756091614,-2.5429590384112757,5.839201676636495,1.0272798538208008,-2.8728442827807825
1708433247.7235694,-1.942482829093933,-1.3638366025737305,-2.5430286566363733,5.83778594711379,1.0272654294967651,-2.872995440159933
1708433247.7255754,-1.9412778615951538,-1.364191935663559,-2.5430191198932093,5.836397754936971,1.027159333229065,-2.8732131163226526
1708433247.727611,-1.940114974975586,-1.364551843409874,-2.5430951754199427,5.834929096489706,1.0271036624908447,-2.8734050432788294
1708433247.7295952,-1.9389268159866333,-1.3648280066302796,-2.5430942217456263,5.833502638130941,1.027095913887024,-2.873549286519186
1708433247.7315753,-1.937685489654541,-1.3651906561902543,-2.5431628862964075,5.832097756653585,1.0270402431488037,-2.8736992518054407
1708433247.7335722,-1.9364968538284302,-1.3655988735011597,-2.5432196299182337,5.830655801087179,1.0269800424575806,-2.8738630453692835
1708433247.7355812,-1.9352878332138062,-1.3659214687398453,-2.543260161076681,5.829224216728964,1.0268748998641968,-2.8740413824664515
1708433247.737618,-1.934125542640686,-1.3662636888078232,-2.5433242956744593,5.827804553299703,1.0268192291259766,-2.87413460413088
1708433247.7395937,-1.932978630065918,-1.3666059982827683,-2.543335262929098,5.826448428421774,1.0267385244369507,-2.8743115107165735
1708433247.7416377,-1.9318434000015259,-1.366960586314537,-2.5433831850634974,5.825097787171163,1.0267438888549805,-2.874512497578756
1708433247.7436063,-1.9305498600006104,-1.367372379904129,-2.543420378361837,5.823639976769247,1.02671217918396,-2.8746262232409876
1708433247.7455735,-1.929380178451538,-1.3677770805409928,-2.543389860783712,5.822189199715414,1.0265672206878662,-2.874828879033224
1708433247.7475867,-1.9281771183013916,-1.368122623567917,-2.5434911886798304,5.820769536286154,1.0265430212020874,-2.875016752873556
1708433247.749591,-1.9269444942474365,-1.368554176097252,-2.5435269514666956,5.819368588715353,1.0264577865600586,-2.8751068750964563
1708433247.7515728,-1.925742745399475,-1.3688140523484726,-2.5435546080218714,5.818032490998068,1.026393175125122,-2.8752458731280726
1708433247.7536259,-1.9245280027389526,-1.3692100060037156,-2.543591562901632,5.81662534454421,1.0263912677764893,-2.875427548085348
1708433247.7555816,-1.9233527183532715,-1.3696280282786866,-2.5436068216906946,5.815221416741171,1.0263067483901978,-2.8756237665759485
1708433247.7575955,-1.9220346212387085,-1.369982586508133,-2.543663565312521,5.8138842461402795,1.0262510776519775,-2.8758040110217493
1708433247.7595925,-1.9208590984344482,-1.370353327398636,-2.543666664754049,5.812530505448141,1.0261822938919067,-2.8759613672839563
1708433247.7615912,-1.9196367263793945,-1.370719240312912,-2.5437071959124964,5.811081635742941,1.0261178016662598,-2.876080099736349
1708433247.7635858,-1.9184097051620483,-1.3712088924697419,-2.5437713305102747,5.809688913613119,1.026033639907837,-2.876268450413839
1708433247.7655709,-1.9171440601348877,-1.3715618711761017,-2.54379111925234,5.808243143349447,1.0259648561477661,-2.87637168565859
1708433247.767621,-1.9159226417541504,-1.3719612073949357,-2.5438600222217005,5.806861150055685,1.0259013175964355,-2.876547638569967
1708433247.7695878,-1.9146744012832642,-1.3723468792489548,-2.543842617665426,5.8054765341575525,1.0258325338363647,-2.876655165349142
1708433247.7715948,-1.9134652614593506,-1.372733713393547,-2.543919865285055,5.8042030213172815,1.0258021354675293,-2.876828972493307
1708433247.7736168,-1.9121718406677246,-1.373119668369629,-2.5439720789538782,5.802725541382589,1.0256685018539429,-2.877010170613424
1708433247.7755857,-1.9109731912612915,-1.3735056680491944,-2.543946091328756,5.801405060082235,1.0255918502807617,-2.877099100743429
1708433247.7776783,-1.9097307920455933,-1.3739300680211564,-2.544039789830343,5.800080883293905,1.0255733728408813,-2.8772853056537073
1708433247.7795815,-1.9085599184036255,-1.3742850881865998,-2.544095579777853,5.798680889397421,1.0254849195480347,-2.8774288336383265
1708433247.7816136,-1.9072898626327515,-1.37465654433284,-2.5441234747516077,5.797343241959371,1.025391936302185,-2.877580706273214
1708433247.7835846,-1.906112790107727,-1.3750796479037781,-2.5441468397723597,5.795974004059591,1.0253186225891113,-2.8776913324939173
1708433247.7855842,-1.904891014099121,-1.3754959863475342,-2.5442031065570276,5.794732796936788,1.0252355337142944,-2.877864424382345
1708433247.7875926,-1.9036493301391602,-1.3758735370687027,-2.5441911856280726,5.793449389725485,1.0252130031585693,-2.878005329762594
1708433247.7895937,-1.9024823904037476,-1.3762439352324982,-2.54430061975588,5.792191254883566,1.0250946283340454,-2.8781204859363
1708433247.791613,-1.901266098022461,-1.3767383855632325,-2.544330898915426,5.790833103447714,1.0250684022903442,-2.8782478014575403
1708433247.7935758,-1.9000937938690186,-1.3771039110473176,-2.5443061033831995,5.789572226792135,1.0249308347702026,-2.878411356602804
1708433247.7955973,-1.898849368095398,-1.37745455027137,-2.5443669001208704,5.788310754090109,1.0249360799789429,-2.8785439173327845
1708433247.7975938,-1.8976906538009644,-1.3778415781310578,-2.5444608370410364,5.787105786591329,1.0248441696166992,-2.8786636034594935
1708433247.7995799,-1.8964587450027466,-1.3783269238523026,-2.5444093386279505,5.78585039356307,1.0247547626495361,-2.8788002173053187
1708433247.8015757,-1.8952308893203735,-1.378734142785408,-2.5444586912738245,5.784512746125021,1.024674892425537,-2.8790178934680384
1708433247.8035944,-1.8940000534057617,-1.3791415107301255,-2.5444913546191614,5.783284055977621,1.0246026515960693,-2.8791454474078577
1708433247.805602,-1.8927725553512573,-1.379515291457512,-2.544490162526266,5.782096969872274,1.0245184898376465,-2.8792596499072474
1708433247.8076036,-1.8915603160858154,-1.3799225103906174,-2.544518534337179,5.780912625580587,1.0244433879852295,-2.879409138356344
1708433247.8095798,-1.8903403282165527,-1.3803261828473588,-2.544591490422384,5.779757129936971,1.0243622064590454,-2.879563872014181
1708433247.8115804,-1.8891565799713135,-1.380806715493538,-2.5446189085589808,5.778610098152914,1.0242619514465332,-2.879699770604269
1708433247.8135893,-1.8879324197769165,-1.3811724197915574,-2.544610325490133,5.777441131859579,1.0241490602493286,-2.8798535505877894
1708433247.8155904,-1.8866826295852661,-1.3815605205348511,-2.544715944920675,5.776174771576681,1.02407705783844,-2.879979674016134
1708433247.8175843,-1.8854931592941284,-1.3820210856250306,-2.5446952025042933,5.7750576613243005,1.0240092277526855,-2.8801398913012903
1708433247.8195846,-1.8842817544937134,-1.3823943150094529,-2.5447235743152063,5.773926007538595,1.0239044427871704,-2.8803048769580286
1708433247.8215842,-1.8830775022506714,-1.3828705859235306,-2.544722382222311,5.772724616318502,1.0238127708435059,-2.880474869404928
1708433247.8235931,-1.8818875551223755,-1.3833030772260209,-2.5447550455676478,5.771644937783041,1.023708701133728,-2.8805809656726282
1708433247.825597,-1.8806768655776978,-1.3837167781642457,-2.544779125844137,5.770509946137228,1.0236084461212158,-2.880789581929342
1708433247.827596,-1.8795276880264282,-1.3841727089932938,-2.544802967702047,5.769326913147726,1.0234923362731934,-2.8809171358691614
1708433247.82961,-1.8783692121505737,-1.3845798385194321,-2.544823233281271,5.76832543590621,1.0233664512634277,-2.881033007298605
1708433247.8316019,-1.8771895170211792,-1.384966419344284,-2.544891420994894,5.767203080445089,1.0232793092727661,-2.8812487761126917
1708433247.8335943,-1.8760191202163696,-1.385423333649971,-2.544866387044088,5.766177999764242,1.0232453346252441,-2.8813956419574183
1708433247.8356,-1.8748631477355957,-1.3858372879079361,-2.5448783079730433,5.765118825226583,1.0230588912963867,-2.881578509007589
1708433247.8375885,-1.8737282752990723,-1.3862967652133484,-2.5449188391314905,5.764089095383444,1.0229620933532715,-2.8817082087146204
1708433247.8395705,-1.8725658655166626,-1.3867274683764954,-2.5449145475970667,5.763046133309164,1.0228703022003174,-2.8818848768817347
1708433247.8416028,-1.8714230060577393,-1.3871086251786728,-2.5449145475970667,5.762008297234335,1.0227712392807007,-2.882052723561422
1708433247.8435998,-1.8702948093414307,-1.3876431745341797,-2.5449677149402063,5.761027920037069,1.0226585865020752,-2.8821802775012415
1708433247.8455663,-1.8691415786743164,-1.388057456617691,-2.5449755827533167,5.760106074600973,1.022566556930542,-2.8823400179492396
1708433247.8475735,-1.8679808378219604,-1.3885577035001297,-2.544910256062643,5.759091961174764,1.0224506855010986,-2.882516686116354
1708433247.8495915,-1.8668673038482666,-1.3889720451882859,-2.544950310383932,5.75817500331954,1.0223337411880493,-2.882672373448507
1708433247.8515809,-1.8657060861587524,-1.3894106608680268,-2.5449546019183558,5.757226931839742,1.0222299098968506,-2.8829272429095667
1708433247.853579,-1.864500880241394,-1.3898614954999466,-2.5449188391314905,5.756268727570333,1.0220441818237305,-2.8830955664264124
1708433247.8555598,-1.863391399383545,-1.390356869702675,-2.544901434575216,5.755334961205282,1.0219568014144897,-2.8832715193377894
1708433247.857572,-1.8622562885284424,-1.3908370000175019,-2.5449023882495325,5.754457819252767,1.0218323469161987,-2.883352343236105
1708433247.8595753,-1.861107349395752,-1.3913327616504212,-2.5449188391314905,5.753572451859274,1.0217249393463135,-2.883606020604269
1708433247.8615732,-1.8600056171417236,-1.3917423349669953,-2.5449634234057825,5.752772915154257,1.0215885639190674,-2.8838067690478724
1708433247.863587,-1.8589203357696533,-1.3922008287957688,-2.5449307600604456,5.7519593117530725,1.0215126276016235,-2.883932654057638
1708433247.8655782,-1.8577567338943481,-1.392684744005539,-2.544934097920553,5.751158106118002,1.0213152170181274,-2.884113852177755
1708433247.8675861,-1.856649398803711,-1.3932049137404938,-2.5449426809894007,5.750345575600424,1.021212100982666,-2.884331289921896
1708433247.8695853,-1.85560142993927,-1.393696056013443,-2.544910256062643,5.749659406929769,1.0210548639297485,-2.8845136801349085
1708433247.8716142,-1.8544609546661377,-1.3941589903882523,-2.5448697249041956,5.748897182732382,1.0209193229675293,-2.88470703760256
1708433247.873601,-1.8534096479415894,-1.3945642870715638,-2.54491097131838,5.74811218956069,1.0207545757293701,-2.8849063555346888
1708433247.8756206,-1.8523344993591309,-1.3950514805367966,-2.54488188425173,5.74734257438735,1.0206180810928345,-2.8850818316089075
1708433247.8775852,-1.8512886762619019,-1.3956007671407242,-2.5448861757861536,5.74672423580245,1.0204826593399048,-2.885327402745382
1708433247.8796163,-1.8502236604690552,-1.3960228276303788,-2.5448294321643274,5.746024596482076,1.0203663110733032,-2.885552946721212
1708433247.881601,-1.8491346836090088,-1.396521345978119,-2.544899050389425,5.745377766876974,1.0201164484024048,-2.8857386747943323
1708433247.8835938,-1.848047137260437,-1.396992639904358,-2.544858757649557,5.744731056481161,1.0199882984161377,-2.885968033467428
1708433247.8856378,-1.8470594882965088,-1.3974230003407975,-2.544842545186178,5.744090902596273,1.0199061632156372,-2.8861597220050257
1708433247.887592,-1.8460538387298584,-1.397934616809227,-2.5448675791369837,5.7435083267982385,1.0197118520736694,-2.8863537947284144
1708433247.8895807,-1.8449770212173462,-1.398393453364708,-2.544760767613546,5.742866980820455,1.0195238590240479,-2.8865862528430384
1708433247.891601,-1.8439580202102661,-1.3989092868617554,-2.5447855631457728,5.742318618088522,1.019371747970581,-2.8868399302112024
1708433247.893576,-1.8429349660873413,-1.3993846041015168,-2.5448480288134974,5.741720783501425,1.0191988945007324,-2.887042824422018
