Eg3-git/Classifiers/Data Collection/u1/u1abc3_ur3e_joint_states.csv
time,elbow_joint,shoulder_lift_joint,shoulder_pan_joint,wrist_1_joint,wrist_2_joint,wrist_3_joint
1708433284.5198576,-2.1417791843414307,-1.3333472621491929,-2.5267675558673304,6.110391008644857,1.0178182125091553,-3.5077090899096888
1708433284.5219498,-2.1417205333709717,-1.3333638322404404,-2.526721779500143,6.1103505966956995,1.0178108215332031,-3.5077014605151575
1708433284.5238993,-2.1417958736419678,-1.3333638322404404,-2.5267794767962855,6.110332715302267,1.017830491065979,-3.5077372233020228
1708433284.5259166,-2.1417577266693115,-1.3333768260530015,-2.5267751852618616,6.110404479294576,1.0178316831588745,-3.5077505747424524
1708433284.5279143,-2.1417958736419678,-1.3333472621491929,-2.5267675558673304,6.110366928368368,1.0177944898605347,-3.5076926390277308
1708433284.5298798,-2.1417958736419678,-1.333351583485939,-2.526738230382101,6.1103625176246545,1.017830491065979,-3.5077341238604944
1708433284.5318487,-2.1417958736419678,-1.3333429855159302,-2.5267260710345667,6.110391008644857,1.0177810192108154,-3.5077460447894495
1708433284.5338697,-2.1417534351348877,-1.3333962869695206,-2.5267837683307093,6.110346185951986,1.0178589820861816,-3.5077417532550257
1708433284.5358737,-2.1417791843414307,-1.3333559793284913,-2.526738230382101,6.110366928368368,1.0178635120391846,-3.5077341238604944
1708433284.5378604,-2.141791582107544,-1.3333310198834916,-2.526799027119772,6.110357987671652,1.0178500413894653,-3.5077207724200647
1708433284.539864,-2.1417791843414307,-1.3333559793284913,-2.52675444284548,6.110366928368368,1.0178349018096924,-3.5077298323260706
1708433284.5418875,-2.141787052154541,-1.3333559793284913,-2.526717487965719,6.110373127251425,1.017867922782898,-3.507766071950094
1708433284.5438585,-2.141791582107544,-1.3333725345185776,-2.5267913977252405,6.110366928368368,1.017867922782898,-3.5077417532550257
1708433284.5459044,-2.1418073177337646,-1.3333429855159302,-2.526766602193014,6.110391008644857,1.017884373664856,-3.5077298323260706
1708433284.5479047,-2.1417791843414307,-1.3333638173392792,-2.526750151311056,6.110341655998983,1.0178468227386475,-3.507716480885641
1708433284.5499015,-2.1417958736419678,-1.3333190989545365,-2.5268078486071985,6.110379206925192,1.0178422927856445,-3.5077417532550257
1708433284.5519319,-2.1418187618255615,-1.3333757382682343,-2.5267959276782435,6.110353576927938,1.0178422927856445,-3.507711950932638
1708433284.5538886,-2.1417958736419678,-1.3333919805339356,-2.52675444284548,6.110353576927938,1.0178545713424683,-3.5077372233020228
1708433284.555918,-2.1417958736419678,-1.3333559793284913,-2.526733938847677,6.110357987671652,1.0178709030151367,-3.5077794233905237
1708433284.557934,-2.1417713165283203,-1.3333919805339356,-2.5267871061908167,6.110391008644857,1.0178468227386475,-3.507758680974142
1708433284.5599031,-2.1417746543884277,-1.3333429855159302,-2.5267675558673304,6.110357987671652,1.0178468227386475,-3.50776178041567
1708433284.5619187,-2.1417667865753174,-1.3333930981210251,-2.5267871061908167,6.11039565780715,1.017884373664856,-3.5077417532550257
1708433284.5638878,-2.1417622566223145,-1.3333800596049805,-2.5267589727984827,6.1103625176246545,1.0178709030151367,-3.507745329533712
1708433284.5658636,-2.1417293548583984,-1.3334050190499802,-2.5268121401416224,6.110353576927938,1.0178545713424683,-3.507754151021139
1708433284.567896,-2.1417622566223145,-1.3333595109036942,-2.5268078486071985,6.1103625176246545,1.0178920030593872,-3.507770363484518
1708433284.569869,-2.1417622566223145,-1.3333559793284913,-2.526738230382101,6.110366928368368,1.0179009437561035,-3.50773269334902
1708433284.5718977,-2.1417667865753174,-1.3333725345185776,-2.5267871061908167,6.110357987671652,1.017883062362671,-3.507798735295431
1708433284.5739346,-2.1417791843414307,-1.3333310645869751,-2.5267871061908167,6.110366928368368,1.0178635120391846,-3.5077372233020228
1708433284.575854,-2.1417958736419678,-1.3333681386760254,-2.5267589727984827,6.110344636231222,1.0178993940353394,-3.5077572504626673
1708433284.5778759,-2.1417791843414307,-1.333424450164177,-2.5267871061908167,6.110366928368368,1.0178619623184204,-3.507728401814596
1708433284.579851,-2.1417791843414307,-1.333351583485939,-2.526729408894674,6.110388147621908,1.0178422927856445,-3.507810656224386
1708433284.5818655,-2.1417577266693115,-1.3333472919515152,-2.526782814656393,6.110325324326315,1.0178455114364624,-3.507803026829855
1708433284.5838866,-2.1417746543884277,-1.3333559793284913,-2.526766363774435,6.1103625176246545,1.0179202556610107,-3.507777992879049
1708433284.5859435,-2.1417622566223145,-1.3333466213992615,-2.5267470518695276,6.110346185951986,1.0178709030151367,-3.507749859486715
1708433284.5878768,-2.1417667865753174,-1.3333757382682343,-2.5267913977252405,6.11039565780715,1.017883062362671,-3.507782284413473
1708433284.5898724,-2.14180064201355,-1.3333681386760254,-2.526757780705587,6.110379206925192,1.017894983291626,-3.507749621068136
1708433284.591863,-2.141787052154541,-1.3333962869695206,-2.526766363774435,6.110391008644857,1.0179009437561035,-3.507766071950094
1708433284.5939164,-2.1417958736419678,-1.3334158223918458,-2.5267913977252405,6.110366928368368,1.0178875923156738,-3.507782284413473
1708433284.5959198,-2.1417667865753174,-1.3333551448634644,-2.5267959276782435,6.11039565780715,1.0178786516189575,-3.507749859486715
1708433284.5978885,-2.1417622566223145,-1.3333800596049805,-2.5267794767962855,6.110371458321371,1.0178993940353394,-3.507770363484518
1708433284.5999298,-2.1418073177337646,-1.3333930534175416,-2.5268078486071985,6.1103625176246545,1.0178786516189575,-3.507758680974142
1708433284.6018848,-2.1417622566223145,-1.3333353710225602,-2.526782814656393,6.110374676972189,1.017883062362671,-3.507758680974142
1708433284.603894,-2.1417667865753174,-1.333322362308838,-2.5267589727984827,6.110357987671652,1.017894983291626,-3.50773269334902
1708433284.6058767,-2.1417958736419678,-1.3333559793284913,-2.526799027119772,6.110357987671652,1.0178709030151367,-3.50776178041567
1708433284.60791,-2.1418094635009766,-1.3333385747722168,-2.5267751852618616,6.1103625176246545,1.0179113149642944,-3.507777992879049
1708433284.6099012,-2.1417791843414307,-1.3333638322404404,-2.5267794767962855,6.110338675766744,1.0179158449172974,-3.507749621068136
1708433284.611905,-2.1417791843414307,-1.3333725345185776,-2.526733938847677,6.110379206925192,1.0178786516189575,-3.5077572504626673
1708433284.6138692,-2.1417791843414307,-1.3333595109036942,-2.5268245379077356,6.110357987671652,1.0178742408752441,-3.5077322165118616
1708433284.6158674,-2.1417622566223145,-1.3333843660405655,-2.526712958012716,6.110346185951986,1.0178905725479126,-3.507716480885641
1708433284.6178503,-2.1417667865753174,-1.3333559793284913,-2.5267632643329065,6.110329854279318,1.0179024934768677,-3.507782284413473
1708433284.6198537,-2.1417713165283203,-1.3333757382682343,-2.5267751852618616,6.110346185951986,1.0178709030151367,-3.5077372233020228
1708433284.6218922,-2.1417622566223145,-1.3333595109036942,-2.5268121401416224,6.110329735070028,1.017883062362671,-3.5077372233020228
1708433284.6238828,-2.1417534351348877,-1.3333725345185776,-2.526757780705587,6.110379206925192,1.0178663730621338,-3.507770363484518
1708433284.6258802,-2.1417577266693115,-1.3333963018706818,-2.526799027119772,6.110379206925192,1.017883062362671,-3.5077751318561
1708433284.6278937,-2.1417667865753174,-1.3333843660405655,-2.526750151311056,6.110334265023031,1.0178709030151367,-3.507761541997091
1708433284.6298754,-2.1417837142944336,-1.3333887469819565,-2.5268364588366907,6.110357987671652,1.017894983291626,-3.507770363484518
1708433284.6318665,-2.1417713165283203,-1.3334128272584458,-2.5267959276782435,6.1103625176246545,1.0178875923156738,-3.507754151021139
1708433284.6338744,-2.1417837142944336,-1.3334287267974396,-2.5267260710345667,6.1103625176246545,1.0179113149642944,-3.507758680974142
1708433284.635862,-2.1417925357818604,-1.3333963018706818,-2.5267840067492884,6.1103505966956995,1.0178905725479126,-3.5077031294452112
1708433284.637904,-2.14180064201355,-1.3333800596049805,-2.526738230382101,6.1103505966956995,1.017845630645752,-3.507758680974142
1708433284.6398711,-2.1417338848114014,-1.3333757382682343,-2.5267632643329065,6.110338675766744,1.0178663730621338,-3.5077372233020228
1708433284.64188,-2.1417622566223145,-1.3333757382682343,-2.526820246373312,6.110346185951986,1.0178786516189575,-3.5077417532550257
1708433284.6438532,-2.1417622566223145,-1.3333930534175416,-2.5267589727984827,6.110371458321371,1.0178786516189575,-3.5077417532550257
1708433284.6459513,-2.1417713165283203,-1.333421529536583,-2.526750151311056,6.110357987671652,1.0178707838058472,-3.5077460447894495
1708433284.6478977,-2.1417837142944336,-1.3333725345185776,-2.526799027119772,6.110346185951986,1.0178619623184204,-3.5077751318561
1708433284.6499166,-2.1417577266693115,-1.3333472919515152,-2.5267794767962855,6.1103625176246545,1.0178709030151367,-3.507786814366476
1708433284.6519008,-2.1417462825775146,-1.3333559793284913,-2.526770893727438,6.110321986466207,1.017883062362671,-3.5077794233905237
1708433284.653919,-2.14180064201355,-1.33333973706279,-2.526766363774435,6.110371458321371,1.0178786516189575,-3.5077207724200647
1708433284.6558664,-2.1417667865753174,-1.3333757382682343,-2.52675444284548,6.110359537392416,1.0179039239883423,-3.507754151021139
1708433284.657881,-2.1417622566223145,-1.3333833676627656,-2.5267260710345667,6.1103625176246545,1.0178574323654175,-3.507786814366476
1708433284.6599243,-2.1417667865753174,-1.3333963018706818,-2.5268033186541956,6.110366928368368,1.0178920030593872,-3.5077460447894495
1708433284.6619093,-2.1417622566223145,-1.3333725345185776,-2.5267871061908167,6.110371458321371,1.0178663730621338,-3.5077253023730677
1708433284.6639237,-2.1417622566223145,-1.3333725345185776,-2.526770893727438,6.110310423165121,1.0178545713424683,-3.507704559956686
1708433284.665977,-2.1417758464813232,-1.3333930534175416,-2.5267720858203333,6.1103505966956995,1.0178468227386475,-3.5077460447894495
1708433284.6679263,-2.1417791843414307,-1.333351583485939,-2.526804510747091,6.11032651641921,1.0179009437561035,-3.5076971689807337
1708433284.6699407,-2.1417622566223145,-1.3334374290755768,-2.5268376509295862,6.110380279808798,1.0178875923156738,-3.5077059904681605
1708433284.6719441,-2.1417622566223145,-1.3333800596049805,-2.5268002192126673,6.110334265023031,1.0178709030151367,-3.50769287744631
1708433284.6738653,-2.1417837142944336,-1.3333223027041932,-2.5267675558673304,6.1103625176246545,1.0178663730621338,-3.5077298323260706
1708433284.6758711,-2.1417667865753174,-1.3333429855159302,-2.5268121401416224,6.110321986466207,1.0178965330123901,-3.5077102820025843
1708433284.677865,-2.1417622566223145,-1.333351583485939,-2.5267589727984827,6.110329735070028,1.0178754329681396,-3.507643763219015
1708433284.6798446,-2.1417508125305176,-1.333351583485939,-2.526742760335104,6.110313045769491,1.017884373664856,-3.507731024418966
1708433284.6818476,-2.1417622566223145,-1.3333267134479065,-2.526770893727438,6.1103505966956995,1.0178512334823608,-3.5077222029315394
1708433284.6838834,-2.1417622566223145,-1.3333310645869751,-2.5267751852618616,6.11032651641921,1.0178725719451904,-3.507691208516256
1708433284.6858516,-2.1417622566223145,-1.333408535724022,-2.526750151311056,6.110330927162924,1.0178349018096924,-3.5076444784747522
1708433284.6878781,-2.1417713165283203,-1.3333930534175416,-2.5267348925219935,6.110338675766744,1.0178635120391846,-3.507636849080221
1708433284.6898592,-2.14180064201355,-1.3333310198834916,-2.526745859776632,6.110264169960775,1.0178920030593872,-3.5076659361468714
1708433284.6918786,-2.1417338848114014,-1.3334050190499802,-2.5267589727984827,6.110319244652548,1.0178182125091553,-3.507679287587301
1708433284.69392,-2.1417577266693115,-1.3333681684783478,-2.526766363774435,6.110274302750387,1.017830491065979,-3.507625166569845
1708433284.6959429,-2.1417622566223145,-1.3333713424256821,-2.5267959276782435,6.110266911774435,1.017830491065979,-3.507657829915182
1708433284.6978984,-2.1417713165283203,-1.333351583485939,-2.5268002192126673,6.110214578896322,1.0178394317626953,-3.5076502005206507
1708433284.6999958,-2.1417622566223145,-1.333351583485939,-2.5268121401416224,6.110186564713278,1.017798900604248,-3.507645908986227
1708433284.7019336,-2.1417958736419678,-1.3333757382682343,-2.5267794767962855,6.110272872238912,1.0178017616271973,-3.5076621214496058
1708433284.7039006,-2.1417667865753174,-1.3333559793284913,-2.5268002192126673,6.110235321312704,1.0178438425064087,-3.507622543965475
1708433284.705907,-2.1417958736419678,-1.3333628487638016,-2.5267260710345667,6.110214578896322,1.0177944898605347,-3.507629458104269
1708433284.70787,-2.1417837142944336,-1.3333385449698945,-2.5267470518695276,6.110186564713278,1.0178197622299194,-3.50761062303652
1708433284.7099085,-2.1417667865753174,-1.3334362667850037,-2.5267675558673304,6.110223400383749,1.0177658796310425,-3.507602039967672
1708433284.7118678,-2.1417925357818604,-1.3334171336940308,-2.5267589727984827,6.110153543740072,1.0177825689315796,-3.5076149145709437
1708433284.713932,-2.1417338848114014,-1.3334171336940308,-2.526788298283712,6.110247599869528,1.0178078413009644,-3.5075867811786097
1708433284.7159233,-2.1417713165283203,-1.333301843409874,-2.5267513434039515,6.110186564713278,1.0178197622299194,-3.5076268354998987
1708433284.7178817,-2.1417293548583984,-1.3333509278348465,-2.526776377354757,6.110225188523092,1.0178123712539673,-3.5076120535479944
1708433284.7198553,-2.1417667865753174,-1.3333768558553238,-2.5267306009875696,6.110247599869528,1.0177463293075562,-3.5076313654529017
1708433284.7218513,-2.1418049335479736,-1.3333472919515152,-2.526776377354757,6.110221969872274,1.0177748203277588,-3.5075705687152308
1708433284.723883,-2.1417622566223145,-1.3333190989545365,-2.5268002192126673,6.110177624016561,1.017791509628296,-3.5076029936419886
1708433284.725853,-2.1417837142944336,-1.333326668744423,-2.526771847401754,6.110264050751486,1.0177748203277588,-3.5075534025775355
1708433284.7278435,-2.1417577266693115,-1.3333638173392792,-2.5267513434039515,6.110235321312704,1.0177372694015503,-3.5075839201556605
1708433284.7298684,-2.1417882442474365,-1.3334041398814698,-2.526743475590841,6.110247599869528,1.0177463293075562,-3.5075579325305384
1708433284.73184,-2.1417622566223145,-1.3333638173392792,-2.5267391840564173,6.110218989640035,1.0177463293075562,-3.5075579325305384
1708433284.733873,-2.1417667865753174,-1.333351583485939,-2.5267513434039515,6.110214578896322,1.0177385807037354,-3.5075297991382044
1708433284.7358742,-2.1417713165283203,-1.3333551448634644,-2.5267840067492884,6.110252010613241,1.017708659172058,-3.5075045267688196
1708433284.7378578,-2.1417713165283203,-1.3333725345185776,-2.5267470518695276,6.110232341080465,1.017729640007019,-3.5075135866748255
1708433284.739862,-2.1417293548583984,-1.3333930534175416,-2.5267306009875696,6.11025499084548,1.0176894664764404,-3.5075252691852015
1708433284.7418747,-2.1417622566223145,-1.3333757531693955,-2.5267513434039515,6.1102309105689905,1.0177266597747803,-3.5075135866748255
1708433284.7438753,-2.1417462825775146,-1.3333072674325486,-2.526743475590841,6.11030541637496,1.0177028179168701,-3.5075014273272913
1708433284.7460399,-2.1417667865753174,-1.33330291629348,-2.5267306009875696,6.110259401589193,1.0177429914474487,-3.507519070302145
1708433284.7478871,-2.1417713165283203,-1.3333800596049805,-2.5267348925219935,6.1102263806159876,1.017751932144165,-3.507538620625631
1708433284.750013,-2.1417925357818604,-1.3333310198834916,-2.5267470518695276,6.110221969872274,1.0177028179168701,-3.507502857838766
1708433284.7519438,-2.1417667865753174,-1.3333559793284913,-2.526731554661886,6.110211717873373,1.0177266597747803,-3.507535521184103
1708433284.7538667,-2.1417791843414307,-1.3333559793284913,-2.526780668889181,6.11019395568923,1.0177191495895386,-3.507519070302145
1708433284.7559118,-2.1417622566223145,-1.3333551448634644,-2.5267391840564173,6.110218989640035,1.0177148580551147,-3.5074575583087366
1708433284.7578545,-2.1417622566223145,-1.3333429855159302,-2.526727263127462,6.110284793167867,1.0176740884780884,-3.5074999968158167
1708433284.7599847,-2.1417667865753174,-1.333408535724022,-2.5267019907580774,6.1102309105689905,1.017664909362793,-3.507460657750265
1708433284.7618961,-2.14180064201355,-1.3334092807820817,-2.526736084614889,6.110238659172811,1.0176784992218018,-3.507486406956808
1708433284.7639039,-2.1417713165283203,-1.3333725345185776,-2.526743475590841,6.1102099297340295,1.0177037715911865,-3.5074954668628138
1708433284.7658916,-2.1417293548583984,-1.3333725196174164,-2.526748005543844,6.110198485642233,1.0176621675491333,-3.5074589888202112
1708433284.7678454,-2.1417837142944336,-1.3333267134479065,-2.5267229715930384,6.110210048943319,1.017687439918518,-3.5074458757983606
1708433284.7698631,-2.1417622566223145,-1.3333559793284913,-2.5267601648913782,6.110268461495199,1.0176546573638916,-3.507463518773214
1708433284.7718701,-2.1417462825775146,-1.3333559793284913,-2.526715103779928,6.110234129219808,1.017641305923462,-3.5074427763568323
1708433284.7739034,-2.1417791843414307,-1.3334215742400666,-2.5267019907580774,6.110301244049825,1.0176546573638916,-3.5074220339404505
1708433284.7759023,-2.1417791843414307,-1.3333725345185776,-2.526764456425802,6.110268461495199,1.01767098903656,-3.5074146429644983
1708433284.7778795,-2.1417622566223145,-1.3333551448634644,-2.526691261922018,6.110243069916525,1.017663598060608,-3.5074101130114954
1708433284.779892,-2.14180064201355,-1.3333310645869751,-2.526719395314352,6.110227811127462,1.0176621675491333,-3.507484261189596
1708433284.781851,-2.1417622566223145,-1.3333887469819565,-2.526731554661886,6.110238659172811,1.017604947090149,-3.5073981920825403
1708433284.7838833,-2.1417622566223145,-1.3333919805339356,-2.526682440434591,6.110243069916525,1.0176379680633545,-3.507357422505514
1708433284.7858841,-2.1417489051818848,-1.3333602857640763,-2.526707712803976,6.110293614655294,1.0176184177398682,-3.507418934498922
1708433284.7878475,-2.1417791843414307,-1.3333638173392792,-2.526679340993063,6.110185134201803,1.0176093578338623,-3.5073939005481165
1708433284.789856,-2.1417622566223145,-1.3333559793284913,-2.526679340993063,6.110289203911581,1.0176138877868652,-3.5073862711535853
1708433284.7918653,-2.1417462825775146,-1.3333559793284913,-2.526675049458639,6.110272872238912,1.0176094770431519,-3.507416073475973
1708433284.7938805,-2.1417577266693115,-1.3333638173392792,-2.5266881624804896,6.110272753029623,1.0175931453704834,-3.507423226033346
1708433284.7960124,-2.1417667865753174,-1.3333310645869751,-2.5266836325274866,6.110214578896322,1.0176273584365845,-3.507416073475973
1708433284.7979164,-2.1417417526245117,-1.3333638322404404,-2.5266388098346155,6.1102309105689905,1.0175853967666626,-3.507357422505514
1708433284.799905,-2.1417622566223145,-1.3333267134479065,-2.526680294667379,6.110210048943319,1.0176184177398682,-3.507420365010397
1708433284.8019483,-2.1417508125305176,-1.3333757531693955,-2.5266595522509974,6.110225188523092,1.0176395177841187,-3.507399622594015
1708433284.8038712,-2.1417293548583984,-1.3333235096982499,-2.5266311804400843,6.11025499084548,1.0176184177398682,-3.507373634968893
1708433284.8058872,-2.1417622566223145,-1.3333559793284913,-2.526651922856466,6.110247599869528,1.0176379680633545,-3.507420365010397
1708433284.8078837,-2.1417462825775146,-1.3334050190499802,-2.52665621439089,6.110213029175558,1.0175975561141968,-3.507336680089132
1708433284.809951,-2.1417417526245117,-1.3333235096982499,-2.526623551045553,6.1102263806159876,1.0175975561141968,-3.507357422505514
1708433284.811925,-2.1417293548583984,-1.3333919805339356,-2.526607338582174,6.110250580101766,1.017594337463379,-3.507399622594015
1708433284.8139544,-2.1417553424835205,-1.3333638322404404,-2.5266366640674036,6.110283243447103,1.017606496810913,-3.507365051900045
1708433284.8158548,-2.1417713165283203,-1.333388776784279,-2.5265868345843714,6.110247599869528,1.0176184177398682,-3.5074127356158655
1708433284.8178794,-2.1417713165283203,-1.333359496002533,-2.5266149679767054,6.110287773400106,1.0176273584365845,-3.507404152547018
1708433284.819861,-2.1417577266693115,-1.3334049743464966,-2.526607338582174,6.11025499084548,1.0176154375076294,-3.5073869864093226
1708433284.821887,-2.1418118476867676,-1.3333875846913834,-2.526644293461935,6.110234129219808,1.0175975561141968,-3.507378164921896
1708433284.8238692,-2.1417667865753174,-1.3333267581513901,-2.526651684437887,6.110250580101766,1.0175615549087524,-3.5073958078967493
1708433284.8258765,-2.1417713165283203,-1.3333638322404404,-2.5265868345843714,6.1102263806159876,1.0175780057907104,-3.5073750654803675
1708433284.8278708,-2.1417462825775146,-1.333351583485939,-2.526623551045553,6.110205518990316,1.0175371170043945,-3.507333819066183
1708433284.8298802,-2.1417577266693115,-1.3333919805339356,-2.5266030470477503,6.110250580101766,1.017594337463379,-3.5073915163623255
1708433284.831867,-2.1417577266693115,-1.333351583485939,-2.526640001927511,6.110214578896322,1.0175538063049316,-3.5073307196246546
1708433284.833883,-2.1417534351348877,-1.333351583485939,-2.5266149679767054,6.110262501030721,1.0175913572311401,-3.5073588530169886
1708433284.835849,-2.1417577266693115,-1.3334537160447617,-2.526644293461935,6.11027883270339,1.0175868272781372,-3.5073750654803675
1708433284.8378599,-2.1417791843414307,-1.3334050190499802,-2.526647392903463,6.110246050148763,1.0175914764404297,-3.5073915163623255
1708433284.8398473,-2.1417791843414307,-1.3333472621491929,-2.5266061464892786,6.110266911774435,1.0175538063049316,-3.5073426405536097
1708433284.8418608,-2.1417746543884277,-1.3333768260530015,-2.526619259511129,6.110201108246603,1.0175416469573975,-3.5073424021350306
1708433284.843864,-2.1417205333709717,-1.333351583485939,-2.52663237253298,6.1103179333503626,1.0175538063049316,-3.507388178502218
1708433284.8459666,-2.1417622566223145,-1.3333919805339356,-2.526619259511129,6.110307442932882,1.017529845237732,-3.5073557535754603
1708433284.8478925,-2.1417553424835205,-1.3333843809417267,-2.526635471974508,6.11029993274764,1.017536997795105,-3.5073557535754603
1708433284.8499377,-2.1417462825775146,-1.3333800596049805,-2.526591126118795,6.11024163940505,1.0175505876541138,-3.5073512236224573
1708433284.8519802,-2.1417462825775146,-1.333342970614769,-2.5266030470477503,6.110286462097921,1.0175431966781616,-3.5073185602771204
1708433284.853883,-2.1417622566223145,-1.3333887469819565,-2.526611630116598,6.110274302750387,1.0175868272781372,-3.50730544725527
1708433284.8558662,-2.1417622566223145,-1.3333843660405655,-2.5266149679767054,6.110257851868429,1.0175505876541138,-3.5073676745044153
1708433284.857877,-2.1417958736419678,-1.333351583485939,-2.526619259511129,6.110229718476095,1.0175883769989014,-3.5072980562793177
1708433284.8599246,-2.14180064201355,-1.333314837222435,-2.526619259511129,6.11027883270339,1.0175718069076538,-3.5073676745044153
1708433284.8619606,-2.1417882442474365,-1.3333559793284913,-2.526619259511129,6.11029993274764,1.0175795555114746,-3.5073261896716517
1708433284.8639445,-2.1417622566223145,-1.3333843660405655,-2.526651684437887,6.110234129219808,1.0175342559814453,-3.5073512236224573
1708433284.8659306,-2.1417667865753174,-1.3333713722280045,-2.5265868345843714,6.110290992050924,1.0175551176071167,-3.507333819066183
1708433284.867933,-2.1417713165283203,-1.3333800596049805,-2.526619259511129,6.110287773400106,1.0175342559814453,-3.5073426405536097
1708433284.869889,-2.1417622566223145,-1.333421529536583,-2.526611630116598,6.110265362053671,1.0174967050552368,-3.5073676745044153
1708433284.8718662,-2.1417791843414307,-1.3333472919515152,-2.5265823046313685,6.110319363861837,1.0175056457519531,-3.5073676745044153
1708433284.873864,-2.1417791843414307,-1.3333472621491929,-2.526635471974508,6.1103341458137415,1.017529845237732,-3.5073469320880335
1708433284.8758554,-2.1417713165283203,-1.333351583485939,-2.526640001927511,6.110310423165121,1.0175461769104004,-3.5073393026935022
1708433284.8778653,-2.1417791843414307,-1.3333887469819565,-2.5265823046313685,6.1103625176246545,1.0175268650054932,-3.5073512236224573
1708433284.879876,-2.1417577266693115,-1.333351583485939,-2.526644293461935,6.110379206925192,1.0175342559814453,-3.5073512236224573
1708433284.8818772,-2.141791582107544,-1.3333887916854401,-2.5266030470477503,6.110402929573812,1.0175505876541138,-3.5073512236224573
1708433284.8838913,-2.1417622566223145,-1.3333757531693955,-2.5265942255603235,6.110344636231222,1.017508864402771,-3.5073512236224573
1708433284.8858783,-2.1417791843414307,-1.3334128272584458,-2.526623551045553,6.1103776572044275,1.0175056457519531,-3.5073469320880335
1708433284.887854,-2.1417622566223145,-1.3333843660405655,-2.526619259511129,6.110398518830099,1.0175416469573975,-3.5073393026935022
1708433284.8898897,-2.1417791843414307,-1.3333343726447602,-2.5265868345843714,6.110386597901144,1.017529845237732,-3.5073838869677942
1708433284.8918629,-2.1417622566223145,-1.3333725345185776,-2.5265985170947474,6.110379206925192,1.0175012350082397,-3.5073307196246546
1708433284.8939025,-2.1417791843414307,-1.3333681237748642,-2.526635471974508,6.110361325531759,1.0175386667251587,-3.5073261896716517
1708433284.895926,-2.1417791843414307,-1.3333472919515152,-2.5265823046313685,6.110344636231222,1.0175672769546509,-3.5073230902301233
1708433284.897945,-2.1417791843414307,-1.3333638173392792,-2.526574436818258,6.1103776572044275,1.017529845237732,-3.5073381106006067
1708433284.8998892,-2.1417958736419678,-1.3333800745061417,-2.526607338582174,6.110386597901144,1.017529845237732,-3.5073512236224573
1708433284.9019277,-2.1417622566223145,-1.3333768558553238,-2.5265780130969446,6.110427129059591,1.0175551176071167,-3.5073230902301233
1708433284.90387,-2.1417746543884277,-1.3333843809417267,-2.5265985170947474,6.110349166184225,1.0174921751022339,-3.5073261896716517
1708433284.9058905,-2.141791582107544,-1.333405004148819,-2.5266268889056605,6.110389458924093,1.017508864402771,-3.507343832646505
1708433284.9078736,-2.1417417526245117,-1.3333472919515152,-2.5265868345843714,6.110427129059591,1.0175223350524902,-3.5073469320880335
1708433284.9098985,-2.1417667865753174,-1.3333757531693955,-2.526607338582174,6.110427129059591,1.0175596475601196,-3.5073557535754603
1708433284.91198,-2.141770124435425,-1.333441824918129,-2.526635471974508,6.110373127251425,1.0175386667251587,-3.5073676745044153
1708433284.9139593,-2.141770124435425,-1.3334049743464966,-2.5266595522509974,6.110376226692953,1.0175431966781616,-3.5073350111590784
1708433284.915869,-2.141791582107544,-1.3333353412202378,-2.526640001927511,6.1104434607322595,1.0175179243087769,-3.5073230902301233
1708433284.9178882,-2.1417958736419678,-1.3333595258048554,-2.5266149679767054,6.110396969109335,1.017529845237732,-3.5073261896716517
1708433284.9198432,-2.1417338848114014,-1.333351583485939,-2.526607338582174,6.110459553986349,1.0175223350524902,-3.5073261896716517
1708433284.92188,-2.1417534351348877,-1.3334171336940308,-2.5266149679767054,6.1103941080863855,1.017520785331726,-3.507360045109884
1708433284.9238634,-2.1418187618255615,-1.3333310347846528,-2.526623551045553,6.110422599106588,1.017513394355774,-3.507371966038839
1708433284.9258711,-2.1417837142944336,-1.3333725345185776,-2.526591126118795,6.110422599106588,1.0175538063049316,-3.5073426405536097
1708433284.9278877,-2.1417338848114014,-1.3334158223918458,-2.5266605059253138,6.110389578133383,1.0175672769546509,-3.5073307196246546
1708433284.9298508,-2.141770124435425,-1.3333602857640763,-2.5266030470477503,6.1104434607322595,1.0175583362579346,-3.507360045109884
1708433284.9318624,-2.141791582107544,-1.3333962869695206,-2.526663843785421,6.110427129059591,1.017529845237732,-3.507376257573263
1708433284.9338903,-2.1417791843414307,-1.3333595109036942,-2.526607338582174,6.110441791802206,1.017529845237732,-3.5073187986956995
1708433284.9358501,-2.1417958736419678,-1.3333757382682343,-2.526651684437887,6.110356795578756,1.0175461769104004,-3.5073393026935022
1708433284.9378674,-2.1417622566223145,-1.333351583485939,-2.5265823046313685,6.110401499062338,1.0175505876541138,-3.50733191171755
1708433284.9398677,-2.1417958736419678,-1.3334171336940308,-2.5266104380237024,6.110409366875448,1.017529845237732,-3.507299248372213
1708433284.9418657,-2.1417713165283203,-1.3333602857640763,-2.5266814867602747,6.1103941080863855,1.0175342559814453,-3.5072665850268763
1708433284.9438417,-2.1417622566223145,-1.3334215742400666,-2.5265899340258997,6.110389458924093,1.0175538063049316,-3.507299248372213
1708433284.9459548,-2.1417622566223145,-1.3333974045566102,-2.5266149679767054,6.110422599106588,1.0175672769546509,-3.507291618977682
1708433284.9478714,-2.1418118476867676,-1.3334049892476578,-2.5266030470477503,6.1104434607322595,1.0175416469573975,-3.5072296301471155
1708433284.9498692,-2.1417489051818848,-1.3333800596049805,-2.5266311804400843,6.110361325531759,1.0175461769104004,-3.507218901311056
1708433284.9519088,-2.1417746543884277,-1.3333800596049805,-2.526651922856466,6.110459553986349,1.0175371170043945,-3.507239643727438
1708433284.9539118,-2.1417791843414307,-1.3333638322404404,-2.5266431013690394,6.110438930779257,1.0175628662109375,-3.5071871916400355
1708433284.955855,-2.141770124435425,-1.3333790761283417,-2.526635471974508,6.110434520035543,1.017529845237732,-3.5071426073657435
1708433284.9578815,-2.1417293548583984,-1.333375723367073,-2.526611630116598,6.110401499062338,1.0175750255584717,-3.5071118513690394
1708433284.9598653,-2.1417577266693115,-1.3333843809417267,-2.5266385714160364,6.1104434607322595,1.0175704956054688,-3.5070913473712366
1708433284.9619124,-2.1417577266693115,-1.3333638322404404,-2.526619259511129,6.110401499062338,1.0175371170043945,-3.5070348421679896
1708433284.9638674,-2.1417622566223145,-1.3334171783975144,-2.52665621439089,6.110471355706014,1.017600417137146,-3.506994072590963
1708433284.965839,-2.1417534351348877,-1.3333757382682343,-2.5266431013690394,6.110480296402731,1.0175660848617554,-3.5069502035724085
1708433284.9678864,-2.1417534351348877,-1.3334005934051056,-2.5265823046313685,6.110401379853048,1.0176154375076294,-3.506935183201925
1708433284.969866,-2.1417746543884277,-1.3333646071008225,-2.5266268889056605,6.110463964730062,1.017611026763916,-3.5069237391101282
1708433284.971857,-2.1417791843414307,-1.3334050190499802,-2.526663843785421,6.1104315398033044,1.0175659656524658,-3.506925169621603
1708433284.9738631,-2.1417622566223145,-1.3334041398814698,-2.5266149679767054,6.110392677574911,1.017594337463379,-3.506864134465353
1708433284.975857,-2.1417791843414307,-1.3333267581513901,-2.5266311804400843,6.110401499062338,1.0175538063049316,-3.506853167210714
1708433284.9778538,-2.1417577266693115,-1.3333768260530015,-2.5265615622149866,6.110391008644857,1.0175987482070923,-3.5067597071277063
1708433284.9798827,-2.1417791843414307,-1.3333713424256821,-2.526639763508932,6.110410439759054,1.0175824165344238,-3.5067365805255335
1708433284.981846,-2.1417622566223145,-1.3333768260530015,-2.5266311804400843,6.11041938045577,1.017594337463379,-3.5066688696490687
1708433284.9838712,-2.14180064201355,-1.3333681386760254,-2.5266760031329554,6.110475885659017,1.0176078081130981,-3.506648842488424
1708433284.985871,-2.1417791843414307,-1.3333725345185776,-2.5265987555133265,6.110414850502767,1.0176184177398682,-3.506584707890646
1708433284.9879014,-2.1417746543884277,-1.3333472621491929,-2.5266640822040003,6.110423791199484,1.0176020860671997,-3.5065069834338587
1708433284.9898796,-2.1417791843414307,-1.333384395842888,-2.5266311804400843,6.110447871475973,1.0176228284835815,-3.50649339357485
1708433284.991859,-2.1417958736419678,-1.3333875846913834,-2.5266149679767054,6.110386597901144,1.0176228284835815,-3.5064037481891077
1708433284.9938607,-2.1417577266693115,-1.333338589673378,-2.526640001927511,6.110402929573812,1.0176305770874023,-3.5063040892230433
1708433284.9959373,-2.1417791843414307,-1.3334258955768128,-2.5266595522509974,6.110389578133383,1.0176273584365845,-3.5062688032733362
1708433284.9979007,-2.1418275833129883,-1.3333235096982499,-2.526680294667379,6.110391008644857,1.0176228284835815,-3.506204907094137
1708433284.9998865,-2.1417622566223145,-1.333395616417267,-2.5266640822040003,6.110422599106588,1.0176351070404053,-3.506150547658102
1708433285.0018644,-2.1418275833129883,-1.3333397668651124,-2.5266595522509974,6.110361325531759,1.0176379680633545,-3.5060492197619837
1708433285.0038676,-2.141791582107544,-1.333351583485939,-2.5266595522509974,6.110379206925192,1.017626166343689,-3.505974356328146
1708433285.0058584,-2.1417958736419678,-1.3333595258048554,-2.5266388098346155,6.110407459526815,1.0176546573638916,-3.5058861414538782
1708433285.0078635,-2.1417746543884277,-1.3333962869695206,-2.5266757647143763,6.110341536789694,1.0176546573638916,-3.5057650248156946
1708433285.009907,-2.1417713165283203,-1.3334128272584458,-2.5266552607165735,6.1103625176246545,1.0176829099655151,-3.505695168172018
1708433285.0118732,-2.1417791843414307,-1.3333397519639512,-2.5266640822040003,6.11039553859786,1.0176621675491333,-3.50557524362673
1708433285.0138922,-2.1417713165283203,-1.333342970614769,-2.526696745549337,6.110379206925192,1.0176665782928467,-3.5055118242846888
1708433285.0158641,-2.14180064201355,-1.3333725345185776,-2.526662890111105,6.110402929573812,1.0176948308944702,-3.5053585211383265
1708433285.017865,-2.1417508125305176,-1.3333681386760254,-2.5266388098346155,6.110370266228475,1.0176576375961304,-3.5052385965930384
1708433285.01988,-2.1417462825775146,-1.3333385747722168,-2.5266388098346155,6.110321986466207,1.0176857709884644,-3.5051353613482874
1708433285.0218692,-2.1417293548583984,-1.3333559793284913,-2.526658360158102,6.110296952515402,1.017723798751831,-3.5050113836871546
1708433285.0238917,-2.1417462825775146,-1.333408535724022,-2.5266836325274866,6.110366928368368,1.017669439315796,-3.504897181187765
1708433285.0258636,-2.1417417526245117,-1.333384395842888,-2.5266595522509974,6.110330927162924,1.0177282094955444,-3.5047124067889612
1708433285.0278776,-2.1417622566223145,-1.3333559793284913,-2.5266955534564417,6.110282051354208,1.0177191495895386,-3.5045881907092493
1708433285.0298784,-2.1417462825775146,-1.3333800596049805,-2.526691261922018,6.110229718476095,1.0176939964294434,-3.5044530073748987
1708433285.0318754,-2.1417462825775146,-1.3333768558553238,-2.526686731969015,6.1101804850395105,1.017722249031067,-3.5043230692492884
1708433285.033885,-2.1417124271392822,-1.3333887469819565,-2.526703182850973,6.110211717873373,1.0177596807479858,-3.5041218439685267
1708433285.035886,-2.1417293548583984,-1.3333559793284913,-2.526691261922018,6.110145914345541,1.017792820930481,-3.5040116945849817
1708433285.0378625,-2.1417667865753174,-1.3333875697902222,-2.5266955534564417,6.110227811127462,1.0177417993545532,-3.503774944935934
1708433285.0398695,-2.1417758464813232,-1.333363802438118,-2.526731554661886,6.11018322685317,1.0177748203277588,-3.503615681325094
1708433285.0418713,-2.1417553424835205,-1.3333725345185776,-2.526727263127462,6.110150444298544,1.017767071723938,-3.503411595021383
1708433285.0438814,-2.1417293548583984,-1.333405004148819,-2.5267391840564173,6.110098111420431,1.0177702903747559,-3.503240410481588
1708433285.0459833,-2.1417622566223145,-1.3333843809417267,-2.5267601648913782,6.110130893975057,1.0178078413009644,-3.5030203501330774
1708433285.0478976,-2.1417577266693115,-1.3333300662091752,-2.5267675558673304,6.110120403557577,1.017786979675293,-3.5027836004840296
1708433285.0499234,-2.1416966915130615,-1.333342970614769,-2.526709858571188,6.11000536659316,1.0178078413009644,-3.5025809446917933
1708433285.051912,-2.1417596340179443,-1.3333843660405655,-2.5268002192126673,6.11000536659316,1.0178108215332031,-3.502397362385885
1708433285.0539238,-2.1417758464813232,-1.3333757531693955,-2.5267794767962855,6.109994637757101,1.0178197622299194,-3.5021613279925745
1708433285.0559263,-2.1417384147644043,-1.3333768260530015,-2.5267632643329065,6.1100114462669275,1.0178033113479614,-3.501892868672506
1708433285.057927,-2.141714572906494,-1.3333638322404404,-2.5267260710345667,6.1099634049232385,1.0178196430206299,-3.5017109552966517
1708433285.0599778,-2.1417429447174072,-1.3333757382682343,-2.5268121401416224,6.109917151718893,1.0178152322769165,-3.5014968554126185
1708433285.061958,-2.141664981842041,-1.3333681237748642,-2.5268033186541956,6.109976875572958,1.0178271532058716,-3.501261059437887
1708433285.0638936,-2.141695261001587,-1.33333973706279,-2.5267632643329065,6.109930622368612,1.0178271532058716,-3.5009971300708216
1708433285.0659935,-2.141686201095581,-1.3333768260530015,-2.5267675558673304,6.109927761345663,1.0178227424621582,-3.5007951895343226
1708433285.0679495,-2.1416873931884766,-1.333388776784279,-2.5268245379077356,6.109896170883932,1.0178064107894897,-3.5004738012896937
1708433285.069939,-2.141716718673706,-1.3333887618831177,-2.5267415682422083,6.109887230187216,1.017867922782898,-3.5002687613116663
1708433285.0719032,-2.1416847705841064,-1.3333559793284913,-2.52675444284548,6.1098307249839685,1.0178349018096924,-3.4999235312091272
1708433285.0739086,-2.1416332721710205,-1.3333843809417267,-2.5267959276782435,6.10982762554244,1.017879843711853,-3.4996159712420862
1708433285.07593,-2.1416420936584473,-1.3333887469819565,-2.526766602193014,6.109823214798727,1.017825961112976,-3.4993775526629847
1708433285.0779274,-2.1415979862213135,-1.3333429408124466,-2.5267913977252405,6.109821545868673,1.0178786516189575,-3.4990420977221888
1708433285.079861,-2.1416351795196533,-1.3333670508912583,-2.526832167302267,6.109751450806417,1.0178786516189575,-3.498669687901632
1708433285.0818725,-2.141594409942627,-1.3333602857640763,-2.526733938847677,6.1097484705741785,1.0178663730621338,-3.498399321232931
1708433285.0838788,-2.1415979862213135,-1.3333559793284913,-2.5268364588366907,6.109696018486776,1.0178742408752441,-3.4980104605304163
1708433285.0858636,-2.1415741443634033,-1.3333595109036942,-2.5268450419055384,6.109655487328329,1.0179039239883423,-3.497683827077047
1708433285.0878577,-2.1416022777557373,-1.3333725345185776,-2.526794735585348,6.109655487328329,1.0179158449172974,-3.497431818638937
1708433285.0898764,-2.141603469848633,-1.3333483648351212,-2.5267871061908167,6.109657037049093,1.0179492235183716,-3.497030798588888
1708433285.0918622,-2.1415581703186035,-1.3333962869695206,-2.5268245379077356,6.1096078036125085,1.0179321765899658,-3.496671501790182
1708433285.093861,-2.1415491104125977,-1.3333559793284913,-2.5267871061908167,6.109637605934896,1.017906904220581,-3.496324602757589
1708433285.0959666,-2.1415793895721436,-1.3333757382682343,-2.526770893727438,6.109613883286276,1.0178697109222412,-3.4958959261523646
1708433285.0979035,-2.1415183544158936,-1.3333843660405655,-2.5268364588366907,6.109568941384115,1.0179402828216553,-3.4955504576312464
1708433285.0998852,-2.1415555477142334,-1.3333962869695206,-2.5268407503711146,6.109558212548055,1.0179188251495361,-3.495182816182272
1708433285.1018982,-2.141515016555786,-1.3333560091308136,-2.526766363774435,6.109525668412008,1.017935872077942,-3.4948158899890345
1708433285.1038797,-2.1414902210235596,-1.3333472621491929,-2.526785914097921,6.109501588135519,1.0179446935653687,-3.4944735209094446
1708433285.105892,-2.14151930809021,-1.333388776784279,-2.5268190542804163,6.1094655869300745,1.0179431438446045,-3.4940784613238733
1708433285.107914,-2.1415016651153564,-1.3333843809417267,-2.526799027119772,6.109456527024069,1.0179522037506104,-3.4936512152301233
1708433285.1099217,-2.14145827293396,-1.3333800596049805,-2.5268071333514612,6.109474527626791,1.017935872077942,-3.493239466344015
1708433285.1119163,-2.1414706707000732,-1.3333757382682343,-2.5268033186541956,6.109398591309347,1.0179730653762817,-3.492840353642599
1708433285.1138813,-2.1414053440093994,-1.3334085208228608,-2.52682334581484,6.109368431359091,1.0179522037506104,-3.492422167454855
1708433285.1159089,-2.141435384750366,-1.333359496002533,-2.5268071333514612,6.109378921776571,1.0179624557495117,-3.492023770009176
1708433285.1178813,-2.141448736190796,-1.3333725345185776,-2.5267913977252405,6.109349119454183,1.0179343223571777,-3.4916206041919153
1708433285.119887,-2.141453266143799,-1.3333429408124466,-2.526827637349264,6.109364020615377,1.0179296731948853,-3.4911814371692103
1708433285.1218603,-2.141432046890259,-1.3333725345185776,-2.526785914097921,6.10927294471816,1.017926812171936,-3.490734640751974
1708433285.123881,-2.141385793685913,-1.333388776784279,-2.526843849812643,6.109255063324728,1.0179702043533325,-3.490352455769674
1708433285.1258922,-2.1413698196411133,-1.33335596442733,-2.526827637349264,6.109208571701803,1.0179624557495117,-3.489913288746969
1708433285.1279347,-2.141317844390869,-1.3333768558553238,-2.526827637349264,6.109250533371725,1.0179836750030518,-3.4894710222827356
1708433285.1298769,-2.1413674354553223,-1.3333843660405655,-2.526811424885885,6.1092145321662805,1.0179669857025146,-3.489007298146383
1708433285.131867,-2.1413629055023193,-1.3333397519639512,-2.5268145243274134,6.109202611237325,1.0179624557495117,-3.4885616938220423
1708433285.1338646,-2.141348123550415,-1.3333353412202378,-2.5268071333514612,6.109157907753744,1.0180045366287231,-3.488109890614645
1708433285.1358635,-2.141348123550415,-1.3333559793284913,-2.526827637349264,6.10916684845046,1.0179489850997925,-3.4876070658313196
1708433285.137851,-2.141319751739502,-1.3333843660405655,-2.526839558278219,6.109133708267965,1.0179669857025146,-3.487164084111349
1708433285.1398897,-2.1412904262542725,-1.3333725345185776,-2.526851479207174,6.109130847245016,1.0179580450057983,-3.486710850392477
1708433285.141851,-2.1412858963012695,-1.333351583485939,-2.526839558278219,6.109151708870687,1.0179836750030518,-3.4862263838397425
1708433285.1438572,-2.141303777694702,-1.3333278608373185,-2.526839558278219,6.10910855510787,1.0179747343063354,-3.4858573118792933
1708433285.145934,-2.1412949562072754,-1.3333768260530015,-2.5268309752093714,6.109038102417745,1.017971396446228,-3.485338274632589
1708433285.1478727,-2.141273021697998,-1.3333768111518403,-2.526884142552511,6.10906349399642,1.017971396446228,-3.484863344823019
1708433285.1498842,-2.141242742538452,-1.33338117719207,-2.5268147627459925,6.1090396521385095,1.0179624557495117,-3.48431641260256
1708433285.151873,-2.141235828399658,-1.3333768558553238,-2.526839558278219,6.109002101212301,1.0179836750030518,-3.4838505426989954
1708433285.1538646,-2.1412155628204346,-1.3334136468223114,-2.526867691670553,6.109002101212301,1.0179580450057983,-3.4833560625659388
1708433285.1558728,-2.1412155628204346,-1.3333278757384797,-2.5268102327929896,6.108982908516683,1.0179715156555176,-3.4828043619738978
1708433285.157869,-2.1412198543548584,-1.33333973706279,-2.52682334581484,6.108926284104147,1.0179954767227173,-3.4823668638812464
1708433285.1598816,-2.1412084102630615,-1.3333646071008225,-2.526827637349264,6.108906495362081,1.0179791450500488,-3.4818318525897425
1708433285.1618745,-2.1412041187286377,-1.3333483946374436,-2.526867691670553,6.108902084618368,1.0179836750030518,-3.4813159147845667
1708433285.1639433,-2.1411499977111816,-1.3333602857640763,-2.526851479207174,6.108940827637472,1.0179624557495117,-3.4807985464679163
1708433285.1659174,-2.1411678791046143,-1.3333681237748642,-2.526839558278219,6.108929025917806,1.0179836750030518,-3.480300251637594
1708433285.1678748,-2.1411609649658203,-1.3333483946374436,-2.526872221623556,6.108838069229879,1.018003225326538,-3.479708735142843
1708433285.1698754,-2.1411495208740234,-1.3333440733006974,-2.5268471876727503,6.108901965409078,1.0179836750030518,-3.4791861216174524
1708433285.1718879,-2.1410953998565674,-1.3333559942296525,-2.526867930089132,6.108810889511862,1.0179954767227173,-3.478588406239645
1708433285.1738918,-2.1410839557647705,-1.3333526861718674,-2.526827637349264,6.108791339188375,1.0179325342178345,-3.478057924901144
1708433285.175867,-2.141099691390991,-1.3333603006652375,-2.5268471876727503,6.108829009323873,1.017937183380127,-3.4775810877429407
1708433285.1778584,-2.141043186187744,-1.3333190840533753,-2.5268309752093714,6.108703481941976,1.017986536026001,-3.4770429770099085
1708433285.179867,-2.141052007675171,-1.3333235842040558,-2.526872221623556,6.108654010086813,1.0180166959762573,-3.4765000979052942
1708433285.1818783,-2.1410701274871826,-1.333332137470581,-2.52682334581484,6.108658420830526,1.0180166959762573,-3.475884262715475
1708433285.1838777,-2.1410655975341797,-1.3333603006652375,-2.526839558278219,6.10869728305892,1.0179444551467896,-3.475319210683004
1708433285.1858578,-2.1410043239593506,-1.3333483797362824,-2.526855770741598,6.108615386276998,1.0179836750030518,-3.4748364130603235
1708433285.1878667,-2.1409928798675537,-1.333332137470581,-2.5268309752093714,6.108640658646383,1.0180000066757202,-3.4742160479175013
1708433285.189904,-2.14097261428833,-1.3333515685847779,-2.526872221623556,6.108583795815267,1.0179505348205566,-3.473666493092672
1708433285.191892,-2.140922784805298,-1.3332942438176651,-2.526863400136129,6.108561265259542,1.0179954767227173,-3.473079268132345
1708433285.1938887,-2.140911340713501,-1.333388776784279,-2.5268428961383265,6.108544814377584,1.0180000066757202,-3.472557608281271
1708433285.1959732,-2.1409213542938232,-1.3333603006652375,-2.5268505255328577,6.108495700150289,1.0179747343063354,-3.4719906489001673
1708433285.197922,-2.1408727169036865,-1.333351583485939,-2.526851479207174,6.108534323960104,1.0180166959762573,-3.47136360803713
1708433285.1998997,-2.140836477279663,-1.333323524599411,-2.5268428961383265,6.108456718712606,1.017991065979004,-3.4707608858691614
1708433285.2019086,-2.14082407951355,-1.3333898049644013,-2.5268386046039026,6.1084279892738245,1.0179955959320068,-3.4702308813678187
1708433285.2038794,-2.1408181190490723,-1.3333147925189515,-2.526856009160177,6.108420955925741,1.0179624557495117,-3.4696531931506556
1708433285.205877,-2.140773057937622,-1.3333364588073273,-2.5268309752093714,6.108413445740499,1.0180121660232544,-3.469106737767355
1708433285.2078822,-2.1406960487365723,-1.3333440733006974,-2.526863400136129,6.108347523003378,1.0180166959762573,-3.46844989458193
1708433285.20988,-2.140672445297241,-1.3333725345185776,-2.526817862187521,6.108284818917074,1.0179955959320068,-3.467923943196432
1708433285.2119143,-2.1406280994415283,-1.3333235544017334,-2.526879612599508,6.108244645386495,1.0179461240768433,-3.467336718236105
1708433285.2139063,-2.1406447887420654,-1.3333072674325486,-2.5268920103656214,6.108229505806722,1.0179836750030518,-3.466654364262716
1708433285.2159011,-2.140577793121338,-1.3333603006652375,-2.5268831888781946,6.108120310097494,1.0179836750030518,-3.4661598841296595
1708433285.2178807,-2.140582323074341,-1.3333072674325486,-2.5268710295306605,6.108091699868002,1.0179506540298462,-3.465428415928976
1708433285.2198837,-2.1404919624328613,-1.3333440583995362,-2.5268622080432337,6.107994544297018,1.0180000066757202,-3.4648264090167444
1708433285.221869,-2.140486001968384,-1.3333278161338349,-2.5268710295306605,6.108047234802999,1.0179342031478882,-3.464212481175558
1708433285.2239344,-2.140387773513794,-1.3333364439061661,-2.526890818272726,6.107957589417257,1.017992615699768,-3.463609759007589
1708433285.2258852,-2.140385150909424,-1.3333440583995362,-2.526874367390768,6.107902157097616,1.018008828163147,-3.462985340748922
1708433285.2279284,-2.140345573425293,-1.3333115887692948,-2.5269487539874476,6.107912528305807,1.017959475517273,-3.462369743977682
1708433285.2298818,-2.140321731567383,-1.333295078282692,-2.526923481618063,6.107745158463278,1.0179461240768433,-3.461798969899313
1708433285.2318716,-2.1402459144592285,-1.3333646071008225,-2.526919190083639,6.107746708184042,1.0179880857467651,-3.4611430803882044
1708433285.2338643,-2.1402335166931152,-1.3333559495261689,-2.526907269154684,6.107649552613058,1.0179715156555176,-3.4605518023120325
1708433285.2358747,-2.1401495933532715,-1.3333235096982499,-2.526939932500021,6.107586729317465,1.0179669857025146,-3.4599419275866907
1708433285.2378714,-2.140106201171875,-1.3333235096982499,-2.526968304310934,6.107462513237753,1.0179669857025146,-3.4593549410449427
1708433285.239864,-2.1400585174560547,-1.3333725643209,-2.526943031941549,6.1073490259941,1.0179791450500488,-3.458726469670431
1708433285.2418797,-2.1399660110473633,-1.33335596442733,-2.526959482823507,6.107320654183187,1.0179624557495117,-3.45811111131777
1708433285.2438917,-2.139894723892212,-1.3333267283490677,-2.5269342104541224,6.107133972435751,1.0179911851882935,-3.457634989415304
1708433285.2459476,-2.1398766040802,-1.3333725494197388,-2.5269671122180384,6.107062089234152,1.0179669857025146,-3.4569459597217005
1708433285.2479212,-2.139737606048584,-1.3334050339511414,-2.5270357767688196,6.1070289490516565,1.0179669857025146,-3.4563472906695765
1708433285.2499297,-2.1396536827087402,-1.3333800447038193,-2.526971403752462,6.106887209206381,1.017975926399231,-3.455691639577047
1708433285.2518828,-2.139594554901123,-1.3333887469819565,-2.5270031134234827,6.106852638512411,1.0180078744888306,-3.455101553593771
1708433285.2539546,-2.1395506858825684,-1.3333757382682343,-2.5270031134234827,6.10670946815566,1.0179669857025146,-3.4544978777514856
1708433285.2559233,-2.139463424682617,-1.3334005636027833,-2.5270074049579065,6.106585371285238,1.0179624557495117,-3.4539154211627405
1708433285.2579029,-2.1393513679504395,-1.3334200394204636,-2.527039353047506,6.10651062706069,1.017971396446228,-3.453231159840719
1708433285.2599745,-2.1392717361450195,-1.3333875846913834,-2.5270426909076136,6.106385218888082,1.0179880857467651,-3.452590529118673
1708433285.261981,-2.139127492904663,-1.3334041398814698,-2.5270512739764612,6.1062625525291345,1.0179505348205566,-3.4520254770862024
1708433285.2639062,-2.139064311981201,-1.333408535724022,-2.5270631949054163,6.106159198075094,1.0179460048675537,-3.451357666646139
1708433285.2659862,-2.1389482021331787,-1.33345182359729,-2.527062002812521,6.106008279114523,1.0179460048675537,-3.450714890156881
1708433285.2679634,-2.1388120651245117,-1.333469034438469,-2.5270705858813685,6.105895983963766,1.0180000066757202,-3.450123135243551
1708433285.2699614,-2.138763904571533,-1.333439664249756,-2.5271440188037317,6.105710971146383,1.0179669857025146,-3.449496571217672
1708433285.2719452,-2.1385629177093506,-1.3334352684072037,-2.5271602312671106,6.105526792794027,1.0179505348205566,-3.448852841054098
1708433285.2739413,-2.1385297775268555,-1.333460510974266,-2.5271883646594446,6.10542510727004,1.0179747343063354,-3.4482834974872034
1708433285.275918,-2.138340473175049,-1.3335004907897492,-2.52717096010317,6.105174171715536,1.0180121660232544,-3.447554413472311
1708433285.2779121,-2.138221263885498,-1.3335610640100022,-2.52717096010317,6.104999291687765,1.0179954767227173,-3.446919027959005
1708433285.279971,-2.138065814971924,-1.3335518699935456,-2.52720290819277,6.104878055840292,1.0179791450500488,-3.4463046232806605
1708433285.281892,-2.137929916381836,-1.333569036131241,-2.5272441546069544,6.10464488246993,1.0180212259292603,-3.4456163088427942
1708433285.283925,-2.137826919555664,-1.3335842800191422,-2.5273247400866907,6.104507314949789,1.0179702043533325,-3.4450309912311
1708433285.285865,-2.1376419067382812,-1.333575577741005,-2.52727181116213,6.104348885803976,1.017970085144043,-3.4443398157702845
1708433285.2878718,-2.137519121170044,-1.3336274784854432,-2.5273149649249476,6.104094850807943,1.0180199146270752,-3.443711821232931
1708433285.2898564,-2.137319564819336,-1.3336039942554017,-2.5273223559008997,6.1039172289665125,1.0179611444473267,-3.4430723826037806
1708433285.2918518,-2.1371448040008545,-1.3336679500392457,-2.527346674595968,6.103698837548055,1.0180273056030273,-3.4423778692828577
1708433285.2938802,-2.1369967460632324,-1.3336679500392457,-2.527412239705221,6.103519189148702,1.0180273056030273,-3.441739622746603
1708433285.2960036,-2.136817455291748,-1.3337191355279465,-2.5274437109576624,6.103292095452108,1.0180273056030273,-3.4410718123065394
1708433285.2979136,-2.1366381645202637,-1.3336856675199051,-2.5274675528155726,6.102990615158834,1.0180555582046509,-3.4403796831714075
1708433285.2999353,-2.136453866958618,-1.333734319811203,-2.527466599141256,6.102779614716329,1.0180964469909668,-3.4397698084460657
1708433285.3018985,-2.1362664699554443,-1.3337299537709733,-2.527536455784933,6.102488028794088,1.0181204080581665,-3.4391184488879603
1708433285.3039172,-2.1360507011413574,-1.333844171171524,-2.5276053587542933,6.102272379189291,1.018099308013916,-3.4384759108172815
1708433285.3058841,-2.135847330093384,-1.3337735694697876,-2.5275591055499476,6.1020781872566126,1.0181776285171509,-3.4378579298602503
1708433285.307875,-2.13570499420166,-1.333826870923378,-2.5276487509356897,6.101856934815206,1.0181474685668945,-3.437148634587423
1708433285.3098755,-2.1354527473449707,-1.3338789355805893,-2.5276148954974573,6.101490843086996,1.0181759595870972,-3.4364782015429896
1708433285.3119073,-2.1352121829986572,-1.3339235496572037,-2.5276432673083704,6.101133453636923,1.0182360410690308,-3.435794178639547
1708433285.313905,-2.1349740028381348,-1.3338934195092698,-2.527663056050436,6.100873577385702,1.0182647705078125,-3.4351161162005823
1708433285.3158727,-2.1346983909606934,-1.3339417737773438,-2.527703110371725,6.100555288582601,1.0183382034301758,-3.4343796412097376
1708433285.3178854,-2.1344618797302246,-1.333953933124878,-2.5277231375323694,6.100344168930807,1.0183444023132324,-3.433693234120504
1708433285.3198583,-2.1342716217041016,-1.3340222847512742,-2.5277796427356165,6.09994791725234,1.0183608531951904,-3.432987991963522
1708433285.3218884,-2.133943796157837,-1.3340623092702408,-2.527782980595724,6.099705922394552,1.0183639526367188,-3.432351891194479
1708433285.3239176,-2.133727550506592,-1.3340983998826523,-2.5278354326831263,6.0993127701576135,1.0183836221694946,-3.431681219731466
1708433285.3258655,-2.1334848403930664,-1.3340812635472794,-2.5278592745410364,6.099032032280721,1.0184240341186523,-3.4310172239886683
1708433285.327858,-2.1331822872161865,-1.3341255646995087,-2.5279160181628626,6.098626720696249,1.0184526443481445,-3.4302941004382532
1708433285.3298779,-2.1329057216644287,-1.3341811311296006,-2.527919117604391,6.098298299103536,1.0184767246246338,-3.429563109074728
1708433285.3318665,-2.1325666904449463,-1.3342333298972626,-2.5279555956469935,6.097937810211935,1.0185785293579102,-3.428917471562521
1708433285.3338633,-2.1322925090789795,-1.334273339515068,-2.527966324483053,6.097529637604513,1.018560528755188,-3.428216520939962
1708433285.3358614,-2.1319186687469482,-1.334304855470993,-2.528055493031637,6.09715627410964,1.0185638666152954,-3.4275265375720423
1708433285.337865,-2.131661891937256,-1.3343851280263443,-2.5280829111682337,6.096801984101095,1.0186299085617065,-3.426847521458761
1708433285.3398495,-2.131366729736328,-1.3344050359776993,-2.5281320253955286,6.096447455673971,1.0186164379119873,-3.426131788884298
1708433285.341857,-2.1310083866119385,-1.3344486963799973,-2.528180185948507,6.096044051438131,1.0186691284179688,-3.4254451433764856
1708433285.3438587,-2.1306440830230713,-1.3345039796880265,-2.5282159487353724,6.095620262413778,1.018705129623413,-3.4247542063342493
1708433285.3459606,-2.1302711963653564,-1.3346175265363236,-2.528271738682882,6.095139968186178,1.0187333822250366,-3.4240334669696253
1708433285.3478944,-2.1299102306365967,-1.3346243065646668,-2.5283151308642786,6.0947433588798425,1.0187366008758545,-3.4233318010913294
1708433285.3499048,-2.129563093185425,-1.3346679222634812,-2.528358761464254,6.0943264839942834,1.018805742263794,-3.4226654211627405
1708433285.3519275,-2.129150629043579,-1.3347283762744446,-2.5284395853625696,6.093867289810934,1.0188207626342773,-3.4219494501696985
1708433285.3539505,-2.1287639141082764,-1.3348077994636078,-2.528471056615011,6.093387472420492,1.0188448429107666,-3.4212260882007044
1708433285.3559012,-2.128394842147827,-1.3347821843675156,-2.5285308996783655,6.092867123871603,1.0188857316970825,-3.4205156008349817
1708433285.357907,-2.128004789352417,-1.33489944160495,-2.52862793604006,6.092417585640707,1.018946886062622,-3.419781510029928
1708433285.359889,-2.127631187438965,-1.3349388849786301,-2.5286555925952356,6.091992962151327,1.0189528465270996,-3.4190734068499964
1708433285.3618963,-2.127199411392212,-1.334991068845131,-2.528764549885885,6.091507065087118,1.0190266370773315,-3.418370072041647
1708433285.3638837,-2.126783847808838,-1.335062490110733,-2.5288363138781946,6.091017114907064,1.01905357837677,-3.417607371007101
1708433285.3658864,-2.1263744831085205,-1.3351266545108338,-2.52887469926943,6.090440141945638,1.0191185474395752,-3.416835610066549
1708433285.367872,-2.1258888244628906,-1.3352018010667344,-2.528931204472677,6.089958417206564,1.0191574096679688,-3.416123930607931
1708433285.369865,-2.1254820823669434,-1.3352949035218735,-2.529019896184103,6.0894367573554895,1.0191936492919922,-3.4153810183154505
1708433285.3718839,-2.125023365020752,-1.3352683049491425,-2.5291364828692835,6.088901626854696,1.0192415714263916,-3.4146385828601282
1708433285.373958,-2.124621629714966,-1.3354298931411286,-2.529147211705343,6.088370668679037,1.0192700624465942,-3.413912359868185
1708433285.3758717,-2.1241250038146973,-1.335428149705269,-2.5292356649981897,6.0878656981285,1.0193588733673096,-3.413119141255514
1708433285.3779056,-2.1236867904663086,-1.3355283302119751,-2.5293567816363733,6.087320196419515,1.0194036960601807,-3.4124484697925013
1708433285.3798707,-2.123203992843628,-1.3356323701194306,-2.529346768056051,6.086773621826925,1.0194429159164429,-3.411684815083639
1708433285.3818896,-2.1227526664733887,-1.3357084703496476,-2.5294559637652796,6.086236822396078,1.0194957256317139,-3.4109345118152063
1708433285.383863,-2.1222894191741943,-1.3357722473195572,-2.529538933430807,6.085616457253256,1.01958429813385,-3.4101949373828333
1708433285.3858843,-2.121774673461914,-1.3358962696841736,-2.5296106974231165,6.0850798962409876,1.019590139389038,-3.409431282673971
1708433285.3879004,-2.1212711334228516,-1.335999460225441,-2.5297568480121058,6.084492313652792,1.019675850868225,-3.408681933079855
1708433285.3898723,-2.120739221572876,-1.336042271261551,-2.529844347630636,6.083870517998495,1.0197196006774902,-3.407893959675924
1708433285.391871,-2.1202940940856934,-1.3361991357854386,-2.5299084822284144,6.083263385086813,1.019770622253418,-3.4071219603167933
1708433285.3938982,-2.119807243347168,-1.3362789166024704,-2.5299511591540735,6.082732665329733,1.0198352336883545,-3.406397883092062
1708433285.3959022,-2.1192469596862793,-1.336382122044899,-2.530033890401022,6.082071769028463,1.0198907852172852,-3.405630175267355
1708433285.3978882,-2.1187477111816406,-1.3365147423795243,-2.530163828526632,6.081481802254476,1.0199345350265503,-3.4048524538623255
1708433285.3998604,-2.1181697845458984,-1.3366017502597352,-2.530247751866476,6.080847608834066,1.0199944972991943,-3.404107634221212
1708433285.4018636,-2.1176838874816895,-1.3366607439569016,-2.5302870909320276,6.080183970719137,1.0200728178024292,-3.403313223515646
1708433285.4038763,-2.1171460151672363,-1.3368170422366639,-2.5303993860827845,6.079584824829855,1.0201525688171387,-3.40248948732485
1708433285.405864,-2.11661958694458,-1.3369646084359665,-2.530487839375631,6.078982102661886,1.0201959609985352,-3.40163237253298
1708433285.4078698,-2.1160356998443604,-1.3370280873826523,-2.530587975178854,6.078355300217428,1.0203102827072144,-3.400884215031759
1708433285.4099329,-2.1154603958129883,-1.3371722114137192,-2.5306673685656946,6.077741253166952,1.02035653591156,-3.400102202092306
1708433285.411881,-2.1148600578308105,-1.3372873228839417,-2.5307682196246546,6.077116715698995,1.0204001665115356,-3.3993454615222376
1708433285.4138575,-2.1143076419830322,-1.3374275279096146,-2.5308595339404505,6.076475608139791,1.0204198360443115,-3.3985582033740442
1708433285.4158657,-2.1137068271636963,-1.3375102591565629,-2.5309065024005335,6.075753438263693,1.0205053091049194,-3.397724453602926
1708433285.4179175,-2.1130967140197754,-1.33766324937854,-2.531039539967672,6.075036275177755,1.0205819606781006,-3.3969903627978724
1708433285.4198751,-2.1124820709228516,-1.337811992769577,-2.531074349080221,6.074433672219076,1.0206620693206787,-3.396179739628927
1708433285.4218779,-2.111891984939575,-1.3379021149924775,-2.5312238375293177,6.073752033501425,1.020738124847412,-3.3954833189593714
1708433285.4239857,-2.1112656593322754,-1.3380828660777588,-2.531306568776266,6.073082315712728,1.0207850933074951,-3.394672695790426
1708433285.425863,-2.110630512237549,-1.3381356459907074,-2.5314441362964075,6.072375404625692,1.02082097530365,-3.393879238759176
1708433285.4278717,-2.110048770904541,-1.3383295399001618,-2.53151518503298,6.071735369950094,1.020885944366455,-3.393104616795675
1708433285.429867,-2.1093647480010986,-1.3384286326221009,-2.5316272417651575,6.071079003601827,1.0209623575210571,-3.392294708882467
1708433285.4318726,-2.108769655227661,-1.3385683757117768,-2.5317233244525355,6.070309030800619,1.0210012197494507,-3.391503874455587
1708433285.4338927,-2.108107089996338,-1.3387043339065094,-2.5317819754229944,6.069614517479696,1.0210825204849243,-3.3907275835620325
1708433285.4358702,-2.1074154376983643,-1.338818536405899,-2.5319066683398646,6.06892095783309,1.021192193031311,-3.389897171651022
1708433285.4378843,-2.106689453125,-1.3389338713935395,-2.532031838093893,6.068134891777792,1.0211743116378784,-3.389064137135641
1708433285.4398751,-2.106078863143921,-1.33905644834552,-2.5321431795703333,6.067423569947042,1.0212385654449463,-3.3882373015033167
1708433285.4418669,-2.1053779125213623,-1.3392372888377686,-2.5322347323047083,6.066636907845297,1.0213063955307007,-3.387390677128927
1708433285.4438655,-2.1046905517578125,-1.3394296330264588,-2.5323429743396204,6.065991747170248,1.0213292837142944,-3.38660175005068
1708433285.445974,-2.104037284851074,-1.3395564717105408,-2.532480065022604,6.065246450691976,1.0214146375656128,-3.3857763449298304
1708433285.4478822,-2.1033380031585693,-1.3397178214839478,-2.532551113759176,6.06459008434371,1.0214341878890991,-3.3849287668811243
1708433285.4498813,-2.102667808532715,-1.3398316961577912,-2.532663647328512,6.063837039261617,1.0214869976043701,-3.3841219584094446
1708433285.4519205,-2.101997137069702,-1.3399423074773331,-2.5328083674060267,6.063114034920492,1.0215636491775513,-3.3832791487323206
1708433285.453893,-2.1013236045837402,-1.340126321916916,-2.5328663031207483,6.062421667366781,1.0216115713119507,-3.3824859301196497
1708433285.4558997,-2.100613594055176,-1.3402238351157685,-2.5330079237567347,6.061680185585775,1.021643042564392,-3.381645981465475
1708433285.4579012,-2.099886178970337,-1.340416596536972,-2.533116165791647,6.060935008316793,1.0217199325561523,-3.3808465639697474
1708433285.4598835,-2.099200963973999,-1.3405685883811493,-2.533231798802511,6.060143697052755,1.0217514038085938,-3.3798986116992396
1708433285.4619205,-2.09846568107605,-1.3407679361156006,-2.5332818667041224,6.059337961464681,1.0218158960342407,-3.3790863196002405
1708433285.4638786,-2.097747564315796,-1.3409348887256165,-2.533468548451559,6.058623897820272,1.02178156375885,-3.3782323042498987
1708433285.4659345,-2.097029685974121,-1.3411273223212739,-2.5334933439837855,6.057896244316854,1.021920084953308,-3.3774076143847864
1708433285.46791,-2.0962777137756348,-1.3412863922170182,-2.533639732991354,6.057072627335348,1.0219436883926392,-3.3765137831317347
1708433285.4699035,-2.095557451248169,-1.3415015649846573,-2.533750836049215,6.056282508164205,1.0219707489013672,-3.3756282965289515
1708433285.4719439,-2.0947399139404297,-1.3416610223105927,-2.533818308507101,6.055508005409994,1.0220234394073486,-3.374704424534933
1708433285.4739435,-2.094020128250122,-1.3418720227530976,-2.533971134816305,6.054668772011556,1.0220516920089722,-3.373824421559469
1708433285.4760082,-2.093214511871338,-1.342071921830513,-2.53406268755068,6.0539296744163416,1.0220956802368164,-3.3728931585894983
1708433285.4779394,-2.0924510955810547,-1.3422395449927826,-2.534163300191061,6.053079235344686,1.0221794843673706,-3.3720133940326136
1708433285.4798753,-2.091668128967285,-1.3424013418010254,-2.5342827478991907,6.052219021111288,1.0221422910690308,-3.3711164633380335
1708433285.481888,-2.090904474258423,-1.3426297169974823,-2.5343790690051478,6.051388847618856,1.0222607851028442,-3.370186154042379
1708433285.4838643,-2.0901975631713867,-1.34281341851268,-2.534510676060812,6.050616729050436,1.022263765335083,-3.3693299929248255
1708433285.4858673,-2.089385747909546,-1.3430153143456955,-2.5346158186541956,6.049749243050375,1.0223240852355957,-3.3684118429767054
1708433285.4878795,-2.088656425476074,-1.3432820302299042,-2.5347235838519495,6.048968899040975,1.022348165512085,-3.367584530507223
1708433285.4898648,-2.0878448486328125,-1.3434157234481354,-2.53481108347048,6.048180687218466,1.0224050283432007,-3.366607729588644
1708433285.491882,-2.0870940685272217,-1.3436517280391236,-2.5348742643939417,6.0473378775413416,1.0223944187164307,-3.3657758871661585
1708433285.4938862,-2.0862929821014404,-1.343831018810608,-2.534973684941427,6.04655538776473,1.0223944187164307,-3.3648136297809046
1708433285.4959555,-2.0855207443237305,-1.3440213364413758,-2.5351184050189417,6.045762526779928,1.0224441289901733,-3.363927427922384
1708433285.4979937,-2.084697723388672,-1.3442823153785248,-2.535248343144552,6.044906961708822,1.022423267364502,-3.36305815378298
1708433285.4998894,-2.083827018737793,-1.3444190484336396,-2.535301748906271,6.044101464539327,1.0224965810775757,-3.362181011830465
1708433285.5018792,-2.0830166339874268,-1.344650612478592,-2.535376850758688,6.043305146485128,1.0225255489349365,-3.361291233693258
1708433285.5038862,-2.0821778774261475,-1.344858096247055,-2.5355189482318323,6.042496430664816,1.0224956274032593,-3.360433880482809
1708433285.5058794,-2.0814080238342285,-1.3450658333352585,-2.5355570952044886,6.041743981629171,1.0225149393081665,-3.3595290819751185
1708433285.5078895,-2.0805327892303467,-1.3452201348594208,-2.5356746355639856,6.040813910752096,1.0225402116775513,-3.358617607747213
1708433285.5098927,-2.079716205596924,-1.345431075697281,-2.535761896763937,6.040049659996786,1.0225268602371216,-3.357691828404562
1708433285.51189,-2.0788700580596924,-1.3456830394319077,-2.535861078892843,6.0391955254371545,1.0225733518600464,-3.356745783482687
1708433285.513913,-2.0780727863311768,-1.3458867234042664,-2.5359745661364954,6.038350450783529,1.0225104093551636,-3.355853859578268
1708433285.5158546,-2.077261209487915,-1.3461264979890366,-2.536046568547384,6.03752218463973,1.0224894285202026,-3.354880158101217
1708433285.5178545,-2.0763700008392334,-1.346272499566414,-2.5361292997943323,6.0366835472877405,1.0225238800048828,-3.354018036519186
1708433285.519863,-2.0755813121795654,-1.3465279203704377,-2.5362702051745813,6.035911667137899,1.0225075483322144,-3.35301644006838
1708433285.5218534,-2.0747482776641846,-1.3467443150332947,-2.536351029072897,6.035126435547628,1.0225402116775513,-3.352049175892965
1708433285.5239928,-2.073810338973999,-1.3469683688930054,-2.5364261309253138,6.034280526428976,1.0224785804748535,-3.3511009852038782
1708433285.5258539,-2.07295298576355,-1.3471302104047318,-2.5365427176104944,6.033409702568807,1.0225328207015991,-3.3501670996295374
1708433285.527867,-2.0720577239990234,-1.3473574233106156,-2.5366137663470667,6.0326939699943445,1.022454857826233,-3.3491762320147913
1708433285.5298698,-2.071171998977661,-1.347654016023018,-2.5366857687579554,6.031823503762045,1.0224965810775757,-3.3481386343585413
1708433285.5318582,-2.070284605026245,-1.3478032660535355,-2.5367522875415247,6.031015622406759,1.022471308708191,-3.3471344153033655
1708433285.5339153,-2.0694196224212646,-1.3480345469764252,-2.5369508902179163,6.030127393990316,1.0224593877792358,-3.346135918294088
1708433285.5358539,-2.0685577392578125,-1.3482909810594101,-2.5370305220233362,6.029347288399496,1.0224609375,-3.3451979796039026
1708433285.5378737,-2.067702293395996,-1.348500744705536,-2.537118736897604,6.028484570771017,1.0224233865737915,-3.3441627661334437
1708433285.5398831,-2.0667922496795654,-1.3487041157535096,-2.537140671406881,6.027644264488973,1.0224246978759766,-3.343159023915426
1708433285.5418487,-2.065969467163086,-1.3489563328078766,-2.53729755083193,6.026823150902548,1.0223376750946045,-3.342147413884298
1708433285.5438535,-2.065091848373413,-1.3491791498712082,-2.5373738447772425,6.025907861977377,1.0223345756530762,-3.341086212788717
1708433285.5459447,-2.064192533493042,-1.349426047211029,-2.5374534765826624,6.025075065880575,1.022322416305542,-3.3400562445269983
1708433285.5479,-2.0633468627929688,-1.3496944320252915,-2.537581984196798,6.024197804718771,1.022311806678772,-3.3389318625079554
1708433285.54988,-2.0623955726623535,-1.3499371123364945,-2.537653986607687,6.023396122246542,1.0222500562667847,-3.337876860295431
1708433285.5518925,-2.0615155696868896,-1.3501519423774262,-2.537741486226217,6.022499906807699,1.0222852230072021,-3.3368714491473597
1708433285.553923,-2.0606372356414795,-1.3503586810878296,-2.5378711859332483,6.021686541825094,1.0222022533416748,-3.335818354283468
1708433285.5559258,-2.059680700302124,-1.3506335479072114,-2.5379465262042444,6.020832407265463,1.0221872329711914,-3.334787432347433
1708433285.5579202,-2.0588276386260986,-1.3509378296187897,-2.5379605929004114,6.019913065224447,1.0222249031066895,-3.333785359059469
1708433285.5599747,-2.0579354763031006,-1.3511595886996766,-2.5380786100970667,6.019132363587179,1.022151231765747,-3.332679573689596
1708433285.5619419,-2.05700945854187,-1.3514110159925004,-2.5381656328784388,6.01827238777236,1.0221303701400757,-3.331703011189596
1708433285.5638986,-2.0560989379882812,-1.3517238658717652,-2.5382047335254114,6.017410981446066,1.0221059322357178,-3.3306787649737757
1708433285.5659094,-2.0551841259002686,-1.3519501847079773,-2.5383053461657923,6.016558277397909,1.0220822095870972,-3.3296261469470423
1708433285.5679035,-2.0542473793029785,-1.3522771310857316,-2.538405481969015,6.015752780228414,1.0220626592636108,-3.3284934202777308
1708433285.5698972,-2.0533530712127686,-1.3524825435927887,-2.5384579340564173,6.014922964363851,1.0220879316329956,-3.327406946812765
1708433285.5718706,-2.0524306297302246,-1.352807880645134,-2.538546148930685,6.0141265271003626,1.0220551490783691,-3.3263092676745813
1708433285.574018,-2.051518678665161,-1.353025109773018,-2.5385921637164515,6.013242471009054,1.0219902992248535,-3.325252119694845
1708433285.5758834,-2.0505757331848145,-1.3532879662564774,-2.538722817097799,6.012377369194784,1.0219829082489014,-3.3241363207446497
1708433285.5778754,-2.0496456623077393,-1.3535628628781815,-2.5387447516070765,6.011597621231832,1.0219556093215942,-3.323000733052389
1708433285.579875,-2.0487143993377686,-1.353839249616005,-2.5388243834124964,6.0106773255165,1.0219109058380127,-3.3218448797809046
1708433285.5818665,-2.0477747917175293,-1.3540615004352112,-2.5389702955829065,6.009893166809835,1.021882176399231,-3.320688788090841
1708433285.5839238,-2.046783447265625,-1.3544426274350663,-2.5389726797686976,6.00903485992507,1.0218251943588257,-3.3195515314685267
1708433285.5859065,-2.045868396759033,-1.354713187818863,-2.5390446821795862,6.00824140289382,1.0218051671981812,-3.318395439778463
1708433285.5878806,-2.044931650161743,-1.3549273622087021,-2.539140526448385,6.007359134941854,1.0217573642730713,-3.317239586506979
1708433285.5898974,-2.0439791679382324,-1.3552100372365494,-2.539196316395895,6.006440865784445,1.021721363067627,-3.3160834948169153
1708433285.591871,-2.0430116653442383,-1.3555188489011307,-2.539297644292013,6.0056848404701135,1.0216565132141113,-3.3148565928088587
1708433285.5938673,-2.04205322265625,-1.3557569098523636,-2.539405647908346,6.004816877632894,1.0215967893600464,-3.3136892954455774
1708433285.5959828,-2.0411019325256348,-1.3559948217919846,-2.539501492177145,6.004010069161215,1.021572470664978,-3.31250507036318
1708433285.5979052,-2.0401253700256348,-1.3562297385982056,-2.5395332018481653,6.003201472550192,1.0215213298797607,-3.311258141194479
1708433285.5998855,-2.039229154586792,-1.3565709751895447,-2.5396371523486536,6.002412426262655,1.0214481353759766,-3.310010019932882
1708433285.601873,-2.0382697582244873,-1.3568121206811448,-2.5396891275988978,6.001545536309042,1.0213998556137085,-3.308749262486593
1708433285.6038697,-2.0373194217681885,-1.3570913833430787,-2.5397895018206995,6.000833022385397,1.0213770866394043,-3.3075478712665003
1708433285.6058686,-2.0363564491271973,-1.3573459696820755,-2.5398975054370325,5.999974834709921,1.0213412046432495,-3.306288544331686
1708433285.607864,-2.035397529602051,-1.3576308500817795,-2.539920155202047,5.999208915024557,1.021233081817627,-3.305131498967306
1708433285.6098926,-2.0344579219818115,-1.3578721296838303,-2.5400341192828577,5.998378860741415,1.0211760997772217,-3.30386192003359
1708433285.6119223,-2.033473491668701,-1.358144150381424,-2.5400808493243616,5.997594940453329,1.0211244821548462,-3.3026390711413782
1708433285.6139064,-2.0325939655303955,-1.3584145468524476,-2.540156904851095,5.996810543328085,1.0211052894592285,-3.3014352957354944
1708433285.6158824,-2.0315918922424316,-1.3586568099311371,-2.540191952382223,5.995953428536215,1.0210449695587158,-3.3002615610705774
1708433285.6178641,-2.0306897163391113,-1.358912320142128,-2.540320936833517,5.995154607086935,1.0209922790527344,-3.299000088368551
1708433285.6198664,-2.0297694206237793,-1.3592244547656556,-2.5403927008258265,5.994419801026144,1.0209399461746216,-3.297817055379049
1708433285.621873,-2.028808116912842,-1.3595071893981476,-2.540497366582052,5.993562567024984,1.0208545923233032,-3.2965577284442347
1708433285.623965,-2.0279037952423096,-1.3597821158221741,-2.5405073801623743,5.992772567063131,1.0208510160446167,-3.2952902952777308
1708433285.6258836,-2.026919364929199,-1.3599992257407685,-2.5406370798694056,5.991997349053182,1.0207340717315674,-3.2940920034991663
1708433285.6278846,-2.026012897491455,-1.3603448283723374,-2.5407002607928675,5.991233098297872,1.020756483078003,-3.2928345839129847
1708433285.629889,-2.02504825592041,-1.3605982524207612,-2.540772263203756,5.99047468879775,1.020691990852356,-3.2915776411639612
1708433285.6318712,-2.0241589546203613,-1.36088681340728,-2.5409136454211634,5.9896888611610315,1.0206351280212402,-3.290363136922018
1708433285.6338832,-2.023190498352051,-1.3610966515592118,-2.5409281889544886,5.9889423725898645,1.020591378211975,-3.289053503667013
1708433285.6358604,-2.0222442150115967,-1.361444429760315,-2.5410240332232874,5.9881465313728235,1.0205432176589966,-3.287767473851339
1708433285.637866,-2.021296501159668,-1.361756758098938,-2.541100565587179,5.987450825959005,1.020544409751892,-3.2864330450641077
1708433285.6398523,-2.0203709602355957,-1.362006203537323,-2.54117995897402,5.986653792649069,1.02053701877594,-3.285198990498678
1708433285.6418552,-2.019432544708252,-1.3622857642224808,-2.5412607828723353,5.985942709236898,1.0204558372497559,-3.283748451863424
1708433285.6438525,-2.018507242202759,-1.3625639838031312,-2.541340414677755,5.985157358437338,1.020423173904419,-3.282393757496969
1708433285.64588,-2.017510175704956,-1.3628257376006623,-2.5414329210864466,5.984524833946981,1.0203748941421509,-3.2811577955829065
1708433285.6478941,-2.016641139984131,-1.3631347578815003,-2.5415006319629114,5.983829366951742,1.0203508138656616,-3.279801909123556
1708433285.6498644,-2.0157155990600586,-1.3634140652469178,-2.5415638128863733,5.9831580994422815,1.0203402042388916,-3.278403345738546
1708433285.6518574,-2.0148019790649414,-1.3636411738446732,-2.54165226617922,5.982453334122457,1.0202454328536987,-3.276980225239889
1708433285.6538675,-2.0138015747070312,-1.36394356310878,-2.5417078177081507,5.9817460654075525,1.0201854705810547,-3.2755656878100794
1708433285.6559088,-2.0127816200256348,-1.3642582905343552,-2.5418289343463343,5.9810101864631555,1.0201870203018188,-3.274082962666647
1708433285.6578948,-2.011796236038208,-1.3645619314960022,-2.54194146791567,5.980265128403463,1.0201959609985352,-3.2727373282061976
1708433285.6598744,-2.0108847618103027,-1.3648772102645417,-2.541955534611837,5.979620802193441,1.0201510190963745,-3.271318499241964
1708433285.6619458,-2.0099525451660156,-1.3650945287993927,-2.542067829762594,5.978961694031515,1.020156979560852,-3.2699413935290735
1708433285.6639168,-2.009016513824463,-1.3653904509595414,-2.5421605745898646,5.978256571083822,1.0201117992401123,-3.2686641852008265
1708433285.6659489,-2.0080838203430176,-1.3656531435302277,-2.5422163645373743,5.977679478913107,1.0200787782669067,-3.2672935167895716
1708433285.6679397,-2.0071582794189453,-1.3659239274314423,-2.542377535496847,5.976986992150106,1.0200423002243042,-3.265897576008932
1708433285.6699376,-2.006237506866455,-1.36624829590831,-2.5424166361438196,5.976324188500204,1.0200306177139282,-3.2645161787616175
1708433285.6719398,-2.0052433013916016,-1.3665319842151185,-2.5425248781787317,5.9756271717842,1.0200111865997314,-3.2631221453296106
1708433285.673933,-2.004295825958252,-1.3667814445546647,-2.5425763765918177,5.9749346850212,1.020043969154358,-3.261663262044088
1708433285.6759412,-2.0033748149871826,-1.3670674127391358,-2.5426927248584192,5.974225628166952,1.0199960470199585,-3.2602441946612757
1708433285.6779623,-2.0024049282073975,-1.3673422944596787,-2.5427516142474573,5.973611581116476,1.0200111865997314,-3.2588229815112513
1708433285.6798885,-2.0015199184417725,-1.3676174891046067,-2.5428925196277063,5.973079311638632,1.019974946975708,-3.2573967615710657
1708433285.681877,-2.0006260871887207,-1.3679487717202683,-2.542948071156637,5.972463357239523,1.0199960470199585,-3.255930487309591
1708433285.683866,-1.9997127056121826,-1.3682406109622498,-2.543084208165304,5.971851813584127,1.0199826955795288,-3.254477326069967
1708433285.6859007,-1.9988044500350952,-1.3685316902450104,-2.5431845823871058,5.971228348999777,1.0199826955795288,-3.252880636845724
1708433285.6879032,-1.9978564977645874,-1.3688024145415802,-2.543260161076681,5.97060643413619,1.0200034379959106,-3.251343313847677
1708433285.6898954,-1.9969046115875244,-1.369170905356743,-2.543396298085348,5.9700156328971765,1.0199450254440308,-3.249883476887838
1708433285.6918855,-1.9959982633590698,-1.369437502031662,-2.543504301701681,5.969483363419332,1.019990086555481,-3.248258415852682
1708433285.693903,-1.9950772523880005,-1.3697426927140732,-2.5436163584338587,5.968856918602743,1.0199944972991943,-3.2466679255114954
1708433285.6958923,-1.994154691696167,-1.370079831486084,-2.5437291304217737,5.968297588616171,1.019990086555481,-3.2451074759112757
1708433285.6979475,-1.9932371377944946,-1.3703701061061402,-2.543828074132101,5.967750775605001,1.0199944972991943,-3.2435596624957483
1708433285.6999395,-1.9922740459442139,-1.3706854444793244,-2.5439537207232874,5.9672090885932825,1.020006775856018,-3.2419377009021204
1708433285.701907,-1.991379737854004,-1.3709590297988434,-2.5440526644336146,5.966605055123129,1.0200275182724,-3.240401093159811
1708433285.703918,-1.9904760122299194,-1.3713058543256302,-2.5441530386554163,5.965945827751913,1.0200350284576416,-3.2388153711902063
1708433285.7059,-1.9895765781402588,-1.3715971869281312,-2.5442655722247522,5.965440618782797,1.0201011896133423,-3.237253014241354
1708433285.7078922,-1.9886231422424316,-1.3719079059413453,-2.544380013142721,5.964893567353048,1.0201117992401123,-3.2356818358050745
1708433285.7099006,-1.9877077341079712,-1.3721942615560074,-2.544504229222433,5.9643839476402185,1.020156979560852,-3.234128538762228
1708433285.711914,-1.9868203401565552,-1.3724971127561112,-2.544583861027853,5.963863718300619,1.0201435089111328,-3.2325497309314173
1708433285.7139225,-1.9859108924865723,-1.3728530269912262,-2.544720236455099,5.963301884918966,1.020126461982727,-3.2310240904437464
1708433285.7159314,-1.985030174255371,-1.3731680822423478,-2.544828001652853,5.9627935765083215,1.020179271697998,-3.2294722239123743
1708433285.7179384,-1.9840880632400513,-1.3734497141889115,-2.544964377080099,5.962306844979086,1.0202200412750244,-3.2278907934771937
1708433285.7198648,-1.98318350315094,-1.3737770777991791,-2.545068327580587,5.961870062142172,1.0202395915985107,-3.226252619420187
1708433285.721898,-1.9822378158569336,-1.3741462540677567,-2.545188013707296,5.961321818619528,1.0202395915985107,-3.2246230284320276
1708433285.7239897,-1.981376051902771,-1.3744086933187027,-2.5452919642077845,5.960860955506124,1.0202887058258057,-3.222935978566305
1708433285.725874,-1.9804712533950806,-1.3747064483216782,-2.5454488436328333,5.960378753929891,1.0203237533569336,-3.22121245065798
1708433285.7278938,-1.9795708656311035,-1.3750714671662827,-2.545605723057882,5.959939229279318,1.0203642845153809,-3.219605032597677
1708433285.7298834,-1.9786796569824219,-1.3753915441087265,-2.545692030583517,5.959495889931478,1.020371913909912,-3.2179067770587366
1708433285.731886,-1.9777545928955078,-1.3756693762591858,-2.545816246663229,5.959092843323507,1.0203913450241089,-3.2162302176104944
1708433285.7338855,-1.9769017696380615,-1.376038358812668,-2.5458994547473353,5.958656298905172,1.0204499959945679,-3.214573923741476
1708433285.7358713,-1.9759902954101562,-1.3763178002885361,-2.546007219945089,5.9581870911415,1.020472526550293,-3.2128215471850794
1708433285.7378752,-1.9751372337341309,-1.3765798670104523,-2.54618484178652,5.957837450295248,1.0204635858535767,-3.2111428419696253
1708433285.7398849,-1.974307894706726,-1.3769321006587525,-2.5462754408465784,5.957380163460531,1.0205042362213135,-3.209446732197897
1708433285.7418807,-1.9734594821929932,-1.3771774929812928,-2.5463834444629114,5.957010137825765,1.0205432176589966,-3.207827870045797
1708433285.7438872,-1.972531795501709,-1.3775835794261475,-2.5465479532824915,5.9565889714057825,1.020645022392273,-3.206175152455465
1708433285.7458844,-1.971726894378662,-1.3777959954789658,-2.546680275593893,5.9562874911125085,1.0206738710403442,-3.2045097986804407
1708433285.7479167,-1.9708452224731445,-1.3781291407397767,-2.546849075947897,5.955847131996908,1.0207417011260986,-3.202832285557882
1708433285.7499378,-1.970030426979065,-1.3783667248538514,-2.546932045613424,5.955506670265951,1.0207850933074951,-3.201134983693258
1708433285.7519028,-1.969198226928711,-1.3787238609841843,-2.5470107237445276,5.955147015839376,1.020837664604187,-3.199521605168478
1708433285.7539272,-1.968350887298584,-1.3790915322354813,-2.5472078959094446,5.954853045731344,1.020885944366455,-3.1978662649737757
1708433285.7559173,-1.9675750732421875,-1.3793335866979142,-2.547352139149801,5.95450125911788,1.0209096670150757,-3.196202341710226
1708433285.757917,-1.9667367935180664,-1.3796785336783906,-2.547464195881979,5.9542144415672205,1.02101469039917,-3.1944783369647425
1708433285.759916,-1.9659849405288696,-1.379973904495575,-2.5475919882403772,5.953889238625326,1.0210751295089722,-3.192850414906637
1708433285.761943,-1.9650797843933105,-1.380313516860344,-2.5477519671069544,5.9535772679145715,1.0211232900619507,-3.191068236027853
1708433285.7639189,-1.9642579555511475,-1.380657823090889,-2.5478718916522425,5.953303205757894,1.021223783493042,-3.189322296773092
1708433285.765905,-1.9635158777236938,-1.3809279662421723,-2.547983233128683,5.953032123833456,1.0212794542312622,-3.1876376310931605
1708433285.7678752,-1.9626903533935547,-1.381267787223198,-2.5481765905963343,5.95272325256423,1.0213381052017212,-3.1859398523913782
1708433285.7698743,-1.9618991613388062,-1.3815434885076066,-2.548307243977682,5.952433573990621,1.0214402675628662,-3.1841617266284388
1708433285.7718754,-1.9610742330551147,-1.3818655175021668,-2.548435990010397,5.952183592110433,1.0215078592300415,-3.182288471852438
1708433285.77395,-1.960277795791626,-1.382198990588524,-2.5485265890704554,5.951927411347189,1.0215681791305542,-3.180547539387838
1708433285.7758746,-1.959494709968567,-1.3825060290149231,-2.5487359205829065,5.95165895202712,1.0216193199157715,-3.1788294951068323
1708433285.7778819,-1.9587352275848389,-1.3827922952226182,-2.548863712941305,5.951431381493368,1.0216959714889526,-3.177018705998556
1708433285.7798657,-1.9578979015350342,-1.3831278395703812,-2.549011770878927,5.951249587326803,1.0218039751052856,-3.1753483454333704
1708433285.7818732,-1.9571027755737305,-1.3834839773229142,-2.549131695424215,5.951024997025289,1.0218790769577026,-3.1736486593829554
1708433285.7839274,-1.9563426971435547,-1.3838277769139786,-2.549300018941061,5.950842010765829,1.0219019651412964,-3.1718645731555384
1708433285.7858706,-1.9556081295013428,-1.3841394794038315,-2.5493415037738245,5.950588452606954,1.0219992399215698,-3.1701446215258997
1708433285.7878993,-1.954758644104004,-1.3844670367291947,-2.549551788960592,5.950446116715231,1.0221182107925415,-3.1684213320361536
1708433285.789873,-1.9540232419967651,-1.3847732108882447,-2.5497000853167933,5.950299370079794,1.0221648216247559,-3.1667519251452845
1708433285.791872,-1.9533178806304932,-1.3851020199111481,-2.5498197714435022,5.950140225678243,1.0222563743591309,-3.165011231099264
1708433285.793939,-1.9525766372680664,-1.3854171198657532,-2.549938742314474,5.950008380204,1.022344946861267,-3.1632640997516077
1708433285.7958856,-1.9518120288848877,-1.3856988114169617,-2.550063196812765,5.949868786125936,1.0224621295928955,-3.1615052858935755
1708433285.7980316,-1.9510725736618042,-1.386059285407402,-2.550199572240011,5.949750411301412,1.0225447416305542,-3.159734551106588
1708433285.7999098,-1.9503076076507568,-1.3864200872233887,-2.5503509680377405,5.949540960579672,1.0226622819900513,-3.157926146184103
1708433285.8018754,-1.9495738744735718,-1.3866941940835495,-2.5504098574267786,5.949444758683004,1.0227746963500977,-3.1560989061938685
1708433285.8039021,-1.948817253112793,-1.387025312786438,-2.5506072680102747,5.949357855110922,1.0228378772735596,-3.154264513646261
1708433285.805884,-1.9481899738311768,-1.387341023688652,-2.550727192555563,5.949208247452535,1.0229296684265137,-3.1524794737445276
1708433285.8078847,-1.9474292993545532,-1.387676478629448,-2.550842825566427,5.949192988663473,1.0229926109313965,-3.1506550947772425
1708433285.8098874,-1.9467092752456665,-1.3880075973323365,-2.5509544054614466,5.949098455696859,1.0231281518936157,-3.1487799326526087
1708433285.811882,-1.9460610151290894,-1.3883027148297806,-2.5510786215411585,5.948984849243917,1.0231791734695435,-3.1470003763781946
1708433285.813944,-1.945354700088501,-1.3886748564294358,-2.551234547291891,5.9489290592964075,1.0232752561569214,-3.145224396382467
1708433285.815876,-1.9446921348571777,-1.388986886744835,-2.551366392766134,5.948888885765829,1.0234075784683228,-3.1435025374041956
1708433285.8178797,-1.9439703226089478,-1.3893379283002396,-2.5515430609332483,5.94883023479537,1.023512601852417,-3.1416755358325403
1708433285.8198872,-1.9433107376098633,-1.3896333885243912,-2.5516305605517786,5.948827254563131,1.0235668420791626,-3.1399272123919886
1708433285.821883,-1.9426358938217163,-1.3899641943028946,-2.551798407231466,5.948734152107992,1.0236437320709229,-3.1381498018847864
1708433285.8239384,-1.9419714212417603,-1.3902418327382584,-2.5519467035876673,5.948774802475729,1.023720145225525,-3.1364246050464075
1708433285.8258874,-1.9413022994995117,-1.3905796718648453,-2.5520415941821497,5.948743092804708,1.0237953662872314,-3.1346939245807093
1708433285.8278668,-1.940670132637024,-1.3909637790969391,-2.5522478262530726,5.948729622154989,1.0239046812057495,-3.1328797976123255
1708433285.8298695,-1.939981460571289,-1.3912537556937714,-2.552330557500021,5.948819863587179,1.024001121520996,-3.1310413519488733
1708433285.8318799,-1.9394326210021973,-1.3915813875249405,-2.5524779001819056,5.9488435862358,1.0240600109100342,-3.129141632710592
1708433285.8339062,-1.938733458518982,-1.391880841260292,-2.5526273886310022,5.948927509575643,1.02414870262146,-3.1273394266711634
1708433285.8358705,-1.9380874633789062,-1.3922328662923356,-2.5527623335467737,5.948976981430807,1.0242446660995483,-3.1254895369159144
1708433285.837882,-1.9375051259994507,-1.3925067347339173,-2.5529020468341272,5.949072825699606,1.0243213176727295,-3.1236446539508265
1708433285.839884,-1.9368689060211182,-1.3928674322417756,-2.553030792866842,5.949117767601766,1.0243648290634155,-3.1217804590808313
1708433285.8418736,-1.9362788200378418,-1.3932041388801117,-2.5531378428088587,5.949160086899557,1.024461269378662,-3.1198933760272425
1708433285.8438773,-1.9356012344360352,-1.3934576523355027,-2.553314272557394,5.94921230056838,1.0245167016983032,-3.1180883089648646
1708433285.8458724,-1.9350272417068481,-1.3937657934478302,-2.553401533757345,5.949287283211508,1.0246670246124268,-3.116349522267477
1708433285.847991,-1.9344804286956787,-1.3940313172391434,-2.553582493458883,5.949327814369955,1.0247300863265991,-3.114526096974508
1708433285.849909,-1.933855652809143,-1.3943354797414322,-2.5536978880511683,5.949407326966085,1.0248429775238037,-3.112765375767843
1708433285.8518836,-1.9332964420318604,-1.394684599047043,-2.5538418928729456,5.949462640076437,1.024905800819397,-3.110999409352438
1708433285.8538978,-1.932749629020691,-1.3949311685613175,-2.553884808217184,5.949585664063253,1.0249706506729126,-3.109248463307516
1708433285.8559053,-1.9321305751800537,-1.3952225905707856,-2.554053608571188,5.949684369355001,1.0250381231307983,-3.107520643864767
1708433285.8579044,-1.9315476417541504,-1.3955876690200348,-2.554214064274923,5.949777114182272,1.0251059532165527,-3.1057661215411585
1708433285.8599029,-1.931000828742981,-1.39582513392482,-2.554305378590719,5.949888217240133,1.0251542329788208,-3.104112211857931
1708433285.8619208,-1.9304656982421875,-1.3961360615542908,-2.554469887410299,5.950003850250997,1.0252455472946167,-3.1023626963244837
1708433285.8639286,-1.9298945665359497,-1.396431179051735,-2.5545735994922083,5.950210439949789,1.025322437286377,-3.1005893389331263
1708433285.8659582,-1.9293105602264404,-1.3967311543277283,-2.5546730200396937,5.950304853707113,1.0254275798797607,-3.098884407673971
1708433285.867942,-1.9287749528884888,-1.3970224273255845,-2.5547977129565638,5.950460660248556,1.0254456996917725,-3.097133461629049
1708433285.8699572,-1.9282517433166504,-1.3972977113774796,-2.554913345967428,5.950551020890035,1.025543212890625,-3.0953062216388147
1708433285.8719347,-1.927712082862854,-1.3976127368262787,-2.5550134817706507,5.950792181282797,1.0256109237670898,-3.0935478846179407
1708433285.8739316,-1.9271565675735474,-1.3978923571160813,-2.555136744176046,5.951004731446066,1.025715947151184,-3.091713015233175
1708433285.8760161,-1.9266088008880615,-1.3982204806855698,-2.5551956335650843,5.9512178776557825,1.0257763862609863,-3.0898707548724573
1708433285.8779328,-1.9260932207107544,-1.398569480781891,-2.5553982893573206,5.951438295632162,1.0258556604385376,-3.0881179014789026
1708433285.8799005,-1.925589680671692,-1.3988245737603684,-2.5554397741900843,5.9516299841697595,1.0259206295013428,-3.0863152186023157
1708433285.8818831,-1.92513906955719,-1.399091438656189,-2.555617634450094,5.951796400337972,1.0259881019592285,-3.0845935980426233
1708433285.8838944,-1.9245859384536743,-1.3993860197118302,-2.555648152028219,5.95203326919631,1.0260313749313354,-3.0827985445605677
1708433285.885887,-1.9240883588790894,-1.3996611398509522,-2.5557974020587366,5.952227818756857,1.026096224784851,-3.081132952366964
1708433285.8878934,-1.923633098602295,-1.4000220608762284,-2.5559335390674036,5.952472436219015,1.0261354446411133,-3.07933479944338
1708433285.8898811,-1.9230403900146484,-1.4003812086633225,-2.556028668080465,5.952692734986105,1.026190996170044,-3.0776756445514124
1708433285.8918703,-1.9226329326629639,-1.4006180626204987,-2.556178156529562,5.952944385796346,1.026224136352539,-3.075989548360006
1708433285.8938737,-1.922148585319519,-1.400897131567337,-2.5561967531787317,5.9531723139579675,1.0262916088104248,-3.074266497288839
1708433285.8958755,-1.9216363430023193,-1.4012052130750199,-2.556310240422384,5.953421342163839,1.02632474899292,-3.0725751558886927
1708433285.8979192,-1.921172022819519,-1.4014841181090851,-2.5564497152911585,5.953619110375204,1.0263187885284424,-3.0709663073169153
1708433285.899939,-1.9207468032836914,-1.4017876845649262,-2.5564802328692835,5.9539503929908655,1.026437520980835,-3.0693417231189173
1708433285.9018931,-1.9202945232391357,-1.4020545047572632,-2.5565934816943567,5.954127180367269,1.0264599323272705,-3.0676024595843714
1708433285.9039,-1.919903039932251,-1.402354047899582,-2.5566275755511683,5.954447734146871,1.026520013809204,-3.0658567587481897
1708433285.9058793,-1.9194422960281372,-1.402617411022522,-2.5567639509784144,5.954717862396993,1.0265727043151855,-3.064139191304342
1708433285.907876,-1.919039249420166,-1.4029422414353867,-2.556856695805685,5.9549893019493005,1.0265848636627197,-3.0623465220080774
1708433285.9098754,-1.9185744524002075,-1.4031851303628464,-2.556965414677755,5.955227482109823,1.026652216911316,-3.060636583958761
1708433285.9119055,-1.9181827306747437,-1.4034562569907685,-2.5570200125323694,5.955506312638082,1.0266838073730469,-3.058916155491964
1708433285.9139092,-1.9177520275115967,-1.4037750375321885,-2.5570877234088343,5.95581208446578,1.0266915559768677,-3.057072464619772
1708433285.9158738,-1.917360544204712,-1.4040520203164597,-2.557183806096212,5.956119406014242,1.0267393589019775,-3.055317465459005
1708433285.9178967,-1.9169931411743164,-1.4043633949807663,-2.557255808507101,5.956468808441915,1.0267637968063354,-3.0536204020129603
1708433285.9198709,-1.9165736436843872,-1.4046390068582078,-2.5573766867267054,5.956735360413351,1.0267964601516724,-3.051878039036886
1708433285.921882,-1.916185736656189,-1.40490214646373,-2.5574517885791224,5.957079994469442,1.0268325805664062,-3.050265375767843
1708433285.9238977,-1.915778636932373,-1.4051812154105683,-2.557580296193258,5.957333433419027,1.0268402099609375,-3.0485499540912073
1708433285.9259114,-1.9153409004211426,-1.405444697742798,-2.557657066975729,5.957711088448324,1.0268478393554688,-3.046867911015646
1708433285.9278903,-1.9149494171142578,-1.405765951876976,-2.5577037970172327,5.95806514003829,1.0268614292144775,-3.0452585856067103
1708433285.9298854,-1.9145541191101074,-1.406011925344803,-2.5577433745013636,5.9583754418189905,1.026894211769104,-3.0436320940600794
1708433285.9319155,-1.9141535758972168,-1.4063084733537217,-2.5578725973712366,5.958707797318258,1.0268356800079346,-3.041987482701437
1708433285.9338627,-1.9137669801712036,-1.4065509897521515,-2.5579353014575403,5.959070670395651,1.0268402099609375,-3.04033333459963
1708433285.935942,-1.913435697555542,-1.406789706354477,-2.5579918066607874,5.959452378540792,1.0268280506134033,-3.0387545267688196
1708433285.9378843,-1.913057804107666,-1.407103182082512,-2.5581494013415735,5.959775316506185,1.0268235206604004,-3.0371456781970423
1708433285.93988,-1.9126591682434082,-1.4073819381049653,-2.5581229368792933,5.960085379868307,1.0267666578292847,-3.035434071217672
1708433285.9418788,-1.912327527999878,-1.4075799745372315,-2.5581992308246058,5.960446345597067,1.026775598526001,-3.0337796846972864
1708433285.943878,-1.9119718074798584,-1.4078437101892014,-2.558291498814718,5.960797297745504,1.0267757177352905,-3.032132927571432
1708433285.9458692,-1.9116201400756836,-1.4081476342729111,-2.558327023183004,5.9611408589179895,1.0267515182495117,-3.0304980913745325
1708433285.9479814,-1.9112731218338013,-1.4084330809167405,-2.5583954493152063,5.961521374970236,1.0267438888549805,-3.0288103262530726
1708433285.949911,-1.910892128944397,-1.4086308938315888,-2.558467451726095,5.961902129441061,1.0267484188079834,-3.027161423360006
1708433285.9518995,-1.910651683807373,-1.4088738721660157,-2.5584991613971155,5.962278353958883,1.0267410278320312,-3.02553636232485
1708433285.9538846,-1.9102457761764526,-1.4091536861709137,-2.558579746876852,5.96258436420516,1.0266988277435303,-3.023900095616476
1708433285.9558926,-1.9099249839782715,-1.409401850109436,-2.5586114565478724,5.962984668999471,1.026674747467041,-3.022332255040304
1708433285.9578953,-1.9096639156341553,-1.409608618622162,-2.558662716542379,5.9633816359336755,1.026679277420044,-3.020755116139547
1708433285.9598863,-1.9092977046966553,-1.4098649483970185,-2.55872351328005,5.963715779572286,1.0266673564910889,-3.01920992532839
1708433285.9619017,-1.9090144634246826,-1.4101412755301972,-2.558751169835226,5.9641127465064905,1.0266358852386475,-3.0176947752581995
1708433285.9639463,-1.9086954593658447,-1.4103306841901322,-2.558835570012228,5.964411246567526,1.0266331434249878,-3.0161669890033167
1708433285.965933,-1.9083837270736694,-1.4106314194253464,-2.5588720480548304,5.964778768807211,1.0266239643096924,-3.014636818562643
1708433285.967907,-1.908071756362915,-1.4108503770879288,-2.5588744322406214,5.9651667950446985,1.0266040563583374,-3.013127867375509
1708433285.969878,-1.907734990119934,-1.411057100897171,-2.558951441441671,5.965564000397482,1.0265562534332275,-3.0115652720080774
1708433285.9719217,-1.907502293586731,-1.4112980228713532,-2.5590041319476526,5.965895402222433,1.0265154838562012,-3.0101218859301966
1708433285.9738803,-1.907192587852478,-1.4115767639926453,-2.559027973805563,5.966305959015646,1.026465892791748,-3.008623186741964
1708433285.9759521,-1.906904935836792,-1.411801205282547,-2.5590716044055384,5.9667125819023035,1.026417851448059,-3.0071421305285853
1708433285.9779012,-1.9066009521484375,-1.4120362561992188,-2.5590947310077112,5.9670376656349084,1.0264283418655396,-3.005559508000509
1708433285.979863,-1.9062891006469727,-1.4122712028077622,-2.559164349232809,5.967506754189291,1.026395559310913,-3.0040515104876917
1708433285.9819126,-1.9060159921646118,-1.4125119310668488,-2.559122149144308,5.967911588936605,1.0263384580612183,-3.002563540135519
1708433285.9839122,-1.9057235717773438,-1.4127103698304673,-2.559178654347555,5.968302833824911,1.0262854099273682,-3.0010083357440394
1708433285.985897,-1.9054691791534424,-1.412954108124115,-2.5591898600207728,5.968656289368429,1.0262588262557983,-2.999547783528463
1708433285.987899,-1.9052425622940063,-1.4132071298411866,-2.5592549482928675,5.969041812210836,1.0262434482574463,-2.99804932275881
1708433285.9898639,-1.9049748182296753,-1.4134139281562348,-2.559302870427267,5.969341742783346,1.0261701345443726,-2.9964991251574915
1708433285.991906,-1.9047510623931885,-1.4136403065970917,-2.559326950703756,5.969812261849203,1.0261759757995605,-2.995065991078512
1708433285.993896,-1.9044780731201172,-1.4139420104077836,-2.559403959904806,5.9702080366905115,1.026078224182129,-2.9936092535602015
1708433285.9958858,-1.9042237997055054,-1.4141411048224946,-2.5594075361834925,5.970632302552023,1.0259923934936523,-2.9920924345599573
1708433285.9980237,-1.9039995670318604,-1.4143438649228592,-2.559427324925558,5.971058356552877,1.025951862335205,-2.990675751362936
1708433285.9999213,-1.9037601947784424,-1.4145712864449997,-2.559483830128805,5.9714417336280725,1.025855541229248,-2.989206377659933
1708433286.0019157,-1.903450608253479,-1.4147944909385224,-2.559503142033712,5.971770155220785,1.025788426399231,-2.987828556691305
1708433286.0039234,-1.9032477140426636,-1.4150549185327073,-2.5594828764544886,5.972154009133138,1.0256993770599365,-2.986404005681173
1708433286.005928,-1.9030612707138062,-1.4153492760709305,-2.5595677534686487,5.9725167630012415,1.025681495666504,-2.9850288073169153
1708433286.0079353,-1.9028050899505615,-1.4155055743506928,-2.5595267454730433,5.9730108855064294,1.0255810022354126,-2.983643356953756
