Eg3-git/Classifiers/Data Collection/u1/u1abc2_ur3e_joint_states.csv
time,elbow_joint,shoulder_lift_joint,shoulder_pan_joint,wrist_1_joint,wrist_2_joint,wrist_3_joint
1708433269.1877837,-2.1421022415161133,-1.333297849898674,-2.525578323994772,6.110132324486532,1.0156137943267822,-3.206899706517355
1708433269.1898124,-2.142073154449463,-1.3332113039544602,-2.525611464177267,6.110089051514425,1.0156136751174927,-3.206973139439718
1708433269.191814,-2.1420459747314453,-1.3332365316203614,-2.5256205240832728,6.110129225045004,1.0155971050262451,-3.206930700932638
1708433269.1937928,-2.1420769691467285,-1.3332409721663971,-2.5255664030658167,6.110107052117147,1.0156182050704956,-3.2069323698626917
1708433269.1957994,-2.1420373916625977,-1.3332484525493165,-2.5255919138537806,6.110057818680563,1.0156015157699585,-3.206970278416769
1708433269.197786,-2.14208984375,-1.3331871342710038,-2.5256205240832728,6.110172855644979,1.015634536743164,-3.2069159189807337
1708433269.1997774,-2.142094135284424,-1.3332484525493165,-2.525578323994772,6.110130893975057,1.0156015157699585,-3.2069323698626917
1708433269.2017407,-2.142110824584961,-1.3332725328258057,-2.525653664265768,6.110107052117147,1.0156059265136719,-3.207010571156637
1708433269.2038083,-2.142061710357666,-1.3332814884236832,-2.525599543248312,6.11012481430129,1.0156059265136719,-3.206935230885641
1708433269.2057645,-2.142110824584961,-1.3332736802152176,-2.52561599413027,6.110123383789816,1.015634536743164,-3.206977669392721
1708433269.2077737,-2.142085552215576,-1.333239496951439,-2.525595013295309,6.110111462860861,1.015622615814209,-3.2069531122790735
1708433269.2097406,-2.14208984375,-1.3332067889026185,-2.5256040732013147,6.110111462860861,1.015627145767212,-3.20691162744631
1708433269.2117682,-2.142061710357666,-1.3332558435252686,-2.5256086031543177,6.110095011978903,1.0156556367874146,-3.20695668855776
1708433269.213801,-2.142106533050537,-1.3333229732564469,-2.525632683430807,6.110090601235189,1.0156092643737793,-3.2069910208331507
1708433269.2157593,-2.142073154449463,-1.3332440120032807,-2.5255828539477747,6.110153066902914,1.015655517578125,-3.2069411913501185
1708433269.2178388,-2.1420812606811523,-1.3331856590560456,-2.52561599413027,6.1100830910499475,1.0156270265579224,-3.206939760838644
1708433269.219788,-2.142085552215576,-1.3332276803306122,-2.525611464177267,6.110133754998007,1.0156015157699585,-3.206935230885641
1708433269.2218163,-2.142094135284424,-1.333281473522522,-2.52561599413027,6.110098111420431,1.0156556367874146,-3.2069323698626917
1708433269.2237809,-2.1421022415161133,-1.333232120876648,-2.525595013295309,6.110092031746664,1.0156644582748413,-3.206973139439718
1708433269.2257693,-2.142085552215576,-1.3331901592067261,-2.525590483342306,6.110078680306234,1.015622615814209,-3.206977669392721
1708433269.2277653,-2.142057418823242,-1.333285928969719,-2.525606934224264,6.110103952675619,1.0156644582748413,-3.206944290791647
1708433269.2297482,-2.1421265602111816,-1.333273635511734,-2.525595013295309,6.110129344254293,1.015601634979248,-3.206939760838644
1708433269.2317412,-2.1420774459838867,-1.33326809227977,-2.5256205240832728,6.110117423325338,1.0155941247940063,-3.20695668855776
1708433269.2337735,-2.1420645713806152,-1.3332484525493165,-2.5256579558001917,6.110132324486532,1.0155895948410034,-3.2069368998156946
1708433269.2357697,-2.142073154449463,-1.333239496951439,-2.5255873839007776,6.110108482628622,1.0156359672546387,-3.206939760838644
1708433269.2377942,-2.142068862915039,-1.3332484525493165,-2.5255664030658167,6.110078680306234,1.0156389474868774,-3.2069488207446497
1708433269.2397704,-2.14206600189209,-1.3332542192986985,-2.525632683430807,6.110071170120992,1.015627145767212,-3.206977669392721
1708433269.2417364,-2.1421022415161133,-1.333239496951439,-2.5255754629718226,6.110059368401327,1.0156182050704956,-3.20695668855776
1708433269.2437518,-2.1420531272888184,-1.3332662296346207,-2.525595013295309,6.110078680306234,1.0156182050704956,-3.206939760838644
1708433269.2457402,-2.142085552215576,-1.3332484525493165,-2.525595013295309,6.110111462860861,1.015577793121338,-3.2069278399096888
1708433269.2477496,-2.1420817375183105,-1.3332499277642746,-2.5255873839007776,6.1101441262061975,1.0155895948410034,-3.2069488207446497
1708433269.249761,-2.1420860290527344,-1.3332440120032807,-2.525611464177267,6.110092031746664,1.015602946281433,-3.2069204489337366
1708433269.2517464,-2.142106533050537,-1.3332201701453705,-2.525553051625387,6.110120284348287,1.01558518409729,-3.206977669392721
1708433269.2537591,-2.142073154449463,-1.3332770627788086,-2.5255919138537806,6.110120403557577,1.0156104564666748,-3.206906859074728
1708433269.255738,-2.1420984268188477,-1.3332648140243073,-2.5255828539477747,6.11012481430129,1.015627145767212,-3.206986729298727
1708433269.2577608,-2.1420817375183105,-1.3332409870675583,-2.525628153477804,6.110096561699667,1.015660047531128,-3.2068877855883997
1708433269.2597468,-2.1421265602111816,-1.333251417880394,-2.5256205240832728,6.110059368401327,1.0156182050704956,-3.206944290791647
1708433269.2617579,-2.1420645713806152,-1.3332306307605286,-2.5256040732013147,6.11004267910079,1.0155985355377197,-3.2069910208331507
1708433269.263738,-2.1420645713806152,-1.3332573187402268,-2.5255919138537806,6.110054838448324,1.015577793121338,-3.20689040819277
1708433269.2657669,-2.1420488357543945,-1.3332770627788086,-2.5256579558001917,6.11006377914504,1.0156104564666748,-3.2069910208331507
1708433269.2678344,-2.142061710357666,-1.3332440269044419,-2.525611464177267,6.11006377914504,1.0156434774398804,-3.2069488207446497
1708433269.2697766,-2.142073154449463,-1.3332484525493165,-2.525590483342306,6.110059368401327,1.0156314373016357,-3.2069278399096888
1708433269.2718072,-2.142057418823242,-1.3331946295550843,-2.5255664030658167,6.1100995419319055,1.0156104564666748,-3.20691162744631
1708433269.2737758,-2.142073154449463,-1.3332858842662354,-2.5255799929248255,6.110050427704611,1.0156192779541016,-3.206883255635397
1708433269.2757545,-2.142094135284424,-1.3332034957459946,-2.5255873839007776,6.110046016960897,1.0155489444732666,-3.206935230885641
1708433269.2777889,-2.142057418823242,-1.3333022755435486,-2.5256579558001917,6.110046016960897,1.0156073570251465,-3.206968609486715
1708433269.2797441,-2.14208984375,-1.3332440269044419,-2.5255828539477747,6.110112893372335,1.015640377998352,-3.206961218510763
1708433269.2817748,-2.142057418823242,-1.3332603734782715,-2.5256205240832728,6.110071289330282,1.0156148672103882,-3.206944290791647
1708433269.283792,-2.1420812606811523,-1.3332484376481553,-2.525578323994772,6.110038149147787,1.0155866146087646,-3.206961218510763
1708433269.2857506,-2.1420373916625977,-1.3332692396691819,-2.525590483342306,6.110075700073995,1.015602946281433,-3.2069292704211634
1708433269.28775,-2.142094135284424,-1.3332079362920304,-2.525611464177267,6.110054838448324,1.015602946281433,-3.2069278399096888
1708433269.2897449,-2.1420531272888184,-1.3332736206105729,-2.5255828539477747,6.11004267910079,1.0156104564666748,-3.2069323698626917
1708433269.2917402,-2.1420531272888184,-1.3332291108420868,-2.525590483342306,6.110133874207296,1.0155622959136963,-3.206939760838644
1708433269.2937753,-2.1419951915740967,-1.3332113039544602,-2.525632683430807,6.1100560305412195,1.0156314373016357,-3.206918780003683
1708433269.2957392,-2.1420812606811523,-1.333254264002182,-2.525595013295309,6.1100772497947595,1.0155702829360962,-3.2069159189807337
1708433269.2977486,-2.1420531272888184,-1.3332335662892838,-2.525585953389303,6.110038149147787,1.0155822038650513,-3.20689040819277
1708433269.299799,-2.1420984268188477,-1.3331990402987977,-2.5256040732013147,6.110110032349386,1.0155445337295532,-3.206982199345724
1708433269.3017523,-2.142110824584961,-1.333232120876648,-2.525628153477804,6.1100425598915,1.0155702829360962,-3.206899706517355
1708433269.3037705,-2.142073154449463,-1.333220199947693,-2.5255664030658167,6.110023247986593,1.0156282186508179,-3.2069323698626917
1708433269.3057606,-2.1420817375183105,-1.333240957265236,-2.5255919138537806,6.110075700073995,1.0155941247940063,-3.206989351903097
1708433269.3077538,-2.142110824584961,-1.3332409423640748,-2.5255919138537806,6.1100937006767175,1.0156104564666748,-3.206918780003683
1708433269.3097467,-2.1420984268188477,-1.3332157295993348,-2.5255919138537806,6.1099902270133875,1.0155702829360962,-3.206935230885641
1708433269.3117385,-2.142094135284424,-1.3331961047700425,-2.5256248156176966,6.110006916313925,1.0155658721923828,-3.206899706517355
1708433269.3137481,-2.142073154449463,-1.3332201850465317,-2.525611464177267,6.109994637757101,1.01555335521698,-3.2069323698626917
1708433269.3157423,-2.1420602798461914,-1.3332005602172394,-2.525632683430807,6.110061991005697,1.015595555305481,-3.206902329121725
1708433269.317882,-2.1420416831970215,-1.3332454872182389,-2.525578323994772,6.1099737761314294,1.0155577659606934,-3.206923309956686
1708433269.319769,-2.142094135284424,-1.3332201701453705,-2.525541130696432,6.109996187477865,1.015595555305481,-3.206994120274679
1708433269.3217824,-2.142094135284424,-1.3332201701453705,-2.5255664030658167,6.1099891541297815,1.0155459642410278,-3.206923309956686
1708433269.3237565,-2.142073154449463,-1.3332157295993348,-2.5256040732013147,6.109975683480062,1.0155792236328125,-3.206970278416769
1708433269.3257456,-2.1420817375183105,-1.3331960898688813,-2.525578323994772,6.1099634049232385,1.015536904335022,-3.206923309956686
1708433269.3277578,-2.142073154449463,-1.3332079362920304,-2.5255425612079065,6.109951603203573,1.015571117401123,-3.206944290791647
1708433269.3297896,-2.142094135284424,-1.3332647395185013,-2.525578323994772,6.109993564873495,1.0155459642410278,-3.206961218510763
1708433269.3318076,-2.1420249938964844,-1.33327371001754,-2.5255590120898646,6.109960424691,1.015591025352478,-3.2069159189807337
1708433269.3337643,-2.14202880859375,-1.333163709645607,-2.5255873839007776,6.10992323139266,1.0155622959136963,-3.2069576422320765
1708433269.3357415,-2.142068862915039,-1.3332246106914063,-2.5256131331073206,6.109956013947286,1.0155384540557861,-3.206939760838644
1708433269.3377564,-2.1420445442199707,-1.3332440120032807,-2.5255754629718226,6.109915482788839,1.0155459642410278,-3.2069278399096888
1708433269.339753,-2.14208984375,-1.333224595790245,-2.5255590120898646,6.109920012741842,1.0155177116394043,-3.20695668855776
1708433269.3417335,-2.1420774459838867,-1.3332736802152176,-2.525599543248312,6.109936702042379,1.0155667066574097,-3.206977669392721
1708433269.3437483,-2.142073154449463,-1.3332781952670594,-2.525578323994772,6.109915482788839,1.0155413150787354,-3.20689040819277
1708433269.3457634,-2.1420645713806152,-1.3332201701453705,-2.525606934224264,6.109956013947286,1.0155503749847412,-3.2069488207446497
1708433269.347735,-2.142068862915039,-1.3332321059754868,-2.5255919138537806,6.109960424691,1.0155547857284546,-3.20695668855776
1708433269.3497736,-2.142057418823242,-1.3332005453160782,-2.5256205240832728,6.109902131348409,1.0155340433120728,-3.206944290791647
1708433269.3517332,-2.142085552215576,-1.3331682097962876,-2.5255828539477747,6.109951603203573,1.0155459642410278,-3.206968609486715
1708433269.353738,-2.1420207023620605,-1.3332035553506394,-2.5255919138537806,6.109997975617208,1.015559196472168,-3.206961218510763
1708433269.355748,-2.1420645713806152,-1.3332168918899079,-2.52561599413027,6.109969484597006,1.015493631362915,-3.206944290791647
1708433269.3577378,-2.1420774459838867,-1.3331845265677948,-2.5256205240832728,6.109960424691,1.015526533126831,-3.2069278399096888
1708433269.359725,-2.142122268676758,-1.3331961047700425,-2.525595013295309,6.109969484597006,1.0154935121536255,-3.206944290791647
1708433269.3617272,-2.1421265602111816,-1.3331961196712037,-2.5255754629718226,6.109976875572958,1.0155221223831177,-3.206918780003683
1708433269.363736,-2.142068862915039,-1.333200530414917,-2.5256205240832728,6.109914290695944,1.0155143737792969,-3.206952158604757
1708433269.365773,-2.1420459747314453,-1.3332211834243317,-2.5255709330188196,6.109976756363668,1.015526533126831,-3.206939760838644
1708433269.3678417,-2.1420531272888184,-1.3332168471864243,-2.5256205240832728,6.1099188206489465,1.0155024528503418,-3.206874195729391
1708433269.3697665,-2.142085552215576,-1.3332334917834778,-2.5256040732013147,6.109915482788839,1.0155231952667236,-3.2069249788867396
1708433269.3717859,-2.1420979499816895,-1.333233581190445,-2.5256040732013147,6.109951603203573,1.0155516862869263,-3.2069576422320765
1708433269.373764,-2.142073154449463,-1.3332137924483796,-2.5255828539477747,6.109927761345663,1.0155309438705444,-3.206890646611349
1708433269.3757632,-2.142094135284424,-1.333200530414917,-2.5255709330188196,6.109976875572958,1.015509843826294,-3.2069745699511927
1708433269.3777657,-2.1421351432800293,-1.3332168918899079,-2.52561599413027,6.109927761345663,1.0155459642410278,-3.206914488469259
1708433269.379758,-2.1421265602111816,-1.3332137924483796,-2.5255828539477747,6.110000717430868,1.0155143737792969,-3.2069485823260706
1708433269.381814,-2.142068862915039,-1.3331845265677948,-2.5255754629718226,6.109936702042379,1.015526533126831,-3.20691425005068
1708433269.3838196,-2.142106533050537,-1.3332048666528244,-2.5255168120013636,6.109939682274618,1.0155353546142578,-3.206977669392721
1708433269.385812,-2.1420812606811523,-1.3331592392972489,-2.5255799929248255,6.109981286316671,1.0154935121536255,-3.2069159189807337
1708433269.387817,-2.1420936584472656,-1.3331932735494156,-2.5256295839892786,6.109894621163168,1.0155473947525024,-3.206989351903097
1708433269.3897822,-2.142085552215576,-1.3332137924483796,-2.5255709330188196,6.109936702042379,1.0155473947525024,-3.2069368998156946
1708433269.3917825,-2.142068862915039,-1.3331034046462555,-2.5255873839007776,6.109939682274618,1.01548171043396,-3.2069368998156946
1708433269.3937702,-2.1420602798461914,-1.3331320893815537,-2.5255754629718226,6.109976875572958,1.0155221223831177,-3.206944290791647
1708433269.395759,-2.142085552215576,-1.3331781190684815,-2.5255590120898646,6.109960424691,1.015526533126831,-3.2069278399096888
1708433269.3977516,-2.142122268676758,-1.33308860779319,-2.5256295839892786,6.110015737801351,1.0155010223388672,-3.206944290791647
1708433269.3997555,-2.1420416831970215,-1.3331004691175004,-2.5255380312549036,6.109993564873495,1.015526533126831,-3.206944290791647
1708433269.4017534,-2.14208984375,-1.3331331771663208,-2.525595013295309,6.109981286316671,1.0155143737792969,-3.2069039980517786
1708433269.4037297,-2.1420769691467285,-1.3331332069686432,-2.5255754629718226,6.109953033715048,1.015526533126831,-3.206982199345724
1708433269.405733,-2.142050266265869,-1.3331168305924912,-2.5255828539477747,6.109930622368612,1.0155143737792969,-3.206974808369772
1708433269.4077353,-2.1420249938964844,-1.3331168305924912,-2.5256205240832728,6.109960424691,1.015526533126831,-3.206965748463766
1708433269.4097283,-2.1420488357543945,-1.3331182313016434,-2.5255590120898646,6.109976875572958,1.0154966115951538,-3.2069159189807337
1708433269.41174,-2.142073154449463,-1.3330424439958115,-2.525606934224264,6.110002505570211,1.015531063079834,-3.206965748463766
1708433269.413775,-2.14206600189209,-1.333057240848877,-2.5256176630603235,6.109939682274618,1.0155143737792969,-3.2069368998156946
1708433269.4157574,-2.1420416831970215,-1.3330885630897065,-2.5255873839007776,6.10992323139266,1.01546049118042,-3.206899706517355
1708433269.417781,-2.1420531272888184,-1.3330841225436707,-2.525578323994772,6.109951603203573,1.015526533126831,-3.206944290791647
1708433269.4197676,-2.142057418823242,-1.3331049245646973,-2.5255964438067835,6.109885799675741,1.0155187845230103,-3.2069159189807337
1708433269.4217687,-2.1420645713806152,-1.3330647510341187,-2.5256295839892786,6.109944093018331,1.015509843826294,-3.2069039980517786
1708433269.4237628,-2.142073154449463,-1.3330691319755097,-2.5256040732013147,6.109976875572958,1.0155353546142578,-3.206944290791647
1708433269.4257553,-2.142073154449463,-1.3330736470273514,-2.525599543248312,6.109989034920492,1.0154980421066284,-3.2069039980517786
1708433269.427758,-2.1420774459838867,-1.3330647957376023,-2.525595013295309,6.109976875572958,1.0154935121536255,-3.206906859074728
1708433269.4297779,-2.142110824584961,-1.3330647212317963,-2.5256205240832728,6.109915482788839,1.0155503749847412,-3.206886116658346
1708433269.4318461,-2.142073154449463,-1.3331301522305985,-2.5255828539477747,6.109939682274618,1.0155054330825806,-3.2069249788867396
1708433269.433768,-2.1420774459838867,-1.3331212413362046,-2.5255828539477747,6.109984624176779,1.015509843826294,-3.2068920771228235
1708433269.4357514,-2.142068862915039,-1.333150864844658,-2.525611464177267,6.10992323139266,1.0155010223388672,-3.2069204489337366
1708433269.4377573,-2.142068862915039,-1.3331123900464554,-2.52561599413027,6.10999475696639,1.0155428647994995,-3.206899706517355
1708433269.4397273,-2.1420557498931885,-1.3330752712539216,-2.525578323994772,6.109953033715048,1.015509843826294,-3.2069531122790735
1708433269.441755,-2.14208984375,-1.3330751371434708,-2.5255828539477747,6.109944093018331,1.015526533126831,-3.2069323698626917
1708433269.4437501,-2.1420774459838867,-1.3331004840186615,-2.5255709330188196,6.109915482788839,1.0155428647994995,-3.2069278399096888
1708433269.4457612,-2.142110824584961,-1.3331587475589295,-2.5255754629718226,6.109935152321615,1.0155340433120728,-3.206965748463766
1708433269.447781,-2.142094135284424,-1.3331004691175004,-2.5255964438067835,6.1099575636680505,1.0155428647994995,-3.2069204489337366
1708433269.449761,-2.142122268676758,-1.333166168337204,-2.5256131331073206,6.1099188206489465,1.0155384540557861,-3.2068920771228235
1708433269.4517539,-2.142106533050537,-1.3331464690021058,-2.5255754629718226,6.109939682274618,1.0155384540557861,-3.2069204489337366
1708433269.4537919,-2.14208984375,-1.3331168603948136,-2.52561599413027,6.109936702042379,1.0155296325683594,-3.206918780003683
1708433269.4557316,-2.1420488357543945,-1.3330915731242676,-2.525641743336813,6.109939682274618,1.015559196472168,-3.2068548838244837
1708433269.4577794,-2.1420531272888184,-1.3331242513707657,-2.5255754629718226,6.109906542092123,1.0155384540557861,-3.2069395224200647
1708433269.4597397,-2.1420979499816895,-1.333121271138527,-2.5255709330188196,6.109939682274618,1.015509843826294,-3.2069039980517786
1708433269.4617536,-2.142068862915039,-1.3330379885486145,-2.5255454222308558,6.109894621163168,1.0154892206192017,-3.2069368998156946
1708433269.4637759,-2.142073154449463,-1.3330721718123932,-2.525595013295309,6.109927761345663,1.0155622959136963,-3.206935230885641
1708433269.4657612,-2.1420373916625977,-1.3330916327289124,-2.5256086031543177,6.109966385155477,1.0155340433120728,-3.2069204489337366
1708433269.4677868,-2.1420645713806152,-1.3331004840186615,-2.52561599413027,6.109893309860983,1.0155011415481567,-3.206890646611349
1708433269.4697595,-2.1420817375183105,-1.3331093502095719,-2.5256250540362757,6.109972345619955,1.0155622959136963,-3.2069955507861536
1708433269.4717638,-2.142094135284424,-1.333096058373787,-2.5255709330188196,6.109906542092123,1.0155296325683594,-3.206965748463766
1708433269.4737954,-2.142068862915039,-1.3331390184215088,-2.5255828539477747,6.109930622368612,1.0155622959136963,-3.20691162744631
1708433269.4757955,-2.1421194076538086,-1.3331124049476166,-2.525585953389303,6.109930622368612,1.0155459642410278,-3.206923309956686
1708433269.477796,-2.1420774459838867,-1.3331004840186615,-2.5255454222308558,6.109939682274618,1.0155866146087646,-3.206977669392721
1708433269.4798453,-2.1420984268188477,-1.3331226271441956,-2.5255873839007776,6.109993564873495,1.0155459642410278,-3.206952158604757
1708433269.4817958,-2.142073154449463,-1.3331049245646973,-2.5255828539477747,6.109885799675741,1.0155746936798096,-3.2069411913501185
1708433269.4837577,-2.142106533050537,-1.3331004989198227,-2.5255919138537806,6.10992323139266,1.0155622959136963,-3.2069159189807337
1708433269.485747,-2.1420984268188477,-1.333125726585724,-2.5255828539477747,6.109948503762045,1.0155370235443115,-3.2069323698626917
1708433269.4877992,-2.142106533050537,-1.3331301671317597,-2.5255709330188196,6.109956013947286,1.01555335521698,-3.206902329121725
1708433269.4897573,-2.14208984375,-1.3331168454936524,-2.525641743336813,6.109964954644003,1.0155702829360962,-3.206895176564352
1708433269.4918008,-2.1420812606811523,-1.333112434749939,-2.5256086031543177,6.109906542092123,1.0155792236328125,-3.2069411913501185
1708433269.4938087,-2.1420774459838867,-1.3331168305924912,-2.525623623524801,6.1099352715309045,1.0155746936798096,-3.2069576422320765
1708433269.495769,-2.142068862915039,-1.333154321914055,-2.5255828539477747,6.109920012741842,1.0155823230743408,-3.2069159189807337
1708433269.4977524,-2.142143487930298,-1.333107889895775,-2.525599543248312,6.110000717430868,1.0155622959136963,-3.2069368998156946
1708433269.499766,-2.14208984375,-1.3331454408219834,-2.52561599413027,6.109953033715048,1.0155614614486694,-3.2069368998156946
1708433269.5017626,-2.1420774459838867,-1.3331198257258912,-2.525599543248312,6.109924423485555,1.0155326128005981,-3.206899706517355
1708433269.50376,-2.1421093940734863,-1.3331287813237687,-2.5255828539477747,6.109972345619955,1.015591025352478,-3.206944290791647
1708433269.5057442,-2.1420936584472656,-1.3331168603948136,-2.525602404271261,6.109948503762045,1.0156148672103882,-3.206918780003683
1708433269.50776,-2.1420645713806152,-1.3331409257701416,-2.525644604359762,6.109939682274618,1.0155326128005981,-3.2069323698626917
1708433269.5097888,-2.1420812606811523,-1.3331409257701416,-2.525595013295309,6.109915482788839,1.015627145767212,-3.206939760838644
1708433269.5117292,-2.1420769691467285,-1.333112434749939,-2.525597874318258,6.109997975617208,1.015602946281433,-3.2069323698626917
1708433269.5137384,-2.14208984375,-1.3330676865628739,-2.5256205240832728,6.1098976013954065,1.015627145767212,-3.2069488207446497
1708433269.515752,-2.142094135284424,-1.3330633503249665,-2.5255618731128138,6.109985816269674,1.0155822038650513,-3.206935230885641
1708433269.5177896,-2.1420817375183105,-1.3331661981395264,-2.525578323994772,6.109944093018331,1.0156148672103882,-3.2069039980517786
1708433269.5198,-2.142061710357666,-1.333161787395813,-2.525590483342306,6.109939682274618,1.015627145767212,-3.2069323698626917
1708433269.5217779,-2.1420531272888184,-1.3331498515656968,-2.5255873839007776,6.110009538918295,1.0156104564666748,-3.2069323698626917
1708433269.523775,-2.142085552215576,-1.33314202845607,-2.525619093571798,6.109944093018331,1.015622615814209,-3.2069159189807337
1708433269.5257642,-2.1420984268188477,-1.3331124049476166,-2.5256205240832728,6.109993564873495,1.0156477689743042,-3.2069278399096888
1708433269.5277622,-2.1420774459838867,-1.3331332069686432,-2.525590483342306,6.109993564873495,1.0156059265136719,-3.206944290791647
1708433269.5297632,-2.1420812606811523,-1.3331212115338822,-2.52561599413027,6.1099188206489465,1.0156182050704956,-3.206899706517355
1708433269.5317616,-2.142057418823242,-1.333128736620285,-2.5256250540362757,6.109936702042379,1.0156389474868774,-3.2069292704211634
1708433269.5337994,-2.142050266265869,-1.3330885481885453,-2.5256086031543177,6.1099352715309045,1.0155941247940063,-3.206973139439718
1708433269.53576,-2.1420373916625977,-1.333121271138527,-2.525611464177267,6.109969484597006,1.015634536743164,-3.2068920771228235
1708433269.5377748,-2.142073154449463,-1.333121271138527,-2.525611464177267,6.109958994179525,1.0156389474868774,-3.2069039980517786
1708433269.5397654,-2.1420774459838867,-1.3330721867135544,-2.525599543248312,6.109956013947286,1.0156389474868774,-3.2069249788867396
1708433269.5417686,-2.1420774459838867,-1.333091528420784,-2.5255664030658167,6.109932172089376,1.0156434774398804,-3.2069278399096888
1708433269.5437498,-2.142057418823242,-1.3331454557231446,-2.525599543248312,6.110009538918295,1.0156136751174927,-3.2069457213031214
1708433269.5457523,-2.14208984375,-1.3331662279418488,-2.5255544821368616,6.109960424691,1.0156104564666748,-3.206899706517355
1708433269.5477567,-2.142033576965332,-1.3331914705089112,-2.5256086031543177,6.110005128174581,1.0156434774398804,-3.2069664637195032
1708433269.5497642,-2.1420774459838867,-1.3331123751452942,-2.525599543248312,6.109915482788839,1.0156059265136719,-3.206899706517355
1708433269.5517604,-2.142057418823242,-1.3331124198487778,-2.525611464177267,6.1100337384040735,1.015634536743164,-3.206961218510763
1708433269.553767,-2.1420984268188477,-1.3331573021462937,-2.5256040732013147,6.109927761345663,1.0156556367874146,-3.206869665776388
1708433269.5557408,-2.142061710357666,-1.3331498366645356,-2.5256040732013147,6.109944093018331,1.0156633853912354,-3.2069323698626917
1708433269.5577686,-2.142106533050537,-1.3331528466990967,-2.525670115147726,6.109890210419454,1.0156466960906982,-3.2069323698626917
1708433269.5597477,-2.142122268676758,-1.3331197959235688,-2.525611464177267,6.109932172089376,1.0156466960906982,-3.2069159189807337
1708433269.5617607,-2.142106533050537,-1.3331869405559083,-2.525611464177267,6.109958994179525,1.015637755393982,-3.206923309956686
1708433269.5637355,-2.1420645713806152,-1.3331647676280518,-2.525599543248312,6.109914290695944,1.015637755393982,-3.206895176564352
1708433269.5657463,-2.1420812606811523,-1.333091528420784,-2.52563721338381,6.109980094223776,1.0156753063201904,-3.2069249788867396
1708433269.567866,-2.142085552215576,-1.333112434749939,-2.5255828539477747,6.109902131348409,1.0156389474868774,-3.2069039980517786
1708433269.5697787,-2.1420488357543945,-1.3331707131913682,-2.525540892277853,6.109910952835836,1.015634536743164,-3.2069249788867396
1708433269.5717735,-2.1420769691467285,-1.3331242513707657,-2.525569264088766,6.10994707325057,1.015634536743164,-3.2069488207446497
1708433269.5737708,-2.142033100128174,-1.3331528466990967,-2.5256248156176966,6.109960424691,1.0156841278076172,-3.2068668047534388
1708433269.5758016,-2.14208984375,-1.3331781190684815,-2.525649134312765,6.109956013947286,1.0156632661819458,-3.2069159189807337
1708433269.5777729,-2.142073154449463,-1.3331409257701416,-2.525595013295309,6.109915482788839,1.0156556367874146,-3.2068920771228235
1708433269.579757,-2.1421022415161133,-1.3331453663161774,-2.5255499521838587,6.109985816269674,1.0156466960906982,-3.206906859074728
1708433269.5817568,-2.142094135284424,-1.3331409257701416,-2.5255828539477747,6.109926330834188,1.0156300067901611,-3.206916157399313
1708433269.5838027,-2.142106533050537,-1.333182619219162,-2.52563721338381,6.109980094223776,1.0157122611999512,-3.2069039980517786
1708433269.585814,-2.142029285430908,-1.3331198257258912,-2.525599543248312,6.1099679348762415,1.015637755393982,-3.206883255635397
1708433269.5878534,-2.1420249938964844,-1.3331528466990967,-2.525611464177267,6.109951603203573,1.0156556367874146,-3.2069368998156946
1708433269.5898304,-2.1420774459838867,-1.333219976430275,-2.52563721338381,6.109976756363668,1.015637755393982,-3.2069368998156946
1708433269.591844,-2.142068862915039,-1.3331618171981354,-2.525628153477804,6.109981286316671,1.015637755393982,-3.2069368998156946
1708433269.5938427,-2.142033100128174,-1.333173618917801,-2.525597874318258,6.10994707325057,1.0156255960464478,-3.2069411913501185
1708433269.5959258,-2.14206600189209,-1.3331439358047028,-2.525611464177267,6.109971391945638,1.0156182050704956,-3.206944290791647
1708433269.5977647,-2.142085552215576,-1.333103508954384,-2.525597874318258,6.1098976013954065,1.0156751871109009,-3.2069292704211634
1708433269.599784,-2.142061710357666,-1.3331454259208222,-2.525562111531393,6.109980094223776,1.0156633853912354,-3.206899706517355
1708433269.6018322,-2.142068862915039,-1.3331287962249299,-2.5255709330188196,6.109930622368612,1.0156588554382324,-3.206899706517355
1708433269.603764,-2.142073154449463,-1.333145411019661,-2.525623623524801,6.1099188206489465,1.015633463859558,-3.2069278399096888
1708433269.605812,-2.142073154449463,-1.333110899930336,-2.525670115147726,6.109914290695944,1.0156588554382324,-3.2069292704211634
1708433269.6078095,-2.142057418823242,-1.333173618917801,-2.525644604359762,6.109976875572958,1.0156512260437012,-3.2069249788867396
1708433269.6097932,-2.14206600189209,-1.3332021993449708,-2.5256205240832728,6.110017049103536,1.015633463859558,-3.2069576422320765
1708433269.611751,-2.1420531272888184,-1.3331858825734635,-2.525611464177267,6.110002505570211,1.0156707763671875,-3.2068801561938685
1708433269.6137397,-2.142068862915039,-1.3332212281278153,-2.525619093571798,6.109890210419454,1.0156500339508057,-3.206944290791647
1708433269.6157548,-2.142068862915039,-1.3332124513438721,-2.525590483342306,6.110005128174581,1.0156500339508057,-3.2068758646594446
1708433269.617856,-2.1420774459838867,-1.3331960451653977,-2.525602404271261,6.109980094223776,1.0156707763671875,-3.2069159189807337
1708433269.6197565,-2.1420774459838867,-1.333229125743248,-2.52563721338381,6.109984624176779,1.0157411098480225,-3.2069249788867396
1708433269.6217825,-2.142068862915039,-1.3332484525493165,-2.525611464177267,6.109993564873495,1.0156915187835693,-3.2069292704211634
1708433269.6237702,-2.1420249938964844,-1.3332514029792328,-2.525644604359762,6.109902131348409,1.0156421661376953,-3.2069039980517786
1708433269.6257737,-2.1420531272888184,-1.3332680773786088,-2.52561599413027,6.110030400543966,1.0156663656234741,-3.206883255635397
1708433269.627791,-2.1420774459838867,-1.3332636815360566,-2.525611464177267,6.10994707325057,1.0156500339508057,-3.2069411913501185
1708433269.6297975,-2.142094135284424,-1.3332934093526383,-2.525585953389303,6.109948503762045,1.0156782865524292,-3.2069249788867396
1708433269.6317792,-2.14202880859375,-1.333277018075325,-2.525595013295309,6.1099679348762415,1.0156588554382324,-3.2069085280047815
1708433269.6338348,-2.1420488357543945,-1.3332725328258057,-2.525628153477804,6.109939682274618,1.015687108039856,-3.2069383303271692
1708433269.635778,-2.1420812606811523,-1.3332888644984742,-2.525573794041769,6.109956013947286,1.015699028968811,-3.2069085280047815
1708433269.6377628,-2.1420531272888184,-1.3333212298205872,-2.525602404271261,6.110000717430868,1.015699028968811,-3.2069085280047815
1708433269.639771,-2.142094135284424,-1.333251417880394,-2.52561599413027,6.109989034920492,1.015699028968811,-3.206851307545797
1708433269.6417494,-2.1420774459838867,-1.3332844239524384,-2.525653664265768,6.10994707325057,1.0156826972961426,-3.2068682352649134
1708433269.6437442,-2.142073154449463,-1.333305225973465,-2.525590483342306,6.109927761345663,1.015723466873169,-3.2068639437304896
1708433269.645737,-2.1420984268188477,-1.3332681071809311,-2.5255873839007776,6.109944093018331,1.0156663656234741,-3.2069173494922083
1708433269.647739,-2.1420249938964844,-1.3332888644984742,-2.52563721338381,6.109997975617208,1.0157113075256348,-3.2069085280047815
1708433269.6497624,-2.142057418823242,-1.3333301705173035,-2.525599543248312,6.10992323139266,1.0156530141830444,-3.2068548838244837
1708433269.6517696,-2.1420860290527344,-1.33326809227977,-2.525606934224264,6.109976756363668,1.0156663656234741,-3.2069054285632532
1708433269.6537569,-2.142110824584961,-1.3333212298205872,-2.52561599413027,6.109939682274618,1.0157157182693481,-3.2069457213031214
1708433269.655748,-2.142085552215576,-1.3332680624774476,-2.525628153477804,6.109956013947286,1.0156946182250977,-3.2068920771228235
1708433269.6577587,-2.1420164108276367,-1.3333185476115723,-2.52561599413027,6.109958994179525,1.015699028968811,-3.2069011370288294
1708433269.6597438,-2.1420459747314453,-1.3332603883794327,-2.525602404271261,6.1099233506019495,1.0156737565994263,-3.2069249788867396
1708433269.6617315,-2.142073154449463,-1.3332844537547608,-2.525611464177267,6.109951603203573,1.0157324075698853,-3.2069039980517786
1708433269.6637387,-2.142050266265869,-1.3332681071809311,-2.525677506123678,6.109960424691,1.0156946182250977,-3.2068758646594446
1708433269.6657636,-2.142085552215576,-1.3332770329764863,-2.5255873839007776,6.10990987995223,1.0157034397125244,-3.2068846861468714
1708433269.6677923,-2.1420164108276367,-1.3332277101329346,-2.525590483342306,6.109975802689352,1.0156946182250977,-3.2068682352649134
1708433269.6697884,-2.14208984375,-1.333293394451477,-2.525623623524801,6.109954702645101,1.0156900882720947,-3.2068758646594446
1708433269.6717565,-2.1420860290527344,-1.3332440269044419,-2.525619093571798,6.109944093018331,1.0156575441360474,-3.206926409398214
1708433269.6737604,-2.142068862915039,-1.3332800281098862,-2.525602404271261,6.109971272736349,1.0156826972961426,-3.2068639437304896
1708433269.675769,-2.142050266265869,-1.3333212298205872,-2.5256310145007532,6.1100337384040735,1.015720009803772,-3.2068892160998743
1708433269.6777704,-2.142057418823242,-1.3332514029792328,-2.525635544453756,6.109997975617208,1.0156782865524292,-3.2069130579577845
1708433269.6797369,-2.142073154449463,-1.333223135476448,-2.525619093571798,6.109972345619955,1.0156575441360474,-3.2068558374988
1708433269.681759,-2.1420817375183105,-1.3332603734782715,-2.525635544453756,6.109960424691,1.0156707763671875,-3.2069130579577845
1708433269.6837683,-2.142029285430908,-1.3332681220820923,-2.525611464177267,6.109942662506857,1.0157113075256348,-3.2068937460528772
1708433269.6857789,-2.1420459747314453,-1.3332440716079255,-2.525640074406759,6.109914290695944,1.0157322883605957,-3.2068682352649134
1708433269.6877644,-2.142061710357666,-1.3332725030234833,-2.5256310145007532,6.109993564873495,1.0156826972961426,-3.206822935734884
1708433269.6897373,-2.142054557800293,-1.3332815033248444,-2.525651995335714,6.1099352715309045,1.0156737565994263,-3.2068966070758265
1708433269.691739,-2.1420416831970215,-1.3332395118526001,-2.5257063547717493,6.109993564873495,1.015687108039856,-3.2068937460528772
1708433269.6937587,-2.1420416831970215,-1.3332470220378418,-2.525619093571798,6.109964954644003,1.0156663656234741,-3.2068727652179163
1708433269.6957548,-2.142057418823242,-1.3332770478776474,-2.5256639162646692,6.109975683480062,1.0156619548797607,-3.206851307545797
1708433269.697745,-2.1421308517456055,-1.333281473522522,-2.5256474653827112,6.109935152321615,1.0157113075256348,-3.2068558374988
1708433269.6997795,-2.1421151161193848,-1.3332440567067643,-2.525619093571798,6.1099188206489465,1.0156707763671875,-3.2068727652179163
1708433269.7017872,-2.1421151161193848,-1.3332888943007966,-2.5256593863116663,6.10992323139266,1.0157322883605957,-3.2069101969348353
1708433269.703784,-2.142068862915039,-1.3332034957459946,-2.5256758371936243,6.110021579056539,1.0157397985458374,-3.20693546930422
1708433269.7057638,-2.14208984375,-1.3332888943007966,-2.5256713072406214,6.109936702042379,1.0156782865524292,-3.2069011370288294
1708433269.7077508,-2.1420037746429443,-1.3333052408746262,-2.5256882349597376,6.109989034920492,1.0157067775726318,-3.206886355076925
1708433269.709739,-2.1420774459838867,-1.333297775392868,-2.5257449785815638,6.109930622368612,1.0157264471054077,-3.2069130579577845
1708433269.7117262,-2.142110824584961,-1.3332558435252686,-2.5257285276996058,6.109942662506857,1.0157397985458374,-3.2068637053119105
1708433269.7137587,-2.14206600189209,-1.333223135476448,-2.5257194677936,6.109930741577902,1.0156978368759155,-3.2069011370288294
1708433269.7157342,-2.142008066177368,-1.3332514029792328,-2.525717798863546,6.110017049103536,1.015718936920166,-3.2068639437304896
1708433269.7177918,-2.1420531272888184,-1.3332888793996354,-2.525694195424215,6.109960424691,1.015730857849121,-3.2069054285632532
1708433269.7198524,-2.142050266265869,-1.333255873327591,-2.525738779698507,6.109941231995382,1.0156900882720947,-3.2069011370288294
1708433269.7217674,-2.1420531272888184,-1.3332770329764863,-2.5257015864001673,6.109927761345663,1.0157278776168823,-3.206862513219015
1708433269.7237637,-2.1420702934265137,-1.3332726073316117,-2.525769058858053,6.1099188206489465,1.0156978368759155,-3.2069292704211634
1708433269.7257721,-2.142012357711792,-1.3332514029792328,-2.525722328816549,6.109972345619955,1.0157067775726318,-3.2069338003741663
1708433269.7277591,-2.1420416831970215,-1.3332157594016572,-2.5257673899279993,6.109944093018331,1.0157352685928345,-3.2069249788867396
1708433269.7297885,-2.1420702934265137,-1.3332725328258057,-2.525734249745504,6.109961974411764,1.0157034397125244,-3.2069411913501185
1708433269.7317436,-2.1420633792877197,-1.3332157594016572,-2.52576452890505,6.109956013947286,1.0156978368759155,-3.2069159189807337
1708433269.7337668,-2.142054557800293,-1.3332276803306122,-2.5257673899279993,6.109980094223776,1.0157278776168823,-3.206977669392721
1708433269.735763,-2.142016649246216,-1.3332573038390656,-2.525734249745504,6.109989034920492,1.015723466873169,-3.20698053041567
1708433269.737779,-2.142059087753296,-1.3332844537547608,-2.525717798863546,6.109935152321615,1.015702247619629,-3.2070043722735804
1708433269.739782,-2.1419966220855713,-1.333240957265236,-2.5257464090930384,6.109972464829244,1.0157067775726318,-3.2069955507861536
1708433269.7417386,-2.142057418823242,-1.3332484525493165,-2.525734249745504,6.109997975617208,1.015718936920166,-3.207052532826559
1708433269.7437646,-2.1420459747314453,-1.333264799123146,-2.525738779698507,6.109932172089376,1.0157352685928345,-3.207080904637472
1708433269.7457902,-2.142050266265869,-1.3332470220378418,-2.525752369557516,6.109894621163168,1.0157772302627563,-3.207092825566427
1708433269.7477407,-2.1420254707336426,-1.3332365316203614,-2.525735918675558,6.109985816269674,1.0157560110092163,-3.2071619669543665
1708433269.7498248,-2.1420748233795166,-1.3332440269044419,-2.52570611635317,6.109985816269674,1.0157264471054077,-3.20711857477297
1708433269.7517598,-2.1420209407806396,-1.3332113486579438,-2.5257180372821253,6.109903561859884,1.0157219171524048,-3.207172218953268
1708433269.753791,-2.142061710357666,-1.3333290678313752,-2.525722328816549,6.109939682274618,1.0157461166381836,-3.207207981740133
1708433269.7557411,-2.1420774459838867,-1.3332440269044419,-2.525752369557516,6.109944093018331,1.015750527381897,-3.2072725931750696
1708433269.7577574,-2.142050266265869,-1.3332844537547608,-2.525734249745504,6.109976875572958,1.0157382488250732,-3.207373921071188
1708433269.7597396,-2.1420633792877197,-1.3333543103984375,-2.5257297197925013,6.109973895340719,1.0157549381256104,-3.207327667866842
1708433269.761761,-2.142073154449463,-1.3332351011088868,-2.5257509390460413,6.109972464829244,1.0157638788223267,-3.2073960939990442
1708433269.763771,-2.142037868499756,-1.333293394451477,-2.5257132689105433,6.109920012741842,1.0157382488250732,-3.207472626362936
1708433269.7657619,-2.1419966220855713,-1.333281473522522,-2.5257628599749964,6.109936702042379,1.015784502029419,-3.2075052897082728
1708433269.7677712,-2.142012357711792,-1.333281473522522,-2.5257719198810022,6.109944093018331,1.0157594680786133,-3.2075894514666956
1708433269.7698267,-2.142054557800293,-1.3332558584264298,-2.5257554689990442,6.109870898514547,1.0157145261764526,-3.2076333204852503
1708433269.7717736,-2.1420254707336426,-1.3332514327815552,-2.52574330965151,6.109920012741842,1.0157756805419922,-3.2076836268054407
1708433269.7737718,-2.1420748233795166,-1.3332770478776474,-2.525752369557516,6.109973895340719,1.015717625617981,-3.2077646891223353
1708433269.7757907,-2.142059087753296,-1.3332395118526001,-2.525747839604513,6.109985816269674,1.0157417058944702,-3.207841459904806
1708433269.7777889,-2.1420254707336426,-1.3332558584264298,-2.5257015864001673,6.109944093018331,1.0157668590545654,-3.2078879515277308
1708433269.7797973,-2.142042398452759,-1.33329030991111,-2.525768820439474,6.109969484597006,1.0157954692840576,-3.2079294363604944
1708433269.781756,-2.1420297622680664,-1.3332484525493165,-2.525802199040548,6.109903681069174,1.0157954692840576,-3.208060328160421
1708433269.7837403,-2.1420466899871826,-1.333302230840065,-2.525705877934591,6.109908091812887,1.015799880027771,-3.208151165639059
1708433269.785789,-2.14201021194458,-1.3332573187402268,-2.5257673899279993,6.109896170883932,1.0157742500305176,-3.2082768122302454
1708433269.787827,-2.1419718265533447,-1.3332573038390656,-2.5257509390460413,6.109908091812887,1.0157909393310547,-3.2083309332477015
1708433269.7898092,-2.141964912414551,-1.333273635511734,-2.5257628599749964,6.109887230187216,1.0158313512802124,-3.208475891743795
1708433269.7918446,-2.1419973373413086,-1.3332782250693818,-2.525752369557516,6.10987817028121,1.0158239603042603,-3.208555285130636
1708433269.7938669,-2.1419806480407715,-1.3332365167192002,-2.525785509740011,6.109928953438558,1.0158642530441284,-3.208646599446432
1708433269.7958171,-2.1420059204101562,-1.3332395118526001,-2.52574330965151,6.1099125025566,1.0158106088638306,-3.2087796370135706
1708433269.797805,-2.1419849395751953,-1.3332231801799317,-2.525759998952047,6.109896170883932,1.015838861465454,-3.2088950316058558
1708433269.7998102,-2.1419973373413086,-1.3332440269044419,-2.52574330965151,6.109818684845724,1.015826940536499,-3.209022108708517
1708433269.8018067,-2.1420297622680664,-1.3331990999034424,-2.525769058858053,6.109905111580648,1.015838861465454,-3.209183994923727
1708433269.8038309,-2.1419973373413086,-1.3332573038390656,-2.5257931391345423,6.109781133919515,1.0158225297927856,-3.2093187014209192
1708433269.8057601,-2.1420016288757324,-1.3332484525493165,-2.5257464090930384,6.109830605774679,1.0158061981201172,-3.2093845049487513
1708433269.8077781,-2.14201021194458,-1.3332231801799317,-2.5257840792285364,6.1098365662391565,1.0158677101135254,-3.2095540205584925
1708433269.8097582,-2.1419973373413086,-1.3332231801799317,-2.5257509390460413,6.109828936844625,1.0158255100250244,-3.2096596399890345
1708433269.8117259,-2.142005205154419,-1.3332484525493165,-2.5257840792285364,6.109824406891622,1.0158225297927856,-3.209883515034811
1708433269.8137503,-2.141989231109619,-1.3332320910743256,-2.5257886091815394,6.109828817635336,1.0158555507659912,-3.210013453160421
1708433269.8157344,-2.142026901245117,-1.3332246106914063,-2.5257297197925013,6.109767424851217,1.0158917903900146,-3.2102184931384485
1708433269.8177552,-2.14201021194458,-1.333240957265236,-2.5257538000689905,6.109774935036459,1.0158721208572388,-3.2103357950793665
1708433269.8198562,-2.1420254707336426,-1.3332395118526001,-2.5258260408984583,6.10981701591567,1.015912413597107,-3.2105613390551966
1708433269.8217828,-2.141989231109619,-1.3332781505635758,-2.5257886091815394,6.109764802246847,1.0158705711364746,-3.2107620874988
1708433269.823784,-2.1420226097106934,-1.333252878194191,-2.5257719198810022,6.1097603915031335,1.0158991813659668,-3.2109044233905237
1708433269.825778,-2.1419849395751953,-1.3332231801799317,-2.5257840792285364,6.109761822014608,1.0159155130386353,-3.2111497561084192
1708433269.8277493,-2.14194917678833,-1.3332484525493165,-2.5256968180285853,6.109752881317892,1.0159066915512085,-3.211337391530172
1708433269.8297532,-2.1419849395751953,-1.3332321059754868,-2.5257673899279993,6.109773862152853,1.0159111022949219,-3.211510721837179
1708433269.8317544,-2.1419806480407715,-1.333281473522522,-2.5258289019214075,6.109778272896566,1.0159770250320435,-3.2117188612567347
1708433269.8337715,-2.1419453620910645,-1.3332157594016572,-2.5257554689990442,6.109712469368734,1.0159274339675903,-3.211950127278463
1708433269.8357728,-2.1419453620910645,-1.333169401889183,-2.5257554689990442,6.109728801041403,1.0159021615982056,-3.212236467991964
1708433269.837763,-2.14198637008667,-1.333229125743248,-2.525780979787008,6.109766351967611,1.0159021615982056,-3.2124393622027796
1708433269.8397722,-2.1419084072113037,-1.3332321059754868,-2.5257960001574915,6.109712469368734,1.0159473419189453,-3.2126336733447474
1708433269.8417451,-2.141970634460449,-1.3332692247680207,-2.5257719198810022,6.109644996910848,1.0159755945205688,-3.2128923575030726
1708433269.8437407,-2.1419126987457275,-1.3332858842662354,-2.5257330576526087,6.109746801644125,1.0159711837768555,-3.2131367365466517
1708433269.8457427,-2.141925573348999,-1.3331990551999588,-2.5257840792285364,6.109688269882955,1.0159265995025635,-3.213416878377096
1708433269.847731,-2.141974925994873,-1.3332440269044419,-2.525776211415426,6.109697210579672,1.015992283821106,-3.2136600653277796
1708433269.8498073,-2.1419460773468018,-1.3332124513438721,-2.5257704893695276,6.109697210579672,1.015999674797058,-3.21391207376589
1708433269.8517394,-2.141937255859375,-1.3332573038390656,-2.5257795492755335,6.109622704773702,1.0159744024276733,-3.21420127550234
1708433269.8537915,-2.141913414001465,-1.3331827533296128,-2.5257719198810022,6.10959147193984,1.0160030126571655,-3.21448785463442
1708433269.8557515,-2.141962766647339,-1.3332157594016572,-2.5258079210864466,6.109607922821798,1.0159863233566284,-3.214733664189474
1708433269.8577392,-2.1418495178222656,-1.3332231801799317,-2.5257824102984827,6.109633195191183,1.0159941911697388,-3.2150331179248255
1708433269.8597362,-2.141876459121704,-1.333229125743248,-2.5258289019214075,6.109604942589559,1.0160448551177979,-3.2153716723071497
1708433269.8617349,-2.141885280609131,-1.3331783276847382,-2.5258289019214075,6.109555351525106,1.016064167022705,-3.2156456152545374
1708433269.8637486,-2.14186954498291,-1.3332321059754868,-2.5258198420154017,6.109576213150778,1.0160404443740845,-3.215994421635763
1708433269.8657374,-2.1419053077697754,-1.3332948100617905,-2.5257988611804407,6.109573352127828,1.0160720348358154,-3.216330114995138
1708433269.8677452,-2.1418373584747314,-1.3332484525493165,-2.5257704893695276,6.1095536825950525,1.0160675048828125,-3.216667954121725
1708433269.8698046,-2.141902208328247,-1.3331960898688813,-2.5258198420154017,6.109512436180868,1.0160841941833496,-3.2169840971576136
1708433269.8717926,-2.1419219970703125,-1.3332335513881226,-2.5258153120623987,6.109530198365011,1.0160796642303467,-3.2173803488360804
1708433269.8737817,-2.1418416500091553,-1.333240957265236,-2.525794331227438,6.1094655869300745,1.0161408185958862,-3.2176995913134974
1708433269.8757615,-2.1418709754943848,-1.3332869124463578,-2.5258079210864466,6.1094655869300745,1.0160959959030151,-3.2180383841144007
1708433269.877764,-2.1418416500091553,-1.3331990999034424,-2.525860611592428,6.1094868061836145,1.016115665435791,-3.2184227148639124
1708433269.8797603,-2.1418049335479736,-1.3332079362920304,-2.5258153120623987,6.109489667206564,1.0161112546920776,-3.2187278906451624
1708433269.8817582,-2.141829013824463,-1.3332246106914063,-2.5258365313159388,6.1094491360481165,1.016097903251648,-3.2191606203662317
1708433269.8837566,-2.141846179962158,-1.3332365316203614,-2.52586800256838,6.109394061356344,1.0161815881729126,-3.219475332890646
1708433269.8858123,-2.1417925357818604,-1.3331961047700425,-2.525835100804464,6.109351980477133,1.0161514282226562,-3.219903055821554
1708433269.887789,-2.1418259143829346,-1.333229125743248,-2.5258589426623743,6.109405982285299,1.016180157661438,-3.220262591038839
1708433269.8897717,-2.141843318939209,-1.3332201850465317,-2.525835100804464,6.109351980477133,1.0162173509597778,-3.2207115332232874
1708433269.8917472,-2.1418519020080566,-1.3332499277642746,-2.5258753935443323,6.109369981079855,1.0161876678466797,-3.221081558858053
1708433269.8937569,-2.1418142318725586,-1.3332124513438721,-2.525884453450338,6.1093506691749475,1.0162084102630615,-3.2215128580676478
1708433269.8957846,-2.14176607131958,-1.3331724864295502,-2.5258498827563685,6.109317648201742,1.0162280797958374,-3.221896235142843
1708433269.897756,-2.1417617797851562,-1.3331681501916428,-2.5258708635913294,6.1092896340186975,1.0162447690963745,-3.2223318258868616
1708433269.8998528,-2.1418099403381348,-1.333200530414917,-2.5258753935443323,6.109260904579916,1.0162535905838013,-3.222743813191549
1708433269.9017482,-2.1417956352233887,-1.3331034493497391,-2.5258782545672815,6.109269845276632,1.0162312984466553,-3.223166290913717
1708433269.9037511,-2.1417789459228516,-1.3331332069686432,-2.5258856455432337,6.109208452492513,1.016222596168518,-3.223578755055563
1708433269.9057622,-2.141741991043091,-1.3331212860396882,-2.5259252230273646,6.1091980812843225,1.0162643194198608,-3.2240544001208704
1708433269.9077516,-2.1417295932769775,-1.3331454557231446,-2.5258992354022425,6.109181749611654,1.0162674188613892,-3.2244249025927942
1708433269.9097567,-2.1417295932769775,-1.333091528420784,-2.5258737246142786,6.109186279564657,1.0162837505340576,-3.2248862425433558
1708433269.9117486,-2.1417295932769775,-1.3331124198487778,-2.5258901754962366,6.109186160355367,1.0162959098815918,-3.2253297011004847
1708433269.9137712,-2.1417341232299805,-1.3331168454936524,-2.5258901754962366,6.109187829285421,1.016287088394165,-3.225849215184347
1708433269.915763,-2.1416494846343994,-1.3331256967834015,-2.525935475026266,6.109186279564657,1.0163214206695557,-3.2262757460223597
1708433269.9177506,-2.141716241836548,-1.3330678206733246,-2.5259607473956507,6.109141218453207,1.0163363218307495,-3.2267947832690638
1708433269.9198515,-2.1416828632354736,-1.3331212860396882,-2.525989357625143,6.109138357430258,1.0163363218307495,-3.227189366017477
1708433269.9218092,-2.141663074493408,-1.3331018549254914,-2.525919024144308,6.10915623882369,1.0163036584854126,-3.227701012288229
1708433269.9237678,-2.141610622406006,-1.3330810827067872,-2.5259056727038782,6.109081733017721,1.0163486003875732,-3.228173557912008
1708433269.925746,-2.1415772438049316,-1.3329976958087464,-2.525963846837179,6.109099495201864,1.0163440704345703,-3.2286601702319544
1708433269.927773,-2.1416234970092773,-1.3330232065967103,-2.525971237813131,6.109104025154867,1.016347050666809,-3.2291303316699427
1708433269.9297547,-2.141598701477051,-1.3330439788154145,-2.5260255972491663,6.109092223435201,1.0163846015930176,-3.2295857111560267
1708433269.9317627,-2.141619920730591,-1.3330647361329575,-2.5259788672076624,6.109059083252706,1.0163997411727905,-3.2301419417010706
1708433269.9337668,-2.14158296585083,-1.3330810827067872,-2.5259621779071253,6.10902630069808,1.0164700746536255,-3.230579439793722
1708433269.935765,-2.1415467262268066,-1.333069161777832,-2.5260165373431605,6.108969318657675,1.0164612531661987,-3.2310662905322474
1708433269.9377897,-2.1415228843688965,-1.333072231417038,-2.5259743372546595,6.108975398331442,1.0164642333984375,-3.2315409819232386
1708433269.9397485,-2.1415395736694336,-1.3331018549254914,-2.5260029474841517,6.108902084618368,1.0164523124694824,-3.232011381779806
1708433269.9417608,-2.1415438652038574,-1.3331062656692048,-2.5260165373431605,6.108981478005209,1.0164927244186401,-3.23253304163088
1708433269.943756,-2.141531467437744,-1.3331018549254914,-2.5260358492480677,6.108927476197042,1.0165379047393799,-3.2329986731158655
1708433269.9457576,-2.1414918899536133,-1.3331049245646973,-2.5259984175311487,6.108953106194296,1.0165165662765503,-3.233572785054342
1708433269.9477594,-2.1414499282836914,-1.333138958816864,-2.526026789342062,6.1089080450828455,1.0165379047393799,-3.2340460459338587
1708433269.949854,-2.1414709091186523,-1.333084152345993,-2.5259984175311487,6.1088634608085535,1.0165157318115234,-3.2345743815051478
1708433269.9517498,-2.1414456367492676,-1.3330974292806168,-2.525996987019674,6.108839499741354,1.016532063484192,-3.235094134007589
1708433269.9537613,-2.1414270401000977,-1.3330766570619126,-2.526093069707052,6.108794557839193,1.0165735483169556,-3.235641066228048
1708433269.955734,-2.1414270401000977,-1.3330678206733246,-2.526034418736593,6.108824360161581,1.0165647268295288,-3.236098591481344
1708433269.9577591,-2.141444206237793,-1.3331093502095719,-2.5261078516589563,6.108751523285665,1.0165724754333496,-3.2366653124438685
1708433269.959737,-2.14145565032959,-1.333127037887909,-2.5260914007769983,6.108748185425558,1.016621708869934,-3.237191979085104
1708433269.9617317,-2.14145565032959,-1.3330974292806168,-2.5260630289660853,6.108715402870931,1.0166206359863281,-3.237699333821432
1708433269.9637368,-2.1414361000061035,-1.3331137758544465,-2.5260959307300013,6.108646499901571,1.016625165939331,-3.2381351629840296
1708433269.9657435,-2.1414318084716797,-1.333130107527115,-2.5260732809649866,6.1086957333381555,1.0166369676589966,-3.238640371953146
1708433269.9677434,-2.141378879547119,-1.333072231417038,-2.5261033217059534,6.108634340554037,1.0166654586791992,-3.239152495061056
1708433269.969788,-2.1414124965667725,-1.3330439788154145,-2.52614409128298,6.108656751900472,1.0166325569152832,-3.2396963278399866
1708433269.971813,-2.1413912773132324,-1.3331181865981598,-2.5261061827289026,6.108670222550192,1.0166281461715698,-3.2401936689959925
1708433269.9737613,-2.1413674354553223,-1.3330930036357422,-2.526176993046896,6.108670222550192,1.016652226448059,-3.240714136754171
1708433269.9757743,-2.1413111686706543,-1.3330351275256653,-2.5261181036578577,6.108621108322897,1.0166852474212646,-3.241249386464254
1708433269.9777699,-2.141315460205078,-1.3330974292806168,-2.526176993046896,6.10858832576827,1.016704797744751,-3.2417295614825647
1708433269.979778,-2.141331195831299,-1.3330439788154145,-2.526175324116842,6.108576285630026,1.016709327697754,-3.2422478834735315
1708433269.9817467,-2.1413116455078125,-1.3330810827067872,-2.526142422352926,6.108580815583029,1.016716718673706,-3.2427881399737757
1708433269.9837842,-2.1413159370422363,-1.3331018549254914,-2.526188913975851,6.108544814377584,1.016716718673706,-3.2433200518237513
1708433269.9858003,-2.1413371562957764,-1.3330351275256653,-2.526137892399923,6.108552205353536,1.0167529582977295,-3.2438741366015833
1708433269.987794,-2.1412720680236816,-1.3330276322415848,-2.526200834904806,6.108540403633871,1.0167529582977295,-3.2444425264941614
1708433269.9898121,-2.14129638671875,-1.3331181865981598,-2.526208225880758,6.108471858292379,1.016769289970398,-3.244901482258932
1708433269.991841,-2.1412763595581055,-1.3330810827067872,-2.526175324116842,6.1085582850273035,1.0167901515960693,-3.2454331556903284
1708433269.9938395,-2.1412315368652344,-1.3330855083516617,-2.526154343281881,6.108607756882467,1.016781210899353,-3.245910708104269
1708433269.9958036,-2.1412158012390137,-1.3331018549254914,-2.5261617342578333,6.108471858292379,1.0168260335922241,-3.246382538472311
1708433269.9978068,-2.1411821842193604,-1.3330766570619126,-2.5262067953692835,6.108517992287435,1.0167964696884155,-3.2468541304217737
1708433269.9998333,-2.141188144683838,-1.3330678206733246,-2.5261827150927942,6.108501541405477,1.0168339014053345,-3.2472875753985804
1708433270.0018208,-2.1412196159362793,-1.3330320578864594,-2.5262280146228235,6.108473050385275,1.0167919397354126,-3.247784678136007
1708433270.0037603,-2.141183853149414,-1.333084152345993,-2.5262654463397425,6.108477461128988,1.016829490661621,-3.248235527669088
1708433270.0057528,-2.1411757469177246,-1.333127037887909,-2.5262308756457728,6.108429896622457,1.0168817043304443,-3.2487149874316614
1708433270.0078325,-2.141183853149414,-1.333084152345993,-2.5262022654162806,6.108413445740499,1.0168861150741577,-3.2491703669177454
1708433270.0097752,-2.1411633491516113,-1.333060310488083,-2.5262189547168177,6.108413445740499,1.016832709312439,-3.2495597044574183
1708433270.0117533,-2.1411995887756348,-1.3330439788154145,-2.5262354055987757,6.108417856484213,1.0168579816818237,-3.25004226366152
1708433270.0137825,-2.1411843299865723,-1.333072231417038,-2.5262189547168177,6.108406054764547,1.0168683528900146,-3.25049335161318
1708433270.0157497,-2.14115047454834,-1.33303955317054,-2.5262399355517786,6.108398306160726,1.016898274421692,-3.2508509794818323
1708433270.017761,-2.1412038803100586,-1.3330974292806168,-2.5262637774096888,6.108298051148214,1.0168927907943726,-3.2512779871570032
1708433270.019759,-2.1411590576171875,-1.3330797416022797,-2.526259247456686,6.108386385231771,1.0168927907943726,-3.2516492048846644
1708433270.0217693,-2.1411757469177246,-1.3331345331719895,-2.526259247456686,6.1083340523536584,1.0169165134429932,-3.252056662236349
1708433270.0237834,-2.1411843299865723,-1.3330899339965363,-2.526280466710226,6.108341443329611,1.0169540643692017,-3.2524314562426966
1708433270.0257907,-2.1411800384521484,-1.3330930036357422,-2.526287857686178,6.1082520363624475,1.0169540643692017,-3.252843443547384
1708433270.0277529,-2.14113187789917,-1.3330885779908677,-2.526313606892721,6.108342873841085,1.016940712928772,-3.2532103697406214
1708433270.0297413,-2.1411139965057373,-1.3330885779908677,-2.526313368474142,6.108292567520895,1.0169646739959717,-3.253594223652975
1708433270.0317383,-2.141176462173462,-1.3331137758544465,-2.52627140680422,6.108301627426901,1.016978144645691,-3.254023853932516
1708433270.033759,-2.141143321990967,-1.333130107527115,-2.526292387639181,6.108289229660787,1.0170066356658936,-3.2543419043170374
1708433270.0357766,-2.1411476135253906,-1.3330855083516617,-2.526287857686178,6.108372676163473,1.0169991254806519,-3.2546232382403772
1708433270.0377705,-2.141205310821533,-1.3330483895591279,-2.526266876851217,6.108314859658041,1.0169947147369385,-3.2550366560565394
1708433270.0397615,-2.1411361694335938,-1.3330930036357422,-2.526304546986715,6.108272897988119,1.0169813632965088,-3.255320135747091
1708433270.0417418,-2.141153573989868,-1.3330678206733246,-2.526266876851217,6.1083340523536584,1.0169769525527954,-3.255648199711935
1708433270.0437548,-2.1410868167877197,-1.3330470484546204,-2.5263119379626673,6.108272897988119,1.0169813632965088,-3.2559264341937464
1708433270.0457544,-2.1410911083221436,-1.3331093502095719,-2.5262773672686976,6.108289229660787,1.0169737339019775,-3.256176535283224
1708433270.0477593,-2.141108274459839,-1.3331093502095719,-2.5263403097735804,6.108277427941122,1.0169888734817505,-3.2565394083606165
1708433270.049845,-2.141115665435791,-1.3330810827067872,-2.5263193289386194,6.10832833030776,1.0169932842254639,-3.256777588521139
1708433270.051751,-2.1411449909210205,-1.333051474099495,-2.5263193289386194,6.1083059189613245,1.017005205154419,-3.2570248285876673
1708433270.0537922,-2.1410956382751465,-1.3330766570619126,-2.5263238588916224,6.108272897988119,1.017000675201416,-3.2572582403766077
1708433270.0557477,-2.1411314010620117,-1.3331093502095719,-2.5263028780566614,6.1082684872444055,1.0170096158981323,-3.2575023810016077
1708433270.0577705,-2.1411356925964355,-1.3330885779908677,-2.5263147989856165,6.1083353636558435,1.0170247554779053,-3.257725779210226
1708433270.0597825,-2.1410868167877197,-1.3330974292806168,-2.5263312498675745,6.1083176014717,1.0170336961746216,-3.2579949537860315
1708433270.0617473,-2.1410887241363525,-1.3330484193614502,-2.5262892881976526,6.1083176014717,1.0170592069625854,-3.258216921483175
1708433270.0637772,-2.1410844326019287,-1.333060310488083,-2.5262983481036585,6.108272897988119,1.0170592069625854,-3.258462731038229
1708433270.0657644,-2.1410887241363525,-1.33314202845607,-2.5263147989856165,6.10829375961379,1.017000675201416,-3.258636538182394
1708433270.0677495,-2.141104221343994,-1.3330885779908677,-2.5263357798205774,6.108310448914327,1.0169918537139893,-3.258808199559347
1708433270.069787,-2.1411356925964355,-1.3330558997443696,-2.5263431707965296,6.108302581101217,1.0170788764953613,-3.2589297930346888
1708433270.0718224,-2.1411314010620117,-1.3331093502095719,-2.5263267199145716,6.108338463097372,1.0170204639434814,-3.25912315050234
1708433270.0737834,-2.1411404609680176,-1.3331168454936524,-2.5263477007495325,6.10829375961379,1.0170621871948242,-3.2592127958880823
1708433270.0758073,-2.1411356925964355,-1.3330722910216828,-2.5263312498675745,6.108298170357504,1.0170577764511108,-3.2593331972705286
1708433270.0777812,-2.1410956382751465,-1.3330589544824143,-2.5263176600085657,6.1082743284995935,1.017020344734192,-3.2594736258136194
1708433270.0797484,-2.1410911083221436,-1.3330930036357422,-2.5263357798205774,6.1082191345985315,1.0170577764511108,-3.259634081517355
1708433270.0817425,-2.1410956382751465,-1.3330930036357422,-2.5263643900500696,6.108260977059164,1.0170577764511108,-3.2596972624408167
1708433270.0837605,-2.1410999298095703,-1.333130107527115,-2.526372019444601,6.108326542168417,1.0170577764511108,-3.259764019642965
1708433270.0857506,-2.141075611114502,-1.3331168454936524,-2.5263598600970667,6.108260977059164,1.0170533657073975,-3.259836022053854
1708433270.0877829,-2.1411619186401367,-1.3330558997443696,-2.526372019444601,6.108298170357504,1.0170906782150269,-3.2598465124713343
1708433270.0897686,-2.141111373901367,-1.3331137758544465,-2.5263312498675745,6.1083295224006555,1.0170414447784424,-3.2599528471576136
1708433270.0917523,-2.1410911083221436,-1.33306339502845,-2.5263386408435267,6.108301508217611,1.0170577764511108,-3.2599666754352015
1708433270.0937629,-2.1410956382751465,-1.3330766570619126,-2.5263553301440638,6.108333933144369,1.0170655250549316,-3.2600112597094935
1708433270.0957553,-2.1410956382751465,-1.3331137907556077,-2.5263431707965296,6.108272778778829,1.0170577764511108,-3.26003081003298
1708433270.0977552,-2.1410956382751465,-1.3331004989198227,-2.5263147989856165,6.108297097473898,1.0170621871948242,-3.260026280079977
1708433270.099855,-2.1411314010620117,-1.3331049245646973,-2.5263312498675745,6.108308660774984,1.017048954963684,-3.260052267705099
1708433270.1017678,-2.141160726547241,-1.3331137907556077,-2.526350800191061,6.108333933144369,1.0170533657073975,-3.2599197069751185
1708433270.1037498,-2.1411356925964355,-1.333130107527115,-2.5263267199145716,6.108358132630148,1.0170533657073975,-3.259857479725973
1708433270.105788,-2.1411807537078857,-1.3331004691175004,-2.5263522307025355,6.108381855278768,1.0170488357543945,-3.2597926298724573
1708433270.1077726,-2.141165018081665,-1.333060310488083,-2.5263643900500696,6.108349072724142,1.0170577764511108,-3.2597268263446253
1708433270.1097577,-2.1411356925964355,-1.3330797416022797,-2.5263102690326136,6.108341443329611,1.0170621871948242,-3.2596219221698206
1708433270.1117578,-2.141169309616089,-1.3331720542958756,-2.5263221899615687,6.108349191933431,1.0170085430145264,-3.259512488042013
1708433270.1137557,-2.141119956970215,-1.3331376177123566,-2.5263057390796106,6.108369934349813,1.0170414447784424,-3.259397570286886
1708433270.115771,-2.141115665435791,-1.3331004989198227,-2.5262892881976526,6.108384835511007,1.017037034034729,-3.259362761174337
1708433270.1177638,-2.1410911083221436,-1.333072231417038,-2.5263643900500696,6.108422505646505,1.0170611143112183,-3.259228054677145
1708433270.1197474,-2.141160726547241,-1.3330885779908677,-2.5263221899615687,6.108417856484213,1.0170700550079346,-3.2591338793383997
1708433270.1218593,-2.1411492824554443,-1.3331049245646973,-2.526350800191061,6.108417856484213,1.0170621871948242,-3.259010616933004
1708433270.1237762,-2.1411356925964355,-1.333107904796936,-2.5263147989856165,6.108413445740499,1.0170336961746216,-3.258800808583395
1708433270.1257775,-2.1410956382751465,-1.3331004989198227,-2.5263689200030726,6.108425366669454,1.0170414447784424,-3.258648459111349
1708433270.1277554,-2.141115665435791,-1.3331168454936524,-2.5263477007495325,6.108453738480367,1.017037034034729,-3.258465353642599
1708433270.129767,-2.141122579574585,-1.3330960732749482,-2.5263643900500696,6.108473050385275,1.0170743465423584,-3.2583099047290247
1708433270.1317956,-2.141165018081665,-1.3331049245646973,-2.526313130055563,6.108509051590719,1.017069935798645,-3.2580609957324427
1708433270.1338239,-2.1411449909210205,-1.3331256967834015,-2.5263267199145716,6.108501541405477,1.0170336961746216,-3.2578075567828577
1708433270.1357589,-2.141127109527588,-1.3330990684083481,-2.5262847582446497,6.108479249268331,1.0170292854309082,-3.257584873829977
1708433270.1377785,-2.1411025524139404,-1.3331332069686432,-2.5263221899615687,6.108494031220236,1.0170743465423584,-3.2573702971087855
1708433270.1397994,-2.1411404609680176,-1.3331168454936524,-2.5263312498675745,6.108556735306539,1.0170247554779053,-3.2570481936084192
1708433270.1417825,-2.141122579574585,-1.3330796968987961,-2.5263477007495325,6.108561146050253,1.0170414447784424,-3.256751839314596
1708433270.143752,-2.141160726547241,-1.333107904796936,-2.526372019444601,6.108555066376486,1.0170204639434814,-3.2565017382251185
1708433270.1457975,-2.1411404609680176,-1.333154321914055,-2.5263431707965296,6.1086017964179895,1.0170326232910156,-3.2561853567706507
1708433270.1477523,-2.141118288040161,-1.333072231417038,-2.5263386408435267,6.1086016772087,1.0170292854309082,-3.2558603922473353
1708433270.1498318,-2.1411519050598145,-1.3331168454936524,-2.526308838521139,6.108583795815267,1.0170247554779053,-3.2555204073535364
1708433270.1517823,-2.141169309616089,-1.3331034642509003,-2.5263221899615687,6.108649718552389,1.017020344734192,-3.2552462259875696
1708433270.153786,-2.141118288040161,-1.3331168454936524,-2.526346270238058,6.108645069390096,1.0170247554779053,-3.254868809376852
1708433270.155754,-2.141118288040161,-1.3331409257701416,-2.5263810793506067,6.108682501107015,1.0170204639434814,-3.2545138041125696
1708433270.1577513,-2.1410868167877197,-1.3331454408219834,-2.5263689200030726,6.108664500504293,1.0170667171478271,-3.2541614214526575
1708433270.1597471,-2.1411025524139404,-1.3331332069686432,-2.526400391255514,6.108680832176962,1.0170503854751587,-3.25373346010317
1708433270.1617498,-2.1411519050598145,-1.3331454408219834,-2.526362959538595,6.1087225554283044,1.0170173645019531,-3.2533586660968226
1708433270.1637545,-2.1410911083221436,-1.3331376326135178,-2.526393000279562,6.1087002632911584,1.0170667171478271,-3.2529025713550013
1708433270.165738,-2.1411356925964355,-1.3331364852241059,-2.5263386408435267,6.108680832176962,1.0169963836669922,-3.2525108496295374
1708433270.1677825,-2.1410868167877197,-1.3331498813680192,-2.526350800191061,6.10863887050704,1.0170711278915405,-3.2520790735827845
1708433270.1697602,-2.1411519050598145,-1.333095983867981,-2.5263598600970667,6.108664500504293,1.017037034034729,-3.251709524785177
1708433270.1718156,-2.1410956382751465,-1.333206669693329,-2.5263386408435267,6.108704674034872,1.0170247554779053,-3.251204792653219
1708433270.1737623,-2.141122579574585,-1.3331365150264283,-2.5263221899615687,6.108655559807577,1.0170623064041138,-3.2507510820971888
1708433270.175815,-2.141104221343994,-1.3331736040166398,-2.5263221899615687,6.108685481339254,1.0170336961746216,-3.2503255049334925
1708433270.1777534,-2.1410911083221436,-1.333178163771965,-2.526424233113424,6.1086556790168665,1.017037034034729,-3.2498627344714563
1708433270.1797752,-2.1410956382751465,-1.3332227182439347,-2.526358429585592,6.108709203987875,1.0170533657073975,-3.249390427266256
1708433270.1817853,-2.1410844326019287,-1.3331978035024186,-2.526400391255514,6.108721363335409,1.0170247554779053,-3.248910967503683
1708433270.1837382,-2.14105224609375,-1.3331647676280518,-2.526395861302511,6.108652341156759,1.0170459747314453,-3.248394552861349
1708433270.1858125,-2.1410932540893555,-1.333172471528389,-2.5264363924609583,6.108615386276998,1.0170414447784424,-3.247948233281271
1708433270.18781,-2.141040802001953,-1.3332947802594681,-2.5263567606555384,6.108647811203756,1.0170173645019531,-3.247370783482687
1708433270.1897738,-2.140944004058838,-1.3332573038390656,-2.526428763066427,6.108598577767172,1.0170204639434814,-3.246881071721212
1708433270.191806,-2.140984058380127,-1.3333052557757874,-2.5264769236194056,6.108595597534933,1.017074465751648,-3.2463420073138636
1708433270.1938174,-2.1409318447113037,-1.333316833978035,-2.5264092127429407,6.108597147255697,1.0170862674713135,-3.245760981236593
1708433270.195802,-2.1408915519714355,-1.3333247166923066,-2.52651292482485,6.108549225121298,1.0170414447784424,-3.245251480733053
1708433270.19781,-2.14084792137146,-1.3333440583995362,-2.526458803807394,6.108479249268331,1.0170577764511108,-3.244645897542135
1708433270.1998088,-2.140796184539795,-1.3334053766778489,-2.526517454777853,6.108459579735555,1.0170818567276,-3.244131867085592
1708433270.201786,-2.140780448913574,-1.3333726835301896,-2.52649170557131,6.108504521637716,1.0170533657073975,-3.2435339132892054
1708433270.2037675,-2.1407105922698975,-1.3333890003016968,-2.5265279451953333,6.108452069550314,1.017032504081726,-3.2430411020862024
1708433270.2057297,-2.140723705291748,-1.333445430999138,-2.5265234152423304,6.108425366669454,1.017118215560913,-3.2424779574023646
1708433270.2077432,-2.1406774520874023,-1.3334201735309144,-2.5265398661242884,6.108343231468954,1.0171226263046265,-3.2418530623065394
1708433270.209746,-2.14054799079895,-1.3334440898946305,-2.526587788258688,6.1083446619804285,1.017146348953247,-3.2412741819964808
1708433270.2117407,-2.140532970428467,-1.3334384870580216,-2.526632849370138,6.108271348267355,1.0171571969985962,-3.2407541910754603
1708433270.2137427,-2.140437602996826,-1.333508701329567,-2.5266101996051233,6.108226525574484,1.0172020196914673,-3.240168635045187
1708433270.2157676,-2.1403605937957764,-1.3335069876960297,-2.526728693638937,6.108162152558126,1.017214298248291,-3.2395573298083704
1708433270.2177472,-2.140293598175049,-1.3335099530271073,-2.52667481104006,6.108114230423727,1.0172576904296875,-3.2389941851245325
1708433270.2197614,-2.1402225494384766,-1.3335188937238236,-2.526719633732931,6.108035075455465,1.0173399448394775,-3.238443915043966
1708433270.2218158,-2.1401255130767822,-1.3335474145463486,-2.5267751852618616,6.1079139588172815,1.0173673629760742,-3.2378254572497767
1708433270.2238245,-2.139997720718384,-1.333599792127945,-2.526820484791891,6.107825982361593,1.0173659324645996,-3.237284485493795
1708433270.2257655,-2.139894723892212,-1.333619014625885,-2.526865307484762,6.107667314797201,1.0174514055252075,-3.236694637929098
1708433270.22778,-2.139786720275879,-1.3336474609426041,-2.5268710295306605,6.10754011848525,1.0174918174743652,-3.236084763203756
1708433270.229765,-2.139613151550293,-1.3337250512889405,-2.526928249989645,6.107432710915365,1.0175158977508545,-3.235490385686056
1708433270.2317426,-2.1395392417907715,-1.3336790663054963,-2.526922051106588,6.107323634415426,1.0175400972366333,-3.234967056904928
1708433270.233762,-2.1393792629241943,-1.333677665596344,-2.5270708242999476,6.107199299126425,1.0175268650054932,-3.2343557516681116
1708433270.2357795,-2.139190196990967,-1.3337761026671906,-2.527062002812521,6.107072579651632,1.0175583362579346,-3.233743731175558
1708433270.237787,-2.1390109062194824,-1.3337386411479493,-2.5270960966693323,6.106867420464315,1.0176197290420532,-3.2331576983081263
1708433270.2397847,-2.138913154602051,-1.3338520240834733,-2.5270853678332728,6.106735932617941,1.0176424980163574,-3.232595745717184
1708433270.2417607,-2.138669490814209,-1.3338018667748948,-2.5272043387042444,6.106474745064535,1.0177161693572998,-3.231983248387472
1708433270.2437696,-2.1384968757629395,-1.3338999462178727,-2.5272656122790735,6.106344687729635,1.017751693725586,-3.231408182774679
1708433270.2457697,-2.1382901668548584,-1.333890975718834,-2.5272520224200647,6.106141316681661,1.0178166627883911,-3.2308417002307337
1708433270.247739,-2.138016700744629,-1.333976225262024,-2.5272911230670374,6.105909573822775,1.0178556442260742,-3.2302501837359827
1708433270.2497928,-2.137789726257324,-1.3339406561902543,-2.527355496083395,6.105715381890096,1.0179357528686523,-3.2296887079821985
1708433270.2517521,-2.137556314468384,-1.3340031218579789,-2.5274651686297815,6.105385052948751,1.0179669857025146,-3.2291014830218714
1708433270.253751,-2.137329339981079,-1.3340256673148652,-2.527525250111715,6.105163681298055,1.0180511474609375,-3.228551689778463
1708433270.2557423,-2.137083053588867,-1.3340988022140046,-2.5275655428515833,6.105023133545675,1.018099308013916,-3.2279463450061243
1708433270.2577362,-2.136831045150757,-1.334101842050888,-2.527612034474508,6.10465561130599,1.0181715488433838,-3.2273312250720423
1708433270.2597265,-2.1365761756896973,-1.3341510903886338,-2.5276435057269495,6.104499923973837,1.0183016061782837,-3.226783100758688
1708433270.2617576,-2.1363136768341064,-1.3341779571822663,-2.527719799672262,6.104166614800253,1.0183321237564087,-3.2262001673327845
1708433270.2637641,-2.136013984680176,-1.334193007355072,-2.527808491383688,6.103785383492269,1.0184745788574219,-3.225673023854391
1708433270.265789,-2.13576340675354,-1.3342943352511902,-2.5278595129596155,6.103535997658529,1.0184870958328247,-3.2250681559192103
1708433270.2677584,-2.135444402694702,-1.3343215745738526,-2.5279930273639124,6.103205668717184,1.0186779499053955,-3.224591080342428
1708433270.2697363,-2.1351115703582764,-1.334394322042801,-2.528090302144186,6.102834689408102,1.0187740325927734,-3.223990503941671
1708433270.2717695,-2.134761333465576,-1.3344498139670868,-2.5281534830676478,6.102483379631796,1.0188863277435303,-3.2234845797168177
1708433270.273742,-2.1344292163848877,-1.334439979200699,-2.528202835713522,6.1021859524543665,1.0190318822860718,-3.2230003515826624
1708433270.275755,-2.134126901626587,-1.3344532561353226,-2.5283666292773646,6.1017647860343835,1.0190984010696411,-3.2224870363818567
1708433270.277771,-2.133762836456299,-1.3345606190017243,-2.52839166322817,6.10132788398818,1.0192320346832275,-3.221916977559225
1708433270.2797832,-2.133387565612793,-1.334608332519867,-2.5285044352160853,6.100942241936483,1.019394040107727,-3.2214744726764124
1708433270.2817714,-2.132948160171509,-1.3347171258977433,-2.5286455790149134,6.1005087969596765,1.01945161819458,-3.22099215189089
1708433270.2837703,-2.132534980773926,-1.334753007893898,-2.5287488142596644,6.100016701012411,1.0196199417114258,-3.220513645802633
1708433270.2857862,-2.132126569747925,-1.3348104816726227,-2.5288735071765345,6.09961627700881,1.0198103189468384,-3.220020596181051
1708433270.287773,-2.1316797733306885,-1.3348671656898041,-2.5289974848376673,6.099148618965902,1.0199624300003052,-3.2195995489703577
1708433270.2897508,-2.131248712539673,-1.3349671822837372,-2.5291791597949427,6.098653423577108,1.0200526714324951,-3.2191482226001185
1708433270.2917445,-2.1307530403137207,-1.335022361283638,-2.529290262852804,6.09812222698287,1.0202387571334839,-3.2187002340899866
1708433270.2937775,-2.1302120685577393,-1.3351314675858994,-2.529344145451681,6.097685086518087,1.0203666687011719,-3.2182779947863978
1708433270.295754,-2.129774332046509,-1.335200012927391,-2.52953011194338,6.09718285778121,1.0205307006835938,-3.217835251485006
1708433270.2977562,-2.1292195320129395,-1.3352300834706803,-2.529698197041647,6.096572983055868,1.0207151174545288,-3.2174649874316614
1708433270.2998083,-2.1286842823028564,-1.3353215915015717,-2.529820982609884,6.095991599350729,1.0208747386932373,-3.217058006917135
1708433270.3018088,-2.1280815601348877,-1.3354823154262085,-2.5300069491015833,6.09545515754775,1.0211044549942017,-3.2166743914233606
1708433270.303794,-2.127465009689331,-1.335521639590599,-2.530116383229391,6.094779836922445,1.021329641342163,-3.216282669697897
1708433270.305787,-2.1269280910491943,-1.3356008690646668,-2.5303176085101526,6.094146716385641,1.0215671062469482,-3.215936009083883
1708433270.3077526,-2.1263091564178467,-1.3357457679561158,-2.530539337788717,6.0935550806816,1.0217344760894775,-3.2155938784228724
1708433270.3097723,-2.1257147789001465,-1.3357877147248765,-2.530644241963522,6.092923033028402,1.0219175815582275,-3.215259615574972
1708433270.3117657,-2.1250462532043457,-1.3359237176230927,-2.5308948198901575,6.092222678452291,1.0221341848373413,-3.214940134678976
1708433270.3137407,-2.1243722438812256,-1.33608931422744,-2.531034056340353,6.091516124993124,1.0223922729492188,-3.2146011034594935
1708433270.3157654,-2.123690366744995,-1.3361597222140809,-2.5312472025500696,6.090828645020284,1.022583246231079,-3.214259211217062
1708433270.3177469,-2.1229751110076904,-1.3362390112927933,-2.531424109135763,6.090054380684652,1.0228523015975952,-3.2139692942248743
1708433270.3197615,-2.122265338897705,-1.3363749843886872,-2.5316653887378138,6.089268314629354,1.0230971574783325,-3.21368915239443
1708433270.3218193,-2.121534585952759,-1.3365286153605958,-2.5318456331836146,6.0885023949439905,1.0233619213104248,-3.2134180704699915
1708433270.3237603,-2.120727062225342,-1.3366259646466752,-2.5321229139911097,6.087598669319906,1.0236468315124512,-3.213217322026388
1708433270.325765,-2.1199910640716553,-1.3367291402867814,-2.532325092946188,6.086770880013265,1.023939847946167,-3.2129645983325403
1708433270.3277788,-2.119250774383545,-1.3368235540441056,-2.532496515904562,6.085989224701681,1.024179458618164,-3.2127113978015345
1708433270.3297577,-2.1184329986572266,-1.3369281452945252,-2.5327423254596155,6.085190880089559,1.0244314670562744,-3.2125545183764856
1708433270.3317811,-2.1176395416259766,-1.3371503812125702,-2.5329611937152308,6.084319460182943,1.0247501134872437,-3.212362829838888
1708433270.3338044,-2.1168105602264404,-1.3372570139220734,-2.533210102711813,6.083430278092184,1.0249860286712646,-3.2121697107898157
1708433270.3357954,-2.1159610748291016,-1.3373990219882508,-2.533504072819845,6.0825562355811975,1.0253016948699951,-3.2119913736926478
1708433270.3377845,-2.1151161193847656,-1.3375556629947205,-2.5337308088885706,6.081559884339132,1.0255993604660034,-3.2118755022632044
1708433270.3397598,-2.1142194271087646,-1.3377318543246766,-2.5339298884021204,6.080703723221578,1.0259522199630737,-3.2117324511157435
1708433270.3417497,-2.1133012771606445,-1.3378581714681168,-2.534217898045675,6.079653012543478,1.026244044303894,-3.211616818104879
1708433270.3437624,-2.1124107837677,-1.3380597990802308,-2.5345028082477015,6.078696834831991,1.0265570878982544,-3.2114926020251673
1708433270.3457544,-2.1114513874053955,-1.3382107478431244,-2.534799877797262,6.077731597214498,1.0268362760543823,-3.211443010960714
1708433270.3477473,-2.1104824542999268,-1.3383691918900986,-2.5350757280932825,6.0768000958259485,1.0272148847579956,-3.2113173643695276
1708433270.3497865,-2.10953688621521,-1.3385530275157471,-2.535332266484396,6.075744735985555,1.0274990797042847,-3.211295191441671
1708433270.3517826,-2.10850191116333,-1.3386845153621216,-2.5355826059924524,6.0746391890342615,1.0278486013412476,-3.2112439314471644
1708433270.3537796,-2.1074905395507812,-1.3389252734235306,-2.5359604994403284,6.073658215790548,1.0282049179077148,-3.211278025303976
1708433270.35577,-2.106419801712036,-1.3391165298274537,-2.536149326954977,6.072483765869894,1.0285613536834717,-3.2111926714526575
1708433270.3577776,-2.105431079864502,-1.3392914247563859,-2.5364866892444056,6.0713833449180505,1.0289015769958496,-3.2111316362964075
1708433270.3597436,-2.1043622493743896,-1.3394829493812104,-2.5368030706988733,6.0703115341956995,1.0293340682983398,-3.2111733595477503
1708433270.3617518,-2.103255033493042,-1.3396830719760437,-2.5370402971850794,6.0691555617149255,1.029678463935852,-3.211254421864645
1708433270.3637404,-2.102177381515503,-1.339817614560463,-2.537391010914938,6.067987906723776,1.030055284500122,-3.211313072835104
1708433270.3657663,-2.1010921001434326,-1.3400088262609025,-2.53774339357485,6.066865312844076,1.0304522514343262,-3.211376969014303
1708433270.3677638,-2.0999701023101807,-1.3401836615851899,-2.5380809942828577,6.065676796227255,1.0308654308319092,-3.211472813283102
1708433270.3697534,-2.0988552570343018,-1.3402898621610184,-2.5383625666247767,6.0645285723503015,1.0312784910202026,-3.211593214665548
1708433270.371818,-2.097684860229492,-1.3405469518950959,-2.5387242476092737,6.063303220063009,1.0316632986068726,-3.211651627217428
1708433270.3737726,-2.0964670181274414,-1.3407741051963349,-2.53902250925173,6.062115061074056,1.0320478677749634,-3.2117980162249964
1708433270.375793,-2.0952987670898438,-1.34097774446521,-2.5393839518176478,6.060831296234884,1.0324150323867798,-3.2119057814227503
1708433270.3778093,-2.094114303588867,-1.3412033778480072,-2.539740864430563,6.059587228089132,1.0328822135925293,-3.211992088948385
1708433270.3798003,-2.0928561687469482,-1.3413510036519547,-2.5400946776019495,6.058294880181112,1.0333079099655151,-3.2121647039996546
1708433270.3818164,-2.09161114692688,-1.3416188222220917,-2.5403948465930384,6.057045805245199,1.0336991548538208,-3.2123072783099573
1708433270.3838198,-2.0903704166412354,-1.3417771321586152,-2.5407500902758997,6.0557933924491785,1.034145474433899,-3.2125242392169397
1708433270.3858514,-2.0891411304473877,-1.3419654381326218,-2.5411444346057337,6.054473268776693,1.0345782041549683,-3.21272856393923
1708433270.3878067,-2.0878093242645264,-1.3422223192504426,-2.541471306477682,6.0531657812889,1.0349986553192139,-3.213001314793722
1708433270.3897867,-2.0865120887756348,-1.3424363446286698,-2.541831080113546,6.051723587303915,1.0355101823806763,-3.2132249514209192
1708433270.3918667,-2.0851709842681885,-1.342664973144867,-2.542203489934103,6.050247657089987,1.0359580516815186,-3.2135325113879603
1708433270.3938353,-2.0838308334350586,-1.3429252964309235,-2.5425754229175013,6.048868524819174,1.0364302396774292,-3.213830534611837
1708433270.3958404,-2.082487106323242,-1.3430850368789216,-2.5429473559008997,6.047466146736898,1.0368914604187012,-3.214088503514425
1708433270.3978286,-2.0812036991119385,-1.343354196553566,-2.5432890097247522,6.046149003296652,1.0373481512069702,-3.2143870035754603
1708433270.3998208,-2.0798377990722656,-1.3435842555812378,-2.5436654726611536,6.044742333679952,1.0377602577209473,-3.2146509329425257
1708433270.4018073,-2.0784518718719482,-1.3437619668296357,-2.544067446385519,6.043327200203695,1.0381972789764404,-3.2149539629565638
1708433270.4038184,-2.0771310329437256,-1.3440971237472077,-2.5444603602038782,6.0418879864509485,1.0386255979537964,-3.2153993288623255
1708433270.40576,-2.0757501125335693,-1.3442645084908982,-2.544839922581808,6.040513980179586,1.039103388786316,-3.2157395521747034
1708433270.4077516,-2.0742931365966797,-1.344573662882187,-2.5451815764056605,6.039072978287496,1.0395469665527344,-3.2160897890674036
1708433270.4097528,-2.0728871822357178,-1.3448861104300995,-2.545643154774801,6.037575828820028,1.0400488376617432,-3.21647292772402
1708433270.4117525,-2.0714259147644043,-1.345153735285141,-2.545980755482809,6.03615568855361,1.0405371189117432,-3.216909948979513
1708433270.413755,-2.0699691772460938,-1.3453509670547028,-2.546356980000631,6.034620988159933,1.0410362482070923,-3.217316452656881
1708433270.4157577,-2.068619728088379,-1.3456510615399857,-2.5467456022845667,6.033259975701132,1.0414634943008423,-3.2177720705615442
1708433270.4178054,-2.067134141921997,-1.3458486956408997,-2.5471866766559046,6.031794416695394,1.0419485569000244,-3.2181909720050257
1708433270.419754,-2.065744638442993,-1.346144364481308,-2.547577683125631,6.030310618668356,1.0424267053604126,-3.218581263219015
1708433270.4217622,-2.0642387866973877,-1.3463625472835083,-2.547947947178976,6.028806078224935,1.04296875,-3.219110075627462
1708433270.4237728,-2.0628182888031006,-1.346683920626976,-2.5484400431262415,6.027291166573324,1.0434454679489136,-3.219590727482931
1708433270.4257572,-2.061326026916504,-1.3469337087920685,-2.5488603750811976,6.025786745339193,1.0439456701278687,-3.2199536005603235
1708433270.4277723,-2.059824228286743,-1.3472219717553635,-2.54918080965151,6.024236309319296,1.0443520545959473,-3.220433537160055
1708433270.4297814,-2.058349370956421,-1.3474061352065583,-2.5496423880206507,6.02273057678298,1.044843316078186,-3.220956627522604
1708433270.4317431,-2.0568697452545166,-1.347731963997223,-2.54997688928713,6.021186339646139,1.045250415802002,-3.221546475087301
1708433270.4337502,-2.055375814437866,-1.3479365569404145,-2.550363604222433,6.019653069763937,1.0456966161727905,-3.2220900694476526
1708433270.4357855,-2.0538713932037354,-1.348228247170784,-2.5507474581347864,6.018047797470846,1.0461043119430542,-3.2226367632495325
1708433270.4377449,-2.052377462387085,-1.3485164654305954,-2.551140610371725,6.016567456513204,1.0465787649154663,-3.223199431096212
1708433270.4397378,-2.0508663654327393,-1.3487407130054017,-2.5515695253955286,6.0150266764457605,1.0470887422561646,-3.2237959543811243
1708433270.441754,-2.049323081970215,-1.349107251768448,-2.5519400278674524,6.013548958092489,1.0475605726242065,-3.224347178136007
1708433270.4437652,-2.0478341579437256,-1.3493743699840088,-2.5523808638202112,6.0120582459266565,1.0480906963348389,-3.2249189058886927
1708433270.4457536,-2.046306610107422,-1.3495824497989197,-2.5527692476855677,6.010571467667379,1.0485610961914062,-3.2255542914019983
1708433270.447781,-2.0447652339935303,-1.3498993825963517,-2.5531604925738733,6.009039032250204,1.0490347146987915,-3.226180617009298
1708433270.44979,-2.0432801246643066,-1.3502023977092286,-2.553532425557272,6.007445919304647,1.0494552850723267,-3.22675067583193
1708433270.4518018,-2.0417346954345703,-1.350461260681488,-2.553854767476217,6.005951988487997,1.0498268604278564,-3.227419678364889
1708433270.4537635,-2.0402069091796875,-1.350743518476822,-2.554246250783102,6.00440942028121,1.050191044807434,-3.2280221621142786
1708433270.455796,-2.0387041568756104,-1.3510056597045441,-2.554572884236471,6.0029311058814905,1.0505887269973755,-3.228607956563131
1708433270.4577575,-2.037226676940918,-1.3513742548278351,-2.5550032297717493,6.00143979766921,1.050981044769287,-3.2292924563037317
1708433270.4597673,-2.0356853008270264,-1.3516826194575806,-2.555399004613058,5.999895679741659,1.05143141746521,-3.2299509684192103
1708433270.4617465,-2.0341153144836426,-1.3519735497287293,-2.555742327366964,5.998363959580221,1.051827073097229,-3.230593506489889
1708433270.4637706,-2.0326356887817383,-1.3522668045810242,-2.556122128163473,5.996865618019857,1.0522931814193726,-3.231227223073141
1708433270.4657512,-2.0311076641082764,-1.3525628012469788,-2.5565059820758265,5.995302426605978,1.0526763200759888,-3.231903139744894
1708433270.4677641,-2.0295934677124023,-1.3528525096229096,-2.5569031874286097,5.993859278946676,1.0531827211380005,-3.232607905064718
1708433270.4697795,-2.0281319618225098,-1.3531187039664765,-2.557201925908224,5.992387640267172,1.0535376071929932,-3.2332826296435755
1708433270.471784,-2.02665376663208,-1.353407011633255,-2.5575698057757776,5.990838873177328,1.0539387464523315,-3.2339780966388147
1708433270.4737654,-2.025139093399048,-1.3537015181830903,-2.5579264799701136,5.9893120405967615,1.0543643236160278,-3.2346890608416956
1708433270.4757996,-2.0236873626708984,-1.3539886635592957,-2.5582075754748743,5.987737881928243,1.054785132408142,-3.2353933493243616
1708433270.477766,-2.0222179889678955,-1.3543253254941483,-2.558556620274679,5.98617838600234,1.055181860923767,-3.236086908970968
1708433270.479775,-2.020695209503174,-1.3546149295619507,-2.55886418024172,5.984722125321188,1.0556026697158813,-3.2368431727038782
1708433270.4817631,-2.0192315578460693,-1.3549663883498688,-2.559225384389059,5.983277666359701,1.055933952331543,-3.2375429312335413
1708433270.483787,-2.017791986465454,-1.3552698355964203,-2.5594988504992884,5.981854545861044,1.0562405586242676,-3.238200012837545
1708433270.4857838,-2.016324758529663,-1.3555520933917542,-2.5598610083209437,5.980455982476034,1.0566157102584839,-3.2389162222491663
1708433270.4878144,-2.0148873329162598,-1.3558914822391053,-2.5601194540606897,5.979036438256063,1.0569251775741577,-3.2396753470050257
1708433270.489777,-2.0133817195892334,-1.3561338049224396,-2.560383383427755,5.977657544403829,1.0572482347488403,-3.24044377008547
1708433270.491763,-2.011946439743042,-1.3564770978740235,-2.560704056416647,5.976259696274557,1.0575611591339111,-3.2410808245288294
1708433270.493771,-2.0105743408203125,-1.3567313712886353,-2.560913387929098,5.974827992707052,1.0578691959381104,-3.2417967955218714
1708433270.495761,-2.0091264247894287,-1.3570139569095154,-2.561235253010885,5.973438608437338,1.0581490993499756,-3.242572847996847
1708433270.4977548,-2.0076992511749268,-1.3573122781566163,-2.561557118092672,5.972107398300924,1.0584988594055176,-3.2433164755450647
1708433270.49974,-2.006312608718872,-1.3575954002192994,-2.5617688337909144,5.970730411797323,1.0587754249572754,-3.244138304387228
1708433270.5017745,-2.004897117614746,-1.3578822028687973,-2.561990563069479,5.9694955227668665,1.0590060949325562,-3.2449403444873255
1708433270.5037518,-2.0035574436187744,-1.3581900906613846,-2.5622831026660364,5.968119013100424,1.0593496561050415,-3.2456699053393763
1708433270.5057485,-2.0021817684173584,-1.3584231746247788,-2.5625138918506067,5.966831552773275,1.0595303773880005,-3.246437136326925
1708433270.5077531,-2.000835418701172,-1.3587267261794587,-2.5627599398242396,5.96557782867507,1.0597798824310303,-3.2472074667560022
1708433270.509757,-1.9995367527008057,-1.35901793957267,-2.563047711049215,5.964248645096578,1.0599993467330933,-3.2479336897479456
1708433270.5117545,-1.998183250427246,-1.359296442275383,-2.5632248560534876,5.9630619166191,1.0602365732192993,-3.2486229578601282
1708433270.5137827,-1.9968392848968506,-1.3595800262740632,-2.563469473515646,5.96179078796462,1.0604652166366577,-3.2494030634509485
1708433270.5157447,-1.9955263137817383,-1.3598759186318894,-2.563676182423727,5.960449325829305,1.0606070756912231,-3.2501049677478235
1708433270.5177536,-1.9942675828933716,-1.3601016861251374,-2.563892189656393,5.959167229920187,1.0608330965042114,-3.2507932821856897
1708433270.5197456,-1.9929301738739014,-1.3604093354991456,-2.5641139189349573,5.957872378617086,1.061025619506836,-3.251526657735006
1708433270.521837,-1.9916491508483887,-1.3606575739434739,-2.5642851034747522,5.9566324827964685,1.0611732006072998,-3.252214018498556
1708433270.523785,-1.9903888702392578,-1.3608835202506562,-2.5645218531238,5.955417382508077,1.0613415241241455,-3.2528958956347864
1708433270.5257874,-1.9891074895858765,-1.36116315544162,-2.5646689573871058,5.954184162407675,1.061497688293457,-3.25364596048464
1708433270.527763,-1.9878671169281006,-1.3614293199828644,-2.5648189226733606,5.953077423363485,1.061685562133789,-3.2543626467334192
1708433270.5297647,-1.9866987466812134,-1.3617012959769745,-2.564979378377096,5.9519420740898035,1.0618253946304321,-3.255070511494772
1708433270.5317597,-1.9853874444961548,-1.361940549021103,-2.5651560465442103,5.9508412955100916,1.0619699954986572,-3.2557740847217005
1708433270.5337586,-1.9842115640640259,-1.3621827226928254,-2.565352741871969,5.9496978400047205,1.0620660781860352,-3.256504837666647
1708433270.5357747,-1.9829543828964233,-1.362483025794365,-2.565476957951681,5.948561894684591,1.0621447563171387,-3.2572088877307337
1708433270.5377905,-1.9817429780960083,-1.3627460610917588,-2.5656121412860315,5.947466480522909,1.0622614622116089,-3.257874313985006
1708433270.5397618,-1.9805967807769775,-1.3629554522088547,-2.56577712694277,5.946363913803854,1.0623574256896973,-3.2586427370654505
1708433270.5417666,-1.979403018951416,-1.3632275623134156,-2.565901581441061,5.945301043778219,1.0624134540557861,-3.2593093554126185
1708433270.5437412,-1.978262186050415,-1.363508255486824,-2.56596285501589,5.944294202118673,1.0624691247940063,-3.25999099413027
1708433270.54577,-1.9770618677139282,-1.3636920613101502,-2.566115919743673,5.943207371025839,1.0625128746032715,-3.260723892842428
1708433270.547772,-1.975983738899231,-1.3640109908631821,-2.566195551549093,5.942148673325338,1.0625532865524292,-3.261418406163351
1708433270.5497584,-1.9748425483703613,-1.3642722976258774,-2.566289726887838,5.941110241204061,1.0626517534255981,-3.2621002832995813
1708433270.55178,-1.9737818241119385,-1.3644977819970627,-2.5663815180407923,5.940159427910604,1.0626133680343628,-3.2628336588488978
1708433270.553814,-1.972711443901062,-1.3647294801524659,-2.5664997736560267,5.93911765792922,1.0626704692840576,-3.263503615056173
1708433270.5557532,-1.971660852432251,-1.3649595391801377,-2.56654936472048,5.938178050308981,1.0626449584960938,-3.2641544977771204
1708433270.5577643,-1.9706016778945923,-1.3652694535306473,-2.566622797642843,5.93725215175704,1.0626418590545654,-3.264852825795309
1708433270.5597732,-1.9695459604263306,-1.3654948335937043,-2.5666452089892786,5.936309087067404,1.0625970363616943,-3.2655230204211634
1708433270.561774,-1.968467354774475,-1.3657142680934449,-2.5666917006122034,5.9353054640586755,1.0624862909317017,-3.266193930302755
1708433270.563767,-1.9674839973449707,-1.3659416747144242,-2.5667908827411097,5.934367286949911,1.0624632835388184,-3.266886059437887
1708433270.5657482,-1.9664976596832275,-1.3661598873189469,-2.566763703023092,5.933440911560812,1.0623836517333984,-3.2675653139697474
1708433270.567803,-1.9655039310455322,-1.3664032083800812,-2.5667830149279993,5.932506310730734,1.0622698068618774,-3.26831823984255
1708433270.5697472,-1.9645421504974365,-1.3666189026883622,-2.5668161551104944,5.931622612267294,1.062267780303955,-3.2689440886126917
1708433270.5718153,-1.9635403156280518,-1.3668580067208786,-2.5668612162219446,5.930762278824606,1.0622289180755615,-3.26954156557192
1708433270.5738297,-1.9625742435455322,-1.367098720078804,-2.5668492952929896,5.929872619896688,1.0620743036270142,-3.270201031361715
1708433270.5757763,-1.9615933895111084,-1.367270604973175,-2.5667951742755335,5.928940403252401,1.0620713233947754,-3.270831886922018
1708433270.5777678,-1.9606819152832031,-1.3675067287734528,-2.5668419043170374,5.928114402085104,1.061969518661499,-3.2715657393084925
1708433270.5797656,-1.959765911102295,-1.367750183945038,-2.566784683858053,5.92731653431014,1.0619347095489502,-3.2721710840808313
1708433270.5817966,-1.95879065990448,-1.3679896158031006,-2.5667277018176478,5.926506507187643,1.0619115829467773,-3.2727652231799524
1708433270.5837815,-1.957887887954712,-1.3682541114142914,-2.5666707197772425,5.925675499230184,1.0617899894714355,-3.273400608693258
1708433270.5857928,-1.9569966793060303,-1.3684395116618653,-2.5666196982013147,5.924933302193441,1.0616897344589233,-3.2740183512317103
1708433270.5878022,-1.9560573101043701,-1.3687082392028351,-2.5665717760669153,5.9241535542304895,1.0615812540054321,-3.274665180836813
1708433270.5898254,-1.9551782608032227,-1.3688817483237763,-2.5664756933795374,5.923453318863668,1.0614073276519775,-3.275351587926046
1708433270.5918198,-1.9542944431304932,-1.3690996331027527,-2.566432062779562,5.922738778382101,1.0613290071487427,-3.275944773350851
1708433270.5938241,-1.9534142017364502,-1.3693315547755738,-2.5663180986987513,5.922044741898336,1.061102271080017,-3.2766249815570276
1708433270.5958412,-1.9525833129882812,-1.3695962739041825,-2.5662837664233606,5.9213905213172815,1.0609354972839355,-3.277288262044088
1708433270.5978189,-1.951831340789795,-1.3698233377984543,-2.5661502520190638,5.920772897988119,1.06072199344635,-3.2778223196612757
1708433270.5998437,-1.9509958028793335,-1.3700268131545563,-2.5661278406726282,5.920064556389608,1.0604684352874756,-3.2784464995013636
1708433270.6018934,-1.9501590728759766,-1.3702823680690308,-2.5660813490497034,5.919394004135885,1.0603055953979492,-3.2789903322802942
1708433270.6038344,-1.949347972869873,-1.3704599154046555,-2.5659104029284876,5.9187201140220544,1.0600398778915405,-3.2795475164996546
1708433270.6057947,-1.9486502408981323,-1.3706212800792237,-2.565826479588644,5.918080198555746,1.059802532196045,-3.2801159063922327
1708433270.6077607,-1.9478613138198853,-1.3708455127528687,-2.565779987965719,5.917503940850057,1.0595368146896362,-3.280698362980978
1708433270.6097522,-1.9471303224563599,-1.371040017609932,-2.5656872431384485,5.9169829962547205,1.0593348741531372,-3.2812119166003626
1708433270.6117404,-1.9463447332382202,-1.3713180136731644,-2.5655697027789515,5.916371214180746,1.0590407848358154,-3.2817722002612513
1708433270.6137686,-1.9455816745758057,-1.3714853090098877,-2.565528217946188,5.915845858841696,1.0588014125823975,-3.2823131720172327
1708433270.615774,-1.9448567628860474,-1.3716752392104645,-2.56539756456484,5.915242540627279,1.0585613250732422,-3.282818380986349
1708433270.6177912,-1.9441033601760864,-1.3719008427909394,-2.565256420766012,5.91470347621993,1.0582878589630127,-3.28335410753359
1708433270.619761,-1.9434657096862793,-1.3720251631787796,-2.5652039686786097,5.914188492089071,1.058039903640747,-3.2838133017169397
1708433270.6217885,-1.942814826965332,-1.3722508263638993,-2.565115515385763,5.91371105888442,1.0577304363250732,-3.2843614260302942
1708433270.6237698,-1.9421100616455078,-1.3724210274270554,-2.564979139958517,5.913194525032797,1.057482123374939,-3.2848549524890345
1708433270.6257892,-1.9414739608764648,-1.3726737064174195,-2.564892117177145,5.912754642754354,1.0572142601013184,-3.2853997389422815
1708433270.6277616,-1.9407851696014404,-1.3728322994760056,-2.564800802861349,5.912184941559591,1.0569292306900024,-3.2858427206622522
1708433270.6297882,-1.9401226043701172,-1.3730935913375397,-2.564647976552145,5.911770689278402,1.0566374063491821,-3.2863343397723597
1708433270.6317747,-1.9395476579666138,-1.3732899141362687,-2.5645139853106897,5.911373483925619,1.0563279390335083,-3.2868431250201624
1708433270.6337876,-1.938912034034729,-1.3734378081611176,-2.5643537680255335,5.910942423134603,1.056056022644043,-3.287253443394796
1708433270.6358078,-1.938294768333435,-1.37361694992099,-2.5642593542682093,5.9105636952217,1.0557881593704224,-3.287701670323507
1708433270.6377776,-1.9377503395080566,-1.373763532643654,-2.564127270375387,5.910230028420248,1.0554864406585693,-3.288198534642355
1708433270.6397727,-1.9370964765548706,-1.3739413929036637,-2.5639095942126673,5.909830438881674,1.0552594661712646,-3.2885704676257532
1708433270.6417508,-1.9365302324295044,-1.3742108058980484,-2.5637944380389612,5.909471261292257,1.0549858808517456,-3.289035145436422
1708433270.643761,-1.9359372854232788,-1.3744280350259324,-2.563605610524313,5.90919719913558,1.054718017578125,-3.289515797291891
1708433270.6457627,-1.9354472160339355,-1.3746499729207535,-2.563462797795431,5.908795940666952,1.0543506145477295,-3.2899509111987513
1708433270.6477523,-1.9348714351654053,-1.3747825932553788,-2.5632696787463587,5.908481824188986,1.054078221321106,-3.2903831640826624
1708433270.649777,-1.9343149662017822,-1.3750074964812775,-2.5631750265704554,5.908219802170553,1.0538194179534912,-3.2908147017108362
1708433270.6517634,-1.9337801933288574,-1.3751619023135682,-2.56296950975527,5.90788625457839,1.0534785985946655,-3.291205946599142
1708433270.6537678,-1.9332984685897827,-1.3754029882005234,-2.5628019014941614,5.907664882927694,1.053194284439087,-3.2915928999530237
1708433270.6557722,-1.9327967166900635,-1.375552700167038,-2.562707010899679,5.907387959748068,1.0528695583343506,-3.292029921208517
1708433270.6577935,-1.9322893619537354,-1.3756830555251618,-2.5625227133380335,5.907194840698995,1.0524994134902954,-3.292365376149313
1708433270.659757,-1.9318264722824097,-1.3759447497180481,-2.5623415152179163,5.906921970635214,1.052187442779541,-3.292757574711935
1708433270.6617842,-1.9313751459121704,-1.3761186313680192,-2.5621567408191126,5.906732070236959,1.0518423318862915,-3.2931581179248255
1708433270.6637576,-1.9309190511703491,-1.3763069969466706,-2.562031094227926,5.906592833786764,1.0515294075012207,-3.293525282536642
1708433270.6657817,-1.930430293083191,-1.3765245539001008,-2.5618613401996058,5.906389105110922,1.0512019395828247,-3.293896738682882
1708433270.6677625,-1.9300205707550049,-1.376731352215149,-2.561718765889303,5.906188833504476,1.0509101152420044,-3.2942736784564417
1708433270.6697743,-1.929566740989685,-1.3768938195756455,-2.5615347067462366,5.906025755196371,1.0506019592285156,-3.294621292744772
1708433270.6717992,-1.9291996955871582,-1.3770870131305237,-2.5613508860217493,5.90592251995162,1.0502879619598389,-3.294919554387228
1708433270.6737587,-1.9287508726119995,-1.377256692653038,-2.5611589590655726,5.905775534897604,1.0500158071517944,-3.295283381138937
1708433270.675754,-1.9283469915390015,-1.377478004699089,-2.5610044638263147,5.905753004341879,1.049665927886963,-3.295631710683004
1708433270.6777542,-1.9279096126556396,-1.3777147990516205,-2.5608392397509974,5.905616748123922,1.0493743419647217,-3.2959352175342005
1708433270.679756,-1.92756986618042,-1.3778689515641709,-2.5606473127948206,5.905606257706442,1.049110770225525,-3.296246592198507
