Eg3-git/Classifiers/Data Collection/u1/u1abc5_ur3e_joint_states.csv
time,elbow_joint,shoulder_lift_joint,shoulder_pan_joint,wrist_1_joint,wrist_2_joint,wrist_3_joint
1708433314.308184,-2.157238483428955,-1.3363335889628907,-2.5186901728259485,6.141687261849203,1.002402663230896,-2.2863500753985804
1708433314.3101213,-2.157259702682495,-1.336296336059906,-2.5186737219439905,6.141691791802206,1.0024685859680176,-2.286304537449972
1708433314.312169,-2.157238483428955,-1.3363498759320755,-2.5186649004565638,6.141679870873251,1.0024070739746094,-2.2863131205188196
1708433314.3141367,-2.157243013381958,-1.336312623029091,-2.5186496416675013,6.141712534218588,1.0024027824401855,-2.2863338629352015
1708433314.3161478,-2.1572554111480713,-1.3363586825183411,-2.5187113920794886,6.141745674401083,1.002419114112854,-2.2862816492663782
1708433314.318164,-2.157233953475952,-1.3363705736449738,-2.5187159220324915,6.141715872078695,1.0024521350860596,-2.2863009611712855
1708433314.3201373,-2.157235860824585,-1.336382434969284,-2.518693272267477,6.141691791802206,1.002402663230896,-2.2863219420062464
1708433314.322121,-2.157243013381958,-1.336386890416481,-2.5186737219439905,6.141708123474874,1.0024354457855225,-2.2863174120532435
1708433314.3241289,-2.1571896076202393,-1.3363423955491562,-2.5186827818499964,6.141760456352987,1.0024116039276123,-2.2862475554095667
1708433314.3261216,-2.1571898460388184,-1.3363214296153565,-2.5186570326434534,6.141724812775411,1.002407193183899,-2.2862847487079065
1708433314.3281305,-2.157259702682495,-1.3363423955491562,-2.5186660925494593,6.141691791802206,1.0024116039276123,-2.286276165639059
1708433314.330158,-2.1572110652923584,-1.3363214296153565,-2.5186737219439905,6.141696202545919,1.0024443864822388,-2.286293331776754
1708433314.3321223,-2.1572518348693848,-1.3363257956555863,-2.5186901728259485,6.141673910408773,1.002402663230896,-2.2862685362445276
1708433314.3341563,-2.157243013381958,-1.3363169741681595,-2.5186992327319544,6.141745674401083,1.0024443864822388,-2.2863174120532435
1708433314.33613,-2.157259941101074,-1.3363335889628907,-2.5186856428729456,6.141736614495077,1.0024354457855225,-2.2862356344806116
1708433314.338117,-2.157247543334961,-1.336301938896515,-2.5186992327319544,6.14174114444808,1.0023666620254517,-2.286309782658712
1708433314.3401117,-2.157268762588501,-1.336363048558571,-2.5186570326434534,6.141696202545919,1.0024279356002808,-2.2863052527057093
1708433314.3421159,-2.157231569290161,-1.3363586825183411,-2.5186856428729456,6.1416827318962,1.0024043321609497,-2.286285940800802
1708433314.3441637,-2.157240390777588,-1.3363380444100876,-2.5186827818499964,6.141712534218588,1.0024235248565674,-2.2862771193133753
1708433314.3461208,-2.157227039337158,-1.3363257956555863,-2.5187113920794886,6.141762006073751,1.0024206638336182,-2.2862890402423304
1708433314.3481293,-2.1572065353393555,-1.3363543164781113,-2.5186737219439905,6.141663181572714,1.002390742301941,-2.286309544240133
1708433314.3501182,-2.1572067737579346,-1.336312623029091,-2.5186525026904505,6.141703593521871,1.0024279356002808,-2.2862771193133753
1708433314.3521466,-2.157233953475952,-1.3363292229226609,-2.5186482111560267,6.14174114444808,1.0024280548095703,-2.286253039036886
1708433314.3542385,-2.1572225093841553,-1.3363051426461716,-2.5186737219439905,6.141696202545919,1.0024476051330566,-2.2863174120532435
1708433314.3561697,-2.1572110652923584,-1.336330161695816,-2.5186286608325403,6.141756045609274,1.0023695230484009,-2.2862401644336146
1708433314.358137,-2.1572110652923584,-1.3363543164781113,-2.5186827818499964,6.141696202545919,1.002390742301941,-2.286231342946188
1708433314.3601434,-2.157243013381958,-1.336284415130951,-2.5186496416675013,6.141708123474874,1.0024070739746094,-2.2862771193133753
1708433314.36213,-2.157259941101074,-1.3363248121789475,-2.5186570326434534,6.141699182778158,1.002386212348938,-2.2862563768969935
1708433314.3641536,-2.157243013381958,-1.3363095086864014,-2.5186525026904505,6.141687261849203,1.0023785829544067,-2.2862804571734827
1708433314.3661256,-2.157177448272705,-1.3362769347480317,-2.5186873118029993,6.141679751663961,1.0023996829986572,-2.2862563768969935
1708433314.368196,-2.1571807861328125,-1.3363051575473328,-2.5186947027789515,6.141694652825155,1.0023784637451172,-2.2862563768969935
1708433314.3701694,-2.1572136878967285,-1.3363169741681595,-2.5186992327319544,6.14174114444808,1.0023952722549438,-2.2862444559680384
1708433314.372153,-2.1571807861328125,-1.336374969487526,-2.5186615625964563,6.141691791802206,1.0023952722549438,-2.2862606684314173
1708433314.374124,-2.1572022438049316,-1.3363380444100876,-2.5186615625964563,6.141678321152487,1.0023576021194458,-2.2862444559680384
1708433314.376136,-2.1572225093841553,-1.3363335889628907,-2.5186782518969935,6.141745674401083,1.0023952722549438,-2.286285940800802
1708433314.3781154,-2.1572508811950684,-1.3363126528314133,-2.518654171620504,6.141745674401083,1.0023863315582275,-2.2862606684314173
1708433314.3801422,-2.1572508811950684,-1.3363586229136963,-2.5186827818499964,6.141745674401083,1.0024160146713257,-2.2862520853625696
1708433314.382116,-2.1571898460388184,-1.336268128161766,-2.5186496416675013,6.141762006073751,1.0024443864822388,-2.286253039036886
1708433314.3841422,-2.157227039337158,-1.336330161695816,-2.5186782518969935,6.141732322960653,1.0023952722549438,-2.2862563768969935
1708433314.3861527,-2.1571853160858154,-1.3363007021001359,-2.5186992327319544,6.1417202828224084,1.002390742301941,-2.2862280050860804
1708433314.388113,-2.157194137573242,-1.3362919700196763,-2.5187068621264856,6.141700613289633,1.0024206638336182,-2.286306444798605
1708433314.3901105,-2.1572136878967285,-1.3363586825183411,-2.5187113920794886,6.141700613289633,1.0023829936981201,-2.2862771193133753
1708433314.3921084,-2.157231569290161,-1.3363169741681595,-2.5186405817614954,6.141716944962301,1.002407193183899,-2.286248747502462
1708433314.3941324,-2.157198667526245,-1.3363706034472962,-2.5186827818499964,6.141663181572714,1.0024116039276123,-2.2862401644336146
1708433314.3961766,-2.157240390777588,-1.3363138747266312,-2.5187035242663782,6.141712534218588,1.0023829936981201,-2.2862935701953333
1708433314.3981624,-2.157181739807129,-1.3362713170102616,-2.5186317602740687,6.141658651619711,1.0023784637451172,-2.286269251500265
1708433314.400154,-2.1572155952453613,-1.3363423657468338,-2.5186660925494593,6.141658651619711,1.0023952722549438,-2.286248747502462
1708433314.4021688,-2.157172918319702,-1.3362876039794465,-2.5186947027789515,6.141696202545919,1.0024206638336182,-2.2862444559680384
1708433314.4042175,-2.157203197479248,-1.3363214296153565,-2.5187159220324915,6.141733753472128,1.0024042129516602,-2.2862072626696985
1708433314.4061868,-2.1571898460388184,-1.3363214147141953,-2.518696133290426,6.141691791802206,1.0024042129516602,-2.286253039036886
1708433314.4081655,-2.157181739807129,-1.3362919700196763,-2.5186782518969935,6.141687261849203,1.0024206638336182,-2.2862444559680384
1708433314.4102194,-2.157203197479248,-1.336284415130951,-2.5186496416675013,6.141675340920248,1.0023829936981201,-2.286253039036886
1708433314.4122021,-2.157198667526245,-1.3363257956555863,-2.5187023321734827,6.141712534218588,1.0024369955062866,-2.2861996332751673
1708433314.4141872,-2.1572201251983643,-1.3363423955491562,-2.5186570326434534,6.141712534218588,1.0024042129516602,-2.2862401644336146
1708433314.4161978,-2.157198667526245,-1.336338834171631,-2.5186947027789515,6.141580927162924,1.0023996829986572,-2.2862444559680384
1708433314.418142,-2.157195568084717,-1.3363302213004609,-2.5187247435199183,6.141709673195638,1.0023996829986572,-2.286232296620504
1708433314.4201417,-2.157148838043213,-1.336312623029091,-2.5186873118029993,6.141643869667806,1.0024161338806152,-2.2862563768969935
1708433314.4221883,-2.1572065353393555,-1.3363214296153565,-2.5186660925494593,6.141582476883688,1.0023829936981201,-2.286306444798605
1708433314.4241452,-2.157161235809326,-1.3363543164781113,-2.518654171620504,6.141640889435568,1.0023952722549438,-2.2862444559680384
1708433314.426213,-2.157207727432251,-1.336312623029091,-2.5187023321734827,6.141657221108236,1.0023996829986572,-2.2862771193133753
1708433314.4281693,-2.1571943759918213,-1.3363999289325257,-2.518654171620504,6.14164828041152,1.0023952722549438,-2.286269251500265
1708433314.4301174,-2.157203197479248,-1.336318240766861,-2.5186660925494593,6.141628610878744,1.0023410320281982,-2.286248747502462
1708433314.4321225,-2.1572563648223877,-1.3363007021001359,-2.5186947027789515,6.141697752266683,1.0023740530014038,-2.286248747502462
1708433314.434104,-2.157186269760132,-1.3362932217172165,-2.5187233130084437,6.141586887627401,1.0024116039276123,-2.286302153264181
1708433314.436123,-2.157198667526245,-1.3363007021001359,-2.5187159220324915,6.141645300179281,1.0024116039276123,-2.28625733057131
1708433314.4382102,-2.1571907997131348,-1.3363345128348847,-2.5186827818499964,6.1416780827339075,1.0024206638336182,-2.2862356344806116
1708433314.4401639,-2.157207727432251,-1.3362975877574463,-2.5186901728259485,6.141607868462362,1.0024205446243286,-2.286253039036886
1708433314.442122,-2.157179355621338,-1.336290032868721,-2.518654171620504,6.141652691155233,1.0023952722549438,-2.286273781453268
1708433314.4441025,-2.1571907997131348,-1.3362975877574463,-2.5186901728259485,6.141652691155233,1.0024235248565674,-2.286264959965841
1708433314.446154,-2.1572155952453613,-1.3362800490907212,-2.5186408201800745,6.1416242001350305,1.0023621320724487,-2.286240879689352
1708433314.4481354,-2.157165765762329,-1.336300717001297,-2.5186525026904505,6.141666161804952,1.002366542816162,-2.2862280050860804
1708433314.450105,-2.1571624279022217,-1.3363169741681595,-2.5186947027789515,6.141595947533407,1.002390742301941,-2.2862444559680384
1708433314.4521081,-2.1572155952453613,-1.336330161695816,-2.5186570326434534,6.141670572548666,1.0023996829986572,-2.286232296620504
1708433314.4541748,-2.1571898460388184,-1.3363511276296158,-2.5187035242663782,6.1416616318519495,1.0023576021194458,-2.286253039036886
1708433314.4561527,-2.157198667526245,-1.3363511276296158,-2.5186901728259485,6.141610848694601,1.0023784637451172,-2.2862280050860804
1708433314.4581425,-2.157179355621338,-1.3363051426461716,-2.5186615625964563,6.141584026604452,1.0024206638336182,-2.286248747502462
1708433314.4601529,-2.157207727432251,-1.3363095086864014,-2.5186496416675013,6.141595947533407,1.0024296045303345,-2.286232296620504
1708433314.462128,-2.157195568084717,-1.3363423955491562,-2.5186496416675013,6.141586887627401,1.0024324655532837,-2.286269251500265
1708433314.4641156,-2.157212257385254,-1.336363048558571,-2.5186660925494593,6.14160035827712,1.0024116039276123,-2.286306444798605
1708433314.4661345,-2.1571714878082275,-1.3363345128348847,-2.5187068621264856,6.141595947533407,1.0024279356002808,-2.286220375691549
1708433314.4681406,-2.157179355621338,-1.336318240766861,-2.5186405817614954,6.141633140831747,1.0024324655532837,-2.2862280050860804
1708433314.4701843,-2.157233715057373,-1.3363095086864014,-2.5186362902270716,6.141649830132284,1.0023996829986572,-2.2862823645221155
1708433314.4721723,-2.1571907997131348,-1.3362650138190766,-2.5186660925494593,6.141595947533407,1.002407193183899,-2.286269251500265
1708433314.4741163,-2.1571409702301025,-1.3362844002297898,-2.5186615625964563,6.141562807350912,1.0024443864822388,-2.28620416322817
1708433314.476114,-2.157153367996216,-1.3362800490907212,-2.5186901728259485,6.141633140831747,1.0024235248565674,-2.286248747502462
1708433314.4780982,-2.1571578979492188,-1.3363051426461716,-2.5187230745898646,6.141579496651449,1.0023784637451172,-2.286269251500265
1708433314.4800906,-2.1571457386016846,-1.3363292229226609,-2.5186992327319544,6.141625749855795,1.0024042129516602,-2.2862780729876917
1708433314.482108,-2.157179355621338,-1.3363051426461716,-2.5186947027789515,6.141592967301168,1.0024369955062866,-2.2862780729876917
1708433314.4840987,-2.1571409702301025,-1.3363051426461716,-2.5186947027789515,6.141559946327963,1.0024042129516602,-2.286220375691549
1708433314.4861093,-2.1571669578552246,-1.3363225621036072,-2.5187023321734827,6.141588437348165,1.0024160146713257,-2.286240879689352
1708433314.4881282,-2.1571669578552246,-1.3363051426461716,-2.5186782518969935,6.141567337303915,1.0024160146713257,-2.28625733057131
1708433314.4901097,-2.157174825668335,-1.3363335889628907,-2.518670622502462,6.1416019079978845,1.0024116039276123,-2.2862117926227015
1708433314.49212,-2.157179355621338,-1.3363051426461716,-2.518670622502462,6.141584026604452,1.0024206638336182,-2.286245409642355
1708433314.4941208,-2.1571953296661377,-1.3363138747266312,-2.5186947027789515,6.14160035827712,1.0024206638336182,-2.2862332502948206
1708433314.496192,-2.157179355621338,-1.3363511276296158,-2.5186570326434534,6.141616689949789,1.0024369955062866,-2.286187473927633
1708433314.4981668,-2.1571409702301025,-1.336268128161766,-2.5186408201800745,6.1415806887443445,1.0024324655532837,-2.286220375691549
1708433314.5001504,-2.157183885574341,-1.3363380444100876,-2.5187113920794886,6.141568767815389,1.0024279356002808,-2.28619629541506
1708433314.5021307,-2.1571884155273438,-1.3362813007882615,-2.5186660925494593,6.141571748047628,1.0024116039276123,-2.286240879689352
1708433314.5041575,-2.1571884155273438,-1.336268128161766,-2.5186901728259485,6.141576278000631,1.002407193183899,-2.2861550490008753
1708433314.5062327,-2.1571385860443115,-1.3362769347480317,-2.5186408201800745,6.1415806887443445,1.0023996829986572,-2.286208454762594
1708433314.508142,-2.1571545600891113,-1.336268128161766,-2.5186660925494593,6.141576278000631,1.0024279356002808,-2.2861886660205286
1708433314.51017,-2.157179355621338,-1.3362856668284913,-2.5186827818499964,6.141585218697347,1.0024324655532837,-2.2862215677844446
1708433314.512137,-2.1571297645568848,-1.33628565192733,-2.5186782518969935,6.141568767815389,1.002457857131958,-2.2862213293658655
1708433314.5141325,-2.1571760177612305,-1.3363051426461716,-2.518670622502462,6.141540515213766,1.0024280548095703,-2.286147181187765
1708433314.5161614,-2.1571714878082275,-1.3362932217172165,-2.5187035242663782,6.14155529716567,1.0024610757827759,-2.2861514727221888
1708433314.518145,-2.1571500301361084,-1.3362769347480317,-2.5186901728259485,6.141582238465109,1.0024160146713257,-2.286159340535299
1708433314.5202239,-2.157174825668335,-1.336318240766861,-2.5187323729144495,6.141527163773336,1.0024206638336182,-2.286163632069723
1708433314.5221663,-2.1571500301361084,-1.3362769347480317,-2.5186827818499964,6.141523825913229,1.0024116039276123,-2.2862334887133997
1708433314.5241117,-2.157118082046509,-1.3362769943526764,-2.5186856428729456,6.141516434937277,1.002390742301941,-2.2862258593188685
1708433314.5261304,-2.1571500301361084,-1.3362637621215363,-2.5186901728259485,6.141527044564047,1.0024324655532837,-2.286168162022726
1708433314.528119,-2.1571431159973145,-1.336363048558571,-2.5186570326434534,6.141553985863485,1.0024398565292358,-2.2861602942096155
1708433314.5301204,-2.1571714878082275,-1.3363345128348847,-2.5186570326434534,6.1415361044700525,1.0024324655532837,-2.28613526025881
1708433314.5321207,-2.1571669578552246,-1.336293251519539,-2.5186660925494593,6.141446220665731,1.0024116039276123,-2.2861483732806605
1708433314.5341518,-2.1571578979492188,-1.3363423955491562,-2.5187023321734827,6.141549455910482,1.0024160146713257,-2.2861362139331263
1708433314.5361512,-2.157174825668335,-1.3363269579461594,-2.5186782518969935,6.141492354660787,1.0023951530456543,-2.2861810366259974
1708433314.538157,-2.1571316719055176,-1.336330161695816,-2.5186615625964563,6.141500103264608,1.0024521350860596,-2.2861483732806605
1708433314.5401292,-2.1571340560913086,-1.336272583608963,-2.5186901728259485,6.141541826515951,1.0023996829986572,-2.2861645857440394
1708433314.5421107,-2.1571316719055176,-1.3363138747266312,-2.5187023321734827,6.141570317536154,1.0023829936981201,-2.286168877278463
1708433314.5440993,-2.157122850418091,-1.3363019537976761,-2.5186918417560022,6.141443121224203,1.0024042129516602,-2.2861526648150843
1708433314.5461133,-2.157118320465088,-1.3363257956555863,-2.5186496416675013,6.141513454705038,1.0023695230484009,-2.2861645857440394
1708433314.5481098,-2.1571431159973145,-1.3362975877574463,-2.5186482111560267,6.141480433731832,1.0024042129516602,-2.2861929575549524
1708433314.5501132,-2.1571590900421143,-1.3362737458995362,-2.5186947027789515,6.141500103264608,1.0023784637451172,-2.2861767450915735
1708433314.5521297,-2.1571929454803467,-1.336318240766861,-2.5186947027789515,6.14142523983077,1.0023952722549438,-2.286185328160421
1708433314.5541482,-2.1571500301361084,-1.3363019537976761,-2.5186570326434534,6.141443240433492,1.0023996829986572,-2.286156956349508
1708433314.556176,-2.1571545600891113,-1.3362932217172165,-2.5186827818499964,6.141468512802877,1.0024116039276123,-2.2861645857440394
1708433314.5581515,-2.1571929454803467,-1.336325765853264,-2.5186691919909876,6.141496765404501,1.0024235248565674,-2.2861273924456995
1708433314.5601583,-2.1571884155273438,-1.3363225919059296,-2.518670622502462,6.141492354660787,1.0024235248565674,-2.2861602942096155
1708433314.5621352,-2.157151937484741,-1.3362975877574463,-2.5186408201800745,6.141476022988119,1.0024279356002808,-2.286189619694845
1708433314.5641434,-2.157151937484741,-1.336248741751053,-2.5186408201800745,6.141461121826925,1.0023996829986572,-2.2861035505877894
1708433314.5661519,-2.1571500301361084,-1.336318240766861,-2.5186660925494593,6.141465532570638,1.0023952722549438,-2.286168877278463
1708433314.5681326,-2.1571226119995117,-1.3363138747266312,-2.5186408201800745,6.141395318299093,1.0024070739746094,-2.2861362139331263
1708433314.5701773,-2.1571972370147705,-1.3363432449153443,-2.5186496416675013,6.141444432526388,1.0023577213287354,-2.286132876073019
1708433314.5722227,-2.157172203063965,-1.3363511276296158,-2.5186660925494593,6.141423451691427,1.0024309158325195,-2.286124293004171
1708433314.57415,-2.1571476459503174,-1.3363225919059296,-2.5186856428729456,6.1414071200187585,1.002402663230896,-2.2861526648150843
1708433314.5761466,-2.1570990085601807,-1.336211473946907,-2.5186827818499964,6.141383039742269,1.002390742301941,-2.286091391240255
1708433314.5781467,-2.1571226119995117,-1.3363511276296158,-2.5186615625964563,6.141441452294149,1.0024070739746094,-2.2860949675189417
1708433314.5801647,-2.1571590900421143,-1.3362932217172165,-2.5186827818499964,6.141436922341146,1.0024116039276123,-2.2861536184894007
1708433314.582136,-2.1571271419525146,-1.3363095086864014,-2.5186570326434534,6.141404258995809,1.0024116039276123,-2.2861209551440638
1708433314.5841439,-2.1571271419525146,-1.336306319837906,-2.5186615625964563,6.141432511597433,1.0024116039276123,-2.286144797001974
1708433314.5861394,-2.1571292877197266,-1.336260662680008,-2.5186570326434534,6.141353237419882,1.0024235248565674,-2.2861252466784876
1708433314.5881553,-2.1570944786071777,-1.3362932217172165,-2.5187531153308313,6.141425001412191,1.0023952722549438,-2.2861819903003138
1708433314.5901134,-2.1571590900421143,-1.3362888556769867,-2.5186992327319544,6.141474473267355,1.0023829936981201,-2.286128584538595
1708433314.5921268,-2.1571316719055176,-1.3362737458995362,-2.5186737219439905,6.1413845894630334,1.0024398565292358,-2.2861252466784876
1708433314.5940874,-2.1570775508880615,-1.336278111939766,-2.5186873118029993,6.141372668534078,1.0024279356002808,-2.2861209551440638
1708433314.5961418,-2.1571316719055176,-1.3362574589303513,-2.518654171620504,6.141360747605123,1.0023996829986572,-2.2861295382129114
1708433314.5981488,-2.1571078300476074,-1.3362574589303513,-2.5186408201800745,6.141368257790365,1.002419114112854,-2.286088291798727
1708433314.6001692,-2.1571033000946045,-1.336272583608963,-2.5186451117144983,6.141405451088705,1.0024116039276123,-2.286088291798727
1708433314.602191,-2.1571338176727295,-1.3363138747266312,-2.518637720738546,6.1413845894630334,1.0023621320724487,-2.2861011664019983
1708433314.6041923,-2.1570944786071777,-1.3362574589303513,-2.5186827818499964,6.141344058304586,1.0024116039276123,-2.2860968748675745
1708433314.6061351,-2.1571359634399414,-1.3363432449153443,-2.5186451117144983,6.141360747605123,1.0024160146713257,-2.2861502806292933
1708433314.6081536,-2.1571316719055176,-1.336306319837906,-2.518670622502462,6.141323196678915,1.0024279356002808,-2.2861056963550013
1708433314.6102066,-2.1570820808410645,-1.3362943989089509,-2.5186570326434534,6.14135633686141,1.0024206638336182,-2.2860849539386194
1708433314.6122067,-2.157090902328491,-1.336211473946907,-2.5186570326434534,6.141339647560873,1.0024279356002808,-2.2860806624041956
1708433314.6141622,-2.1571247577667236,-1.3362237227014084,-2.5186660925494593,6.141363727837362,1.0024160146713257,-2.2860685030566614
1708433314.6162014,-2.1571404933929443,-1.336290032868721,-2.518670622502462,6.141302454262533,1.0023952722549438,-2.2860599199878138
1708433314.6181402,-2.1571316719055176,-1.336290032868721,-2.5186451117144983,6.141378628998556,1.0024354457855225,-2.286138359700338
1708433314.6201303,-2.1570749282836914,-1.3362824481776734,-2.5186286608325403,6.14135633686141,1.0024116039276123,-2.2860313097583216
1708433314.622116,-2.1570866107940674,-1.3362856668284913,-2.518654171620504,6.141354548722067,1.0024116039276123,-2.2860193888293665
1708433314.6241622,-2.1570820808410645,-1.3362769794515152,-2.5186827818499964,6.141320335655966,1.0024279356002808,-2.2860401312457483
1708433314.6261768,-2.157090902328491,-1.3362246465734025,-2.5186660925494593,6.141324746399679,1.0023951530456543,-2.2860522905932825
1708433314.6281793,-2.1570990085601807,-1.3362824779799958,-2.518670622502462,6.141350137978353,1.0023784637451172,-2.2860313097583216
1708433314.6300936,-2.1571033000946045,-1.3362780970386048,-2.5186198393451136,6.14132176616744,1.0024324655532837,-2.2859867254840296
1708433314.6321127,-2.157090902328491,-1.336261824970581,-2.5186331907855433,6.141333806305685,1.0024070739746094,-2.286081377659933
1708433314.6340797,-2.1571123600006104,-1.3362587106278916,-2.5186947027789515,6.141296136170187,1.0023908615112305,-2.2860236803637903
1708433314.636153,-2.157100200653076,-1.3362824779799958,-2.5186496416675013,6.141272413521566,1.0024116039276123,-2.2860401312457483
1708433314.6381073,-2.1570885181427,-1.3362693798593064,-2.518675152455465,6.141270863800802,1.0024116039276123,-2.286114279423849
1708433314.6401143,-2.1570885181427,-1.3363106709769745,-2.5186615625964563,6.141272413521566,1.0024042129516602,-2.286041323338644
1708433314.6421397,-2.1570792198181152,-1.336232454781868,-2.5186331907855433,6.14130066612319,1.002408742904663,-2.286004130040304
1708433314.6441112,-2.1570749282836914,-1.3362411719611664,-2.5186360518084925,6.141305076866903,1.0024116039276123,-2.2860282103167933
1708433314.6461136,-2.1570546627044678,-1.336248741751053,-2.5186451117144983,6.14132188537673,1.0024116039276123,-2.28599983850588
1708433314.648087,-2.1570792198181152,-1.3362499338439484,-2.518654171620504,6.1412932751472376,1.0023863315582275,-2.286081616078512
1708433314.650081,-2.157076120376587,-1.336278111939766,-2.5186451117144983,6.14132176616744,1.002402663230896,-2.286048714314596
1708433314.6521173,-2.157076120376587,-1.3362869185260315,-2.5187204519854944,6.141267883568563,1.0023996829986572,-2.2859790960894983
1708433314.654145,-2.157099962234497,-1.3362411719611664,-2.5186496416675013,6.141297685890951,1.0023952722549438,-2.2859790960894983
1708433314.6561644,-2.1570839881896973,-1.3362530928901215,-2.518654171620504,6.1412768242652795,1.0024206638336182,-2.285980288182394
1708433314.6581523,-2.157067060470581,-1.3362368208220978,-2.518658701573507,6.141255724221029,1.0024161338806152,-2.2859953085528772
1708433314.6601841,-2.157067060470581,-1.3362987500480195,-2.518670622502462,6.1412768242652795,1.0024415254592896,-2.285987917576925
1708433314.662137,-2.157109022140503,-1.3362289381078263,-2.518675152455465,6.141302215843954,1.0024116039276123,-2.2859965006457728
1708433314.6641355,-2.1570637226104736,-1.3362455380013962,-2.5186660925494593,6.14121555069045,1.0023829936981201,-2.286004130040304
1708433314.6661308,-2.1570546627044678,-1.3362900179675599,-2.5186451117144983,6.141248333245077,1.002390742301941,-2.285987917576925
1708433314.6682012,-2.157038688659668,-1.33626181006942,-2.5186451117144983,6.141227352410116,1.0024250745773315,-2.286016289387838
1708433314.6701512,-2.157034397125244,-1.3362455380013962,-2.5186570326434534,6.14122890213088,1.0023711919784546,-2.286008421574728
1708433314.6721225,-2.157109022140503,-1.3362126511386414,-2.518667523060934,6.14122890213088,1.0024324655532837,-2.2860258261310022
1708433314.6741128,-2.157043218612671,-1.3362280887416382,-2.518654171620504,6.141261565476217,1.0024116039276123,-2.2860007921801966
1708433314.6761308,-2.157034397125244,-1.3362126511386414,-2.5186496416675013,6.141219961434164,1.0024042129516602,-2.2860170046435755
1708433314.678092,-2.157097339630127,-1.336261824970581,-2.518621031438009,6.141264664917745,1.0024042129516602,-2.2860291639911097
1708433314.6801062,-2.157047748565674,-1.3362987500480195,-2.518670622502462,6.141236412316122,1.0024116039276123,-2.286008421574728
1708433314.6821198,-2.1570794582366943,-1.3362332892468949,-2.5186827818499964,6.141249882965841,1.002387523651123,-2.2860096136676233
1708433314.6840909,-2.157043218612671,-1.336205170755722,-2.5186660925494593,6.141237842827596,1.0023996829986572,-2.285971466694967
1708433314.68611,-2.157097339630127,-1.3362245720675965,-2.518670622502462,6.141212212830343,1.0024116039276123,-2.2860170046435755
1708433314.6880918,-2.157097339630127,-1.3362377446940918,-2.518712584172384,6.141212212830343,1.0024042129516602,-2.2859845797168177
1708433314.6900926,-2.157034397125244,-1.3362508875182648,-2.518637720738546,6.141213762551107,1.0023829936981201,-2.2860007921801966
1708433314.69214,-2.1570885181427,-1.3362258237651368,-2.51858359972109,6.141216742783346,1.0023666620254517,-2.285959307347433
1708433314.6941094,-2.1570804119110107,-1.3362170171788712,-2.5186570326434534,6.141176569252767,1.0024160146713257,-2.2859635988818567
1708433314.6961672,-2.15704083442688,-1.3362007302096863,-2.518654171620504,6.1411839602287195,1.0024042129516602,-2.2860456148730677
1708433314.6981556,-2.15708065032959,-1.3362421107343216,-2.5186331907855433,6.141195881157675,1.0024042129516602,-2.2860007921801966
1708433314.7001235,-2.1570894718170166,-1.336230219607689,-2.518670622502462,6.141188370972433,1.0023711919784546,-2.285947386418478
1708433314.7021284,-2.157047748565674,-1.3362630766681214,-2.518637720738546,6.141242372780599,1.002375602722168,-2.28593880334963
1708433314.7041728,-2.1570637226104736,-1.3362706315568467,-2.518654171620504,6.141201841622152,1.0024086236953735,-2.285963837300436
1708433314.7061412,-2.1570682525634766,-1.3362587106278916,-2.518625561391012,6.1412497637565515,1.002366542816162,-2.2859519163714808
1708433314.708134,-2.1570894718170166,-1.3362455380013962,-2.51866323152651,6.141204821854391,1.0024042129516602,-2.2859681288348597
1708433314.710149,-2.1570851802825928,-1.3362332892468949,-2.5186451117144983,6.14115987995223,1.002375602722168,-2.2859681288348597
1708433314.712138,-2.1570591926574707,-1.3362332743457337,-2.518642250691549,6.141191351204672,1.002387523651123,-2.2859724203692835
1708433314.714126,-2.1570849418640137,-1.3362258237651368,-2.51866323152651,6.141150939255514,1.0023784637451172,-2.285947386418478
1708433314.7161474,-2.1570184230804443,-1.336249904041626,-2.518621031438009,6.14121829250411,1.0023634433746338,-2.2859681288348597
1708433314.7181582,-2.157047748565674,-1.3362258237651368,-2.518637720738546,6.141185509949484,1.002387523651123,-2.2860170046435755
1708433314.7201738,-2.157006025314331,-1.3362301898053666,-2.518625561391012,6.141164290695944,1.002349853515625,-2.285980288182394
1708433314.722139,-2.1570804119110107,-1.336221457724907,-2.518613640462057,6.141147959023275,1.0023996829986572,-2.2860093752490442
1708433314.7240915,-2.15704083442688,-1.3362912845662613,-2.518646780644552,6.141230094223776,1.0023589134216309,-2.2860258261310022
1708433314.7260947,-2.157010316848755,-1.336266191010811,-2.518672291432516,6.141180979996481,1.0023167133331299,-2.2860291639911097
1708433314.7280912,-2.157031774520874,-1.3362019819072266,-2.518625561391012,6.141209232598104,1.0023589134216309,-2.2859965006457728
1708433314.730088,-2.15702748298645,-1.3362464767745514,-2.518622700368063,6.141164290695944,1.0023471117019653,-2.285963837300436
1708433314.7321303,-2.157015085220337,-1.336261824970581,-2.5185568968402308,6.141176569252767,1.0023257732391357,-2.285980288182394
1708433314.734085,-2.1570894718170166,-1.3361888986876984,-2.5185657183276575,6.141176569252767,1.002343773841858,-2.2860050837146204
1708433314.7361214,-2.157047748565674,-1.3362126511386414,-2.5186150709735315,6.141213762551107,1.0023348331451416,-2.2860172430621546
1708433314.7380788,-2.157047748565674,-1.3362258088639756,-2.5185747782336634,6.141147959023275,1.0023678541183472,-2.285931173955099
1708433314.7401183,-2.157010555267334,-1.3362258237651368,-2.5185537973987024,6.141164290695944,1.0023393630981445,-2.28597599664797
1708433314.742124,-2.157015085220337,-1.336193249826767,-2.5185628573047083,6.141155349999227,1.002323031425476,-2.2859399954425257
1708433314.7440896,-2.1570522785186768,-1.3362170171788712,-2.5185838381396692,6.141258585243978,1.002376914024353,-2.2859888712512415
1708433314.7461379,-2.15702748298645,-1.3362301898053666,-2.518534247075216,6.141164290695944,1.0023515224456787,-2.2859767119037073
1708433314.7481244,-2.1570522785186768,-1.336249904041626,-2.5185793081866663,6.141164290695944,1.0023919343948364,-2.2859681288348597
1708433314.750094,-2.157031774520874,-1.33625082791362,-2.5185509363757532,6.141150939255514,1.0023634433746338,-2.2859354654895228
1708433314.7521274,-2.1570193767547607,-1.3362258237651368,-2.5185464064227503,6.141146409302511,1.0024055242538452,-2.285931173955099
1708433314.7541597,-2.157031774520874,-1.3362345558455964,-2.5185464064227503,6.141127216606893,1.002349853515625,-2.2860007921801966
1708433314.7561533,-2.157010555267334,-1.3362332892468949,-2.518571678792135,6.141189920693197,1.0023348331451416,-2.2860050837146204
1708433314.7581425,-2.1570565700531006,-1.336288185124733,-2.5185373465167444,6.141155349999227,1.0023167133331299,-2.2859519163714808
1708433314.7601497,-2.157043218612671,-1.3362543296865006,-2.5185464064227503,6.1412004111106775,1.002380132675171,-2.2859516779529017
1708433314.7621737,-2.15702748298645,-1.3362126511386414,-2.5185912291156214,6.14119433143691,1.0023515224456787,-2.2859233061419886
1708433314.7641463,-2.157106399536133,-1.3362674427083512,-2.5185330549823206,6.141180979996481,1.0023471117019653,-2.2860096136676233
1708433314.766155,-2.1570940017700195,-1.3362258237651368,-2.5185464064227503,6.141172158509054,1.0023471117019653,-2.2859767119037073
1708433314.7681468,-2.1570940017700195,-1.336193249826767,-2.5185464064227503,6.141192900925436,1.0023515224456787,-2.285980288182394
1708433314.7701871,-2.1570522785186768,-1.3362258237651368,-2.5185673872577112,6.141143429070272,1.0023139715194702,-2.2860258261310022
1708433314.7721596,-2.1570069789886475,-1.3362421107343216,-2.5185251871692103,6.141172158509054,1.0023483037948608,-2.2859931627856653
1708433314.7741492,-2.1570239067077637,-1.3362377148917695,-2.5185747782336634,6.141185509949484,1.0023274421691895,-2.2859934012042444
1708433314.7761314,-2.1570522785186768,-1.3362170171788712,-2.5185464064227503,6.141206371575155,1.002343773841858,-2.2860258261310022
1708433314.7781055,-2.1570725440979004,-1.3361722838929673,-2.518517796193258,6.141221153527059,1.0023139715194702,-2.2859724203692835
1708433314.7801158,-2.15708065032959,-1.3362170171788712,-2.518522326146261,6.141213762551107,1.002311110496521,-2.285947386418478
1708433314.782136,-2.157043218612671,-1.3362182688764115,-2.5185747782336634,6.141176569252767,1.0023319721221924,-2.285926882420675
1708433314.784131,-2.15704083442688,-1.3362258237651368,-2.5185251871692103,6.141213762551107,1.0023318529129028,-2.2860050837146204
1708433314.7861555,-2.157031774520874,-1.3362170171788712,-2.518571678792135,6.141180979996481,1.002294659614563,-2.2859519163714808
1708433314.7881262,-2.157047748565674,-1.336233304148056,-2.5185418764697474,6.1412004111106775,1.002343773841858,-2.285947386418478
1708433314.7900963,-2.157015085220337,-1.3362301898053666,-2.5185464064227503,6.141167747765341,1.0023438930511475,-2.285987917576925
1708433314.7921329,-2.157031774520874,-1.336266191010811,-2.518517796193258,6.141213762551107,1.0022902488708496,-2.2860096136676233
1708433314.794097,-2.157031774520874,-1.3362301898053666,-2.5185509363757532,6.141227113991537,1.0023393630981445,-2.2859767119037073
1708433314.7961767,-2.1570565700531006,-1.3362421107343216,-2.518571678792135,6.141234624176779,1.002376914024353,-2.285959307347433
1708433314.798166,-2.1570611000061035,-1.3362749975970765,-2.5185509363757532,6.1411794302757166,1.002343773841858,-2.2859604994403284
1708433314.8001552,-2.157031774520874,-1.3361844432405015,-2.5185418764697474,6.14115987995223,1.002343773841858,-2.2859888712512415
1708433314.8021448,-2.1570725440979004,-1.3362421107343216,-2.5185251871692103,6.141176569252767,1.0023200511932373,-2.2859767119037073
1708433314.8041983,-2.1570239067077637,-1.3362345558455964,-2.5185793081866663,6.1411839602287195,1.0023274421691895,-2.285963837300436
1708433314.8061576,-2.15704083442688,-1.336266191010811,-2.518616501485006,6.141155349999227,1.0023483037948608,-2.2860215345965784
1708433314.8082023,-2.157047748565674,-1.3362139028361817,-2.5185537973987024,6.141180979996481,1.002273440361023,-2.2859767119037073
1708433314.8101327,-2.1570568084716797,-1.3362421107343216,-2.5185373465167444,6.141197311669149,1.002364993095398,-2.2859767119037073
1708433314.8121417,-2.15704083442688,-1.3361963641694565,-2.518538777028219,6.141150939255514,1.002345323562622,-2.28593880334963
1708433314.8141468,-2.157047748565674,-1.3362301898053666,-2.5185838381396692,6.141164290695944,1.002306580543518,-2.286001984273092
1708433314.8161552,-2.1570193767547607,-1.3361976158669968,-2.5185492674456995,6.141155469208517,1.0022778511047363,-2.2859562079059046
1708433314.8181596,-2.1570565700531006,-1.336254359488823,-2.5185673872577112,6.141172039299764,1.0022823810577393,-2.2859965006457728
1708433314.8201432,-2.157034397125244,-1.3362126511386414,-2.518513266240255,6.141176569252767,1.0023019313812256,-2.28597599664797
1708433314.8221488,-2.1570565700531006,-1.336205170755722,-2.5185373465167444,6.141185509949484,1.002294659614563,-2.2860258261310022
1708433314.824164,-2.157036304473877,-1.3361800772002717,-2.5185492674456995,6.141176450043478,1.0023245811462402,-2.2859931627856653
1708433314.8261235,-2.1570193767547607,-1.3362498742393036,-2.5185986200915735,6.141180979996481,1.0023183822631836,-2.2859519163714808
1708433314.8281198,-2.157036304473877,-1.3362301898053666,-2.5185583273517054,6.141213643341818,1.0023036003112793,-2.2859681288348597
1708433314.8301845,-2.1570682525634766,-1.3362421107343216,-2.5185747782336634,6.141197311669149,1.0023274421691895,-2.285943094884054
1708433314.8322024,-2.1570184230804443,-1.3362139028361817,-2.518538777028219,6.1412004111106775,1.0023318529129028,-2.2860007921801966
1708433314.8341224,-2.157027244567871,-1.336212621336319,-2.5185583273517054,6.141188490181722,1.002364993095398,-2.2860127131091517
1708433314.8361661,-2.157014846801758,-1.3362586957267304,-2.5185673872577112,6.141209232598104,1.0023199319839478,-2.2859767119037073
1708433314.8381262,-2.1570637226104736,-1.3361963641694565,-2.5185509363757532,6.141180979996481,1.002294659614563,-2.285980288182394
1708433314.8400967,-2.15702748298645,-1.3361845028451462,-2.5185628573047083,6.14122890213088,1.002299189567566,-2.286030117665426
1708433314.8421695,-2.1570184230804443,-1.3362749230912705,-2.5185251871692103,6.1411346075828455,1.0023245811462402,-2.2859931627856653
1708433314.8441834,-2.1570682525634766,-1.336176649933197,-2.5185583273517054,6.141230094223776,1.0023155212402344,-2.2860258261310022
1708433314.8461132,-2.1570568084716797,-1.3362302345088501,-2.5185747782336634,6.141192900925436,1.0023081302642822,-2.2859767119037073
1708433314.8481019,-2.1569936275482178,-1.3362630319646378,-2.5185583273517054,6.141201841622152,1.0023318529129028,-2.2859562079059046
1708433314.8501155,-2.157014846801758,-1.33621700227771,-2.5185330549823206,6.141197311669149,1.002323031425476,-2.2859888712512415
1708433314.8521535,-2.157027244567871,-1.3362499338439484,-2.5185373465167444,6.141164290695944,1.0023183822631836,-2.2859767119037073
1708433314.8541613,-2.157034397125244,-1.3362749975970765,-2.5185251871692103,6.141164290695944,1.0023155212402344,-2.2860050837146204
1708433314.8561468,-2.1570522785186768,-1.3362464320710679,-2.5185702482806605,6.141164290695944,1.0022902488708496,-2.2860336939441126
1708433314.8581345,-2.1570229530334473,-1.3362586957267304,-2.5185464064227503,6.14121829250411,1.0023081302642822,-2.2859399954425257
1708433314.8601584,-2.1570229530334473,-1.3362170320800324,-2.5185628573047083,6.141188490181722,1.0023274421691895,-2.2860050837146204
1708433314.8621283,-2.157006025314331,-1.3362019968083878,-2.5185492674456995,6.141221153527059,1.0023109912872314,-2.285963837300436
1708433314.8641193,-2.157006025314331,-1.336221457724907,-2.5185673872577112,6.141191351204672,1.0023155212402344,-2.2860215345965784
1708433314.86611,-2.157014846801758,-1.3362793040326615,-2.5185583273517054,6.141209232598104,1.0023319721221924,-2.2860050837146204
1708433314.868227,-2.15702748298645,-1.3362182539752503,-2.5185418764697474,6.1411794302757166,1.0023199319839478,-2.2860127131091517
1708433314.8701842,-2.157010316848755,-1.3362289530089875,-2.518604580556051,6.141141998558798,1.002295970916748,-2.2860127131091517
1708433314.872133,-2.1570849418640137,-1.336243362431862,-2.518534247075216,6.1412542937095544,1.0023155212402344,-2.285959545766012
1708433314.874119,-2.1570680141448975,-1.336237759595253,-2.5185702482806605,6.141195881157675,1.0023200511932373,-2.285992209111349
1708433314.8761067,-2.1570725440979004,-1.3362301898053666,-2.5185583273517054,6.14120768287734,1.0023081302642822,-2.2860093752490442
1708433314.8780882,-2.157047748565674,-1.336184487943985,-2.5185583273517054,6.141233432083883,1.002311110496521,-2.2859635988818567
1708433314.8800867,-2.157031774520874,-1.3362008047154923,-2.518595520650045,6.141290294914999,1.0023363828659058,-2.2859845797168177
1708433314.882139,-2.1570522785186768,-1.3362127107432862,-2.5185583273517054,6.141221153527059,1.0023036003112793,-2.2860127131091517
1708433314.884085,-2.157006025314331,-1.3362498891404648,-2.5185793081866663,6.1412542937095544,1.0023155212402344,-2.2860007921801966
1708433314.8861592,-2.157076120376587,-1.3362258088639756,-2.5185628573047083,6.141233432083883,1.0022823810577393,-2.285980288182394
1708433314.888138,-2.157036304473877,-1.3362258088639756,-2.5185583273517054,6.141175019532003,1.0023318529129028,-2.2859965006457728
1708433314.8901048,-2.1570522785186768,-1.336249904041626,-2.5185537973987024,6.141281235008993,1.0023319721221924,-2.285992209111349
1708433314.8921368,-2.157047748565674,-1.3362420958331604,-2.5185583273517054,6.141261684685507,1.002306580543518,-2.286036793385641
1708433314.8940823,-2.157034397125244,-1.3362706315568467,-2.5185330549823206,6.1412768242652795,1.002299189567566,-2.2860944906817835
1708433314.896147,-2.1570229530334473,-1.3361932945302506,-2.5185239950763147,6.141219961434164,1.0023199319839478,-2.2860575358020228
1708433314.8981552,-2.1570184230804443,-1.3362301898053666,-2.5185447374926966,6.141231882363119,1.0023036003112793,-2.285992209111349
1708433314.9001255,-2.157067060470581,-1.3362139028361817,-2.518534247075216,6.141243684082784,1.0023155212402344,-2.286020580922262
1708433314.9021137,-2.1570839881896973,-1.3362455380013962,-2.5185747782336634,6.1413752911384485,1.0023409128189087,-2.2860453764544886
1708433314.9041302,-2.157067060470581,-1.3362587106278916,-2.5185912291156214,6.1412813542182825,1.0023199319839478,-2.285992209111349
1708433314.9061532,-2.1570804119110107,-1.3362258237651368,-2.5185702482806605,6.141350137978353,1.0022869110107422,-2.286016289387838
1708433314.9081254,-2.1570885181427,-1.3362587106278916,-2.5185747782336634,6.141333806305685,1.002343773841858,-2.2860410849200647
1708433314.9101384,-2.157050132751465,-1.3362170171788712,-2.5185793081866663,6.1413529990013025,1.0022914409637451,-2.285983387623922
1708433314.9121242,-2.157067060470581,-1.3362258237651368,-2.5185583273517054,6.141323196678915,1.0023081302642822,-2.286020580922262
1708433314.9141192,-2.157076120376587,-1.336254359488823,-2.5185583273517054,6.141302335053243,1.0023199319839478,-2.286048714314596
1708433314.9161282,-2.157050132751465,-1.3362421107343216,-2.5185866991626185,6.141377079277792,1.0023109912872314,-2.286024872456686
1708433314.9181771,-2.1570229530334473,-1.3362170320800324,-2.5185866991626185,6.141400921135702,1.0023199319839478,-2.2860282103167933
1708433314.9201746,-2.157043218612671,-1.3362377446940918,-2.5185418764697474,6.1413965103919885,1.0022660493850708,-2.2860565821277063
1708433314.9221528,-2.157067060470581,-1.3362630766681214,-2.5185509363757532,6.141381609230795,1.0023335218429565,-2.2860282103167933
1708433314.9241102,-2.157097339630127,-1.3361888986876984,-2.5185702482806605,6.141389000206747,1.002299189567566,-2.286044422780172
1708433314.9261203,-2.1570546627044678,-1.336209536795952,-2.518529717122213,6.141416179924764,1.0023126602172852,-2.2860565821277063
1708433314.928111,-2.1570184230804443,-1.3362420958331604,-2.5185418764697474,6.1413845894630334,1.0023199319839478,-2.2860727945910853
1708433314.9300926,-2.1570885181427,-1.3362170320800324,-2.5185702482806605,6.141363727837362,1.002294659614563,-2.286114279423849
1708433314.9321468,-2.157067060470581,-1.3362913143685837,-2.5185986200915735,6.141371238022604,1.0022823810577393,-2.2860565821277063
1708433314.934097,-2.157058000564575,-1.3362737458995362,-2.5185702482806605,6.141387450485983,1.0023245811462402,-2.286093775426046
1708433314.936148,-2.157095432281494,-1.3362258237651368,-2.5185793081866663,6.141429650574484,1.0022958517074585,-2.2860565821277063
1708433314.938115,-2.157071590423584,-1.3362289381078263,-2.5185418764697474,6.141366708069601,1.0022751092910767,-2.286088291798727
1708433314.9401057,-2.157071590423584,-1.3362587106278916,-2.5185747782336634,6.141461121826925,1.002294659614563,-2.2861173788653772
1708433314.9421635,-2.157029628753662,-1.3362377446940918,-2.518595520650045,6.141408669739523,1.0023081302642822,-2.2861297766314905
1708433314.9440963,-2.157067060470581,-1.3362543296865006,-2.5186119715320032,6.141420590668478,1.002295970916748,-2.286100212727682
1708433314.946092,-2.15708065032959,-1.3362377446940918,-2.518529717122213,6.141513454705038,1.0023409128189087,-2.286076370869772
1708433314.9480853,-2.1570866107940674,-1.336290032868721,-2.5185702482806605,6.141477572708883,1.002294659614563,-2.2861252466784876
1708433314.9500906,-2.1570885181427,-1.3362258535674592,-2.5185747782336634,6.141489374428549,1.0023572444915771,-2.286084000264303
1708433314.9521132,-2.157115936279297,-1.336266191010811,-2.5185657183276575,6.1414387104804895,1.0022704601287842,-2.2861371676074427
1708433314.9541457,-2.15714955329895,-1.3362587106278916,-2.5185373465167444,6.141476022988119,1.002305030822754,-2.2861416975604456
1708433314.9561648,-2.1571292877197266,-1.336249904041626,-2.5185731093036097,6.141496765404501,1.0022419691085815,-2.286112372075216
1708433314.9581492,-2.1571044921875,-1.3362587106278916,-2.5185418764697474,6.141492354660787,1.0023199319839478,-2.286149326954977
1708433314.9601922,-2.1571359634399414,-1.3362587106278916,-2.5185866991626185,6.1414832947547815,1.0022751092910767,-2.286079708729879
1708433314.9621572,-2.1570866107940674,-1.336232454781868,-2.5186119715320032,6.141500103264608,1.002263069152832,-2.286132876073019
1708433314.9641457,-2.157090902328491,-1.3362258237651368,-2.5185628573047083,6.141466963082113,1.00227952003479,-2.286165777836935
1708433314.9661317,-2.1571078300476074,-1.3362587106278916,-2.5186060110675257,6.141549455910482,1.0022704601287842,-2.2861371676074427
1708433314.9682689,-2.157094717025757,-1.3362575036338349,-2.5185044447528284,6.141594159394064,1.00227952003479,-2.286144797001974
1708433314.9701931,-2.1571123600006104,-1.336266191010811,-2.5185611883746546,6.14153157451705,1.002267599105835,-2.28614050546755
1708433314.972166,-2.157144784927368,-1.3362126511386414,-2.5186193625079554,6.1415361044700525,1.002284049987793,-2.286132876073019
1708433314.9741595,-2.157111406326294,-1.3362662208131333,-2.5185747782336634,6.141585218697347,1.0022869110107422,-2.2861200014697474
1708433314.976133,-2.1571385860443115,-1.336261824970581,-2.5185492674456995,6.1415806887443445,1.0022751092910767,-2.2861362139331263
1708433314.9781218,-2.1571078300476074,-1.3362455380013962,-2.5185537973987024,6.141576278000631,1.0022751092910767,-2.286168877278463
1708433314.9801214,-2.157115936279297,-1.3362411719611664,-2.5185702482806605,6.141592967301168,1.0023081302642822,-2.286161247883932
1708433314.9821699,-2.1571359634399414,-1.336278111939766,-2.5185373465167444,6.141609418183126,1.0022631883621216,-2.2861319223987024
1708433314.9841263,-2.1570687294006348,-1.3362455380013962,-2.5185583273517054,6.141546475678243,1.0023081302642822,-2.286161247883932
1708433314.986173,-2.1571247577667236,-1.336242140536644,-2.5185285250293177,6.141609298973837,1.0023036003112793,-2.286173168812887
1708433314.9881175,-2.1570990085601807,-1.3362289381078263,-2.5185418764697474,6.141597497254171,1.00227952003479,-2.286144797001974
1708433314.9901202,-2.1571359634399414,-1.3362706315568467,-2.5185373465167444,6.141633140831747,1.0023170709609985,-2.2861319223987024
1708433314.9921443,-2.157167911529541,-1.3362498891404648,-2.5185657183276575,6.141612279206075,1.002295970916748,-2.2861767450915735
1708433314.9941063,-2.157163381576538,-1.336306319837906,-2.5185657183276575,6.141612279206075,1.0022497177124023,-2.286168877278463
1708433314.9961212,-2.1572060585021973,-1.3362869185260315,-2.5185895601855677,6.141649710922994,1.0022704601287842,-2.2861645857440394
1708433314.9981527,-2.157111406326294,-1.3362170171788712,-2.5185418764697474,6.14160035827712,1.00227952003479,-2.2861483732806605
1708433315.000185,-2.157163619995117,-1.3362706017545243,-2.5185537973987024,6.14160321930007,1.0023003816604614,-2.2861319223987024
1708433315.002164,-2.1571385860443115,-1.336254359488823,-2.5186238924609583,6.1416242001350305,1.0023245811462402,-2.2861767450915735
1708433315.0041783,-2.1570990085601807,-1.3362912845662613,-2.5185537973987024,6.141619670182028,1.0023003816604614,-2.2861319223987024
1708433315.00614,-2.1571590900421143,-1.3362780970386048,-2.5185747782336634,6.141594397812643,1.0022751092910767,-2.2861526648150843
1708433315.0081806,-2.1570944786071777,-1.3362587106278916,-2.5185537973987024,6.141631948738851,1.0022839307785034,-2.2861767450915735
1708433315.0101893,-2.15710711479187,-1.3362869185260315,-2.5185986200915735,6.1416348097618005,1.0022541284561157,-2.2861645857440394
1708433315.0122035,-2.1571624279022217,-1.3362574589303513,-2.5185702482806605,6.141612279206075,1.002267599105835,-2.286189619694845
1708433315.014165,-2.1571500301361084,-1.3362245720675965,-2.5185251871692103,6.141641962319174,1.002246379852295,-2.2862015406238
1708433315.0161555,-2.1571385860443115,-1.3362245720675965,-2.5185628573047083,6.141627418785848,1.00227952003479,-2.2862091700183313
1708433315.0181365,-2.1571590900421143,-1.336266191010811,-2.5185912291156214,6.141586887627401,1.0022586584091187,-2.2862048784839075
1708433315.0201252,-2.1571316719055176,-1.3362455380013962,-2.5185418764697474,6.141681062966146,1.0022958517074585,-2.286156956349508
1708433315.0221338,-2.1571760177612305,-1.3362824779799958,-2.5185537973987024,6.141652691155233,1.0022554397583008,-2.2862091700183313
1708433315.0241349,-2.1571714878082275,-1.336261824970581,-2.5185702482806605,6.141661751061239,1.0022464990615845,-2.2861972490893763
1708433315.0262144,-2.1571409702301025,-1.3363312196782609,-2.5186119715320032,6.1416780827339075,1.00227952003479,-2.286217991505758
1708433315.0281904,-2.1571590900421143,-1.3362455380013962,-2.5185464064227503,6.1416242001350305,1.0023094415664673,-2.2861440817462366
1708433315.0301394,-2.1571340560913086,-1.3362944734147568,-2.5185537973987024,6.141664612084188,1.0022586584091187,-2.2862015406238
1708433315.0320964,-2.157179355621338,-1.3362245720675965,-2.5185330549823206,6.1416393397148035,1.0023002624511719,-2.2861602942096155
1708433315.0341487,-2.1571624279022217,-1.336236835723259,-2.5185628573047083,6.141664612084188,1.002246379852295,-2.2861810366259974
1708433315.0361788,-2.1571714878082275,-1.336266191010811,-2.5185673872577112,6.141676533013143,1.002267599105835,-2.2861810366259974
1708433315.0381265,-2.1571545600891113,-1.3362158846906205,-2.518616501485006,6.1416393397148035,1.0022631883621216,-2.286180082951681
1708433315.0401113,-2.157179355621338,-1.336249904041626,-2.5185838381396692,6.141681062966146,1.0023049116134644,-2.2862091700183313
1708433315.0421388,-2.1571342945098877,-1.336286873822548,-2.5185537973987024,6.141687261849203,1.002263069152832,-2.286168162022726
1708433315.0441275,-2.1571457386016846,-1.336261824970581,-2.5185747782336634,6.141679870873251,1.0022300481796265,-2.286184374486105
1708433315.0460958,-2.1571249961853027,-1.3362824779799958,-2.5185373465167444,6.141697752266683,1.0022509098052979,-2.2862332502948206
1708433315.048132,-2.1571457386016846,-1.336282492881157,-2.5185912291156214,6.141712534218588,1.002288579940796,-2.286187712346212
1708433315.0501184,-2.1571624279022217,-1.336278111939766,-2.5185912291156214,6.14169322231368,1.0022751092910767,-2.286192003880636
1708433315.0521362,-2.1571760177612305,-1.3362039190581818,-2.5185657183276575,6.141630279808798,1.002272129058838,-2.2862332502948206
1708433315.0541685,-2.1571927070617676,-1.3362987053445359,-2.5185747782336634,6.1416557905967615,1.00227952003479,-2.286212746297018
1708433315.0561717,-2.1571500301361084,-1.3362202060273667,-2.5185464064227503,6.141709673195638,1.002267599105835,-2.2862005869494837
1708433315.0581424,-2.1571297645568848,-1.3362943989089509,-2.5185492674456995,6.141684281616964,1.0023003816604614,-2.2862332502948206
1708433315.0601947,-2.1571340560913086,-1.3363062155297776,-2.5185418764697474,6.141712534218588,1.0023003816604614,-2.286228958760397
1708433315.0621593,-2.157183885574341,-1.3362574589303513,-2.5186076799975794,6.14174114444808,1.0022586584091187,-2.286184374486105
1708433315.064121,-2.157179355621338,-1.3362126064351578,-2.5185330549823206,6.141745555191793,1.0022300481796265,-2.2862494627581995
1708433315.0661151,-2.1572043895721436,-1.336278111939766,-2.518621031438009,6.141696202545919,1.0023094415664673,-2.286180082951681
1708433315.0681891,-2.157195568084717,-1.3362693649581452,-2.5185838381396692,6.141745674401083,1.00227952003479,-2.286220375691549
1708433315.0701694,-2.1571624279022217,-1.3363313239863892,-2.5185418764697474,6.141670810967245,1.0022751092910767,-2.2862332502948206
1708433315.0721328,-2.1571457386016846,-1.3362368953279038,-2.5185330549823206,6.141679870873251,1.0022554397583008,-2.286184374486105
1708433315.0740955,-2.157183885574341,-1.336282492881157,-2.518534247075216,6.141717064171591,1.002267599105835,-2.2862375418292444
1708433315.0761082,-2.157212257385254,-1.3362693798593064,-2.5185418764697474,6.141712534218588,1.00227952003479,-2.2862091700183313
1708433315.0780919,-2.1571714878082275,-1.3362587106278916,-2.5185747782336634,6.141736614495077,1.0022586584091187,-2.286139790211813
1708433315.0800905,-2.157179355621338,-1.336260662680008,-2.5186119715320032,6.1417051432426355,1.0022509098052979,-2.286212746297018
1708433315.0820925,-2.1572043895721436,-1.3363032054952164,-2.5185821692096155,6.141754615097799,1.0022766590118408,-2.2862375418292444
1708433315.0840895,-2.157195568084717,-1.3362956506064911,-2.5185657183276575,6.141715872078695,1.002246379852295,-2.286184374486105
1708433315.0861566,-2.157174825668335,-1.3362986904433747,-2.5185821692096155,6.1417202828224084,1.0022344589233398,-2.2862213293658655
1708433315.088094,-2.1572043895721436,-1.3363019537976761,-2.5185747782336634,6.141726004868307,1.0022766590118408,-2.286212746297018
1708433315.0900943,-2.1571907997131348,-1.3362618696740647,-2.5185583273517054,6.141670810967245,1.0022344589233398,-2.286192003880636
1708433315.0921116,-2.157179355621338,-1.3362824034741898,-2.5185285250293177,6.141691791802206,1.0022177696228027,-2.286180082951681
1708433315.0940986,-2.157179355621338,-1.336278111939766,-2.5185464064227503,6.1416827318962,1.0022300481796265,-2.2862213293658655
1708433315.0960944,-2.157174825668335,-1.3362530928901215,-2.5185702482806605,6.141717064171591,1.002263069152832,-2.2862170378314417
1708433315.098141,-2.1571907997131348,-1.3362531077912827,-2.5185537973987024,6.141745674401083,1.0022344589233398,-2.286224667225973
1708433315.1001573,-2.157183885574341,-1.3362856668284913,-2.5185418764697474,6.141736614495077,1.0022480487823486,-2.286175791417257
1708433315.1021185,-2.1572213172912598,-1.3362856817296525,-2.518595520650045,6.141684281616964,1.0022268295288086,-2.2862170378314417
1708433315.1041613,-2.157170295715332,-1.3362245720675965,-2.5185285250293177,6.141721474915304,1.0022631883621216,-2.2862160841571253
1708433315.1061635,-2.157207727432251,-1.336290032868721,-2.5185447374926966,6.141699182778158,1.002284049987793,-2.286208454762594
1708433315.1081285,-2.157186269760132,-1.3362574589303513,-2.5185583273517054,6.141696202545919,1.0022480487823486,-2.2862170378314417
1708433315.110144,-2.157174587249756,-1.336278111939766,-2.5185418764697474,6.141769397049703,1.0022509098052979,-2.2861669699298304
1708433315.1121073,-2.157148838043213,-1.3362618398717423,-2.5185702482806605,6.141708123474874,1.0022391080856323,-2.2861834208117884
1708433315.1141148,-2.1571578979492188,-1.336290032868721,-2.5185838381396692,6.141696202545919,1.0022631883621216,-2.286228958760397
1708433315.11612,-2.1571998596191406,-1.3362574738315125,-2.5185821692096155,6.141684281616964,1.002288579940796,-2.286212746297018
1708433315.1181743,-2.157165765762329,-1.3362693798593064,-2.5185537973987024,6.141687142639913,1.0022976398468018,-2.2862170378314417
1708433315.120145,-2.157194137573242,-1.3362530928901215,-2.5185793081866663,6.141717064171591,1.002267599105835,-2.286228958760397
1708433315.1220915,-2.157216787338257,-1.336286873822548,-2.5185206572162073,6.141679870873251,1.00227952003479,-2.286184374486105
1708433315.1241033,-2.1572155952453613,-1.3363150370172043,-2.5185206572162073,6.141696202545919,1.0022222995758057,-2.2861550490008753
1708433315.126082,-2.157212257385254,-1.336301938896515,-2.5185537973987024,6.141691791802206,1.0022554397583008,-2.286168162022726
1708433315.1281223,-2.15722918510437,-1.3362289530089875,-2.5185628573047083,6.141675340920248,1.0022391080856323,-2.28619629541506
1708433315.1301174,-2.15724515914917,-1.3362889301827927,-2.5185583273517054,6.141645300179281,1.002272129058838,-2.2862005869494837
1708433315.1320877,-2.15724515914917,-1.3362245720675965,-2.5185373465167444,6.141691791802206,1.0022554397583008,-2.286180082951681
1708433315.1340883,-2.157186269760132,-1.3362987053445359,-2.5185285250293177,6.141745674401083,1.0022222995758057,-2.286228958760397
1708433315.1361866,-2.1571907997131348,-1.3362856817296525,-2.5185537973987024,6.14174114444808,1.0022509098052979,-2.2862332502948206
1708433315.138087,-2.1571567058563232,-1.3362574589303513,-2.518571917210714,6.1416664002235315,1.0022222995758057,-2.286175791417257
1708433315.1400924,-2.15722918510437,-1.3362737608006974,-2.5185373465167444,6.1416827318962,1.0022857189178467,-2.2861929575549524
1708433315.1421049,-2.157186269760132,-1.3362530928901215,-2.5185747782336634,6.141757595330038,1.0022255182266235,-2.2862005869494837
1708433315.144106,-2.157179355621338,-1.3362650138190766,-2.5185747782336634,6.141709673195638,1.0022811889648438,-2.286168162022726
1708433315.1460934,-2.1571907997131348,-1.3362530779889603,-2.5185776392566126,6.141667592316427,1.002197027206421,-2.2862170378314417
1708433315.148086,-2.157240390777588,-1.3362202060273667,-2.5185373465167444,6.141696202545919,1.0022300481796265,-2.286212746297018
1708433315.1500902,-2.157186269760132,-1.3362943840077897,-2.5185492674456995,6.14174114444808,1.0022631883621216,-2.286171261464254
1708433315.1520956,-2.1571998596191406,-1.336331383591034,-2.518595520650045,6.141684281616964,1.002246379852295,-2.2862005869494837
1708433315.1541042,-2.1571898460388184,-1.336310700779297,-2.5185537973987024,6.141633260041036,1.0022389888763428,-2.286224667225973
1708433315.1561718,-2.1572155952453613,-1.336265043621399,-2.5185464064227503,6.1416827318962,1.0022598505020142,-2.286208454762594
1708433315.1581366,-2.15724515914917,-1.3362574738315125,-2.5185657183276575,6.141670810967245,1.0022224187850952,-2.286175791417257
1708433315.160146,-2.1572155952453613,-1.336298720245697,-2.5186122099505823,6.141691791802206,1.002267599105835,-2.286208454762594
1708433315.1621273,-2.157186269760132,-1.336270571952202,-2.5185509363757532,6.14174114444808,1.0022811889648438,-2.28620416322817
1708433315.1641326,-2.157198667526245,-1.3363105964711686,-2.5186076799975794,6.14174114444808,1.0022598505020142,-2.2861834208117884
1708433315.1661022,-2.157186269760132,-1.3362737458995362,-2.5185747782336634,6.141691791802206,1.002272129058838,-2.286220375691549
1708433315.1681836,-2.157181739807129,-1.3362487715533753,-2.5185208956347864,6.141675340920248,1.00226891040802,-2.2862375418292444
1708433315.1701522,-2.157198667526245,-1.3363019090941926,-2.5185537973987024,6.141691791802206,1.0022766590118408,-2.2862170378314417
1708433315.1721003,-2.157240390777588,-1.336278111939766,-2.5185285250293177,6.141699182778158,1.0022509098052979,-2.2862005869494837
1708433315.1740956,-2.157181978225708,-1.3363019537976761,-2.5185583273517054,6.141684281616964,1.002272129058838,-2.2862375418292444
1708433315.1760888,-2.157203197479248,-1.336274967794754,-2.5185702482806605,6.141721474915304,1.0022644996643066,-2.286224667225973
1708433315.1780899,-2.157236099243164,-1.336290032868721,-2.5185912291156214,6.141724812775411,1.0022598505020142,-2.2862170378314417
1708433315.1800964,-2.157212257385254,-1.3363358241370697,-2.5185509363757532,6.141663181572714,1.0022975206375122,-2.286192003880636
1708433315.1820948,-2.15724515914917,-1.3362531077912827,-2.5186031500445765,6.141614067345419,1.0022766590118408,-2.28620416322817
1708433315.1840835,-2.157207727432251,-1.3362693798593064,-2.5185418764697474,6.141694652825155,1.0022644996643066,-2.28620416322817
1708433315.1861236,-2.157179355621338,-1.3362737160972138,-2.5185583273517054,6.141723024636068,1.0022811889648438,-2.286228958760397
1708433315.1880958,-2.157165765762329,-1.3362530779889603,-2.5185328165637415,6.141660201340475,1.0022391080856323,-2.286168162022726
1708433315.190104,-2.157161235809326,-1.3362574738315125,-2.5185776392566126,6.141733753472128,1.0022766590118408,-2.286187712346212
1708433315.1921484,-2.157181978225708,-1.3362455827048798,-2.5185330549823206,6.141709673195638,1.0022631883621216,-2.286168162022726
1708433315.1941013,-2.157140016555786,-1.3362737458995362,-2.5185402075396937,6.141679870873251,1.0022391080856323,-2.2862659136401575
1708433315.1961532,-2.157165765762329,-1.3363344234279175,-2.5186317602740687,6.14169322231368,1.0022133588790894,-2.2862005869494837
1708433315.1981251,-2.157161235809326,-1.3362420511296769,-2.5185566584216517,6.1416557905967615,1.0022177696228027,-2.28619629541506
1708433315.2001653,-2.157179355621338,-1.3362769049457093,-2.5185731093036097,6.141660201340475,1.0023049116134644,-2.286180082951681
1708433315.202155,-2.15722918510437,-1.3362368506244202,-2.5185747782336634,6.141549336701193,1.0023094415664673,-2.2862005869494837
1708433315.2041776,-2.157181978225708,-1.3363106560758133,-2.5185583273517054,6.1416242001350305,1.002288579940796,-2.286184374486105
1708433315.2061563,-2.157170295715332,-1.336253137593605,-2.5185702482806605,6.141550886421957,1.0022929906845093,-2.2862005869494837
1708433315.208223,-2.1571455001831055,-1.3362617951682587,-2.5185776392566126,6.141567218094625,1.0022345781326294,-2.286228958760397
1708433315.2101893,-2.1571998596191406,-1.3362661761096497,-2.5185986200915735,6.1415806887443445,1.0022300481796265,-2.286184374486105
1708433315.2121782,-2.157207727432251,-1.336272583608963,-2.5185866991626185,6.141585218697347,1.0022255182266235,-2.286184374486105
1708433315.2141607,-2.157153367996216,-1.33628565192733,-2.5185986200915735,6.1415148852165125,1.0023003816604614,-2.2862170378314417
1708433315.2161396,-2.1571409702301025,-1.3362824779799958,-2.5185940901385706,6.141465532570638,1.0022631883621216,-2.2862170378314417
1708433315.2181575,-2.1571249961853027,-1.3362368655255814,-2.5186272303210657,6.141476022988119,1.00236177444458,-2.286212746297018
1708433315.2201698,-2.1571624279022217,-1.3362574738315125,-2.5185895601855677,6.141489374428549,1.0023573637008667,-2.2861886660205286
1708433315.222195,-2.1572000980377197,-1.3363019537976761,-2.5185986200915735,6.141439902573385,1.0022914409637451,-2.2862213293658655
1708433315.2242033,-2.1571431159973145,-1.3362943691066285,-2.518639151250021,6.141436922341146,1.0023199319839478,-2.2862005869494837
1708433315.226135,-2.1571590900421143,-1.336261824970581,-2.518592421208517,6.141359197884359,1.0023483037948608,-2.286175791417257
1708433315.2281127,-2.1571431159973145,-1.3362693798593064,-2.518634621297018,6.14135633686141,1.002381443977356,-2.2862170378314417
1708433315.2301316,-2.157163619995117,-1.336261824970581,-2.518654171620504,6.141357528954305,1.0023891925811768,-2.28619629541506
1708433315.2321823,-2.157115936279297,-1.3362325143865128,-2.5186992327319544,6.14132176616744,1.0024056434631348,-2.2862005869494837
1708433315.234223,-2.1570775508880615,-1.3362368655255814,-2.5186856428729456,6.141246664315023,1.002408742904663,-2.2862332502948206
1708433315.236171,-2.1571202278137207,-1.336294413810112,-2.5187187830554407,6.141233432083883,1.0024042129516602,-2.2862160841571253
1708433315.2381,-2.1571292877197266,-1.3362377446940918,-2.518759075795309,6.141176569252767,1.0024324655532837,-2.2862451712237757
1708433315.2401035,-2.157109022140503,-1.336265043621399,-2.518730703984396,6.141159760742941,1.0024354457855225,-2.286228958760397
1708433315.242172,-2.15710186958313,-1.3362856668284913,-2.518733565007345,6.141066896706381,1.0024399757385254,-2.28619629541506
1708433315.244123,-2.157071590423584,-1.3362126511386414,-2.518778626118795,6.141073214798727,1.0024893283843994,-2.286228958760397
1708433315.2461264,-2.157045364379883,-1.3362455380013962,-2.5187724272357386,6.141028153687277,1.002479076385498,-2.286212746297018
1708433315.2481377,-2.1570284366607666,-1.3362587106278916,-2.518799368535177,6.140956508904257,1.002564549446106,-2.286220375691549
1708433315.2501059,-2.156996726989746,-1.336175800567009,-2.5188100973712366,6.140904056816854,1.002548098564148,-2.28620416322817
1708433315.2521348,-2.1569266319274902,-1.3361801368049164,-2.5188174883471888,6.140860664635458,1.002579689025879,-2.2862377802478235
1708433315.2541711,-2.156961441040039,-1.3362332892468949,-2.5188265482531946,6.14083360412673,1.0026124715805054,-2.28619629541506
1708433315.2561595,-2.1568868160247803,-1.336258740430214,-2.518871609364645,6.140772211342611,1.002623438835144,-2.2861724535571497
1708433315.2581415,-2.1568427085876465,-1.3362170320800324,-2.51890737215151,6.140704619675436,1.0026801824569702,-2.286192003880636
1708433315.2601647,-2.15682315826416,-1.3362868887237092,-2.51884895959963,6.140611874848165,1.002687692642212,-2.286224667225973
1708433315.2622328,-2.156832218170166,-1.3362377446940918,-2.5188866297351282,6.140605914383688,1.0027236938476562,-2.286192003880636
1708433315.2641249,-2.1567506790161133,-1.3361844432405015,-2.5189269224749964,6.140488850861349,1.0027523040771484,-2.286184374486105
1708433315.2661252,-2.156719923019409,-1.3362377446940918,-2.5190003553973597,6.14044879654006,1.0027837753295898,-2.2862170378314417
1708433315.2681851,-2.15663743019104,-1.3362465065768738,-2.519007746373312,6.140390145569601,1.0028692483901978,-2.2862659136401575
1708433315.2701504,-2.156667709350586,-1.336205170755722,-2.519006315861837,6.140276419907369,1.0029247999191284,-2.286212746297018
1708433315.272114,-2.1565747261047363,-1.3362718981555481,-2.519006315861837,6.140246379166403,1.0029489994049072,-2.286212746297018
1708433315.2740946,-2.15655779838562,-1.336176649933197,-2.5190046469317835,6.14012490490035,1.0029881000518799,-2.2861929575549524
1708433315.2761474,-2.156573534011841,-1.3361810159734269,-2.519094769154684,6.14009045341567,1.0030479431152344,-2.28619629541506
1708433315.2781093,-2.1565167903900146,-1.3361941885999222,-2.519099299107687,6.13997362831191,1.00310480594635,-2.286126677189962
1708433315.280104,-2.156447649002075,-1.336202011709549,-2.5191546122180384,6.1398435709770105,1.003129243850708,-2.2862170378314417
1708433315.2821422,-2.1563944816589355,-1.3361909848502656,-2.5191949049579065,6.1398061392600916,1.0031681060791016,-2.2862005869494837
1708433315.2841434,-2.1563682556152344,-1.336129055624344,-2.519169632588522,6.139644372254171,1.003237009048462,-2.2861972490893763
1708433315.2861402,-2.1562721729278564,-1.3361499321511765,-2.519184414540426,6.139560448914327,1.003296971321106,-2.286107126866476
1708433315.2881212,-2.1562650203704834,-1.3361258518746872,-2.519217316304342,6.139498936920919,1.0033375024795532,-2.286184374486105
1708433315.2901013,-2.156233310699463,-1.3361214113286515,-2.5192952791797083,6.139312016754904,1.003438115119934,-2.286184374486105
1708433315.2921054,-2.156219482421875,-1.3360766780427475,-2.5192819277392786,6.139238464623251,1.0034486055374146,-2.2861602942096155
1708433315.2940955,-2.1561050415039062,-1.3361433905414124,-2.519346539174215,6.139150130539694,1.0035059452056885,-2.2861886660205286
1708433315.2961242,-2.156094789505005,-1.3361195486835022,-2.5193210283862513,6.139054286270895,1.003610610961914,-2.2861276308642786
1708433315.2981029,-2.1560256481170654,-1.3360866618207474,-2.5193732420550745,6.138908970146932,1.0036168098449707,-2.286095205937521
1708433315.300183,-2.155965566635132,-1.3360334497741242,-2.5194018522845667,6.138819205551901,1.0036767721176147,-2.2860994974719446
1708433315.3021207,-2.1558940410614014,-1.3360660088113328,-2.519437853490011,6.138738262444296,1.003770112991333,-2.2861157099353235
1708433315.3041337,-2.1558589935302734,-1.3360215288451691,-2.519487444554464,6.138618218689718,1.0038089752197266,-2.2860711256610315
1708433315.3061721,-2.1557278633117676,-1.3360434186509629,-2.5195232073413294,6.1384538290794275,1.0038808584213257,-2.286132876073019
1708433315.3081741,-2.155673027038574,-1.3360878241113205,-2.5194934050189417,6.1383458254630945,1.0039575099945068,-2.286112372075216
1708433315.3101919,-2.1556591987609863,-1.3359810721925278,-2.519553009663717,6.13822768905715,1.0039921998977661,-2.286156956349508
1708433315.3121336,-2.1555380821228027,-1.3360358637622376,-2.5195816198932093,6.138033020287313,1.0041180849075317,-2.2861295382129114
1708433315.314143,-2.155473470687866,-1.3359954965165635,-2.5196548143969935,6.137962448387899,1.0041781663894653,-2.2860599199878138
1708433315.3161805,-2.1554300785064697,-1.3359792244485398,-2.519665543233053,6.137806761055746,1.0042457580566406,-2.2861173788653772
1708433315.3181477,-2.155318021774292,-1.3359346401742478,-2.5197060743915003,6.137653815537252,1.0043240785598755,-2.2860642115222376
1708433315.3202422,-2.1552915573120117,-1.3359596294215699,-2.5197587648974817,6.137521970063009,1.0043915510177612,-2.286077086125509
1708433315.3221612,-2.1551942825317383,-1.3359565448812027,-2.519785467778341,6.137358891754904,1.0044846534729004,-2.2860565821277063
1708433315.3241372,-2.1550822257995605,-1.335866079931595,-2.5198336283313196,6.137285697251119,1.0044982433319092,-2.2860401312457483
1708433315.3261333,-2.1550354957580566,-1.33582158506427,-2.519869391118185,6.137092578202047,1.004607915878296,-2.2860739866839808
1708433315.328109,-2.1549630165100098,-1.3358998906663437,-2.519893471394674,6.136939394264974,1.0046800374984741,-2.286020580922262
1708433315.3300996,-2.154813289642334,-1.3358391237309952,-2.5199909845935267,6.136788236885824,1.0047473907470703,-2.2860291639911097
1708433315.3321078,-2.154794931411743,-1.3358236861279984,-2.519973103200094,6.136665451317587,1.0048454999923706,-2.2859519163714808
1708433315.3340921,-2.154707431793213,-1.3357450377992173,-2.5200043360339563,6.136481153755941,1.0049610137939453,-2.2859965006457728
1708433315.336116,-2.154588460922241,-1.3357788634351273,-2.520073477421896,6.136284935265341,1.005016565322876,-2.285969082509176
1708433315.338098,-2.154536247253418,-1.3357920509627839,-2.520106379185812,6.1361334202583215,1.0050677061080933,-2.285969082509176
1708433315.340102,-2.1544477939605713,-1.3357519221356888,-2.5201996008502405,6.135964858322897,1.0051355361938477,-2.2859485785113733
1708433315.3422174,-2.1543614864349365,-1.3357312691262742,-2.5202022234546106,6.135805713921346,1.005231499671936,-2.2859647909747522
1708433315.344106,-2.154233455657959,-1.335735635166504,-2.52021295229067,6.135671007424154,1.0053656101226807,-2.2859202067004603
1708433315.34612,-2.154125690460205,-1.335695506339409,-2.520301405583517,6.135473358422079,1.005423903465271,-2.285884205495016
1708433315.3481073,-2.1540777683258057,-1.3356920790723343,-2.520320717488424,6.135326611786642,1.005545735359192,-2.2858970800982874
1708433315.350103,-2.1540143489837646,-1.3356813204339524,-2.520355288182394,6.135203707009115,1.005642056465149,-2.285884205495016
1708433315.35216,-2.153968572616577,-1.3356031787446518,-2.520463291798727,6.134953725128927,1.005750060081482,-2.285907808934347
1708433315.35419,-2.1538145542144775,-1.3356559884599228,-2.5204528013812464,6.134795057564535,1.0058132410049438,-2.285863463078634
1708433315.3561733,-2.1537137031555176,-1.3356400293162842,-2.5204935709582728,6.134627091675558,1.005934715270996,-2.2859132925616663
1708433315.3581707,-2.1536343097686768,-1.3355801862529297,-2.520578686391012,6.134419071465292,1.0060220956802368,-2.285900417958395
1708433315.360169,-2.1535134315490723,-1.3355921071818848,-2.520634476338522,6.134224045067587,1.0060807466506958,-2.2858884970294397
1708433315.3621695,-2.1534640789031982,-1.3355516505292435,-2.520736281071798,6.134039866715231,1.0062055587768555,-2.2859330813037317
1708433315.3641574,-2.153367757797241,-1.3355801862529297,-2.520742479954855,6.133840667992391,1.0062928199768066,-2.2858806292163294
1708433315.3661628,-2.153226137161255,-1.3355353784612198,-2.520785633717672,6.1336415884788416,1.006451964378357,-2.2858884970294397
1708433315.3682053,-2.153170585632324,-1.3354833287051697,-2.5208218733416956,6.133430588036337,1.0065600872039795,-2.2858930269824427
1708433315.3701837,-2.1530468463897705,-1.3354758483222504,-2.5208683649646204,6.133242237358846,1.0066804885864258,-2.2858970800982874
1708433315.3721375,-2.1529932022094727,-1.3354758483222504,-2.5209417978869837,6.133042681008138,1.0067558288574219,-2.2858763376819056
1708433315.3741117,-2.1529273986816406,-1.3354679656079789,-2.521001640950338,6.132757413178243,1.0068517923355103,-2.285862986241476
1708433315.3761501,-2.152769088745117,-1.3354247373393555,-2.521069113408224,6.13265227058486,1.0069433450698853,-2.285945002232687
1708433315.378112,-2.1526520252227783,-1.3354529452374955,-2.5211623350726526,6.132398831635275,1.0070724487304688,-2.285900417958395
1708433315.3801033,-2.152560234069824,-1.3353921484998246,-2.521222178136007,6.132183301239767,1.0071313381195068,-2.285916868840353
1708433315.3821373,-2.152423858642578,-1.3353223514607926,-2.5212746302234095,6.13202856758193,1.0072436332702637,-2.2859159151660364
1708433315.3841062,-2.1523356437683105,-1.335364894276001,-2.521313730870382,6.131861674576559,1.007311463356018,-2.285990301762716
1708433315.3861718,-2.1523001194000244,-1.3353486073068161,-2.5214324633227747,6.131612527161398,1.0074858665466309,-2.2859440485583704
1708433315.3881247,-2.152158260345459,-1.335352973347046,-2.521442476903097,6.131408679276266,1.007508397102356,-2.2859845797168177
1708433315.390117,-2.1520743370056152,-1.3352755916169663,-2.5214934984790247,6.13123248794631,1.0076693296432495,-2.2860174814807337
1708433315.3921154,-2.1519668102264404,-1.3353172105601807,-2.5215657393084925,6.13108645656661,1.0077534914016724,-2.285987440739767
1708433315.3941088,-2.1518704891204834,-1.335312933926918,-2.5216391722308558,6.130780446320333,1.0079140663146973,-2.286074463521139
1708433315.3961275,-2.1517512798309326,-1.3352768433145066,-2.5216615835772913,6.130630242615499,1.0080121755599976,-2.2860234419452112
1708433315.3981433,-2.1516366004943848,-1.335330383186676,-2.521717135106222,6.130417573242941,1.0080738067626953,-2.2861011664019983
1708433315.400192,-2.1515231132507324,-1.3352573674968262,-2.5218353907214563,6.130244004517355,1.008207082748413,-2.286133114491598
1708433315.4021757,-2.151421070098877,-1.3352201145938416,-2.52181584039797,6.129969823151388,1.0082813501358032,-2.286194626485006
1708433315.4041736,-2.1512961387634277,-1.3352213662913819,-2.5219014326678675,6.129840481072225,1.008402705192566,-2.2862334887133997
1708433315.4061964,-2.1511759757995605,-1.3351812374642869,-2.521954123173849,6.129612672119894,1.0084974765777588,-2.286257807408468
1708433315.4081979,-2.15106463432312,-1.3352141392282029,-2.521996084843771,6.129416811257162,1.008622169494629,-2.2863057295428675
1708433315.4101791,-2.150982141494751,-1.3352184903672715,-2.522064987813131,6.12918912151412,1.0087560415267944,-2.28635818163027
1708433315.412184,-2.1508538722991943,-1.335210607653,-2.5221458117114466,6.128956424980917,1.0088189840316772,-2.286410633717672
1708433315.4141676,-2.1506590843200684,-1.3351824891618271,-2.5222492853747767,6.12874065616683,1.0090081691741943,-2.2865307966815394
1708433315.4161503,-2.1505885124206543,-1.3351662170938035,-2.5222659746753138,6.128501403122701,1.0090878009796143,-2.286546055470602
1708433315.418136,-2.1505465507507324,-1.3351213944009324,-2.5223379770862024,6.1283453581626794,1.0092172622680664,-2.2866345087634485
1708433315.4201446,-2.1503403186798096,-1.335142047410347,-2.522364918385641,6.128211724549093,1.0093133449554443,-2.2867186705218714
1708433315.4221673,-2.1502652168273926,-1.3351094734719773,-2.5224414507495325,6.1279789088066,1.0094126462936401,-2.2868147532092493
1708433315.4241595,-2.1501901149749756,-1.3350780767253418,-2.522477451954977,6.12774287441329,1.0095372200012207,-2.2869108358966272
1708433315.4263895,-2.1500847339630127,-1.3351476651481171,-2.5225659052478235,6.127530681877889,1.0096534490585327,-2.2870236078845423
1708433315.428131,-2.1499102115631104,-1.3350868833116074,-2.522642437611715,6.127371895104208,1.0097943544387817,-2.2871347109424036
1708433315.4301145,-2.1498169898986816,-1.3350245368531723,-2.522697989140646,6.127112138062277,1.0098906755447388,-2.2872937361346644
1708433315.432176,-2.1496763229370117,-1.3350170713714142,-2.5227037111865442,6.1269158003623865,1.0099763870239258,-2.287396017705099
1708433315.4341712,-2.1495718955993652,-1.335033343439438,-2.5227683226214808,6.126704799919882,1.0101596117019653,-2.2875357309924524
1708433315.436159,-2.1494650840759277,-1.3349972677281876,-2.522891346608297,6.126444566040792,1.0102407932281494,-2.2876771132098597
1708433315.438122,-2.149320125579834,-1.335000456576683,-2.5228973070727747,6.12623285034255,1.0103789567947388,-2.2878573576556605
1708433315.4401457,-2.149254322052002,-1.3349901151708146,-2.5229361693011683,6.126031863480367,1.010470986366272,-2.2880688349353235
1708433315.442113,-2.1491589546203613,-1.3350016933730622,-2.523045365010397,6.125799524575033,1.0105791091918945,-2.2881904284106653
1708433315.4440932,-2.1490046977996826,-1.3350758117488404,-2.5230801741229456,6.125588166504659,1.0107083320617676,-2.288338009511129
1708433315.4461308,-2.14886212348938,-1.3350135546973725,-2.523132864628927,6.125351416855612,1.0108256340026855,-2.2885361353503626
1708433315.4481268,-2.14876651763916,-1.3350135546973725,-2.5231805483447474,6.125128376274862,1.0108916759490967,-2.2887027899371546
1708433315.450095,-2.1486597061157227,-1.3350345951369782,-2.523273293172018,6.124973881035604,1.0109531879425049,-2.2889488379107874
1708433315.452114,-2.1485397815704346,-1.3350103509477158,-2.5233457724200647,6.1247209189231775,1.011120080947876,-2.2891069094287317
1708433315.454173,-2.148383140563965,-1.3349857789329072,-2.5233965555774134,6.124488818436422,1.0112279653549194,-2.2893436590777796
1708433315.4561536,-2.1482796669006348,-1.3350223463824769,-2.523482147847311,6.124277579575338,1.0113892555236816,-2.289604727421896
1708433315.4581463,-2.148117780685425,-1.3350508672050019,-2.5235000292407435,6.124074089318075,1.0114926099777222,-2.289816681538717
1708433315.4601476,-2.148033380508423,-1.3349972677281876,-2.523618761693136,6.123895633011617,1.0115559101104736,-2.2899962107287806
1708433315.462123,-2.14792799949646,-1.3350258034518738,-2.5236530939685267,6.123630630760946,1.0116971731185913,-2.2902854124652308
1708433315.4641435,-2.147779703140259,-1.3350346100381394,-2.523745838795797,6.123459923058309,1.0117437839508057,-2.29050857225527
1708433315.4661517,-2.147620677947998,-1.3350017231753846,-2.5237939993487757,6.123232233315267,1.0118937492370605,-2.290846888219015
1708433315.4681888,-2.1474835872650146,-1.334998757844307,-2.5238569418536585,6.123049247055807,1.012026309967041,-2.291081968938009
1708433315.470175,-2.1473803520202637,-1.3350464266589661,-2.523926083241598,6.122883069306173,1.0121222734451294,-2.29140288034548
1708433315.4721844,-2.1472623348236084,-1.3349694621614,-2.5239649454699915,6.12264500835494,1.0121933221817017,-2.2916792074786585
1708433315.4741259,-2.147146463394165,-1.3350060743144532,-2.524025026951925,6.122391688614645,1.0122483968734741,-2.2920005957232874
1708433315.4761362,-2.14701509475708,-1.3350301545909424,-2.5240564982043665,6.122174846916952,1.012391448020935,-2.292287890111105
1708433315.4781249,-2.14688777923584,-1.3350464266589661,-2.5241854826556605,6.1220388291175745,1.0124907493591309,-2.2925685087787073
1708433315.480127,-2.1467199325561523,-1.3350301545909424,-2.524212423955099,6.121852147370138,1.0125912427902222,-2.292929474507467
1708433315.4821594,-2.146582841873169,-1.3349797141603013,-2.5242889563189905,6.121606814652242,1.0126800537109375,-2.2932289282428187
1708433315.4841058,-2.146406888961792,-1.3350103509477158,-2.5243893305407923,6.121436583786764,1.0128093957901,-2.29358154932131
1708433315.4861383,-2.146284341812134,-1.3350801777890702,-2.524437491093771,6.121260034828939,1.012894868850708,-2.293966833745138
1708433315.4881153,-2.1461360454559326,-1.3350702834180375,-2.5245004335986536,6.12102102020339,1.0131025314331055,-2.2942784468280237
1708433315.4901047,-2.1459851264953613,-1.3350377094796677,-2.52462345758547,6.1208311198051355,1.0131475925445557,-2.2946916262256067
1708433315.4921186,-2.145853281021118,-1.3350583624890824,-2.524644200001852,6.12060700634078,1.0132672786712646,-2.2951255480395716
1708433315.4941092,-2.1457056999206543,-1.3350539964488526,-2.5247042814837855,6.120429026871481,1.0134059190750122,-2.295440737401144
1708433315.4961607,-2.1455562114715576,-1.3350781065276642,-2.524802033101217,6.120200621872701,1.0135337114334106,-2.295837465916769
1708433315.498107,-2.1454381942749023,-1.3350702834180375,-2.5248616377459925,6.119985329895773,1.0136611461639404,-2.296314303074972
1708433315.5001028,-2.1452836990356445,-1.335101918583252,-2.5249338785754603,6.119817602425375,1.0137771368026733,-2.2967477480517786
1708433315.5021574,-2.1451339721679688,-1.3350693446448822,-2.524972740803854,6.1196679947669885,1.0139349699020386,-2.297213856373922
1708433315.504142,-2.1449718475341797,-1.335153968339302,-2.5250402132617396,6.119462120323934,1.0140596628189087,-2.2976375261889856
1708433315.5061858,-2.1447460651397705,-1.3351213944009324,-2.5251122156726282,6.119207608490743,1.0141425132751465,-2.298103157673971
1708433315.508113,-2.144606590270996,-1.3351780486157914,-2.5251932779895228,6.119011628418722,1.0142581462860107,-2.298497978840963
1708433315.5101736,-2.1445302963256836,-1.335176796918251,-2.5252562204944056,6.118820535927572,1.0143495798110962,-2.2989500204669397
1708433315.51215,-2.1443264484405518,-1.3352256429246445,-2.52531606355776,6.118687379151144,1.01448655128479,-2.2993949095355433
1708433315.5141354,-2.1441495418548584,-1.3352126342109223,-2.5253925959216517,6.118490445404806,1.01456618309021,-2.2999051252948206
1708433315.5161235,-2.144000768661499,-1.3352824610522767,-2.5254738966571253,6.118300306587972,1.014716625213623,-2.3003361860858362
1708433315.5181048,-2.1438682079315186,-1.335330383186676,-2.5255287329303187,6.118149268418112,1.0147734880447388,-2.300788227711813
1708433315.5201688,-2.1436846256256104,-1.3352812093547364,-2.5256086031543177,6.11797450759963,1.0149691104888916,-2.301330629979269
1708433315.5221944,-2.143550395965576,-1.3353617799333115,-2.525677506123678,6.117757665901937,1.0150561332702637,-2.3018041292773646
1708433315.5241182,-2.143427610397339,-1.335381181245186,-2.5257702509509485,6.117597925453939,1.0152183771133423,-2.302300755177633
1708433315.526126,-2.1432137489318848,-1.3354466420463105,-2.5258050600634974,6.117434847145834,1.0152798891067505,-2.3027849833117884
1708433315.5280948,-2.143144369125366,-1.3354660284570237,-2.52586800256838,6.117205965309896,1.0153582096099854,-2.303295437489645
1708433315.5301008,-2.1429686546325684,-1.3354605001262208,-2.5259910265551966,6.117120730667867,1.0155086517333984,-2.303798500691549
1708433315.532144,-2.142791509628296,-1.335489035849907,-2.5260539690600794,6.1169084189231775,1.015628457069397,-2.3043561617480677
1708433315.5340898,-2.1426949501037598,-1.33548458040271,-2.5261288324939173,6.116712796479025,1.0157325267791748,-2.3048933188067835
1708433315.5361109,-2.142488479614258,-1.3355500412038346,-2.526200834904806,6.11657081821517,1.0158857107162476,-2.3054147402392786
1708433315.5381114,-2.1423795223236084,-1.3355561059764405,-2.5262773672686976,6.116382586746969,1.0160268545150757,-2.305929962788717
1708433315.5401118,-2.1421823501586914,-1.3355964732221146,-2.5263658205615442,6.116205918579855,1.016142725944519,-2.3064919153796595
1708433315.5421264,-2.142014503479004,-1.335616187458374,-2.5264409224139612,6.116043078690328,1.01627516746521,-2.3069830576526087
1708433315.5441008,-2.1419031620025635,-1.335582123403885,-2.526517454777853,6.1158907292182825,1.0164446830749512,-2.307552162800924
1708433315.5461216,-2.141726493835449,-1.3356714260629197,-2.5265923182116907,6.115765321045675,1.0164990425109863,-2.3081260363208216
1708433315.548113,-2.141603708267212,-1.335695506339409,-2.526665751134054,6.115596043854513,1.0166192054748535,-2.308671538029806
1708433315.550083,-2.141434907913208,-1.335719348197319,-2.526761595402853,6.115473377495565,1.0167393684387207,-2.309162680302755
1708433315.5521,-2.1412837505340576,-1.335763843064644,-2.5267706553088587,6.115313875466146,1.0168553590774536,-2.3097530047046106
1708433315.554157,-2.141116142272949,-1.3357823950103302,-2.5269175211535853,6.115200030594625,1.0169676542282104,-2.310322109852926
1708433315.5561516,-2.1409454345703125,-1.3358713698438187,-2.527034584675924,6.115040051728048,1.0170925855636597,-2.310924832020895
1708433315.5581198,-2.1407527923583984,-1.335952178840973,-2.527072254811422,6.114891755371847,1.0172291994094849,-2.3114593664752405
1708433315.560177,-2.140585422515869,-1.3359596592238923,-2.527165238057272,6.1147605059440515,1.0173989534378052,-2.3120482603656214
1708433315.5621133,-2.1404457092285156,-1.336010531788208,-2.5271907488452356,6.11462019661025,1.0175434350967407,-2.3125348726855677
1708433315.5641096,-2.1402339935302734,-1.336067186003067,-2.527321163808004,6.114542233734884,1.0175551176071167,-2.313080135975973
1708433315.566142,-2.1401031017303467,-1.3361063760570069,-2.527350966130392,6.114394175797262,1.0176963806152344,-2.3136730829821985
1708433315.568134,-2.139918327331543,-1.336182178264,-2.527479950581686,6.114289629250326,1.0178513526916504,-2.3143041769610804
1708433315.5701776,-2.1397616863250732,-1.3362227094224473,-2.5275772253619593,6.114219176560201,1.0179367065429688,-2.314860169087545
1708433315.5721595,-2.1395959854125977,-1.3362824779799958,-2.527628485356466,6.114123570709982,1.0180424451828003,-2.3153672854052942
1708433315.574123,-2.139392852783203,-1.3363617968610306,-2.52767783800234,6.1140116331870935,1.0181533098220825,-2.315878454838888
1708433315.5761073,-2.1392667293548584,-1.3364257675460358,-2.527829710637228,6.1138354418571375,1.0183156728744507,-2.3164334932910364
1708433315.578102,-2.1390416622161865,-1.3364977699569245,-2.5278640429126185,6.113772141724386,1.018403172492981,-2.316908661519186
1708433315.5800962,-2.13883376121521,-1.3365783405354996,-2.5279856363879603,6.113652932434835,1.0185548067092896,-2.3174412886248987
1708433315.582109,-2.1387245655059814,-1.3366378557733078,-2.528060261403219,6.113561618119039,1.0186254978179932,-2.317941967641012
1708433315.5841212,-2.138559341430664,-1.3366652143052598,-2.5281413237201136,6.113491403847494,1.0187668800354004,-2.318397108708517
1708433315.5861003,-2.1384215354919434,-1.3367086958936234,-2.5282045046435755,6.113353717118063,1.0189318656921387,-2.3189528624164026
1708433315.588095,-2.1382617950439453,-1.336775855427124,-2.528255287800924,6.113271462708273,1.0190235376358032,-2.319455925618307
1708433315.5900972,-2.138007164001465,-1.3368893277696152,-2.528397862111227,6.11321650722579,1.0191935300827026,-2.3199320475207728
1708433315.592088,-2.137847423553467,-1.3369606745294114,-2.5284250418292444,6.113096821099081,1.019288182258606,-2.3204508463488978
1708433315.5940902,-2.1377174854278564,-1.3370606464198609,-2.5285118261920374,6.112954842835226,1.0194250345230103,-2.320890490208761
1708433315.5961123,-2.1375091075897217,-1.3371327382377167,-2.528580967579977,6.11291121223525,1.0195780992507935,-2.321404282246725
1708433315.5981147,-2.137406349182129,-1.3372327995351334,-2.5286975542651575,6.112857687264242,1.0196354389190674,-2.3218308130847376
1708433315.600113,-2.137197971343994,-1.337255285387375,-2.5287607351886194,6.11278115490035,1.019760012626648,-2.3223400751696985
1708433315.6021562,-2.1370060443878174,-1.3373599511436005,-2.528820578251974,6.112681019097128,1.0199013948440552,-2.322817866002218
1708433315.604146,-2.136875867843628,-1.3374468249133606,-2.528928581868307,6.112617003708639,1.020066499710083,-2.3232396284686487
1708433315.6061661,-2.1366872787475586,-1.3375642460635682,-2.529008213673727,6.112561332970419,1.020161509513855,-2.3236799875842493
1708433315.6081622,-2.1364879608154297,-1.3375900250724335,-2.529087845479147,6.112501728325643,1.020254373550415,-2.3241260687457483
1708433315.6101363,-2.136329412460327,-1.337668092255928,-2.5291264692889612,6.112418162613668,1.0203778743743896,-2.32456618944277
1708433315.6121435,-2.136186122894287,-1.3377535802176972,-2.529210631047384,6.112407672196188,1.0205069780349731,-2.3249779383288782
1708433315.614138,-2.1359751224517822,-1.3378446114114304,-2.529320303593771,6.112355339318075,1.020634651184082,-2.325414482747213
1708433315.6161537,-2.1357858180999756,-1.337961123590805,-2.5293498674975794,6.112278926163473,1.0207597017288208,-2.3258279005633753
1708433315.6181188,-2.13560152053833,-1.338048131471016,-2.529452149068014,6.112222063332357,1.0208137035369873,-2.3261943499194544
1708433315.6201384,-2.1354997158050537,-1.3381526482156296,-2.52956468263735,6.112162577896871,1.0209623575210571,-2.326578919087545
1708433315.6221268,-2.135308027267456,-1.3382945221713562,-2.5296650568591517,6.11213098743514,1.021096110343933,-2.3269320170031946
1708433315.6241221,-2.135075330734253,-1.3383855682662507,-2.5297818819629114,6.1121325371559045,1.0211666822433472,-2.327285114918844
1708433315.6261287,-2.134960889816284,-1.338496373300888,-2.5297909418689173,6.112075555115499,1.02131986618042,-2.3276241461383265
1708433315.6281192,-2.134770393371582,-1.3385784488967438,-2.529867474232809,6.112026560097494,1.0213996171951294,-2.3279200235949915
1708433315.6301236,-2.1346182823181152,-1.3387027245811005,-2.529996458684103,6.11199043968276,1.0215409994125366,-2.328223768864767
1708433315.6321392,-2.1344099044799805,-1.3388280731490632,-2.5300594011889856,6.111987578659811,1.0216701030731201,-2.3285613695727747
1708433315.6341162,-2.1342060565948486,-1.3389057678035279,-2.530111853276388,6.111984598427572,1.0217950344085693,-2.328836504613058
1708433315.636113,-2.134033441543579,-1.3390106421760102,-2.530174795781271,6.111969578057089,1.0218490362167358,-2.3291471640216272
1708433315.63811,-2.1338837146759033,-1.3391255599311371,-2.5302794615374964,6.1119786379630945,1.0219528675079346,-2.3293352762805384
1708433315.6401153,-2.1337316036224365,-1.3392616969398041,-2.5303428808795374,6.111905085831442,1.022060751914978,-2.3296218554126185
1708433315.642122,-2.1335365772247314,-1.3393528175405045,-2.5304444471942347,6.111865150719442,1.0221574306488037,-2.3298383394824427
1708433315.6441076,-2.133413314819336,-1.3394725036672135,-2.530494276677267,6.1118483422096155,1.0222772359848022,-2.330021683369772
1708433315.646151,-2.133225440979004,-1.3395381730845948,-2.5306220690356653,6.11183654048995,1.0223572254180908,-2.3302064577685755
1708433315.648136,-2.133025884628296,-1.3397203099778672,-2.5306723753558558,6.111881482392111,1.022465467453003,-2.3303116003619593
1708433315.6501098,-2.132859945297241,-1.3398265105536957,-2.5307191053973597,6.111893164902487,1.0226154327392578,-2.3304932753192347
1708433315.6521497,-2.132617950439453,-1.3400089901736756,-2.5308151880847376,6.111818659096517,1.0226452350616455,-2.330604616795675
1708433315.6541922,-2.1324667930603027,-1.3401270073703309,-2.530884091054098,6.11182318904952,1.0227465629577637,-2.330750052128927
1708433315.6561677,-2.1322829723358154,-1.340225876574852,-2.5309351126300257,6.1119351265724084,1.022825837135315,-2.330923144017355
1708433315.65813,-2.1321163177490234,-1.3403170269778748,-2.5310071150409144,6.1118975756462,1.0228981971740723,-2.3309319655047815
1708433315.6601627,-2.131908655166626,-1.3404557567885895,-2.531104628239767,6.111856329232015,1.0229778289794922,-2.33100396791567
1708433315.662145,-2.131761074066162,-1.3405919086984177,-2.5311675707446497,6.111917245178976,1.023061990737915,-2.3310685793506067
1708433315.6641548,-2.131589651107788,-1.3407846701196213,-2.5312514940844935,6.111877071648397,1.0231943130493164,-2.331127468739645
1708433315.666152,-2.1314027309417725,-1.3409207624248047,-2.531299654637472,6.111938226013937,1.0232948064804077,-2.331101719533102
1708433315.668135,-2.131152868270874,-1.3410672408393403,-2.5313671270953577,6.111954557686605,1.0233867168426514,-2.331118408833639
1708433315.6701982,-2.1309237480163574,-1.341276378636696,-2.5314601103412073,6.111933576851644,1.023463487625122,-2.331106249486105
1708433315.6721208,-2.1307899951934814,-1.3413588118604203,-2.531468931828634,6.111896025925436,1.0235472917556763,-2.3310404459582728
1708433315.674097,-2.130615472793579,-1.3414978843978425,-2.5315709749804896,6.111966717034139,1.0236105918884277,-2.331001106892721
1708433315.6761134,-2.1304359436035156,-1.3416410100511094,-2.5316441694842737,6.111941087036886,1.0237442255020142,-2.330923144017355
1708433315.6781094,-2.130223035812378,-1.341800944214203,-2.5317285696612757,6.111986028939047,1.0238330364227295,-2.330884043370382
1708433315.6801245,-2.130032539367676,-1.3419236850789567,-2.5317300001727503,6.11199055889205,1.0239171981811523,-2.330759588872091
1708433315.6821465,-2.129844903945923,-1.3420745891383667,-2.531818453465597,6.111981498986044,1.0239514112472534,-2.330580774937765
1708433315.6841123,-2.1296703815460205,-1.3422359687140961,-2.5318785349475306,6.112042653351583,1.0240825414657593,-2.330437962208883
1708433315.6860976,-2.129506826400757,-1.3424316805652161,-2.531985108052389,6.111968147545614,1.024124264717102,-2.330301586781637
1708433315.6881464,-2.1292903423309326,-1.3425634068301697,-2.5320192019092005,6.111993419914999,1.024247646331787,-2.3301706949817103
1708433315.6901014,-2.1291065216064453,-1.3427021962455292,-2.532128874455587,6.112033712654867,1.0242431163787842,-2.3299618403064173
1708433315.6921182,-2.1288774013519287,-1.3428202879479905,-2.532158915196554,6.11199043968276,1.0243531465530396,-2.3297203222857874
1708433315.6941023,-2.1286911964416504,-1.3430088770440598,-2.5322023073779505,6.112011301308431,1.0244715213775635,-2.329499069844381
1708433315.6961808,-2.1285619735717773,-1.3431987476399918,-2.532250467930929,6.112032162934103,1.0244640111923218,-2.329205099736349
1708433315.698119,-2.1283326148986816,-1.3432914924672623,-2.532311503087179,6.112081634789266,1.0245405435562134,-2.328933302556173
1708433315.700123,-2.128119707107544,-1.3434494596770783,-2.53241998354067,6.112060773163595,1.0246291160583496,-2.328620497380392
1708433315.7021694,-2.1279470920562744,-1.3436889064363022,-2.5324466864215296,6.112097966461935,1.0246772766113281,-2.3282676378833216
1708433315.7041147,-2.1277055740356445,-1.343781293635704,-2.532532278691427,6.112081634789266,1.0246970653533936,-2.327923599873678
1708433315.706156,-2.12751841545105,-1.3439445358565827,-2.5325875918017786,6.112063634186544,1.0247933864593506,-2.327531639729635
1708433315.7081625,-2.127345561981201,-1.3440922063640137,-2.5326314608203333,6.112080085068502,1.024829387664795,-2.32719070116152
1708433315.710131,-2.127106189727783,-1.3441985112479706,-2.532740894948141,6.112129199295797,1.0248967409133911,-2.3267479578601282
1708433315.7121344,-2.126903533935547,-1.3444334131530304,-2.5327511469470423,6.112101304322042,1.02494215965271,-2.3263512293445032
1708433315.714122,-2.1266517639160156,-1.3445842129043122,-2.53280216852297,6.112051832466879,1.025017261505127,-2.325902287160055
1708433315.7161362,-2.126477003097534,-1.344722942715027,-2.5329039732562464,6.112113106041708,1.0250413417816162,-2.325448815022604
1708433315.7182071,-2.1262497901916504,-1.3448891800693055,-2.5329461733447474,6.112042891770162,1.0251177549362183,-2.3249555269824427
1708433315.7201536,-2.1260221004486084,-1.3450580102256318,-2.533015314732687,6.1120890257652185,1.0251541137695312,-2.3244314829455774
1708433315.7221255,-2.1257829666137695,-1.3452000331929703,-2.533084217702047,6.112080085068502,1.0252019166946411,-2.3238816897021692
1708433315.7241454,-2.1255059242248535,-1.3453882199576874,-2.5331440607654017,6.11208342292861,1.0252755880355835,-2.323352877293722
1708433315.7261236,-2.1252949237823486,-1.3455435943654557,-2.5331667105304163,6.112092363625326,1.0252697467803955,-2.3227747122394007
1708433315.7281156,-2.1250555515289307,-1.345776842241623,-2.533217493687765,6.112071263581075,1.0252890586853027,-2.322197977696554
1708433315.730133,-2.124800205230713,-1.3459279102138062,-2.5333152453051966,6.112075674324789,1.0253417491912842,-2.32155949274172
1708433315.7321618,-2.1245758533477783,-1.3461029690555115,-2.533330027257101,6.112150418549337,1.0254440307617188,-2.320934836064474
1708433315.7341383,-2.124326229095459,-1.346249060039856,-2.5333974997149866,6.112138259201803,1.0254138708114624,-2.3202529589282435
1708433315.7361617,-2.124063014984131,-1.3464749616435547,-2.5334530512439173,6.112032162934103,1.0254456996917725,-2.319653574620382
1708433315.7381182,-2.1238067150115967,-1.3465707165053864,-2.5335009733783167,6.112003910332479,1.0255402326583862,-2.3189685980426233
1708433315.7401402,-2.1235482692718506,-1.3467917305282135,-2.53357440630068,6.112045633583822,1.0255671739578247,-2.3182974497424524
1708433315.7421544,-2.1232669353485107,-1.3469189566424866,-2.5336509386645716,6.112029182701864,1.0255868434906006,-2.317561451588766
1708433315.7441237,-2.12298321723938,-1.3471506398967286,-2.53367787996401,6.112017261772909,1.025589942932129,-2.3168330828296106
1708433315.746144,-2.122713327407837,-1.3472938400558014,-2.533794943486349,6.111944305687704,1.0256123542785645,-2.3161147276507776
1708433315.7481167,-2.1224489212036133,-1.347497211103775,-2.533818785344259,6.111911284714498,1.0256452560424805,-2.315399471913473
1708433315.7501137,-2.122190475463867,-1.3477379244617005,-2.5338504950152796,6.111920225411215,1.025697946548462,-2.3145840803729456
1708433315.7521486,-2.1219100952148438,-1.3479290467551728,-2.5339389483081263,6.111921775131979,1.0257220268249512,-2.313748900090353
1708433315.7541296,-2.1216354370117188,-1.34809963524852,-2.533978048955099,6.1118740914161584,1.025820016860962,-2.3129404226886194
1708433315.7561748,-2.12131929397583,-1.348307566051819,-2.5340829531299036,6.111841070442953,1.0258556604385376,-2.3121474424945276
1708433315.7581418,-2.1210274696350098,-1.3485315603068848,-2.534114185963766,6.111720073014059,1.0258662700653076,-2.3112691084491175
1708433315.7601657,-2.1207773685455322,-1.348676474099495,-2.5341697374926966,6.1117989895637415,1.0258407592773438,-2.3104074637042444
1708433315.7621164,-2.1204285621643066,-1.3489007216743012,-2.534238878880636,6.111727344780721,1.0259160995483398,-2.309542957936422
1708433315.7641213,-2.12013578414917,-1.3490848255208512,-2.5342281500445765,6.11160038688735,1.025923490524292,-2.3087108770953577
1708433315.7662597,-2.1198699474334717,-1.349262611275055,-2.5342944304095667,6.1115553257759,1.0259431600570679,-2.3078365961657923
1708433315.768143,-2.1196091175079346,-1.3495258402875443,-2.5343738237964075,6.111528861313619,1.0259548425674438,-2.3069055716144007
1708433315.7701306,-2.1192972660064697,-1.3496989470771332,-2.534520451222555,6.111485111504354,1.0259172916412354,-2.306046787892477
1708433315.7721584,-2.118960380554199,-1.3498858970454712,-2.5344725290881556,6.1113895056541345,1.0259745121002197,-2.3051005045520228
1708433315.7741132,-2.118659019470215,-1.350063608293869,-2.53457481065859,6.111305939942159,1.0259745121002197,-2.3041709105121058
1708433315.7761102,-2.118293523788452,-1.350240246658661,-2.5346272627459925,6.111222255020895,1.0260149240493774,-2.303270403538839
1708433315.7781239,-2.1179323196411133,-1.35051183522258,-2.534661833439962,6.111112940102377,1.0259699821472168,-2.302303139363424
1708433315.7801483,-2.1176648139953613,-1.3507137161544343,-2.5347304979907435,6.111066806107321,1.025998592376709,-2.3013175169574183
1708433315.7821581,-2.1173086166381836,-1.3509874504855652,-2.5348027388202112,6.110921728401937,1.0259159803390503,-2.3003395239459437
1708433315.7841334,-2.116952657699585,-1.35114540279422,-2.5348461310016077,6.110896217613973,1.025998592376709,-2.299380604420797
1708433315.7861516,-2.1166210174560547,-1.351364181642868,-2.534898821507589,6.110746848374166,1.0259822607040405,-2.2984331289874476
1708433315.7881315,-2.116215229034424,-1.3516003054431458,-2.534949604664938,6.110603439598837,1.025986671447754,-2.297485653554098
1708433315.7901242,-2.115860939025879,-1.3517538470080872,-2.535044018422262,6.1104702828224084,1.026015043258667,-2.29640776315798
1708433315.792156,-2.1155083179473877,-1.352018730049469,-2.5350831190692347,6.1104211685951135,1.0259610414505005,-2.2954347769366663
1708433315.7940993,-2.115124225616455,-1.3522324425033112,-2.5351131598102015,6.1102895615394495,1.0259699821472168,-2.294506851826803
1708433315.7961538,-2.1147539615631104,-1.3524731558612366,-2.535215202962057,6.1100995419319055,1.0259610414505005,-2.2934721151935022
1708433315.7980952,-2.114325523376465,-1.352664278154709,-2.535234514866964,6.109951603203573,1.0260030031204224,-2.2924330870257776
