Eg3-git/Classifiers/Data Collection/u1/u1abc4_ur3e_joint_states.csv
time,elbow_joint,shoulder_lift_joint,shoulder_pan_joint,wrist_1_joint,wrist_2_joint,wrist_3_joint
1708433300.2280462,-2.156724452972412,-1.3354443621686478,-2.516252104436056,6.1379878399665735,0.998144805431366,-2.6907275358783167
1708433300.2300556,-2.156724452972412,-1.3354247522405167,-2.5162985960589808,6.1380371926124475,0.9981404542922974,-2.6906943956958216
1708433300.232005,-2.156691789627075,-1.3354408603957673,-2.516285244618551,6.137978899269857,0.998156726360321,-2.6907275358783167
1708433300.2340374,-2.156712055206299,-1.3354527813247223,-2.516252104436056,6.138071524887838,0.9981892704963684,-2.6907318274127405
1708433300.2360096,-2.156724452972412,-1.3354892593673249,-2.516273323689596,6.138037311821737,0.998144805431366,-2.6907106081592005
1708433300.2380497,-2.156691789627075,-1.3354324859431763,-2.516273323689596,6.138028251915731,0.9982264637947083,-2.6907106081592005
1708433300.240105,-2.156728982925415,-1.3354766529849549,-2.516285244618551,6.137963998108663,0.9981642365455627,-2.6907437483416956
1708433300.2420108,-2.156724452972412,-1.3354653728059311,-2.516273323689596,6.138050663262167,0.9981729984283447,-2.690756861363546
1708433300.2439735,-2.156705141067505,-1.3354639124921341,-2.5162492434131067,6.138001191407003,0.9981892704963684,-2.6907275358783167
1708433300.2460625,-2.1567413806915283,-1.3354163032821198,-2.516252104436056,6.138020860939779,0.9982015490531921,-2.690707508717672
1708433300.2479951,-2.156719923019409,-1.3354485791972657,-2.516301695500509,6.138116466789999,0.9981523752212524,-2.6906912962542933
1708433300.250036,-2.156724452972412,-1.3354807955077668,-2.516273323689596,6.13801788070754,0.9981773495674133,-2.690673891698019
1708433300.2520137,-2.156707525253296,-1.3354730916074296,-2.516243282948629,6.138008940010824,0.9981729984283447,-2.6907363573657435
1708433300.2540357,-2.156691789627075,-1.3354401898435135,-2.516294066105978,6.138088214188375,0.9981610774993896,-2.6907406489001673
1708433300.2560048,-2.156707525253296,-1.3354366582683106,-2.516268793736593,6.138013350754537,0.9981278777122498,-2.69076115289797
1708433300.2579737,-2.156696081161499,-1.3354485493949433,-2.5163093248950403,6.13801788070754,0.9981491565704346,-2.6907032171832483
1708433300.2599926,-2.156698703765869,-1.3354282540133973,-2.516231362019674,6.13804184177474,0.998144805431366,-2.6907194296466272
1708433300.2620342,-2.156696081161499,-1.3354605001262208,-2.5163047949420374,6.138013469963827,0.9981147050857544,-2.6907148996936243
1708433300.263976,-2.156707525253296,-1.3354605001262208,-2.5162840525256556,6.138028251915731,0.9981085658073425,-2.6907687822925013
1708433300.2660193,-2.156691789627075,-1.3354080033353348,-2.51626426378359,6.138046133309164,0.9981536865234375,-2.690723721181051
1708433300.267991,-2.156712055206299,-1.3354562681964417,-2.5163138548480433,6.138020860939779,0.9981536269187927,-2.6906870047198694
1708433300.2700212,-2.156737804412842,-1.3354689192822953,-2.516247574483053,6.138034212380209,0.998127818107605,-2.690728012715475
1708433300.2720034,-2.156733274459839,-1.3354807955077668,-2.51626426378359,6.138070452004232,0.998144805431366,-2.69071609178652
1708433300.2740564,-2.156698703765869,-1.3354605001262208,-2.5162974039660853,6.138008940010824,0.9981861710548401,-2.6907032171832483
1708433300.2760372,-2.156707525253296,-1.3354688596776505,-2.5163002649890345,6.138043272286215,0.9981654286384583,-2.690749231969015
1708433300.2780566,-2.156689167022705,-1.3354849976352234,-2.516301933919088,6.138046133309164,0.9981654286384583,-2.6907406489001673
1708433300.280023,-2.156745672225952,-1.335444377069809,-2.5162928740130823,6.13805519321517,0.9981491565704346,-2.6906870047198694
1708433300.2820191,-2.156707525253296,-1.3354689192822953,-2.516247812901632,6.138046133309164,0.9981654286384583,-2.690707508717672
1708433300.2840052,-2.1566758155822754,-1.3354401600411911,-2.516268793736593,6.138013469963827,0.9981610774993896,-2.6906870047198694
1708433300.2860692,-2.156707525253296,-1.3355174970677872,-2.516268793736593,6.138046133309164,0.9981523752212524,-2.6907194296466272
1708433300.288005,-2.156719923019409,-1.3354485940984269,-2.516301933919088,6.138050544052877,0.9982221722602844,-2.6906750837909144
1708433300.290041,-2.156728982925415,-1.3354934018901368,-2.516259733830587,6.1379878399665735,0.9981817007064819,-2.6906912962542933
1708433300.291997,-2.156719923019409,-1.3354366731694718,-2.5162928740130823,6.138013469963827,0.9981687068939209,-2.6906901041613978
1708433300.2940183,-2.156712055206299,-1.3354485493949433,-2.5163002649890345,6.137993800431051,0.9982220530509949,-2.6907363573657435
1708433300.2959962,-2.156759023666382,-1.3354044717601319,-2.5162974039660853,6.137975919037618,0.9982308149337769,-2.690723721181051
1708433300.297984,-2.156733274459839,-1.335428239112236,-2.51626426378359,6.138025271683492,0.9981642365455627,-2.690695587788717
1708433300.3000267,-2.156707525253296,-1.3354485791972657,-2.5163093248950403,6.137993800431051,0.9982014894485474,-2.6907480398761194
1708433300.301994,-2.156696081161499,-1.335477353339531,-2.5163138548480433,6.138043272286215,0.9981935620307922,-2.690723721181051
1708433300.3039734,-2.156696081161499,-1.3354772937348862,-2.5163257757769983,6.1379562495048425,0.9982133507728577,-2.690695587788717
1708433300.3060198,-2.156696081161499,-1.3354086440852662,-2.5163167158709925,6.137939917832174,0.998197078704834,-2.6907194296466272
1708433300.3079803,-2.156705141067505,-1.3354366582683106,-2.5163419882403772,6.137986409455099,0.9982624053955078,-2.6907406489001673
1708433300.3099675,-2.156676769256592,-1.335444377069809,-2.5163241068469446,6.137936937599935,0.9982252717018127,-2.6907363573657435
1708433300.3120093,-2.156689167022705,-1.3354240667871018,-2.51629883447756,6.137978660851278,0.9982700943946838,-2.6907194296466272
1708433300.3139875,-2.156676769256592,-1.3354527813247223,-2.5163286367999476,6.137917268067159,0.9982778429985046,-2.690683666859762
1708433300.3160121,-2.1566057205200195,-1.3354887825301667,-2.5163736979113978,6.137921798020162,0.9982569217681885,-2.6907032171832483
1708433300.3179786,-2.156639575958252,-1.3354612004807969,-2.516376797352926,6.137881624489584,0.998273491859436,-2.6907063166247767
1708433300.3199737,-2.1566731929779053,-1.3354647022536774,-2.5163796583758753,6.1378365633781335,0.9982646703720093,-2.6906943956958216
1708433300.3219857,-2.156636953353882,-1.335473046903946,-2.5164035002337855,6.137887227326193,0.9983213543891907,-2.6907194296466272
1708433300.324067,-2.1566076278686523,-1.3354605001262208,-2.5164364019977015,6.1378259537513635,0.9983007311820984,-2.6907363573657435
1708433300.3260427,-2.156616687774658,-1.3354324859431763,-2.5164409319507044,6.137745249062338,0.9983661770820618,-2.690723244343893
1708433300.328043,-2.1565964221954346,-1.3354766231826325,-2.5164817015277308,6.137791502266683,0.9983335733413696,-2.6907642523394983
1708433300.3299935,-2.1565849781036377,-1.3354443919709702,-2.5164530912982386,6.137730109482565,0.9983291625976562,-2.6907675901996058
1708433300.3319824,-2.1565260887145996,-1.335412160759308,-2.51652175584902,6.137767660408773,0.9983530640602112,-2.6907718817340296
1708433300.3339849,-2.156601667404175,-1.3354647022536774,-2.516468111668722,6.137743460922994,0.998381495475769,-2.690746847783224
1708433300.336025,-2.1565351486206055,-1.3354044270566483,-2.51655084291567,6.137677776604452,0.9984621405601501,-2.6907480398761194
1708433300.3380742,-2.156553030014038,-1.335432456140854,-2.5165537039386194,6.137583362847128,0.9984577894210815,-2.690751377736227
1708433300.3400655,-2.1565213203430176,-1.3354282689145585,-2.5165818373309534,6.137605654984274,0.9985144734382629,-2.690763060246603
1708433300.3420463,-2.156546115875244,-1.3354043376496811,-2.5165849367724817,6.137511718064108,0.9985419511795044,-2.6907425562488
1708433300.3440332,-2.1564602851867676,-1.33543315649543,-2.5165894667254847,6.137489068299093,0.9985529780387878,-2.690788809453146
1708433300.3460312,-2.156428337097168,-1.335408629184105,-2.516604487095968,6.137441146164694,0.9985977411270142,-2.690841261540548
1708433300.3480117,-2.1564443111419678,-1.3354247373393555,-2.5166285673724573,6.137384283333578,0.9986334443092346,-2.690824333821432
1708433300.3500822,-2.1564338207244873,-1.3353932362845917,-2.5166404883014124,6.137397753983297,0.9986739754676819,-2.690791908894674
1708433300.352009,-2.1564011573791504,-1.3354366582683106,-2.5166569391833704,6.137327301293173,0.9987056851387024,-2.6908069292651575
1708433300.3539836,-2.1563117504119873,-1.3354044270566483,-2.5166927019702356,6.137225615769186,0.9987830519676208,-2.6908326784717005
1708433300.35599,-2.156304121017456,-1.335440920000412,-2.516745392476217,6.137170183449545,0.9987898468971252,-2.690847698842184
1708433300.3579729,-2.156334161758423,-1.3354212653687973,-2.5167153517352503,6.1371192810829065,0.9988659620285034,-2.690871540700094
1708433300.3600187,-2.1562774181365967,-1.335352123980858,-2.5167692343341272,6.137063610344686,0.9988409876823425,-2.690863911305563
1708433300.3619714,-2.1562368869781494,-1.3353563410094758,-2.5167797247516077,6.136993157654562,0.9989426136016846,-2.690887753163473
1708433300.3639803,-2.156237840652466,-1.3354093891433259,-2.516829315816061,6.136854159622946,0.9989774227142334,-2.6909287611590784
1708433300.3659844,-2.1561527252197266,-1.3353932809880753,-2.516848627720968,6.13674937465743,0.9990343451499939,-2.6909170786487024
1708433300.367983,-2.1561312675476074,-1.335332603459694,-2.5168755690204065,6.136731254845419,0.9991195201873779,-2.6909201780902308
1708433300.3699934,-2.1561219692230225,-1.335340217953064,-2.5168965498553675,6.136626469879904,0.999142050743103,-2.6909611860858362
1708433300.3720398,-2.1561062335968018,-1.3353529584458848,-2.5169742743121546,6.136521684914388,0.9992230534553528,-2.690977398549215
1708433300.3740678,-2.1560518741607666,-1.3353852343610306,-2.517005983983175,6.136437761574545,0.9992876648902893,-2.690972153340475
1708433300.3760364,-2.1560301780700684,-1.3353171956590195,-2.5169759432422083,6.136379110604086,0.9993594288825989,-2.6909926573382776
1708433300.378134,-2.155993938446045,-1.3352676791003724,-2.5170238653766077,6.136246073036947,0.9993946552276611,-2.6910298506366175
1708433300.3800116,-2.1559746265411377,-1.3353615266135712,-2.517069164906637,6.136162149697103,0.9994543194770813,-2.691044632588522
1708433300.3820362,-2.1558682918548584,-1.3353456866792222,-2.5170629660235804,6.136124598770895,0.9995636343955994,-2.6910162607776087
1708433300.3840156,-2.1558542251586914,-1.335349441771843,-2.5171363989459437,6.135949480324545,0.9996106028556824,-2.691115204487936
1708433300.3860476,-2.1558055877685547,-1.3353095811656495,-2.517151419316427,6.135867225914755,0.9996868371963501,-2.691117827092306
1708433300.3880527,-2.1557819843292236,-1.3352888387492676,-2.517184321080343,6.135750400810995,0.9997589588165283,-2.6911047140704554
1708433300.3900177,-2.1557624340057373,-1.3352931451848526,-2.5172203222857874,6.135696279793539,0.9998354911804199,-2.6911707560168665
1708433300.3919868,-2.155686616897583,-1.3352811944535752,-2.5172563234912317,6.1356167671974084,0.9999151229858398,-2.691169087086813
1708433300.3939977,-2.155629873275757,-1.3352812093547364,-2.517292086278097,6.135519730835714,1.0000451803207397,-2.691221539174215
1708433300.3959916,-2.155550479888916,-1.3352693033269425,-2.517353598271505,6.135419237404623,1.0000309944152832,-2.6912203470813196
1708433300.3979938,-2.1555051803588867,-1.3352692884257813,-2.5173521677600306,6.135298120766439,1.0001180171966553,-2.691240135823385
1708433300.3999875,-2.1554596424102783,-1.3352659058621903,-2.51744515100588,6.13521562793807,1.0001990795135498,-2.691319767628805
1708433300.4020205,-2.1553986072540283,-1.3352452230504532,-2.517411772404806,6.135140526085653,1.0003039836883545,-2.69129449525942
1708433300.4039836,-2.1553313732147217,-1.3352459383061905,-2.5174761454211634,6.135023939400472,1.0003671646118164,-2.6913376490222376
1708433300.4060225,-2.155271291732788,-1.3352254939130326,-2.517495934163229,6.134948837548055,1.0005131959915161,-2.6913653055774134
1708433300.4079893,-2.155190944671631,-1.335201696758606,-2.5175891558276575,6.134792196541586,1.0005605220794678,-2.691383425389425
1708433300.4099815,-2.1551079750061035,-1.3351898056319733,-2.5176292101489466,6.1346930144126794,1.0006159543991089,-2.6914101282702845
1708433300.4119945,-2.1550283432006836,-1.3351610016873856,-2.51764423051943,6.134556638985433,1.0007001161575317,-2.6914427916156214
1708433300.4139845,-2.1549630165100098,-1.3351533573916932,-2.5176759401904505,6.134403931885519,1.0008330345153809,-2.691476885472433
1708433300.4160185,-2.154878854751587,-1.3351821911386033,-2.5177117029773157,6.134305107384481,1.0008472204208374,-2.691432062779562
1708433300.4179804,-2.1548073291778564,-1.335121513610222,-2.5177837053882044,6.134196984558859,1.0009608268737793,-2.6915391127215784
1708433300.4199796,-2.1546988487243652,-1.3351257604411622,-2.5178568998919886,6.134044396668234,1.0010647773742676,-2.691563669835226
1708433300.4220216,-2.154670000076294,-1.3350857657245179,-2.51788837114443,6.133938061981954,1.0011157989501953,-2.691550079976217
1708433300.424076,-2.1544981002807617,-1.335126520400383,-2.5179441610919397,6.133818137436666,1.0012118816375732,-2.6915743986712855
1708433300.4260638,-2.154446840286255,-1.3350815188935776,-2.517975393925802,6.133632886200704,1.0012829303741455,-2.691648070012228
1708433300.4280384,-2.154395818710327,-1.335057408814766,-2.5180068651782435,6.1335394261176965,1.0014084577560425,-2.691646401082174
1708433300.4300187,-2.1543385982513428,-1.3350780767253418,-2.5180800596820276,6.133443462639608,1.0015374422073364,-2.6917036215411585
1708433300.4320738,-2.15421199798584,-1.335062415604927,-2.5181565920459192,6.133234369545736,1.0016363859176636,-2.6917272249804896
1708433300.4340155,-2.1541404724121094,-1.3350301545909424,-2.518195931111471,6.133070933609762,1.0017564296722412,-2.691784445439474
1708433300.4360783,-2.1540486812591553,-1.3350498241237183,-2.518247906361715,6.132930505066671,1.0018888711929321,-2.691747252141134
1708433300.4380739,-2.154055118560791,-1.334990219478943,-2.518278185521261,6.132804024010458,1.0019965171813965,-2.6918333212481897
1708433300.440007,-2.153934955596924,-1.3349902641824265,-2.5183633009540003,6.132611262589254,1.002063274383545,-2.691810671483175
1708433300.4419854,-2.1538350582122803,-1.335010216837265,-2.5183995405780237,6.132470834046163,1.0021922588348389,-2.691871706639425
1708433300.4439652,-2.153759241104126,-1.334998608832695,-2.518463675175802,6.132339584618368,1.002346158027649,-2.6918674151050013
1708433300.4460244,-2.1536741256713867,-1.3349336695722123,-2.5185280481921595,6.132192837982931,1.002408504486084,-2.69192344347109
1708433300.4479756,-2.153545379638672,-1.3349782985499878,-2.5185657183276575,6.131975281029501,1.0025579929351807,-2.691989008580343
1708433300.4499757,-2.153524160385132,-1.3349745583585282,-2.518670622502462,6.131909715920248,1.0027152299880981,-2.6920133272754114
1708433300.4519958,-2.1534109115600586,-1.3348892641118546,-2.5187035242663782,6.131728875427999,1.002810001373291,-2.69206148782839
1708433300.4539678,-2.1533520221710205,-1.334950716500618,-2.518799368535177,6.131605613022604,1.0029170513153076,-2.6920347849475306
1708433300.4559917,-2.1532351970672607,-1.3349626076272507,-2.5188472906695765,6.131421673088827,1.003017544746399,-2.6921008268939417
1708433300.4579916,-2.153168201446533,-1.3349308234504242,-2.518899981175558,6.131221520691671,1.003158450126648,-2.692137066517965
1708433300.4599876,-2.1530513763427734,-1.3348985475352784,-2.5189717451678675,6.131077992707052,1.0033230781555176,-2.6921682993518274
1708433300.4620152,-2.1530137062072754,-1.3349506717971344,-2.519043509160177,6.13086103180007,1.0033692121505737,-2.6921756903277796
1708433300.4640043,-2.152855157852173,-1.3349350106767197,-2.5191245714770716,6.13079200962142,1.003526210784912,-2.6922102610217493
1708433300.4660306,-2.1527645587921143,-1.3349027645638962,-2.519146982823507,6.1305428622062585,1.0036375522613525,-2.6923471132861536
1708433300.467974,-2.1526522636413574,-1.3348866266063233,-2.519217316304342,6.130398738175192,1.0037652254104614,-2.692349974309103
1708433300.4699967,-2.1525940895080566,-1.3348866266063233,-2.5193193594561976,6.130153882294454,1.0039268732070923,-2.6924033800708216
1708433300.472028,-2.1524765491485596,-1.3348259639791031,-2.519412104283468,6.130031573563375,1.0040260553359985,-2.692422691975729
1708433300.4741285,-2.152357339859009,-1.3348593723824997,-2.5194347540484827,6.1298924563224695,1.0041866302490234,-2.69244629541506
1708433300.4760323,-2.152306079864502,-1.3348309856704255,-2.5195141474353235,6.12966405132369,1.0043352842330933,-2.692519013081686
1708433300.4780467,-2.152172327041626,-1.3348225963166733,-2.519594971333639,6.129562008171835,1.0044431686401367,-2.692526165639059
1708433300.479994,-2.152053117752075,-1.334794895058014,-2.5196788946734827,6.129332887917318,1.004563570022583,-2.6925655047046106
1708433300.4820468,-2.1519579887390137,-1.3347907823375245,-2.5197463671313685,6.129238474159994,1.0046377182006836,-2.692639176045553
1708433300.4840071,-2.151904344558716,-1.3347544980100174,-2.5198350588427942,6.128997194557943,1.0048280954360962,-2.6926425139056605
1708433300.4860384,-2.1517953872680664,-1.3348156076720734,-2.519918982182638,6.128914940148153,1.0049437284469604,-2.6926572958575647
1708433300.4880826,-2.151638984680176,-1.3347184521010895,-2.5200074354754847,6.128694879799642,1.0050641298294067,-2.692660156880514
1708433300.4900367,-2.151517868041992,-1.3347918105176468,-2.5200584570514124,6.128502595215597,1.0051844120025635,-2.6927416960345667
1708433300.4920423,-2.151451587677002,-1.3347961020520707,-2.520097319279806,6.1283349869544885,1.0053527355194092,-2.692810122166769
1708433300.4939835,-2.1513588428497314,-1.3347150397351761,-2.5202353636371058,6.128166544228353,1.0054771900177002,-2.6928518454181116
1708433300.4959757,-2.1512115001678467,-1.334764228468277,-2.5202818552600306,6.128039586334982,1.0055975914001465,-2.6928423086749476
1708433300.4980214,-2.1511693000793457,-1.3346824657968064,-2.520400110875265,6.127851474076071,1.0057212114334106,-2.6929190794574183
1708433300.499971,-2.151019811630249,-1.3346832406571885,-2.520426098500387,6.127691972046652,1.0058366060256958,-2.6929953734027308
1708433300.5020144,-2.1509153842926025,-1.334683285360672,-2.5205395857440394,6.127540576248922,1.0059734582901,-2.693033281956808
1708433300.5040076,-2.150815725326538,-1.3346355569413682,-2.5205727259265345,6.127315747528829,1.006118893623352,-2.693047110234396
1708433300.5059974,-2.150761842727661,-1.3346594137004395,-2.520686690007345,6.127161013870992,1.0062708854675293,-2.6930618921863
1708433300.5079932,-2.150670051574707,-1.3346593987992783,-2.5207677523242396,6.126939999848165,1.0063625574111938,-2.6931446234332483
1708433300.5099766,-2.1505587100982666,-1.3346271377852936,-2.5208516756640833,6.126751887589254,1.006551742553711,-2.693150822316305
1708433300.5120144,-2.150442123413086,-1.3346194636872788,-2.520906988774435,6.1266411421592615,1.0066916942596436,-2.693221632634298
1708433300.5139987,-2.150347948074341,-1.3345834475806733,-2.520944897328512,6.126412737160482,1.0068402290344238,-2.6932645479785364
1708433300.5159726,-2.150235652923584,-1.33461149156604,-2.5210586229907435,6.126273977547445,1.0069888830184937,-2.693285051976339
1708433300.5179923,-2.1501471996307373,-1.3345553886941453,-2.52114707628359,6.126095878868856,1.0070675611495972,-2.6932700316058558
1708433300.5199804,-2.150047540664673,-1.3345469695380707,-2.521198097859518,6.125896799355306,1.0072282552719116,-2.6933310667621058
1708433300.5219977,-2.1500096321105957,-1.3345596206239243,-2.5212460199939173,6.125761735230245,1.0073322057724,-2.6933842341052454
1708433300.5242248,-2.149825096130371,-1.3345315021327515,-2.521313492451803,6.125483143120565,1.007456660270691,-2.6934333483325403
1708433300.5260515,-2.149768114089966,-1.3345238429358979,-2.521402422581808,6.125381338387289,1.0076051950454712,-2.693477217351095
1708433300.5280855,-2.149656057357788,-1.3344828349402924,-2.5214319864856165,6.125140177994528,1.0077495574951172,-2.6935253779040735
1708433300.5300546,-2.149576425552368,-1.3345195812037964,-2.521533791218893,6.124969231873312,1.0079278945922852,-2.6935208479510706
1708433300.5320337,-2.1494767665863037,-1.3345891398242493,-2.5216179529773157,6.124801742821493,1.0079978704452515,-2.6936143080340784
1708433300.5340436,-2.1494176387786865,-1.3345323514989396,-2.5216689745532435,6.124629723816671,1.00812566280365,-2.69362456003298
1708433300.536042,-2.1492929458618164,-1.3344513785890122,-2.521769348775045,6.124491679459371,1.008250117301941,-2.693669859563009
1708433300.5380938,-2.1492178440093994,-1.3344836247018357,-2.5218337217914026,6.1242655394370935,1.0083496570587158,-2.6937344709979456
1708433300.5400538,-2.149179220199585,-1.3344836247018357,-2.5219014326678675,6.124180066376486,1.0084950923919678,-2.6937571207629603
1708433300.542071,-2.1490671634674072,-1.334492028956749,-2.52194053331484,6.12399576881484,1.0086274147033691,-2.6937599817859095
1708433300.5441015,-2.1489503383636475,-1.3344882142594834,-2.5220332781421106,6.1237995503242395,1.008743166923523,-2.693829600011007
1708433300.5461094,-2.148900270462036,-1.3345249903253098,-2.5220604578601282,6.123648392945089,1.0089290142059326,-2.6939056555377405
1708433300.5480583,-2.148803949356079,-1.3344110709479828,-2.522165600453512,6.123509394913473,1.0090075731277466,-2.693955961857931
1708433300.5500565,-2.1486897468566895,-1.3344486516765137,-2.522271696721212,6.1233160374458215,1.0091356039047241,-2.6939824263202112
1708433300.552053,-2.1486122608184814,-1.3343914610198517,-2.522301737462179,6.123145448952474,1.0092228651046753,-2.693988863621847
1708433300.5540516,-2.148564577102661,-1.3344364029220124,-2.5223737398730677,6.122959482460775,1.0093713998794556,-2.694029156361715
1708433300.5559978,-2.148411273956299,-1.3344160628369828,-2.522438112889425,6.122807967453756,1.0095292329788208,-2.6940534750567835
1708433300.5580182,-2.1483514308929443,-1.334420309667923,-2.522489372883932,6.122656810074606,1.00963294506073,-2.694143597279684
1708433300.5599964,-2.1482560634613037,-1.334399939780571,-2.5225494543658655,6.122484671860494,1.0097728967666626,-2.6941617170916956
1708433300.5620565,-2.148169755935669,-1.3343673658422013,-2.522604767476217,6.122375476151266,1.0099514722824097,-2.6941562334643763
1708433300.5639846,-2.1480813026428223,-1.3343799722245713,-2.5227351824389856,6.122185337334432,1.0100504159927368,-2.694226328526632
1708433300.5660224,-2.147976875305176,-1.3343565475991745,-2.5227535406695765,6.122080671578207,1.0101542472839355,-2.694270435963766
1708433300.568014,-2.147897481918335,-1.3343197119287034,-2.5228026548968714,6.121911513596334,1.0102287530899048,-2.694357220326559
1708433300.5699914,-2.147813558578491,-1.334364877348282,-2.5228658358203333,6.121792423516073,1.0103695392608643,-2.6943634192096155
1708433300.572042,-2.1477060317993164,-1.334348739390709,-2.5229347387896937,6.12161277511672,1.0104658603668213,-2.6943543593036097
1708433300.5740442,-2.1476218700408936,-1.334316999917366,-2.5229693094836634,6.121493088990011,1.0105785131454468,-2.694432560597555
1708433300.576033,-2.1475865840911865,-1.3343450141004105,-2.523029152547018,6.1213499186332605,1.010654091835022,-2.6944263617144983
1708433300.5780556,-2.147475481033325,-1.3343487542918702,-2.5230935255633753,6.121177780419149,1.0107780694961548,-2.694474522267477
1708433300.5800192,-2.147392511367798,-1.3343005788377305,-2.523120705281393,6.121006119042196,1.0108953714370728,-2.6945532003985804
1708433300.5820184,-2.147282600402832,-1.3343047958663483,-2.5231431166278284,6.1208956120307825,1.0109752416610718,-2.6945677439319056
1708433300.584041,-2.147203207015991,-1.33428447068248,-2.523236099873678,6.120735275536337,1.0110831260681152,-2.6946125666247767
1708433300.5860405,-2.1471190452575684,-1.3342725199512024,-2.5233379046069544,6.12057517746047,1.011191487312317,-2.694616142903463
1708433300.5880055,-2.1470940113067627,-1.334268332724907,-2.523341242467062,6.120441067009725,1.0113251209259033,-2.694638792668478
1708433300.5900764,-2.146939992904663,-1.3342809689095994,-2.5234251658069056,6.120342242508688,1.0114364624023438,-2.694691006337301
1708433300.5920599,-2.1469366550445557,-1.3342409890941163,-2.523477379475729,6.120198833733358,1.011573076248169,-2.6947205702411097
1708433300.593997,-2.1468446254730225,-1.334245191221573,-2.5235658327685755,6.120034324913778,1.0116572380065918,-2.6947649160968226
1708433300.596029,-2.146712064743042,-1.3343097132495423,-2.523581091557638,6.119944441109457,1.0117279291152954,-2.694796148930685
1708433300.5980241,-2.1466314792633057,-1.3342893731645127,-2.5236290136920374,6.119726288109579,1.0118077993392944,-2.6948631445514124
1708433300.6000087,-2.1466176509857178,-1.3342367869666596,-2.523689095173971,6.119635331421652,1.011932611465454,-2.6948404947863978
1708433300.602019,-2.1465699672698975,-1.3342816692641755,-2.5237160364734095,6.119479644089498,1.0120495557785034,-2.6948733965503138
1708433300.6040096,-2.14646577835083,-1.3342376065305253,-2.523792568837301,6.119416940003195,1.012108564376831,-2.694942299519674
1708433300.6059933,-2.146404504776001,-1.334204987888672,-2.5238447825061243,6.119247901230612,1.0121554136276245,-2.6949499289142054
1708433300.6080139,-2.146345615386963,-1.3341811162284394,-2.523896042500631,6.119124996453085,1.0122902393341064,-2.694944206868307
1708433300.6099954,-2.146315813064575,-1.3342459809831162,-2.5239737669574183,6.119006025582113,1.012337327003479,-2.694960657750265
1708433300.6120455,-2.1462206840515137,-1.3341888648322602,-2.523984495793478,6.118869888573446,1.0124493837356567,-2.6950207392321985
1708433300.6139793,-2.146167278289795,-1.3341327619603653,-2.524086300526754,6.118750202446737,1.0125349760055542,-2.6950116793261927
1708433300.6160061,-2.1460983753204346,-1.334200696354248,-2.524113718663351,6.118691789894857,1.012617826461792,-2.69507342973818
1708433300.6179872,-2.146059513092041,-1.3342134070447464,-2.524132792149679,6.118604886322775,1.012710690498352,-2.6950886885272425
1708433300.61998,-2.1459009647369385,-1.3341972541860123,-2.5241687933551233,6.118431794434347,1.0127865076065063,-2.6951006094561976
1708433300.6220298,-2.145880699157715,-1.3341443550637742,-2.524245087300436,6.118304836540975,1.0128506422042847,-2.6950960795031946
1708433300.624083,-2.1458306312561035,-1.3341608059457322,-2.5242679754840296,6.1182747958000085,1.0129755735397339,-2.695143763219015
1708433300.6260157,-2.145782709121704,-1.3341735166362305,-2.5243127981769007,6.118179189949789,1.0130385160446167,-2.6951823870288294
1708433300.6280105,-2.14571475982666,-1.3341001731208344,-2.5243399778949183,6.118037092476644,1.0130912065505981,-2.6951804796801966
1708433300.6300209,-2.1456716060638428,-1.3341692251018067,-2.5243921915637415,6.1179295656974695,1.0131710767745972,-2.695216242467062
1708433300.6320062,-2.1456034183502197,-1.3341166240027924,-2.5244537035571497,6.117845999985494,1.0132476091384888,-2.695207420979635
1708433300.6339786,-2.1455605030059814,-1.3341696870378037,-2.524447743092672,6.117763745575704,1.0133405923843384,-2.6952689329730433
1708433300.635993,-2.1455376148223877,-1.3341377538493653,-2.5245211760150355,6.1176514504249475,1.0133787393569946,-2.695267979298727
1708433300.6380634,-2.1454355716705322,-1.3341135841659089,-2.524569574986593,6.117572295456686,1.0134344100952148,-2.6953259150134485
1708433300.6400235,-2.145381212234497,-1.3341093820384522,-2.5245962778674524,6.117432105332174,1.0134944915771484,-2.695371452962057
1708433300.6420438,-2.1452996730804443,-1.3340729188970109,-2.5246697107898157,6.117343532830038,1.0136052370071411,-2.695329014454977
1708433300.644015,-2.1452724933624268,-1.3341339242509385,-2.524668280278341,6.1173226712043665,1.013635516166687,-2.695353333150045
1708433300.6460378,-2.1451876163482666,-1.3340898317149659,-2.5247088114367884,6.117111909180441,1.0137406587600708,-2.6953817049609583
1708433300.6480215,-2.145185947418213,-1.3340487492135544,-2.5247164408313196,6.117057907372274,1.0138036012649536,-2.6954343954669397
1708433300.6499877,-2.1451382637023926,-1.3341016632369538,-2.5248258749591272,6.11699544170455,1.0138726234436035,-2.6953850428210657
1708433300.6519947,-2.145052194595337,-1.334098221068718,-2.5248213450061243,6.1168861267860315,1.0139195919036865,-2.695454184209005
1708433300.6540225,-2.1449763774871826,-1.3340657216361542,-2.5248568693744105,6.116760837822714,1.0140095949172974,-2.695519749318258
1708433300.6559849,-2.1449332237243652,-1.3340486002019425,-2.5248435179339808,6.116751539498129,1.0140652656555176,-2.6954734961139124
1708433300.6579869,-2.1448798179626465,-1.334053711300232,-2.524900738392965,6.116659033089437,1.0141252279281616,-2.6954899469958704
1708433300.6599991,-2.1448538303375244,-1.334053711300232,-2.5249860922442835,6.1165960905845544,1.0141730308532715,-2.6955187956439417
1708433300.6619813,-2.144843339920044,-1.334053711300232,-2.524959150944845,6.11654959896163,1.0141637325286865,-2.695550505314962
1708433300.664014,-2.1447741985321045,-1.3340171885541459,-2.525029961262838,6.1164495823676965,1.0142444372177124,-2.695555035267965
1708433300.6659799,-2.1447231769561768,-1.3340452772429963,-2.5249996821032923,6.116385328560629,1.0143210887908936,-2.695576016102926
1708433300.6679835,-2.1446621417999268,-1.3340336841395875,-2.5250654856311243,6.116252052574911,1.0143526792526245,-2.6955371538745325
1708433300.6700222,-2.144656181335449,-1.334029958849289,-2.525092665349142,6.116222369461813,1.014445185661316,-2.695611540471212
1708433300.6719759,-2.1446030139923096,-1.3340378564647217,-2.525116745625631,6.116067278176107,1.0144891738891602,-2.6955981890307825
1708433300.6740706,-2.1445302963256836,-1.3339933466962357,-2.5251150766955774,6.116069900780477,1.014507532119751,-2.6955891291247767
1708433300.6760473,-2.1445155143737793,-1.334029958849289,-2.5251615683185022,6.115969764977255,1.0145810842514038,-2.695639673863546
1708433300.6780512,-2.144491672515869,-1.3340342056802292,-2.5251930395709437,6.115902292519369,1.0146455764770508,-2.6956303755389612
1708433300.6800103,-2.1444599628448486,-1.3339487475207825,-2.52521258989443,6.115802156716146,1.0146849155426025,-2.6955962816821497
1708433300.6820002,-2.1444032192230225,-1.334029958849289,-2.5251663366900843,6.115682828217306,1.014716625213623,-2.6956945101367396
1708433300.6839895,-2.14432954788208,-1.3340147149613877,-2.5252488295184534,6.115653025894918,1.0147571563720703,-2.6956332365619105
1708433300.6859837,-2.144303560256958,-1.3340104532292862,-2.5253174940692347,6.115616905480184,1.0148050785064697,-2.6956825892077845
1708433300.68802,-2.1443397998809814,-1.3339942705682297,-2.525353495274679,6.115527379303732,1.0148608684539795,-2.6956363360034388
1708433300.6900294,-2.1442761421203613,-1.3339615923217316,-2.525377337132589,6.115455615311422,1.0149505138397217,-2.6956945101367396
1708433300.6920204,-2.1442151069641113,-1.3339496713927765,-2.5253520647632044,6.11537932136611,1.0149906873703003,-2.6956971327411097
1708433300.6939952,-2.144221544265747,-1.3339289140752335,-2.5253925959216517,6.1153331873710535,1.0150107145309448,-2.69576865831484
1708433300.6960106,-2.1441941261291504,-1.3339572560838242,-2.5253761450396937,6.115329849510946,1.0150465965270996,-2.695714298878805
1708433300.6980305,-2.1441895961761475,-1.3339289140752335,-2.525428597127096,6.115250694542684,1.0150904655456543,-2.695700709019796
1708433300.6999924,-2.144094944000244,-1.3339410734227677,-2.5254104773150843,6.1151699898536584,1.015175461769104,-2.6957133452044886
1708433300.7020457,-2.1440541744232178,-1.3339777749827881,-2.5254812876330774,6.115110385208883,1.0151711702346802,-2.6957340876208704
1708433300.7040052,-2.1440632343292236,-1.3339701157859345,-2.5254796187030237,6.11499963977889,1.0151777267456055,-2.6957417170154017
1708433300.706014,-2.1439993381500244,-1.3339417737773438,-2.5255125204669397,6.1149892685706995,1.0152183771133423,-2.6957653204547327
1708433300.707995,-2.144033432006836,-1.3339624416879197,-2.525548521672384,6.114924895554342,1.0152453184127808,-2.69576079050173
1708433300.7100153,-2.1439483165740967,-1.3339417737773438,-2.5255606810199183,6.114886271744528,1.0152697563171387,-2.695793692265646
1708433300.7120097,-2.1439270973205566,-1.3339139086059113,-2.5255561510669153,6.114841329842367,1.015321969985962,-2.695789162312643
1708433300.714022,-2.1438589096069336,-1.333945946102478,-2.5255845228778284,6.114811169892111,1.0153864622116089,-2.6958027521716517
1708433300.7160141,-2.143925428390503,-1.333953933124878,-2.5255664030658167,6.114759075432577,1.0153942108154297,-2.695777241383688
1708433300.7179997,-2.143843173980713,-1.3339139086059113,-2.525599543248312,6.114781367569723,1.0155047178268433,-2.6957982222186487
1708433300.7199864,-2.143812417984009,-1.3338770729354401,-2.525597874318258,6.114690291672506,1.015499472618103,-2.6957970301257532
1708433300.7220347,-2.143813371658325,-1.3338735711625596,-2.525640074406759,6.1146559593971155,1.0155309438705444,-2.695822540913717
1708433300.72409,-2.1437814235687256,-1.333889753823616,-2.5256639162646692,6.114563095360555,1.0155709981918335,-2.6958769003497522
1708433300.7260294,-2.1437478065490723,-1.333877907400467,-2.5257018248187464,6.114548194199362,1.015591025352478,-2.6958888212787073
1708433300.7280133,-2.1437113285064697,-1.3339148473790665,-2.5256927649127405,6.114533293038168,1.0156476497650146,-2.6958423296557825
1708433300.7300105,-2.143697500228882,-1.3339062494090577,-2.5256956259356897,6.114464270859518,1.015638828277588,-2.6958377997027796
1708433300.7320218,-2.143693208694458,-1.3338498187116166,-2.5257492701159876,6.114382493286886,1.0156707763671875,-2.6958468596087855
1708433300.7340293,-2.1436808109283447,-1.3338940900615235,-2.525731388722555,6.114306080132284,1.0156826972961426,-2.6958871523486536
1708433300.7359977,-2.143677234649658,-1.3339068603566666,-2.525735918675558,6.114283787995138,1.0157427787780762,-2.6959007422076624
1708433300.7380683,-2.143611431121826,-1.3338369590095063,-2.525738779698507,6.11425672748641,1.0157296657562256,-2.695899550114767
1708433300.7400312,-2.1436057090759277,-1.3338455569795151,-2.5257840792285364,6.114178764611044,1.0157699584960938,-2.695890490208761
1708433300.742022,-2.143601179122925,-1.3339276921800156,-2.5257750193225306,6.1141849634941,1.015844464302063,-2.6958981196032923
1708433300.7440922,-2.143602132797241,-1.333911196594574,-2.5258005301104944,6.114095437317648,1.0158344507217407,-2.695916000996725
1708433300.746226,-2.143561601638794,-1.3338626635125657,-2.5258198420154017,6.114089357643881,1.0158872604370117,-2.695890490208761
1708433300.7481399,-2.1435036659240723,-1.3338213872960587,-2.5258365313159388,6.114030825882711,1.0159111022949219,-2.695918862019674
1708433300.750087,-2.1434686183929443,-1.3338183921626587,-2.525839630757467,6.114042866020956,1.0159399509429932,-2.6958981196032923
1708433300.752065,-2.14347767829895,-1.3338753444007416,-2.525851551686422,6.11400722244338,1.0159635543823242,-2.695951525365011
1708433300.7540503,-2.143460750579834,-1.333862618809082,-2.525884453450338,6.113888847618856,1.0159711837768555,-2.695914332066671
1708433300.7559996,-2.1434412002563477,-1.333866925244667,-2.5258470217334192,6.113865005760946,1.016007423400879,-2.6958726088153284
1708433300.7580316,-2.1434457302093506,-1.3338141453317185,-2.5258753935443323,6.113850104599752,1.016047716140747,-2.6959217230426233
1708433300.7599947,-2.143407106399536,-1.3338745099357148,-2.5259082953082483,6.113790023117819,1.0161375999450684,-2.6959129015551966
1708433300.7620249,-2.14343523979187,-1.3338504296592255,-2.5258618036853235,6.113721477776327,1.0160958766937256,-2.6959715525256556
1708433300.7639892,-2.143407106399536,-1.333891512160637,-2.525944534932272,6.113718616753378,1.0161287784576416,-2.695947233830587
1708433300.7659893,-2.1433866024017334,-1.3338214469007035,-2.525919024144308,6.11370204666213,1.0161468982696533,-2.695930782948629
1708433300.7680125,-2.1433470249176025,-1.3337865632823487,-2.525940004979269,6.113639342575826,1.0161638259887695,-2.6959381739245813
1708433300.7699955,-2.143359422683716,-1.3338418316892167,-2.525959316884176,6.113598811417379,1.016211748123169,-2.6958935896502894
1708433300.7719977,-2.1433186531066895,-1.3338384193233033,-2.525942866002218,6.1135421870048425,1.0162161588668823,-2.6959100405322474
1708433300.77407,-2.143244981765747,-1.3338141453317185,-2.525959316884176,6.113492715149679,1.0162655115127563,-2.6959217230426233
1708433300.7761066,-2.143282413482666,-1.3338192415288468,-2.525975767766134,6.113491403847494,1.0162392854690552,-2.6959171930896204
1708433300.778051,-2.143249750137329,-1.333863229756691,-2.5259833971606653,6.113450753479757,1.0162718296051025,-2.695930782948629
1708433300.78004,-2.143221378326416,-1.3338192415288468,-2.5259788672076624,6.113435971527853,1.0162914991378784,-2.6959262529956263
1708433300.781997,-2.1432507038116455,-1.3338470172933121,-2.5259984175311487,6.113395797997274,1.0163406133651733,-2.6959171930896204
1708433300.7840185,-2.1432063579559326,-1.3338063818267365,-2.5260358492480677,6.113388049393453,1.016369104385376,-2.6959641615497034
1708433300.7860131,-2.1431779861450195,-1.3338268262198945,-2.5260358492480677,6.113394009857931,1.0163319110870361,-2.6959686915027063
1708433300.787987,-2.143223285675049,-1.3338192415288468,-2.5260732809649866,6.113316523819723,1.0163679122924805,-2.695935312901632
1708433300.790051,-2.143170118331909,-1.3338069778731843,-2.526043478642599,6.113292443543234,1.016371250152588,-2.695939842854635
1708433300.7920306,-2.1431374549865723,-1.3338311475566407,-2.526088539754049,6.113273131638326,1.0164084434509277,-2.695895020161764
1708433300.7940466,-2.143150806427002,-1.3337617826512833,-2.526050869618551,6.11321650722579,1.0164072513580322,-2.695869032536642
1708433300.7960248,-2.143101215362549,-1.3337950718453904,-2.5261033217059534,6.113168465882101,1.0164313316345215,-2.6959131399737757
1708433300.798099,-2.1431076526641846,-1.3338149797967453,-2.5260794798480433,6.113156306534567,1.0164642333984375,-2.6958044211017054
1708433300.799999,-2.1431405544281006,-1.3337941628745575,-2.5261152426349085,6.113083350449362,1.0164598226547241,-2.6958678404437464
1708433300.8019974,-2.1430623531341553,-1.333789886241295,-2.5260942617999476,6.113101231842794,1.0165208578109741,-2.6957982222186487
1708433300.8040254,-2.1430509090423584,-1.3338225495866318,-2.5261061827289026,6.113056170731344,1.0164883136749268,-2.6957698504077356
1708433300.805998,-2.143031597137451,-1.3337661188891907,-2.5261107126819056,6.1130292294319055,1.0165245532989502,-2.6957908312426966
1708433300.8080022,-2.143036127090454,-1.333737702374794,-2.5261107126819056,6.113038170128622,1.0165290832519531,-2.6957579294787806
1708433300.8099878,-2.143003225326538,-1.3337413531592865,-2.526151482258932,6.112948763161459,1.016576886177063,-2.6957221666919153
1708433300.8120086,-2.143007755279541,-1.3337779355100174,-2.526163403187887,6.112948763161459,1.0165932178497314,-2.6956809202777308
1708433300.8140068,-2.1429715156555176,-1.3338277500918885,-2.526196304951803,6.112917172699728,1.0166127681732178,-2.6956644693957728
1708433300.8160257,-2.1429555416107178,-1.333737702374794,-2.526196304951803,6.112869608193197,1.0166338682174683,-2.6956825892077845
1708433300.8179958,-2.1429388523101807,-1.333758459692337,-2.5261827150927942,6.112909781723776,1.0166664123535156,-2.695622507725851
1708433300.8199894,-2.142876625061035,-1.333819867377617,-2.5262489954577845,6.11282895782546,1.016636848449707,-2.6955564657794397
1708433300.8220167,-2.142885446548462,-1.333758459692337,-2.5262280146228235,6.112797486573019,1.0166282653808594,-2.695595089589254
1708433300.824053,-2.1429433822631836,-1.333770365720131,-2.5262189547168177,6.112774002342977,1.016611933708191,-2.6955459753619593
1708433300.8260336,-2.142937183380127,-1.3337542128613968,-2.5262444655047815,6.112745272904196,1.016640067100525,-2.6954272429095667
1708433300.8280013,-2.1428334712982178,-1.3337908250144501,-2.5262473265277308,6.112726080208578,1.0166641473770142,-2.695416275654928
1708433300.830041,-2.1428940296173096,-1.3337703806212922,-2.526259247456686,6.112682568817892,1.0166478157043457,-2.695367161427633
1708433300.8319974,-2.1428399085998535,-1.3337746423533936,-2.5262637774096888,6.112661349564352,1.0166882276535034,-2.695327345524923
1708433300.8340182,-2.1428263187408447,-1.3337788742831727,-2.52627140680422,6.1126125929649255,1.0167373418807983,-2.6952598730670374
1708433300.83601,-2.1427903175354004,-1.3337874573520203,-2.526283327733175,6.112564551621237,1.0167579650878906,-2.695249144230978
1708433300.837997,-2.1427948474884033,-1.3337627214244385,-2.526275936757223,6.112565743714132,1.0167617797851562,-2.695155445729391
1708433300.8400342,-2.142812490463257,-1.3337547791055222,-2.5263283888446253,6.112570273667135,1.0167648792266846,-2.6950886885272425
1708433300.8420198,-2.142796754837036,-1.3337334555438538,-2.5263147989856165,6.112551200180807,1.0168105363845825,-2.6949127356158655
1708433300.843989,-2.1427674293518066,-1.333693416123726,-2.5263431707965296,6.112491118698873,1.0167443752288818,-2.6948536078082483
1708433300.8460371,-2.1427481174468994,-1.3337591004422684,-2.5263267199145716,6.112437474518575,1.016800880432129,-2.6947572867022913
1708433300.848024,-2.1426949501037598,-1.3337548089078446,-2.526388470326559,6.112431514054098,1.0168415307998657,-2.6946538130389612
1708433300.8499854,-2.14274001121521,-1.3337840002826233,-2.5263341108905237,6.112416732102194,1.0168533325195312,-2.6945272127734583
1708433300.851983,-2.1427152156829834,-1.3337062907269974,-2.5263386408435267,6.112377512245931,1.0168403387069702,-2.694432560597555
1708433300.8540144,-2.142683506011963,-1.333725781445839,-2.526346270238058,6.112388121872701,1.0168894529342651,-2.694327418004171
1708433300.8559828,-2.1426002979278564,-1.3337386560491105,-2.52640945116152,6.112377631455221,1.0169179439544678,-2.6941965262042444
1708433300.8579926,-2.1427083015441895,-1.3337105375579377,-2.526341740285055,6.112307655602255,1.016876220703125,-2.6941044966327112
1708433300.8599744,-2.142648220062256,-1.3337386411479493,-2.526400391255514,6.112312066345968,1.0169048309326172,-2.693892780934469
1708433300.8619742,-2.142627000808716,-1.3337105375579377,-2.52637488046755,6.112235653191366,1.0169376134872437,-2.693817440663473
1708433300.8640087,-2.142578363418579,-1.3337462854436417,-2.526379410420553,6.112240063935079,1.0169122219085693,-2.69362456003298
1708433300.866028,-2.1425747871398926,-1.3336781871369858,-2.526424233113424,6.112260925560751,1.0169451236724854,-2.6934664885150355
1708433300.8680112,-2.142591714859009,-1.3337105375579377,-2.5264151732074183,6.1122087118919275,1.0170021057128906,-2.693397585545675
1708433300.870016,-2.1425633430480957,-1.3337224584868927,-2.5264318625079554,6.112138497620382,1.017022728919983,-2.693232838307516
1708433300.871979,-2.1426331996917725,-1.3337182116559525,-2.5264228026019495,6.112095343857565,1.01698899269104,-2.6931009928332728
1708433300.87398,-2.142597198486328,-1.3337105375579377,-2.5264483133899134,6.112123596459188,1.016984462738037,-2.6929147879229944
1708433300.8760395,-2.142559766769409,-1.3337514114430924,-2.5264273325549524,6.112071263581075,1.0170007944107056,-2.6927667299853724
1708433300.8780243,-2.142535924911499,-1.3337233376554032,-2.5264766852008265,6.112051832466879,1.0170743465423584,-2.692545000706808
1708433300.879999,-2.1425819396972656,-1.3337309074452897,-2.5264559427844446,6.112008321076193,1.0171024799346924,-2.6923657099353235
1708433300.8820012,-2.1425156593322754,-1.3336824488690873,-2.526479784642355,6.1120276329811,1.017048954963684,-2.6921351591693323
1708433300.8839946,-2.1425201892852783,-1.333690108065941,-2.5264843145953577,6.111989009171285,1.0170446634292603,-2.6919849554644983
1708433300.8859847,-2.142512083053589,-1.3337190610221406,-2.5264678637133997,6.111989009171285,1.017073154449463,-2.6917501131640833
1708433300.8880007,-2.1425254344940186,-1.3336866807988663,-2.526475254689352,6.111948716431417,1.017109990119934,-2.691512648259298
1708433300.8900292,-2.1425132751464844,-1.3336747747710724,-2.526515785847799,6.111903774529257,1.0171012878417969,-2.691303555165426
1708433300.8919992,-2.1425018310546875,-1.3337437522462388,-2.526548687611715,6.111884104996481,1.017134428024292,-2.6911407152758997
1708433300.894005,-2.1424803733825684,-1.3337113869241257,-2.526494805012838,6.111863600998678,1.0171256065368652,-2.690876547490255
1708433300.895998,-2.142472505569458,-1.3337309819510956,-2.526499334965841,6.111877071648397,1.0171537399291992,-2.690629784260885
1708433300.898068,-2.142472505569458,-1.3336943697980423,-2.5265143553363245,6.111796009331503,1.017166018486023,-2.6903763453113
1708433300.8999934,-2.142432689666748,-1.3337028634599228,-2.5265443960772913,6.111826169281759,1.0171945095062256,-2.6901586691485804
1708433300.902037,-2.142411470413208,-1.3336866807988663,-2.5265398661242884,6.111739384918966,1.017164707183838,-2.6898673216449183
1708433300.903993,-2.142354726791382,-1.3336506944945832,-2.5265725294696253,6.1117766974265955,1.0172185897827148,-2.6896114985095423
1708433300.9059927,-2.142408847808838,-1.3336986166289826,-2.5265021959887903,6.11175428608016,1.0172185897827148,-2.689300839100973
1708433300.9079823,-2.1423299312591553,-1.33366251111541,-2.5264859835254114,6.111787426262655,1.0171769857406616,-2.6890326181994837
1708433300.9099734,-2.1423354148864746,-1.3336866957000275,-2.5265427271472376,6.111676561623373,1.017225980758667,-2.688702646886007
1708433300.9120128,-2.1423611640930176,-1.333702878361084,-2.526609007512228,6.111656892090597,1.017225980758667,-2.688427273427145
1708433300.9140224,-2.142324924468994,-1.333702878361084,-2.526604477559225,6.111628997116842,1.017258882522583,-2.6881137529956263
1708433300.9159913,-2.1423745155334473,-1.3336540174535294,-2.52661639848818,6.111649858742513,1.0172576904296875,-2.687801186238424
1708433300.9179807,-2.142329454421997,-1.3336866957000275,-2.52661639848818,6.111609208374777,1.0172128677368164,-2.6874268690692347
1708433300.9200025,-2.142333745956421,-1.3337071400931855,-2.5265710989581507,6.111531603127279,1.0172291994094849,-2.687096897755758
1708433300.921984,-2.142301082611084,-1.333695189361908,-2.5265801588641565,6.111573207169332,1.0172532796859741,-2.686699692402975
1708433300.9240224,-2.142244577407837,-1.3336952191642304,-2.526620928441183,6.111558425217428,1.0172532796859741,-2.686392847691671
1708433300.9260705,-2.142275094985962,-1.3336790216020127,-2.526632849370138,6.111534583359518,1.0173264741897583,-2.6860113779651087
1708433300.928045,-2.1422278881073,-1.3336506944945832,-2.52661639848818,6.111529934197225,1.017333984375,-2.685619656239645
1708433300.930011,-2.1422488689422607,-1.333695189361908,-2.526656452809469,6.111428129463949,1.017317771911621,-2.6852927843676966
1708433300.9320502,-2.14220929145813,-1.3337403249791642,-2.526602808629171,6.111458408623495,1.0173089504241943,-2.684911314641134
1708433300.9340494,-2.1422207355499268,-1.3336301755956192,-2.5266311804400843,6.111438977509298,1.017317771911621,-2.6844523588763636
1708433300.9360037,-2.142191171646118,-1.333638773565628,-2.526590887700216,6.111393916397848,1.0173377990722656,-2.684002463017599
1708433300.938048,-2.1421797275543213,-1.3336421710303803,-2.5266643206225794,6.111419665604391,1.0173672437667847,-2.683610264454977
1708433300.940007,-2.1421730518341064,-1.3336354506066819,-2.5266266504870813,6.11137472370223,1.0173121690750122,-2.683204952870504
1708433300.942019,-2.14214825630188,-1.3336345267346879,-2.5266597906695765,6.111370193749227,1.0173702239990234,-2.6827386061297815
1708433300.9440637,-2.142160415649414,-1.3336625409177323,-2.5266385714160364,6.1113014099891565,1.0173616409301758,-2.682343069707052
1708433300.9460726,-2.142174005508423,-1.3336952191642304,-2.5266717115985315,6.111347543984213,1.0173540115356445,-2.6819096247302454
1708433300.9480917,-2.1422154903411865,-1.3336345565370102,-2.5267048517810267,6.111310350685873,1.017414927482605,-2.6814139525042933
1708433300.9500682,-2.142125368118286,-1.3336226505092164,-2.5266929308520716,6.111352073937216,1.0173496007919312,-2.6810055414782923
1708433300.952086,-2.1421093940734863,-1.3336430800012131,-2.5266926924334925,6.111332642823019,1.0173821449279785,-2.6805601755725306
1708433300.9540753,-2.1421616077423096,-1.3336018484881897,-2.5267167727099817,6.111226665764608,1.017401933670044,-2.6800761858569544
1708433300.9561455,-2.1421172618865967,-1.333667815928795,-2.5266626516925257,6.111280309944906,1.0174227952957153,-2.67950684229006
1708433300.9580753,-2.1421172618865967,-1.3336832833341141,-2.526632849370138,6.111211764603414,1.0174438953399658,-2.679080073033468
1708433300.9599957,-2.1421217918395996,-1.3336839985898514,-2.5267329851733606,6.111211764603414,1.0174306631088257,-2.678574864064352
1708433300.9620318,-2.1420888900756836,-1.333638773565628,-2.526679340993063,6.111240136414327,1.0174140930175781,-2.6780810991870325
1708433300.9640546,-2.14206862449646,-1.333653987651207,-2.526691261922018,6.111154782563009,1.0174306631088257,-2.6775789896594446
1708433300.966024,-2.142045736312866,-1.3336789917996903,-2.526707712803976,6.111138450890341,1.0174424648284912,-2.677093569432394
1708433300.9679968,-2.1420979499816895,-1.3336268675378342,-2.526686731969015,6.111130821495809,1.0174458026885986,-2.676563326512472
1708433300.9699886,-2.142073154449463,-1.3336516481688996,-2.526703182850973,6.111095416336813,1.0174132585525513,-2.6760504881488245
1708433300.9720116,-2.142033338546753,-1.3336019229939957,-2.52674371400942,6.111075746804037,1.0174500942230225,-2.675516430531637
1708433300.9740229,-2.142066240310669,-1.3336796027472992,-2.526707712803976,6.111078607826986,1.0174951553344727,-2.6749869028674524
1708433300.976051,-2.14200496673584,-1.333626852636673,-2.526752535496847,6.111059295922079,1.0174458026885986,-2.67444092432131
1708433300.9780254,-2.141984701156616,-1.3336430501988907,-2.5267227331744593,6.111072766571798,1.017498254776001,-2.6738510767566126
1708433300.980035,-2.1419713497161865,-1.333614007835724,-2.526727263127462,6.1110350964363,1.0174741744995117,-2.673321549092428
1708433300.9819868,-2.1419970989227295,-1.3336146485856553,-2.526715103779928,6.111024725228109,1.017486333847046,-2.6727526823626917
1708433300.9839888,-2.1419880390167236,-1.3336834770492096,-2.5267227331744593,6.110991704254904,1.0175267457962036,-2.672190252934591
1708433300.9860225,-2.1419732570648193,-1.333590255384781,-2.5267391840564173,6.111024725228109,1.0174939632415771,-2.671640936528341
1708433300.9880435,-2.142019510269165,-1.3336310994676133,-2.5267649332629603,6.1109962342079065,1.0175342559814453,-2.671020809804098
1708433300.9900525,-2.1419451236724854,-1.3336345267346879,-2.526785675679342,6.11093949058608,1.0174895524978638,-2.670443598424093
1708433300.9920454,-2.141982316970825,-1.33360609531913,-2.5267391840564173,6.110972630768575,1.0175232887268066,-2.669852081929342
1708433300.9940548,-2.141991138458252,-1.3336354506066819,-2.526785675679342,6.110911237984457,1.0175137519836426,-2.669267002736227
1708433300.996014,-2.1419718265533447,-1.3336183738759537,-2.5267513434039515,6.11091576793746,1.017525553703308,-2.66864520708193
1708433300.9980516,-2.141925573348999,-1.3336506348899384,-2.5267558733569544,6.110916960030355,1.0175793170928955,-2.66801888147463
1708433301.0000074,-2.141967535018921,-1.3335944724133988,-2.5267677942859095,6.110900628357687,1.0175210237503052,-2.667417828236715
1708433301.0020263,-2.1419434547424316,-1.3336268675378342,-2.5267677942859095,6.110835182457723,1.0175583362579346,-2.666779104863302
1708433301.0040166,-2.1419222354888916,-1.3336795729449769,-2.5267677942859095,6.11082016208724,1.0175670385360718,-2.6661325136767786
1708433301.0059927,-2.1419007778167725,-1.3335741472295304,-2.5267346541034144,6.110879766732015,1.0175704956054688,-2.665440384541647
1708433301.0079987,-2.1418778896331787,-1.3336146485856553,-2.5267587343799036,6.110878217011251,1.0175780057907104,-2.6647656599627894
1708433301.0099814,-2.1418533325195312,-1.333647297029831,-2.5267885367022913,6.110791551857748,1.0175824165344238,-2.6641209761248987
1708433301.0119984,-2.141840934753418,-1.333614633684494,-2.5267632643329065,6.110751378327169,1.01760733127594,-2.663410488759176
1708433301.0140126,-2.1418497562408447,-1.333626852636673,-2.5267825762378138,6.11080943325118,1.0175986289978027,-2.662687126790182
1708433301.01597,-2.1418371200561523,-1.3336430054954072,-2.526761595402853,6.110710847168722,1.0176109075546265,-2.6620495955096644
1708433301.0179725,-2.141855001449585,-1.3336268377355118,-2.5267916361438196,6.110737669258871,1.0175977945327759,-2.661379639302389
1708433301.0199962,-2.141846179962158,-1.3336226058057328,-2.526794497166769,6.110782730370321,1.017606496810913,-2.6606202761279505
1708433301.022038,-2.1418585777282715,-1.3336269122413178,-2.526827875767843,6.110741007118978,1.0176305770874023,-2.6599746386157435
1708433301.0239937,-2.141850709915161,-1.3336430352977295,-2.526761595402853,6.110778200417318,1.0176184177398682,-2.6592357794391077
1708433301.026056,-2.1418099403381348,-1.3335816127112885,-2.526832405720846,6.110724317818441,1.0176424980163574,-2.6585355440722864
1708433301.0280294,-2.141855001449585,-1.3336634647897263,-2.52682334581484,6.110730278282919,1.0176424980163574,-2.6577943007098597
1708433301.0300622,-2.141798496246338,-1.3336146187833329,-2.526827875767843,6.110671865731039,1.0176752805709839,-2.657116715108053
1708433301.032003,-2.1418099403381348,-1.3336146485856553,-2.52686053911318,6.110627519875326,1.0176665782928467,-2.6563525835620325
1708433301.034029,-2.1417782306671143,-1.333618940120079,-2.526839796696798,6.110615241318502,1.0176827907562256,-2.655591074620382
1708433301.0359943,-2.141756772994995,-1.3336225760034104,-2.526802364979879,6.11060785034255,1.017687201499939,-2.654851500188009
1708433301.0380466,-2.1417534351348877,-1.3335987490466614,-2.5268262068377894,6.110594379692831,1.017674207687378,-2.654102150593893
1708433301.040054,-2.141765832901001,-1.3336515438607712,-2.526835266743795,6.110576259880819,1.0177116394042969,-2.653341595326559
1708433301.0420525,-2.1417746543884277,-1.333618925218918,-2.526856247578756,6.110618221550741,1.0177441835403442,-2.652536455784933
1708433301.0440078,-2.14180064201355,-1.333622620706894,-2.5268591086017054,6.110610949784078,1.0177147388458252,-2.651753012334005
1708433301.046041,-2.1417622566223145,-1.3336231273463746,-2.5268545786487024,6.110561477928915,1.017707347869873,-2.650864903126852
1708433301.0480437,-2.1417417526245117,-1.3336072576097031,-2.5268710295306605,6.1105151055152795,1.0177638530731201,-2.650102440510885
1708433301.049985,-2.1416966915130615,-1.3335911196521302,-2.5268755594836634,6.110553729325094,1.0177223682403564,-2.6492705980883997
1708433301.0520067,-2.141726016998291,-1.3336061251214524,-2.5268471876727503,6.110528695374288,1.017734169960022,-2.648468796406881
1708433301.0540001,-2.1417713165283203,-1.3335543286851426,-2.5268922487842005,6.11051224449233,1.0177385807037354,-2.647632900868551
1708433301.0559986,-2.141751766204834,-1.3336231124452134,-2.5269370714770716,6.110542046814718,1.0177669525146484,-2.6467984358416956
1708433301.0580173,-2.1417057514190674,-1.3336231124452134,-2.526911799107687,6.110434520035543,1.0177464485168457,-2.645980421696798
1708433301.0600185,-2.141719102859497,-1.3336115342429657,-2.526911799107687,6.110494124680319,1.017749547958374,-2.645151678715841
1708433301.0619981,-2.141723394393921,-1.3336472523263474,-2.526919190083639,6.1105092642600916,1.017749547958374,-2.644294563923971
1708433301.0639935,-2.1416728496551514,-1.3335996133140107,-2.526907269154684,6.1104222414787195,1.017798900604248,-2.643508021031515
1708433301.0660195,-2.1416773796081543,-1.3336311143687745,-2.526935640965597,6.110494124680319,1.0177946090698242,-2.642703119908468
1708433301.068001,-2.141690731048584,-1.3336311143687745,-2.526935640965597,6.110453593521871,1.0177903175354004,-2.64181095758547
1708433301.0699847,-2.141695261001587,-1.333655745988228,-2.526919190083639,6.1104867337043665,1.017798900604248,-2.64110237756838
1708433301.0719874,-2.141716718673706,-1.3336316359094162,-2.52690560022463,6.110450613289633,1.0178436040878296,-2.640266720448629
1708433301.0739892,-2.141662359237671,-1.3336189550212403,-2.526943031941549,6.110477673798361,1.0178139209747314,-2.6394065062152308
1708433301.0760465,-2.1416757106781006,-1.3336395633271714,-2.5269702116595667,6.110466944962301,1.0178306102752686,-2.6385532061206263
1708433301.0780435,-2.14164662361145,-1.3335869324258347,-2.5269597212420862,6.110431659012594,1.0178751945495605,-2.637714211140768
1708433301.0800529,-2.1416172981262207,-1.3336480867913743,-2.526980463658468,6.11050163486556,1.0179036855697632,-2.6368077437030237
1708433301.0820408,-2.1416261196136475,-1.3336481612971802,-2.5269461313830774,6.110413777619161,1.0178622007369995,-2.6360085646258753
1708433301.083997,-2.1416332721710205,-1.3335707497647782,-2.5270076433764856,6.110382067948141,1.0178700685501099,-2.6351149717914026
1708433301.085995,-2.1416146755218506,-1.3336481314948578,-2.5269838015185755,6.110389458924093,1.0179111957550049,-2.634228054677145
1708433301.088032,-2.1416237354278564,-1.3335783791593094,-2.5269866625415247,6.110393988877096,1.0179275274276733,-2.63340932527651
1708433301.0900652,-2.14159893989563,-1.333647297029831,-2.5270167032824915,6.110361325531759,1.0179431438446045,-2.6325987021075647
1708433301.092023,-2.1416068077087402,-1.3336396229318161,-2.5269747416125696,6.110391008644857,1.0179593563079834,-2.6316588560687464
1708433301.0940268,-2.1415741443634033,-1.3336354208043595,-2.527052942906515,6.110357987671652,1.0179712772369385,-2.6308375040637415
1708433301.0960114,-2.141578435897827,-1.3335826110890885,-2.527026955281393,6.110325205117025,1.0179550647735596,-2.629967753087179
1708433301.0980804,-2.1416079998016357,-1.3336472672275086,-2.527052942906515,6.110374676972189,1.017941951751709,-2.6290743986712855
1708433301.0999963,-2.1415793895721436,-1.3336061102202912,-2.5270360151873987,6.110334265023031,1.0180119276046753,-2.6281989256488245
1708433301.1019914,-2.1415352821350098,-1.333586962228157,-2.52702242532839,6.110375988274374,1.0179945230484009,-2.627308193837301
1708433301.1040206,-2.141566038131714,-1.333651603465416,-2.5270512739764612,6.11032651641921,1.0180479288101196,-2.6264641920672815
1708433301.1060264,-2.14153790473938,-1.33360310018573,-2.5270915667163294,6.110313045769491,1.0180230140686035,-2.6255696455584925
1708433301.1079988,-2.1415555477142334,-1.3336438697627564,-2.5270467440234583,6.110319244652548,1.0180511474609375,-2.6246400515185755
1708433301.109993,-2.1415627002716064,-1.333591104750969,-2.5270989576922815,6.110316383629598,1.0180141925811768,-2.623714033757345
1708433301.111991,-2.1415600776672363,-1.333671973352768,-2.5271156469928187,6.11033986785964,1.0180842876434326,-2.6228681246386927
1708433301.1140282,-2.141515016555786,-1.3336472076228638,-2.5271740595446985,6.110269772797384,1.018087387084961,-2.6219354311572474
1708433301.1160147,-2.1415016651153564,-1.3336231273463746,-2.5271604696856897,6.110257851868429,1.0180960893630981,-2.6210220495807093
1708433301.1180332,-2.1414811611175537,-1.3336115044406434,-2.527135197316305,6.110247599869528,1.0180948972702026,-2.620086733494894
1708433301.1199822,-2.1414902210235596,-1.3335910898498078,-2.5271487871753138,6.110269772797384,1.0181396007537842,-2.6191447416888636
1708433301.1219876,-2.141515016555786,-1.3335543286851426,-2.527139727269308,6.110238539963522,1.0181440114974976,-2.6181822458850306
1708433301.1239865,-2.1415035724639893,-1.3336316061070939,-2.527113978062765,6.11025499084548,1.0181561708450317,-2.6172178427325647
1708433301.1260242,-2.1415035724639893,-1.3336146038821717,-2.527130667363302,6.1102263806159876,1.0181715488433838,-2.6163535753833216
1708433301.1280284,-2.1414921283721924,-1.3336146038821717,-2.527184549962179,6.110263931542196,1.0181596279144287,-2.615457598363058
1708433301.1300213,-2.1414663791656494,-1.3336189550212403,-2.527154509221212,6.110243069916525,1.0181628465652466,-2.614523474370138
1708433301.1319828,-2.1414334774017334,-1.3336039346507569,-2.5271664301501673,6.1102309105689905,1.0182205438613892,-2.613565985356466
1708433301.1340327,-2.141523838043213,-1.3336311143687745,-2.5272205511676233,6.110202896385946,1.0182403326034546,-2.6126089731799524
1708433301.1360025,-2.1414875984191895,-1.333639608030655,-2.52717096010317,6.1102309105689905,1.0182241201400757,-2.611732784901754
1708433301.1379895,-2.141453981399536,-1.333631084566452,-2.5272372404681605,6.110199916153707,1.0182185173034668,-2.6107755343066614
1708433301.1400378,-2.141488552093506,-1.3336360168508072,-2.5272043387042444,6.11020444610671,1.0182514190673828,-2.609891716633932
1708433301.142031,-2.141418695449829,-1.3336189550212403,-2.527210060750143,6.110253321915426,1.0182676315307617,-2.6089685598956507
1708433301.1440365,-2.141406297683716,-1.3336677265218277,-2.527193609868185,6.110075461655416,1.018296480178833,-2.608056370412008
1708433301.1460567,-2.1414716243743896,-1.3336761456779023,-2.527285401021139,6.1101053831870935,1.0183277130126953,-2.6072028318988245
1708433301.1480563,-2.141444444656372,-1.3335953515819092,-2.52726394334902,6.110154974251547,1.0183320045471191,-2.606290642415182
1708433301.1500635,-2.1414647102355957,-1.3335457009128113,-2.5272682348834437,6.110130893975057,1.0183517932891846,-2.6053696314441126
1708433301.1520634,-2.141390323638916,-1.3336189550212403,-2.5272627512561243,6.110151636391439,1.0183517932891846,-2.6044397989856165
1708433301.1541245,-2.1414151191711426,-1.33360310018573,-2.527245823537008,6.110078680306234,1.0183639526367188,-2.6035197416888636
1708433301.1560602,-2.1414105892181396,-1.3336030852845688,-2.527233902608053,6.110177266388693,1.0183639526367188,-2.602600161229269
1708433301.1580706,-2.1414151191711426,-1.3336273741773148,-2.5272911230670374,6.110156166344442,1.018404245376587,-2.601689879094259
1708433301.1600418,-2.1413698196411133,-1.333598793750145,-2.5273121039019983,6.110111462860861,1.0184240341186523,-2.600790802632467
1708433301.1619904,-2.14133358001709,-1.3336146187833329,-2.5272911230670374,6.110107052117147,1.018403172492981,-2.5998600164996546
1708433301.1639853,-2.1413674354553223,-1.3335911494544526,-2.5272865931140345,6.110111462860861,1.0184568166732788,-2.5989163557635706
1708433301.1659877,-2.141383409500122,-1.3336103570512314,-2.5273240248309534,6.110102522164144,1.0185091495513916,-2.5979960600482386
1708433301.1679823,-2.1413302421569824,-1.3336061400226136,-2.527273241673605,6.110111462860861,1.018467903137207,-2.597037140523092
1708433301.169983,-2.141364812850952,-1.3336230528405686,-2.5273569265948694,6.110041487007894,1.0185047388076782,-2.5960496107684534
1708433301.17198,-2.141348123550415,-1.333579198723175,-2.5273435751544397,6.110059249192037,1.0185540914535522,-2.5950632731067103
1708433301.1740766,-2.141369342803955,-1.3336515736630936,-2.5272894541369837,6.110072839051046,1.0185823440551758,-2.5941508452044886
1708433301.1760645,-2.1413605213165283,-1.3336231273463746,-2.527372185383932,6.110080110817709,1.0185604095458984,-2.5931785742389124
1708433301.1780305,-2.1413018703460693,-1.3336354506066819,-2.527329985295431,6.1100114462669275,1.0185682773590088,-2.592243258153097
1708433301.1800113,-2.141331195831299,-1.3336103570512314,-2.527375046406881,6.110005247383871,1.0185551643371582,-2.591273609791891
1708433301.1819959,-2.1413073539733887,-1.3336273741773148,-2.527379576359884,6.110014307289877,1.0185801982879639,-2.5903192202197474
1708433301.1840394,-2.141324281692505,-1.3336072725108643,-2.5274036566363733,6.1099902270133875,1.0186045169830322,-2.589341465626852
1708433301.1860268,-2.141324281692505,-1.3336072725108643,-2.5274201075183313,6.109969365387716,1.0186370611190796,-2.58830696741213
1708433301.1880033,-2.1413376331329346,-1.33364391446624,-2.5273869673358362,6.1100772497947595,1.0186326503753662,-2.58726936975588
1708433301.190054,-2.1413207054138184,-1.3336231273463746,-2.5274036566363733,6.110041248589315,1.0186402797698975,-2.586280171071188
1708433301.1920063,-2.141296863555908,-1.3336359721473237,-2.5274232069598597,6.110045659333029,1.0186853408813477,-2.5852931181537073
1708433301.194027,-2.1412551403045654,-1.3336115342429657,-2.5274351278888147,6.109956013947286,1.0186971426010132,-2.584385697041647
1708433301.195994,-2.141312837600708,-1.3336146187833329,-2.5274277369128626,6.11000810840682,1.018672227859497,-2.583381954823629
1708433301.1980774,-2.1412808895111084,-1.3336189699224015,-2.5274351278888147,6.1099679348762415,1.0187005996704102,-2.5823844114886683
1708433301.2000039,-2.1412110328674316,-1.3335987639478226,-2.5274680296527308,6.10992323139266,1.0187495946884155,-2.58140999475588
1708433301.2019918,-2.141177177429199,-1.3336146187833329,-2.527463499699728,6.109997975617208,1.0187244415283203,-2.58043343225588
1708433301.2040064,-2.141181707382202,-1.3336396229318161,-2.527508799229757,6.109984624176779,1.0187453031539917,-2.579505268727438
1708433301.2060354,-2.1412065029144287,-1.33360310018573,-2.527491871510641,6.109894621163168,1.0187606811523438,-2.5785678068744105
1708433301.208031,-2.141177177429199,-1.333574966793396,-2.5274997393237513,6.109928953438558,1.018797755241394,-2.577625338231222
1708433301.2099912,-2.141201972961426,-1.3335456413081666,-2.527445379887716,6.109903681069174,1.018800973892212,-2.5767162481891077
1708433301.2119951,-2.1412198543548584,-1.3336031150868912,-2.5274692217456263,6.109933483391561,1.018784761428833,-2.5757413546191614
1708433301.2140503,-2.1412155628204346,-1.3336189699224015,-2.5275326410876673,6.109921443253317,1.0188088417053223,-2.574841324483053
1708433301.2159967,-2.1412041187286377,-1.333648071890213,-2.5274692217456263,6.109812605171957,1.0187835693359375,-2.5739122072802942
1708433301.2180512,-2.14123797416687,-1.3336558055928727,-2.5275519529925745,6.109858977585592,1.018850326538086,-2.57295805612673
1708433301.2199943,-2.141166925430298,-1.3336231273463746,-2.5275102297412317,6.109872329026022,1.0188448429107666,-2.572036329899923
1708433301.2220278,-2.1412513256073,-1.3335902255824585,-2.5275309721576136,6.109799015312948,1.0188766717910767,-2.571132485066549
1708433301.22399,-2.141183614730835,-1.3335945022157212,-2.5275355021106165,6.109841096192159,1.01888108253479,-2.5701406637774866
1708433301.2260475,-2.1411802768707275,-1.3336396229318161,-2.5275474230395716,6.109799015312948,1.01888108253479,-2.5691025892840784
1708433301.2280319,-2.1411678791046143,-1.3336354506066819,-2.5275593439685267,6.109873878746786,1.018897294998169,-2.5681799093829554
1708433301.2300527,-2.1411633491516113,-1.333618940120079,-2.5275428930865687,6.109845626145162,1.0189539194107056,-2.567265335713522
1708433301.2320452,-2.1411654949188232,-1.3336268675378342,-2.527571503316061,6.1098153469856165,1.018925428390503,-2.5662480036364954
1708433301.2340217,-2.1411654949188232,-1.33360310018573,-2.527579132710592,6.109746920853414,1.0189409255981445,-2.5653114954577845
1708433301.2360005,-2.141122579574585,-1.3336396229318161,-2.527562443410055,6.109730589180746,1.0189697742462158,-2.564376179371969
1708433301.2380288,-2.141131639480591,-1.3336625409177323,-2.527562443410055,6.109800565033712,1.0189697742462158,-2.5634945074664515
1708433301.2400074,-2.1411495208740234,-1.3335987639478226,-2.527644936238424,6.109776484757223,1.0189814567565918,-2.5625272432910364
1708433301.2420697,-2.1410884857177734,-1.3336438846639176,-2.527574602757589,6.109736192017355,1.018989086151123,-2.561539951954977
1708433301.2440472,-2.141131639480591,-1.3336073023131867,-2.527612034474508,6.109754073410787,1.019005298614502,-2.5605457464801233
1708433301.246055,-2.141120195388794,-1.3336231124452134,-2.527583662663595,6.109757411270895,1.0190218687057495,-2.559577290211813
1708433301.2480993,-2.141075849533081,-1.3336072725108643,-2.527591053639547,6.109712350159445,1.0190250873565674,-2.558573547993795
1708433301.2500176,-2.141101598739624,-1.3336189550212403,-2.527623955403463,6.109737741738119,1.0190329551696777,-2.557636086140768
1708433301.251996,-2.141052007675171,-1.3336031150868912,-2.527623955403463,6.109709489136495,1.0190657377243042,-2.5567575136767786
1708433301.2539992,-2.1410715579986572,-1.3336061251214524,-2.5276148954974573,6.10972141006545,1.0190534591674805,-2.5557807127581995
1708433301.255988,-2.1410181522369385,-1.33360310018573,-2.5275939146624964,6.109746682434835,1.019081950187683,-2.554767433797018
1708433301.2579937,-2.1410768032073975,-1.333598793750145,-2.5276764074908655,6.109668957978048,1.019068956375122,-2.553819243107931
1708433301.259996,-2.1410858631134033,-1.3336231273463746,-2.5276854673968714,6.109645116120138,1.0190938711166382,-2.5528786818133753
1708433301.2619882,-2.1410202980041504,-1.3335902851871033,-2.5276647249804896,6.109686839371481,1.0190894603729248,-2.5519371668445032
1708433301.2640061,-2.1410157680511475,-1.3335664135268708,-2.5276435057269495,6.109694230347433,1.0190808773040771,-2.5509544054614466
1708433301.265998,-2.1410043239593506,-1.3335995984128495,-2.5276270548449915,6.1096510765846155,1.019085168838501,-2.5500126520739954
1708433301.267996,-2.1410000324249268,-1.333586962228157,-2.527658526097433,6.109637725144186,1.0191094875335693,-2.5491326490985315
1708433301.2700243,-2.1409876346588135,-1.3336231273463746,-2.5276270548449915,6.1096510765846155,1.0190882682800293,-2.5481765905963343
1708433301.2720325,-2.1410043239593506,-1.3336145889810105,-2.5276690165149134,6.109606134682455,1.0191420316696167,-2.5473395029651087
1708433301.2739954,-2.1409831047058105,-1.3336316061070939,-2.527679506932394,6.109576332360067,1.0191333293914795,-2.546375576649801
1708433301.2760386,-2.140979528427124,-1.3336354506066819,-2.5276675860034388,6.109643685608663,1.0191289186477661,-2.5454748312579554
1708433301.2780368,-2.140979528427124,-1.3336310696652909,-2.527684036885397,6.109540211945333,1.0191541910171509,-2.5445810000049036
1708433301.2800357,-2.1409964561462402,-1.3336354506066819,-2.5277093092547815,6.109556662827291,1.0191289186477661,-2.543691937123434
1708433301.282,-2.1409478187561035,-1.3336274039796372,-2.5276721159564417,6.109537589340963,1.0191617012023926,-2.5427869001971644
1708433301.2839954,-2.1409928798675537,-1.3336558055928727,-2.527707878743307,6.109530198365011,1.0191736221313477,-2.5418387095080774
1708433301.2860203,-2.140965700149536,-1.3336189550212403,-2.527646605168478,6.109497177391805,1.019153118133545,-2.5409556070910853
1708433301.2880173,-2.1409363746643066,-1.3336189103177567,-2.527642075215475,6.109497058182516,1.019181489944458,-2.540077034627096
1708433301.2900507,-2.140961170196533,-1.3336354357055207,-2.5277286211596888,6.109494077950277,1.0191936492919922,-2.5391743818866175
1708433301.2920456,-2.14094877243042,-1.33360310018573,-2.527715269719259,6.10949872711257,1.019230604171753,-2.538152519856588
1708433301.2940214,-2.140915870666504,-1.33360310018573,-2.527719799672262,6.109453666001119,1.0191487073898315,-2.5372801462756556
1708433301.2960024,-2.140953302383423,-1.33360310018573,-2.5277321974383753,6.109478819161215,1.0192142724990845,-2.536391560231344
1708433301.2980683,-2.140894651412964,-1.333643065100052,-2.527741018925802,6.109456527024069,1.0192142724990845,-2.5354564825641077
1708433301.299994,-2.1409666538238525,-1.3336430352977295,-2.527665917073385,6.109421241074362,1.0192174911499023,-2.534576956425802
1708433301.3020494,-2.1409623622894287,-1.333631084566452,-2.527698818837301,6.109401571541586,1.0191727876663208,-2.5336666742907923
1708433301.304001,-2.1408798694610596,-1.3336189699224015,-2.527710739766256,6.109388220101156,1.0192055702209473,-2.53278094926943
1708433301.3059998,-2.140900135040283,-1.333570809369423,-2.52767783800234,6.109352099686422,1.0192099809646606,-2.531933371220724
1708433301.3080573,-2.1408913135528564,-1.3336031448892136,-2.5277367273913782,6.10938190200881,1.019245982170105,-2.531001631413595
1708433301.309988,-2.1408772468566895,-1.33360310018573,-2.5277367273913782,6.109378921776571,1.0192131996154785,-2.530099932347433
1708433301.3119884,-2.140925884246826,-1.3336158406785508,-2.527748409901754,6.1093952534492395,1.0192012786865234,-2.5291581789599817
1708433301.3139799,-2.1408956050872803,-1.333610401754715,-2.527698818837301,6.10929702499465,1.019245982170105,-2.528240744267599
1708433301.3159873,-2.1408956050872803,-1.33353807151828,-2.527691427861349,6.109341728478231,1.0192415714263916,-2.5273800531970423
1708433301.317977,-2.1408603191375732,-1.3335945022157212,-2.527695957814352,6.1093506691749475,1.0192131996154785,-2.5264392534839075
1708433301.3199735,-2.1408603191375732,-1.3336719435504456,-2.527689758931295,6.109317648201742,1.0192328691482544,-2.525540892277853
1708433301.3219898,-2.140897512435913,-1.3336061251214524,-2.5277486483203333,6.109330880432882,1.019249439239502,-2.524586025868551
1708433301.3240464,-2.1408817768096924,-1.3335987639478226,-2.5276854673968714,6.1093129990394495,1.019274353981018,-2.5237184206592005
1708433301.326052,-2.140856981277466,-1.3335826408914109,-2.5277321974383753,6.109252083092489,1.0192371606826782,-2.5228591601001185
1708433301.328003,-2.140856981277466,-1.3336273741773148,-2.527694288884298,6.109265315323629,1.019274353981018,-2.5219391028033655
1708433301.3300278,-2.1408274173736572,-1.3336268377355118,-2.527715269719259,6.109260904579916,1.0192205905914307,-2.521104160939352
1708433301.3320339,-2.14083194732666,-1.3336060506156464,-2.5277321974383753,6.109253513603964,1.0192668437957764,-2.5202749411212366
1708433301.334049,-2.140856981277466,-1.3335826408914109,-2.5277062098132532,6.1092580435569666,1.0192537307739258,-2.5193639437304896
1708433301.3359928,-2.140882730484009,-1.333660067324974,-2.527689758931295,6.109253513603964,1.0192285776138306,-2.518527094517843
1708433301.3380198,-2.1408331394195557,-1.3335987788489838,-2.5276854673968714,6.109229314118185,1.019274353981018,-2.5176666418658655
1708433301.3399982,-2.1408286094665527,-1.3336031150868912,-2.5276644865619105,6.109274375229635,1.0192581415176392,-2.516832415257589
1708433301.3420537,-2.1408331394195557,-1.333631084566452,-2.5277231375323694,6.109247314720907,1.019274353981018,-2.516093079243795
1708433301.3440466,-2.1408116817474365,-1.333586947326996,-2.5277276674853724,6.109186279564657,1.019249439239502,-2.5152340571032923
1708433301.3460689,-2.1408543586730957,-1.333618940120079,-2.527703348790304,6.109230863838949,1.019245982170105,-2.514444891606466
1708433301.3480742,-2.1408073902130127,-1.3335869771293183,-2.527698818837301,6.1092145321662805,1.019274353981018,-2.513648573552267
1708433301.3500683,-2.1408116817474365,-1.3336354208043595,-2.5277305285083216,6.109186160355367,1.019249439239502,-2.512813393269674
1708433301.3520627,-2.1408116817474365,-1.3335826259902497,-2.5277231375323694,6.109157907753744,1.0192371606826782,-2.512038532887594
1708433301.3541143,-2.140791416168213,-1.3335911345532914,-2.5277367273913782,6.109150159149923,1.0192581415176392,-2.511273209248678
1708433301.3560488,-2.1407763957977295,-1.3336268228343506,-2.527689758931295,6.1091219065483,1.0192087888717651,-2.510392491017477
1708433301.3580492,-2.1408162117004395,-1.3336072725108643,-2.5276854673968714,6.109187829285421,1.019261360168457,-2.509615484868185
1708433301.359991,-2.1408092975616455,-1.3336558055928727,-2.527715269719259,6.109150159149923,1.0192285776138306,-2.5088027159320276
1708433301.361988,-2.1407933235168457,-1.3336146187833329,-2.5277231375323694,6.109171378403463,1.0192526578903198,-2.5080390612231653
1708433301.3640018,-2.1407978534698486,-1.3336310994676133,-2.5277186075793665,6.109135377198019,1.0192328691482544,-2.507237259541647
1708433301.3659756,-2.140838623046875,-1.3336225760034104,-2.527748409901754,6.109193789749899,1.0192787647247314,-2.506439749394552
1708433301.3680372,-2.1408021450042725,-1.3336354506066819,-2.5277231375323694,6.109105574875631,1.0192581415176392,-2.505634848271505
1708433301.369979,-2.140773057937622,-1.3336230975440522,-2.5277486483203333,6.1091219065483,1.0192537307739258,-2.5048869291888636
1708433301.3719866,-2.1407763957977295,-1.3336387437633057,-2.5277350584613245,6.1091099856193445,1.019249439239502,-2.504111115132467
1708433301.373996,-2.140763998031616,-1.3336139929345627,-2.5277395884143274,6.109106766968527,1.019245982170105,-2.5032835642444056
1708433301.376046,-2.1407887935638428,-1.333639608030655,-2.527689758931295,6.109114515572347,1.0193028450012207,-2.5025880972491663
1708433301.378056,-2.1407310962677,-1.3336103421500702,-2.5277395884143274,6.109062301903524,1.0192699432373047,-2.50175649324526
1708433301.380043,-2.1407310962677,-1.3336226654103776,-2.5277605692492884,6.109090673714437,1.0192328691482544,-2.5010083357440394
1708433301.3820531,-2.1407570838928223,-1.333622620706894,-2.5277276674853724,6.109078633576193,1.019249439239502,-2.5002837816821497
1708433301.3840277,-2.140768527984619,-1.3336311143687745,-2.527698818837301,6.109075772553243,1.0192861557006836,-2.4994848410235804
1708433301.3860116,-2.1407392024993896,-1.3335987639478226,-2.527698818837301,6.1090500233467,1.0192537307739258,-2.4987369219409388
1708433301.388019,-2.140740156173706,-1.3336472523263474,-2.527710739766256,6.109054553299703,1.0192502737045288,-2.497934166585104
1708433301.3900452,-2.1408112049102783,-1.3335707944682618,-2.527715269719259,6.109105574875631,1.0192818641662598,-2.4972105661975306
1708433301.3920166,-2.140744686126709,-1.3336031150868912,-2.5277276674853724,6.108994710236349,1.0192451477050781,-2.496476952229635
1708433301.394036,-2.1406984329223633,-1.3336642396501084,-2.527748409901754,6.109023320465841,1.0192818641662598,-2.495719019566671
1708433301.396031,-2.140749216079712,-1.3335543435863038,-2.52767783800234,6.109048712044515,1.0192043781280518,-2.495016638432638
1708433301.3980691,-2.1407525539398193,-1.3336018782905121,-2.5277231375323694,6.108970987587728,1.0192537307739258,-2.4942577520953577
1708433301.4000127,-2.140749216079712,-1.3336515885642548,-2.5277441183673304,6.108969437866964,1.019261360168457,-2.4935086409198206
1708433301.4020114,-2.1407277584075928,-1.3336103719523926,-2.527710739766256,6.108990180283346,1.0192371606826782,-2.492720905934469
1708433301.4040174,-2.140716314315796,-1.3336225760034104,-2.5276616255389612,6.108966457634725,1.0192787647247314,-2.492014233266012
1708433301.4060109,-2.140749931335449,-1.3336145889810105,-2.5277321974383753,6.108939635544576,1.0192371606826782,-2.4913044611560267
1708433301.408009,-2.1407253742218018,-1.333598793750145,-2.5277143160449427,6.108993279724874,1.0192294120788574,-2.4906039873706263
1708433301.410029,-2.140709400177002,-1.3336558055928727,-2.527715269719259,6.108979809075155,1.019200086593628,-2.4899357000934046
1708433301.4119906,-2.140702486038208,-1.3335953515819092,-2.527698818837301,6.108955967217245,1.0192502737045288,-2.4892266432391565
1708433301.414051,-2.140713691711426,-1.3336643439582367,-2.5277424494372767,6.108960616379537,1.0192294120788574,-2.4885812441455286
1708433301.4159927,-2.140697956085205,-1.3336225611022492,-2.527710739766256,6.108927476197042,1.0191999673843384,-2.487854782735006
1708433301.4179964,-2.1407158374786377,-1.3335869026235123,-2.5277231375323694,6.108894693642416,1.0192625522613525,-2.487178389226095
1708433301.4200084,-2.1406991481781006,-1.333610327248909,-2.527752939854757,6.1089364168937585,1.0192055702209473,-2.4865313212024134
1708433301.4220147,-2.1406493186950684,-1.3335542243770142,-2.5277441183673304,6.108900654106893,1.0192415714263916,-2.4858558813678187
1708433301.424031,-2.140632390975952,-1.333623157148697,-2.5277486483203333,6.108851539879598,1.0192217826843262,-2.485199753438131
1708433301.4260924,-2.1406166553497314,-1.3336031150868912,-2.5277395884143274,6.108892786293783,1.0192294120788574,-2.48460036913027
1708433301.4280207,-2.1406052112579346,-1.333651603465416,-2.5277062098132532,6.108865010529318,1.0191924571990967,-2.483938757573263
1708433301.4300387,-2.140584707260132,-1.3336268675378342,-2.5277062098132532,6.108829009323873,1.0192174911499023,-2.4833458105670374
1708433301.4320657,-2.140606164932251,-1.3336226058057328,-2.5277321974383753,6.108770477562704,1.0192337036132812,-2.4827030340777796
1708433301.434016,-2.1406028270721436,-1.3336549562266846,-2.5277231375323694,6.108809220581808,1.0191553831100464,-2.482095781956808
1708433301.436,-2.1405832767486572,-1.333618940120079,-2.527748409901754,6.108734833985128,1.0192087888717651,-2.481461826954977
1708433301.4380593,-2.1405346393585205,-1.3336189550212403,-2.5277062098132532,6.108715402870931,1.0192546844482422,-2.4808653036700647
1708433301.4400315,-2.140498399734497,-1.3336549562266846,-2.5277350584613245,6.108716952591696,1.0191925764083862,-2.48027211824526
1708433301.4420629,-2.140460252761841,-1.3336677861264725,-2.5277186075793665,6.108671891480245,1.0192142724990845,-2.4796715418445032
1708433301.4440262,-2.1404037475585938,-1.3336183440736313,-2.5277305285083216,6.108619916230001,1.0192468166351318,-2.479102436696188
1708433301.4460447,-2.140367269515991,-1.33367112398658,-2.5277605692492884,6.1085595963294885,1.0192055702209473,-2.478501621876852
1708433301.448043,-2.140406370162964,-1.333594561820366,-2.5277379194842737,6.108573066979208,1.0192012786865234,-2.477866236363546
1708433301.4500153,-2.1403374671936035,-1.3336430054954072,-2.5277097860919397,6.1085537550743005,1.0191893577575684,-2.4773152510272425
1708433301.4519808,-2.1403348445892334,-1.3337038171342392,-2.5277350584613245,6.108499991684713,1.0192055702209473,-2.4767759482013147
1708433301.4539962,-2.140249252319336,-1.3336549413255234,-2.5277469793902796,6.108471858292379,1.0191762447357178,-2.4761937300311487
1708433301.4559805,-2.1402411460876465,-1.3336387884667893,-2.527717177067892,6.10846112945632,1.0192055702209473,-2.4755738417254847
1708433301.458016,-2.14017653465271,-1.3336430352977295,-2.5277708212481897,6.108465540200033,1.0192131996154785,-2.475013558064596
1708433301.45999,-2.1401572227478027,-1.3336387884667893,-2.527766291295187,6.108425366669454,1.0192131996154785,-2.474494759236471
1708433301.461995,-2.140108585357666,-1.3336753857186814,-2.527803961430685,6.108375894814291,1.019209861755371,-2.473875109349386
1708433301.4640002,-2.140052080154419,-1.3336662662080307,-2.527761761342184,6.108384835511007,1.0192294120788574,-2.4733970800982874
1708433301.4659796,-2.1400113105773926,-1.3336833727410813,-2.527811590825216,6.108340251236715,1.0192012786865234,-2.4729135672198694
1708433301.4679935,-2.140015125274658,-1.333690957432129,-2.5277980009662073,6.1082355854804895,1.019225001335144,-2.4723642508136194
1708433301.4699798,-2.1399788856506348,-1.3336995554021378,-2.5278337637530726,6.108263957291403,1.0192217826843262,-2.471863571797506
1708433301.4719772,-2.139902114868164,-1.333702878361084,-2.5278099218951624,6.108196365624227,1.0192424058914185,-2.4713566938983362
1708433301.4740405,-2.139800548553467,-1.333702028994896,-2.527900044118063,6.108193743019857,1.0192131996154785,-2.4708591143237513
1708433301.4760196,-2.139814615249634,-1.3337062907269974,-2.5279207865344446,6.108097779541769,1.0192012786865234,-2.470330778752462
1708433301.4780116,-2.1397430896759033,-1.333759070639946,-2.527898375188009,6.108106720238485,1.0192502737045288,-2.4698265234576624
1708433301.4800107,-2.1396501064300537,-1.333746225838997,-2.527989927922384,6.108059155731954,1.0192581415176392,-2.469346348439352
1708433301.4820244,-2.139590263366699,-1.3337703806212922,-2.5279555956469935,6.10793815830306,1.0192699432373047,-2.4688521067248743
1708433301.4840212,-2.1395256519317627,-1.3337627959302445,-2.5280001799212855,6.107881295471945,1.0192861557006836,-2.4683757464038294
1708433301.485986,-2.1394717693328857,-1.3338063818267365,-2.527982298527853,6.107855784683981,1.0192787647247314,-2.4678922335254114
1708433301.488008,-2.139416217803955,-1.333794118171074,-2.528048578892843,6.107742178231039,1.0192731618881226,-2.4674485365497034
1708433301.4900215,-2.1392905712127686,-1.3338504445603867,-2.5281172434436243,6.107728945999899,1.0193265676498413,-2.467016045247213
1708433301.4920137,-2.1391854286193848,-1.3338669699481507,-2.528116051350729,6.107573377877035,1.0193791389465332,-2.466531578694479
1708433301.4940164,-2.139094591140747,-1.3338854920915146,-2.52810246149172,6.10747920253829,1.0193747282028198,-2.4660454432116907
1708433301.496029,-2.1389992237091064,-1.3338821542314072,-2.5281971136676233,6.107477652817526,1.0193901062011719,-2.4656389395343226
1708433301.4980376,-2.1388869285583496,-1.3339139384082337,-2.5282073656665247,6.107265460282125,1.0194514989852905,-2.4652274290667933
1708433301.500018,-2.1387429237365723,-1.3339906346848984,-2.528222147618429,6.107191908150472,1.019474744796753,-2.4648385683642786
1708433301.5019896,-2.1386945247650146,-1.3339658391526719,-2.5282912890063685,6.107060658722677,1.0195189714431763,-2.4644060770617884
1708433301.504023,-2.1385273933410645,-1.3339649152806778,-2.5283032099353235,6.10693513134078,1.0195059776306152,-2.464013640080587
1708433301.5059984,-2.1384127140045166,-1.3340506118587037,-2.52834397951235,6.106843817024984,1.0195589065551758,-2.4636223951922815
1708433301.5079973,-2.138244152069092,-1.3340378415635605,-2.52839166322817,6.106733310013571,1.0195794105529785,-2.4631992022143763
1708433301.5099864,-2.138162851333618,-1.3340983253768464,-2.528435293828146,6.106540429383077,1.0196142196655273,-2.4628246466266077
1708433301.5119884,-2.137998342514038,-1.3340813231519242,-2.528447214757101,6.1063729403312585,1.019675374031067,-2.462442700062887
1708433301.5140295,-2.1378304958343506,-1.3341782105020066,-2.528475824986593,6.106233942299642,1.0196905136108398,-2.4621134440051478
1708433301.5159874,-2.1375999450683594,-1.3341412407210846,-2.5285237471209925,6.106061804085531,1.0197923183441162,-2.461724583302633
1708433301.5179932,-2.137416362762451,-1.3342133921435853,-2.528621021901266,6.10595320442275,1.019798994064331,-2.461400095616476
1708433301.520017,-2.1372616291046143,-1.3342214238694687,-2.528623882924215,6.105670678406515,1.0198066234588623,-2.4610922972308558
1708433301.5220122,-2.1370737552642822,-1.3342606288245697,-2.5286765734301966,6.105506169586935,1.0199081897735596,-2.4607303778277796
1708433301.5240335,-2.136883497238159,-1.3342648160508652,-2.528712574635641,6.105311620026388,1.0199607610702515,-2.460407320653097
1708433301.526065,-2.1366591453552246,-1.3343662333539505,-2.528759304677145,6.105084407120504,1.0199804306030273,-2.460135523472921
1708433301.5280542,-2.1363840103149414,-1.334373415713646,-2.528762165700094,6.104819762497701,1.0200121402740479,-2.4598854223834437
1708433301.5300467,-2.1361615657806396,-1.3343884509852906,-2.5288146177874964,6.104609358101644,1.0200393199920654,-2.4595349470721644
1708433301.532002,-2.135871171951294,-1.334473193889,-2.528907601033346,6.104392039566793,1.02012038230896,-2.4593053499804896
1708433301.5340424,-2.1356544494628906,-1.3344766360572358,-2.5289929548846644,6.104094970017233,1.0201847553253174,-2.459008518849508
1708433301.5359974,-2.1354124546051025,-1.334532694225647,-2.529008213673727,6.103845226555624,1.020228624343872,-2.4587271849261683
1708433301.53803,-2.1351044178009033,-1.3345807504704972,-2.5290635267840784,6.1036016819770715,1.020263433456421,-2.4584720770465296
1708433301.5400598,-2.134824275970459,-1.334612251525261,-2.529161039982931,6.103281724243917,1.0203487873077393,-2.4582436720477503
1708433301.5420532,-2.1345179080963135,-1.3346884858659287,-2.5291627089129847,6.102953064232626,1.0204087495803833,-2.4579060713397425
1708433301.544059,-2.134213924407959,-1.3347239953330536,-2.5292556921588343,6.1026391861732385,1.0204766988754272,-2.457710091267721
1708433301.546053,-2.1338796615600586,-1.3348118227771302,-2.529335085545675,6.102323639183798,1.0205367803573608,-2.45746881166567
1708433301.54806,-2.1335039138793945,-1.3348072481206437,-2.5294700304614466,6.101976740151205,1.0206340551376343,-2.4572582880603235
1708433301.5500941,-2.1331658363342285,-1.3348916184953232,-2.529480520878927,6.101601350098409,1.0207059383392334,-2.4570544401751917
1708433301.5520456,-2.1327576637268066,-1.3349591803601761,-2.529588286076681,6.101275670319357,1.0207738876342773,-2.4568949381457728
1708433301.5540466,-2.1323723793029785,-1.3350070875934144,-2.5296528975116175,6.100874888687887,1.0208295583724976,-2.4566834608661097
1708433301.5560331,-2.1320271492004395,-1.3350667518428345,-2.5297444502459925,6.100517618447103,1.0209019184112549,-2.456477944050924
1708433301.5580297,-2.13165020942688,-1.3351341646960755,-2.529783550892965,6.100027310639181,1.0209654569625854,-2.456322256718771
1708433301.560027,-2.131246328353882,-1.3352017265609284,-2.529945437108175,6.099645840912618,1.0210745334625244,-2.4561343828784388
1708433301.562064,-2.1308064460754395,-1.3353268814137955,-2.529975239430563,6.099260318070211,1.0211303234100342,-2.4559407869922083
1708433301.5639973,-2.1303675174713135,-1.3354144108346482,-2.530132834111349,6.098735797196188,1.0212595462799072,-2.4558265844928187
1708433301.5660396,-2.1298091411590576,-1.3354534965804596,-2.5302255789386194,6.098257887154379,1.0213180780410767,-2.455707375203268
1708433301.5680308,-2.129363775253296,-1.335521177654602,-2.5303128401385706,6.097776400833883,1.0214024782180786,-2.4555380980121058
1708433301.5699837,-2.12888503074646,-1.3356048476747056,-2.5303998629199427,6.097275483399191,1.0215073823928833,-2.4553895632373255
1708433301.5719874,-2.1283655166625977,-1.3356842708638688,-2.5305166880237024,6.096717941551962,1.021611213684082,-2.4553073088275355
1708433301.573993,-2.127871036529541,-1.3357882809690018,-2.5306127707110804,6.09630976894454,1.0216913223266602,-2.455202881489889
1708433301.5760775,-2.127387762069702,-1.3358476769975205,-2.5307491461383265,6.095770227700033,1.0217872858047485,-2.45510703722109
1708433301.5780616,-2.126857042312622,-1.336007834678032,-2.5308497587787073,6.095300781517782,1.0218265056610107,-2.4549899736987513
1708433301.5800278,-2.1263554096221924,-1.3361195486835022,-2.5309203306781214,6.09468828418807,1.022013545036316,-2.4549313227282923
1708433301.5820255,-2.1258089542388916,-1.3361295473626633,-2.531086508427755,6.094191539078512,1.0220682621002197,-2.4548185507403772
1708433301.5839934,-2.12520432472229,-1.3362948310426255,-2.531227413808004,6.093564140587606,1.022217869758606,-2.4547184149371546
1708433301.5860295,-2.12465500831604,-1.3364465993693848,-2.5313056151019495,6.092946517258444,1.022326111793518,-2.454724375401632
1708433301.5880117,-2.1239938735961914,-1.3365502220443268,-2.5314043203936976,6.092282759934225,1.0223839282989502,-2.4546518961535853
1708433301.5899906,-2.123415470123291,-1.336718202834465,-2.531543795262472,6.091636764794149,1.022468090057373,-2.454608742390768
1708433301.5920143,-2.1228220462799072,-1.3367569309524079,-2.5316653887378138,6.091007101326742,1.0226255655288696,-2.4545605818377894
1708433301.5940444,-2.1221923828125,-1.3369372201016922,-2.531771723424093,6.090301024704733,1.0227172374725342,-2.454492155705587
1708433301.596017,-2.12158203125,-1.3370080602220078,-2.5319157282458704,6.089692222862997,1.0228582620620728,-2.4544761816607874
1708433301.5979834,-2.120896339416504,-1.3371235442212601,-2.5320926348315638,6.088985311775961,1.0229873657226562,-2.45445686975588
1708433301.6000009,-2.120210647583008,-1.337291271691658,-2.532233778630392,6.088300692826071,1.0230300426483154,-2.45436674753298
1708433301.6019843,-2.119523763656616,-1.337386430507042,-2.532328192387716,6.08750997760848,1.0232245922088623,-2.454430166875021
1708433301.6040037,-2.118776321411133,-1.3375587922385712,-2.532506529484884,6.086716878205099,1.0232999324798584,-2.4544087092029017
1708433301.6059856,-2.118001937866211,-1.33771866679702,-2.5326204935656946,6.085940944939413,1.0234311819076538,-2.454446617756979
1708433301.607995,-2.1172597408294678,-1.337846190934517,-2.532769028340475,6.085178005486288,1.023564338684082,-2.454444948826925
1708433301.6100287,-2.1165215969085693,-1.3380031448653718,-2.5329085032092493,6.0843684552009485,1.0236639976501465,-2.4544478098498743
1708433301.6120083,-2.115771532058716,-1.3382004362395783,-2.5330734888659876,6.083514797478475,1.0237677097320557,-2.454522196446554
1708433301.614032,-2.1149489879608154,-1.3383051019958039,-2.53322941461672,6.0827640173728845,1.023851990699768,-2.4546149412738245
1708433301.61599,-2.1141176223754883,-1.3385022592595597,-2.5333269278155726,6.081856119423666,1.0239392518997192,-2.4545844236956995
1708433301.6180573,-2.1132583618164062,-1.3386532676270981,-2.533520285283224,6.08097933509902,1.0241382122039795,-2.4546683470355433
1708433301.619992,-2.112396240234375,-1.3388325434974213,-2.5336807409869593,6.080086815148153,1.0242003202438354,-2.454696003590719
1708433301.6220324,-2.111485481262207,-1.3390867126039048,-2.5337918440448206,6.079120027809896,1.0243372917175293,-2.454773728047506
1708433301.624,-2.1106412410736084,-1.3391839575818558,-2.5339883009540003,6.078289973526754,1.024453043937683,-2.4548309485064905
1708433301.626029,-2.109739303588867,-1.339370684032776,-2.5341158548938196,6.077330219536581,1.0246549844741821,-2.4548657576190394
1708433301.6280873,-2.108816146850586,-1.3395543110421677,-2.534337822590963,6.076388942986288,1.0247130393981934,-2.454963032399313
1708433301.6300178,-2.107896566390991,-1.339713068013527,-2.5344846884356897,6.075432288437643,1.0248628854751587,-2.454953972493307
1708433301.6320229,-2.1068906784057617,-1.339913235311844,-2.5346315542804163,6.074416386872091,1.024950385093689,-2.455028835927145
1708433301.634038,-2.105952024459839,-1.3401403290084382,-2.534766737614767,6.073404061585226,1.025061845779419,-2.455176655446188
1708433301.6360183,-2.104978322982788,-1.34033618987117,-2.5350216070758265,6.072389709740438,1.0252522230148315,-2.455245319996969
1708433301.6380198,-2.104001998901367,-1.3405065101436158,-2.535210434590475,6.071288454323568,1.0253394842147827,-2.455273691807882
1708433301.6400273,-2.1029889583587646,-1.3406977963498612,-2.5353363196002405,6.070220935135641,1.0254387855529785,-2.455416266118185
1708433301.6420522,-2.101912498474121,-1.3409083199552079,-2.53553277650942,6.069134580879965,1.0255272388458252,-2.4555276075946253
1708433301.6440015,-2.1008687019348145,-1.3411805045655747,-2.535700861607687,6.0679828999336145,1.0256757736206055,-2.4556193987475794
1708433301.6460533,-2.0998268127441406,-1.3413929057172318,-2.5358403364764612,6.066933738976278,1.025808334350586,-2.4557696024524134
1708433301.648083,-2.098724842071533,-1.341591702108719,-2.536027733479635,6.065824854164877,1.025895595550537,-2.4559550921069544
1708433301.6500266,-2.0976903438568115,-1.3418113899281998,-2.5361958185779017,6.064704286843099,1.0259875059127808,-2.456059281026022
1708433301.6520205,-2.0965468883514404,-1.342076153760292,-2.536396567021505,6.063588964730062,1.0261329412460327,-2.4561412970172327
1708433301.654036,-2.0954055786132812,-1.3422970038703461,-2.536564652119772,6.062371003418722,1.0262160301208496,-2.4562886396991175
1708433301.6560187,-2.094294786453247,-1.342512385254242,-2.5367699305163782,6.061141359597006,1.026374340057373,-2.456433121358053
1708433301.6580224,-2.0930936336517334,-1.3427261275104065,-2.536957565938131,6.0598745224769495,1.0264697074890137,-2.4566190878497522
1708433301.6600258,-2.09185528755188,-1.3429893416217347,-2.5370925108539026,6.058696377068319,1.0265779495239258,-2.4567540327655237
1708433301.6620142,-2.0906708240509033,-1.3432778281024476,-2.5372634569751185,6.057454454689779,1.0266892910003662,-2.456865135823385
1708433301.664006,-2.089517116546631,-1.3434914511493226,-2.537464205418722,6.0561280129249475,1.0268181562423706,-2.457019869481222
1708433301.6660004,-2.088284492492676,-1.3437726211598893,-2.5376113096820276,6.054914104729452,1.0269055366516113,-2.4572184721576136
1708433301.6679924,-2.087008237838745,-1.34404011190448,-2.5377867857562464,6.053503262787618,1.0270150899887085,-2.4574151674853724
1708433301.6699955,-2.085721254348755,-1.3443550181439896,-2.537971083317892,6.052200066834249,1.0271461009979248,-2.457607094441549
1708433301.6719933,-2.0844247341156006,-1.3446228218129654,-2.5382214228259485,6.0507216332252405,1.027287244796753,-2.4577749411212366
1708433301.6740308,-2.0830798149108887,-1.344905511741974,-2.538351837788717,6.049275028496542,1.0273669958114624,-2.4579759279834192
1708433301.6761248,-2.0817623138427734,-1.3451803189567109,-2.538523260747091,6.0479235527809045,1.0274423360824585,-2.4581761995898646
1708433301.6780624,-2.080461263656616,-1.3454825294068833,-2.5386911074267786,6.0465361950691126,1.0275843143463135,-2.4583385626422327
1708433301.6800208,-2.079160213470459,-1.3457288605025788,-2.538854424153463,6.045168983727255,1.0276554822921753,-2.458548609410421
1708433301.6820352,-2.077824592590332,-1.3460084807923813,-2.539013210927145,6.043781029969015,1.027747392654419,-2.458712641392843
1708433301.6839998,-2.0764925479888916,-1.346323699956276,-2.5392280260669153,6.042319643288412,1.0278022289276123,-2.458937470112936
1708433301.6860144,-2.075167655944824,-1.3466599446586152,-2.539415423070089,6.040952908783712,1.0279158353805542,-2.4591341654406946
1708433301.6880162,-2.0737533569335938,-1.3468855631402512,-2.539590899144308,6.039592373162069,1.028011679649353,-2.459296528493063
1708433301.6900446,-2.0724246501922607,-1.3471771490624924,-2.5397587458239954,6.038167941361227,1.0280706882476807,-2.459494654332296
1708433301.6920633,-2.0710434913635254,-1.3474839639714737,-2.539985005055563,6.036671983986654,1.0282336473464966,-2.4597023169146937
1708433301.6940515,-2.0696074962615967,-1.3477945041707535,-2.5401068369494837,6.035174834519186,1.028255581855774,-2.459877316151754
1708433301.696023,-2.068209171295166,-1.348225162630417,-2.540324036275045,6.033650982170858,1.0283156633377075,-2.4601386229144495
1708433301.6979952,-2.06679105758667,-1.3484745782664795,-2.540513340626852,6.03227328041152,1.0284044742584229,-2.4602883497821253
1708433301.70005,-2.065290927886963,-1.3488094520619889,-2.540652338658468,6.030761587410726,1.0284686088562012,-2.460489575062887
1708433301.7020278,-2.063833236694336,-1.3490485113910218,-2.540781561528341,6.029329883843221,1.0284874439239502,-2.4607766310321253
1708433301.7040102,-2.062436580657959,-1.3494524967721482,-2.5409701506244105,6.027817952423849,1.0285922288894653,-2.460914436970846
1708433301.7060242,-2.060983657836914,-1.3497076642564316,-2.541098181401388,6.026346194535055,1.0286163091659546,-2.4611602465258997
1708433301.7080092,-2.0594379901885986,-1.3500918310931702,-2.541274611149923,6.024829375534811,1.0286973714828491,-2.4613848368274134
1708433301.7100165,-2.057921886444092,-1.3503535401872178,-2.5414591471301478,6.023231494217672,1.02872896194458,-2.4615257422076624
1708433301.7120545,-2.056427001953125,-1.3507822763970871,-2.541570250188009,6.021631705551901,1.0287977457046509,-2.4618011156665247
1708433301.714036,-2.0548787117004395,-1.3510961097529908,-2.5417667070971888,6.019972193032064,1.0287922620773315,-2.462024513875143
1708433301.7159975,-2.0533392429351807,-1.3514666122249146,-2.5419557730304163,6.0183894512946985,1.0288938283920288,-2.462224070225851
1708433301.7179923,-2.051801919937134,-1.3518090707114716,-2.5420950094806116,6.016811716347494,1.0289257764816284,-2.46242863336672
