Eg3-git/Classifiers/Data Collection/u1/u1cir2_ur3e_joint_states.csv
time,elbow_joint,shoulder_lift_joint,shoulder_pan_joint,wrist_1_joint,wrist_2_joint,wrist_3_joint
1708433484.5715234,-2.151034116744995,-1.3355441850474854,-2.523407045994894,6.130675899773397,1.011303186416626,-1.5743921438800257
1708433484.5735226,-2.1510884761810303,-1.3355688166669388,-2.5234373251544397,6.130671489029684,1.0113165378570557,-1.5743864218341272
1708433484.5755308,-2.151076078414917,-1.3355325025371094,-2.5234373251544397,6.130698549538412,1.011274814605713,-1.574378792439596
1708433484.5775201,-2.151047468185425,-1.3355561059764405,-2.5234039465533655,6.130683409958639,1.011274814605713,-1.574324909840719
1708433484.5795252,-2.151067018508911,-1.3355163049748917,-2.5233903566943567,6.130692350655355,1.0112417936325073,-1.5743549505816858
1708433484.581539,-2.151067018508911,-1.335528315310814,-2.5234537760363978,6.1307657835777185,1.01127028465271,-1.574366871510641
1708433484.5835185,-2.1510555744171143,-1.3355561059764405,-2.5234954992877405,6.130720841675558,1.0112372636795044,-1.5743263403521937
1708433484.5855198,-2.151071548461914,-1.3355682653239747,-2.523432795201437,6.1306625483329675,1.011303186416626,-1.5743053595172327
1708433484.5875094,-2.151008129119873,-1.335560367708542,-2.5234039465533655,6.130725252419271,1.011274814605713,-1.574333969746725
1708433484.5895348,-2.151071548461914,-1.3355645847371598,-2.523411575947897,6.130779135018148,1.0113164186477661,-1.5743430296527308
1708433484.5915415,-2.151060104370117,-1.335516319876053,-2.523435656224386,6.130720841675558,1.0112462043762207,-1.5743802229510706
1708433484.593509,-2.151005983352661,-1.3355688166669388,-2.523423735295431,6.130749094277181,1.0112625360488892,-1.574350659047262
1708433484.595503,-2.1510579586029053,-1.3356134456447144,-2.5234373251544397,6.13074158409194,1.0112669467926025,-1.5742962996112269
1708433484.597518,-2.151017189025879,-1.3355853420547028,-2.5234373251544397,6.130732762604513,1.0112625360488892,-1.5743430296527308
1708433484.5996249,-2.151038646697998,-1.3355688017657776,-2.523407045994894,6.130717861443319,1.0113033056259155,-1.5743306318866175
1708433484.6016114,-2.151038646697998,-1.3355645847371598,-2.523423735295431,6.130750643997946,1.0112614631652832,-1.5743187109576624
1708433484.6035867,-2.151038646697998,-1.3355325025371094,-2.5233994166003626,6.130720841675558,1.0112372636795044,-1.5743144194232386
1708433484.6055968,-2.151067018508911,-1.3355526638082047,-2.523428265248434,6.130725252419271,1.0112255811691284,-1.5743683020221155
1708433484.607581,-2.151067018508911,-1.3355682653239747,-2.523419205342428,6.130704510002889,1.011244773864746,-1.5743187109576624
1708433484.609531,-2.1510555744171143,-1.335539923315384,-2.523431126271383,6.130729782372274,1.0112581253051758,-1.5743096510516565
1708433484.611526,-2.1510510444641113,-1.33548358202491,-2.5233903566943567,6.130687820702352,1.011244773864746,-1.5743396917926233
1708433484.6135478,-2.151012659072876,-1.3355441850474854,-2.523432795201437,6.130713450699606,1.0112284421920776,-1.5743110815631312
1708433484.6156085,-2.151034116744995,-1.335528315310814,-2.5233903566943567,6.130695569306173,1.011237382888794,-1.5743067900287073
1708433484.6175883,-2.1510884761810303,-1.3355526340058823,-2.523465696965353,6.130683409958639,1.0112122297286987,-1.5743230024920862
1708433484.619573,-2.1510510444641113,-1.3355367642692109,-2.5233903566943567,6.13074158409194,1.011274814605713,-1.5743067900287073
1708433484.6215782,-2.151067018508911,-1.3355972629836579,-2.523414675389425,6.130725371628561,1.0112535953521729,-1.5742986837970179
1708433484.6236026,-2.1510748863220215,-1.3355325025371094,-2.5233739058123987,6.130729782372274,1.0112791061401367,-1.5742738882647913
1708433484.6255372,-2.151001214981079,-1.3355121326497574,-2.523449246083395,6.130704510002889,1.0112535953521729,-1.5743158499347132
1708433484.6275458,-2.151076078414917,-1.3355441850474854,-2.523452107106344,6.130737173348226,1.0112614631652832,-1.5742738882647913
1708433484.6295216,-2.151005983352661,-1.3355121326497574,-2.523477379475729,6.130755054741659,1.0112614631652832,-1.574261490498678
1708433484.6315217,-2.151017189025879,-1.3355731827071686,-2.523465696965353,6.130717861443319,1.0112298727035522,-1.574320141469137
1708433484.6335654,-2.1510465145111084,-1.335507870917656,-2.523473087941305,6.1307164309318445,1.0113327503204346,-1.5743158499347132
1708433484.6355593,-2.151060104370117,-1.3355811101249238,-2.523444716130392,6.130692231446066,1.01127028465271,-1.574294392262594
1708433484.637516,-2.151012659072876,-1.3355483722737809,-2.523411575947897,6.130732762604513,1.0112581253051758,-1.5742853323565882
1708433484.6395335,-2.1510794162750244,-1.3355732274106522,-2.5234161059008997,6.130746114044943,1.0112535953521729,-1.574287239705221
1708433484.6415389,-2.1510465145111084,-1.3355325025371094,-2.5234537760363978,6.130749094277181,1.011307716369629,-1.5742986837970179
1708433484.6435313,-2.150996685028076,-1.335560367708542,-2.5234819094287317,6.130703079491415,1.0112614631652832,-1.5742986837970179
1708433484.6455247,-2.1510558128356934,-1.3354869347861786,-2.5234537760363978,6.130729782372274,1.0112614631652832,-1.5743158499347132
1708433484.6475263,-2.151062488555908,-1.3354869347861786,-2.523402516041891,6.130666959076681,1.0112581253051758,-1.5742853323565882
1708433484.6496763,-2.151021718978882,-1.3355120879462739,-2.5234373251544397,6.130713450699606,1.0112417936325073,-1.5743187109576624
1708433484.6516192,-2.1510839462280273,-1.3355682653239747,-2.5233903566943567,6.130737173348226,1.011244773864746,-1.574294392262594
1708433484.6535833,-2.15106463432312,-1.335512102847435,-2.5233994166003626,6.130687820702352,1.0112943649291992,-1.5743110815631312
1708433484.6555753,-2.151076078414917,-1.3355312955430527,-2.523428265248434,6.130754935532369,1.011204719543457,-1.5743158499347132
1708433484.6575391,-2.151060104370117,-1.3355240535787125,-2.5234702269183558,6.1306804297264,1.0112284421920776,-1.574294392262594
1708433484.6595595,-2.1510422229766846,-1.3355240237763901,-2.523444716130392,6.130732762604513,1.0112535953521729,-1.5742829481707972
1708433484.661542,-2.1511006355285645,-1.3355561059764405,-2.523440186177389,6.13074158409194,1.011303186416626,-1.5742738882647913
1708433484.6635637,-2.1510839462280273,-1.335512102847435,-2.5234161059008997,6.1307341931159876,1.011244773864746,-1.5743034521686
1708433484.6655903,-2.1510307788848877,-1.3355517399362107,-2.523494068776266,6.130683409958639,1.0112625360488892,-1.5742705504046839
1708433484.6675212,-2.1510837078094482,-1.3355325025371094,-2.523432795201437,6.13074158409194,1.0113033056259155,-1.5743067900287073
1708433484.6695123,-2.1510555744171143,-1.3355441850474854,-2.5233994166003626,6.130744683533468,1.0112746953964233,-1.5742781797992151
1708433484.6715338,-2.151071548461914,-1.3355483722737809,-2.5233903566943567,6.1307283518608,1.0112284421920776,-1.5742853323565882
1708433484.673532,-2.151071548461914,-1.3355399084142228,-2.523423735295431,6.130696761399069,1.0112581253051758,-1.5742705504046839
1708433484.6755257,-2.1510262489318848,-1.335560367708542,-2.523423735295431,6.130779135018148,1.0112581253051758,-1.5742829481707972
1708433484.677553,-2.151060104370117,-1.3355325025371094,-2.523432795201437,6.130720841675558,1.0112625360488892,-1.5742786566363733
1708433484.679517,-2.1510837078094482,-1.3355645102313538,-2.523411575947897,6.130762445717611,1.0112581253051758,-1.57426625887026
1708433484.6815352,-2.1510558128356934,-1.335563988690712,-2.5233619848834437,6.1307341931159876,1.0112462043762207,-1.5742877165423792
1708433484.6835518,-2.151067018508911,-1.3355399084142228,-2.523432795201437,6.130774605065145,1.0112196207046509,-1.5742829481707972
1708433484.6855333,-2.1510510444641113,-1.335512102847435,-2.5234537760363978,6.130737173348226,1.0112614631652832,-1.5742786566363733
1708433484.6875267,-2.1510262489318848,-1.3355561059764405,-2.5234161059008997,6.130700099259176,1.0112570524215698,-1.5742829481707972
1708433484.6895285,-2.1510536670684814,-1.3355682653239747,-2.523435656224386,6.130696761399069,1.0112581253051758,-1.5742786566363733
1708433484.6915178,-2.1510510444641113,-1.3355325025371094,-2.523444716130392,6.130754935532369,1.01127028465271,-1.5743034521686
1708433484.6935155,-2.1510510444641113,-1.3355888289264222,-2.523456637059347,6.130757915764608,1.011237382888794,-1.5743230024920862
1708433484.6955125,-2.1510555744171143,-1.3355517399362107,-2.523385826741354,6.130704510002889,1.0112535953521729,-1.574261490498678
1708433484.6975248,-2.1510884761810303,-1.335563988690712,-2.523449246083395,6.130683409958639,1.0112746953964233,-1.5742986837970179
1708433484.6996086,-2.151017189025879,-1.335516319876053,-2.523460928593771,6.130701172142782,1.011244773864746,-1.574294392262594
1708433484.7015805,-2.151062488555908,-1.335507870917656,-2.5233994166003626,6.130755054741659,1.0113121271133423,-1.5742738882647913
1708433484.7036016,-2.151008129119873,-1.3354913008264084,-2.523477379475729,6.130713450699606,1.0112254619598389,-1.5742829481707972
1708433484.7055867,-2.1510510444641113,-1.335528315310814,-2.52346116701235,6.130701172142782,1.0112625360488892,-1.5742695967303675
1708433484.707545,-2.1510262489318848,-1.3355731827071686,-2.523431126271383,6.130717861443319,1.0112298727035522,-1.5742901007281702
1708433484.7095654,-2.151017189025879,-1.3355682653239747,-2.523428265248434,6.130696761399069,1.01127028465271,-1.5743158499347132
1708433484.7115648,-2.151060104370117,-1.3355483722737809,-2.5234535376178187,6.1307222721870325,1.0112570524215698,-1.574287239705221
1708433484.7135792,-2.151008129119873,-1.3355645847371598,-2.523428265248434,6.130705582886495,1.0112624168395996,-1.5743277708636683
1708433484.715597,-2.151005983352661,-1.3355240237763901,-2.523435656224386,6.130725252419271,1.01127028465271,-1.5743034521686
1708433484.7175539,-2.1510837078094482,-1.335507870917656,-2.5234373251544397,6.130686747818746,1.0112625360488892,-1.5742738882647913
1708433484.7195663,-2.1510262489318848,-1.3355526638082047,-2.5234583059894007,6.130737173348226,1.0113240480422974,-1.57426625887026
1708433484.721519,-2.151067018508911,-1.3355645549348374,-2.523423735295431,6.130750643997946,1.011303186416626,-1.5743034521686
1708433484.7235208,-2.151060104370117,-1.3355441850474854,-2.523432795201437,6.130666959076681,1.0112943649291992,-1.574332062398092
1708433484.7255068,-2.151008129119873,-1.3355249476483841,-2.523423735295431,6.130678880005636,1.0113106966018677,-1.5743125120746058
1708433484.7275262,-2.151060104370117,-1.3355325025371094,-2.523432795201437,6.130687820702352,1.0112791061401367,-1.5743067900287073
1708433484.729512,-2.151067018508911,-1.33548358202491,-2.523411575947897,6.130700099259176,1.0112625360488892,-1.574287239705221
1708433484.7315156,-2.1510307788848877,-1.335528315310814,-2.523449246083395,6.130732762604513,1.011307716369629,-1.5742738882647913
1708433484.7335162,-2.1510558128356934,-1.3355034601739426,-2.523432795201437,6.130729782372274,1.0112899541854858,-1.5743277708636683
1708433484.7355092,-2.1510262489318848,-1.3355399084142228,-2.523473087941305,6.130770194321432,1.011244773864746,-1.5742986837970179
1708433484.7375119,-2.151076078414917,-1.3355603826097031,-2.523428265248434,6.130725252419271,1.0112746953964233,-1.5742362181292933
1708433484.7395222,-2.151062488555908,-1.335528315310814,-2.523423735295431,6.130668508797445,1.011244773864746,-1.5743158499347132
1708433484.741535,-2.151060104370117,-1.3355645549348374,-2.5234206358539026,6.130675899773397,1.0113240480422974,-1.5743187109576624
1708433484.7435157,-2.151034116744995,-1.3355249774507065,-2.5234537760363978,6.130675899773397,1.0113120079040527,-1.5743158499347132
1708433484.7455235,-2.151033878326416,-1.3355325025371094,-2.5234206358539026,6.130647408753195,1.011252522468567,-1.574294392262594
1708433484.7475693,-2.1510262489318848,-1.3355325025371094,-2.523465696965353,6.130708920746603,1.0112570524215698,-1.574292008076803
1708433484.7496185,-2.151038646697998,-1.335528315310814,-2.523419205342428,6.130692231446066,1.011237382888794,-1.5743110815631312
1708433484.7515907,-2.151043176651001,-1.3355121326497574,-2.523444716130392,6.130720841675558,1.0113362073898315,-1.5743230024920862
1708433484.7535567,-2.1510558128356934,-1.3355367642692109,-2.523440186177389,6.130701172142782,1.011336326599121,-1.5742738882647913
1708433484.755579,-2.151021718978882,-1.3355811101249238,-2.523456637059347,6.130729782372274,1.0112899541854858,-1.574332062398092
1708433484.757524,-2.1510262489318848,-1.3355196577361603,-2.523452107106344,6.130729782372274,1.0112810134887695,-1.5742901007281702
1708433484.7595773,-2.150996685028076,-1.3355726313642045,-2.523428265248434,6.130701172142782,1.0112570524215698,-1.5742738882647913
1708433484.7615266,-2.1510510444641113,-1.335528315310814,-2.523456637059347,6.1306848404701135,1.0113062858581543,-1.5743067900287073
1708433484.763621,-2.151017189025879,-1.3355896931937714,-2.523435656224386,6.130705582886495,1.0113391876220703,-1.5742986837970179
1708433484.7655783,-2.1510837078094482,-1.3355367642692109,-2.523431126271383,6.130717861443319,1.0112943649291992,-1.5743024984942835
1708433484.7675228,-2.151017189025879,-1.3355811101249238,-2.523431126271383,6.1307341931159876,1.0113106966018677,-1.5743158499347132
1708433484.7695382,-2.151001214981079,-1.335528315310814,-2.523411575947897,6.130705582886495,1.0112855434417725,-1.5743277708636683
1708433484.7715335,-2.15106463432312,-1.335482658152916,-2.523440186177389,6.130713450699606,1.0113435983657837,-1.5743158499347132
1708433484.7735724,-2.151043176651001,-1.335499794488289,-2.523475948964254,6.130780327111044,1.0113184452056885,-1.574332062398092
1708433484.7755537,-2.151060104370117,-1.3355325025371094,-2.523449246083395,6.130692231446066,1.0113096237182617,-1.5743563810931605
1708433484.777534,-2.151029586791992,-1.3355432164720078,-2.523456637059347,6.130687820702352,1.0113273859024048,-1.5743067900287073
1708433484.779591,-2.1510510444641113,-1.335535542373993,-2.523432795201437,6.130647408753195,1.011281132698059,-1.5743277708636683
1708433484.7815282,-2.1510465145111084,-1.3355888289264222,-2.5234702269183558,6.1306804297264,1.0113106966018677,-1.5743024984942835
1708433484.7836032,-2.151067018508911,-1.3355526638082047,-2.523468557988302,6.130704510002889,1.0113017559051514,-1.5743187109576624
1708433484.7855167,-2.151017189025879,-1.3355731827071686,-2.523468557988302,6.1307222721870325,1.0112943649291992,-1.5743396917926233
1708433484.7875147,-2.1510555744171143,-1.3355240535787125,-2.52342659631838,6.1306848404701135,1.0112899541854858,-1.5743187109576624
1708433484.7895348,-2.151029586791992,-1.335519702439644,-2.523465696965353,6.130648839264669,1.0113062858581543,-1.5743439833270472
1708433484.791527,-2.151062488555908,-1.3355441850474854,-2.523473087941305,6.130660760193624,1.011248230934143,-1.5743024984942835
1708433484.7935185,-2.151005983352661,-1.3355526340058823,-2.5234161059008997,6.130639898567953,1.0112855434417725,-1.5743473211871546
1708433484.7955105,-2.150996685028076,-1.3355441850474854,-2.523496929799215,6.130677449494161,1.0113228559494019,-1.5743187109576624
1708433484.797541,-2.151092767715454,-1.335512102847435,-2.523492399846212,6.130672800331869,1.011252522468567,-1.574332062398092
1708433484.7996073,-2.151060104370117,-1.3355526638082047,-2.523473087941305,6.130616056710043,1.0113272666931152,-1.5743396917926233
1708433484.8015776,-2.1510748863220215,-1.335516319876053,-2.523473087941305,6.130596506386556,1.0113017559051514,-1.5743053595172327
1708433484.8035681,-2.151060104370117,-1.335528315310814,-2.52342659631838,6.130551445275106,1.0113184452056885,-1.5742986837970179
1708433484.8055754,-2.151043176651001,-1.335528315310814,-2.523477379475729,6.130509841233053,1.0113215446472168,-1.5743520895587366
1708433484.8075714,-2.151076078414917,-1.3355163049748917,-2.523435656224386,6.1305816052253626,1.0113017559051514,-1.5743263403521937
1708433484.8095405,-2.1510837078094482,-1.3355205816081543,-2.523473087941305,6.1305816052253626,1.0113096237182617,-1.5743187109576624
1708433484.8115394,-2.151017189025879,-1.3354949069074173,-2.523431126271383,6.1305158016975305,1.011314034461975,-1.5743215719806116
1708433484.8135638,-2.1510465145111084,-1.335539923315384,-2.5233903566943567,6.130586015969076,1.011346697807312,-1.5742719809161585
1708433484.8156328,-2.151043176651001,-1.3355441850474854,-2.523459498082296,6.130564915924825,1.0113542079925537,-1.5743263403521937
1708433484.8175826,-2.15106463432312,-1.3355035048774262,-2.5234552065478724,6.130590426712789,1.0113303661346436,-1.5743096510516565
1708433484.8195922,-2.151071548461914,-1.335576893096306,-2.523431126271383,6.130573737412252,1.0113630294799805,-1.5743730703936976
1708433484.8215723,-2.151029586791992,-1.3355645847371598,-2.523489538823263,6.130602347641744,1.011346697807312,-1.574338738118307
1708433484.8235722,-2.151067018508911,-1.335576893096306,-2.523459498082296,6.130544054299154,1.0113215446472168,-1.5743683020221155
1708433484.825537,-2.1510465145111084,-1.3354793798974534,-2.523477379475729,6.1305816052253626,1.0113630294799805,-1.57434589067568
1708433484.827551,-2.1510262489318848,-1.3354665350965043,-2.523480478917257,6.130578267365255,1.0113215446472168,-1.5743711630450647
1708433484.829564,-2.1510262489318848,-1.3355411452106019,-2.523456637059347,6.130597936898031,1.0113874673843384,-1.574395004902975
1708433484.8315306,-2.1510510444641113,-1.3355853420547028,-2.523475948964254,6.130573737412252,1.0113874673843384,-1.5744040648089808
1708433484.8335328,-2.151047706604004,-1.3355972629836579,-2.523447577153341,6.1305203316505334,1.0113859176635742,-1.574416462575094
1708433484.8355215,-2.151029586791992,-1.3355367642692109,-2.523496929799215,6.130541074066915,1.0113495588302612,-1.5743697325335901
1708433484.837549,-2.151067018508911,-1.335539923315384,-2.523464028035299,6.13055299499587,1.011399269104004,-1.5744121710406702
1708433484.8395357,-2.151001214981079,-1.3355196577361603,-2.523447577153341,6.13057707527236,1.0114233493804932,-1.5744121710406702
1708433484.8415306,-2.15108060836792,-1.3355483722737809,-2.5234668890582483,6.1305816052253626,1.0113948583602905,-1.5744193235980433
1708433484.8435485,-2.151005983352661,-1.3355325025371094,-2.5234878698932093,6.13055299499587,1.0114145278930664,-1.5744074026690882
1708433484.8455622,-2.1509945392608643,-1.3355732274106522,-2.523480478917257,6.130586015969076,1.0114026069641113,-1.5744193235980433
1708433484.847559,-2.15106463432312,-1.3355399084142228,-2.5234623591052454,6.1305322525794885,1.0113577842712402,-1.5744198004352015
1708433484.8496048,-2.151021718978882,-1.3355355572751542,-2.523517910634176,6.130568253784933,1.0114189386367798,-1.5744484106646937
1708433484.8515728,-2.151005744934082,-1.335495577459671,-2.523480478917257,6.13052915313796,1.0114352703094482,-1.5744240919696253
1708433484.8535764,-2.1510262489318848,-1.3355526638082047,-2.523492399846212,6.130490171700277,1.0114308595657349,-1.5744031111346644
1708433484.8555722,-2.1510262489318848,-1.3355645847371598,-2.523496929799215,6.130544054299154,1.0114219188690186,-1.5744403044330042
1708433484.8575547,-2.151047468185425,-1.335535542373993,-2.5234714190112513,6.130536663323202,1.0114264488220215,-1.5744150320636194
1708433484.859553,-2.151033878326416,-1.335524932747223,-2.5234385172473353,6.130541074066915,1.0114011764526367,-1.5743983427630823
1708433484.8615355,-2.151021718978882,-1.3355240237763901,-2.523492399846212,6.13050805309371,1.0114219188690186,-1.5743940512286585
1708433484.8635948,-2.151010274887085,-1.3355240237763901,-2.5234714190112513,6.130544054299154,1.0114641189575195,-1.5744269529925745
1708433484.8655884,-2.151014804840088,-1.335516319876053,-2.523480478917257,6.130578267365255,1.0114551782608032,-1.5744016806231897
1708433484.8675768,-2.151010274887085,-1.3355240535787125,-2.5234714190112513,6.130551564484396,1.0114463567733765,-1.5744269529925745
1708433484.8695524,-2.1510307788848877,-1.3355483722737809,-2.523492399846212,6.130557405739584,1.0114996433258057,-1.574425999318258
1708433484.871537,-2.1510262489318848,-1.335528315310814,-2.5235000292407435,6.130503642349996,1.0114340782165527,-1.5744269529925745
1708433484.8735747,-2.151047468185425,-1.3355561059764405,-2.5235660711871546,6.1305203316505334,1.0114264488220215,-1.5744178930865687
1708433484.8755631,-2.150981903076172,-1.3355367642692109,-2.5234954992877405,6.130599367409506,1.0114716291427612,-1.5744555632220667
1708433484.8775647,-2.151014804840088,-1.3355688166669388,-2.5235586802112024,6.1305158016975305,1.0114790201187134,-1.5744765440570276
1708433484.8795352,-2.151021718978882,-1.3355324876359482,-2.5235000292407435,6.130506861000814,1.0114538669586182,-1.5744555632220667
1708433484.8815398,-2.151014804840088,-1.3355853420547028,-2.5235000292407435,6.130557405739584,1.0114833116531372,-1.5744794050799769
1708433484.8835745,-2.151021718978882,-1.3355240535787125,-2.5234833399402063,6.130590426712789,1.0114670991897583,-1.5744841734515589
1708433484.885578,-2.151001214981079,-1.335563988690712,-2.5235286394702356,6.130611288338461,1.0114953517913818,-1.5744331518756312
1708433484.8875554,-2.151010274887085,-1.3355312657407303,-2.5235405603991907,6.130545484810629,1.0114996433258057,-1.5744841734515589
1708433484.889526,-2.151047468185425,-1.3355483722737809,-2.523515049611227,6.130512463837423,1.011519432067871,-1.574421230946676
1708433484.8915706,-2.151019334793091,-1.3355196577361603,-2.5235286394702356,6.1305158016975305,1.011507511138916,-1.5745084921466272
1708433484.8935444,-2.1510519981384277,-1.3355811101249238,-2.5235450903521937,6.1305603859718225,1.011489748954773,-1.5744708220111292
1708433484.89554,-2.1510519981384277,-1.335576893096306,-2.5235615412341517,6.130524742394247,1.011512041091919,-1.5744379202472132
1708433484.8975494,-2.1510307788848877,-1.3355206114104767,-2.5235331694232386,6.130499112396993,1.0115238428115845,-1.5745247046100062
1708433484.8995955,-2.1510307788848877,-1.3355973076871415,-2.5235167185412806,6.130573737412252,1.0115227699279785,-1.5744407812701624
1708433484.9015925,-2.1509900093078613,-1.3355570298484345,-2.5235570112811487,6.130541074066915,1.0115032196044922,-1.5745695273028772
1708433484.9035754,-2.1509900093078613,-1.335519702439644,-2.523552481328146,6.1305380938346765,1.0115315914154053,-1.5744994322406214
1708433484.905553,-2.1510396003723145,-1.3355561059764405,-2.523547951375143,6.1305322525794885,1.0115524530410767,-1.5745070616351526
1708433484.907593,-2.1510565280914307,-1.3355517548373719,-2.52351957956423,6.130554425507345,1.0115424394607544,-1.5745447317706507
1708433484.909533,-2.1510307788848877,-1.3355084222606202,-2.523522440587179,6.1305816052253626,1.0115512609481812,-1.5745275656329554
1708433484.9115393,-2.151019334793091,-1.3355283004096528,-2.52354342142214,6.1305158016975305,1.0115301609039307,-1.5745037237750452
1708433484.9135776,-2.151014804840088,-1.3355645847371598,-2.523567501698629,6.130570876389303,1.0115346908569336,-1.5745113531695765
1708433484.915593,-2.151014804840088,-1.3356177073768158,-2.523515049611227,6.1305158016975305,1.0115301609039307,-1.5745490233050745
1708433484.9175456,-2.151014804840088,-1.3355483722737809,-2.52354342142214,6.130544054299154,1.0114928483963013,-1.5745070616351526
1708433484.9196045,-2.150986433029175,-1.335499794488289,-2.523538891469137,6.13052915313796,1.0115139484405518,-1.5745471159564417
1708433484.9215407,-2.150986433029175,-1.3355441850474854,-2.5235887209521692,6.130554425507345,1.0115424394607544,-1.574531380330221
1708433484.923542,-2.151019334793091,-1.3355645847371598,-2.5236051718341272,6.13052915313796,1.011583924293518,-1.5745447317706507
1708433484.9255102,-2.151019334793091,-1.335524932747223,-2.523538891469137,6.130524742394247,1.0115543603897095,-1.5745428244220179
1708433484.927545,-2.151007890701294,-1.3355483722737809,-2.523529831563131,6.130511271744528,1.0115301609039307,-1.5745757261859339
1708433484.9295187,-2.151019334793091,-1.3355154258063813,-2.523634974156515,6.130533683090963,1.0115751028060913,-1.574559513722555
1708433484.931522,-2.150981903076172,-1.3355121326497574,-2.523576561604635,6.13054250457839,1.0115960836410522,-1.574622933064596
1708433484.9335597,-2.1510396003723145,-1.3355240535787125,-2.5235841909991663,6.130564915924825,1.0116158723831177,-1.5745356718646448
1708433484.935532,-2.1509954929351807,-1.3355153811028977,-2.5235887209521692,6.130569326668539,1.0115916728973389,-1.5745428244220179
1708433484.9375455,-2.1510238647460938,-1.3355688166669388,-2.52356464067568,6.130573737412252,1.0115336179733276,-1.5745504538165491
1708433484.9395304,-2.150949239730835,-1.3355570298484345,-2.523572031651632,6.130499112396993,1.0115916728973389,-1.5746467749225062
1708433484.9415302,-2.151019334793091,-1.3355775040439148,-2.5235961119281214,6.130512463837423,1.0115543603897095,-1.5746119658099573
1708433484.9435594,-2.151007890701294,-1.335600571041443,-2.5235796610461634,6.130561816483297,1.011549949645996,-1.5746286551104944
1708433484.9455583,-2.151014804840088,-1.3355682355216523,-2.523567501698629,6.1305816052253626,1.011582851409912,-1.5746362845050257
1708433484.9475377,-2.151007890701294,-1.3355645549348374,-2.5235796610461634,6.130557405739584,1.0116232633590698,-1.5745700041400355
1708433484.9495788,-2.151005744934082,-1.335528315310814,-2.5235629717456263,6.130550014763632,1.011590600013733,-1.5746167341815394
1708433484.9515753,-2.1509652137756348,-1.3355153811028977,-2.5235796610461634,6.13056646564559,1.011602520942688,-1.5745824019061487
1708433484.9535782,-2.1510281562805176,-1.3355325174382706,-2.5235629717456263,6.130533683090963,1.0116276741027832,-1.5745742956744593
1708433484.9555507,-2.1509697437286377,-1.335581050520279,-2.5235887209521692,6.130611288338461,1.0115783214569092,-1.5745609442340296
1708433484.9575505,-2.150986433029175,-1.335535542373993,-2.5235539118396204,6.130623090058126,1.0116232633590698,-1.5746286551104944
1708433484.959546,-2.1510167121887207,-1.335519627933838,-2.523572031651632,6.1305158016975305,1.0115981101989746,-1.5746362845050257
1708433484.9615266,-2.151007890701294,-1.3355726313642045,-2.5235708395587366,6.13052915313796,1.0115783214569092,-1.5746238867389124
1708433484.963545,-2.151019334793091,-1.3355517548373719,-2.523551050816671,6.1305322525794885,1.0116188526153564,-1.5746029059039515
1708433484.9655492,-2.1509954929351807,-1.3355441701463242,-2.5235541502581995,6.130544054299154,1.0116398334503174,-1.5746033827411097
1708433484.967572,-2.1510236263275146,-1.335499883895256,-2.523572031651632,6.130573737412252,1.0116355419158936,-1.5746434370623987
1708433484.9695406,-2.151019334793091,-1.3355441850474854,-2.5235796610461634,6.130524742394247,1.0116188526153564,-1.5746782461749476
1708433484.9715526,-2.1510236263275146,-1.335539923315384,-2.5236497561084192,6.130582797318258,1.0116157531738281,-1.5746691862689417
1708433484.973577,-2.1510236263275146,-1.3355399084142228,-2.5235584417926233,6.130527722626486,1.0115981101989746,-1.5746524969684046
1708433484.9755387,-2.1509954929351807,-1.335535542373993,-2.5236006418811243,6.13051592090682,1.0116232633590698,-1.5746238867389124
1708433484.9775422,-2.1509909629821777,-1.3355483722737809,-2.5236244837390345,6.130527603417196,1.011680245399475,-1.5746601263629358
1708433484.979556,-2.150960683822632,-1.3355399084142228,-2.523572031651632,6.130561816483297,1.0116355419158936,-1.5746434370623987
1708433484.9815295,-2.1510238647460938,-1.3355399084142228,-2.5235539118396204,6.130533683090963,1.0116266012191772,-1.5746567885028284
1708433484.9835706,-2.151003360748291,-1.335560367708542,-2.523551050816671,6.130548584252157,1.0115981101989746,-1.5746362845050257
1708433484.9855516,-2.1509909629821777,-1.3355810654214402,-2.5235796610461634,6.130524742394247,1.0116442441940308,-1.574719254170553
1708433484.9875534,-2.151003360748291,-1.3355240237763901,-2.523555580769674,6.130606877594747,1.0116143226623535,-1.5746901671039026
1708433484.98952,-2.1509740352630615,-1.3355726164630433,-2.5235841909991663,6.130606877594747,1.011668086051941,-1.5746601263629358
1708433484.9915214,-2.1509652137756348,-1.335528315310814,-2.5236333052264612,6.1305158016975305,1.0116177797317505,-1.5746477285968226
1708433484.9935877,-2.151019334793091,-1.3355726313642045,-2.5236290136920374,6.130557405739584,1.0116010904312134,-1.5747101942645472
1708433484.995542,-2.1510350704193115,-1.3355441701463242,-2.5235541502581995,6.1305203316505334,1.0116188526153564,-1.5746343771563929
1708433484.9975395,-2.150998830795288,-1.335560367708542,-2.5236125628100794,6.130578148155966,1.0116517543792725,-1.5746343771563929
1708433484.999543,-2.151019334793091,-1.3355325025371094,-2.5235915819751185,6.130545484810629,1.011668086051941,-1.574639145527975
1708433485.0015647,-2.150998830795288,-1.3355441850474854,-2.5236006418811243,6.130573737412252,1.011647343635559,-1.5747101942645472
1708433485.003592,-2.1510326862335205,-1.3355561208776017,-2.5235961119281214,6.1305158016975305,1.0115729570388794,-1.5746434370623987
1708433485.0055666,-2.151007890701294,-1.3356006455472489,-2.523567501698629,6.130544054299154,1.0116310119628906,-1.5746586958514612
1708433485.0075524,-2.1510238647460938,-1.3355888289264222,-2.5236497561084192,6.130499231606283,1.0116561651229858,-1.574676815663473
1708433485.0095327,-2.1509625911712646,-1.335576907997467,-2.5236006418811243,6.130578148155966,1.0116517543792725,-1.574667755757467
1708433485.0115838,-2.151007890701294,-1.3355688166669388,-2.5236290136920374,6.130578267365255,1.0116310119628906,-1.5746377150165003
1708433485.0135932,-2.1509909629821777,-1.3355325025371094,-2.523637835179464,6.13055299499587,1.0116758346557617,-1.5746920744525355
1708433485.0156152,-2.150953769683838,-1.335576907997467,-2.5235915819751185,6.130557405739584,1.0115936994552612,-1.574667755757467
1708433485.0175695,-2.150960683822632,-1.3355312508395691,-2.5235467592822474,6.130618679314413,1.0116266012191772,-1.5747340361224573
1708433485.0196242,-2.1509909629821777,-1.3355645549348374,-2.5235915819751185,6.130602347641744,1.0116232633590698,-1.5747011343585413
1708433485.0215614,-2.1509366035461426,-1.3355688613704224,-2.5235961119281214,6.130544054299154,1.0116056203842163,-1.5747249762164515
1708433485.0235672,-2.150944709777832,-1.335535542373993,-2.5235915819751185,6.130590426712789,1.0116429328918457,-1.5746243635760706
1708433485.025551,-2.150998830795288,-1.335528315310814,-2.5235629717456263,6.1305816052253626,1.0116266012191772,-1.5746787230121058
1708433485.0275908,-2.1509625911712646,-1.335535542373993,-2.5236497561084192,6.130569326668539,1.0116385221481323,-1.5746286551104944
1708433485.0295682,-2.151012420654297,-1.3355474335006257,-2.5236364046679896,6.130586015969076,1.0116276741027832,-1.5746830145465296
1708433485.0315466,-2.1509411334991455,-1.335576893096306,-2.5236199537860315,6.130568253784933,1.0116188526153564,-1.5746920744525355
1708433485.0335734,-2.150953769683838,-1.335576907997467,-2.5236244837390345,6.1305203316505334,1.0116056203842163,-1.5747202078448694
1708433485.0355442,-2.1509580612182617,-1.3355640035918732,-2.523567501698629,6.130588996201315,1.0116310119628906,-1.5746997038470667
1708433485.0375443,-2.1509652137756348,-1.3355517548373719,-2.5236216227160853,6.1306261894996545,1.0116355419158936,-1.5747159163104456
1708433485.0395489,-2.150981903076172,-1.3355769228986283,-2.5235915819751185,6.130544054299154,1.0116724967956543,-1.5747249762164515
1708433485.0415266,-2.150953769683838,-1.335543156867363,-2.5235961119281214,6.130544054299154,1.0116188526153564,-1.5747159163104456
1708433485.0435321,-2.1510396003723145,-1.3355645847371598,-2.5235961119281214,6.130588996201315,1.0116143226623535,-1.5746920744525355
1708433485.045537,-2.1509625911712646,-1.335588814025261,-2.5235887209521692,6.1305203316505334,1.0116385221481323,-1.5747159163104456
1708433485.047541,-2.150998830795288,-1.3355355572751542,-2.5235915819751185,6.130597936898031,1.0116310119628906,-1.5746830145465296
1708433485.049523,-2.1510167121887207,-1.3356049966863175,-2.523567501698629,6.13055299499587,1.011647343635559,-1.5746424833880823
1708433485.0515895,-2.151007890701294,-1.3355441850474854,-2.5235796610461634,6.130597936898031,1.0116143226623535,-1.5747173468219202
1708433485.0535498,-2.151007890701294,-1.3355682653239747,-2.5235751310931605,6.130633938103475,1.011614441871643,-1.5747249762164515
1708433485.0555904,-2.151019334793091,-1.3355441850474854,-2.5235841909991663,6.130597936898031,1.0116143226623535,-1.5747039953814905
1708433485.057543,-2.1510283946990967,-1.3355483722737809,-2.523572031651632,6.13057707527236,1.0116561651229858,-1.5746920744525355
1708433485.059551,-2.1509909629821777,-1.3355726313642045,-2.5235887209521692,6.130568253784933,1.0116188526153564,-1.5747416655169886
1708433485.061572,-2.1509652137756348,-1.3355325025371094,-2.5235961119281214,6.130514371186056,1.011602520942688,-1.5747159163104456
1708433485.0635424,-2.1509785652160645,-1.3355561059764405,-2.523597780858175,6.130605327873983,1.0116221904754639,-1.5746496359454554
1708433485.0656297,-2.150986433029175,-1.3355312657407303,-2.523609463368551,6.130605327873983,1.0116398334503174,-1.5746920744525355
1708433485.0675473,-2.150953769683838,-1.3355603826097031,-2.5235841909991663,6.130530702858724,1.0116398334503174,-1.5747159163104456
1708433485.069531,-2.1509954929351807,-1.3356050264886399,-2.5236125628100794,6.130535232811727,1.0116188526153564,-1.5747202078448694
1708433485.0715232,-2.1510441303253174,-1.335547463302948,-2.5236170927630823,6.130617248802938,1.0116517543792725,-1.5747416655169886
1708433485.0735643,-2.150953531265259,-1.3355726313642045,-2.5235887209521692,6.1306097386176965,1.0116143226623535,-1.5747202078448694
1708433485.0755365,-2.150981903076172,-1.3355963838151474,-2.523604933415548,6.130617248802938,1.0116517543792725,-1.5746877829181116
1708433485.0775595,-2.151003360748291,-1.335563988690712,-2.523625914250509,6.130584585457601,1.0116487741470337,-1.5747068564044397
1708433485.079521,-2.1510000228881836,-1.3355399084142228,-2.52364689508547,6.13065921047286,1.0116232633590698,-1.5746920744525355
1708433485.0815375,-2.1509697437286377,-1.3355399084142228,-2.5235841909991663,6.130568253784933,1.0116442441940308,-1.5746830145465296
1708433485.0836165,-2.150977611541748,-1.335625560288765,-2.523576561604635,6.130617368012228,1.0115907192230225,-1.5746920744525355
1708433485.085516,-2.1509625911712646,-1.335528315310814,-2.523567501698629,6.13060091713027,1.0116310119628906,-1.5746997038470667
1708433485.0875309,-2.1510238647460938,-1.3355613064816971,-2.5235796610461634,6.130580174713888,1.0116188526153564,-1.5746496359454554
1708433485.0895267,-2.150998830795288,-1.335531235938408,-2.5235629717456263,6.130571114807882,1.0116310119628906,-1.5747068564044397
1708433485.0915306,-2.1510283946990967,-1.3355726462653656,-2.5235465208636683,6.130636918335714,1.0115817785263062,-1.5746997038470667
1708433485.0935292,-2.1509909629821777,-1.335564599638321,-2.5235796610461634,6.1305919764335535,1.011549949645996,-1.5746997038470667
1708433485.0955374,-2.1509697437286377,-1.3355355572751542,-2.5236006418811243,6.130686390190878,1.0116113424301147,-1.5746920744525355
1708433485.0975525,-2.1510238647460938,-1.3355269742063065,-2.523581091557638,6.130629527359762,1.0115607976913452,-1.5746496359454554
1708433485.0995371,-2.150982141494751,-1.3355888289264222,-2.5235915819751185,6.130653250008383,1.0115981101989746,-1.5747249762164515
1708433485.1016188,-2.151003360748291,-1.335547463302948,-2.5236170927630823,6.130681860237875,1.0116276741027832,-1.5747340361224573
1708433485.103609,-2.151019334793091,-1.3355240237763901,-2.5236051718341272,6.130665170937338,1.011602520942688,-1.5747397581683558
1708433485.1055906,-2.1510236263275146,-1.3355474484017869,-2.523572031651632,6.130632388382711,1.011590600013733,-1.5746830145465296
1708433485.1075754,-2.151014804840088,-1.335576893096306,-2.5235796610461634,6.1307341931159876,1.0116039514541626,-1.5747373739825647
1708433485.10956,-2.150998830795288,-1.3355282557061692,-2.523609463368551,6.130701172142782,1.011582851409912,-1.5747249762164515
1708433485.1115665,-2.150958299636841,-1.3355844628861924,-2.5236006418811243,6.130720841675558,1.0115662813186646,-1.5746858755694788
1708433485.113581,-2.1510441303253174,-1.3355597120574494,-2.523555580769674,6.130749094277181,1.011587381362915,-1.5746830145465296
1708433485.1156266,-2.151003360748291,-1.3355844628861924,-2.523572031651632,6.130723821907797,1.011582851409912,-1.5746997038470667
1708433485.117594,-2.1510326862335205,-1.335576907997467,-2.523567501698629,6.13069103935317,1.011570692062378,-1.574724022542135
1708433485.119557,-2.151003360748291,-1.3355120879462739,-2.523581091557638,6.1307434914405725,1.011538028717041,-1.5747373739825647
1708433485.1215358,-2.150982141494751,-1.335528315310814,-2.523534361516134,6.130752432137289,1.0115872621536255,-1.5746949354754847
1708433485.1235666,-2.1509909629821777,-1.3355672669461747,-2.523567501698629,6.130735742836752,1.0115783214569092,-1.5747531096087855
1708433485.1255603,-2.1510441303253174,-1.335475118165352,-2.5235796610461634,6.130785095482626,1.0115424394607544,-1.5746787230121058
1708433485.1275477,-2.150986433029175,-1.3355973225883027,-2.523613993321554,6.130785095482626,1.0115872621536255,-1.5747373739825647
1708433485.1295397,-2.151003360748291,-1.3355312508395691,-2.523551050816671,6.130770194321432,1.011582851409912,-1.5747249762164515
1708433485.1315665,-2.150986433029175,-1.3355431866696854,-2.5235467592822474,6.130789506226339,1.011570692062378,-1.5747373739825647
1708433485.1336186,-2.150949239730835,-1.3355726313642045,-2.523567501698629,6.130801427155294,1.0115617513656616,-1.5747202078448694
1708433485.1355505,-2.150986433029175,-1.335547463302948,-2.523576561604635,6.130797016411581,1.011582851409912,-1.5746830145465296
1708433485.1375332,-2.1510374546051025,-1.335559682255127,-2.5235422293292444,6.130773174553671,1.0115424394607544,-1.5746877829181116
1708433485.1395376,-2.150998830795288,-1.3355682653239747,-2.5235629717456263,6.130773174553671,1.0115751028060913,-1.5746877829181116
1708433485.1415453,-2.1510326862335205,-1.3355726313642045,-2.523613993321554,6.130773174553671,1.011583924293518,-1.5747159163104456
1708433485.1435602,-2.1509740352630615,-1.3355603975108643,-2.5235887209521692,6.130804765015402,1.0115960836410522,-1.5747249762164515
1708433485.145536,-2.1509671211242676,-1.3355355721763154,-2.5235255400287073,6.130752432137289,1.0115646123886108,-1.5746496359454554
1708433485.1475797,-2.150981903076172,-1.335535542373993,-2.523555580769674,6.13082109668807,1.0115556716918945,-1.5746453444110315
1708433485.149521,-2.1510441303253174,-1.3355483722737809,-2.523597780858175,6.130804765015402,1.0115556716918945,-1.5747082869159144
1708433485.151568,-2.151060104370117,-1.3355517399362107,-2.5236051718341272,6.130762922554769,1.0115435123443604,-1.5747883955584925
1708433485.153589,-2.151003360748291,-1.335563988690712,-2.5235887209521692,6.130801427155294,1.0115272998809814,-1.5746877829181116
1708433485.1555874,-2.1509740352630615,-1.3355517399362107,-2.523576561604635,6.130773174553671,1.0115257501602173,-1.5747159163104456
1708433485.157577,-2.150986433029175,-1.3355769228986283,-2.523585621510641,6.1308374283607385,1.0114929676055908,-1.5747116247760218
1708433485.159548,-2.1510326862335205,-1.335633398299553,-2.523555580769674,6.130833017617025,1.0115346908569336,-1.5747373739825647
1708433485.161567,-2.150998830795288,-1.3356006455472489,-2.5235841909991663,6.130804765015402,1.0115346908569336,-1.5747082869159144
1708433485.1635637,-2.1510307788848877,-1.3355355274728318,-2.5235422293292444,6.13082109668807,1.0115017890930176,-1.5747159163104456
1708433485.1656072,-2.150998830795288,-1.3355597269586106,-2.523581091557638,6.1307599423225305,1.011506199836731,-1.5747340361224573
1708433485.1675584,-2.150977611541748,-1.335555450325348,-2.523551050816671,6.130812275200643,1.0115183591842651,-1.5747039953814905
1708433485.169541,-2.151003360748291,-1.3355811399272461,-2.52354342142214,6.130812275200643,1.0114986896514893,-1.5747578779803675
1708433485.1715431,-2.150986433029175,-1.3355726313642045,-2.523576561604635,6.130828606873312,1.0114643573760986,-1.5746920744525355
1708433485.1735578,-2.1509909629821777,-1.335547463302948,-2.523625914250509,6.130804765015402,1.0115315914154053,-1.5747373739825647
1708433485.175543,-2.150949239730835,-1.3355312508395691,-2.5235467592822474,6.1307657835777185,1.0115106105804443,-1.5746830145465296
1708433485.1775613,-2.150986433029175,-1.335575909619667,-2.523593250905172,6.130812275200643,1.0114986896514893,-1.5747326056109827
1708433485.179536,-2.1509652137756348,-1.3355921071818848,-2.523576561604635,6.130824196129598,1.0115195512771606,-1.5747159163104456
1708433485.1815681,-2.151019334793091,-1.335563988690712,-2.52356464067568,6.130840527802267,1.0114898681640625,-1.5747173468219202
1708433485.1835883,-2.150998830795288,-1.3355802160552521,-2.523551050816671,6.130824196129598,1.011519432067871,-1.5747159163104456
1708433485.185541,-2.150981903076172,-1.3356050264886399,-2.523567501698629,6.130816685944357,1.0114942789077759,-1.5746739546405237
1708433485.1875396,-2.151007890701294,-1.3356050264886399,-2.5235887209521692,6.130828606873312,1.011456847190857,-1.5747173468219202
1708433485.1895325,-2.1510307788848877,-1.335616872911789,-2.523581091557638,6.130828606873312,1.0115032196044922,-1.5746920744525355
1708433485.1915362,-2.1509909629821777,-1.3355716329864045,-2.523560110722677,6.1308315871055505,1.0114539861679077,-1.5746830145465296
1708433485.1935759,-2.1509852409362793,-1.3355931055596848,-2.523572031651632,6.130812275200643,1.0115031003952026,-1.5747039953814905
1708433485.195552,-2.151007890701294,-1.3355517399362107,-2.523551050816671,6.130864608078756,1.0114703178405762,-1.5746586958514612
1708433485.1975677,-2.1509695053100586,-1.3355963838151474,-2.523526970540182,6.130898821144857,1.011507511138916,-1.5747202078448694
1708433485.1995494,-2.1510353088378906,-1.335633398299553,-2.523572031651632,6.130822646408834,1.0114701986312866,-1.574667755757467
1708433485.2016077,-2.1509954929351807,-1.3355196726373215,-2.523536030446188,6.130861627846517,1.0114376544952393,-1.5746544043170374
1708433485.2035544,-2.1510236263275146,-1.3355682504228135,-2.523538891469137,6.130893218308248,1.0115119218826294,-1.5746586958514612
1708433485.2056317,-2.150953769683838,-1.3355888289264222,-2.523569170628683,6.130843865662374,1.0114656686782837,-1.5747116247760218
1708433485.2075832,-2.151019334793091,-1.3355726313642045,-2.5235841909991663,6.130864608078756,1.0114582777023315,-1.5747011343585413
1708433485.209575,-2.1510281562805176,-1.3355474484017869,-2.523569170628683,6.130923020630636,1.0114463567733765,-1.5747326056109827
1708433485.2116275,-2.1510353088378906,-1.335547463302948,-2.523552481328146,6.130839335709371,1.0114701986312866,-1.5747249762164515
1708433485.2135646,-2.151003360748291,-1.3355844628861924,-2.52354342142214,6.130860197335043,1.0114165544509888,-1.5747249762164515
1708433485.2156253,-2.1509909629821777,-1.3355441850474854,-2.523538891469137,6.13091396072463,1.0114701986312866,-1.574667755757467
1708433485.217623,-2.151033878326416,-1.3355399084142228,-2.523576561604635,6.130893218308248,1.0114790201187134,-1.574667755757467
1708433485.2195563,-2.151003360748291,-1.3355355274728318,-2.523555580769674,6.130839335709371,1.0114539861679077,-1.5746334234820765
1708433485.221597,-2.1510167121887207,-1.3355726313642045,-2.523531500493185,6.13085566738204,1.0114790201187134,-1.5746424833880823
1708433485.2235782,-2.1510350704193115,-1.3355920922807236,-2.5235570112811487,6.1308631775672815,1.0114909410476685,-1.5747011343585413
1708433485.2255554,-2.151019334793091,-1.3355431419662018,-2.523538891469137,6.130843865662374,1.011422038078308,-1.5746830145465296
1708433485.2275333,-2.151010274887085,-1.3355844032815476,-2.5235136190997522,6.1309125302131555,1.0114463567733765,-1.5747202078448694
1708433485.2295306,-2.1510238647460938,-1.335535542373993,-2.523560110722677,6.1309006092842,1.011429786682129,-1.5746920744525355
1708433485.2315612,-2.151021718978882,-1.3355682653239747,-2.523576561604635,6.1309006092842,1.0114670991897583,-1.574667755757467
1708433485.2335815,-2.1510262489318848,-1.3355510395816346,-2.5235405603991907,6.130930411606588,1.0114597082138062,-1.574655834828512
1708433485.235529,-2.151019334793091,-1.3355811101249238,-2.523569170628683,6.130888688355245,1.0114670991897583,-1.574639145527975
1708433485.2375152,-2.1510555744171143,-1.3355844628861924,-2.523551050816671,6.13093780258254,1.0114760398864746,-1.5747011343585413
1708433485.2395296,-2.150982141494751,-1.3355517399362107,-2.523552481328146,6.130896198540487,1.0114597082138062,-1.5746920744525355
1708433485.2415164,-2.151003360748291,-1.3355313402465363,-2.523531500493185,6.130891787796774,1.0114463567733765,-1.5746515432940882
1708433485.2435699,-2.151069164276123,-1.3355878305486222,-2.523515049611227,6.130893218308248,1.0114507675170898,-1.5746424833880823
1708433485.2455316,-2.1509945392608643,-1.335575909619667,-2.523590151463644,6.130933272629537,1.011468529701233,-1.5746362845050257
1708433485.2475467,-2.150973081588745,-1.3355888289264222,-2.523547951375143,6.1308631775672815,1.011422038078308,-1.5746434370623987
1708433485.249522,-2.1510441303253174,-1.3355844777873536,-2.523503128682272,6.130941140442648,1.0114386081695557,-1.5746858755694788
1708433485.251587,-2.1509900093078613,-1.335556076174118,-2.5234833399402063,6.13093780258254,1.0114552974700928,-1.5746424833880823
1708433485.2535758,-2.151047468185425,-1.3355844628861924,-2.5235405603991907,6.130888807564535,1.011410117149353,-1.5746434370623987
1708433485.2555552,-2.151014804840088,-1.3356538724950333,-2.5235405603991907,6.1309125302131555,1.011422038078308,-1.5746515432940882
1708433485.2575834,-2.151005983352661,-1.3355931055596848,-2.52354342142214,6.130905020027914,1.0113848447799683,-1.5746014753924769
1708433485.2595844,-2.151001214981079,-1.335559756760933,-2.5235405603991907,6.130921351700582,1.011475920677185,-1.5746386686908167
1708433485.2615483,-2.151014804840088,-1.3355431866696854,-2.523498598729269,6.130875336914816,1.0114386081695557,-1.5745895544635218
1708433485.263562,-2.151001214981079,-1.3355603975108643,-2.5235331694232386,6.130879866867819,1.0114431381225586,-1.574676815663473
1708433485.2655795,-2.151021718978882,-1.3355811101249238,-2.5234580675708216,6.130860197335043,1.0114551782608032,-1.5745776335345667
1708433485.2675974,-2.1509945392608643,-1.3355517101338883,-2.5234742800342005,6.130891787796774,1.0114145278930664,-1.574627701436178
1708433485.2695475,-2.150982141494751,-1.3355269742063065,-2.5234623591052454,6.130925881653585,1.0114264488220215,-1.5746286551104944
1708433485.2715569,-2.1510353088378906,-1.3355561208776017,-2.5235000292407435,6.130933272629537,1.0114145278930664,-1.5746286551104944
1708433485.2735238,-2.151010274887085,-1.335543231373169,-2.523492399846212,6.130893218308248,1.0114474296569824,-1.5746477285968226
1708433485.2755425,-2.1510307788848877,-1.335547463302948,-2.5235090891467493,6.130909549980917,1.0114264488220215,-1.5745742956744593
1708433485.2775376,-2.1510307788848877,-1.3355597120574494,-2.523496929799215,6.130884277611532,1.0114102363586426,-1.5745914618121546
1708433485.2795634,-2.1509900093078613,-1.3355517399362107,-2.5234954992877405,6.13093780258254,1.0114011764526367,-1.5745790640460413
1708433485.2815871,-2.1510558128356934,-1.3355517250350495,-2.5235257784472864,6.130875456124105,1.0114340782165527,-1.5746119658099573
1708433485.2835968,-2.151021718978882,-1.3355388951352616,-2.5234878698932093,6.130909549980917,1.0114189386367798,-1.5746119658099573
1708433485.2855263,-2.1510353088378906,-1.3355844181827088,-2.5234878698932093,6.130876529007711,1.0114219188690186,-1.5745504538165491
1708433485.2875166,-2.151047706604004,-1.3355726313642045,-2.5235090891467493,6.1309006092842,1.0113728046417236,-1.5745485464679163
1708433485.2895372,-2.1510350704193115,-1.335563988690712,-2.5234668890582483,6.130882727890768,1.0114474296569824,-1.5746167341815394
1708433485.2915862,-2.1510555744171143,-1.3356007051518937,-2.5234668890582483,6.130867588310995,1.0114057064056396,-1.574533764516012
1708433485.293533,-2.1510353088378906,-1.3355561208776017,-2.523464028035299,6.130909549980917,1.011410117149353,-1.574592415486471
1708433485.2955291,-2.1510396003723145,-1.3355517399362107,-2.5234535376178187,6.130876529007711,1.0114518404006958,-1.574592415486471
1708433485.2976048,-2.150981903076172,-1.3355474931052704,-2.523496929799215,6.1308631775672815,1.011410117149353,-1.5745833555804651
1708433485.2995684,-2.151010274887085,-1.335547463302948,-2.523443047200338,6.130905020027914,1.0114057064056396,-1.5745552221881312
1708433485.3016272,-2.150977611541748,-1.3356125813773652,-2.5234668890582483,6.1309006092842,1.0114219188690186,-1.5745504538165491
1708433485.3036032,-2.1510262489318848,-1.3355726313642045,-2.5235090891467493,6.130915510445394,1.0114026069641113,-1.5745967070208948
1708433485.3055885,-2.151001214981079,-1.335547463302948,-2.5235303084002894,6.130860197335043,1.0114396810531616,-1.5745552221881312
1708433485.3076122,-2.151060104370117,-1.335531325345375,-2.523492399846212,6.130896198540487,1.0114189386367798,-1.574559513722555
1708433485.3095858,-2.151021718978882,-1.335633398299553,-2.523475948964254,6.130933272629537,1.0114386081695557,-1.5745332876788538
1708433485.3115945,-2.151021718978882,-1.3355399531177063,-2.5234878698932093,6.130933272629537,1.011422038078308,-1.574559513722555
1708433485.3135471,-2.151010274887085,-1.3356006455472489,-2.5235257784472864,6.130903589516439,1.0114308595657349,-1.574531380330221
1708433485.3156273,-2.151001214981079,-1.3355758649161835,-2.523492399846212,6.1309006092842,1.0114264488220215,-1.5745733420001429
1708433485.317594,-2.151038646697998,-1.3355682653239747,-2.523480478917257,6.130837785988607,1.0114145278930664,-1.574559513722555
1708433485.3195615,-2.1510350704193115,-1.3356007051518937,-2.5235045591937464,6.130880939751425,1.011377215385437,-1.5745552221881312
1708433485.3215384,-2.151021718978882,-1.3355441701463242,-2.52342659631838,6.13093780258254,1.0114684104919434,-1.5745471159564417
1708433485.3235838,-2.151060104370117,-1.3355597120574494,-2.523496929799215,6.130924451142111,1.0113939046859741,-1.574559513722555
1708433485.3255131,-2.151005983352661,-1.3356039983085175,-2.523459498082296,6.130880939751425,1.011410117149353,-1.574564282094137
1708433485.3275158,-2.151010274887085,-1.335588814025261,-2.523534599934713,6.130867588310995,1.0114145278930664,-1.5745638052569788
1708433485.3295128,-2.1510307788848877,-1.3356083047441025,-2.5234504381762903,6.130889880448141,1.011410117149353,-1.5745514074908655
1708433485.3315446,-2.1510519981384277,-1.3355398935130616,-2.523517910634176,6.130870926171102,1.0114518404006958,-1.5745185057269495
1708433485.333556,-2.150981903076172,-1.3355844628861924,-2.523480478917257,6.130888688355245,1.0114071369171143,-1.5744980017291468
1708433485.335519,-2.150956153869629,-1.3355474484017869,-2.523475948964254,6.130950081139364,1.0114308595657349,-1.5745070616351526
1708433485.3374991,-2.1509945392608643,-1.3355844926885148,-2.5234878698932093,6.130893218308248,1.0114518404006958,-1.5745189825641077
1708433485.339506,-2.151010274887085,-1.335609258418419,-2.523475948964254,6.130905020027914,1.011398196220398,-1.5744732061969202
1708433485.341499,-2.151043176651001,-1.3356254410794755,-2.5234668890582483,6.13091396072463,1.0114145278930664,-1.5744980017291468
1708433485.3435283,-2.150998830795288,-1.3356006902507325,-2.523534599934713,6.130851256638326,1.0114070177078247,-1.5745189825641077
1708433485.3455093,-2.150998830795288,-1.3356006306460877,-2.523464028035299,6.130908000260153,1.0114264488220215,-1.5745537916766565
1708433485.3475366,-2.151010274887085,-1.3355196875384827,-2.5235167185412806,6.130955683975973,1.0114070177078247,-1.5744994322406214
1708433485.349565,-2.1510307788848877,-1.3355640184930344,-2.5234668890582483,6.130921351700582,1.0114189386367798,-1.5744450728045862
1708433485.3515642,-2.151021718978882,-1.335588814025261,-2.5235045591937464,6.130926000862875,1.0114308595657349,-1.5744779745685022
1708433485.3535647,-2.1510519981384277,-1.3355920922807236,-2.523464028035299,6.130834805756368,1.011377215385437,-1.5745232740985315
1708433485.3555639,-2.151076078414917,-1.3355517399362107,-2.5235090891467493,6.130851256638326,1.0114308595657349,-1.5745070616351526
1708433485.3575213,-2.151060104370117,-1.3355682653239747,-2.5234668890582483,6.130876529007711,1.011377215385437,-1.5744660536395472
1708433485.3595438,-2.1510262489318848,-1.3355716329864045,-2.5234504381762903,6.130893218308248,1.011377215385437,-1.5744827429400843
1708433485.3615253,-2.151003360748291,-1.3355597120574494,-2.523496929799215,6.130851256638326,1.0114386081695557,-1.574491326008932
1708433485.363576,-2.1510307788848877,-1.335588814025261,-2.5235045591937464,6.130880939751425,1.0113816261291504,-1.5745084921466272
1708433485.3655775,-2.151034116744995,-1.3355844181827088,-2.5234416166888636,6.130893218308248,1.0113860368728638,-1.5744827429400843
1708433485.367555,-2.151005983352661,-1.3356006157449265,-2.5234668890582483,6.130876529007711,1.0114474296569824,-1.574487034474508
1708433485.369524,-2.1510262489318848,-1.3355682653239747,-2.523522440587179,6.130880939751425,1.0114307403564453,-1.574442211781637
1708433485.3715377,-2.1510307788848877,-1.3355801862529297,-2.5234878698932093,6.130905020027914,1.0114562511444092,-1.574470345173971
1708433485.3735652,-2.151047468185425,-1.3355399382165452,-2.523459498082296,6.130871999054708,1.0114264488220215,-1.5744994322406214
1708433485.3755212,-2.1509945392608643,-1.3355682653239747,-2.5235000292407435,6.130876529007711,1.011422038078308,-1.5744379202472132
1708433485.3775272,-2.151005744934082,-1.335547463302948,-2.5234833399402063,6.130909549980917,1.0114070177078247,-1.574482266102926
1708433485.3795285,-2.151014804840088,-1.3355197620442887,-2.5234714190112513,6.13085566738204,1.0113939046859741,-1.5744660536395472
1708433485.3815267,-2.151073694229126,-1.3355554652265091,-2.523475948964254,6.130889880448141,1.0113563537597656,-1.574491326008932
1708433485.3835225,-2.151005744934082,-1.335575909619667,-2.5235136190997522,6.130815255432882,1.0114351511001587,-1.574526611958639
1708433485.3855095,-2.151010274887085,-1.3355682802251359,-2.523475948964254,6.130831467896261,1.0114396810531616,-1.574496094380514
1708433485.3875134,-2.1510307788848877,-1.335539923315384,-2.5235076586352747,6.130860197335043,1.0114396810531616,-1.574421230946676
1708433485.389507,-2.150968551635742,-1.3355768632939835,-2.5235045591937464,6.130885350495138,1.0114264488220215,-1.574442211781637
1708433485.3915408,-2.150977611541748,-1.3355639737895508,-2.5234714190112513,6.130860197335043,1.0114597082138062,-1.574475113545553
1708433485.3935194,-2.151001214981079,-1.3355432462743302,-2.523496929799215,6.130840527802267,1.011410117149353,-1.5744722525226038
1708433485.3955119,-2.151001214981079,-1.3355597120574494,-2.523459498082296,6.130843865662374,1.0113860368728638,-1.5744512716876429
1708433485.397524,-2.151043176651001,-1.33553899944339,-2.5234878698932093,6.130848276406088,1.0114351511001587,-1.574446980153219
1708433485.3995247,-2.1510307788848877,-1.3355110746673127,-2.523501221333639,6.130857217102804,1.0114264488220215,-1.574430290852682
1708433485.4016082,-2.151060104370117,-1.3355597418597718,-2.5235303084002894,6.130840527802267,1.011422038078308,-1.5743926207171839
1708433485.403555,-2.1510307788848877,-1.3355035793832322,-2.5234504381762903,6.130877959519186,1.0114264488220215,-1.5744269529925745
1708433485.4055464,-2.15106463432312,-1.3356134456447144,-2.523492399846212,6.130857217102804,1.0114070177078247,-1.574446980153219
1708433485.4075992,-2.1510262489318848,-1.3355517548373719,-2.5234668890582483,6.130882489472189,1.011443018913269,-1.574446980153219
1708433485.409582,-2.150994300842285,-1.3355399084142228,-2.5235212484942835,6.1308196661765955,1.0114474296569824,-1.5744589010821741
1708433485.4115448,-2.151043176651001,-1.33558443308387,-2.5235045591937464,6.130840527802267,1.0114189386367798,-1.5744436422931116
1708433485.4135752,-2.151047706604004,-1.335608349447586,-2.5234833399402063,6.13080774524764,1.0114188194274902,-1.5744393507586878
1708433485.4155688,-2.1510519981384277,-1.3355682802251359,-2.523475948964254,6.130779135018148,1.0113859176635742,-1.5744059721576136
1708433485.417615,-2.150981903076172,-1.3355810058167954,-2.5235212484942835,6.13076280334548,1.0113816261291504,-1.5744269529925745
1708433485.4195955,-2.1510565280914307,-1.3355844479850312,-2.5235000292407435,6.130767214089193,1.0114518404006958,-1.5744312445269983
1708433485.4216266,-2.1510262489318848,-1.3355921071818848,-2.5235045591937464,6.1307880757148645,1.0114145278930664,-1.5743516127215784
1708433485.4236271,-2.1509852409362793,-1.3355155152133484,-2.5235045591937464,6.130792605667867,1.0114189386367798,-1.5743940512286585
1708433485.4255884,-2.150986433029175,-1.3355511140874405,-2.523447577153341,6.130801546364584,1.011377215385437,-1.5744269529925745
1708433485.4275646,-2.1510262489318848,-1.3356333386949082,-2.5234788099872034,6.130798446923055,1.0113859176635742,-1.5744059721576136
1708433485.4295602,-2.151010274887085,-1.3355682355216523,-2.5235045591937464,6.130707490235128,1.011410117149353,-1.5744269529925745
1708433485.4315548,-2.1509945392608643,-1.3356126260808487,-2.523492399846212,6.130780684738912,1.0114308595657349,-1.5744150320636194
1708433485.4335725,-2.151021718978882,-1.3355639737895508,-2.5234833399402063,6.130712020188131,1.011444091796875,-1.5744226614581507
1708433485.4355612,-2.151021718978882,-1.3355517548373719,-2.5234878698932093,6.1307822344596765,1.011398196220398,-1.5744193235980433
1708433485.4375443,-2.151038646697998,-1.335539923315384,-2.5235000292407435,6.130725252419271,1.0114351511001587,-1.574456040059225
1708433485.439584,-2.151003360748291,-1.3355399382165452,-2.5234668890582483,6.13066993930892,1.0114308595657349,-1.5743683020221155
1708433485.4415617,-2.151001214981079,-1.335562990312912,-2.523522440587179,6.130732762604513,1.0114145278930664,-1.5744646231280726
1708433485.4435468,-2.1510465145111084,-1.3355682653239747,-2.523459498082296,6.130744683533468,1.011444091796875,-1.5744269529925745
1708433485.4455626,-2.1510238647460938,-1.3356049370816727,-2.523464028035299,6.130740153580465,1.0114189386367798,-1.5744269529925745
1708433485.447537,-2.151038646697998,-1.3355597269586106,-2.523475948964254,6.130723821907797,1.0113939046859741,-1.5744393507586878
1708433485.4495277,-2.151010274887085,-1.3355474484017869,-2.5234668890582483,6.130731332093038,1.0114351511001587,-1.5744269529925745
1708433485.4516437,-2.1510307788848877,-1.3355561208776017,-2.5235121885882776,6.130707490235128,1.0114431381225586,-1.5744603315936487
1708433485.4535801,-2.1510350704193115,-1.3355682802251359,-2.523496929799215,6.13074158409194,1.0114026069641113,-1.5744107405291956
1708433485.4555497,-2.151014804840088,-1.3355963689139863,-2.5234668890582483,6.130746233254232,1.011377215385437,-1.5744484106646937
1708433485.4575682,-2.1509852409362793,-1.3355844628861924,-2.5234668890582483,6.130700099259176,1.0114307403564453,-1.5743969122516077
1708433485.4595487,-2.1510262489318848,-1.3355682653239747,-2.5234504381762903,6.130700099259176,1.011410117149353,-1.5744317213641565
1708433485.461536,-2.1510396003723145,-1.3355517548373719,-2.5234878698932093,6.130713569908895,1.0114233493804932,-1.5744360128985804
1708433485.463549,-2.151005983352661,-1.3355474484017869,-2.523475948964254,6.130671489029684,1.011398196220398,-1.5744031111346644
1708433485.4655757,-2.151019334793091,-1.3355931055596848,-2.5234878698932093,6.130729782372274,1.0114189386367798,-1.5744393507586878
1708433485.4676259,-2.1510262489318848,-1.3355603826097031,-2.523459498082296,6.130753505020895,1.011361002922058,-1.5744312445269983
1708433485.4695623,-2.1510350704193115,-1.3355888289264222,-2.523475948964254,6.130737173348226,1.0114264488220215,-1.5743773619281214
1708433485.4715412,-2.151010274887085,-1.3355024319938202,-2.5234504381762903,6.130683409958639,1.011410117149353,-1.5744312445269983
1708433485.4735262,-2.1509945392608643,-1.3355726313642045,-2.5234549681292933,6.1306804297264,1.011410117149353,-1.5744269529925745
1708433485.4755402,-2.151014804840088,-1.335576893096306,-2.523492399846212,6.1306804297264,1.011443018913269,-1.5744312445269983
1708433485.4775438,-2.150982141494751,-1.335551695232727,-2.5235045591937464,6.1306848404701135,1.0114341974258423,-1.5744312445269983
1708433485.479563,-2.1509945392608643,-1.335559756760933,-2.5234878698932093,6.1306804297264,1.0114351511001587,-1.5744360128985804
1708433485.4815443,-2.151010274887085,-1.3355801713517685,-2.523475948964254,6.1306804297264,1.0114518404006958,-1.5744360128985804
1708433485.483539,-2.151014804840088,-1.335559756760933,-2.5234878698932093,6.1306729195411584,1.011398196220398,-1.5743940512286585
1708433485.4855204,-2.151021718978882,-1.3355682802251359,-2.5235450903521937,6.130743133812704,1.011422038078308,-1.5744269529925745
1708433485.4875302,-2.1509764194488525,-1.3355682653239747,-2.5235167185412806,6.130644428520956,1.0113937854766846,-1.5744312445269983
1708433485.4895182,-2.151003360748291,-1.335612566476204,-2.5235167185412806,6.130644428520956,1.0114264488220215,-1.5743988196002405
1708433485.4915178,-2.151021718978882,-1.3355640035918732,-2.5234788099872034,6.1305874464805505,1.0114474296569824,-1.5743864218341272
1708433485.493526,-2.150998830795288,-1.3356006008437653,-2.5234833399402063,6.130551564484396,1.0114145278930664,-1.5744016806231897
1708433485.495556,-2.151005744934082,-1.3356049817851563,-2.5235090891467493,6.1305816052253626,1.0114145278930664,-1.5744312445269983
1708433485.4975545,-2.151019334793091,-1.335516245370247,-2.5235376993762415,6.130499112396993,1.011377215385437,-1.5744269529925745
1708433485.4996152,-2.150998830795288,-1.3355717223933716,-2.5235167185412806,6.130533683090963,1.0114386081695557,-1.5744360128985804
1708433485.50159,-2.151003360748291,-1.335596354012825,-2.5234954992877405,6.130469071656027,1.011443018913269,-1.5743773619281214
1708433485.503566,-2.151010274887085,-1.3355682504228135,-2.5235331694232386,6.130469071656027,1.0114386081695557,-1.5743940512286585
1708433485.50556,-2.151012420654297,-1.3355398786119004,-2.5235570112811487,6.130449759751119,1.0114552974700928,-1.5744193235980433
1708433485.5076022,-2.151003360748291,-1.3355196875384827,-2.5234504381762903,6.130449759751119,1.0114431381225586,-1.5744240919696253
1708433485.509543,-2.150956153869629,-1.3355640035918732,-2.5235000292407435,6.13038848617629,1.0114551782608032,-1.5743897596942347
1708433485.511545,-2.151014804840088,-1.3355682653239747,-2.5234864393817347,6.130397307663717,1.0114670991897583,-1.5744527021991175
1708433485.5135658,-2.150960683822632,-1.3355517846396943,-2.523569170628683,6.130373227387228,1.0114760398864746,-1.5744193235980433
1708433485.5156152,-2.151003360748291,-1.335588814025261,-2.52351957956423,6.130374777107992,1.0114715099334717,-1.5744150320636194
1708433485.5176666,-2.1510281562805176,-1.3355517250350495,-2.523536030446188,6.130247580796041,1.0114670991897583,-1.5743940512286585
1708433485.5195692,-2.1509954929351807,-1.335563988690712,-2.523547951375143,6.130265462189474,1.0114834308624268,-1.5744283835040491
1708433485.5215335,-2.1510167121887207,-1.3355887842229386,-2.523531500493185,6.1302236197288416,1.011507511138916,-1.5743549505816858
1708433485.5235698,-2.1510000228881836,-1.3355411899140854,-2.523552481328146,6.130196440010824,1.0114909410476685,-1.5743897596942347
1708433485.525514,-2.1509592533111572,-1.3355484169772645,-2.5235887209521692,6.130193459778585,1.011486530303955,-1.5744074026690882
1708433485.5275397,-2.1509501934051514,-1.3355399382165452,-2.523581091557638,6.130148517876425,1.0115150213241577,-1.574390713368551
1708433485.5295713,-2.150996685028076,-1.3355931055596848,-2.523534361516134,6.1300872443015955,1.0115315914154053,-1.5744074026690882
1708433485.531622,-2.150930881500244,-1.3355153662017365,-2.523572031651632,6.1301020262535,1.0115346908569336,-1.5743878523456019
1708433485.5336049,-2.15093994140625,-1.3355687868646164,-2.5235584417926233,6.130052673607626,1.0115227699279785,-1.574395004902975
1708433485.5355468,-2.150930881500244,-1.3355355870774765,-2.523576561604635,6.130007731705465,1.011539101600647,-1.5744040648089808
1708433485.5375376,-2.1509194374084473,-1.3355973374894639,-2.523567501698629,6.130058634072103,1.0115468502044678,-1.5743535200702112
1708433485.5395374,-2.150874376296997,-1.3355324876359482,-2.5236035029040735,6.129964339524069,1.011583924293518,-1.5744074026690882
1708433485.5415301,-2.150878667831421,-1.3355570447495957,-2.5236576239215296,6.12996135929183,1.0115749835968018,-1.574338738118307
1708433485.543531,-2.150871753692627,-1.335499794488289,-2.5236080328570765,6.129945027619161,1.011566162109375,-1.5743549505816858
1708433485.5455236,-2.1508309841156006,-1.335528315310814,-2.5235915819751185,6.12991343715743,1.0116113424301147,-1.5743759314166468
1708433485.547549,-2.1508355140686035,-1.3355811101249238,-2.5236273447619837,6.129885184555807,1.011635422706604,-1.574333969746725
1708433485.5495212,-2.1507744789123535,-1.3355810952237626,-2.5236318747149866,6.129894006043234,1.0116232633590698,-1.5743349234210413
1708433485.551575,-2.150808334350586,-1.3355897676995774,-2.5236108938800257,6.129809009819784,1.0116791725158691,-1.5743187109576624
1708433485.5535903,-2.150742530822754,-1.335560367708542,-2.5236273447619837,6.129822242050924,1.0116881132125854,-1.5743067900287073
1708433485.5556102,-2.1507630348205566,-1.3354869198850174,-2.5236485640155237,6.129680263787069,1.011662483215332,-1.574254337941305
1708433485.5575309,-2.15067458152771,-1.3355526638082047,-2.5236473719226282,6.129665362625875,1.0117193460464478,-1.574254337941305
1708433485.5595434,-2.1506879329681396,-1.3355612617782135,-2.52366811433901,6.129663097649374,1.0117359161376953,-1.574233357106344
1708433485.5615265,-2.1506972312927246,-1.3355084222606202,-2.523672644292013,6.1295649884040735,1.0117555856704712,-1.5742586294757288
1708433485.5635736,-2.150663137435913,-1.3354997497848053,-2.52369195619692,6.12953661659316,1.0117840766906738,-1.5742839018451136
1708433485.5656238,-2.150595188140869,-1.3355126839927216,-2.5236874262439173,6.129460084229269,1.0118114948272705,-1.5742085615741175
1708433485.5675614,-2.1506335735321045,-1.335496501331665,-2.5237038771258753,6.129436361580648,1.011827826499939,-1.5742767492877405
1708433485.5695894,-2.150592803955078,-1.335496501331665,-2.5237084070788782,6.129462706833639,1.0118516683578491,-1.5741866270648401
1708433485.5715249,-2.150559902191162,-1.335496501331665,-2.5237279574023646,6.129368650704183,1.0118834972381592,-1.574165169392721
1708433485.5735586,-2.1505565643310547,-1.3354766827872773,-2.5237537066089075,6.129256593972006,1.0119208097457886,-1.5741866270648401
1708433485.5756154,-2.150479316711426,-1.3355094504407425,-2.5237730185138147,6.129199969559469,1.0118777751922607,-1.5741623083697718
1708433485.5775568,-2.150512933731079,-1.3354605001262208,-2.523768488560812,6.1291247484977625,1.0119720697402954,-1.5741713682757776
1708433485.5795512,-2.1504318714141846,-1.3354562383941193,-2.523818079625265,6.1291096089179895,1.0119513273239136,-1.5741456190692347
1708433485.5815244,-2.1504158973693848,-1.3354637932828446,-2.523809019719259,6.129074680596151,1.0120124816894531,-1.5740883986102503
1708433485.5835445,-2.1503593921661377,-1.3354443174651642,-2.5237954298602503,6.1290355799491785,1.0120365619659424,-1.57410175005068
1708433485.5855315,-2.1503522396087646,-1.3354195070317765,-2.5237908999072474,6.128930914192953,1.012011170387268,-1.5740860144244593
1708433485.587531,-2.1502909660339355,-1.3354324114373703,-2.5238269011126917,6.128850447922506,1.01206374168396,-1.5740869680987757
1708433485.5895202,-2.150320529937744,-1.3354323667338868,-2.5238598028766077,6.128790247231283,1.012108564376831,-1.5740583578692835
1708433485.5915341,-2.1502444744110107,-1.3354613792947312,-2.5238223711596888,6.12869011142806,1.0121448040008545,-1.5740087668048304
1708433485.5935256,-2.1502342224121094,-1.335396633749344,-2.523917023335592,6.128634679108419,1.0121315717697144,-1.574000660573141
1708433485.5955315,-2.1501708030700684,-1.3354299676469346,-2.5239198843585413,6.128514039307394,1.0122092962265015,-1.5739577452289026
1708433485.597554,-2.15016508102417,-1.3353520047715683,-2.523938004170553,6.128471362381735,1.0122452974319458,-1.573862377797262
1708433485.5995684,-2.1501152515411377,-1.3353520047715683,-2.5239272753344935,6.128407108574667,1.0122408866882324,-1.5739095846759241
1708433485.6017106,-2.1501004695892334,-1.335327298646309,-2.5239484945880335,6.128266680031576,1.0122772455215454,-1.5738886038409632
1708433485.6035578,-2.1500244140625,-1.3353487116149445,-2.5239513556109827,6.128255593567648,1.0123084783554077,-1.5738280455218714
1708433485.6056204,-2.1500120162963867,-1.33538110673938,-2.52399188676943,6.128179538040914,1.012370228767395,-1.5737994352923792
1708433485.6075733,-2.1498873233795166,-1.3353616011193772,-2.524008337651388,6.128071415215292,1.012380599975586,-1.5737970511065882
1708433485.6095817,-2.149918794631958,-1.3353086572936554,-2.5240159670459192,6.127938616066732,1.012418270111084,-1.5737393538104456
1708433485.6115394,-2.1498656272888184,-1.3352924895337601,-2.5240820089923304,6.127882945328512,1.012396216392517,-1.5737651030169886
1708433485.6135235,-2.1498212814331055,-1.3352769625237961,-2.5241227785693567,6.1278244135673425,1.0125306844711304,-1.57371694246401
1708433485.615593,-2.1497533321380615,-1.3352812093547364,-2.524104658757345,6.1277328608329675,1.012526273727417,-1.573721710835592
1708433485.6176016,-2.1496922969818115,-1.3352521371892472,-2.5241358915912073,6.127574670105734,1.0125744342803955,-1.5736506620990198
1708433485.6195617,-2.1496422290802,-1.335305930381157,-2.524173084889547,6.12750397899703,1.012622356414795,-1.5736234823810022
1708433485.6216474,-2.1496024131774902,-1.3352617186358948,-2.524216953908102,6.127416956215658,1.012637972831726,-1.5735753218280237
1708433485.6235952,-2.149528980255127,-1.3352255535176774,-2.524195973073141,6.12726782539443,1.0126572847366333,-1.5735886732684534
1708433485.6256108,-2.149510383605957,-1.335209683781006,-2.524252955113546,6.127176272660055,1.012730598449707,-1.573524300252096
1708433485.6276317,-2.1494786739349365,-1.3352460873178025,-2.5242272059070032,6.127107369690695,1.012757658958435,-1.5734432379352015
1708433485.6295702,-2.14939022064209,-1.3352255535176774,-2.5242770353900355,6.126988875656881,1.0127851963043213,-1.5733526388751429
1708433485.6315637,-2.149379014968872,-1.335177944307663,-2.524303738270895,6.12690948227004,1.0128452777862549,-1.5733664671527308
1708433485.6335347,-2.149278163909912,-1.335140423183777,-2.524349037800924,6.126771914749899,1.0128693580627441,-1.5733063856707972
1708433485.6355472,-2.1492247581481934,-1.3351617616466065,-2.524349037800924,6.1266400692756555,1.0129382610321045,-1.5732701460467737
1708433485.6375237,-2.149216651916504,-1.335112841134407,-2.524377409611837,6.12654863575057,1.0130106210708618,-1.573214356099264
1708433485.6395357,-2.1491427421569824,-1.335117222075798,-2.5244208017932337,6.126391756325521,1.013031244277954,-1.5731256643878382
1708433485.6415787,-2.149041175842285,-1.3350891184857865,-2.5243592897998255,6.126334178238668,1.0130584239959717,-1.5731146971331995
1708433485.6435525,-2.1490070819854736,-1.335093380217888,-2.524411741887228,6.126168477326193,1.0131229162216187,-1.5729644934283655
1708433485.645517,-2.148951292037964,-1.3351223778775712,-2.524452273045675,6.126117336540975,1.013157844543457,-1.5728710333453577
1708433485.6475284,-2.148879051208496,-1.335113839512207,-2.5244975725757044,6.125977265625753,1.0132403373718262,-1.5728562513934534
1708433485.6495435,-2.1488118171691895,-1.3350780767253418,-2.524519745503561,6.125885951309957,1.0132837295532227,-1.5727928320514124
1708433485.6515784,-2.1487629413604736,-1.3350368452123185,-2.5245559851275843,6.125787365227499,1.0133394002914429,-1.5727193991290491
1708433485.6535866,-2.1487109661102295,-1.3350738149932404,-2.524586025868551,6.1256223795707605,1.013350248336792,-1.5726354757892054
1708433485.6555524,-2.1486666202545166,-1.335070179109909,-2.5245888868915003,6.12551902511672,1.0134608745574951,-1.5725672880755823
1708433485.6575482,-2.148582696914673,-1.335037813787796,-2.5245991388904017,6.125337707787313,1.0134791135787964,-1.5725038687335413
1708433485.659533,-2.1485395431518555,-1.3350787174752732,-2.5245991388904017,6.125180470734396,1.0135319232940674,-1.5724032560931605
1708433485.661565,-2.1484432220458984,-1.3350215715220948,-2.524663750325338,6.125144469528951,1.0135501623153687,-1.572322193776266
1708433485.6635518,-2.148465633392334,-1.3350549650243302,-2.524663750325338,6.125027644425192,1.013619065284729,-1.5722211042987269
1708433485.6655884,-2.1483559608459473,-1.3350264442018052,-2.5246666113482874,6.124851095467367,1.0136597156524658,-1.572171990071432
1708433485.6676247,-2.148305654525757,-1.3350301694921036,-2.5246861616717737,6.124647486000814,1.0136793851852417,-1.5720709005938929
1708433485.6695385,-2.148244619369507,-1.3350030195764084,-2.524802033101217,6.124594914704122,1.0137556791305542,-1.5719159285174769
1708433485.67157,-2.1481809616088867,-1.3349422079375763,-2.524797503148214,6.124442326813497,1.0137993097305298,-1.5718525091754358
1708433485.673553,-2.1481096744537354,-1.3349626523307343,-2.524771753941671,6.12442563751296,1.0138267278671265,-1.571789566670553
1708433485.6755621,-2.148078680038452,-1.3349173975041886,-2.5248568693744105,6.124275910645284,1.0139044523239136,-1.571648422871725
1708433485.6775353,-2.147953987121582,-1.3349260103753586,-2.524864737187521,6.124153244286337,1.0139737129211426,-1.5715635458575647
1708433485.6795337,-2.1478681564331055,-1.3349062663367768,-2.5248480478869837,6.124007928162374,1.0139886140823364,-1.5714805761920374
1708433485.6815624,-2.147770643234253,-1.3349388998797913,-2.5248871485339563,6.123899805336752,1.0140520334243774,-1.5713351408587855
1708433485.6836023,-2.147761344909668,-1.3348856580308457,-2.5249202887164515,6.123784649163046,1.0140880346298218,-1.5712598005877894
1708433485.6855683,-2.1476950645446777,-1.3348780882409592,-2.5249980131732386,6.123636472016134,1.0141524076461792,-1.5710986296283167
1708433485.6875758,-2.1476352214813232,-1.3349147301963349,-2.524996582661764,6.123521196633138,1.0142005681991577,-1.5709722677813929
1708433485.68954,-2.147550344467163,-1.3348747056773682,-2.5250209013568323,6.123396742134847,1.014241099357605,-1.5709078947650355
1708433485.691529,-2.147486925125122,-1.3348951649716874,-2.5250492731677454,6.123281228333273,1.0142923593521118,-1.570777718220846
1708433485.6935313,-2.1473891735076904,-1.3348585230163117,-2.5250476042376917,6.123152601509847,1.0143405199050903,-1.5706279913531702
1708433485.6955285,-2.1473302841186523,-1.3348714125207444,-2.5250640551196497,6.123037206917562,1.0143808126449585,-1.5705207029925745
1708433485.697539,-2.1473233699798584,-1.3348627847484131,-2.52509576479067,6.122917640000143,1.0144498348236084,-1.5703676382647913
1708433485.6995766,-2.147207736968994,-1.334801973109581,-2.5251031557666224,6.122793066292562,1.0145058631896973,-1.5702021757708948
1708433485.701628,-2.147141933441162,-1.3347864311984559,-2.5251601378070276,6.122635829239645,1.014540672302246,-1.5701525847064417
1708433485.7035682,-2.1471123695373535,-1.334774912600853,-2.5251556078540247,6.122549044876852,1.0145766735076904,-1.5699432531939905
1708433485.7055912,-2.1470015048980713,-1.3347705614617844,-2.525187079106466,6.122475373535909,1.0146082639694214,-1.5698259512530726
1708433485.7075756,-2.147001028060913,-1.3347992312959214,-2.5252018610583704,6.122310983925619,1.0146982669830322,-1.5696619192706507
1708433485.7096024,-2.1469500064849854,-1.3347430986217041,-2.5252562204944056,6.122186529427328,1.0147297382354736,-1.5695441404925745
1708433485.711584,-2.1468265056610107,-1.3347269159606476,-2.5253129641162317,6.122092473297872,1.014797329902649,-1.569416348134176
1708433485.7135735,-2.1468005180358887,-1.3347552579692383,-2.525349203740255,6.1219098446662805,1.014829158782959,-1.5692437330829065
1708433485.715599,-2.146756410598755,-1.3347354394248505,-2.5253282229052942,6.121815788536825,1.0149013996124268,-1.5691278616534632
1708433485.7176332,-2.1466667652130127,-1.3347473603538056,-2.5253925959216517,6.121680009156027,1.0149669647216797,-1.5689967314349573
1708433485.7195644,-2.146613121032715,-1.334731177692749,-2.525428597127096,6.121606576233663,1.0149900913238525,-1.5688307921039026
1708433485.721528,-2.1465654373168945,-1.3346822571805497,-2.525424067174093,6.121445405274191,1.0150840282440186,-1.5686629454242151
1708433485.7235744,-2.146533489227295,-1.3347027462771912,-2.5254479090320032,6.1213347790534876,1.015086054801941,-1.5684765020953577
1708433485.7255306,-2.146470069885254,-1.3346789938262482,-2.525442425404684,6.12114034870223,1.0151342153549194,-1.5683167616473597
1708433485.7275317,-2.146406650543213,-1.3346994382194062,-2.5254960695849817,6.121059524803915,1.0152117013931274,-1.5681474844561976
1708433485.729548,-2.146336555480957,-1.334634692674019,-2.525507990513937,6.1208979962165735,1.0152347087860107,-1.5679915587054651
1708433485.731533,-2.1463112831115723,-1.3346023124507447,-2.5255635420428675,6.120815861016073,1.0152992010116577,-1.5678394476519983
1708433485.7335515,-2.146209239959717,-1.334655062561371,-2.5255845228778284,6.120720374375143,1.0153306722640991,-1.5676458517657679
1708433485.7355428,-2.146193504333496,-1.3346960556558152,-2.5255828539477747,6.120564806252279,1.0153952836990356,-1.5674360434161585
1708433485.737556,-2.146123170852661,-1.3346594286016007,-2.525656525288717,6.120497453003683,1.0154061317443848,-1.5672977606402796
1708433485.7395344,-2.146061897277832,-1.3346236509135743,-2.5256310145007532,6.120309340744772,1.0154794454574585,-1.567070786152975
1708433485.7415187,-2.146040201187134,-1.3346679520658036,-2.5257137457477015,6.120246279030599,1.0155397653579712,-1.566939655934469
1708433485.743534,-2.145991325378418,-1.3346279871514817,-2.5256927649127405,6.1201761839683435,1.0155754089355469,-1.5667231718646448
1708433485.7455535,-2.1459031105041504,-1.334631310110428,-2.5257285276996058,6.120023834496298,1.0156564712524414,-1.5665577093707483
1708433485.7475455,-2.1458261013031006,-1.3345909279635926,-2.5256970564471644,6.119927990227499,1.0156841278076172,-1.5664194265948694
1708433485.7495272,-2.145787239074707,-1.33461149156604,-2.5257795492755335,6.119783150940695,1.0157572031021118,-1.56620961824526
1708433485.7516382,-2.1457395553588867,-1.3345791113427659,-2.5258124510394495,6.1196725247199915,1.0157889127731323,-1.56602651277651
1708433485.7535665,-2.1456751823425293,-1.3346157532981415,-2.52584416071047,6.11953495719985,1.0158041715621948,-1.5657828489886683
1708433485.7556033,-2.14560604095459,-1.3345680695823212,-2.525860611592428,6.119485366135397,1.0158475637435913,-1.5656231085406702
1708433485.757539,-2.1455740928649902,-1.3346242916635056,-2.5258963743792933,6.119365680008688,1.0159330368041992,-1.5653942267047327
1708433485.7595384,-2.145517587661743,-1.3345766079476853,-2.5258663336383265,6.119277822762289,1.0159155130386353,-1.5652697722064417
1708433485.7615597,-2.1454551219940186,-1.3345314276269455,-2.5259280840503138,6.119195449143209,1.016038417816162,-1.5649970213519495
1708433485.763557,-2.145414352416992,-1.3345680695823212,-2.525963846837179,6.119064199715414,1.0160281658172607,-1.5648019949542444
1708433485.765661,-2.1453857421875,-1.3345399659923096,-2.525947395955221,6.118992316513815,1.0160763263702393,-1.5645912329303187
1708433485.7676427,-2.1452996730804443,-1.334572361116745,-2.5259879271136683,6.118842828064718,1.016088604927063,-1.564340893422262
1708433485.7695441,-2.1452393531799316,-1.3345195066979905,-2.5260239283191126,6.11880241611556,1.0161112546920776,-1.5641501585589808
1708433485.7715633,-2.1452245712280273,-1.334544227724411,-2.526026789342062,6.118681418686666,1.016196370124817,-1.5639832655536097
1708433485.7735345,-2.1451475620269775,-1.3345005822232743,-2.526050869618551,6.118572103768148,1.016211748123169,-1.5637338797198694
1708433485.7755477,-2.1451125144958496,-1.3344799143126984,-2.526149574910299,6.1184600470359705,1.0162687301635742,-1.5635321776019495
1708433485.7775311,-2.145052194595337,-1.3344920438579102,-2.5261152426349085,6.118406283646383,1.0163003206253052,-1.5633285681353968
1708433485.7795215,-2.1450204849243164,-1.334468202,-2.526139561329977,6.118285286217489,1.0163319110870361,-1.563105885182516
1708433485.7816002,-2.144986391067505,-1.334459663634636,-2.526176993046896,6.118201720505514,1.0164217948913574,-1.5629032293902796
1708433485.78354,-2.144946575164795,-1.334459663634636,-2.526196304951803,6.118064033776083,1.0164204835891724,-1.5627105871783655
1708433485.7855284,-2.1448538303375244,-1.3344400984099885,-2.526187245045797,6.11799834945754,1.0164072513580322,-1.562488857899801
1708433485.7875378,-2.144854784011841,-1.3345091205886384,-2.5262654463397425,6.117931115418234,1.016513466835022,-1.562289063130514
1708433485.7895243,-2.144782066345215,-1.33444436014209,-2.5262683073626917,6.117884623795309,1.0165542364120483,-1.5621336142169397
1708433485.7915676,-2.144721031188965,-1.3344358217767258,-2.5262895266162317,6.1176843521888635,1.0165976285934448,-1.5618889967547815
1708433485.793514,-2.1446902751922607,-1.3344364625266572,-2.526262346898214,6.117687094002523,1.0166261196136475,-1.561634365712301
1708433485.7955284,-2.1446051597595215,-1.3344649088433762,-2.5263193289386194,6.11753939369277,1.0166698694229126,-1.5614507834063929
1708433485.797546,-2.144643545150757,-1.3343869310668488,-2.5263689200030726,6.1175048229988,1.0166773796081543,-1.5612042585956019
1708433485.799552,-2.144564151763916,-1.3343954694322129,-2.526383940373556,6.117371666222372,1.0167136192321777,-1.5609753767596644
1708433485.8016944,-2.144503116607666,-1.3343964380076905,-2.526346270238058,6.117379295616903,1.0166960954666138,-1.560770336781637
1708433485.8035855,-2.1444802284240723,-1.334383637910225,-2.52637488046755,6.117174494057455,1.0167738199234009,-1.5606291929828089
1708433485.8056061,-2.1444180011749268,-1.3343713891557236,-2.526412312184469,6.117068636208334,1.0168216228485107,-1.5603874365436
1708433485.807591,-2.1443943977355957,-1.3343842786601563,-2.526386801396505,6.117041456490316,1.0168415307998657,-1.5601866880999964
1708433485.809587,-2.1443262100219727,-1.3343927276185532,-2.5263941923724573,6.116929518967428,1.0168938636779785,-1.5599702040301722
1708433485.8115623,-2.1443307399749756,-1.3343531054309388,-2.5264392534839075,6.116857754975118,1.016909122467041,-1.5597732702838343
1708433485.813581,-2.1442761421203613,-1.3343649369529267,-2.5264137426959437,6.116793381958761,1.0169495344161987,-1.5595067183123987
1708433485.8155768,-2.1442806720733643,-1.3343075972846528,-2.5264766852008265,6.1167064783866785,1.0169570446014404,-1.5592902342425745
1708433485.8176217,-2.1442127227783203,-1.3344135147384186,-2.526475254689352,6.11670349815444,1.0170096158981323,-1.5591724554644983
1708433485.819596,-2.1442136764526367,-1.3343408566764374,-2.526482645665304,6.116567480355062,1.0170217752456665,-1.5589349905597132
1708433485.8216066,-2.1441445350646973,-1.3343127530864258,-2.526445452366964,6.116461145668783,1.0170788764953613,-1.5586836973773401
1708433485.8236692,-2.1440787315368652,-1.334300549035408,-2.5265067259417933,6.116485345154562,1.0170937776565552,-1.5585663954364222
1708433485.825575,-2.1441128253936768,-1.334389479165413,-2.5265608469592493,6.11637173870162,1.0171055793762207,-1.558307949696676
1708433485.8275847,-2.14404034614563,-1.3343408566764374,-2.5265234152423304,6.116280662804403,1.0171748399734497,-1.5581162611590784
1708433485.8295376,-2.1440412998199463,-1.3343451333097,-2.5265889803515833,6.116270053177633,1.0171571969985962,-1.5579207579242151
1708433485.8315394,-2.1440083980560303,-1.3343204122832795,-2.526609007512228,6.116206037789144,1.0172064304351807,-1.5576790014850062
1708433485.833545,-2.143944025039673,-1.3343171042254944,-2.5265591780291956,6.116114842682638,1.017209768295288,-1.5574782530414026
1708433485.8355136,-2.1439030170440674,-1.3342972111753006,-2.5265801588641565,6.1160058853919885,1.0172576904296875,-1.5572155157672327
1708433485.8375232,-2.143908739089966,-1.3342562925866623,-2.526611868535177,6.116023766785421,1.0173561573028564,-1.5570438543902796
1708433485.839546,-2.1439130306243896,-1.33435374618087,-2.526628319417135,6.1159188626106165,1.0173598527908325,-1.5568555037127894
1708433485.841546,-2.143807888031006,-1.3342800450376053,-2.5266147295581263,6.1158262369926355,1.0173251628875732,-1.5566476027118128
1708433485.8435805,-2.1438000202178955,-1.334281013613083,-2.5266266504870813,6.115774142533102,1.0173988342285156,-1.5564311186419886
1708433485.845546,-2.1438345909118652,-1.3342562925866623,-2.5266056696521204,6.115669238358297,1.0174107551574707,-1.5562055746661585
1708433485.8475366,-2.1437771320343018,-1.33424864829097,-2.5266688505755823,6.115610945015707,1.0174140930175781,-1.5560386816607874
1708433485.8495262,-2.143732786178589,-1.3342401099256058,-2.5267093817340296,6.115563022881307,1.0174587965011597,-1.5558250586139124
1708433485.8516,-2.1437294483184814,-1.334289551978447,-2.5267046133624476,6.115527379303732,1.0174620151519775,-1.5555794874774378
1708433485.8536546,-2.1437065601348877,-1.334277631049492,-2.526707712803976,6.115457045822897,1.0175278186798096,-1.5554292837726038
1708433485.8555706,-2.1436612606048584,-1.334253878598549,-2.5267003218280237,6.115407812386312,1.0174952745437622,-1.5552366415606897
1708433485.8575547,-2.1436409950256348,-1.3342733693173905,-2.526712242756979,6.115265714913168,1.0175474882125854,-1.5550225416766565
1708433485.8595762,-2.1435844898223877,-1.334208608870842,-2.5267813841449183,6.115288126259603,1.017513632774353,-1.5548394362079065
1708433485.86156,-2.1435933113098145,-1.334217147236206,-2.5267649332629603,6.11521195152358,1.01762855052948,-1.5546377340899866
1708433485.8635728,-2.1435115337371826,-1.334168256526329,-2.5267422834979456,6.115144717484274,1.0175912380218506,-1.554469410573141
1708433485.865549,-2.143561601638794,-1.3342333298972626,-2.5267677942859095,6.115129577904501,1.017627239227295,-1.5542476812945765
1708433485.8675795,-2.1435296535491943,-1.334200696354248,-2.5267797152148646,6.115086304932394,1.0176153182983398,-1.5540884176837366
1708433485.8695877,-2.1434741020202637,-1.3342257750085373,-2.526799027119772,6.114968406945028,1.017627239227295,-1.5539005438434046
1708433485.8716183,-2.1434617042541504,-1.3342092496207734,-2.526841465626852,6.114981639176168,1.0176513195037842,-1.5536945501910608
1708433485.8735292,-2.1434085369110107,-1.3341649633697052,-2.526794497166769,6.114872681885519,1.017638087272644,-1.5534847418414515
1708433485.8755813,-2.1434009075164795,-1.3341649633697052,-2.5267751852618616,6.114854681282797,1.017687201499939,-1.5533540884601038
1708433485.877519,-2.143348217010498,-1.3341692251018067,-2.52682334581484,6.1148050902183435,1.017687201499939,-1.5531829039203089
1708433485.8795302,-2.1433730125427246,-1.3342178028872986,-2.526889149342672,6.1147169945533655,1.0177528858184814,-1.552976433430807
1708433485.8815224,-2.1433663368225098,-1.3341692251018067,-2.52682334581484,6.114714014321127,1.0177236795425415,-1.5528247992144983
1708433485.8835511,-2.1433095932006836,-1.3342059564641495,-2.526844088231222,6.114686953812399,1.017730951309204,-1.5526531378375452
1708433485.8855553,-2.1432528495788574,-1.334100754266121,-2.5268681685077112,6.11462281921462,1.017788052558899,-1.5524547735797327
1708433485.8875258,-2.1432573795318604,-1.3341367852738877,-2.5268502871142786,6.1145511744316,1.0177626609802246,-1.552307430897848
1708433485.8895233,-2.143230438232422,-1.334141196017601,-2.5268412272082728,6.114522921829977,1.0177748203277588,-1.5520842711078089
1708433485.8915634,-2.143223285675049,-1.3341570806554337,-2.5269041697131556,6.114474880486288,1.0177702903747559,-1.551960293446676
1708433485.8935316,-2.1431825160980225,-1.3341777634671708,-2.5268741289721888,6.114394175797262,1.0178152322769165,-1.5517805258380335
1708433485.8955257,-2.1431169509887695,-1.3341368448785325,-2.5268741289721888,6.114366996079244,1.0177913904190063,-1.5516327063189905
1708433485.8975236,-2.143117904663086,-1.334112675195076,-2.526914660130636,6.11435221412734,1.0177946090698242,-1.551476780568258
1708433485.8995306,-2.143143892288208,-1.3341169518283387,-2.526973311101095,6.11434959152297,1.0178271532058716,-1.5513199011432093
1708433485.9016097,-2.1430535316467285,-1.3341298413327713,-2.526902739201681,6.114253747254171,1.0178349018096924,-1.5511606375323694
1708433485.9035726,-2.1430578231811523,-1.3340727400830765,-2.5269339720355433,6.114171492844381,1.0178678035736084,-1.5509994665728968
1708433485.9055853,-2.143075704574585,-1.3340855550817032,-2.526968781148092,6.114193904190817,1.0178874731063843,-1.5508711973773401
1708433485.9075577,-2.1430227756500244,-1.334077001815178,-2.526914660130636,6.114089238434591,1.0178875923156738,-1.5507152716266077
1708433485.9095836,-2.143003225326538,-1.334081919198372,-2.5269716421710413,6.1140339253242395,1.0179364681243896,-1.5505779425250452
1708433485.9115913,-2.1429738998413086,-1.334036649470665,-2.5269671122180384,6.114042866020956,1.0179363489151,-1.550439182912008
1708433485.9135494,-2.1429386138916016,-1.3340647530606766,-2.5269671122180384,6.113912570267477,1.0179728269577026,-1.5503109137164515
1708433485.9156115,-2.1429431438446045,-1.3340812784484406,-2.5269838015185755,6.113888728409567,1.0179637670516968,-1.5502198378192347
1708433485.917651,-2.1429283618927,-1.334077702169754,-2.5269792715655726,6.113812553673544,1.0179669857025146,-1.550013844166891
1708433485.919582,-2.1428627967834473,-1.334077702169754,-2.5269792715655726,6.113778579026022,1.0179387331008911,-1.5498445669757288
1708433485.921537,-2.142850399017334,-1.3340495389750977,-2.5269580523120325,6.113716947823324,1.0179747343063354,-1.5497286955462855
1708433485.923535,-2.1428353786468506,-1.3340336096337815,-2.5270572344409388,6.1136618731315515,1.0179582834243774,-1.5496161619769495
1708433485.9255338,-2.1428604125976562,-1.3340899360230942,-2.5270360151873987,6.113642203598776,1.017958164215088,-1.5495403448687952
1708433485.927539,-2.142815113067627,-1.334053785806038,-2.527017895375387,6.113579499512472,1.0180286169052124,-1.549432102833883
1708433485.929523,-2.142753839492798,-1.3340378564647217,-2.526989523564474,6.113584148674764,1.0180076360702515,-1.5493324438678187
1708433485.9315248,-2.142792224884033,-1.3340667945197602,-2.527039353047506,6.113527405052938,1.018003225326538,-1.5492075125323694
1708433485.9335344,-2.1427299976348877,-1.334058166747429,-2.527043883000509,6.113483893662252,1.018052339553833,-1.54905873933901
1708433485.935559,-2.1427083015441895,-1.3340336245349427,-2.527039353047506,6.1134105799491785,1.0180230140686035,-1.5489705244647425
1708433485.9375353,-2.1426870822906494,-1.3340094548514863,-2.527055803929464,6.113395797997274,1.0180317163467407,-1.548919979725973
1708433485.9395342,-2.142735719680786,-1.334005059008934,-2.5270960966693323,6.11335967758254,1.0180392265319824,-1.548786465321676
1708433485.9415302,-2.142676591873169,-1.3339932274869462,-2.5270751158343714,6.113332974701681,1.0180140733718872,-1.5486729780780237
1708433485.943528,-2.142672061920166,-1.3339932274869462,-2.5270467440234583,6.113256442337789,1.018088698387146,-1.5485852400409144
1708433485.9455328,-2.14260196685791,-1.3339604300311585,-2.527138058339254,6.1132370112235925,1.0180842876434326,-1.5484917799579065
1708433485.94754,-2.142648220062256,-1.3340386760285874,-2.5270870367633265,6.113114464073934,1.0180588960647583,-1.5484450499164026
1708433485.949543,-2.1425914764404297,-1.3339777749827881,-2.5270631949054163,6.113090622216024,1.0180633068084717,-1.5483863989459437
1708433485.9515731,-2.1425836086273193,-1.3339777749827881,-2.5270989576922815,6.113084780960836,1.0180916786193848,-1.548304859791891
1708433485.9535666,-2.142568826675415,-1.3339820963195343,-2.527052704487936,6.113072860031881,1.0180754661560059,-1.5482237974749964
1708433485.9555554,-2.1425156593322754,-1.3339864027551194,-2.5270944277392786,6.112968075066366,1.0181035995483398,-1.5482142607318323
1708433485.957575,-2.142503261566162,-1.3339373779347916,-2.527123037968771,6.1128872511680505,1.0180829763412476,-1.548124138508932
1708433485.9595451,-2.1425211429595947,-1.3339777749827881,-2.5271156469928187,6.112865078240194,1.0180916786193848,-1.5480883757220667
1708433485.9615836,-2.142489433288574,-1.3339408946088334,-2.5271363894092005,6.112883078842916,1.0181158781051636,-1.5480039755450647
1708433485.9635553,-2.1424520015716553,-1.3339701753905793,-2.5270898977862757,6.11280523517684,1.0181366205215454,-1.5479877630816858
1708433485.9655719,-2.142406940460205,-1.3339777749827881,-2.527144257222311,6.112766492157736,1.0181353092193604,-1.5480054060565394
1708433485.9676325,-2.1424291133880615,-1.3339258593371888,-2.5271111170398157,6.112742411881246,1.0181233882904053,-1.5479558149920862
1708433485.9695535,-2.1423840522766113,-1.3339701753905793,-2.527123037968771,6.112680899887838,1.0181233882904053,-1.5479453245746058
1708433485.9715326,-2.1423816680908203,-1.3339052212289353,-2.527113978062765,6.112580883293905,1.018151879310608,-1.5479286352740687
1708433485.9735484,-2.142357587814331,-1.3339668822339554,-2.527163569127218,6.112561213761129,1.0181834697723389,-1.547941033040182
1708433485.9755313,-2.1423001289367676,-1.3340408664992829,-2.52714711824526,6.112476336746969,1.018184781074524,-1.5479653517352503
1708433485.977532,-2.1422932147979736,-1.3339460057071229,-2.527135197316305,6.112467276840963,1.0181715488433838,-1.5479987303363245
1708433485.9795496,-2.142268180847168,-1.3339583289674302,-2.527151648198263,6.112422573357382,1.0181759595870972,-1.5479767958270472
1708433485.9815266,-2.1421780586242676,-1.3339711886695405,-2.527184549962179,6.112355220108785,1.0182163715362549,-1.5480144659625452
1708433485.9835274,-2.1422271728515625,-1.3339300912669678,-2.527138058339254,6.112298714905538,1.0181868076324463,-1.5481279532061976
1708433485.9855487,-2.142188787460327,-1.3339417737773438,-2.527154509221212,6.112226474076071,1.0181834697723389,-1.5481002966510218
1708433485.9875684,-2.142181873321533,-1.3339755696109314,-2.5271952787982386,6.112199771195211,1.0182031393051147,-1.5482304731952112
1708433485.9895308,-2.142134189605713,-1.3339417737773438,-2.527175490056173,6.112081634789266,1.0182404518127441,-1.5482996145831507
1708433485.9915469,-2.1421139240264893,-1.333938719039299,-2.5271876494037073,6.112030851631918,1.0182491540908813,-1.5483301321612757
1708433485.993533,-2.142050266265869,-1.3339460057071229,-2.5271998087512415,6.111987459450521,1.0181987285614014,-1.5483740011798304
1708433485.9955475,-2.142037868499756,-1.3339096319726487,-2.5271998087512415,6.111906635552206,1.0182316303253174,-1.5485132376300257
1708433485.9975379,-2.1419970989227295,-1.3338778477958222,-2.5272372404681605,6.111863600998678,1.0182437896728516,-1.5485432783709925
1708433485.9995258,-2.1419618129730225,-1.3339138490012665,-2.5271876494037073,6.111829030304708,1.0182808637619019,-1.5485833326922815
1708433486.0017362,-2.1418917179107666,-1.3339181703380127,-2.5272727648364466,6.111778604775228,1.0182795524597168,-1.5487707296954554
1708433486.003609,-2.1418240070343018,-1.3339330565980454,-2.5272236506091517,6.111681091576376,1.0183215141296387,-1.5488546530352991
1708433486.0055704,-2.141791820526123,-1.33387345195327,-2.5272520224200647,6.111592757492819,1.0183171033859253,-1.548945728932516
1708433486.0075574,-2.141789436340332,-1.3339431297830124,-2.5272520224200647,6.111533391266622,1.018296480178833,-1.5490744749652308
1708433486.0095708,-2.1417417526245117,-1.3339181703380127,-2.527238432561056,6.11141203620986,1.01829195022583,-1.549194637929098
1708433486.0116072,-2.1416354179382324,-1.3338605922511597,-2.5272956530200403,6.111398446350851,1.018336534500122,-1.5493314901935022
1708433486.013585,-2.141662359237671,-1.33387345195327,-2.527233902608053,6.111331212311544,1.0183531045913696,-1.5495002905475062
1708433486.0155716,-2.1415810585021973,-1.3338896942189713,-2.527254883443014,6.111196386605062,1.0183398723602295,-1.549631420766012
1708433486.017554,-2.14152193069458,-1.333922491674759,-2.5273402372943323,6.111171233444967,1.018356204032898,-1.5498207251178187
1708433486.0196197,-2.1414380073547363,-1.3338691306165238,-2.5272865931140345,6.111063706665792,1.0183837413787842,-1.5500343481646937
1708433486.0216084,-2.14139723777771,-1.3339096319726487,-2.527339045201437,6.110975611000814,1.0184383392333984,-1.5502246061908167
1708433486.0236285,-2.1413302421569824,-1.3339431297830124,-2.5273779074298304,6.110863673477926,1.018388032913208,-1.5504339377032679
1708433486.0255907,-2.1412463188171387,-1.3339268875173111,-2.5273223559008997,6.110779630928793,1.0184284448623657,-1.5506413618670862
1708433486.0276108,-2.1412155628204346,-1.333861620431282,-2.527379576359884,6.110619771271505,1.0184491872787476,-1.5508716742144983
1708433486.029624,-2.141131639480591,-1.3338984113982697,-2.527350966130392,6.110474574356832,1.0184569358825684,-1.5510547796832483
1708433486.0315826,-2.1410343647003174,-1.3339258593371888,-2.527350966130392,6.110419142037191,1.0184359550476074,-1.551338020955221
1708433486.0335593,-2.1409661769866943,-1.3339268875173111,-2.5273945967303675,6.110271441727438,1.0184766054153442,-1.551544491444723
1708433486.035614,-2.1408956050872803,-1.3338366609862824,-2.5274110476123255,6.110205399781027,1.018484115600586,-1.5517609755145472
1708433486.037566,-2.1408073902130127,-1.3338940900615235,-2.5274484793292444,6.110048758774557,1.0184797048568726,-1.5520466009723108
1708433486.0395308,-2.140718698501587,-1.3338940900615235,-2.52744704881777,6.1099364636238,1.0185692310333252,-1.5523446241961878
1708433486.0415328,-2.1406447887420654,-1.33387345195327,-2.527479950581686,6.109764563828268,1.0185770988464355,-1.5526335875140589
1708433486.043588,-2.1405279636383057,-1.333914966588356,-2.527491633092062,6.1096181748206995,1.0185726881027222,-1.5529072920428675
1708433486.0455425,-2.140460252761841,-1.3338984113982697,-2.527466360722677,6.1094775078590295,1.018596887588501,-1.5531585852252405
1708433486.0475345,-2.1403648853302,-1.3338940900615235,-2.5275235811816614,6.109317648201742,1.0186208486557007,-1.5534523169146937
1708433486.0495265,-2.1402065753936768,-1.3338409823230286,-2.5275726954089563,6.109187590866842,1.0186283588409424,-1.5537532011615198
1708433486.0515974,-2.140120029449463,-1.3338984113982697,-2.527550284062521,6.109063613205709,1.018656849861145,-1.5540207068072718
1708433486.0536137,-2.140036106109619,-1.3338896942189713,-2.527616564427511,6.108917224198141,1.0186645984649658,-1.5544093290912073
1708433486.0555673,-2.1399290561676025,-1.3338778477958222,-2.52759558359255,6.10874496677474,1.0186809301376343,-1.554746452962057
1708433486.0575948,-2.1398134231567383,-1.3339027178338547,-2.5275984446154993,6.108582126885214,1.0187125205993652,-1.5550740400897425
1708433486.0595696,-2.1397340297698975,-1.3339460057071229,-2.5276435057269495,6.108381974488058,1.0187443494796753,-1.5554516951190394
