Eg3-git/Classifiers/Data Collection/u1/u1cir3_ur3e_joint_states.csv
time,elbow_joint,shoulder_lift_joint,shoulder_pan_joint,wrist_1_joint,wrist_2_joint,wrist_3_joint
1708433499.7596629,-2.141453266143799,-1.3336668622544785,-2.527442757283346,6.11051498630599,1.018676519393921,-1.3686369101153772
1708433499.7616582,-2.141422986984253,-1.3337114763310929,-2.527442757283346,6.110522734909811,1.018733263015747,-1.3686721960650843
1708433499.7636702,-2.1413991451263428,-1.333702878361084,-2.527454678212301,6.110557186394491,1.0187095403671265,-1.3686111609088343
1708433499.765636,-2.1414151191711426,-1.333711401825287,-2.5274513403521937,6.110477673798361,1.018688440322876,-1.3686850706683558
1708433499.7676737,-2.1414036750793457,-1.3336790365031739,-2.5274513403521937,6.11059735992507,1.018733263015747,-1.3686607519732874
1708433499.7696612,-2.141427516937256,-1.3336301010898133,-2.5274177233325403,6.110452282219686,1.018705129623413,-1.3686745802508753
1708433499.7716393,-2.1414082050323486,-1.3336462539485474,-2.527410332356588,6.110494124680319,1.0187169313430786,-1.3686679045306605
1708433499.7736976,-2.1413822174072266,-1.333707184796669,-2.527454678212301,6.110543715744772,1.0186928510665894,-1.3686588446246546
1708433499.7757876,-2.141394853591919,-1.333703876738884,-2.527438465748922,6.110452282219686,1.0187095403671265,-1.3686655203448694
1708433499.7777119,-2.1414408683776855,-1.3337071549943467,-2.5274677912341517,6.110489594727316,1.0186961889266968,-1.3686230818377894
1708433499.7797177,-2.1413776874542236,-1.3336582344821473,-2.5274513403521937,6.110522734909811,1.0187005996704102,-1.3686850706683558
1708433499.7816935,-2.1413822174072266,-1.333711416726448,-2.52744704881777,6.110440122872152,1.0187095403671265,-1.3686302343951624
1708433499.7837412,-2.1413609981536865,-1.3336173754981537,-2.5274718443499964,6.110459673195638,1.0186794996261597,-1.3686068693744105
1708433499.7856758,-2.1413867473602295,-1.3337438863566895,-2.527442757283346,6.110506045609274,1.0187169313430786,-1.3686521689044397
1708433499.787685,-2.141432046890259,-1.3337233525565644,-2.52747089067568,6.110489594727316,1.0187125205993652,-1.3685978094684046
1708433499.7897487,-2.1414036750793457,-1.3336909723332901,-2.52747089067568,6.110477673798361,1.018683910369873,-1.3686521689044397
1708433499.7916791,-2.1414363384246826,-1.3336377155831833,-2.5274351278888147,6.110473263054647,1.0186749696731567,-1.3686068693744105
1708433499.7936728,-2.1414036750793457,-1.333683342938759,-2.5274437109576624,6.1104657528694055,1.0186916589736938,-1.3686679045306605
1708433499.7956555,-2.1414287090301514,-1.3336790365031739,-2.5274601618396204,6.110513675003805,1.018705129623413,-1.3686721960650843
1708433499.7976923,-2.1414082050323486,-1.3336582493833085,-2.5274556318866175,6.110503065377035,1.0187081098556519,-1.3686307112323206
1708433499.7996507,-2.1414287090301514,-1.3337071549943467,-2.527393643056051,6.110477673798361,1.0186750888824463,-1.3686278502093714
1708433499.8016684,-2.1414363384246826,-1.3337080937675019,-2.5274232069598597,6.1104867337043665,1.0187214612960815,-1.3686721960650843
1708433499.8036933,-2.141329050064087,-1.3336754453233262,-2.527454678212301,6.110557186394491,1.0187199115753174,-1.3686564604388636
1708433499.8056655,-2.1413867473602295,-1.333690957432129,-2.5274882952319544,6.110423671990194,1.0187244415283203,-1.3685901800738733
1708433499.8077629,-2.1414151191711426,-1.3336539578488846,-2.527418915425436,6.110512125283041,1.0186794996261597,-1.3686655203448694
1708433499.8096626,-2.1413991451263428,-1.3337243658355256,-2.527442757283346,6.110440122872152,1.0187125205993652,-1.3686111609088343
1708433499.8116693,-2.1413991451263428,-1.3336748045733948,-2.52744704881777,6.110461342125692,1.0187379121780396,-1.3686936537372034
1708433499.8136585,-2.1414105892181396,-1.3336497259191056,-2.527430836354391,6.11043261268691,1.0187288522720337,-1.3686721960650843
1708433499.815661,-2.1413652896881104,-1.333702878361084,-2.527442757283346,6.110507714539327,1.0187199115753174,-1.3686440626727503
1708433499.817719,-2.1413958072662354,-1.3336138737252732,-2.5274232069598597,6.110428201943197,1.0187455415725708,-1.3686936537372034
1708433499.8196502,-2.1413776874542236,-1.3337191355279465,-2.5274513403521937,6.110510575562277,1.0186961889266968,-1.3686655203448694
1708433499.8216884,-2.1414127349853516,-1.333690957432129,-2.527475182210104,6.110453593521871,1.0187333822250366,-1.368641201649801
1708433499.8236961,-2.1414151191711426,-1.3336747747710724,-2.5274513403521937,6.1104867337043665,1.0187379121780396,-1.3686111609088343
1708433499.8257742,-2.1413958072662354,-1.3336909723332901,-2.527458969746725,6.110453593521871,1.0187005996704102,-1.3686531225787562
1708433499.8278408,-2.1414082050323486,-1.3337028932622452,-2.5275045076953333,6.110524046211996,1.0186961889266968,-1.3686941305743616
1708433499.8296874,-2.1414196491241455,-1.333719090824463,-2.5274632612811487,6.110474812775411,1.0187199115753174,-1.3686440626727503
1708433499.8317258,-2.1414082050323486,-1.333674819474556,-2.5274632612811487,6.110434520035543,1.0187244415283203,-1.3686397711383265
1708433499.8337069,-2.1414172649383545,-1.3337071698955079,-2.527442757283346,6.11039565780715,1.0187455415725708,-1.3686140219317835
1708433499.8356957,-2.141374349594116,-1.333711416726448,-2.527414623891012,6.110467064171591,1.0187081098556519,-1.3686202208148401
1708433499.837689,-2.1413538455963135,-1.3336866957000275,-2.527442757283346,6.110465872078695,1.0187578201293945,-1.3686021010028284
1708433499.8397157,-2.1413822174072266,-1.3336952191642304,-2.5274675528155726,6.1105044958885095,1.0187244415283203,-1.3686812559710901
1708433499.8418028,-2.1413867473602295,-1.333670513038971,-2.5274675528155726,6.110483753472128,1.0186872482299805,-1.3686721960650843
1708433499.8437521,-2.141400098800659,-1.3337028932622452,-2.5274351278888147,6.110389458924093,1.0187742710113525,-1.3686440626727503
1708433499.8456764,-2.1413912773132324,-1.3336549264243622,-2.527475182210104,6.110401379853048,1.0187366008758545,-1.3687055746661585
1708433499.8476634,-2.141400098800659,-1.3336952191642304,-2.527426306401388,6.110437142639913,1.0187366008758545,-1.3686278502093714
1708433499.849672,-2.1413674354553223,-1.3336995554021378,-2.5274632612811487,6.110452520638265,1.0187366008758545,-1.3686564604388636
1708433499.8517177,-2.1414287090301514,-1.3336754155210038,-2.527442757283346,6.110386597901144,1.018699049949646,-1.3686698118792933
1708433499.8536856,-2.1414172649383545,-1.3337038618377228,-2.527458969746725,6.110389458924093,1.018710970878601,-1.3686769644366663
1708433499.855674,-2.141433000564575,-1.3336748045733948,-2.5274351278888147,6.11033712604598,1.018710970878601,-1.3686350027667444
1708433499.8576636,-2.141400098800659,-1.3336790365031739,-2.5274794737445276,6.110332596092977,1.0187366008758545,-1.3686440626727503
1708433499.8596559,-2.1413958072662354,-1.3336377453855057,-2.5273850599872034,6.110423910408773,1.0187487602233887,-1.3686397711383265
1708433499.8616657,-2.1414082050323486,-1.3336582791856308,-2.527475182210104,6.110348927765646,1.0187366008758545,-1.3686769644366663
1708433499.863668,-2.1414241790771484,-1.3336790365031739,-2.527430836354391,6.110371458321371,1.0187411308288574,-1.3686607519732874
1708433499.865645,-2.1413538455963135,-1.333715782766678,-2.5274177233325403,6.110388147621908,1.0187064409255981,-1.3686745802508753
1708433499.8676405,-2.141378879547119,-1.333687649374344,-2.52744704881777,6.110334265023031,1.0187650918960571,-1.3686440626727503
1708433499.869643,-2.1413912773132324,-1.3336454641870041,-2.527422014866964,6.110416519432821,1.0187606811523438,-1.3686230818377894
1708433499.87165,-2.1413867473602295,-1.3336986613324662,-2.5274503866778772,6.1103505966956995,1.0187650918960571,-1.3686321417437952
1708433499.8737528,-2.1413958072662354,-1.3336833727410813,-2.527454678212301,6.110359656601705,1.018710970878601,-1.36867601076235
1708433499.8757505,-2.141400098800659,-1.333646298652031,-2.527438465748922,6.110379206925192,1.0187199115753174,-1.3686721960650843
1708433499.8777876,-2.1413586139678955,-1.333690957432129,-2.5274177233325403,6.110310423165121,1.0187562704086304,-1.3686307112323206
1708433499.8797555,-2.1413629055023193,-1.333666892056801,-2.5274675528155726,6.110383736878195,1.0187366008758545,-1.3686679045306605
1708433499.8817618,-2.1413538455963135,-1.333679051404335,-2.5274632612811487,6.110343205719747,1.0187443494796753,-1.3686278502093714
1708433499.8836844,-2.1413958072662354,-1.3336747747710724,-2.5275126139270228,6.1103341458137415,1.0187859535217285,-1.3686936537372034
1708433499.885666,-2.141383409500122,-1.333666892056801,-2.5275002161609095,6.110346185951986,1.0187981128692627,-1.3686440626727503
1708433499.887671,-2.1413586139678955,-1.3336463284543534,-2.5274794737445276,6.110347616463461,1.018774151802063,-1.3686812559710901
1708433499.8896773,-2.1414196491241455,-1.3336747598699112,-2.52744704881777,6.110380399018087,1.0187606811523438,-1.3686631361590784
1708433499.8917768,-2.1413674354553223,-1.333670587544777,-2.527466599141256,6.110376107483663,1.0187859535217285,-1.3687055746661585
1708433499.893712,-2.141374349594116,-1.3337233376554032,-2.5274794737445276,6.110380399018087,1.0187770128250122,-1.3686278502093714
1708433499.8957388,-2.1413471698760986,-1.3336704534343262,-2.527442757283346,6.1102685807044885,1.0187770128250122,-1.3686721960650843
1708433499.8977325,-2.1413674354553223,-1.333690957432129,-2.52744704881777,6.1103670475776575,1.0187636613845825,-1.3686068693744105
1708433499.8997235,-2.1413958072662354,-1.3337157529643555,-2.52744704881777,6.110321986466207,1.0187562704086304,-1.3686440626727503
1708433499.9016542,-2.1413471698760986,-1.333708108668663,-2.527430836354391,6.110364067345419,1.0187982320785522,-1.3686278502093714
1708433499.903699,-2.141376256942749,-1.3336619597724457,-2.5274632612811487,6.1103341458137415,1.018768072128296,-1.3686564604388636
1708433499.9056473,-2.141404628753662,-1.3336182695678254,-2.5274351278888147,6.110296952515402,1.0187726020812988,-1.3686860243426722
1708433499.9076788,-2.141387701034546,-1.333711416726448,-2.527426544819967,6.110368478089132,1.0187770128250122,-1.3686440626727503
1708433499.9096646,-2.141392230987549,-1.333670513038971,-2.5274632612811487,6.110305893212118,1.0187517404556274,-1.3686679045306605
1708433499.9116528,-2.141392230987549,-1.333690957432129,-2.5274351278888147,6.110314833908834,1.0187726020812988,-1.3686187903033655
1708433499.9137297,-2.141371965408325,-1.3336668771556397,-2.5274840036975306,6.110307442932882,1.018789291381836,-1.3686850706683558
1708433499.9156632,-2.141387701034546,-1.3336952191642304,-2.5274675528155726,6.1103283045585535,1.018784761428833,-1.3686564604388636
1708433499.9176795,-2.141343593597412,-1.333657757644989,-2.527442757283346,6.110319363861837,1.0187636613845825,-1.3686631361590784
1708433499.91965,-2.1413674354553223,-1.3337071400931855,-2.527466599141256,6.110335337906637,1.0188010931015015,-1.3686259428607386
1708433499.9216547,-2.1413967609405518,-1.3336747747710724,-2.527430836354391,6.110305893212118,1.0187726020812988,-1.3686698118792933
1708433499.9236667,-2.1413559913635254,-1.3336833876422425,-2.5274513403521937,6.110302912979879,1.018789291381836,-1.3687084356891077
1708433499.9257276,-2.141360282897949,-1.3336867106011887,-2.527442757283346,6.110257851868429,1.0187726020812988,-1.3686679045306605
1708433499.927732,-2.141376256942749,-1.3336909872344513,-2.52744704881777,6.110302912979879,1.0187562704086304,-1.3686259428607386
1708433499.9297092,-2.141392230987549,-1.3336497706225892,-2.5274959246264856,6.110287773400106,1.0187472105026245,-1.3686893622027796
1708433499.9317102,-2.1413674354553223,-1.3336453896811982,-2.5274632612811487,6.11027883270339,1.018784761428833,-1.3686850706683558
1708433499.933714,-2.141404628753662,-1.333653987651207,-2.527475182210104,6.110274302750387,1.018834114074707,-1.3686259428607386
1708433499.9356852,-2.141371965408325,-1.3336790663054963,-2.527475182210104,6.110348927765646,1.0187591314315796,-1.3686202208148401
1708433499.9377065,-2.1413302421569824,-1.3336952340653916,-2.5274956862079065,6.110266911774435,1.0187803506851196,-1.3687265555011194
1708433499.9397495,-2.1413347721099854,-1.333690957432129,-2.5275126139270228,6.110283243447103,1.0188251733779907,-1.3686631361590784
1708433499.94172,-2.1413018703460693,-1.333642066722252,-2.527430836354391,6.110243069916525,1.0187758207321167,-1.3686803022967737
1708433499.9437325,-2.141352415084839,-1.3336834025434037,-2.527422014866964,6.110262381821432,1.0188329219818115,-1.3686431089984339
1708433499.9456637,-2.141343593597412,-1.3336790365031739,-2.5274675528155726,6.110207307129659,1.018796682357788,-1.3686259428607386
1708433499.9476538,-2.141339063644409,-1.333618314271309,-2.5274339357959192,6.110304462700643,1.0188297033309937,-1.3687103430377405
1708433499.949691,-2.1413259506225586,-1.333702878361084,-2.527458969746725,6.1102685807044885,1.0188207626342773,-1.3686769644366663
1708433499.951677,-2.141385316848755,-1.3336995852044602,-2.5275126139270228,6.110229599266805,1.0187501907348633,-1.3686431089984339
1708433499.9537144,-2.1413559913635254,-1.3336582493833085,-2.527454678212301,6.110246050148763,1.0188179016113281,-1.3687012831317347
1708433499.9556673,-2.141326665878296,-1.333646298652031,-2.5275002161609095,6.1102263806159876,1.0188044309616089,-1.3686431089984339
1708433499.957671,-2.141364812850952,-1.333666281109192,-2.527442757283346,6.110246050148763,1.018799901008606,-1.3686965147601526
1708433499.9596872,-2.141352415084839,-1.3336952340653916,-2.5274503866778772,6.110250460892477,1.018834114074707,-1.3686679045306605
1708433499.9616656,-2.141380786895752,-1.333723397260048,-2.5274503866778772,6.110235321312704,1.0188044309616089,-1.3686350027667444
1708433499.963667,-2.141369342803955,-1.3337038469365616,-2.527454678212301,6.11025499084548,1.0188044309616089,-1.3686922232257288
1708433499.9656625,-2.1413064002990723,-1.3336344522288819,-2.527454678212301,6.110171305924215,1.0187712907791138,-1.3686440626727503
1708433499.9676623,-2.141343593597412,-1.3336876344731827,-2.527454678212301,6.110280501633444,1.0187788009643555,-1.3686721960650843
1708433499.969663,-2.141319751739502,-1.3336138737252732,-2.527475182210104,6.110243069916525,1.0188207626342773,-1.3686893622027796
1708433499.9716623,-2.1413605213165283,-1.3336833876422425,-2.5274632612811487,6.110218989640035,1.0188297033309937,-1.3686893622027796
1708433499.9737015,-2.141315221786499,-1.3336876940778275,-2.52744704881777,6.110238539963522,1.0188463926315308,-1.3686769644366663
1708433499.9757833,-2.141261100769043,-1.333670513038971,-2.5274840036975306,6.110264050751486,1.018799901008606,-1.3686965147601526
1708433499.9777515,-2.141324281692505,-1.3336952191642304,-2.527487103139059,6.110235440521993,1.0188133716583252,-1.3687217871295374
1708433499.9796977,-2.1413605213165283,-1.3336625558188935,-2.5274632612811487,6.110207307129659,1.018799901008606,-1.3686397711383265
1708433499.9817274,-2.141339063644409,-1.333711416726448,-2.527454678212301,6.110256421356954,1.0188583135604858,-1.3686474005328577
1708433499.9836977,-2.141331195831299,-1.3337114316276093,-2.527458969746725,6.1102099297340295,1.0188404321670532,-1.3686679045306605
1708433499.9856994,-2.141298294067383,-1.3336711537889023,-2.527482811604635,6.110284912377157,1.018811821937561,-1.3686845938311976
1708433499.9876568,-2.1413357257843018,-1.3336790216020127,-2.5274458567248743,6.110256540566244,1.0188374519348145,-1.3686588446246546
1708433499.9897082,-2.141326665878296,-1.3336995852044602,-2.527487103139059,6.1102263806159876,1.0187832117080688,-1.3686965147601526
1708433499.9917324,-2.141352415084839,-1.3336833876422425,-2.5274997393237513,6.110235440521993,1.0188655853271484,-1.3686850706683558
1708433499.9936695,-2.141343593597412,-1.333699570303299,-2.527504030858175,6.110239732056417,1.0188418626785278,-1.3686636129962366
1708433499.995655,-2.141352415084839,-1.3336668771556397,-2.5274794737445276,6.110284912377157,1.0188329219818115,-1.3686307112323206
1708433499.9976497,-2.141326665878296,-1.333653987651207,-2.52747089067568,6.110218989640035,1.0188329219818115,-1.3686679045306605
1708433499.9996536,-2.1413028240203857,-1.333690957432129,-2.527454678212301,6.110190856247701,1.0188162326812744,-1.3686922232257288
1708433500.0016634,-2.1413028240203857,-1.3336790365031739,-2.52747089067568,6.1102309105689905,1.0188241004943848,-1.3686588446246546
1708433500.0036767,-2.1413357257843018,-1.3336463284543534,-2.527504030858175,6.110182034760275,1.018811821937561,-1.3686383406268519
1708433500.0056612,-2.1413402557373047,-1.3336668771556397,-2.5274840036975306,6.110305774002828,1.018811821937561,-1.3686922232257288
1708433500.007647,-2.141319751739502,-1.3335888099721451,-2.527466599141256,6.1102521298225305,1.0188329219818115,-1.3686350027667444
1708433500.0096598,-2.1412858963012695,-1.3336662364057084,-2.527466599141256,6.1102263806159876,1.0188448429107666,-1.3686588446246546
1708433500.0116694,-2.141324520111084,-1.3336258840611954,-2.5274785200702112,6.110298383026876,1.0188374519348145,-1.3686440626727503
1708433500.0137033,-2.141298294067383,-1.3337200295976182,-2.5274296442614954,6.11024426200942,1.018799901008606,-1.3687012831317347
1708433500.015656,-2.1412813663482666,-1.3336592328599473,-2.52747089067568,6.110235321312704,1.0188207626342773,-1.3686922232257288
1708433500.0176456,-2.141298294067383,-1.3336506944945832,-2.52747089067568,6.110218989640035,1.01884925365448,-1.3686474005328577
1708433500.019657,-2.141315221786499,-1.3336711686900635,-2.5274296442614954,6.110264050751486,1.0188329219818115,-1.36867601076235
1708433500.0216935,-2.141261100769043,-1.3336754155210038,-2.5274632612811487,6.1102521298225305,1.0188162326812744,-1.3686588446246546
1708433500.023689,-2.141352415084839,-1.3336754006198426,-2.5274620691882532,6.110195386200704,1.0188162326812744,-1.3686769644366663
1708433500.0257444,-2.1412675380706787,-1.3336790365031739,-2.5275114218341272,6.110227811127462,1.0188285112380981,-1.3686712423907679
1708433500.027747,-2.1413421630859375,-1.3336540472558518,-2.527466599141256,6.110260951309957,1.0187921524047852,-1.3686545530902308
1708433500.0297134,-2.1413490772247314,-1.3336754155210038,-2.527536455784933,6.11019383647994,1.0188207626342773,-1.36867601076235
1708433500.0317519,-2.141298294067383,-1.3336754453233262,-2.527482811604635,6.110190975456991,1.018853783607483,-1.3686893622027796
1708433500.0336833,-2.141298294067383,-1.3336790365031739,-2.527482811604635,6.110174166947164,1.01884925365448,-1.3686631361590784
1708433500.0356863,-2.1412949562072754,-1.3336790365031739,-2.527487103139059,6.110207307129659,1.0188360214233398,-1.3686721960650843
1708433500.037692,-2.1413028240203857,-1.3337158423713227,-2.5274253527270716,6.110190856247701,1.0188374519348145,-1.3686803022967737
1708433500.0397427,-2.1413073539733887,-1.333630086188652,-2.52751595178713,6.110286342888632,1.0188448429107666,-1.3686497847186487
1708433500.0417686,-2.1413447856903076,-1.3336345118335267,-2.527482811604635,6.110218989640035,1.0188162326812744,-1.36867601076235
1708433500.0436976,-2.1413447856903076,-1.3336344522288819,-2.5275071302997034,6.110182034760275,1.0188374519348145,-1.3686965147601526
1708433500.045686,-2.1413357257843018,-1.3336952191642304,-2.527504030858175,6.1102144596870325,1.018757939338684,-1.3687012831317347
1708433500.047658,-2.141328811645508,-1.3336995852044602,-2.5274913946734827,6.110227930336752,1.018811821937561,-1.3686679045306605
1708433500.0496697,-2.1413402557373047,-1.3336790365031739,-2.5275028387652796,6.110202896385946,1.018811821937561,-1.36867601076235
1708433500.0516613,-2.141315221786499,-1.3336267930320282,-2.52751595178713,6.110207307129659,1.018811821937561,-1.3686845938311976
1708433500.053653,-2.141258716583252,-1.3337201041034241,-2.527482811604635,6.110187756806173,1.0187954902648926,-1.3686721960650843
1708433500.0556767,-2.141328811645508,-1.3336834174445649,-2.5274956862079065,6.110174166947164,1.0188088417053223,-1.3686984221087855
1708433500.0576727,-2.1412994861602783,-1.333662526016571,-2.5274794737445276,6.110187756806173,1.0188701152801514,-1.3686097303973597
1708433500.0596912,-2.1413028240203857,-1.333638773565628,-2.5274952093707483,6.110232460289755,1.0188448429107666,-1.3686397711383265
1708433500.0616775,-2.1412675380706787,-1.3337038469365616,-2.527466599141256,6.110195386200704,1.0188374519348145,-1.3686721960650843
1708433500.0636785,-2.141303777694702,-1.3337123853019257,-2.527475182210104,6.110213506012716,1.0188374519348145,-1.3686965147601526
1708433500.0656977,-2.1412880420684814,-1.3336506944945832,-2.5274491945849817,6.11020444610671,1.0188207626342773,-1.3686588446246546
1708433500.0676668,-2.1412835121154785,-1.333659217958786,-2.527520243321554,6.110162365227499,1.0188285112380981,-1.3686564604388636
1708433500.0696633,-2.141303777694702,-1.3336839836886902,-2.5274997393237513,6.110171305924215,1.01884925365448,-1.3686679045306605
1708433500.071675,-2.141263246536255,-1.3336995852044602,-2.527504030858175,6.1102133868034265,1.01884925365448,-1.3686922232257288
1708433500.0736842,-2.141263246536255,-1.3336711537889023,-2.527482811604635,6.110086071282186,1.0187668800354004,-1.3686721960650843
1708433500.0757725,-2.1412994861602783,-1.3336833876422425,-2.5274785200702112,6.110130774765768,1.0188374519348145,-1.3686631361590784
1708433500.0777516,-2.1412508487701416,-1.3336625558188935,-2.52747089067568,6.110153186112203,1.0188418626785278,-1.3686721960650843
1708433500.079772,-2.1412720680236816,-1.3336711388877411,-2.5274739901172083,6.1100830910499475,1.01884925365448,-1.3686893622027796
1708433500.0818126,-2.1412746906280518,-1.333618314271309,-2.5274739901172083,6.11006377914504,1.0188329219818115,-1.3686564604388636
1708433500.0837183,-2.1412792205810547,-1.3336420220187684,-2.5274577776538294,6.110080230026998,1.018799901008606,-1.3686264196978968
1708433500.0856938,-2.1413333415985107,-1.3336344522288819,-2.5274952093707483,6.110036837845602,1.0188162326812744,-1.3686769644366663
1708433500.0877168,-2.1412789821624756,-1.3337123853019257,-2.5274620691882532,6.110054838448324,1.0188655853271484,-1.3686936537372034
1708433500.0897076,-2.1412789821624756,-1.3336463135531922,-2.527482811604635,6.110092150955953,1.0188701152801514,-1.3686278502093714
1708433500.091764,-2.1412720680236816,-1.3337124598077317,-2.5274997393237513,6.110112893372335,1.01884925365448,-1.3686397711383265
1708433500.093735,-2.1412551403045654,-1.3337038171342392,-2.527532164250509,6.110092031746664,1.0188374519348145,-1.3686431089984339
1708433500.095725,-2.1412508487701416,-1.333613933329918,-2.527442757283346,6.1101159928138635,1.0188329219818115,-1.3686655203448694
1708433500.0977128,-2.1412596702575684,-1.3337081682733078,-2.5275114218341272,6.110066759377279,1.0188251733779907,-1.3686187903033655
1708433500.0996802,-2.1412384510040283,-1.333666892056801,-2.527466599141256,6.110133993416586,1.0188448429107666,-1.3686607519732874
1708433500.1016936,-2.141263246536255,-1.3336876642755051,-2.527524534855978,6.110038029938497,1.01884925365448,-1.3686812559710901
1708433500.103673,-2.1412880420684814,-1.3336711686900635,-2.527487103139059,6.11006377914504,1.0188374519348145,-1.3686307112323206
1708433500.105653,-2.1412880420684814,-1.3336919260076066,-2.5274415651904505,6.110026109009542,1.0188285112380981,-1.3687055746661585
1708433500.1076822,-2.1412923336029053,-1.3336387884667893,-2.5274997393237513,6.110056149750509,1.0188329219818115,-1.3686474005328577
1708433500.1096535,-2.1412675380706787,-1.3336344969323655,-2.527482811604635,6.110080230026998,1.0188567638397217,-1.3686845938311976
1708433500.1116545,-2.1412789821624756,-1.333687649374344,-2.527478281651632,6.110080230026998,1.0188627243041992,-1.3686440626727503
1708433500.1137047,-2.141251802444458,-1.3336549711278458,-2.5274696985827845,6.110072839051046,1.0188655853271484,-1.3686483542071741
1708433500.1156878,-2.141273021697998,-1.333653987651207,-2.52751595178713,6.110050308495321,1.0188329219818115,-1.3686431089984339
1708433500.117711,-2.141242742538452,-1.3336834174445649,-2.527482811604635,6.110068309098043,1.018811821937561,-1.3686321417437952
1708433500.1196778,-2.1412508487701416,-1.3336344373277207,-2.527478281651632,6.110054838448324,1.0188448429107666,-1.3686350027667444
1708433500.1216698,-2.1412808895111084,-1.333708183174469,-2.5275114218341272,6.110039698868551,1.0188418626785278,-1.3686607519732874
1708433500.1237488,-2.1412596702575684,-1.333679051404335,-2.527487103139059,6.110051619797506,1.0188374519348145,-1.368674103413717
1708433500.1257749,-2.1412854194641113,-1.3336378049901505,-2.5275114218341272,6.110092150955953,1.0188523530960083,-1.3686845938311976
1708433500.1277757,-2.141273021697998,-1.3336506944945832,-2.5274997393237513,6.110068309098043,1.018811821937561,-1.3686278502093714
1708433500.129677,-2.141242742538452,-1.3336833876422425,-2.527482811604635,6.1100425598915,1.0187954902648926,-1.368685547505514
1708433500.1316926,-2.1412642002105713,-1.333626852636673,-2.5275114218341272,6.110030638962545,1.0188207626342773,-1.3686607519732874
1708433500.1337078,-2.141251802444458,-1.3336463284543534,-2.527527634297506,6.110060560494222,1.0188374519348145,-1.368636433278219
1708433500.1356788,-2.141256093978882,-1.3336462837508698,-2.5275114218341272,6.110072839051046,1.0188117027282715,-1.3685901800738733
1708433500.137691,-2.1412642002105713,-1.3336102825454255,-2.527527634297506,6.110023247986593,1.01884925365448,-1.3686483542071741
1708433500.1396952,-2.1412110328674316,-1.3336506497910996,-2.527478281651632,6.110054838448324,1.018811821937561,-1.3686812559710901
1708433500.14176,-2.14119291305542,-1.3336139631322403,-2.5274503866778772,6.110080230026998,1.0188404321670532,-1.3686698118792933
1708433500.143744,-2.141197443008423,-1.3336634945920487,-2.5274997393237513,6.110072839051046,1.018861174583435,-1.3686655203448694
1708433500.145676,-2.1412642002105713,-1.3336919260076066,-2.5274997393237513,6.110092031746664,1.018865704536438,-1.3686607519732874
1708433500.1476893,-2.1412155628204346,-1.3336189550212403,-2.5275395552264612,6.110068309098043,1.0188374519348145,-1.3686564604388636
1708433500.1496668,-2.141247272491455,-1.3336711835912247,-2.527478281651632,6.110023247986593,1.018853783607483,-1.3686350027667444
1708433500.1516778,-2.141235828399658,-1.3336344969323655,-2.527508322392599,6.11006377914504,1.0188567638397217,-1.3686187903033655
1708433500.1537094,-2.141256093978882,-1.3336625707200547,-2.5274866263019007,6.110056149750509,1.0188285112380981,-1.3686068693744105
1708433500.1556935,-2.1412596702575684,-1.3336876642755051,-2.5274985472308558,6.110002386360922,1.0188207626342773,-1.3686202208148401
1708433500.1576777,-2.141244888305664,-1.3336754155210038,-2.5274913946734827,6.110056149750509,1.0188329219818115,-1.3685830275165003
1708433500.1596837,-2.1412289142608643,-1.3337005388787766,-2.527527634297506,6.110077369004049,1.018811821937561,-1.3686202208148401
1708433500.1616573,-2.141273021697998,-1.3336996001056214,-2.5274997393237513,6.110060560494222,1.0188374519348145,-1.3686202208148401
1708433500.1636949,-2.1412198543548584,-1.3336582493833085,-2.5274866263019007,6.110009777336874,1.018834114074707,-1.3686607519732874
1708433500.1656506,-2.141273021697998,-1.3336146038821717,-2.527548376713888,6.110023247986593,1.018811821937561,-1.3686321417437952
1708433500.1677022,-2.1412065029144287,-1.333638773565628,-2.527478281651632,6.110110032349386,1.0188162326812744,-1.368674103413717
1708433500.1696715,-2.1412198543548584,-1.3336711686900635,-2.5275352636920374,6.110039698868551,1.0188162326812744,-1.3686021010028284
1708433500.1716673,-2.141282081604004,-1.3336506944945832,-2.5274909178363245,6.110048639565267,1.0188162326812744,-1.3686655203448694
1708433500.1736712,-2.141256093978882,-1.3336996299079438,-2.5275147596942347,6.110015857010641,1.0188074111938477,-1.3686321417437952
1708433500.1756957,-2.141253709793091,-1.3336754155210038,-2.5274909178363245,6.110047089844503,1.0188448429107666,-1.36865741411318
1708433500.1777432,-2.1411995887756348,-1.3336430352977295,-2.5275266806231897,6.110059249192037,1.01884925365448,-1.3686111609088343
1708433500.1797183,-2.141240358352661,-1.333626852636673,-2.5274696985827845,6.110065090447225,1.0187877416610718,-1.3686202208148401
1708433500.1816792,-2.1412155628204346,-1.3337167364409943,-2.5275114218341272,6.110039698868551,1.01884925365448,-1.368570629750387
1708433500.1836977,-2.1412198543548584,-1.333708108668663,-2.5274696985827845,6.109981047898092,1.0188285112380981,-1.3686202208148401
1708433500.1856604,-2.1412110328674316,-1.333626852636673,-2.5275114218341272,6.11006377914504,1.0188404321670532,-1.368641201649801
1708433500.1876755,-2.1412155628204346,-1.3336301457932969,-2.5274909178363245,6.110039698868551,1.018853783607483,-1.368624512349264
1708433500.1896534,-2.141256093978882,-1.3336139631322403,-2.527504030858175,6.110051619797506,1.018853783607483,-1.368554417287008
1708433500.1916533,-2.141174554824829,-1.3336840283921738,-2.5275071302997034,6.109997856407919,1.0188655853271484,-1.368608299885885
1708433500.1938617,-2.1412289142608643,-1.3336225760034104,-2.5275233427630823,6.110030638962545,1.0188162326812744,-1.368608299885885
1708433500.195661,-2.141179323196411,-1.333647297029831,-2.5274866263019007,6.1100817797477625,1.0188448429107666,-1.368558708821432
1708433500.197658,-2.141179323196411,-1.3336430352977295,-2.527482811604635,6.110060560494222,1.0188329219818115,-1.3685882727252405
1708433500.1996982,-2.141233444213867,-1.3336344969323655,-2.5274696985827845,6.110006916313925,1.0188285112380981,-1.3685763517962855
1708433500.201648,-2.1412155628204346,-1.3336139631322403,-2.5274952093707483,6.110048639565267,1.0188448429107666,-1.3686021010028284
1708433500.2036893,-2.141253709793091,-1.3336387437633057,-2.5275233427630823,6.110020386963644,1.0188028812408447,-1.3685229460345667
1708433500.205653,-2.141260862350464,-1.3336549562266846,-2.5275071302997034,6.1099902270133875,1.0188285112380981,-1.3685882727252405
1708433500.2076652,-2.141251802444458,-1.3336060655168076,-2.5275071302997034,6.110038149147787,1.01884925365448,-1.368528191243307
1708433500.2096517,-2.141242742538452,-1.3336301457932969,-2.527548376713888,6.110030638962545,1.0188329219818115,-1.3685229460345667
1708433500.2116613,-2.1412198543548584,-1.3336506944945832,-2.5274820963488978,6.110064971237936,1.0188329219818115,-1.3685362974749964
1708433500.2136757,-2.141244888305664,-1.3335930866054078,-2.527482811604635,6.110051619797506,1.0188285112380981,-1.3685691992389124
1708433500.215655,-2.1411702632904053,-1.3336711537889023,-2.5275233427630823,6.110032307892599,1.01884925365448,-1.3685272375689905
1708433500.2177064,-2.1412243843078613,-1.3336549562266846,-2.527482811604635,6.110014188080587,1.0188655853271484,-1.3685105482684534
1708433500.219696,-2.1412200927734375,-1.3336344820312043,-2.5274534861194056,6.110009777336874,1.0188207626342773,-1.368523899708883
1708433500.2216775,-2.1412243843078613,-1.3336790365031739,-2.5275309721576136,6.110060560494222,1.0188285112380981,-1.3685525099383753
1708433500.2236993,-2.141195058822632,-1.3336668771556397,-2.5275190512286585,6.110030638962545,1.0188285112380981,-1.3685572783099573
1708433500.2256708,-2.14123797416687,-1.3336388033679505,-2.527478281651632,6.110048639565267,1.0188448429107666,-1.3685362974749964
1708433500.2277687,-2.1412243843078613,-1.3336876642755051,-2.5275028387652796,6.110072839051046,1.0188448429107666,-1.3685196081744593
1708433500.2296934,-2.141174554824829,-1.3336876642755051,-2.5274739901172083,6.110011327057638,1.0188404321670532,-1.3684957663165491
1708433500.2316976,-2.141201972961426,-1.3336506944945832,-2.5274739901172083,6.110006916313925,1.018799901008606,-1.368528191243307
1708433500.233669,-2.141240119934082,-1.3336668771556397,-2.527532164250509,6.110047089844503,1.0188329219818115,-1.3685196081744593
1708433500.2357054,-2.1411995887756348,-1.3336344969323655,-2.5275114218341272,6.110069620400228,1.01884925365448,-1.368500057850973
1708433500.2376788,-2.1412243843078613,-1.3336463284543534,-2.5274909178363245,6.110020386963644,1.018861174583435,-1.368523899708883
1708433500.2396994,-2.141201972961426,-1.3336754155210038,-2.5274866263019007,6.109945404320516,1.0188448429107666,-1.368490997944967
1708433500.241703,-2.141201972961426,-1.3336463284543534,-2.5274952093707483,6.110041367798605,1.0188567638397217,-1.3685405890094202
1708433500.2437434,-2.141197443008423,-1.3336549562266846,-2.527532164250509,6.110032307892599,1.0188285112380981,-1.368523899708883
1708433500.2457087,-2.1411995887756348,-1.333626852636673,-2.5275071302997034,6.109962212830343,1.0188448429107666,-1.3685372511493128
1708433500.2476678,-2.141195058822632,-1.333647297029831,-2.527466599141256,6.110044109612264,1.018853783607483,-1.368565861378805
1708433500.2496705,-2.1411702632904053,-1.3336506944945832,-2.5274909178363245,6.110015857010641,1.0188241004943848,-1.3685410658465784
1708433500.2516809,-2.14123797416687,-1.333638773565628,-2.527532164250509,6.110020386963644,1.018861174583435,-1.368549648915426
1708433500.253706,-2.1412289142608643,-1.3336146038821717,-2.52751595178713,6.110020506172933,1.018853783607483,-1.368479077016012
1708433500.2556708,-2.1412155628204346,-1.3336549562266846,-2.5274985472308558,6.110015857010641,1.0188285112380981,-1.3685162703143519
1708433500.2576568,-2.141249418258667,-1.333696187739708,-2.5274866263019007,6.110036837845602,1.018811821937561,-1.368511978779928
1708433500.259673,-2.141240358352661,-1.3336516630700608,-2.5275233427630823,6.11000822761611,1.0188374519348145,-1.3684924284564417
1708433500.2616634,-2.1411702632904053,-1.3336225760034104,-2.5275395552264612,6.1099737761314294,1.0188419818878174,-1.3685162703143519
1708433500.2636926,-2.141153335571289,-1.333638773565628,-2.5275233427630823,6.109971272736349,1.0188404321670532,-1.368479077016012
1708433500.2656713,-2.1412065029144287,-1.3337038469365616,-2.527532164250509,6.109954464226522,1.018811821937561,-1.3684504667865198
1708433500.2676735,-2.1412155628204346,-1.3336833876422425,-2.527544085179464,6.110015857010641,1.0188162326812744,-1.3685091177569788
1708433500.2696934,-2.1412289142608643,-1.3336549562266846,-2.5274534861194056,6.110027777939596,1.0188746452331543,-1.368532959614889
1708433500.2716758,-2.141185998916626,-1.3336506944945832,-2.5275028387652796,6.109971272736349,1.0188448429107666,-1.368483845387594
1708433500.2737112,-2.1412038803100586,-1.3336582493833085,-2.5274739901172083,6.11000822761611,1.0188567638397217,-1.3685415426837366
1708433500.2757459,-2.141235828399658,-1.3337167364409943,-2.5274866263019007,6.110006916313925,1.0188581943511963,-1.3685134092914026
1708433500.2777088,-2.1412065029144287,-1.3336711388877411,-2.5275352636920374,6.110050308495321,1.0188162326812744,-1.368471924458639
1708433500.2797189,-2.1412110328674316,-1.3336378049901505,-2.5275071302997034,6.109978186875143,1.0187997817993164,-1.368471924458639
1708433500.2817397,-2.141237735748291,-1.3337038469365616,-2.5274909178363245,6.109987246781149,1.0188465118408203,-1.3685043493853968
1708433500.2837245,-2.141195058822632,-1.3336634945920487,-2.5275395552264612,6.109949934273519,1.0188251733779907,-1.368462864552633
1708433500.2857153,-2.141183614730835,-1.3336634945920487,-2.5275233427630823,6.110015737801351,1.0188088417053223,-1.368471924458639
1708433500.2876987,-2.1412041187286377,-1.3336345267346879,-2.5274620691882532,6.109928953438558,1.0188133716583252,-1.3684762159930628
1708433500.289728,-2.141174554824829,-1.3336711388877411,-2.5274997393237513,6.11002932766036,1.0187921524047852,-1.3684504667865198
1708433500.2917564,-2.141153335571289,-1.3336754155210038,-2.527461115513937,6.109975683480062,1.0188207626342773,-1.3685091177569788
1708433500.2937188,-2.141183614730835,-1.3336301457932969,-2.527504030858175,6.109991776734152,1.0188298225402832,-1.3684762159930628
1708433500.2956738,-2.141260862350464,-1.3336754155210038,-2.5275028387652796,6.109996187477865,1.0188162326812744,-1.3685162703143519
1708433500.2976966,-2.141244888305664,-1.3336634945920487,-2.5274577776538294,6.109951603203573,1.0188251733779907,-1.3684924284564417
1708433500.2996993,-2.141171455383301,-1.3336711388877411,-2.5274952093707483,6.109972464829244,1.0188133716583252,-1.3684762159930628
1708433500.301706,-2.141183614730835,-1.3336549562266846,-2.527478281651632,6.109942662506857,1.0188133716583252,-1.3684266249286097
1708433500.3037453,-2.1412291526794434,-1.3337123853019257,-2.5275190512286585,6.109905230789938,1.0187997817993164,-1.3684561888324183
1708433500.3057032,-2.141244888305664,-1.333626852636673,-2.5275233427630823,6.1099305031593225,1.0187712907791138,-1.3685091177569788
1708433500.3076713,-2.1411657333374023,-1.3336549562266846,-2.5274997393237513,6.110007035523214,1.0188387632369995,-1.3684476057635706
1708433500.309709,-2.141195058822632,-1.3336592030576249,-2.52751595178713,6.109944093018331,1.0188010931015015,-1.3684561888324183
1708433500.3116827,-2.1412155628204346,-1.3336430352977295,-2.5274909178363245,6.109956013947286,1.0188133716583252,-1.3684266249286097
1708433500.3136733,-2.141190528869629,-1.333610327248909,-2.527478281651632,6.109964954644003,1.018796682357788,-1.3684189955340784
1708433500.3156643,-2.141166925430298,-1.3336876642755051,-2.52751595178713,6.109972464829244,1.0187757015228271,-1.3685057798968714
1708433500.3176613,-2.1412243843078613,-1.3336634945920487,-2.527532164250509,6.1099785445030115,1.0188010931015015,-1.3684652487384241
1708433500.3196664,-2.141195058822632,-1.3336430352977295,-2.5274997393237513,6.109960424691,1.018784761428833,-1.3684561888324183
1708433500.3216465,-2.141188144683838,-1.3336226356080552,-2.527536455784933,6.109969484597006,1.018784761428833,-1.3684399763690394
1708433500.3237057,-2.141240358352661,-1.3336506646922608,-2.5274577776538294,6.109941231995382,1.018796682357788,-1.3684356848346155
1708433500.3257911,-2.141183614730835,-1.3336268228343506,-2.5274997393237513,6.109941231995382,1.018789291381836,-1.3684681097613733
1708433500.3277504,-2.141233444213867,-1.3336463284543534,-2.527487103139059,6.109953152924337,1.0188010931015015,-1.3684356848346155
1708433500.329706,-2.1412110328674316,-1.3336833876422425,-2.5275071302997034,6.109948622971334,1.0187726020812988,-1.3684189955340784
1708433500.331713,-2.141244888305664,-1.3336711388877411,-2.527466599141256,6.109896170883932,1.0187398195266724,-1.3684609572040003
1708433500.333708,-2.141185998916626,-1.3336311143687745,-2.527487103139059,6.109894501953878,1.0187770128250122,-1.368425194417135
1708433500.335689,-2.141174554824829,-1.333659217958786,-2.5274372736560267,6.109899031906881,1.0188101530075073,-1.368425194417135
1708433500.3376865,-2.141195058822632,-1.333626852636673,-2.527454678212301,6.109896170883932,1.0187606811523438,-1.368399445210592
1708433500.3396983,-2.141174554824829,-1.3336146038821717,-2.5274913946734827,6.109870779305258,1.0187650918960571,-1.3684371153460901
1708433500.3417125,-2.141195058822632,-1.3336796772531052,-2.527475182210104,6.109891640930929,1.0187982320785522,-1.3684170881854456
1708433500.3437548,-2.1412198543548584,-1.3336311143687745,-2.5274296442614954,6.109879720001974,1.0187650918960571,-1.3683574835406702
1708433500.3456595,-2.1411995887756348,-1.3336311143687745,-2.527482811604635,6.109896170883932,1.0187578201293945,-1.3684080282794397
1708433500.3476806,-2.1412198543548584,-1.333659217958786,-2.5274458567248743,6.109905111580648,1.0187442302703857,-1.368403736745016
1708433500.3496625,-2.141190528869629,-1.3335974526456376,-2.527466599141256,6.109928953438558,1.0187352895736694,-1.3683918158160608
1708433500.3516889,-2.1411995887756348,-1.333696187739708,-2.527466599141256,6.109882581024923,1.0187487602233887,-1.3684666792498987
1708433500.353674,-2.141190528869629,-1.3336115342429657,-2.527482811604635,6.109937894135275,1.018751621246338,-1.3684127966510218
1708433500.3556495,-2.1412243843078613,-1.3336840283921738,-2.527438465748922,6.109893190651693,1.0187442302703857,-1.3683708349811
1708433500.3577034,-2.1412198543548584,-1.3336139631322403,-2.5274503866778772,6.1098753092582605,1.0187288522720337,-1.3684294859515589
1708433500.359661,-2.141179323196411,-1.3336919111064454,-2.5274913946734827,6.10991262176589,1.0187081098556519,-1.3683841864215296
1708433500.361669,-2.141188144683838,-1.333626852636673,-2.527454678212301,6.109928953438558,1.018682599067688,-1.3683798948871058
1708433500.3637145,-2.1412041187286377,-1.3336430352977295,-2.527466599141256,6.109845268517294,1.0187153816223145,-1.3683469931231897
1708433500.36569,-2.1412155628204346,-1.3336225760034104,-2.5274739901172083,6.109917032509603,1.0187005996704102,-1.3684008757220667
1708433500.367737,-2.141242265701294,-1.3336396527341385,-2.5274296442614954,6.109905111580648,1.0187081098556519,-1.3683889547931116
1708433500.3696978,-2.1412198543548584,-1.3336430352977295,-2.5274913946734827,6.109884249954977,1.0187081098556519,-1.368375603352682
1708433500.3716664,-2.1412065029144287,-1.3336634647897263,-2.527487103139059,6.109909641533651,1.0187005996704102,-1.3683722654925745
1708433500.3737082,-2.1412289142608643,-1.333593176012375,-2.527482811604635,6.109879839211263,1.0187333822250366,-1.3683961073504847
1708433500.375761,-2.141166925430298,-1.333586947326996,-2.52747089067568,6.1098753092582605,1.018705129623413,-1.3683889547931116
1708433500.377752,-2.141162395477295,-1.3336720329574128,-2.52747089067568,6.109863388329305,1.018687129020691,-1.3683608214007776
1708433500.3797324,-2.1412041187286377,-1.3336146038821717,-2.527426544819967,6.109879720001974,1.0186961889266968,-1.3683517614947718
1708433500.381736,-2.141179323196411,-1.3336711388877411,-2.527504030858175,6.1098588583763025,1.0187005996704102,-1.3683226744281214
1708433500.3837774,-2.1412041187286377,-1.3336060655168076,-2.5274513403521937,6.109942424088278,1.0187095403671265,-1.3683303038226526
1708433500.3856854,-2.141153335571289,-1.333635465507843,-2.5274675528155726,6.109896170883932,1.0187379121780396,-1.3683932463275355
1708433500.387681,-2.1412289142608643,-1.3335901957801362,-2.527454678212301,6.10991262176589,1.018688440322876,-1.3683436552630823
1708433500.3896835,-2.141190528869629,-1.3336634945920487,-2.5274720827685755,6.109843957215109,1.0186928510665894,-1.3683345953570765
1708433500.3916864,-2.1411969661712646,-1.333610327248909,-2.5274620691882532,6.109891640930929,1.0186556577682495,-1.3683560530291956
1708433500.3937788,-2.1412582397460938,-1.3336030852845688,-2.527475182210104,6.109893190651693,1.0186675786972046,-1.3683603445636194
1708433500.3957114,-2.1412110328674316,-1.3336796772531052,-2.527487103139059,6.109843957215109,1.0186511278152466,-1.3683093229876917
1708433500.397672,-2.1412110328674316,-1.3336516630700608,-2.527454678212301,6.109872329026022,1.018688440322876,-1.3683393637286585
1708433500.399723,-2.1412155628204346,-1.3336017590812226,-2.5274632612811487,6.109872329026022,1.0186928510665894,-1.3683651129352015
1708433500.401685,-2.141233444213867,-1.3336225760034104,-2.527487103139059,6.109879720001974,1.018676519393921,-1.3682902495013636
1708433500.4037185,-2.141162395477295,-1.3336840283921738,-2.5274632612811487,6.109921562462606,1.0186928510665894,-1.368340794240133
1708433500.4056785,-2.1411995887756348,-1.3336225760034104,-2.527426544819967,6.109839546471395,1.0186973810195923,-1.3683036009417933
1708433500.407708,-2.1412041187286377,-1.3336146038821717,-2.527487103139059,6.109872329026022,1.0186721086502075,-1.3683274427997034
1708433500.4096498,-2.141179323196411,-1.333618314271309,-2.527475182210104,6.1098917601402185,1.0186645984649658,-1.368357006703512
1708433500.4116645,-2.141174554824829,-1.333578274851181,-2.527430836354391,6.109885799675741,1.0186434984207153,-1.3683651129352015
1708433500.413653,-2.1411995887756348,-1.333655835395195,-2.5274913946734827,6.10988877990798,1.0186928510665894,-1.3683436552630823
1708433500.415647,-2.141162395477295,-1.333635465507843,-2.527475182210104,6.109830605774679,1.0186556577682495,-1.3683679739581507
1708433500.4176662,-2.141174554824829,-1.3336311143687745,-2.527442757283346,6.109896170883932,1.0186479091644287,-1.368357006703512
1708433500.419651,-2.141157865524292,-1.333614633684494,-2.5274503866778772,6.109860408097067,1.0186601877212524,-1.3683183828936976
1708433500.4216838,-2.1412041187286377,-1.3336840283921738,-2.527414623891012,6.109884249954977,1.0186899900436401,-1.3682945410357874
1708433500.4236755,-2.1411702632904053,-1.3336634945920487,-2.527442757283346,6.109855997353353,1.0186645984649658,-1.3683155218707483
1708433500.4257495,-2.141179323196411,-1.3336882156184693,-2.52747089067568,6.109863388329305,1.0186855792999268,-1.3683436552630823
1708433500.4277313,-2.141195058822632,-1.3336146038821717,-2.5274296442614954,6.109848487168112,1.0187019109725952,-1.3683226744281214
1708433500.4296715,-2.1412129402160645,-1.333635465507843,-2.5274394194232386,6.1098588583763025,1.0186556577682495,-1.3683155218707483
1708433500.431683,-2.1412084102630615,-1.333623157148697,-2.527422014866964,6.109863388329305,1.0186479091644287,-1.3682974020587366
1708433500.4336658,-2.14123797416687,-1.3336231422475358,-2.527442757283346,6.109814154892721,1.0186433792114258,-1.3683274427997034
1708433500.4356623,-2.141183614730835,-1.3336189550212403,-2.527450148259298,6.109905111580648,1.0187019109725952,-1.3683856169330042
1708433500.4376788,-2.1412110328674316,-1.333635465507843,-2.5274913946734827,6.109891640930929,1.018676519393921,-1.3683226744281214
1708433500.439719,-2.1412198543548584,-1.333655835395195,-2.5274351278888147,6.109846937447347,1.0186556577682495,-1.3683651129352015
1708433500.441698,-2.141233444213867,-1.3336311143687745,-2.527410093938009,6.1099140522773645,1.018688440322876,-1.3683226744281214
1708433500.4437096,-2.141162395477295,-1.3335987639478226,-2.527458969746725,6.10988877990798,1.018688440322876,-1.3682616392718714
1708433500.4456656,-2.1412084102630615,-1.333638773565628,-2.527450148259298,6.109920012741842,1.0186556577682495,-1.3682988325702112
1708433500.4476576,-2.141195058822632,-1.333618314271309,-2.52744704881777,6.109805333405294,1.0186645984649658,-1.3682945410357874
1708433500.4496653,-2.141195058822632,-1.3336018037847062,-2.5274675528155726,6.109900700836935,1.0186855792999268,-1.3683274427997034
1708433500.4516718,-2.1412041187286377,-1.3336711090854187,-2.527442757283346,6.109867799073019,1.0186855792999268,-1.3683036009417933
1708433500.4536817,-2.1412086486816406,-1.333626852636673,-2.5274058024035853,6.109835016518392,1.0186433792114258,-1.3682916800128382
1708433500.4556458,-2.1412110328674316,-1.3336430352977295,-2.5274997393237513,6.109835016518392,1.0186972618103027,-1.368357006703512
1708433500.4576666,-2.141233444213867,-1.333626852636673,-2.5274925867663782,6.109855878144064,1.0186433792114258,-1.368312184010641
1708433500.4596474,-2.141162395477295,-1.333623157148697,-2.5274513403521937,6.109942424088278,1.0186736583709717,-1.3683036009417933
1708433500.4616568,-2.141195058822632,-1.3336030852845688,-2.5274351278888147,6.109896170883932,1.0186809301376343,-1.368340794240133
1708433500.46366,-2.1412289142608643,-1.3336923730424424,-2.527422014866964,6.109887230187216,1.0186809301376343,-1.3683612982379358
1708433500.4656377,-2.141233444213867,-1.333659217958786,-2.527442757283346,6.10988877990798,1.0186601877212524,-1.3682826201068323
1708433500.4676619,-2.141183614730835,-1.333638773565628,-2.5274015108691614,6.109863388329305,1.0186479091644287,-1.368328873311178
1708433500.4696672,-2.141179323196411,-1.3336516630700608,-2.5274797121631067,6.109879720001974,1.018676519393921,-1.3683479467975062
1708433500.4716702,-2.141174554824829,-1.333635465507843,-2.5274794737445276,6.109863388329305,1.0186973810195923,-1.368345085774557
1708433500.4736707,-2.141188144683838,-1.3336189550212403,-2.527475182210104,6.10985146740035,1.0186645984649658,-1.3683274427997034
1708433500.4756968,-2.1411995887756348,-1.333659217958786,-2.527442757283346,6.10992311218337,1.0186645984649658,-1.3683479467975062
1708433500.4777274,-2.1411712169647217,-1.333655835395195,-2.527430836354391,6.10985146740035,1.0186266899108887,-1.3683479467975062
1708433500.4797244,-2.141179323196411,-1.3336060655168076,-2.5274513403521937,6.1098753092582605,1.0186312198638916,-1.368340794240133
1708433500.4816918,-2.141140937805176,-1.3336396527341385,-2.527410332356588,6.109896170883932,1.0186266899108887,-1.368336025868551
1708433500.4836953,-2.1412110328674316,-1.3336516630700608,-2.527438227330343,6.109876858979025,1.018661379814148,-1.3683651129352015
1708433500.4856732,-2.1412198543548584,-1.3335910898498078,-2.5274058024035853,6.109854447632589,1.0186645984649658,-1.368312184010641
1708433500.487671,-2.141179323196411,-1.333610327248909,-2.527430836354391,6.109905111580648,1.0186556577682495,-1.3683651129352015
1708433500.4896548,-2.141192674636841,-1.333647297029831,-2.5274840036975306,6.109884249954977,1.0186601877212524,-1.3683155218707483
1708433500.4917443,-2.1411712169647217,-1.3336311143687745,-2.527487103139059,6.109867799073019,1.018688440322876,-1.3683527151690882
1708433500.4937458,-2.1412155628204346,-1.3336396378329773,-2.5274556318866175,6.109891640930929,1.0186556577682495,-1.3683479467975062
1708433500.4956746,-2.141188144683838,-1.3336678457311173,-2.52747089067568,6.10995768287734,1.0186524391174316,-1.3683479467975062
1708433500.4976976,-2.1412084102630615,-1.3336516630700608,-2.527458969746725,6.1099140522773645,1.0186721086502075,-1.3683393637286585
1708433500.4997022,-2.14123797416687,-1.333635465507843,-2.5274913946734827,6.109858977585592,1.0186721086502075,-1.3683694044696253
1708433500.5016756,-2.141183614730835,-1.3336189699224015,-2.5275002161609095,6.109881269722738,1.0186721086502075,-1.3683527151690882
1708433500.5037255,-2.141188144683838,-1.333635465507843,-2.527458969746725,6.109900581627645,1.018705129623413,-1.3683603445636194
1708433500.5056639,-2.1411995887756348,-1.3337005239776154,-2.527438227330343,6.10992597320632,1.0186972618103027,-1.3683517614947718
1708433500.5076878,-2.141190528869629,-1.3336072725108643,-2.527410093938009,6.1099125025566,1.0186675786972046,-1.3683345953570765
1708433500.5097003,-2.141188144683838,-1.3336189550212403,-2.527454678212301,6.109863388329305,1.0186675786972046,-1.3683856169330042
1708433500.5117035,-2.141233444213867,-1.333610327248909,-2.527438227330343,6.109845387726583,1.0186556577682495,-1.3683560530291956
1708433500.5137033,-2.141183853149414,-1.3336225760034104,-2.5274763743029993,6.109858977585592,1.0186556577682495,-1.368342701588766
1708433500.5157177,-2.1412041187286377,-1.333610327248909,-2.5274437109576624,6.109921562462606,1.0186721086502075,-1.3683317343341272
1708433500.5177,-2.141188144683838,-1.3336430352977295,-2.527426544819967,6.1098753092582605,1.0186645984649658,-1.368342701588766
1708433500.5196762,-2.141166925430298,-1.333635465507843,-2.5274797121631067,6.109866249352255,1.018688440322876,-1.3683889547931116
1708433500.5216873,-2.141183614730835,-1.333655835395195,-2.52744704881777,6.10991262176589,1.018671989440918,-1.3683722654925745
1708433500.5236924,-2.1411995887756348,-1.3335944724133988,-2.5274718443499964,6.109863388329305,1.018676519393921,-1.3683679739581507
1708433500.5257666,-2.141195058822632,-1.3336146187833329,-2.527475182210104,6.1099469540412805,1.0186928510665894,-1.3683636824237269
1708433500.5277665,-2.1411757469177246,-1.3336146038821717,-2.5274351278888147,6.109969484597006,1.0186855792999268,-1.3683841864215296
1708433500.5296795,-2.1412155628204346,-1.3335944724133988,-2.52747089067568,6.1099456427390955,1.018688440322876,-1.3683798948871058
1708433500.5317657,-2.141242265701294,-1.333635465507843,-2.5274601618396204,6.109966504364767,1.0186928510665894,-1.3684127966510218
1708433500.5337038,-2.1412110328674316,-1.333626852636673,-2.5274632612811487,6.109900700836935,1.018688440322876,-1.3683636824237269
1708433500.5357127,-2.1412289142608643,-1.3336995554021378,-2.5274913946734827,6.109941231995382,1.0186645984649658,-1.3684118429767054
1708433500.5377066,-2.1412243843078613,-1.333660052423813,-2.527442757283346,6.109915482788839,1.018692970275879,-1.368441406880514
1708433500.539667,-2.141179323196411,-1.3336354506066819,-2.527458969746725,6.109966623574056,1.018688440322876,-1.368420426045553
1708433500.5417073,-2.141188144683838,-1.333610327248909,-2.527430836354391,6.109932172089376,1.0186837911605835,-1.3684127966510218
1708433500.543747,-2.1411712169647217,-1.333626852636673,-2.527410332356588,6.109929072647848,1.0187005996704102,-1.368375603352682
1708433500.545686,-2.1412198543548584,-1.333626852636673,-2.527454678212301,6.109932291298666,1.018705129623413,-1.3683784643756312
1708433500.5476742,-2.141233444213867,-1.3336274039796372,-2.5274558703051966,6.109953152924337,1.0187005996704102,-1.3684189955340784
1708433500.5496814,-2.141174554824829,-1.3336678457311173,-2.5274131933795374,6.109944093018331,1.0187005996704102,-1.368420426045553
1708433500.551647,-2.141174793243408,-1.333626852636673,-2.527438227330343,6.10991262176589,1.0186721086502075,-1.3684442679034632
1708433500.553678,-2.1412289142608643,-1.3336430054954072,-2.527442757283346,6.109976875572958,1.018705129623413,-1.3684280554400843
1708433500.5557027,-2.1412198543548584,-1.3336115342429657,-2.527410332356588,6.109915482788839,1.018671989440918,-1.3684561888324183
1708433500.5576885,-2.1412198543548584,-1.3336311143687745,-2.527414623891012,6.109941231995382,1.018688440322876,-1.3684728781329554
1708433500.5596595,-2.141192674636841,-1.3336678457311173,-2.527438227330343,6.109910952835836,1.018683910369873,-1.3684356848346155
1708433500.561665,-2.141162395477295,-1.3336189550212403,-2.527438465748922,6.109981405525961,1.0187305212020874,-1.3685057798968714
1708433500.5636926,-2.141235828399658,-1.3336311143687745,-2.5274675528155726,6.109953152924337,1.018683910369873,-1.3685057798968714
1708433500.565686,-2.1411702632904053,-1.333610327248909,-2.527426544819967,6.109920012741842,1.0187288522720337,-1.3684356848346155
1708433500.567676,-2.141162395477295,-1.3336146038821717,-2.5274956862079065,6.109981405525961,1.018705129623413,-1.3684428373919886
1708433500.5696616,-2.141174554824829,-1.333655835395195,-2.5274720827685755,6.109984624176779,1.0186749696731567,-1.3684595266925257
1708433500.571656,-2.141181707382202,-1.3336558651975174,-2.527438227330343,6.109993684082784,1.018683910369873,-1.3684309164630335
1708433500.5736637,-2.1412155628204346,-1.333622620706894,-2.5274351278888147,6.1099634049232385,1.0186960697174072,-1.3684852758990687
1708433500.575752,-2.14123797416687,-1.333610327248909,-2.527458969746725,6.109935152321615,1.0186749696731567,-1.3684504667865198
1708433500.5777957,-2.1412198543548584,-1.3336876344731827,-2.52747089067568,6.110023247986593,1.0187140703201294,-1.3685162703143519
1708433500.579684,-2.1412155628204346,-1.333659217958786,-2.52744704881777,6.11000822761611,1.0186630487442017,-1.3684595266925257
1708433500.5817187,-2.1412289142608643,-1.333618314271309,-2.5274882952319544,6.110050308495321,1.018655776977539,-1.3685372511493128
1708433500.5837266,-2.141233444213867,-1.3335621070912858,-2.5274556318866175,6.110065090447225,1.0186675786972046,-1.3685253302203577
1708433500.5856793,-2.1412041187286377,-1.333590255384781,-2.527430836354391,6.110048639565267,1.0187169313430786,-1.3684924284564417
1708433500.587762,-2.1412243843078613,-1.3336634945920487,-2.5274015108691614,6.110068309098043,1.018683910369873,-1.3685210386859339
1708433500.5896714,-2.141195058822632,-1.3336189550212403,-2.527418915425436,6.110122072487631,1.0187005996704102,-1.3684747854815882
1708433500.591676,-2.141185998916626,-1.3336018484881897,-2.5274394194232386,6.110084759980001,1.018721580505371,-1.3684881369220179
1708433500.5937214,-2.141188144683838,-1.3335901957801362,-2.527410332356588,6.110060560494222,1.0186916589736938,-1.3684914747821253
1708433500.5956688,-2.141249418258667,-1.3335944724133988,-2.527442757283346,6.110133993416586,1.0187005996704102,-1.368483845387594
1708433500.5976968,-2.141188144683838,-1.3336225760034104,-2.527430836354391,6.110014188080587,1.018687129020691,-1.368528191243307
1708433500.599709,-2.141179323196411,-1.3336231422475358,-2.5275126139270228,6.110051619797506,1.0187005996704102,-1.3685196081744593
1708433500.6016943,-2.141195058822632,-1.3336017590812226,-2.5274513403521937,6.110084759980001,1.0187288522720337,-1.368544880543844
1708433500.603706,-2.1411995887756348,-1.3336189550212403,-2.5274794737445276,6.11006377914504,1.0186586380004883,-1.3685076872455042
1708433500.605717,-2.1411995887756348,-1.3336516332677384,-2.527475182210104,6.110054838448324,1.0186961889266968,-1.3684914747821253
1708433500.6078012,-2.1412289142608643,-1.3336439442685624,-2.5274513403521937,6.110035168915548,1.0186916589736938,-1.3685196081744593
1708433500.6096652,-2.1412289142608643,-1.3336146038821717,-2.5274797121631067,6.110054838448324,1.0187456607818604,-1.3685196081744593
1708433500.6116543,-2.141190528869629,-1.3336430352977295,-2.5274794737445276,6.110060560494222,1.0187005996704102,-1.3685572783099573
1708433500.6136706,-2.141188144683838,-1.3336231422475358,-2.527422014866964,6.110051619797506,1.0187288522720337,-1.368523899708883
1708433500.6156807,-2.1412198543548584,-1.333626852636673,-2.527442757283346,6.110050308495321,1.018683910369873,-1.3685362974749964
1708433500.6176906,-2.1412696838378906,-1.3336388033679505,-2.527482811604635,6.110071170120992,1.0187079906463623,-1.3685320059405726
1708433500.6196601,-2.1412198543548584,-1.333635465507843,-2.527438227330343,6.110071170120992,1.018667459487915,-1.36857778230776
1708433500.6216571,-2.1412065029144287,-1.333626852636673,-2.527442757283346,6.110075700073995,1.0186916589736938,-1.3685320059405726
1708433500.6236625,-2.1412243843078613,-1.333635465507843,-2.527458969746725,6.11008762100295,1.0187125205993652,-1.3685482184039515
1708433500.6257856,-2.1412110328674316,-1.3336145889810105,-2.5274351278888147,6.110068309098043,1.0187333822250366,-1.3685973326312464
1708433500.6277342,-2.1412198543548584,-1.333626852636673,-2.527414623891012,6.110122072487631,1.0187244415283203,-1.3685405890094202
1708433500.6296797,-2.1412155628204346,-1.3336711537889023,-2.52747089067568,6.110071170120992,1.0186916589736938,-1.3685525099383753
1708433500.6316814,-2.141273021697998,-1.3336388033679505,-2.527487103139059,6.110078680306234,1.0187125205993652,-1.3685572783099573
1708433500.6336875,-2.1412243843078613,-1.333659217958786,-2.5274882952319544,6.110075700073995,1.0186916589736938,-1.3685644308673304
1708433500.6356764,-2.14123797416687,-1.3336060655168076,-2.527426306401388,6.1101159928138635,1.0186916589736938,-1.3685644308673304
1708433500.6376805,-2.141256093978882,-1.333638758664467,-2.5274794737445276,6.11008762100295,1.018736481666565,-1.3685453573810022
1708433500.6396868,-2.1412243843078613,-1.3335987341455002,-2.5274794737445276,6.11006377914504,1.0187081098556519,-1.3686016241656702
1708433500.6417124,-2.141273021697998,-1.3336354506066819,-2.5274513403521937,6.110066759377279,1.018688440322876,-1.3685601393329065
1708433500.6436753,-2.1412065029144287,-1.3336268228343506,-2.5274632612811487,6.110111462860861,1.0187244415283203,-1.3685930410968226
1708433500.6456687,-2.141256093978882,-1.3336516630700608,-2.527402464543478,6.110095011978903,1.0186704397201538,-1.3685362974749964
1708433500.6476643,-2.1411702632904053,-1.3336146932891388,-2.5274632612811487,6.110062348633566,1.018705129623413,-1.3685439268695276
1708433500.6496902,-2.1412289142608643,-1.333626852636673,-2.527454678212301,6.110032546311178,1.0187079906463623,-1.3685320059405726
1708433500.6516793,-2.141233444213867,-1.333635465507843,-2.5274632612811487,6.110062229424276,1.0187081098556519,-1.3686097303973597
1708433500.6537082,-2.1412289142608643,-1.3336762648871918,-2.527430836354391,6.110111462860861,1.018687129020691,-1.3685763517962855
1708433500.6556778,-2.1412155628204346,-1.3336073023131867,-2.527487103139059,6.110057818680563,1.0187411308288574,-1.3685677687274378
1708433500.6577568,-2.141273021697998,-1.333659217958786,-2.527422014866964,6.110136854439535,1.0186916589736938,-1.3685854117022913
1708433500.6596532,-2.1411490440368652,-1.3336396527341385,-2.527426544819967,6.1101159928138635,1.0187333822250366,-1.3685510794269007
1708433500.6616626,-2.1412041187286377,-1.3336482060006638,-2.52744704881777,6.1100830910499475,1.0187005996704102,-1.3686097303973597
1708433500.6636772,-2.1412065029144287,-1.333655835395195,-2.5274794737445276,6.11014877536849,1.0186704397201538,-1.368558708821432
1708433500.6656575,-2.1411995887756348,-1.3336189550212403,-2.5274513403521937,6.11012493351058,1.0187411308288574,-1.3685439268695276
1708433500.6677458,-2.141253709793091,-1.3336549264243622,-2.5274513403521937,6.110118853836813,1.0187125205993652,-1.3686097303973597
1708433500.669656,-2.141197443008423,-1.3336430203965683,-2.5274351278888147,6.110106932907858,1.0187079906463623,-1.3685677687274378
1708433500.6716542,-2.1412155628204346,-1.3335815829089661,-2.5274394194232386,6.1100995419319055,1.0187366008758545,-1.3685920874225062
1708433500.673687,-2.1412065029144287,-1.3336268377355118,-2.5274177233325403,6.110127794533529,1.018721580505371,-1.3685262838946741
1708433500.6757457,-2.1412243843078613,-1.3336549562266846,-2.527438465748922,6.110095011978903,1.0187199115753174,-1.3685630003558558
1708433500.6777403,-2.141244888305664,-1.3336634945920487,-2.5274882952319544,6.110144245415487,1.0187125205993652,-1.3686545530902308
1708433500.6796832,-2.141244888305664,-1.333647297029831,-2.5274840036975306,6.110156166344442,1.0186916589736938,-1.3686125914203089
1708433500.681693,-2.141240358352661,-1.3336430352977295,-2.527442757283346,6.110166775971212,1.0187333822250366,-1.3686335722552698
1708433500.6836898,-2.141201972961426,-1.3336060655168076,-2.5275002161609095,6.110109793930807,1.0186961889266968,-1.3686125914203089
1708433500.685705,-2.141190528869629,-1.3336018037847062,-2.5274513403521937,6.1100830910499475,1.0187169313430786,-1.3686040083514612
1708433500.6876717,-2.1412270069122314,-1.3336072278073807,-2.52744704881777,6.110102522164144,1.0187170505523682,-1.368629280720846
1708433500.689701,-2.1412270069122314,-1.333647297029831,-2.527487103139059,6.110144245415487,1.0187455415725708,-1.368678394948141
1708433500.6917338,-2.1412243843078613,-1.3336473268321534,-2.527458969746725,6.1101159928138635,1.0187005996704102,-1.3686321417437952
1708433500.6936905,-2.1412198543548584,-1.333626852636673,-2.52747089067568,6.110086071282186,1.0187366008758545,-1.368641201649801
1708433500.6957242,-2.141181707382202,-1.3335987341455002,-2.527430836354391,6.1100653288658044,1.0187333822250366,-1.368624512349264
1708433500.6977332,-2.1412155628204346,-1.3336072278073807,-2.527508322392599,6.110127913742819,1.0187244415283203,-1.3686898390399378
1708433500.699678,-2.1412651538848877,-1.3336268675378342,-2.5274720827685755,6.110123383789816,1.0187169313430786,-1.3685830275165003
1708433500.7017496,-2.141240358352661,-1.3336145889810105,-2.527426306401388,6.110135304718771,1.0187081098556519,-1.3686278502093714
1708433500.7036636,-2.141256093978882,-1.3336463880589982,-2.527475182210104,6.110097992211141,1.0187034606933594,-1.3686230818377894
1708433500.705682,-2.141273021697998,-1.3336516630700608,-2.527458969746725,6.110097992211141,1.0186961889266968,-1.3686698118792933
1708433500.7077,-2.1412198543548584,-1.3336060506156464,-2.527430836354391,6.110086071282186,1.0187244415283203,-1.3686307112323206
1708433500.7096481,-2.141268491744995,-1.3335901957801362,-2.527458969746725,6.11007701137618,1.0187411308288574,-1.368624512349264
1708433500.7116828,-2.141256093978882,-1.3336634200862427,-2.527414623891012,6.110118853836813,1.0187081098556519,-1.3686202208148401
1708433500.7136762,-2.141197443008423,-1.333635465507843,-2.527438227330343,6.110144245415487,1.0186916589736938,-1.3686068693744105
1708433500.7156868,-2.141256093978882,-1.3335944724133988,-2.5274675528155726,6.110090601235189,1.0187005996704102,-1.368636433278219
1708433500.7176495,-2.1412110328674316,-1.3335901957801362,-2.527397934590475,6.110106932907858,1.0187125205993652,-1.368641201649801
1708433500.7196612,-2.1412289142608643,-1.3336189550212403,-2.5274439493762415,6.110168444901266,1.0187288522720337,-1.3686607519732874
1708433500.7216778,-2.1412651538848877,-1.3336188805154343,-2.527426306401388,6.110147225647726,1.0187288522720337,-1.3686979452716272
1708433500.7236998,-2.1412808895111084,-1.3336311143687745,-2.527426544819967,6.110175835877218,1.0186916589736938,-1.368676487599508
1708433500.7257535,-2.1412312984466553,-1.333610327248909,-2.5274394194232386,6.11015938499526,1.018683910369873,-1.3686698118792933
1708433500.7277296,-2.141251802444458,-1.3336439293674012,-2.527430836354391,6.110168444901266,1.0187079906463623,-1.368624512349264
1708433500.7297113,-2.1412155628204346,-1.3336396527341385,-2.5274632612811487,6.110147225647726,1.0186916589736938,-1.3686440626727503
1708433500.731729,-2.141240358352661,-1.3335825216821213,-2.527397934590475,6.110133635788717,1.0187244415283203,-1.3686278502093714
1708433500.7336879,-2.1412270069122314,-1.3336516481688996,-2.5274840036975306,6.11020444610671,1.0187199115753174,-1.3686278502093714
1708433500.7356935,-2.141268491744995,-1.3336311292699357,-2.5274232069598597,6.110162246018209,1.0187259912490845,-1.3686397711383265
1708433500.7377636,-2.1412765979766846,-1.3336354059031983,-2.5274339357959192,6.110171305924215,1.0187333822250366,-1.3686698118792933
1708433500.739676,-2.141235828399658,-1.3336430501988907,-2.527430836354391,6.11013816574172,1.0187546014785767,-1.3686397711383265
1708433500.7417052,-2.141184091567993,-1.3336754155210038,-2.527426544819967,6.110174166947164,1.0187005996704102,-1.3686483542071741
1708433500.743724,-2.141235828399658,-1.3336230677417298,-2.527393643056051,6.110236871033468,1.0187379121780396,-1.368641201649801
1708433500.745741,-2.1412596702575684,-1.3336018782905121,-2.52744704881777,6.110169756203451,1.0186916589736938,-1.3685863653766077
1708433500.747684,-2.1412854194641113,-1.333631084566452,-2.5274956862079065,6.110243069916525,1.0187169313430786,-1.3686235586749476
1708433500.7496684,-2.141268491744995,-1.3336354804090043,-2.527402464543478,6.110235440521993,1.0187169313430786,-1.3686607519732874
1708433500.7517023,-2.1412155628204346,-1.333618940120079,-2.5274232069598597,6.110189425736227,1.0187081098556519,-1.3686607519732874
1708433500.7536936,-2.1412765979766846,-1.333647297029831,-2.5274513403521937,6.110247719078817,1.018705129623413,-1.3686040083514612
1708433500.7557914,-2.141251802444458,-1.3335987341455002,-2.5274882952319544,6.110221850662985,1.0187333822250366,-1.3686278502093714
1708433500.7577593,-2.1412651538848877,-1.3336311143687745,-2.527418915425436,6.110243069916525,1.0187034606933594,-1.368674103413717
1708433500.7597325,-2.1412065029144287,-1.3336344969323655,-2.5274720827685755,6.110275852471151,1.0186704397201538,-1.3686440626727503
1708433500.7616708,-2.1412463188171387,-1.333610327248909,-2.52744704881777,6.1102685807044885,1.0187005996704102,-1.3686531225787562
1708433500.76368,-2.1412923336029053,-1.3336472821286698,-2.5274437109576624,6.1102521298225305,1.0187169313430786,-1.3686202208148401
1708433500.7656932,-2.1412551403045654,-1.3336268973401566,-2.5274556318866175,6.110221850662985,1.0186961889266968,-1.3686607519732874
1708433500.767659,-2.141193151473999,-1.3336720329574128,-2.5274232069598597,6.110277402191915,1.0186961889266968,-1.3686564604388636
1708433500.769669,-2.141235828399658,-1.3336231124452134,-2.527414623891012,6.110264050751486,1.0186916589736938,-1.3686068693744105
1708433500.771664,-2.1412551403045654,-1.3336311143687745,-2.527430836354391,6.110238539963522,1.0187379121780396,-1.3686936537372034
1708433500.773667,-2.1412675380706787,-1.333655835395195,-2.5274067560779017,6.110247599869528,1.0187081098556519,-1.3686440626727503
1708433500.775738,-2.141247272491455,-1.333659217958786,-2.5274351278888147,6.110271322518148,1.0186586380004883,-1.3686354796039026
1708433500.7777274,-2.141268491744995,-1.3336678457311173,-2.527426544819967,6.1102038500602625,1.018742322921753,-1.368641201649801
1708433500.7797427,-2.141235828399658,-1.3336516630700608,-2.527475182210104,6.110287773400106,1.0187546014785767,-1.3686397711383265
1708433500.7817078,-2.1412642002105713,-1.3336678457311173,-2.527397934590475,6.110313641815939,1.0187288522720337,-1.3686440626727503
1708433500.7836964,-2.1412384510040283,-1.3336189550212403,-2.527426306401388,6.110212909966268,1.0187199115753174,-1.3686321417437952
1708433500.7856848,-2.1412720680236816,-1.3336396527341385,-2.527414385472433,6.110264050751486,1.0187169313430786,-1.368680779133932
1708433500.787712,-2.1412808895111084,-1.333614544277527,-2.527426544819967,6.11025499084548,1.0187005996704102,-1.368641201649801
1708433500.7896905,-2.1412551403045654,-1.333635465507843,-2.527430836354391,6.110229599266805,1.018705129623413,-1.3686235586749476
1708433500.7917502,-2.1412270069122314,-1.333626852636673,-2.5274232069598597,6.110250460892477,1.0187125205993652,-1.3686397711383265
1708433500.7937298,-2.1412224769592285,-1.3336840283921738,-2.5274720827685755,6.110280501633444,1.0187005996704102,-1.3686698118792933
1708433500.79568,-2.141268491744995,-1.3336189550212403,-2.527410093938009,6.110259401589193,1.018688440322876,-1.3686397711383265
1708433500.7976813,-2.1412923336029053,-1.3336072725108643,-2.527426544819967,6.1102685807044885,1.0186961889266968,-1.3686721960650843
1708433500.7997682,-2.141242742538452,-1.333631084566452,-2.5274274984942835,6.110217320709982,1.018683910369873,-1.368685547505514
1708433500.801695,-2.1412551403045654,-1.333660052423813,-2.5274763743029993,6.110271441727438,1.0187005996704102,-1.3686068693744105
1708433500.8037016,-2.1412463188171387,-1.333647297029831,-2.5274394194232386,6.11019645908431,1.0186721086502075,-1.3686607519732874
1708433500.8056633,-2.1412720680236816,-1.3336225760034104,-2.527418915425436,6.110247719078817,1.0186928510665894,-1.3686483542071741
1708433500.80772,-2.141254186630249,-1.3336301755956192,-2.527422014866964,6.110205518990316,1.0187333822250366,-1.3686679045306605
1708433500.809669,-2.141308307647705,-1.3336592626622696,-2.5274675528155726,6.1102521298225305,1.0186793804168701,-1.3686397711383265
1708433500.8116665,-2.1412880420684814,-1.3336395633271714,-2.527386252080099,6.110212909966268,1.0186928510665894,-1.3686397711383265
1708433500.8136768,-2.141267776489258,-1.3336430501988907,-2.527402464543478,6.110266911774435,1.0187288522720337,-1.368676487599508
1708433500.8156657,-2.1412675380706787,-1.333655835395195,-2.5274394194232386,6.110235440521993,1.018688440322876,-1.3686483542071741
1708433500.8177063,-2.1412596702575684,-1.3336145889810105,-2.5274513403521937,6.110200989037313,1.0187005996704102,-1.3686483542071741
1708433500.8196795,-2.1412880420684814,-1.3336516332677384,-2.5274601618396204,6.110218989640035,1.0187005996704102,-1.3686187903033655
1708433500.821687,-2.1412789821624756,-1.3335868281177063,-2.5274110476123255,6.110243069916525,1.018721580505371,-1.3686321417437952
1708433500.8236952,-2.1412551403045654,-1.333631084566452,-2.5274632612811487,6.110212909966268,1.018667459487915,-1.3686278502093714
1708433500.8258083,-2.1413252353668213,-1.333626852636673,-2.5274110476123255,6.110284912377157,1.0186721086502075,-1.3686564604388636
1708433500.82773,-2.1412508487701416,-1.3336754006198426,-2.5274437109576624,6.110264050751486,1.018683910369873,-1.3686531225787562
1708433500.8297372,-2.1412508487701416,-1.3336634945920487,-2.5274067560779017,6.110212909966268,1.0186793804168701,-1.3686321417437952
1708433500.8316894,-2.1412880420684814,-1.3335740727237244,-2.5274110476123255,6.110318052559652,1.0186928510665894,-1.3686564604388636
1708433500.8336844,-2.1412720680236816,-1.3336230975440522,-2.5274351278888147,6.110221850662985,1.0186928510665894,-1.368636433278219
1708433500.8357532,-2.1412880420684814,-1.3335945022157212,-2.5274274984942835,6.1102263806159876,1.0186721086502075,-1.3685820738421839
1708433500.8377776,-2.1412789821624756,-1.3336060804179688,-2.5274274984942835,6.110221850662985,1.0186928510665894,-1.3686278502093714
1708433500.8396828,-2.1412904262542725,-1.3335945022157212,-2.527402464543478,6.110241400986471,1.018705129623413,-1.3686235586749476
1708433500.841675,-2.1412792205810547,-1.333610327248909,-2.5273781458484095,6.11025499084548,1.0186630487442017,-1.3686116377459925
1708433500.8437774,-2.1412675380706787,-1.3336146038821717,-2.5274763743029993,6.110259520798483,1.0186556577682495,-1.3686278502093714
1708433500.8456979,-2.141258716583252,-1.333638773565628,-2.5274351278888147,6.110182034760275,1.018688440322876,-1.3686159292804163
1708433500.8477151,-2.1412508487701416,-1.333630160694458,-2.5274110476123255,6.11025499084548,1.018688440322876,-1.3686025778399866
1708433500.8497021,-2.1412720680236816,-1.3336310994676133,-2.5274797121631067,6.110280501633444,1.0187005996704102,-1.3686607519732874
1708433500.8516665,-2.141324281692505,-1.333643065100052,-2.5274110476123255,6.1101965782936,1.0186433792114258,-1.3686650435077112
1708433500.8536634,-2.1412746906280518,-1.33360310018573,-2.5274394194232386,6.110259520798483,1.0186433792114258,-1.3686698118792933
1708433500.8557403,-2.1413116455078125,-1.3336549562266846,-2.5273783842669886,6.110217320709982,1.018688440322876,-1.3686721960650843
1708433500.8577065,-2.141263246536255,-1.3336311143687745,-2.5274763743029993,6.110243069916525,1.0186809301376343,-1.3686159292804163
1708433500.8596911,-2.1412835121154785,-1.3336678606322785,-2.527418915425436,6.1102099297340295,1.0186645984649658,-1.3686397711383265
1708433500.8616643,-2.1413118839263916,-1.3336881560138245,-2.5274556318866175,6.110198485642233,1.0186601877212524,-1.3686278502093714
1708433500.8636813,-2.1413028240203857,-1.3336139780334015,-2.5273905436145228,6.1102415201957605,1.0186556577682495,-1.3686431089984339
1708433500.8656635,-2.1412994861602783,-1.3336592626622696,-2.5273948351489466,6.110246050148763,1.0186973810195923,-1.368676487599508
1708433500.8676856,-2.1413118839263916,-1.3335748773864289,-2.5274110476123255,6.110271441727438,1.0186691284179688,-1.368652645741598
1708433500.8696637,-2.1413028240203857,-1.3336268377355118,-2.5274558703051966,6.110256540566244,1.0186312198638916,-1.3685787359820765
1708433500.871699,-2.141263246536255,-1.3336388033679505,-2.5274034182177942,6.110246050148763,1.0186448097229004,-1.3686354796039026
1708433500.8736641,-2.1413333415985107,-1.333626852636673,-2.527418915425436,6.110280501633444,1.0186312198638916,-1.3686040083514612
1708433500.8756921,-2.1413118839263916,-1.333667830829956,-2.527419630681173,6.110234129219808,1.0186601877212524,-1.3686202208148401
1708433500.8777313,-2.141270160675049,-1.3336061102202912,-2.5274274984942835,6.110221850662985,1.0186614990234375,-1.3685992399798792
1708433500.8797193,-2.1412813663482666,-1.3335901957801362,-2.5274198690997522,6.110229599266805,1.0186691284179688,-1.3686159292804163
1708433500.8816986,-2.141258716583252,-1.3336679202369233,-2.5273707548724573,6.110304581909933,1.0186645984649658,-1.368702236806051
1708433500.88368,-2.1413357257843018,-1.3336354208043595,-2.5274153391467493,6.11030005195693,1.0186901092529297,-1.3686354796039026
1708433500.8856788,-2.1412835121154785,-1.3336762648871918,-2.5273619333850306,6.110275852471151,1.0186192989349365,-1.3686159292804163
1708433500.887712,-2.141328811645508,-1.3336030703834076,-2.5273457209216517,6.110238539963522,1.018607497215271,-1.3686278502093714
1708433500.8896968,-2.141263246536255,-1.33360310018573,-2.527407948170797,6.110284912377157,1.0186614990234375,-1.368608299885885
1708433500.8917158,-2.1412949562072754,-1.3336030405810853,-2.5273826758014124,6.110247599869528,1.0186524391174316,-1.3686040083514612
1708433500.8937135,-2.1412835121154785,-1.333651677971222,-2.5274131933795374,6.110243069916525,1.0186312198638916,-1.368652645741598
1708433500.8957505,-2.1412746906280518,-1.3336145889810105,-2.5273259321795862,6.110259520798483,1.0186357498168945,-1.3686159292804163
1708433500.8977199,-2.1412994861602783,-1.333610327248909,-2.5273552576648157,6.110266911774435,1.018623948097229,-1.3686898390399378
1708433500.8996906,-2.1412949562072754,-1.3336311292699357,-2.5273478666888636,6.110234129219808,1.0185911655426025,-1.3686440626727503
1708433500.9016728,-2.1413614749908447,-1.3337004494718094,-2.5273354689227503,6.110280382424154,1.018613576889038,-1.368624512349264
1708433500.903707,-2.1413447856903076,-1.3335902255824585,-2.5273311773883265,6.110250460892477,1.0186001062393188,-1.368624512349264
1708433500.9056978,-2.141324281692505,-1.3336473268321534,-2.5273357073413294,6.110238659172811,1.0186045169830322,-1.368624512349264
1708433500.9077826,-2.141324281692505,-1.3336018186858674,-2.5273268858539026,6.110296833306112,1.0185832977294922,-1.3685920874225062
1708433500.9096565,-2.1412858963012695,-1.3335944724133988,-2.5273476282702845,6.1102263806159876,1.0186090469360352,-1.3686125914203089
1708433500.911648,-2.1413073539733887,-1.3335975420526047,-2.5273149649249476,6.110200989037313,1.0186090469360352,-1.3686288038836878
1708433500.9136875,-2.1412994861602783,-1.3335782450488587,-2.5272911230670374,6.110284912377157,1.018595576286316,-1.3685992399798792
1708433500.9157138,-2.1413402557373047,-1.3336225760034104,-2.5273030439959925,6.110235321312704,1.0185878276824951,-1.3686040083514612
1708433500.917731,-2.1413028240203857,-1.3336030852845688,-2.527304236088888,6.110271322518148,1.018612027168274,-1.3685630003558558
1708433500.9197235,-2.1412813663482666,-1.3336060655168076,-2.5272792021380823,6.110235321312704,1.0186209678649902,-1.3685920874225062
1708433500.921661,-2.1413447856903076,-1.3336839985898514,-2.5272584597217005,6.110221850662985,1.0186045169830322,-1.3685920874225062
1708433500.9236846,-2.1412858963012695,-1.3336061400226136,-2.527304236088888,6.110238659172811,1.0185682773590088,-1.36859637895693
1708433500.925809,-2.1413660049438477,-1.3336060804179688,-2.527332369481222,6.1102263806159876,1.0185682773590088,-1.3685396353351038
1708433500.9277787,-2.141352415084839,-1.3336345267346879,-2.5273030439959925,6.110310184746542,1.0185188055038452,-1.3686140219317835
1708433500.9296887,-2.141319751739502,-1.3336557906917115,-2.5272825399981897,6.110275852471151,1.0185728073120117,-1.3685558477984827
1708433500.9317086,-2.141249656677246,-1.3335975420526047,-2.5272672812091272,6.110189425736227,1.0185397863388062,-1.3685734907733362
1708433500.933726,-2.1412699222564697,-1.3336018335870286,-2.5272792021380823,6.110280382424154,1.0185322761535645,-1.368523899708883
1708433500.9356937,-2.141319751739502,-1.333618314271309,-2.5272541681872767,6.1102099297340295,1.018527865409851,-1.3685362974749964
1708433500.9376955,-2.1413357257843018,-1.3336516183665772,-2.5272584597217005,6.110243069916525,1.0185070037841797,-1.368528191243307
1708433500.9396956,-2.1413357257843018,-1.3337329787066956,-2.5273073355304163,6.110271322518148,1.0184540748596191,-1.3685324827777308
1708433500.9417481,-2.141326665878296,-1.333578274851181,-2.5272868315326136,6.110250460892477,1.0185203552246094,-1.368523899708883
1708433500.943727,-2.1413028240203857,-1.3336103123477479,-2.5272417704211634,6.110234129219808,1.0184721946716309,-1.3685076872455042
1708433500.945676,-2.141315221786499,-1.333618940120079,-2.527283493672506,6.110247599869528,1.0184390544891357,-1.368544880543844
1708433500.947702,-2.1413064002990723,-1.333622620706894,-2.5272672812091272,6.110218989640035,1.0184346437454224,-1.3684914747821253
1708433500.9497056,-2.141348123550415,-1.3336354953101655,-2.52731162706484,6.110235440521993,1.0184555053710938,-1.3684881369220179
1708433500.9516618,-2.1413357257843018,-1.3336840730956574,-2.5272374788867396,6.110229718476095,1.0184435844421387,-1.3685043493853968
1708433500.953672,-2.1413402557373047,-1.3336516630700608,-2.527259174977438,6.110247599869528,1.018410563468933,-1.368471924458639
1708433500.9556906,-2.141298294067383,-1.333606020813324,-2.527254883443014,6.110247599869528,1.0184060335159302,-1.3684547583209437
1708433500.957692,-2.141319751739502,-1.3336516630700608,-2.5272749106036585,6.110247599869528,1.0184149742126465,-1.3684762159930628
1708433500.9596705,-2.141343593597412,-1.333672047858574,-2.527246061955587,6.110229599266805,1.0183908939361572,-1.3684266249286097
1708433500.9616768,-2.141343593597412,-1.3336354804090043,-2.527250353490011,6.110243069916525,1.0183864831924438,-1.3684385458575647
1708433500.9636672,-2.141324281692505,-1.333635465507843,-2.527259174977438,6.110221850662985,1.0183717012405396,-1.3684595266925257
1708433500.965662,-2.141324281692505,-1.3336430501988907,-2.527254883443014,6.110214578896322,1.0183908939361572,-1.3684762159930628
1708433500.9676945,-2.141343593597412,-1.3336558055928727,-2.5272463003741663,6.110247599869528,1.0183924436569214,-1.3684313933001917
1708433500.969674,-2.1413471698760986,-1.3336061102202912,-2.527259174977438,6.110264050751486,1.0183472633361816,-1.3684895674334925
1708433500.9716938,-2.1413347721099854,-1.3336182993701478,-2.52727181116213,6.110205399781027,1.0183308124542236,-1.3684189955340784
1708433500.9737253,-2.141348123550415,-1.333647297029831,-2.52727181116213,6.110272872238912,1.0183730125427246,-1.3684895674334925
1708433500.9757707,-2.141343593597412,-1.333603025679924,-2.5271897951709192,6.110243069916525,1.0183231830596924,-1.368436638508932
1708433500.9777093,-2.141339063644409,-1.3336388033679505,-2.527259174977438,6.110218989640035,1.0183398723602295,-1.3684399763690394
1708433500.9797063,-2.1413629055023193,-1.3336516332677384,-2.527210537587301,6.1102099297340295,1.0183113813400269,-1.3684313933001917
1708433500.981675,-2.141385078430176,-1.3336678755334397,-2.527238670979635,6.110293853073873,1.0183157920837402,-1.3683531920062464
1708433500.983695,-2.1413605213165283,-1.3336678457311173,-2.5271855036364954,6.110247599869528,1.0182830095291138,-1.3683708349811
1708433500.9856687,-2.141364812850952,-1.3335944575122376,-2.5272234121905726,6.110236871033468,1.0183202028274536,-1.3683918158160608
1708433500.9876802,-2.141380786895752,-1.3336189550212403,-2.5272472540484827,6.11025499084548,1.01829195022583,-1.3683961073504847
1708433500.9896724,-2.141339063644409,-1.3336881262115021,-2.5271578470813196,6.110275852471151,1.0182467699050903,-1.368366543446676
1708433500.9917078,-2.141339063644409,-1.333654986029007,-2.527186695729391,6.110264050751486,1.0182840824127197,-1.368342701588766
1708433500.9936914,-2.1413674354553223,-1.333610327248909,-2.52720290819277,6.1102521298225305,1.0182557106018066,-1.3683317343341272
1708433500.9957254,-2.1413471698760986,-1.3336473268321534,-2.527208391820089,6.1102309105689905,1.0182348489761353,-1.3683231512652796
1708433500.997665,-2.1413629055023193,-1.3335825514844437,-2.52716571489443,6.110198485642233,1.0182151794433594,-1.3683140913592737
1708433500.9996629,-2.1413674354553223,-1.3336430501988907,-2.5271547476397913,6.110205518990316,1.0182197093963623,-1.3682916800128382
1708433501.0017192,-2.141343593597412,-1.3336018484881897,-2.5271666685687464,6.110200989037313,1.018216609954834,-1.368270222340719
1708433501.0036924,-2.1413514614105225,-1.3335825216821213,-2.5271874109851282,6.110275852471151,1.0182242393493652,-1.368263069783346
1708433501.0056927,-2.141392230987549,-1.3336516183665772,-2.5271177927600306,6.110234129219808,1.0181865692138672,-1.3682554403888147
1708433501.0077207,-2.1413629055023193,-1.333626852636673,-2.5271382967578333,6.110212909966268,1.0181461572647095,-1.3682759443866175
1708433501.0096552,-2.141378879547119,-1.3336516630700608,-2.5271220842944544,6.110243069916525,1.0181806087493896,-1.3682759443866175
1708433501.0116572,-2.1413538455963135,-1.333643065100052,-2.527114454899923,6.1102263806159876,1.0181506872177124,-1.3681939283954065
1708433501.0136828,-2.141378879547119,-1.3336592775634308,-2.5271721521960657,6.110229718476095,1.0181429386138916,-1.3681982199298304
1708433501.0156693,-2.1413958072662354,-1.3335987639478226,-2.527130905781881,6.110259520798483,1.0181070566177368,-1.368227783833639
1708433501.0176897,-2.1413912773132324,-1.3336274188807984,-2.527123037968771,6.110214578896322,1.0181397199630737,-1.368253533040182
1708433501.0196853,-2.1413991451263428,-1.3335825365832825,-2.5271483103381556,6.110202896385946,1.0181070566177368,-1.3681920210467737
1708433501.0216672,-2.1414082050323486,-1.3336311292699357,-2.5271273295031946,6.110198485642233,1.018078327178955,-1.368171517048971
1708433501.0237134,-2.1414082050323486,-1.3335869175246735,-2.5270946661578577,6.110235440521993,1.0181037187576294,-1.3681352774249476
1708433501.0258193,-2.1414105892181396,-1.3336060506156464,-2.5271199385272425,6.1102521298225305,1.0180633068084717,-1.3681634108172815
1708433501.0277135,-2.141439914703369,-1.3336354506066819,-2.5270989576922815,6.110235440521993,1.0180754661560059,-1.3681157271014612
1708433501.029667,-2.1414196491241455,-1.3336516332677384,-2.5271197001086634,6.110259520798483,1.018034815788269,-1.3681071440326136
1708433501.031665,-2.1414105892181396,-1.3336430501988907,-2.5271154085742396,6.110189425736227,1.0180555582046509,-1.368094269429342
1708433501.0336652,-2.1413564682006836,-1.3336146038821717,-2.5270589033709925,6.110217439919271,1.0180318355560303,-1.368082348500387
1708433501.0356872,-2.1413991451263428,-1.3336269122413178,-2.5270827452289026,6.110190856247701,1.0179941654205322,-1.368075195943014
1708433501.0377228,-2.1414241790771484,-1.3336146187833329,-2.5270307699786585,6.1102521298225305,1.01796555519104,-1.3680513540851038
1708433501.0396874,-2.141394853591919,-1.333672047858574,-2.5270307699786585,6.1102521298225305,1.017991065979004,-1.3680227438556116
1708433501.0417073,-2.1414287090301514,-1.3336018931916733,-2.5270424524890345,6.1102099297340295,1.0179533958435059,-1.3680432478534144
1708433501.0437193,-2.141448736190796,-1.3336311143687745,-2.5270686785327356,6.110205518990316,1.0179460048675537,-1.3679655233966272
1708433501.0456712,-2.1414363384246826,-1.3336115342429657,-2.527043883000509,6.1102263806159876,1.0179178714752197,-1.368023697529928
1708433501.0476737,-2.141401767730713,-1.3336146038821717,-2.527026955281393,6.1102099297340295,1.017975926399231,-1.368039909993307
1708433501.0496762,-2.1414196491241455,-1.3336061251214524,-2.526978079472677,6.110202896385946,1.0178933143615723,-1.3679912726031702
1708433501.051672,-2.141432046890259,-1.3336273741773148,-2.527018133793966,6.1102521298225305,1.017923355102539,-1.3680041472064417
1708433501.0536866,-2.141448736190796,-1.3336354506066819,-2.5269911924945276,6.110266792565145,1.0179097652435303,-1.3679717222796839
1708433501.055695,-2.141444444656372,-1.3335869026235123,-2.5269649664508265,6.1101488945777795,1.0179141759872437,-1.367945973073141
1708433501.0577087,-2.1413991451263428,-1.333582581286766,-2.526970688496725,6.110235440521993,1.0178860425949097,-1.3679311911212366
1708433501.0596762,-2.1414105892181396,-1.3336030852845688,-2.5270400683032435,6.1102521298225305,1.0179232358932495,-1.3679097334491175
1708433501.0616682,-2.141439914703369,-1.3336430352977295,-2.5269749800311487,6.110189425736227,1.0178905725479126,-1.3679187933551233
1708433501.0637,-2.1414151191711426,-1.333590255384781,-2.52698785463442,6.110284912377157,1.017883062362671,-1.367965046559469
1708433501.065696,-2.141390323638916,-1.333660052423813,-2.5269508997546595,6.110263931542196,1.017890453338623,-1.3679693380938929
1708433501.067672,-2.141435384750366,-1.3336268228343506,-2.526971403752462,6.110189425736227,1.0178377628326416,-1.3679364363299769
1708433501.0696654,-2.141488552093506,-1.33360310018573,-2.5269466082202356,6.110235440521993,1.0178468227386475,-1.3679078261004847
1708433501.071675,-2.1414761543273926,-1.3336231124452134,-2.5269835630999964,6.110275971680441,1.0178709030151367,-1.367871109639303
1708433501.0736613,-2.141435384750366,-1.3335987490466614,-2.5270043055163782,6.1102521298225305,1.0178422927856445,-1.3678754011737269
1708433501.0757442,-2.141435384750366,-1.3336226058057328,-2.5269466082202356,6.110190856247701,1.0178589820861816,-1.3678496519671839
1708433501.0776923,-2.1414310932159424,-1.3335868877223511,-2.526943031941549,6.1102521298225305,1.0178799629211426,-1.3678553740130823
1708433501.0796974,-2.141451358795166,-1.3336558055928727,-2.5269017855273646,6.1102309105689905,1.0178091526031494,-1.3678796927081507
1708433501.0817225,-2.14145565032959,-1.3335869026235123,-2.5269508997546595,6.1102144596870325,1.0178512334823608,-1.3678596655475062
1708433501.0837295,-2.141427516937256,-1.333618925218918,-2.526943031941549,6.110168444901266,1.0178062915802002,-1.3677781263934534
1708433501.085726,-2.1414601802825928,-1.3336072725108643,-2.526975933705465,6.110178696900167,1.017852783203125,-1.3678272406207483
1708433501.087731,-2.1414806842803955,-1.3335868877223511,-2.5268974939929407,6.110239732056417,1.017798900604248,-1.3678553740130823
1708433501.0897105,-2.1414647102355957,-1.3335910898498078,-2.526992384587423,6.110223400383749,1.0178303718566895,-1.3678072134601038
1708433501.0916934,-2.141406297683716,-1.3336311143687745,-2.526959482823507,6.1102263806159876,1.0177736282348633,-1.3678115049945276
1708433501.093696,-2.1414265632629395,-1.333635465507843,-2.5269344488727015,6.110235440521993,1.0177944898605347,-1.367753807698385
1708433501.0957313,-2.1414761543273926,-1.3336115342429657,-2.52692681947817,6.110227811127462,1.0178064107894897,-1.367762867604391
1708433501.097725,-2.141414165496826,-1.3336031150868912,-2.526975695286886,6.1102309105689905,1.01778244972229,-1.3677833716021937
1708433501.0997176,-2.141455888748169,-1.3336146485856553,-2.526959482823507,6.110218989640035,1.0178033113479614,-1.3678157965289515
1708433501.1017172,-2.1414761543273926,-1.3335869324258347,-2.526910368596212,6.110141384392538,1.017803430557251,-1.3677790800677698
1708433501.1037002,-2.141467332839966,-1.333590180878975,-2.5269387404071253,6.110198485642233,1.0178108215332031,-1.367762867604391
1708433501.105672,-2.141418695449829,-1.3336189848235627,-2.526931111012594,6.1102099297340295,1.0178033113479614,-1.3677223364459437
1708433501.1077235,-2.141414165496826,-1.333566428428032,-2.526963774357931,6.110235440521993,1.017798900604248,-1.3677671591388147
1708433501.109708,-2.141435384750366,-1.3336396378329773,-2.5269387404071253,6.110199916153707,1.0178316831588745,-1.3677476088153284
1708433501.1116982,-2.141467332839966,-1.3336072725108643,-2.526943031941549,6.110165226250448,1.017765760421753,-1.3677509466754358
1708433501.113698,-2.141479730606079,-1.3336397421411057,-2.526947323475973,6.110227930336752,1.0177944898605347,-1.3677433172809046
1708433501.1156814,-2.1414761543273926,-1.3335584116033097,-2.5269344488727015,6.110178696900167,1.0177780389785767,-1.3677266279803675
1708433501.11771,-2.141386032104492,-1.3336115342429657,-2.52697998682131,6.110174166947164,1.0177825689315796,-1.3677390257464808
1708433501.1196759,-2.141444444656372,-1.3335877817920228,-2.526959482823507,6.110150444298544,1.0177825689315796,-1.3677685896502894
1708433501.1216922,-2.1414806842803955,-1.3336039346507569,-2.526975933705465,6.110129105835714,1.0177825689315796,-1.3677433172809046
1708433501.1236713,-2.141462802886963,-1.3336072576097031,-2.526963774357931,6.110135304718771,1.0177793502807617,-1.3677309195147913
1708433501.1258373,-2.141386032104492,-1.3336316508105774,-2.526975695286886,6.110033619194784,1.017767071723938,-1.3677266279803675
1708433501.1277182,-2.141455888748169,-1.3335713160089036,-2.526963774357931,6.110029089241781,1.017803430557251,-1.3676984945880335
1708433501.1296632,-2.141451358795166,-1.3335712862065812,-2.526931111012594,6.110026109009542,1.017803430557251,-1.3677352110492151
1708433501.131673,-2.1414737701416016,-1.333591104750969,-2.526935402547018,6.110065090447225,1.0178197622299194,-1.367739502583639
1708433501.1336937,-2.141488552093506,-1.333615781073906,-2.52700120607485,6.110092150955953,1.017798900604248,-1.3677433172809046
1708433501.1356616,-2.141444444656372,-1.33360310018573,-2.526898447667257,6.109982716828146,1.017798900604248,-1.3676937262164515
1708433501.1376843,-2.141414165496826,-1.3335834604552765,-2.5269508997546595,6.109994637757101,1.0178316831588745,-1.3677070776568812
1708433501.1396813,-2.141453981399536,-1.3335869175246735,-2.526963774357931,6.110044109612264,1.0178152322769165,-1.3677433172809046
1708433501.141714,-2.141448736190796,-1.3335996133140107,-2.526959482823507,6.110015857010641,1.017803430557251,-1.367777172719137
1708433501.1436815,-2.141422986984253,-1.3335869324258347,-2.526935640965597,6.110029208451071,1.0178272724151611,-1.3676984945880335
1708433501.145668,-2.141423225402832,-1.3336525571397324,-2.5269017855273646,6.109984624176779,1.0177943706512451,-1.3677266279803675
1708433501.1476672,-2.141423225402832,-1.3335175526193161,-2.526931111012594,6.110003697663107,1.0177973508834839,-1.3677147070514124
1708433501.149668,-2.141401767730713,-1.3335669201663514,-2.526963774357931,6.109971272736349,1.0178064107894897,-1.3677266279803675
1708433501.1516998,-2.141439914703369,-1.3335465353778382,-2.526984516774313,6.109964954644003,1.0177854299545288,-1.3677189985858362
1708433501.1536958,-2.141386032104492,-1.3335707497647782,-2.526943031941549,6.109915482788839,1.0177854299545288,-1.3677104155169886
1708433501.155702,-2.141422986984253,-1.3335507077029725,-2.526947323475973,6.109866249352255,1.017815351486206,-1.3677104155169886
1708433501.1577017,-2.1414601802825928,-1.3335911345532914,-2.526992384587423,6.109879720001974,1.0178483724594116,-1.3676865736590784
1708433501.1596692,-2.1413652896881104,-1.3335345548442383,-2.526971403752462,6.109863388329305,1.0178152322769165,-1.3677070776568812
1708433501.1616776,-2.1414196491241455,-1.3335224103978653,-2.52698785463442,6.1098064062889,1.0178439617156982,-1.3676775137530726
1708433501.1636887,-2.1414363384246826,-1.3335749220899125,-2.52698785463442,6.1098365662391565,1.0178091526031494,-1.3677476088153284
1708433501.1656804,-2.1414151191711426,-1.3335507673076172,-2.5269420782672327,6.109837996750631,1.0178136825561523,-1.367739502583639
1708433501.167666,-2.1414105892181396,-1.3335266721299668,-2.5269671122180384,6.109800565033712,1.0178182125091553,-1.3677147070514124
1708433501.1696837,-2.1413991451263428,-1.3335883778384705,-2.5269551912890833,6.109767424851217,1.0178394317626953,-1.3677437941180628
1708433501.171677,-2.1413991451263428,-1.3334784817746659,-2.5269835630999964,6.1097943661506555,1.0178635120391846,-1.3677147070514124
1708433501.173707,-2.1413698196411133,-1.3335473847440262,-2.526959482823507,6.109728801041403,1.0178709030151367,-1.3677309195147913
1708433501.1757061,-2.141378879547119,-1.33356028914962,-2.5269420782672327,6.109742271691122,1.0178799629211426,-1.3677476088153284
1708433501.177711,-2.1413426399230957,-1.333531768327095,-2.5270336310016077,6.109662878304281,1.0178697109222412,-1.36766225496401
1708433501.1796787,-2.141392230987549,-1.3335071516088028,-2.5269256273852747,6.109680878907003,1.017935872077942,-1.3676908651935022
1708433501.181689,-2.141326665878296,-1.333523378973343,-2.5269671122180384,6.109654056816854,1.0179024934768677,-1.3677390257464808
1708433501.183706,-2.1413559913635254,-1.3334748160890122,-2.5270119349109095,6.109657037049093,1.0179686546325684,-1.3677147070514124
1708433501.1856706,-2.141348123550415,-1.3334552210620423,-2.5269911924945276,6.109576213150778,1.017935872077942,-1.3677070776568812
1708433501.1876943,-2.141348123550415,-1.333467037682869,-2.5270074049579065,6.109613883286276,1.017935872077942,-1.3677147070514124
1708433501.189679,-2.141324281692505,-1.3334790778211136,-2.5269835630999964,6.109534728318014,1.0179506540298462,-1.3677309195147913
1708433501.1916797,-2.141324281692505,-1.333484174018242,-2.5270400683032435,6.109513509064474,1.0179836750030518,-1.3677352110492151
1708433501.1936746,-2.141328811645508,-1.3334918481162568,-2.5270031134234827,6.109485137253561,1.017975926399231,-1.3677104155169886
1708433501.195665,-2.1413118839263916,-1.333463729625084,-2.5270567576037806,6.109494077950277,1.0180001258850098,-1.3677013556109827
1708433501.1976707,-2.1412746906280518,-1.3335126352361222,-2.5270524660693567,6.109460937767782,1.0179791450500488,-1.3677189985858362
1708433501.1996582,-2.1412463188171387,-1.3334961396506806,-2.526994530354635,6.109396922379293,1.0180244445800781,-1.3677566687213343
1708433501.2016613,-2.1412596702575684,-1.3334713739207764,-2.527055565510885,6.109377372055807,1.0180526971817017,-1.3677728811847132
1708433501.203664,-2.141235828399658,-1.3334509146264573,-2.5270512739764612,6.1094761965568445,1.0180600881576538,-1.3677147070514124
1708433501.2056923,-2.1412312984466553,-1.3334876012853165,-2.5270469824420374,6.10938190200881,1.0180678367614746,-1.3677266279803675
1708433501.2076802,-2.141251802444458,-1.333447517161705,-2.5270381609546106,6.1093580601509,1.0180799961090088,-1.3677638212787073
1708433501.20966,-2.1412062644958496,-1.3334799271873017,-2.5270870367633265,6.1093294499214075,1.0180754661560059,-1.367777172719137
1708433501.21167,-2.141185998916626,-1.3334885251573105,-2.527107540761129,6.109242903977194,1.0180829763412476,-1.3677595297442835
1708433501.2136707,-2.1412038803100586,-1.3335285496762772,-2.5270665327655237,6.109206902771749,1.0181159973144531,-1.3677309195147913
1708433501.2156918,-2.141188144683838,-1.3334960800460358,-2.5270946661578577,6.109226453095236,1.018120527267456,-1.3677757422076624
1708433501.217666,-2.1411430835723877,-1.3334680062583466,-2.5270827452289026,6.1092309830482385,1.0181324481964111,-1.3677552382098597
1708433501.2196577,-2.1411995887756348,-1.3334637445262452,-2.5271273295031946,6.1091980812843225,1.0181519985198975,-1.3677876631366175
1708433501.221663,-2.1411545276641846,-1.3334475767663498,-2.527078453694479,6.10916684845046,1.0181307792663574,-1.3677476088153284
1708433501.22369,-2.1411473751068115,-1.3334799271873017,-2.5271154085742396,6.10916684845046,1.0181924104690552,-1.367746655141012
1708433501.22578,-2.1411654949188232,-1.3334433150342484,-2.527139488850729,6.109074342041769,1.0182210206985474,-1.3677757422076624
1708433501.2277033,-2.1411020755767822,-1.3335083586028595,-2.527102533970968,6.109135377198019,1.018195629119873,-1.3677375952350062
1708433501.2296934,-2.141185760498047,-1.3334766191295166,-2.527179781590597,6.109053361206808,1.0182316303253174,-1.3678329626666468
1708433501.2316833,-2.1411402225494385,-1.333479956989624,-2.527151409779684,6.109092223435201,1.0182197093963623,-1.3678115049945276
1708433501.2336876,-2.14107608795166,-1.3334841889194031,-2.527200524006979,6.109018909722128,1.0182557106018066,-1.367823902760641
1708433501.2356727,-2.141059160232544,-1.3334267449430008,-2.5271263758288782,6.108917224198141,1.0182676315307617,-1.36780292192568
1708433501.2376745,-2.141075849533081,-1.3335446280292054,-2.5271056334124964,6.108985650330343,1.01829195022583,-1.3678186575519007
1708433501.239697,-2.141052007675171,-1.33340638995681,-2.527142588292257,6.108956086426534,1.018317461013794,-1.3678229490863245
1708433501.2416978,-2.141045093536377,-1.3334396493485947,-2.5272322336779993,6.1088647721107385,1.0183742046356201,-1.3678672949420374
1708433501.243701,-2.14104962348938,-1.3334552359632035,-2.5271621386157435,6.108893024712362,1.0183366537094116,-1.3679078261004847
1708433501.2456992,-2.1409876346588135,-1.3334561449340363,-2.5272396246539515,6.108873712807455,1.0183322429656982,-1.3679316679583948
1708433501.2476892,-2.1409432888031006,-1.33345182359729,-2.5272603670703333,6.10881398895339,1.0183444023132324,-1.3679221312152308
