Eg3-git/Classifiers/Data Collection/u1/u1cir5_ur3e_joint_states.csv
time,elbow_joint,shoulder_lift_joint,shoulder_pan_joint,wrist_1_joint,wrist_2_joint,wrist_3_joint
1708433598.0605624,-2.1421501636505127,-1.3338504445603867,-2.5272071997271937,6.111857402115621,1.0183355808258057,-2.4476242701159876
1708433598.0625436,-2.142134189605713,-1.3338427257588883,-2.5272281805621546,6.111808168679037,1.0183277130126953,-2.4476612249957483
1708433598.064548,-2.1421782970428467,-1.3338626784137269,-2.5271907488452356,6.111861812859335,1.0183277130126953,-2.447707478200094
1708433598.0665355,-2.142164945602417,-1.3338063669255753,-2.5271862188922327,6.111856210022726,1.0183442831039429,-2.4476566950427454
1708433598.0685234,-2.142199754714966,-1.333806337123253,-2.5271785894977015,6.111938106804647,1.0182952880859375,-2.4476566950427454
1708433598.070535,-2.1421544551849365,-1.333822564487793,-2.527181927357809,6.1118975756462,1.0183115005493164,-2.447686020527975
1708433598.0725453,-2.1421616077423096,-1.3338183772614975,-2.5271862188922327,6.11183642128066,1.018307089805603,-2.4476855436908167
1708433598.0745208,-2.14212965965271,-1.333794118171074,-2.5272117296801966,6.111860739975729,1.0183027982711792,-2.4476729075061243
1708433598.076562,-2.1421544551849365,-1.3337856543115159,-2.5271862188922327,6.111913907318868,1.0183398723602295,-2.4477017561541956
1708433598.0785098,-2.142112970352173,-1.3338669699481507,-2.5272117296801966,6.1118975756462,1.0182908773422241,-2.4477105776416224
1708433598.0805285,-2.1421782970428467,-1.333818332558014,-2.5271862188922327,6.111879694252767,1.018336296081543,-2.4476855436908167
1708433598.0825343,-2.142141103744507,-1.333839700823166,-2.5271907488452356,6.1118975756462,1.0183442831039429,-2.4477105776416224
1708433598.0845568,-2.142152786254883,-1.3338183921626587,-2.5271697680102747,6.111844050675192,1.0183320045471191,-2.4476898352252405
1708433598.086512,-2.14216947555542,-1.3338384342244645,-2.5271998087512415,6.111909496575155,1.0183320045471191,-2.4477229754077356
1708433598.0885375,-2.142141103744507,-1.3337735843709488,-2.5272191206561487,6.1118975756462,1.0183115005493164,-2.447718683873312
1708433598.0905309,-2.1421616077423096,-1.3338546466878434,-2.5272026697741907,6.111918437271871,1.0183485746383667,-2.4477275053607386
1708433598.0925062,-2.142120838165283,-1.3337941032699128,-2.5272117296801966,6.111844050675192,1.0183398723602295,-2.4476855436908167
1708433598.0945237,-2.142152786254883,-1.33380979419265,-2.5272191206561487,6.1119305966194055,1.018323302268982,-2.4476855436908167
1708433598.0964959,-2.1421616077423096,-1.333810643558838,-2.5272191206561487,6.111930715828695,1.0183442831039429,-2.4477017561541956
1708433598.0985012,-2.1421456336975098,-1.333854691391327,-2.5272071997271937,6.111900555878439,1.0183442831039429,-2.4477060476886194
1708433598.1004984,-2.14212965965271,-1.333822564487793,-2.5271907488452356,6.1118975756462,1.0183277130126953,-2.4477229754077356
1708433598.1025305,-2.1421163082122803,-1.3338418167880555,-2.5272071997271937,6.111921775131979,1.0183571577072144,-2.4476729075061243
1708433598.1045148,-2.1421616077423096,-1.3338311922601243,-2.5272117296801966,6.111913907318868,1.0183115005493164,-2.4476316610919397
1708433598.1065278,-2.1421525478363037,-1.333810643558838,-2.5272026697741907,6.111909496575155,1.0183115005493164,-2.447714153920309
1708433598.1085665,-2.142136812210083,-1.3338384342244645,-2.5271952787982386,6.111900555878439,1.0183277130126953,-2.4476729075061243
1708433598.1105075,-2.142136812210083,-1.3338669848493119,-2.5271907488452356,6.111900555878439,1.0183398723602295,-2.4476729075061243
1708433598.11252,-2.142127752304077,-1.3338462126306077,-2.5272191206561487,6.111830460816183,1.0183115005493164,-2.4476972262011927
1708433598.1145058,-2.14216947555542,-1.3338384342244645,-2.5271664301501673,6.111901986389913,1.0183683633804321,-2.447718683873312
1708433598.1165311,-2.1421616077423096,-1.3338256788304825,-2.5271998087512415,6.111933576851644,1.0183277130126953,-2.4477105776416224
1708433598.118515,-2.14212965965271,-1.3338711720756073,-2.5271998087512415,6.1119128344352625,1.0183115005493164,-2.447718683873312
1708433598.1205132,-2.142134189605713,-1.333846167927124,-2.5271998087512415,6.1119083044822595,1.018307089805603,-2.4477391878711146
1708433598.1225276,-2.1421782970428467,-1.3338225495866318,-2.527214590703146,6.111891495972433,1.018323302268982,-2.447730366383688
1708433598.1245127,-2.1421782970428467,-1.3338255894235154,-2.527198139821188,6.11194263675765,1.0183157920837402,-2.4476943651782435
1708433598.12652,-2.1421782970428467,-1.3338299703649064,-2.5271907488452356,6.111912715225973,1.0182908773422241,-2.4476855436908167
1708433598.1285222,-2.142125368118286,-1.3338256043246766,-2.5271697680102747,6.111936557083883,1.0183604955673218,-2.4476898352252405
1708433598.130517,-2.142136812210083,-1.3337856096080323,-2.5272281805621546,6.111912715225973,1.018323302268982,-2.4476729075061243
1708433598.1325197,-2.1421782970428467,-1.3338588786176224,-2.5272489229785364,6.111983287125387,1.0183560848236084,-2.447714869176046
1708433598.1345189,-2.1421456336975098,-1.333822564487793,-2.5272517840014856,6.111941087036886,1.0183277130126953,-2.4477060476886194
1708433598.1365163,-2.142136812210083,-1.3338299852660676,-2.5272026697741907,6.111969697266378,1.0183115005493164,-2.4477511088000696
1708433598.1385174,-2.14212965965271,-1.333841786985733,-2.5272191206561487,6.111944305687704,1.018320083618164,-2.4477229754077356
1708433598.1405218,-2.1421570777893066,-1.33387544870887,-2.527214590703146,6.111969697266378,1.0183442831039429,-2.4477348963366907
1708433598.142543,-2.142195224761963,-1.3338797402432938,-2.527160708104269,6.112009870796957,1.0183157920837402,-2.4477348963366907
1708433598.1445107,-2.142125129699707,-1.333822564487793,-2.5272401014911097,6.111997949868002,1.0183560848236084,-2.4477229754077356
1708433598.1465318,-2.142143726348877,-1.3338798594525834,-2.527214590703146,6.111959087639608,1.018323302268982,-2.4476810137378138
1708433598.1485422,-2.142141103744507,-1.3338589084199448,-2.5272727648364466,6.112021791725912,1.0183485746383667,-2.4477511088000696
1708433598.1505184,-2.1421501636505127,-1.3338589084199448,-2.5272117296801966,6.112045633583822,1.0183277130126953,-2.4477554003344935
1708433598.1525524,-2.142120838165283,-1.3338745099357148,-2.5272401014911097,6.112015712052145,1.0183277130126953,-2.4476810137378138
1708433598.1545374,-2.1421616077423096,-1.3338021498969574,-2.527193609868185,6.112062322884359,1.0183277130126953,-2.447709862385885
1708433598.1565402,-2.142202138900757,-1.3338021349957963,-2.5272191206561487,6.1121147749717615,1.018323302268982,-2.44772178331484
1708433598.1584992,-2.142120838165283,-1.333846167927124,-2.5272191206561487,6.112090694695272,1.0182908773422241,-2.4477391878711146
1708433598.1605003,-2.142125368118286,-1.3338149797967453,-2.5272355715381067,6.112051832466879,1.0183398723602295,-2.447709862385885
1708433598.162517,-2.1421570777893066,-1.3338342618993302,-2.5272026697741907,6.112069833069601,1.0183277130126953,-2.4476810137378138
1708433598.1644964,-2.1421456336975098,-1.3338255894235154,-2.527247492467062,6.112097966461935,1.0183442831039429,-2.4477017561541956
1708433598.1665397,-2.1421501636505127,-1.333846167927124,-2.5271740595446985,6.112086164742269,1.018323302268982,-2.447714153920309
1708433598.1685104,-2.142136812210083,-1.3337736141732712,-2.5271862188922327,6.112098085671224,1.0183405876159668,-2.4476972262011927
1708433598.1705124,-2.142134189605713,-1.3337979179671784,-2.5272401014911097,6.112081634789266,1.0182995796203613,-2.447709862385885
1708433598.1725256,-2.1421616077423096,-1.3338504445603867,-2.5272071997271937,6.11207269409255,1.0183528661727905,-2.44767672220339
1708433598.1744978,-2.14212965965271,-1.3338471067002793,-2.5272043387042444,6.112089144974508,1.018307089805603,-2.4476686159717005
1708433598.1765223,-2.142136812210083,-1.333854616885521,-2.5272236506091517,6.112096774369039,1.018278956413269,-2.4476640860186976
1708433598.1785274,-2.1421456336975098,-1.3338584166816254,-2.527242962514059,6.112063634186544,1.018323302268982,-2.4477511088000696
1708433598.1805327,-2.142086982727051,-1.3338063222220917,-2.527231041585104,6.112081634789266,1.0183485746383667,-2.4476972262011927
1708433598.1825624,-2.142120838165283,-1.3338384193233033,-2.5272236506091517,6.112113225250997,1.0182952880859375,-2.447718683873312
1708433598.1845434,-2.142195224761963,-1.3338427406600495,-2.5272236506091517,6.112047302513876,1.0183647871017456,-2.4477060476886194
1708433598.1865492,-2.142174005508423,-1.3338183772614975,-2.5272191206561487,6.112093555718221,1.0183560848236084,-2.4476898352252405
1708433598.1885252,-2.1421828269958496,-1.3338268262198945,-2.5272236506091517,6.112105834275045,1.0183649063110352,-2.4476855436908167
1708433598.1905236,-2.142174005508423,-1.333814115529396,-2.5271998087512415,6.1120502827461145,1.0182995796203613,-2.447672430668966
1708433598.1925914,-2.142202377319336,-1.3338626784137269,-2.527177397404806,6.112068283348837,1.018323302268982,-2.4477391878711146
1708433598.1945083,-2.14216947555542,-1.3338461828282853,-2.5272250811206263,6.112113106041708,1.0183442831039429,-2.447718683873312
1708433598.1965332,-2.142181873321533,-1.333866999750473,-2.5271998087512415,6.112060773163595,1.018307089805603,-2.447709862385885
1708433598.1985195,-2.1421616077423096,-1.3338669848493119,-2.5272608439074915,6.112096774369039,1.0182703733444214,-2.4476972262011927
1708433598.2005074,-2.142181873321533,-1.333846167927124,-2.5272443930255335,6.112093674927511,1.0182865858078003,-2.447737995778219
1708433598.2025476,-2.142152786254883,-1.3338632148555298,-2.5272162596331995,6.1120890257652185,1.018336296081543,-2.4477627913104456
1708433598.2045116,-2.142186403274536,-1.3337935221246262,-2.5271862188922327,6.112081634789266,1.0183770656585693,-2.4477060476886194
1708433598.206535,-2.1421782970428467,-1.3338546615890046,-2.527193609868185,6.112124788552084,1.0183277130126953,-2.4476972262011927
1708433598.2085333,-2.1420958042144775,-1.3338788610747834,-2.5272117296801966,6.112105834275045,1.0183320045471191,-2.4476855436908167
1708433598.2105324,-2.142195224761963,-1.3338669699481507,-2.5271998087512415,6.112063634186544,1.0182952880859375,-2.447692934666769
1708433598.2125852,-2.1421782970428467,-1.3338097345880051,-2.5272071997271937,6.112071263581075,1.018323302268982,-2.447726074849264
1708433598.2146144,-2.1421782970428467,-1.3338418465903779,-2.5272191206561487,6.112122165947714,1.0183157920837402,-2.447692934666769
1708433598.2165542,-2.1421658992767334,-1.333846167927124,-2.5272026697741907,6.1120879528816126,1.0183027982711792,-2.4476686159717005
1708433598.2185178,-2.1421456336975098,-1.3338097345880051,-2.5272117296801966,6.112110364228048,1.0183320045471191,-2.447692934666769
1708433598.2205436,-2.14214825630188,-1.3337608736804505,-2.5272401014911097,6.112071144371786,1.018336296081543,-2.4476810137378138
1708433598.2225444,-2.142125368118286,-1.3338311922601243,-2.5271785894977015,6.112117755204,1.0183485746383667,-2.447714153920309
1708433598.224515,-2.142202138900757,-1.3338106584599991,-2.5272026697741907,6.112108695297994,1.0183405876159668,-2.447730366383688
1708433598.2265363,-2.1421501636505127,-1.33381840706382,-2.5272071997271937,6.112092363625326,1.0182876586914062,-2.4477465788470667
1708433598.2285345,-2.142136812210083,-1.3337898266366501,-2.5271907488452356,6.11206220367507,1.018336296081543,-2.4477348963366907
1708433598.2305448,-2.14210844039917,-1.333862693314888,-2.5272236506091517,6.1121325371559045,1.0183038711547852,-2.4477511088000696
1708433598.2325583,-2.142174005508423,-1.3338711720756073,-2.5271862188922327,6.11206220367507,1.0183398723602295,-2.447709862385885
1708433598.2345235,-2.14216947555542,-1.3338669550469895,-2.5272281805621546,6.112096774369039,1.018307089805603,-2.447692934666769
1708433598.2365813,-2.1421658992767334,-1.3338140708259125,-2.5272071997271937,6.112104284554281,1.0183277130126953,-2.447688643132345
1708433598.2385728,-2.142181873321533,-1.3338384193233033,-2.5271740595446985,6.11213384845809,1.0182833671569824,-2.4476810137378138
1708433598.2405705,-2.1421570777893066,-1.3338513237288971,-2.5272117296801966,6.112080085068502,1.0183277130126953,-2.44772178331484
1708433598.2425568,-2.1421773433685303,-1.3338504296592255,-2.5271907488452356,6.112108695297994,1.0182833671569824,-2.447692934666769
1708433598.2445135,-2.14219069480896,-1.3338504445603867,-2.5271576086627405,6.1121325371559045,1.0182952880859375,-2.44767672220339
1708433598.2465293,-2.142181873321533,-1.333849774008133,-2.5271530787097376,6.112190711289205,1.0183277130126953,-2.4476898352252405
1708433598.2485204,-2.1421561241149902,-1.3337935966304322,-2.5271831194507044,6.112084615021505,1.018336296081543,-2.4477391878711146
1708433598.2505066,-2.142164945602417,-1.333809719686844,-2.5271907488452356,6.112150537758627,1.0183038711547852,-2.447714153920309
1708433598.252552,-2.142141103744507,-1.3338545870831986,-2.5271907488452356,6.112157809525289,1.0182908773422241,-2.4477554003344935
1708433598.2545242,-2.1421570777893066,-1.3337814074805756,-2.5272117296801966,6.112124788552084,1.0182952880859375,-2.447714153920309
1708433598.2565577,-2.142152786254883,-1.3338702333024521,-2.5271952787982386,6.11212037780837,1.0183115005493164,-2.447692934666769
1708433598.2585046,-2.142164945602417,-1.3338055324605484,-2.5271907488452356,6.1121535179908655,1.0183038711547852,-2.4477391878711146
1708433598.2605047,-2.142141103744507,-1.333814100628235,-2.527231041585104,6.112124788552084,1.0183442831039429,-2.4476972262011927
1708433598.262535,-2.142174005508423,-1.3338299852660676,-2.5272071997271937,6.1121370671089075,1.0182745456695557,-2.447718683873312
1708433598.2645154,-2.142141103744507,-1.333842695956566,-2.5272565523730677,6.11206220367507,1.0183277130126953,-2.4477673212634485
1708433598.2665138,-2.142186403274536,-1.333883137708046,-2.5271907488452356,6.112074363022604,1.0183157920837402,-2.4476640860186976
1708433598.268497,-2.14219069480896,-1.3338097643903275,-2.5272026697741907,6.1121535179908655,1.0183289051055908,-2.447714153920309
1708433598.2705026,-2.142120838165283,-1.3338787865689774,-2.5272026697741907,6.112080085068502,1.0182952880859375,-2.447692934666769
1708433598.2725208,-2.1422181129455566,-1.333903507595398,-2.5272236506091517,6.11215494850234,1.018308162689209,-2.447714153920309
1708433598.2744992,-2.14219069480896,-1.3338711273721238,-2.527214590703146,6.112099754601278,1.018320083618164,-2.4477348963366907
1708433598.2765024,-2.1421782970428467,-1.3338873249343415,-2.527210060750143,6.11214445808486,1.0183320045471191,-2.4476855436908167
1708433598.2785192,-2.142174005508423,-1.3338256192258378,-2.5271785894977015,6.112099754601278,1.0182952880859375,-2.447714153920309
1708433598.2805197,-2.1422154903411865,-1.3338097643903275,-2.5272026697741907,6.112150537758627,1.018308162689209,-2.447730366383688
1708433598.2825387,-2.1421525478363037,-1.3337979328683396,-2.5272117296801966,6.1121535179908655,1.0183038711547852,-2.447726074849264
1708433598.2845457,-2.1421525478363037,-1.333822564487793,-2.5272207895862024,6.112074482231893,1.0182876586914062,-2.447730366383688
1708433598.2865179,-2.1421570777893066,-1.3338097494891663,-2.5272191206561487,6.112096774369039,1.0183157920837402,-2.447718683873312
1708433598.288554,-2.1421120166778564,-1.333829940562584,-2.5271907488452356,6.1121325371559045,1.0183320045471191,-2.447733704243795
1708433598.290511,-2.1421456336975098,-1.3338711273721238,-2.5271862188922327,6.112074482231893,1.018308162689209,-2.447718683873312
1708433598.2925146,-2.1421782970428467,-1.3338418167880555,-2.5272401014911097,6.112104284554281,1.0183494091033936,-2.4476972262011927
1708433598.2945,-2.1421570777893066,-1.3337737333825608,-2.5272191206561487,6.112128126412191,1.018324375152588,-2.4477055708514612
1708433598.2965248,-2.1421775817871094,-1.3338063818267365,-2.5271952787982386,6.1121325371559045,1.0182876586914062,-2.4476972262011927
1708433598.2985134,-2.142125368118286,-1.3338626784137269,-2.5271831194507044,6.1121113179023645,1.01829195022583,-2.4477391878711146
1708433598.3005202,-2.142141103744507,-1.333887280230858,-2.5271907488452356,6.112095343857565,1.018320083618164,-2.4477229754077356
1708433598.3025262,-2.1422111988067627,-1.3338504445603867,-2.5272191206561487,6.1121325371559045,1.01827073097229,-2.4476972262011927
1708433598.304499,-2.1421773433685303,-1.3338669550469895,-2.5272191206561487,6.112099754601278,1.0183038711547852,-2.447714153920309
1708433598.3065069,-2.14219069480896,-1.333817021255829,-2.5272117296801966,6.112141477852621,1.0182876586914062,-2.4476855436908167
1708433598.3085191,-2.14214825630188,-1.333854616885521,-2.5272281805621546,6.11208342292861,1.0182795524597168,-2.447714153920309
1708433598.3105886,-2.142174005508423,-1.3337770712426682,-2.527198139821188,6.1121325371559045,1.0182750225067139,-2.4476972262011927
1708433598.3125637,-2.14219069480896,-1.3338300001672287,-2.5272162596331995,6.112104284554281,1.018324375152588,-2.4477465788470667
1708433598.314646,-2.142120838165283,-1.3338754040053864,-2.5271907488452356,6.112180340081014,1.018296480178833,-2.4477017561541956
1708433598.3165367,-2.142197847366333,-1.3338669550469895,-2.527210060750143,6.112096774369039,1.018324375152588,-2.4477105776416224
1708433598.3185136,-2.142195224761963,-1.3338504445603867,-2.5272205511676233,6.112146007805624,1.0183157920837402,-2.4477017561541956
1708433598.320507,-2.142174005508423,-1.3338268262198945,-2.5271862188922327,6.112129199295797,1.0182833671569824,-2.4477060476886194
1708433598.3225229,-2.1421773433685303,-1.3338546019843598,-2.5271952787982386,6.1120879528816126,1.018308162689209,-2.4476729075061243
1708433598.3245509,-2.14219069480896,-1.3338342618993302,-2.5271785894977015,6.112108695297994,1.0182876586914062,-2.4476810137378138
1708433598.3265853,-2.142195224761963,-1.3338504296592255,-2.5271619001971644,6.112099754601278,1.0183038711547852,-2.4477017561541956
1708433598.328564,-2.1421570777893066,-1.3338583421758194,-2.5271499792682093,6.112129199295797,1.018263339996338,-2.447714153920309
1708433598.3305497,-2.142136812210083,-1.333834246998169,-2.5271619001971644,6.112099754601278,1.01827073097229,-2.4476774374591272
1708433598.3325398,-2.1421782970428467,-1.3338627082160492,-2.5271952787982386,6.11212037780837,1.018263339996338,-2.447714869176046
1708433598.3345258,-2.1421163082122803,-1.3338583272746583,-2.5271619001971644,6.112148868828573,1.0183038711547852,-2.4476855436908167
1708433598.3365114,-2.14213228225708,-1.333842710857727,-2.5272324720965784,6.112128126412191,1.0182876586914062,-2.44767672220339
1708433598.3385262,-2.142174005508423,-1.3338418167880555,-2.5272191206561487,6.1121325371559045,1.01829195022583,-2.4477105776416224
1708433598.3405497,-2.1421525478363037,-1.3339077693274994,-2.5271862188922327,6.11212037780837,1.0182545185089111,-2.4477105776416224
1708433598.3425584,-2.1421525478363037,-1.3338183772614975,-2.5271695295916956,6.112128126412191,1.0183169841766357,-2.4476640860186976
1708433598.3445184,-2.1421501636505127,-1.3338461828282853,-2.5271876494037073,6.112108695297994,1.0182676315307617,-2.4476810137378138
1708433598.34652,-2.142141103744507,-1.3338754040053864,-2.5271785894977015,6.112108695297994,1.0182676315307617,-2.4476898352252405
1708433598.348503,-2.1421525478363037,-1.3338626486114045,-2.5272236506091517,6.112124788552084,1.0182676315307617,-2.4476524035083216
1708433598.350502,-2.142143726348877,-1.333879755144455,-2.5271907488452356,6.112099754601278,1.0182557106018066,-2.447718683873312
1708433598.352523,-2.142160654067993,-1.3338300001672287,-2.5272117296801966,6.112080085068502,1.0182186365127563,-2.4477105776416224
1708433598.3545065,-2.14213228225708,-1.3338342320970078,-2.5271907488452356,6.112129199295797,1.0182514190673828,-2.4477060476886194
1708433598.3565462,-2.14219069480896,-1.3337814074805756,-2.5271485487567347,6.112129199295797,1.0182186365127563,-2.447723452244894
1708433598.3584983,-2.1421456336975098,-1.3337893348983307,-2.5272160212146204,6.112105834275045,1.0182186365127563,-2.4476640860186976
1708433598.3605099,-2.142160654067993,-1.333854616885521,-2.5272191206561487,6.112141477852621,1.0182186365127563,-2.447714153920309
1708433598.36251,-2.1421828269958496,-1.3338588786176224,-2.5272071997271937,6.112080085068502,1.018235206604004,-2.4476729075061243
1708433598.3645058,-2.1421871185302734,-1.3338588786176224,-2.52717096010317,6.112063634186544,1.0182065963745117,-2.4476686159717005
1708433598.366522,-2.1421616077423096,-1.3337978732636948,-2.5271907488452356,6.112068283348837,1.0182229280471802,-2.4477017561541956
1708433598.3685458,-2.142141103744507,-1.3338064563325425,-2.5271952787982386,6.112146007805624,1.0182719230651855,-2.4476729075061243
1708433598.3705027,-2.1422111988067627,-1.3338873994401474,-2.5272191206561487,6.1121147749717615,1.0182229280471802,-2.4476493040667933
1708433598.3725407,-2.1421525478363037,-1.3338461828282853,-2.5272565523730677,6.112105834275045,1.0182524919509888,-2.4476943651782435
1708433598.3745344,-2.1421828269958496,-1.3338504296592255,-2.5271952787982386,6.112059223442831,1.0181901454925537,-2.447669808064596
1708433598.37678,-2.1421828269958496,-1.3338583570769806,-2.5271740595446985,6.112108695297994,1.0181912183761597,-2.447637383137838
1708433598.3785317,-2.14219331741333,-1.3338384342244645,-2.5272279421435755,6.112105834275045,1.0182154178619385,-2.4476986567126673
1708433598.3805134,-2.1421828269958496,-1.333854616885521,-2.5272043387042444,6.112051832466879,1.018211841583252,-2.447702948247091
1708433598.382603,-2.142136812210083,-1.3338588786176224,-2.5271831194507044,6.112096774369039,1.018195629119873,-2.4476524035083216
1708433598.3845398,-2.14216947555542,-1.3338745099357148,-2.5272207895862024,6.11207269409255,1.0182533264160156,-2.4476612249957483
1708433598.3865402,-2.1421525478363037,-1.3338668954423447,-2.5271697680102747,6.112077224045553,1.0181628465652466,-2.4476612249957483
1708433598.3885202,-2.1422154903411865,-1.333879755144455,-2.5271952787982386,6.112110364228048,1.0181747674942017,-2.447641674672262
1708433598.3905177,-2.14214825630188,-1.3338504296592255,-2.52717096010317,6.112075555115499,1.0182205438613892,-2.4476450125323694
1708433598.3925312,-2.142134189605713,-1.333834246998169,-2.5271952787982386,6.112060773163595,1.0182197093963623,-2.447669808064596
1708433598.3945174,-2.142136812210083,-1.3338225942901154,-2.5271831194507044,6.112065303116598,1.018195629119873,-2.4476774374591272
1708433598.3965104,-2.1421773433685303,-1.3338097643903275,-2.5271952787982386,6.112032162934103,1.018211841583252,-2.4476903120623987
1708433598.398527,-2.142141103744507,-1.3338632446578522,-2.5272071997271937,6.112039911537924,1.0181869268417358,-2.447665516530172
1708433598.4005132,-2.14214825630188,-1.3338627082160492,-2.5271998087512415,6.112081753998556,1.0182043313980103,-2.447665516530172
1708433598.402512,-2.1421456336975098,-1.3338299554637452,-2.5271952787982386,6.112057912140646,1.0181466341018677,-2.447625462208883
1708433598.4045088,-2.1421828269958496,-1.333891586666443,-2.5271907488452356,6.111999261170187,1.0181703567504883,-2.447625462208883
1708433598.406516,-2.142174005508423,-1.3338788759759446,-2.5271785894977015,6.112053382187643,1.0182284116744995,-2.447645966206686
1708433598.408595,-2.142136812210083,-1.333862693314888,-2.5272071997271937,6.111987459450521,1.0182043313980103,-2.44763428369631
1708433598.4105332,-2.14219069480896,-1.333814115529396,-2.5271742979632776,6.112008440285482,1.0182371139526367,-2.4476621786700647
1708433598.4125404,-2.1421456336975098,-1.3337898564389725,-2.5271619001971644,6.112050163536825,1.0182284116744995,-2.447588030491964
1708433598.4145322,-2.142141103744507,-1.3338669699481507,-2.5271619001971644,6.111991870194235,1.0181790590286255,-2.447641674672262
1708433598.4165165,-2.14216947555542,-1.333854616885521,-2.5271456877337855,6.111963736801901,1.018195629119873,-2.4476054350482386
1708433598.418514,-2.14212965965271,-1.3338504296592255,-2.5271998087512415,6.112033712654867,1.0182075500488281,-2.447580401097433
1708433598.4205458,-2.14213228225708,-1.3338669550469895,-2.5271876494037073,6.112047183304586,1.0182316303253174,-2.4476471582995813
1708433598.422507,-2.1421544551849365,-1.333834246998169,-2.5272043387042444,6.111984598427572,1.018195629119873,-2.4476216475116175
1708433598.4245703,-2.142120838165283,-1.3338183772614975,-2.5271619001971644,6.112012851029196,1.0182000398635864,-2.4475696722613733
1708433598.4265108,-2.142127752304077,-1.333814115529396,-2.5271907488452356,6.111944305687704,1.0182043313980103,-2.447634522114889
1708433598.4285169,-2.142125368118286,-1.333887295132019,-2.5271499792682093,6.111960637360372,1.0181913375854492,-2.4475815931903284
1708433598.4305077,-2.142195224761963,-1.3338504296592255,-2.5271998087512415,6.111980068474569,1.018195629119873,-2.4475696722613733
1708433598.4325132,-2.142112970352173,-1.3338140857270737,-2.5271831194507044,6.112009990006246,1.0182031393051147,-2.4475858847247522
1708433598.4345052,-2.14216947555542,-1.3338711273721238,-2.5271502176867884,6.111960756569662,1.0182162523269653,-2.447590176259176
1708433598.4365041,-2.142195224761963,-1.333846167927124,-2.5271485487567347,6.111986028939047,1.0182000398635864,-2.4475935141192835
1708433598.4385056,-2.14214825630188,-1.3338268262198945,-2.5272117296801966,6.111956226616659,1.0182446241378784,-2.447610680256979
1708433598.4405077,-2.1421828269958496,-1.333822564487793,-2.5271664301501673,6.111981618195333,1.0182241201400757,-2.4475577513324183
1708433598.4425032,-2.142136812210083,-1.333834246998169,-2.527154509221212,6.111944305687704,1.0181628465652466,-2.4475815931903284
1708433598.444513,-2.142181873321533,-1.3337814670852204,-2.5272160212146204,6.111899244576254,1.0182162523269653,-2.4475653807269495
1708433598.4465306,-2.14213228225708,-1.333814115529396,-2.5272327105151575,6.111978757172384,1.0182205438613892,-2.447545830403463
1708433598.448508,-2.142174005508423,-1.3338744950345536,-2.5271740595446985,6.111920106201925,1.0181877613067627,-2.4475372473346155
1708433598.4505532,-2.1421782970428467,-1.333854616885521,-2.5271952787982386,6.111929166107931,1.0182043313980103,-2.4475491682635706
1708433598.4525073,-2.1421501636505127,-1.333822564487793,-2.5271785894977015,6.111915576248922,1.0182162523269653,-2.4475577513324183
1708433598.4545228,-2.1421163082122803,-1.3338417720845719,-2.5272324720965784,6.111900555878439,1.0181747674942017,-2.447590176259176
1708433598.4565089,-2.142136812210083,-1.3338583570769806,-2.5271576086627405,6.111884104996481,1.01816725730896,-2.4475577513324183
1708433598.4585106,-2.142174005508423,-1.3338418167880555,-2.52717096010317,6.111929166107931,1.0181834697723389,-2.447566334401266
1708433598.4605417,-2.1421782970428467,-1.333842695956566,-2.5271619001971644,6.111872541695394,1.0181834697723389,-2.4475253264056605
1708433598.462556,-2.1422066688537598,-1.333834246998169,-2.5272117296801966,6.111918437271871,1.0181790590286255,-2.447550121937887
1708433598.4645107,-2.1421616077423096,-1.3337979328683396,-2.5271502176867884,6.111856210022726,1.018211841583252,-2.447545830403463
1708433598.4665139,-2.1421525478363037,-1.3337898564389725,-2.5271952787982386,6.111904966622152,1.0182043313980103,-2.44755465189089
1708433598.4685006,-2.14219069480896,-1.3338063818267365,-2.5271619001971644,6.111888754158773,1.0181660652160645,-2.4475253264056605
1708433598.4705286,-2.1421501636505127,-1.3338375401547928,-2.5271456877337855,6.111852872162618,1.0182043313980103,-2.4475041071521204
1708433598.472511,-2.142141103744507,-1.333854616885521,-2.5271831194507044,6.111878621369161,1.0182000398635864,-2.4475491682635706
1708433598.4745064,-2.14216947555542,-1.3338504296592255,-2.527138058339254,6.1118905422981165,1.0182000398635864,-2.447500769292013
1708433598.4765022,-2.14219069480896,-1.333842695956566,-2.5271573702441614,6.111861932068624,1.01816725730896,-2.447562042866842
1708433598.4785259,-2.142174005508423,-1.333802194600441,-2.5271785894977015,6.1118695614631555,1.018195629119873,-2.447516981755392
1708433598.480514,-2.142202138900757,-1.3338583272746583,-2.5271921793567103,6.111824619560995,1.0181790590286255,-2.447566334401266
1708433598.482538,-2.14213228225708,-1.3338097643903275,-2.5271664301501673,6.111814129143514,1.0182043313980103,-2.447538439427511
1708433598.4845297,-2.14219069480896,-1.3338583272746583,-2.52717096010317,6.111845481186666,1.0181387662887573,-2.4475751558886927
1708433598.486547,-2.1421782970428467,-1.3338384342244645,-2.5272043387042444,6.11183642128066,1.0181703567504883,-2.447512690220968
1708433598.4885848,-2.1421613693237305,-1.3338418167880555,-2.5271619001971644,6.111833560257711,1.0182292461395264,-2.4475083986865442
1708433598.4905555,-2.1422226428985596,-1.3338626784137269,-2.5271876494037073,6.111821639328756,1.01816725730896,-2.4475253264056605
1708433598.4925282,-2.1421828269958496,-1.3338299852660676,-2.5271619001971644,6.111803638726034,1.0182162523269653,-2.447521511708395
1708433598.4945464,-2.142138719558716,-1.3338256192258378,-2.5272043387042444,6.111821639328756,1.0181466341018677,-2.447484556828634
1708433598.4965618,-2.142136812210083,-1.33381840706382,-2.5271695295916956,6.111824619560995,1.0182162523269653,-2.447505299245016
1708433598.49852,-2.142134189605713,-1.3338299852660676,-2.527154509221212,6.111850011139669,1.01816725730896,-2.4475577513324183
1708433598.5005257,-2.1421384811401367,-1.3338063818267365,-2.5271831194507044,6.111838090210714,1.0182043313980103,-2.4475300947772425
1708433598.502546,-2.142120838165283,-1.3338311922601243,-2.52717096010317,6.111887562065878,1.0182205438613892,-2.447570864354269
1708433598.5045412,-2.1421616077423096,-1.333834246998169,-2.527175490056173,6.111824619560995,1.018195629119873,-2.4475083986865442
1708433598.506523,-2.1421782970428467,-1.333846167927124,-2.5271664301501673,6.1117914793785,1.0181790590286255,-2.4475513140307825
1708433598.5085177,-2.1421120166778564,-1.333834246998169,-2.5271335283862513,6.111829030304708,1.0181715488433838,-2.4475589434253138
1708433598.510556,-2.1421616077423096,-1.333854616885521,-2.527154509221212,6.111837971001425,1.0181877613067627,-2.4475577513324183
1708433598.51256,-2.1421165466308594,-1.3338669550469895,-2.527175490056173,6.111821639328756,1.01816725730896,-2.447512690220968
1708433598.5145576,-2.142136812210083,-1.333822564487793,-2.527154509221212,6.111917483597555,1.0181466341018677,-2.4475589434253138
1708433598.5165856,-2.142197847366333,-1.3338418167880555,-2.527138058339254,6.111830699234762,1.0181913375854492,-2.447512690220968
1708433598.5185096,-2.142136812210083,-1.3338427257588883,-2.5272088686572474,6.111800420075216,1.0182000398635864,-2.4474921862231653
1708433598.5205154,-2.1421570777893066,-1.333777056341507,-2.527154509221212,6.111833560257711,1.0181715488433838,-2.447542730961935
1708433598.5225222,-2.1421501636505127,-1.3338183772614975,-2.5271664301501673,6.111887562065878,1.018195629119873,-2.447500769292013
1708433598.5245285,-2.1421782970428467,-1.3337935668281098,-2.5272133986102503,6.111788499146261,1.0181628465652466,-2.447472874318258
1708433598.5265129,-2.142125368118286,-1.3338754040053864,-2.52714711824526,6.111863481789388,1.0181790590286255,-2.4475296179400843
1708433598.5285697,-2.142165184020996,-1.333895058637001,-2.527154509221212,6.11184715011672,1.018151044845581,-2.447484556828634
1708433598.5305073,-2.1421658992767334,-1.3338311922601243,-2.5271785894977015,6.111772048264303,1.0182043313980103,-2.447496477757589
1708433598.5325203,-2.142138719558716,-1.333834246998169,-2.5271456877337855,6.11181269863204,1.0182043313980103,-2.447500769292013
1708433598.5345569,-2.1421544551849365,-1.333854616885521,-2.527159039174215,6.11184989193038,1.0181430578231812,-2.4475751558886927
1708433598.5365353,-2.142141103744507,-1.3337935668281098,-2.52717096010317,6.111817228585043,1.0181790590286255,-2.447496477757589
1708433598.5385354,-2.1421828269958496,-1.3338711273721238,-2.5271876494037073,6.111788499146261,1.0181758403778076,-2.4475258032428187
1708433598.540535,-2.142141103744507,-1.333854616885521,-2.527154509221212,6.111790168076315,1.0181715488433838,-2.4475300947772425
1708433598.542518,-2.14212965965271,-1.3338626784137269,-2.5272207895862024,6.11180196979598,1.0181790590286255,-2.447493378316061
1708433598.5445457,-2.14216947555542,-1.333814115529396,-2.52717096010317,6.111839520722189,1.0181553363800049,-2.447521511708395
1708433598.5465164,-2.1421616077423096,-1.333846167927124,-2.5271843115436,6.111785638123312,1.0181715488433838,-2.447505299245016
1708433598.548542,-2.1421658992767334,-1.3337935668281098,-2.5272043387042444,6.111826169281759,1.018195629119873,-2.447516981755392
1708433598.5505283,-2.1421782970428467,-1.333891586666443,-2.5272298494922083,6.111811029701986,1.0181553363800049,-2.447500769292013
1708433598.552525,-2.1421456336975098,-1.333809809093811,-2.52717096010317,6.111756074219503,1.01816725730896,-2.4475343863116663
1708433598.5545657,-2.1421525478363037,-1.3338470470956345,-2.5271843115436,6.1117766974265955,1.0181387662887573,-2.447472874318258
1708433598.556538,-2.142120838165283,-1.3338796508363266,-2.5271576086627405,6.111765134125509,1.0181715488433838,-2.4475632349597376
1708433598.558528,-2.1421499252319336,-1.3338106584599991,-2.5271573702441614,6.1117931483085535,1.0182043313980103,-2.4475632349597376
1708433598.5605528,-2.1421782970428467,-1.3338299852660676,-2.52717096010317,6.111797559052267,1.0181466341018677,-2.447521511708395
1708433598.5625348,-2.142136812210083,-1.3338711273721238,-2.527154509221212,6.111804950028219,1.0181628465652466,-2.447533909474508
1708433598.5645366,-2.1421873569488525,-1.333834246998169,-2.5272043387042444,6.111814009934225,1.0181758403778076,-2.447505299245016
1708433598.5665216,-2.142141103744507,-1.3338669550469895,-2.52717096010317,6.111826169281759,1.018180251121521,-2.447500769292013
1708433598.568521,-2.142120838165283,-1.3338183772614975,-2.527154509221212,6.111830699234762,1.0182043313980103,-2.4474878946887415
1708433598.5705256,-2.14212965965271,-1.333846167927124,-2.52717096010317,6.111839520722189,1.0181715488433838,-2.447538439427511
1708433598.5725234,-2.1421570777893066,-1.3338106584599991,-2.527196709309713,6.111781227379598,1.0182000398635864,-2.447542730961935
1708433598.574563,-2.1421003341674805,-1.333834246998169,-2.5271876494037073,6.111835109978475,1.0181920528411865,-2.44755465189089
1708433598.5765312,-2.142125368118286,-1.333854616885521,-2.52717096010317,6.111809479981222,1.0181920528411865,-2.4475181738482874
1708433598.5785267,-2.1421658992767334,-1.333810643558838,-2.5271082560168665,6.111785638123312,1.0181877613067627,-2.4475258032428187
1708433598.5805485,-2.142134189605713,-1.3338384342244645,-2.5271619001971644,6.111851560860433,1.0181790590286255,-2.4475300947772425
1708433598.5825424,-2.142136812210083,-1.33384624243293,-2.527138058339254,6.111731993943014,1.01816725730896,-2.447496477757589
1708433598.584535,-2.1421263217926025,-1.3338588786176224,-2.52717096010317,6.111736523896017,1.0182130336761475,-2.447496477757589
1708433598.5865316,-2.142134189605713,-1.3338711273721238,-2.5271664301501673,6.111765134125509,1.0181834697723389,-2.447496477757589
1708433598.5885303,-2.1421544551849365,-1.3338840168765564,-2.5272043387042444,6.111778485565939,1.0181553363800049,-2.4475138823138636
1708433598.5905192,-2.1421658992767334,-1.3337979328683396,-2.5271876494037073,6.111844050675192,1.0181877613067627,-2.447538439427511
1708433598.5925348,-2.1421544551849365,-1.3338840168765564,-2.5271876494037073,6.111806380539694,1.0181628465652466,-2.447496477757589
1708433598.5945303,-2.1421704292297363,-1.3338311922601243,-2.5271664301501673,6.111757266312399,1.018180251121521,-2.447538439427511
1708433598.5965164,-2.142138719558716,-1.3338149946979065,-2.5271876494037073,6.111740815430441,1.018151044845581,-2.4475751558886927
1708433598.5985215,-2.1421544551849365,-1.333842695956566,-2.5271499792682093,6.111773955612936,1.0181834697723389,-2.4474802652942103
1708433598.6005206,-2.1420958042144775,-1.333846167927124,-2.52717096010317,6.111818420677938,1.0181585550308228,-2.447538439427511
1708433598.6025233,-2.1421828269958496,-1.3338384342244645,-2.527154509221212,6.111729013710775,1.0181846618652344,-2.447545830403463
1708433598.6045594,-2.142141103744507,-1.333814115529396,-2.527191940938131,6.111752855568685,1.0181877613067627,-2.447542730961935
1708433598.6065152,-2.142174005508423,-1.3338831675103684,-2.5271921793567103,6.111794578820028,1.0181553363800049,-2.447521511708395
1708433598.6085181,-2.142125368118286,-1.3338311922601243,-2.527159039174215,6.111757266312399,1.0181387662887573,-2.4475632349597376
1708433598.610562,-2.142138719558716,-1.3338268113187333,-2.5271831194507044,6.111757266312399,1.0182000398635864,-2.447505299245016
1708433598.6125464,-2.14212965965271,-1.3338504296592255,-2.527175490056173,6.111769544869222,1.0181474685668945,-2.447472874318258
1708433598.6145082,-2.1420676708221436,-1.333802194600441,-2.5272043387042444,6.111794578820028,1.0181964635849,-2.4475095907794397
1708433598.616515,-2.142134189605713,-1.3338225942901154,-2.5271664301501673,6.1117989895637415,1.0181628465652466,-2.447521511708395
1708433598.6185489,-2.1421501636505127,-1.3338106584599991,-2.52717096010317,6.111822831421652,1.018208622932434,-2.447512451802389
1708433598.620518,-2.1421658992767334,-1.3338384193233033,-2.5271247068988245,6.1117721674735925,1.0182162523269653,-2.447533909474508
1708433598.6225033,-2.1421217918395996,-1.3338627231172104,-2.527175490056173,6.111790048867025,1.0181758403778076,-2.447500769292013
1708433598.6245227,-2.1421544551849365,-1.3339002144387742,-2.527138058339254,6.1117766974265955,1.0181758403778076,-2.4475296179400843
1708433598.626499,-2.142138719558716,-1.3338588637164612,-2.5271876494037073,6.111826169281759,1.0181387662887573,-2.447533909474508
1708433598.628514,-2.1420843601226807,-1.333841786985733,-2.5271785894977015,6.111797559052267,1.0181834697723389,-2.4475372473346155
1708433598.630518,-2.1421456336975098,-1.3338588786176224,-2.527154509221212,6.111822831421652,1.0181466341018677,-2.4475534597979944
1708433598.632519,-2.1421217918395996,-1.3338504296592255,-2.527142588292257,6.111785638123312,1.0181913375854492,-2.447500769292013
1708433598.634539,-2.1421263217926025,-1.333802194600441,-2.52717096010317,6.111813890724935,1.018195629119873,-2.447570864354269
1708433598.636519,-2.1421217918395996,-1.333760918383934,-2.527163569127218,6.111822831421652,1.018195629119873,-2.447550121937887
1708433598.6385398,-2.1421093940734863,-1.3338268262198945,-2.52717096010317,6.1117766974265955,1.018195629119873,-2.447545830403463
1708433598.6405244,-2.1421456336975098,-1.3338311922601243,-2.5271173159228724,6.111797559052267,1.0181628465652466,-2.4475083986865442
1708433598.6425126,-2.1421263217926025,-1.3338754636100312,-2.527142588292257,6.111748444824972,1.0181913375854492,-2.4475415388690394
1708433598.6445289,-2.1421592235565186,-1.3338299852660676,-2.5271289984332483,6.111760604172506,1.018232822418213,-2.447562042866842
1708433598.6465144,-2.1420843601226807,-1.3337857139161606,-2.527142588292257,6.111844050675192,1.018195629119873,-2.447516743336813
1708433598.6485302,-2.1420888900756836,-1.3337935668281098,-2.527163569127218,6.111765134125509,1.0182075500488281,-2.4475372473346155
1708433598.6505067,-2.1421139240264893,-1.3338873249343415,-2.527175490056173,6.111752855568685,1.0181869268417358,-2.4475577513324183
1708433598.6525075,-2.1421093940734863,-1.333802194600441,-2.5271127859698694,6.111760604172506,1.0182360410690308,-2.447573963795797
1708433598.6545217,-2.1421048641204834,-1.3338627082160492,-2.527168099080221,6.1117931483085535,1.0181715488433838,-2.4475773016559046
1708433598.656516,-2.142075538635254,-1.3338546764901658,-2.5271785894977015,6.111794578820028,1.0182075500488281,-2.4475372473346155
1708433598.6585066,-2.142112970352173,-1.3338063818267365,-2.5271335283862513,6.111778485565939,1.018211841583252,-2.4475653807269495
1708433598.6605234,-2.1420934200286865,-1.3338268560222168,-2.5272043387042444,6.1117989895637415,1.018232822418213,-2.4475653807269495
1708433598.6625056,-2.1421048641204834,-1.3337935519269486,-2.527201000844137,6.111785638123312,1.018195629119873,-2.4476216475116175
1708433598.6645286,-2.1421217918395996,-1.3338583421758194,-2.5271831194507044,6.111752855568685,1.018195629119873,-2.44765812555422
1708433598.666503,-2.142118215560913,-1.333834246998169,-2.5272117296801966,6.111745464592733,1.0181913375854492,-2.4476173559771937
1708433598.6685195,-2.1421263217926025,-1.3338840168765564,-2.527154509221212,6.111783015518942,1.0182031393051147,-2.4476450125323694
1708433598.6705046,-2.1420915126800537,-1.333850459461548,-2.52717096010317,6.111757266312399,1.018195629119873,-2.44771916071047
1708433598.6725204,-2.1421217918395996,-1.3338097494891663,-2.5271952787982386,6.111773955612936,1.0182446241378784,-2.4477105776416224
1708433598.6745095,-2.1421520709991455,-1.3338183772614975,-2.5271785894977015,6.111790048867025,1.018195629119873,-2.4476810137378138
1708433598.6765223,-2.1421477794647217,-1.333834246998169,-2.5271664301501673,6.111781227379598,1.0181747674942017,-2.4477997461902063
1708433598.6785138,-2.1420934200286865,-1.3338299852660676,-2.5271289984332483,6.111773955612936,1.018198847770691,-2.4478233496295374
1708433598.6805182,-2.1421432495117188,-1.3338021796992798,-2.5271876494037073,6.111761796265402,1.0181541442871094,-2.4477902094470423
1708433598.6825106,-2.1421003341674805,-1.333842695956566,-2.527196709309713,6.111781227379598,1.018195629119873,-2.44784123102297
1708433598.684509,-2.142138719558716,-1.3337898266366501,-2.5271619001971644,6.1117931483085535,1.0181913375854492,-2.4478662649737757
1708433598.6865327,-2.1421432495117188,-1.3338753444007416,-2.5271664301501673,6.1117766974265955,1.0182241201400757,-2.4478989283191126
1708433598.6885374,-2.1421263217926025,-1.333814115529396,-2.5271456877337855,6.111830699234762,1.0182197093963623,-2.4479315916644495
1708433598.6905377,-2.142138719558716,-1.3338583272746583,-2.5272250811206263,6.1117931483085535,1.018248200416565,-2.4479830900775355
1708433598.6925156,-2.1421263217926025,-1.3338627380183716,-2.5272043387042444,6.111794578820028,1.0182075500488281,-2.447970215474264
1708433598.694538,-2.1421048641204834,-1.3337941032699128,-2.5271382967578333,6.111790048867025,1.018261194229126,-2.4480066935168665
1708433598.6965272,-2.142059803009033,-1.3338754189065476,-2.527180020009176,6.111809479981222,1.0182031393051147,-2.4480422178851526
1708433598.698527,-2.1421263217926025,-1.33383001506839,-2.52717096010317,6.11180196979598,1.018198847770691,-2.4480741659747522
1708433598.7005508,-2.1421139240264893,-1.3337935221246262,-2.52717096010317,6.1117275831993005,1.018211007118225,-2.4481428305255335
1708433598.7025087,-2.1420934200286865,-1.3338225793889542,-2.5271998087512415,6.1117766974265955,1.0182849168777466,-2.448158089314596
1708433598.7045164,-2.142118215560913,-1.3338256192258378,-2.5271998087512415,6.1117663262184045,1.018227219581604,-2.4482227007495325
1708433598.7065098,-2.1421477794647217,-1.3337779206088562,-2.527175490056173,6.111844050675192,1.0182524919509888,-2.448266331349508
1708433598.7085257,-2.1421139240264893,-1.3338225495866318,-2.5272043387042444,6.111813890724935,1.0182316303253174,-2.4483652750598353
1708433598.710524,-2.1421172618865967,-1.3338097494891663,-2.527175490056173,6.111830699234762,1.0182687044143677,-2.448395315800802
1708433598.7125525,-2.1420810222625732,-1.33381840706382,-2.5271664301501673,6.111757266312399,1.0182470083236694,-2.4484885374652308
1708433598.7145178,-2.1421024799346924,-1.3337898564389725,-2.52717096010317,6.111797559052267,1.0182806253433228,-2.4485202471362513
1708433598.7165248,-2.1420507431030273,-1.333862693314888,-2.527159039174215,6.111765134125509,1.0182750225067139,-2.4486056009875696
1708433598.7185206,-2.1421139240264893,-1.333854616885521,-2.5272043387042444,6.111826169281759,1.0182762145996094,-2.448707882558004
1708433598.7205224,-2.1421308517456055,-1.3338256192258378,-2.527175490056173,6.111797559052267,1.0182795524597168,-2.4487808386432093
1708433598.7225125,-2.1420812606811523,-1.3338583272746583,-2.5271664301501673,6.111765134125509,1.0183616876602173,-2.448824469243185
1708433598.7245154,-2.142118215560913,-1.3338754040053864,-2.5271499792682093,6.111779796868124,1.0182838439941406,-2.4489083925830286
1708433598.726504,-2.1421024799346924,-1.333842695956566,-2.5271664301501673,6.111839520722189,1.01829195022583,-2.449005428944723
1708433598.7285192,-2.1420979499816895,-1.3338183921626587,-2.5272133986102503,6.111785638123312,1.0182545185089111,-2.4490962664233606
1708433598.7305236,-2.1420934200286865,-1.3338631850532074,-2.527163569127218,6.111778485565939,1.018312692642212,-2.4492021242724817
1708433598.7325208,-2.142090082168579,-1.333785669212677,-2.5271876494037073,6.111806380539694,1.0182664394378662,-2.4493451754199427
1708433598.734504,-2.142118215560913,-1.3337979030660172,-2.527126137410299,6.111769544869222,1.0182995796203613,-2.4494577089892786
1708433598.736505,-2.1421048641204834,-1.333850459461548,-2.52717096010317,6.111818420677938,1.0183125734329224,-2.449618164693014
1708433598.73858,-2.1420280933380127,-1.3338418465903779,-2.527154509221212,6.111854421883383,1.018320083618164,-2.449684445058004
1708433598.740604,-2.142073154449463,-1.3338027608445664,-2.5271876494037073,6.11176763752059,1.0183038711547852,-2.449829641972677
1708433598.7425447,-2.14206862449646,-1.333854616885521,-2.5271876494037073,6.11170648315505,1.0182876586914062,-2.4500413576709192
1708433598.7445958,-2.1420810222625732,-1.3338183921626587,-2.5271576086627405,6.111835109978475,1.01829195022583,-2.4501310030566614
1708433598.7465637,-2.1420767307281494,-1.3338268560222168,-2.5271619001971644,6.111791956215658,1.018324375152588,-2.450327459965841
1708433598.7485585,-2.1420979499816895,-1.3338312071612854,-2.5271740595446985,6.1117931483085535,1.0182876586914062,-2.450479571019308
1708433598.7505283,-2.142090082168579,-1.3337814074805756,-2.5271952787982386,6.111773955612936,1.018336296081543,-2.4506807963000696
1708433598.752542,-2.142077684402466,-1.3338505190661927,-2.5271998087512415,6.111769544869222,1.0182995796203613,-2.4508774916278284
1708433598.7545476,-2.14206862449646,-1.3338397604278107,-2.5271619001971644,6.111736404686727,1.018320083618164,-2.4510977903949183
1708433598.7565403,-2.1420865058898926,-1.3337941330722352,-2.5272043387042444,6.111757266312399,1.018336296081543,-2.4512646834002894
1708433598.7585318,-2.142054557800293,-1.3338312220624466,-2.5271785894977015,6.111752855568685,1.0183528661727905,-2.4514649550067347
1708433598.7605295,-2.142054796218872,-1.3338027757457276,-2.5271335283862513,6.111729013710775,1.018320083618164,-2.4517017046557825
1708433598.762526,-2.142066240310669,-1.3338342618993302,-2.52717096010317,6.1117379544074915,1.0183212757110596,-2.4518919626819056
1708433598.7645478,-2.142011880874634,-1.333798499112465,-2.5271921793567103,6.111713874131002,1.0183277130126953,-2.4521787802325647
1708433598.7665246,-2.1420254707336426,-1.333835483794548,-2.5272043387042444,6.111683833390035,1.0183038711547852,-2.452467981969015
1708433598.7685502,-2.1419880390167236,-1.3337984842113038,-2.5271831194507044,6.111744153290548,1.0183277130126953,-2.4527490774737757
1708433598.770534,-2.142000675201416,-1.333822564487793,-2.527180020009176,6.1116454479988,1.0183485746383667,-2.4530215899096888
1708433598.7725391,-2.1419644355773926,-1.3338140857270737,-2.5271499792682093,6.11169587352828,1.0182790756225586,-2.4533384482013147
1708433598.7745442,-2.1419758796691895,-1.3338311922601243,-2.5272117296801966,6.1116347191627405,1.018324375152588,-2.4536142984973353
1708433598.7765374,-2.1420061588287354,-1.3338798147490998,-2.5272207895862024,6.111582386284628,1.018312692642212,-2.4539261499988
1708433598.7785528,-2.1420061588287354,-1.3337574166110535,-2.5271664301501673,6.111574876099386,1.0182876586914062,-2.4542511145221155
1708433598.7805476,-2.1420319080352783,-1.3337770712426682,-2.527142588292257,6.111497270851888,1.0183038711547852,-2.454624954854147
1708433598.7825308,-2.1420071125030518,-1.3338384342244645,-2.527191940938131,6.1114776013191126,1.018296480178833,-2.4549925963031214
1708433598.7845602,-2.1419451236724854,-1.333810643558838,-2.5271619001971644,6.111462819367208,1.0183038711547852,-2.455380980168478
1708433598.7865329,-2.141937017440796,-1.3338113737157364,-2.527196709309713,6.111462819367208,1.0183038711547852,-2.455770794545309
1708433598.7885783,-2.141949415206909,-1.3338599813035508,-2.527186457310812,6.111368644028463,1.0182876586914062,-2.4561248461352747
1708433598.7905278,-2.141972064971924,-1.3338268262198945,-2.5271456877337855,6.111386644631185,1.0183244943618774,-2.456594530736105
1708433598.7925177,-2.1419177055358887,-1.333782286649086,-2.52717096010317,6.111338484078207,1.01827073097229,-2.4570613543139856
1708433598.7945197,-2.1419131755828857,-1.333781362777092,-2.5271831194507044,6.111322271614828,1.018308162689209,-2.4574723879443567
1708433598.7965271,-2.1418778896331787,-1.3338268411210557,-2.5271876494037073,6.111261117249288,1.0182952880859375,-2.457982365285055
1708433598.7985184,-2.141845464706421,-1.3337736439755936,-2.527217690144674,6.111307370453634,1.0182952880859375,-2.4584694544421595
1708433598.8005161,-2.1418497562408447,-1.3337950867465516,-2.527154509221212,6.11127136924819,1.0183320045471191,-2.459036652241842
1708433598.802518,-2.1418256759643555,-1.3337941330722352,-2.5271502176867884,6.111260998039999,1.0183115005493164,-2.4595678488360804
1708433598.8045247,-2.1418135166168213,-1.3338149946979065,-2.527154509221212,6.111207353859701,1.0182876586914062,-2.460120979939596
1708433598.8065143,-2.1417760848999023,-1.3337865483811875,-2.5271921793567103,6.11119698265151,1.0183115005493164,-2.460682217274801
1708433598.8085444,-2.141800880432129,-1.333802731042244,-2.5271619001971644,6.111083137779989,1.018324375152588,-2.461210314427511
1708433598.810523,-2.1417958736419678,-1.3337386560491105,-2.527159039174215,6.111036646157064,1.018336296081543,-2.461806599293844
1708433598.812576,-2.1417622566223145,-1.3337670725635071,-2.5271831194507044,6.111071097641744,1.0182790756225586,-2.462384287511007
1708433598.8146234,-2.1417462825775146,-1.3337105971625824,-2.52717096010317,6.111015784531393,1.0183451175689697,-2.4629762808429163
1708433598.816575,-2.141719102859497,-1.3336975884488602,-2.527262274418966,6.11093949058608,1.0183157920837402,-2.4636009375201624
1708433598.8185678,-2.141723394393921,-1.3337019842914124,-2.527154509221212,6.110907900124349,1.0183485746383667,-2.464294974003927
1708433598.8205333,-2.1417043209075928,-1.3337799173644562,-2.5272043387042444,6.110860335617819,1.0183320045471191,-2.464973036442892
1708433598.8225236,-2.1416263580322266,-1.3336942952922364,-2.5271876494037073,6.110841023712911,1.0183277130126953,-2.4657307306872767
1708433598.8245556,-2.1415934562683105,-1.3336661917022248,-2.5271876494037073,6.110795962601461,1.018282175064087,-2.4663596788989466
1708433598.8265154,-2.141615629196167,-1.3336747598699112,-2.5271619001971644,6.110731947212972,1.0183157920837402,-2.4671531359301966
1708433598.8285198,-2.14152193069458,-1.333596796994545,-2.5271785894977015,6.110647904663839,1.0183442831039429,-2.4678812662707728
1708433598.8305209,-2.141510486602783,-1.3336711537889023,-2.5271998087512415,6.110649812012472,1.0183647871017456,-2.4686418215381067
1708433598.83251,-2.141536235809326,-1.3336711388877411,-2.5271907488452356,6.11059735992507,1.0183560848236084,-2.469412151967184
1708433598.8345172,-2.1414380073547363,-1.3336463433555146,-2.5272160212146204,6.110495793610372,1.018369197845459,-2.470114294682638
1708433598.8365297,-2.141455888748169,-1.3336225611022492,-2.5271499792682093,6.11048053482131,1.0183442831039429,-2.4709773699389856
1708433598.83853,-2.141406297683716,-1.3336387437633057,-2.5271576086627405,6.110364067345419,1.0182908773422241,-2.471699062977926
1708433598.840548,-2.1413302421569824,-1.3336189550212403,-2.5272370020495813,6.11033986785964,1.0183683633804321,-2.4725406805621546
1708433598.8425283,-2.1413302421569824,-1.3336231124452134,-2.5271785894977015,6.110298383026876,1.0183967351913452,-2.473377291356222
1708433598.8445292,-2.1413357257843018,-1.3335748773864289,-2.5272043387042444,6.110250460892477,1.0183805227279663,-2.4742518107043665
1708433598.8465106,-2.141242027282715,-1.3336082261851807,-2.5271785894977015,6.110195386200704,1.0184086561203003,-2.475105587636129
1708433598.8485303,-2.1412270069122314,-1.3335791540196915,-2.5271697680102747,6.110045897751608,1.0183848142623901,-2.476046148930685
1708433598.8505406,-2.1412270069122314,-1.3335712564042588,-2.5272443930255335,6.109990107804098,1.0184118747711182,-2.4769328276263636
1708433598.852521,-2.1412153244018555,-1.333519072537758,-2.5272236506091517,6.109936702042379,1.0184197425842285,-2.4777849356280726
1708433598.854523,-2.1411802768707275,-1.3335798245719452,-2.5271831194507044,6.109823095589437,1.0184110403060913,-2.4787076155291956
1708433598.8565152,-2.1411540508270264,-1.3335318279317399,-2.5272071997271937,6.109701859741964,1.0184482336044312,-2.4796558062182825
1708433598.8585382,-2.141104221343994,-1.333551750784256,-2.5272355715381067,6.109650957375326,1.0184721946716309,-2.4806247393237513
1708433598.8605108,-2.1410181522369385,-1.3335276258042832,-2.527198139821188,6.1095430729682825,1.0184636116027832,-2.4816694895373743
1708433598.8625205,-2.1410317420959473,-1.3335071516088028,-2.5272026697741907,6.10941909530715,1.0185322761535645,-2.482678000126974
1708433598.8645191,-2.1410133838653564,-1.3335084182075043,-2.5272236506091517,6.109380471497335,1.0185604095458984,-2.4836939016925257
1708433598.8665152,-2.140899181365967,-1.3335276407054444,-2.527231041585104,6.109244453697958,1.0186132192611694,-2.4847353140460413
1708433598.868545,-2.1408708095550537,-1.3334997308305283,-2.527250353490011,6.109132158547201,1.0186002254486084,-2.4857500235186976
1708433598.870545,-2.1408932209014893,-1.3334628504565735,-2.527213160191671,6.109039890557089,1.0186611413955688,-2.486871067677633
1708433598.8725052,-2.140815019607544,-1.3334551763585587,-2.527254883443014,6.108945596009054,1.018660306930542,-2.487952534352438
1708433598.8745031,-2.140825033187866,-1.3334267449430008,-2.527254883443014,6.108854400902548,1.0187005996704102,-2.4891496340381067
1708433598.8765302,-2.140794515609741,-1.333431066279747,-2.527288262044088,6.108725654869833,1.0187125205993652,-2.4903138319598597
1708433598.8785083,-2.1406891345977783,-1.3334115755609055,-2.5272911230670374,6.108671891480245,1.018753170967102,-2.4915667215930384
1708433598.8805454,-2.1406683921813965,-1.3334191304496308,-2.5272820631610315,6.108535754471578,1.0187681913375854,-2.4927590529071253
1708433598.8825538,-2.140645742416382,-1.3334320050529023,-2.5273600260363978,6.108393895417013,1.0188250541687012,-2.494059387837545
1708433598.884522,-2.1406073570251465,-1.3333919805339356,-2.527355496083395,6.108299600868978,1.018874168395996,-2.4952667395221155
1708433598.8865063,-2.1405301094055176,-1.333371416931488,-2.527417246495382,6.108138310700216,1.0188567638397217,-2.496558968220846
1708433598.888533,-2.140444278717041,-1.3334170591882248,-2.5273824373828333,6.1080020544822595,1.0188524723052979,-2.497840944920675
1708433598.8905182,-2.1404292583465576,-1.3333559942296525,-2.5274322668658655,6.10788260677413,1.018921136856079,-2.4990771452533167
1708433598.892511,-2.14034104347229,-1.333355189566948,-2.5274110476123255,6.107802021294393,1.0189006328582764,-2.5004661718951624
1708433598.8945243,-2.140289783477783,-1.33335596442733,-2.5274680296527308,6.10770200470046,1.0189409255981445,-2.501878086720602
1708433598.8965285,-2.1402218341827393,-1.3333644580892106,-2.527466360722677,6.1075912592704675,1.0189976692199707,-2.5032153765307825
1708433598.8985255,-2.1401405334472656,-1.3332878214171906,-2.5274997393237513,6.107382046967306,1.019005298614502,-2.504559580479757
1708433598.900515,-2.140052080154419,-1.3333074015429993,-2.5275772253619593,6.107344376831808,1.0190131664276123,-2.505958382283346
1708433598.902533,-2.1399929523468018,-1.3332963746837159,-2.527533833180563,6.107159364014425,1.0190534591674805,-2.507350746785299
1708433598.9045153,-2.139970064163208,-1.3332150888494034,-2.5275383631335657,6.107003557472982,1.0190775394439697,-2.5087009111987513
1708433598.906524,-2.1399197578430176,-1.3332160723260422,-2.527591053639547,6.10683165767745,1.019057035446167,-2.5100670496570032
1708433598.9085245,-2.139801263809204,-1.3332322549870987,-2.5276766459094446,6.106724250107565,1.0191007852554321,-2.5115330854998987
1708433598.9105263,-2.1397454738616943,-1.3332080853036423,-2.5276675860034388,6.10656105259017,1.0191779136657715,-2.512951199208395
1708433598.9125896,-2.1397156715393066,-1.3331684482148667,-2.527703348790304,6.106429445534506,1.019237995147705,-2.514501158391134
1708433598.9145234,-2.139634370803833,-1.333210365181305,-2.52778131166567,6.106258022576132,1.0192830562591553,-2.5159693400012415
1708433598.9165597,-2.13950514793396,-1.3331366044333954,-2.5277259985553187,6.1061309454734705,1.019305944442749,-2.517461363469259
1708433598.9185524,-2.139479637145996,-1.333169014458992,-2.527803961430685,6.105905043869772,1.0193541049957275,-2.5189808050738733
1708433598.9205222,-2.1394002437591553,-1.3331134629300614,-2.527816120778219,6.105774986534872,1.0193989276885986,-2.520548407231466
1708433598.9225073,-2.1393625736236572,-1.3330640506795426,-2.527844492589132,6.1055792448814294,1.0194220542907715,-2.5222190062152308
1708433598.924519,-2.1392483711242676,-1.3330615174821396,-2.5278969446765345,6.105378854065695,1.0195038318634033,-2.52379280725588
1708433598.9265642,-2.1390938758850098,-1.3330529493144532,-2.5279582182513636,6.10523675659255,1.0195311307907104,-2.5254839102374476
1708433598.928524,-2.1390442848205566,-1.3330416840365906,-2.527881924306051,6.105069148331442,1.0195543766021729,-2.5271683374988
1708433598.930544,-2.138951539993286,-1.3330212396434327,-2.5279222170459192,6.104849564820089,1.019643783569336,-2.5288458506213587
1708433598.9325404,-2.138909101486206,-1.332976595764496,-2.5279510656939905,6.104620921402731,1.019687294960022,-2.5305994192706507
1708433598.9345317,-2.1387882232666016,-1.3329408925822754,-2.5279629866229456,6.104458081513204,1.0197148323059082,-2.532369915639059
1708433598.936532,-2.138704538345337,-1.3329494905522843,-2.528010908757345,6.104299413948812,1.0198034048080444,-2.5340922514544886
1708433598.9385202,-2.138654947280884,-1.332941861157753,-2.528027359639303,6.104119884758749,1.0198678970336914,-2.5357652346240442
1708433598.9405422,-2.1385293006896973,-1.332885355954506,-2.5280349890338343,6.1039360640342615,1.0198590755462646,-2.537513796483175
1708433598.942537,-2.138432025909424,-1.332820640211441,-2.5280707518206995,6.103753912239828,1.0199639797210693,-2.5392800013171595
1708433598.9445121,-2.138357162475586,-1.3328410548022767,-2.5280829111682337,6.103483426361837,1.020040512084961,-2.540962521229879
1708433598.9465313,-2.1382334232330322,-1.3328170788339158,-2.528144184743063,6.103319036751547,1.0200918912887573,-2.5427938143359583
1708433598.9485207,-2.1381280422210693,-1.3327844601920624,-2.5281670729266565,6.103079664498129,1.0201566219329834,-2.5445500055896204
1708433598.9505146,-2.1380743980407715,-1.332887591128685,-2.5281456152545374,6.102876531868734,1.0202536582946777,-2.5464299360858362
1708433598.9526103,-2.137929677963257,-1.3328309518149872,-2.5282400290118616,6.102701771050253,1.0202677249908447,-2.5481305758105677
1708433598.9545472,-2.1378543376922607,-1.3327864569476624,-2.528217617665426,6.102424847870626,1.0202834606170654,-2.549901072178976
1708433598.956542,-2.13777494430542,-1.3327258986285706,-2.5282793680774134,6.102230655937948,1.0203925371170044,-2.5517662207232874
1708433598.9585571,-2.1376469135284424,-1.3327136647752305,-2.528327290211813,6.102003323822775,1.0204732418060303,-2.5536120573626917
1708433598.9604998,-2.1375391483306885,-1.3327189099839707,-2.528360191975729,6.101788270264425,1.0205204486846924,-2.5555174986468714
1708433598.9625628,-2.1374595165252686,-1.332718865280487,-2.5283497015582483,6.101552116661825,1.0205968618392944,-2.557390276585714
1708433598.9645326,-2.1373112201690674,-1.3326465499452134,-2.5284441153155726,6.101296293526449,1.0206533670425415,-2.559289042149679
1708433598.9665325,-2.1372530460357666,-1.3326180142215271,-2.5284560362445276,6.101079690247335,1.0206842422485352,-2.5612202326404017
1708433598.9685116,-2.13712477684021,-1.332617999320366,-2.528501097355978,6.100826608925619,1.0207695960998535,-2.5631845633136194
1708433598.9705167,-2.136995792388916,-1.332610474233963,-2.5284908453570765,6.1005921242530725,1.0208090543746948,-2.5651708284961146
1708433598.9725497,-2.1369004249572754,-1.3326147061637421,-2.528564516698019,6.100358831673422,1.020885705947876,-2.567150417958395
1708433598.9745212,-2.136793613433838,-1.3325992089561005,-2.528546396886007,6.100199210434713,1.0209128856658936,-2.569040362034933
1708433598.976499,-2.136660099029541,-1.3325387102416535,-2.5286195913897913,6.100000488549032,1.0210089683532715,-2.5709691683398646
1708433598.978536,-2.1365532875061035,-1.332510621552803,-2.528658692036764,6.099722134857931,1.0210983753204346,-2.572791878377096
1708433598.9804983,-2.13643741607666,-1.3325072091868897,-2.528687063847677,6.099429237633505,1.0211913585662842,-2.5747514406787317
1708433598.9825387,-2.136359214782715,-1.3324821305326005,-2.528750244771139,6.099239098816671,1.021230697631836,-2.576667372380392
1708433598.9845212,-2.136223077774048,-1.3324464571527024,-2.5287426153766077,6.099004733353414,1.0212863683700562,-2.5786474386798304
1708433598.9865627,-2.136094331741333,-1.332410679464676,-2.528792206441061,6.098746049195089,1.021329402923584,-2.580498758946554
1708433598.9885492,-2.136018991470337,-1.3324354451945801,-2.5288236776935022,6.098462092667379,1.0214471817016602,-2.582615677510397
1708433598.9905355,-2.135920763015747,-1.3324396920255204,-2.528904740010397,6.0981812355811975,1.0215072631835938,-2.5846670309649866
1708433598.9925792,-2.135796308517456,-1.332383246426918,-2.528886620198385,6.097935902863302,1.0215632915496826,-2.586698118840353
1708433598.9945595,-2.135671854019165,-1.3323634427836915,-2.5289481321917933,6.097738849907675,1.0216515064239502,-2.588745419179098
1708433598.9965217,-2.1355090141296387,-1.332335354094841,-2.528999153767721,6.097408520966329,1.0217280387878418,-2.5907939116107386
1708433598.9985194,-2.135453462600708,-1.3323634278825303,-2.529076878224508,6.09716163852767,1.0217466354370117,-2.592959705983297
1708433599.0005195,-2.135268449783325,-1.3322672259858628,-2.5290754477130335,6.0968909142311,1.0218560695648193,-2.594990078602926
1708433599.0025342,-2.1351776123046875,-1.3322387051633378,-2.5291040579425257,6.096660840302267,1.0219027996063232,-2.597158972417013
1708433599.0045433,-2.135066509246826,-1.3322195422700425,-2.529130999241964,6.096351611405172,1.0219762325286865,-2.599222723637716
1708433599.0065076,-2.1349587440490723,-1.3322440099767228,-2.5291252771960657,6.096085774689474,1.0220319032669067,-2.601327959691183
1708433599.0085561,-2.1348235607147217,-1.3321877282908936,-2.529240671788351,6.095856773644247,1.022071361541748,-2.603363577519552
1708433599.0105078,-2.1347320079803467,-1.3321517717889328,-2.529243771229879,6.095551836281576,1.0222008228302002,-2.6053393522845667
1708433599.0125556,-2.1345784664154053,-1.3322049689343949,-2.5292914549456995,6.095255481987753,1.0222809314727783,-2.6074135939227503
1708433599.0145519,-2.1344637870788574,-1.3321032238057633,-2.5292988459216517,6.0950509188468835,1.0223444700241089,-2.609561030064718
1708433599.0165758,-2.1342954635620117,-1.3320921671441575,-2.529409948979513,6.094799983292379,1.022420048713684,-2.61157471338381
1708433599.018581,-2.134187936782837,-1.332060382967331,-2.5294039885150355,6.094472396164694,1.0224757194519043,-2.6137715021716517
1708433599.0205328,-2.134052276611328,-1.3320517998984833,-2.529414478932516,6.094216811447897,1.0225443840026855,-2.615929667149679
1708433599.0225906,-2.133941173553467,-1.3320485365441819,-2.529447619115011,6.093967187195577,1.0226616859436035,-2.6180949846850794
1708433599.0245376,-2.1338095664978027,-1.3320042055896302,-2.5294762293445032,6.093568074494161,1.0226922035217285,-2.6202669779406946
1708433599.0265224,-2.1337063312530518,-1.331988663678505,-2.529522482548849,6.093385684281149,1.0227980613708496,-2.622403685246603
1708433599.0285509,-2.133492946624756,-1.3320341271213074,-2.529604736958639,6.093103515892782,1.022849440574646,-2.6246426741229456
1708433599.0305414,-2.1334095001220703,-1.3319039654782792,-2.5295899550067347,6.092741596489706,1.0229216814041138,-2.6268566290484827
1708433599.0325696,-2.1332614421844482,-1.3319050085595627,-2.52964693704714,6.092433678894796,1.0229655504226685,-2.629080120717184
1708433599.034528,-2.133195638656616,-1.331921176319458,-2.5296996275531214,6.092127191811361,1.0230300426483154,-2.6312535444842737
1708433599.036558,-2.1330106258392334,-1.3318434816649933,-2.5297399202929896,6.091840016632833,1.023122787475586,-2.6335821787463587
1708433599.0385425,-2.1329281330108643,-1.3318569672158738,-2.529764000569479,6.091561901360311,1.0231785774230957,-2.635693136845724
1708433599.0405478,-2.1327359676361084,-1.331841768031456,-2.5297611395465296,6.091241943627157,1.0232670307159424,-2.6378820578204554
1708433599.0425403,-2.1326284408569336,-1.3317813289216538,-2.5298147837268274,6.0910178301628015,1.0233184099197388,-2.64001971880068
1708433599.0445194,-2.1324872970581055,-1.3317614656737824,-2.52988845506777,6.090623366623678,1.0234318971633911,-2.6422622839557093
1708433599.0465415,-2.1322810649871826,-1.3317081791213532,-2.52991229692568,6.090373861580648,1.02345871925354,-2.6444128195392054
1708433599.0485098,-2.1321699619293213,-1.3316814464381714,-2.5299602190600794,6.090104448586263,1.0235140323638916,-2.6467397848712366
1708433599.0505054,-2.1320855617523193,-1.3316453260234375,-2.529937807713644,6.089759099274435,1.023590326309204,-2.648933712636129
1708433599.0525413,-2.131941556930542,-1.331677721147873,-2.5299859682666224,6.089496362000265,1.0236550569534302,-2.6513190905200403
1708433599.0545185,-2.1318087577819824,-1.3316383820823212,-2.5300262610064905,6.089184987335958,1.0237480401992798,-2.6536491552936
1708433599.056574,-2.13167405128479,-1.3315894913724442,-2.5300713221179407,6.088887679367819,1.0237547159194946,-2.656020466481344
1708433599.0585237,-2.1315014362335205,-1.3315214228681107,-2.530107323323385,6.088605272560873,1.0238356590270996,-2.658360544835226
1708433599.0605206,-2.1314072608947754,-1.3315831583789368,-2.5301643053637903,6.0882736323173425,1.0238419771194458,-2.6606813112842005
1708433599.062526,-2.1312029361724854,-1.3315233153155823,-2.5301836172686976,6.088020908623495,1.0239143371582031,-2.6629675070392054
1708433599.0645242,-2.131087303161621,-1.331531749372818,-2.530248467122213,6.087658870011129,1.0239830017089844,-2.6651907602893274
1708433599.0665288,-2.130951166152954,-1.331425742512085,-2.5302274862872522,6.0872899172599695,1.0240521430969238,-2.667438570653097
1708433599.0685267,-2.130861520767212,-1.3314799231341858,-2.5302720705615442,6.087033140450277,1.024107575416565,-2.6696532408343714
1708433599.0705292,-2.1306586265563965,-1.3313820672086258,-2.53031570116152,6.086724865227499,1.0241601467132568,-2.672000233327047
1708433599.0725484,-2.1305224895477295,-1.3313259792378922,-2.5303428808795374,6.0863932249839685,1.0241743326187134,-2.6742566267596644
1708433599.0745575,-2.1303999423980713,-1.3313311052373429,-2.5303593317614954,6.0861151097114465,1.0242680311203003,-2.676553551350729
1708433599.0765786,-2.1302003860473633,-1.3313232076219101,-2.5303877035724085,6.08580111244277,1.0242912769317627,-2.6788480917560022
1708433599.0785291,-2.1301662921905518,-1.3312345457128067,-2.530381743107931,6.085460412293234,1.0244178771972656,-2.681197468434469
1708433599.0805068,-2.130018472671509,-1.3312345308116456,-2.530405584965841,6.08514033535079,1.0244160890579224,-2.6836755911456507
1708433599.0825431,-2.1299118995666504,-1.3311658215573807,-2.5304299036609095,6.084929930954733,1.0244683027267456,-2.6859408060656946
1708433599.0845325,-2.1297059059143066,-1.331228570347168,-2.5304792563067835,6.084626066475668,1.024488091468811,-2.688317839299337
1708433599.086541,-2.1295909881591797,-1.3311838817647477,-2.53049880663027,6.08425651767806,1.0245678424835205,-2.6905985514270228
1708433599.0885236,-2.1294538974761963,-1.3311766696027298,-2.530518356953756,6.083987939148702,1.0245962142944336,-2.6929224173175257
1708433599.09052,-2.1293447017669678,-1.331107185488083,-2.530567471181051,6.083702313690939,1.02469801902771,-2.6952417532550257
1708433599.0925534,-2.129249334335327,-1.3311653447202225,-2.5305617491351526,6.083356725960531,1.024659514427185,-2.6975365320788782
1708433599.094515,-2.1290714740753174,-1.3310312044671555,-2.5305736700641077,6.083045828133383,1.0247730016708374,-2.6998215357409876
1708433599.0965424,-2.1289072036743164,-1.3310277473977585,-2.530618731175558,6.082763659745016,1.0247437953948975,-2.702042881642477
1708433599.098541,-2.1288626194000244,-1.330983282332756,-2.530633513127462,6.0824646828468225,1.024873971939087,-2.7042444388019007
1708433599.100529,-2.1287004947662354,-1.3309428852847596,-2.530654493962423,6.0821746466453455,1.0248641967773438,-2.7064810434924524
1708433599.1025581,-2.1285665035247803,-1.3309972149184723,-2.5306289831744593,6.081824528961935,1.0249578952789307,-2.708810631428854
1708433599.1045377,-2.128465414047241,-1.3309038442424317,-2.5306742827044886,6.081616866379537,1.0249894857406616,-2.711139742528097
1708433599.1065574,-2.128330707550049,-1.3309288781932374,-2.5306862036334437,6.081313359528341,1.0250463485717773,-2.713454548512594
1708433599.108541,-2.128174304962158,-1.330864430671074,-2.530731264744894,6.080989348679342,1.0250498056411743,-2.715747658406393
1708433599.1105566,-2.1280832290649414,-1.330860198741295,-2.530713144932882,6.080739486008444,1.0250728130340576,-2.7180782000171106
1708433599.1126049,-2.1279337406158447,-1.33078786850486,-2.530771557484762,6.080428468972006,1.0250849723815918,-2.7203591505633753
1708433599.1145265,-2.127800941467285,-1.330801637177803,-2.530783716832296,6.080099570542135,1.0251119136810303,-2.7227495352374476
1708433599.1165822,-2.12770676612854,-1.3308134985021134,-2.5307491461383265,6.0798590061958215,1.0251612663269043,-2.7251156012164515
1708433599.1185431,-2.127629518508911,-1.330761269932129,-2.5307610670672815,6.079539167671957,1.0252103805541992,-2.727344576512472
1708433599.1205466,-2.127488613128662,-1.3307050329497834,-2.5308240095721644,6.0793343661125085,1.0252087116241455,-2.7295687834369105
1708433599.1225665,-2.1274025440216064,-1.3306889098933716,-2.5308435598956507,6.079008090287008,1.0252130031585693,-2.7318084875689905
1708433599.1245193,-2.127195119857788,-1.3307016652873536,-2.5307942072497767,6.078737723618307,1.025261640548706,-2.733994785939352
1708433599.1265504,-2.127171039581299,-1.3306405705264588,-2.530834738408224,6.0784822581108,1.025269627571106,-2.7363553682910364
1708433599.1285229,-2.126981735229492,-1.330674336557724,-2.530818287526266,6.078153240471639,1.025280237197876,-2.7385686079608362
1708433599.1305237,-2.1268670558929443,-1.3306057912162323,-2.530846659337179,6.077932226448812,1.0253252983093262,-2.7408862749682825
1708433599.1325474,-2.126725435256958,-1.3305535179427643,-2.530792776738302,6.0776944039161584,1.025357723236084,-2.7431967894183558
1708433599.1345222,-2.1265816688537598,-1.330525518660881,-2.530842129384176,6.077346193581381,1.025377869606018,-2.7455442587481897
1708433599.1365528,-2.12648606300354,-1.3305459481528779,-2.530851189290182,6.077120411186971,1.0254137516021729,-2.7478376070605677
1708433599.1385238,-2.1263747215270996,-1.330530972485878,-2.530846659337179,6.076864945679464,1.0253889560699463,-2.750080649052755
1708433599.140524,-2.126277208328247,-1.3304460805705567,-2.530834738408224,6.076618182450094,1.0254137516021729,-2.752455536519186
1708433599.1425416,-2.126152515411377,-1.330459014778473,-2.53083306947817,6.076322543412008,1.0254418849945068,-2.754700009022848
1708433599.1445224,-2.1260616779327393,-1.3303324592164536,-2.530875031148092,6.076003896981039,1.0254244804382324,-2.7569590250598353
1708433599.1465373,-2.12589955329895,-1.330346242790558,-2.53083306947817,6.075733172684469,1.0254288911819458,-2.7592604796039026
1708433599.1485627,-2.1257760524749756,-1.3303385537913819,-2.53089148203005,6.075473296433248,1.0254781246185303,-2.761430565510885
1708433599.1505191,-2.125680685043335,-1.3303070676377793,-2.530837599431173,6.0752073405082605,1.0254371166229248,-2.7636285463916224
1708433599.1525426,-2.1255781650543213,-1.330262453561165,-2.5308871904956263,6.0749395964439294,1.0254738330841064,-2.7658336798297327
1708433599.1545146,-2.125419855117798,-1.330209196811058,-2.5308406988727015,6.0747049925620935,1.0254545211791992,-2.7680447737323206
1708433599.1565497,-2.1253468990325928,-1.330207036142685,-2.5308406988727015,6.0744372484977625,1.0254456996917725,-2.7702470461474817
1708433599.1585352,-2.1252355575561523,-1.3301624965718766,-2.5308614412890833,6.074223744660177,1.0254287719726562,-2.7725284735309046
1708433599.1605475,-2.1251347064971924,-1.3301797968200226,-2.530854050313131,6.073914038925924,1.0254707336425781,-2.7747283617602747
1708433599.162546,-2.1249570846557617,-1.330113561158516,-2.5308449904071253,6.073695766716757,1.0254456996917725,-2.7770708242999476
1708433599.1645136,-2.124866008758545,-1.330115632419922,-2.5308406988727015,6.073375928192892,1.0254664421081543,-2.779304806386129
1708433599.166522,-2.1247875690460205,-1.3301113110831757,-2.530863110219137,6.073222029000082,1.0254576206207275,-2.7816453615771692
1708433599.168519,-2.1246867179870605,-1.3301123243621369,-2.5308826605426233,6.072947132378378,1.0254502296447754,-2.7839329878436487
1708433599.1705372,-2.1246254444122314,-1.3300806146911164,-2.5309158007251185,6.072637426644125,1.0254244804382324,-2.786168638859884
1708433599.1725311,-2.1244349479675293,-1.3300644171288987,-2.5308781305896204,6.072453367501058,1.0254371166229248,-2.7884419600116175
1708433599.1745217,-2.1243555545806885,-1.330019773249962,-2.5309036413775843,6.072238433151998,1.0254170894622803,-2.790593926106588
1708433599.176514,-2.1242966651916504,-1.3299429726651688,-2.5308826605426233,6.071982967644491,1.0254170894622803,-2.792824093495504
1708433599.178507,-2.1241605281829834,-1.330016390686371,-2.530870501195089,6.071722972183981,1.0254456996917725,-2.79500919977297
1708433599.1805186,-2.1240732669830322,-1.3299558770707627,-2.5308077971087855,6.071471798210897,1.0254008769989014,-2.7971800009356897
1708433599.1825242,-2.1239449977874756,-1.3299525839141388,-2.5308614412890833,6.071307408600607,1.025421380996704,-2.799320999776022
1708433599.1845617,-2.1238291263580322,-1.3299613010934372,-2.530870501195089,6.07101725318984,1.0254781246185303,-2.801521126423971
1708433599.1865382,-2.123741865158081,-1.329907940035202,-2.5308781305896204,6.070794570236959,1.0254299640655518,-2.803695265446798
1708433599.1885355,-2.123579978942871,-1.3298721623471756,-2.5308871904956263,6.07055555561141,1.0254501104354858,-2.8058489004718226
1708433599.1905289,-2.1235592365264893,-1.3299013686231156,-2.530870501195089,6.070307242661276,1.025425672531128,-2.8080979029284876
1708433599.1925461,-2.123429775238037,-1.3298440885594864,-2.5308449904071253,6.070147144585409,1.025421380996704,-2.810298506413595
1708433599.194547,-2.1233434677124023,-1.329857052569725,-2.5308659712420862,6.0698619959648035,1.0254502296447754,-2.812497679387228
1708433599.1965168,-2.123239278793335,-1.3298166555217286,-2.530875031148092,6.069646465569296,1.0254051685333252,-2.814721409474508
1708433599.19852,-2.123122453689575,-1.329791785483696,-2.530821148549215,6.069444763451376,1.0254051685333252,-2.81678015390505
1708433599.2005534,-2.1229820251464844,-1.3298166704228898,-2.530900541936056,6.06915961483077,1.025409460067749,-2.8188393751727503
1708433599.202528,-2.122891902923584,-1.3297925752452393,-2.530854050313131,6.0689676878745935,1.0254019498825073,-2.820984427128927
1708433599.2045143,-2.122828722000122,-1.3298176389983674,-2.53083306947817,6.068762647896566,1.0253525972366333,-2.8230674902545374
1708433599.206546,-2.122683525085449,-1.329736204152443,-2.5308449904071253,6.068567263870992,1.0253766775131226,-2.825120274220602
1708433599.2085207,-2.1226513385772705,-1.3297895056060334,-2.5308826605426233,6.06838487365798,1.0253984928131104,-2.8271730581866663
1708433599.2105193,-2.122471332550049,-1.329731897716858,-2.5309036413775843,6.06822024562911,1.0253403186798096,-2.8291688601123255
1708433599.2125225,-2.122417688369751,-1.32969522595916,-2.5308659712420862,6.068009722023763,1.0253734588623047,-2.8312459627734583
1708433599.2145517,-2.122284412384033,-1.329684005384781,-2.530854050313131,6.067794430046835,1.0253984928131104,-2.833289448414938
1708433599.2165568,-2.122164011001587,-1.3297242683223267,-2.5308948198901575,6.067603575974264,1.025344729423523,-2.835367504750387
1708433599.2185256,-2.1220571994781494,-1.3296925884536286,-2.5308569113360804,6.067423927574911,1.025357723236084,-2.8374667803393763
1708433599.2205176,-2.1220107078552246,-1.3297124368003388,-2.5308781305896204,6.0672610876853845,1.025357723236084,-2.839522663746969
1708433599.2225368,-2.121875524520874,-1.329717831020691,-2.5308449904071253,6.0670087216194055,1.0253210067749023,-2.841595236455099
1708433599.224517,-2.121762275695801,-1.3297743064216156,-2.5308826605426233,6.066805112152853,1.0253047943115234,-2.843673292790548
1708433599.2265356,-2.1216421127319336,-1.3297534745982666,-2.5308781305896204,6.066627371102133,1.0253384113311768,-2.8456955591784876
1708433599.2285094,-2.1215343475341797,-1.32970483720813,-2.5308614412890833,6.066398727684774,1.0252478122711182,-2.847766939793722
1708433599.230532,-2.1214346885681152,-1.3296925884536286,-2.5308495203601282,6.066223609238424,1.0252933502197266,-2.8498030344592493
1708433599.2325344,-2.121347188949585,-1.3296850484660645,-2.5308781305896204,6.065978872566976,1.025235652923584,-2.8517783323871058
1708433599.2345507,-2.1212587356567383,-1.3297372621348877,-2.5308359305011194,6.065771329193868,1.0252771377563477,-2.8537679354297083
1708433599.2365713,-2.1211655139923096,-1.3297167730382462,-2.5308736006366175,6.06557987907485,1.0252728462219238,-2.8557260672198694
1708433599.2385497,-2.1210408210754395,-1.3296962541392823,-2.5309022108661097,6.06547902801589,1.0253020524978638,-2.85777718225588
1708433599.2405424,-2.1208460330963135,-1.3297502261451264,-2.5308781305896204,6.065244304924764,1.0252771377563477,-2.859702173863546
1708433599.2425401,-2.1207966804504395,-1.3297253412059327,-2.5308736006366175,6.065023648529806,1.0253099203109741,-2.8616629282580774
1708433599.2445688,-2.1207003593444824,-1.3296882969192048,-2.530921522771017,6.064860331803121,1.0252846479415894,-2.8635643164264124
1708433599.2465189,-2.12056565284729,-1.3297167879394074,-2.5309277216540735,6.064657079964437,1.0252573490142822,-2.865547482167379
1708433599.2485523,-2.1204328536987305,-1.3297700148871918,-2.530909601842062,6.064449536591329,1.0252739191055298,-2.867504898701803
1708433599.2505283,-2.12030029296875,-1.3297404956868668,-2.530916992818014,6.064185249596395,1.0252609252929688,-2.869410816823141
1708433599.2525413,-2.120229721069336,-1.3297657084516068,-2.530921522771017,6.064059483795919,1.025248646736145,-2.871425453816549
1708433599.254518,-2.120065450668335,-1.3297243130258103,-2.530928913746969,6.063819038658895,1.0252728462219238,-2.873460117970602
1708433599.2565699,-2.119978904724121,-1.329801083808281,-2.5309816042529505,6.063675749092855,1.0253143310546875,-2.875416103993551
1708433599.2585282,-2.1198439598083496,-1.3298054200461884,-2.5310071150409144,6.0634516356285,1.0253020524978638,-2.877430025731222
1708433599.2605183,-2.1197359561920166,-1.3297968071750184,-2.5310357252704065,6.063261735230245,1.0252573490142822,-2.8793402353869837
1708433599.2625453,-2.119588613510132,-1.3298295152238389,-2.5310431162463587,6.063056695252218,1.0252858400344849,-2.8811402956592005
1708433599.2645311,-2.1194844245910645,-1.3298091304353257,-2.531062666569845,6.062910544663229,1.02520751953125,-2.8830705324756067
1708433599.2665403,-2.11932110786438,-1.3298328828862687,-2.5311196486102503,6.062660920410909,1.0253020524978638,-2.8849857489215296
1708433599.2685344,-2.119136095046997,-1.3298578721335907,-2.5311525503741663,6.06253062465743,1.025294542312622,-2.8867796103106897
1708433599.2705257,-2.1189379692077637,-1.3298155677369614,-2.531121079121725,6.0623031733329675,1.0252933502197266,-2.8886731306659144
1708433599.2725952,-2.118824005126953,-1.3298645627549668,-2.531137530003683,6.062167751580038,1.0253177881240845,-2.8905068079577845
1708433599.274536,-2.118683338165283,-1.329867885713913,-2.5312185923205774,6.061901318817892,1.0253340005874634,-2.8924718538867396
1708433599.2765527,-2.118422746658325,-1.3298841577819367,-2.5312021414386194,6.061693775444784,1.0253384113311768,-2.894285027180807
1708433599.27854,-2.1182847023010254,-1.3299569946578522,-2.531320397053854,6.061478245049276,1.0253252983093262,-2.8962183634387415
1708433599.2805378,-2.118159294128418,-1.3299676936915894,-2.5312889258014124,6.061286794930258,1.025344729423523,-2.8980823198901575
1708433599.282526,-2.1179869174957275,-1.3299842339805146,-2.5313642660724085,6.061074602394857,1.0253734588623047,-2.899987761174337
1708433599.2845721,-2.117807626724243,-1.329996184711792,-2.5314162413226526,6.06094645240859,1.0253525972366333,-2.9018033186541956
1708433599.286527,-2.1175899505615234,-1.3299992245486756,-2.5314224402057093,6.060721742897787,1.0253525972366333,-2.9037612120257776
1708433599.2885344,-2.11741304397583,-1.3300892871669312,-2.5314584414111536,6.060457336693563,1.02542245388031,-2.9056368509875696
1708433599.2905746,-2.1172406673431396,-1.330079824929573,-2.5315409342395228,6.060258614807882,1.0254857540130615,-2.907557789479391
1708433599.2925413,-2.117018461227417,-1.33008428037677,-2.5315139929400843,6.0600072024162195,1.0254502296447754,-2.9094072023974817
1708433599.294526,-2.11680269241333,-1.3301609617522736,-2.5315709749804896,6.0597829697425745,1.0254770517349243,-2.9112735430346888
1708433599.2965684,-2.1166484355926514,-1.3301557463458558,-2.531627957020895,6.059637892037191,1.0255134105682373,-2.9130941073047083
1708433599.298526,-2.116445302963257,-1.3301754754832764,-2.5316551367389124,6.059388148575582,1.0255579948425293,-2.9148765246020716
1708433599.300538,-2.116258144378662,-1.3302402359298249,-2.5316863695727747,6.059181558876791,1.0256192684173584,-2.9166415373431605
1708433599.3025117,-2.1160295009613037,-1.3302188974669953,-2.531693998967306,6.058942782669821,1.0256596803665161,-2.918396774922506
1708433599.3045378,-2.1158225536346436,-1.330295906668045,-2.5317419211017054,6.058722364693441,1.025658369064331,-2.920266930256979
1708433599.306517,-2.1156160831451416,-1.3302872788957139,-2.5318034330951136,6.058537232666769,1.0257307291030884,-2.9219492117511194
1708433599.3085423,-2.115341901779175,-1.330311344271042,-2.531825844441549,6.058303940087118,1.0257341861724854,-2.923858944569723
1708433599.3105166,-2.1151318550109863,-1.3303472262671967,-2.5319114367114466,6.05807791927413,1.025838851928711,-2.925586525593893
1708433599.3125386,-2.114851713180542,-1.3304198545268555,-2.531987969075338,6.057801472931661,1.0258500576019287,-2.927426878605978
1708433599.3145416,-2.114616870880127,-1.3304708313992997,-2.5320361296283167,6.057603943138876,1.025899052619934,-2.929182831441061
1708433599.3165565,-2.114471435546875,-1.330527440910675,-2.532027069722311,6.057342159539022,1.0260040760040283,-2.931031052266256
1708433599.3185077,-2.1141855716705322,-1.3305267554572602,-2.5320943037616175,6.057189571648397,1.0260348320007324,-2.932843271886007
1708433599.320511,-2.1140005588531494,-1.3306394827416916,-2.53208834329714,6.056872474938192,1.026107668876648,-2.9346700350390833
1708433599.3225155,-2.1136832237243652,-1.3307041984847565,-2.5321903864489954,6.056636440544882,1.026172161102295,-2.9365034739123743
1708433599.3245146,-2.1134655475616455,-1.3306913685849686,-2.5322848002063196,6.056356894760885,1.026236891746521,-2.938242260609762
1708433599.3265831,-2.113192081451416,-1.3307264757207413,-2.532340113316671,6.056179988175192,1.0262300968170166,-2.9399548212634485
1708433599.3285923,-2.112889051437378,-1.3307569932988663,-2.532362763081686,6.055917012482443,1.0263941287994385,-2.941681210194723
1708433599.330545,-2.1126036643981934,-1.330825389628746,-2.5323777834521692,6.055648076325216,1.0264248847961426,-2.9433396498309534
1708433599.3325348,-2.1123287677764893,-1.3309090745500107,-2.532487455998556,6.0554085848625085,1.0264846086502075,-2.945077721272604
1708433599.3345404,-2.112144947052002,-1.3309644025615235,-2.5325546900378626,6.055105316429891,1.0265451669692993,-2.946712080632345
1708433599.3365395,-2.1117777824401855,-1.3310450327447434,-2.532607142125265,6.054885256081381,1.0266284942626953,-2.948406998311178
1708433599.338525,-2.1115100383758545,-1.3311414283565064,-2.5326626936541956,6.054678904801168,1.026667594909668,-2.9499998728381556
1708433599.3405182,-2.1112375259399414,-1.33115607619796,-2.53274375597109,6.054421770363607,1.026760458946228,-2.9516354242907923
1708433599.342523,-2.1109111309051514,-1.3312037748149415,-2.5327284971820276,6.05406271198348,1.0268656015396118,-2.953280274068014
1708433599.3445482,-2.110589027404785,-1.331319884662964,-2.5328667799579065,6.053833949356832,1.0270061492919922,-2.955033604298727
1708433599.3465133,-2.110299587249756,-1.3314077866128464,-2.532968584691183,6.053537833481588,1.0270780324935913,-2.9566500822650355
1708433599.3485193,-2.1099941730499268,-1.3314842295697709,-2.533006254826681,6.053233015328207,1.0271658897399902,-2.958414618168966
1708433599.350511,-2.1096701622009277,-1.3315436703017731,-2.5331528822528284,6.052976834564962,1.0272915363311768,-2.9600375334369105
1708433599.352511,-2.109433889389038,-1.331630827193596,-2.5331786314593714,6.0527089712913416,1.0272929668426514,-2.9616640249835413
1708433599.3545194,-2.109081983566284,-1.3317315739444275,-2.5332878271686,6.052441704064169,1.0274380445480347,-2.963275972996847
1708433599.356511,-2.108768939971924,-1.3317947846702118,-2.53330904642214,6.05213342884139,1.027510404586792,-2.964956347142355
1708433599.3585167,-2.1083695888519287,-1.3318826717189332,-2.5334561506854456,6.051912176399984,1.0276347398757935,-2.9665923754321497
1708433599.3605242,-2.108017683029175,-1.331917793755867,-2.5335639158831995,6.051575290947714,1.0277636051177979,-2.9683519045459192
1708433599.3625238,-2.107699394226074,-1.3320784729770203,-2.5336435476886194,6.051267373352804,1.027876377105713,-2.9699822107898157
1708433599.3645315,-2.107351064682007,-1.332108349805214,-2.5337184111224573,6.050967800408163,1.0280007123947144,-2.9715877215014856
1708433599.36651,-2.1070220470428467,-1.3322858822396775,-2.533797804509298,6.050645220070638,1.0280838012695312,-2.9732423464404505
1708433599.3685222,-2.1066172122955322,-1.3323242974332352,-2.53394323984255,6.050370204239645,1.0282291173934937,-2.974820915852682
1708433599.3705258,-2.106257677078247,-1.3324450862458725,-2.534015480672018,6.050108420639791,1.028348445892334,-2.976401392613546
1708433599.372501,-2.105860710144043,-1.3325200986913224,-2.534135166798727,6.049845087319174,1.028412103652954,-2.977985445653097
1708433599.3745246,-2.1055045127868652,-1.3326351952603837,-2.534280602131979,6.049534070282736,1.0285530090332031,-2.9795106093036097
1708433599.3765202,-2.1051251888275146,-1.3327265244773407,-2.534363094960348,6.049227463990011,1.0287015438079834,-2.9810918013202112
1708433599.3785138,-2.1047215461730957,-1.3328710210374375,-2.534520451222555,6.048924076348104,1.0288139581680298,-2.9826536814319056
1708433599.3805094,-2.10435152053833,-1.3329993349364777,-2.534612242375509,6.048563468247213,1.028937578201294,-2.984232489262716
1708433599.3825083,-2.1039562225341797,-1.333111048941948,-2.534703556691305,6.0482191918189905,1.0290781259536743,-2.9857481161700647
1708433599.384507,-2.103537082672119,-1.3331855547479172,-2.5348311106311243,6.047978865891256,1.0291939973831177,-2.98729116121401
1708433599.386534,-2.1030640602111816,-1.333293081527092,-2.5349553267108362,6.047637688904562,1.0293424129486084,-2.9887738863574427
1708433599.3885205,-2.1026482582092285,-1.3334696304849167,-2.5350306669818323,6.047330963402548,1.0294543504714966,-2.990319315587179
1708433599.3905168,-2.1022837162017822,-1.333564506178238,-2.5351713339435022,6.047003495484152,1.029655933380127,-2.9918692747699183
1708433599.3925235,-2.1018121242523193,-1.3336558055928727,-2.535309616719381,6.046738731652059,1.0297393798828125,-2.9934428373919886
1708433599.394537,-2.1013593673706055,-1.333840773706772,-2.5354188124286097,6.046394693642416,1.029895544052124,-2.9949939886676233
1708433599.3965416,-2.100921630859375,-1.33397130787883,-2.5355568567859095,6.046014654427328,1.030044436454773,-2.9966164270984095
1708433599.3985307,-2.1004583835601807,-1.334025652413704,-2.5356436411487024,6.045598017960348,1.0301843881607056,-2.998249594365255
1708433599.4005039,-2.0999743938446045,-1.3342268925956269,-2.535771195088522,6.045264231949606,1.0303404331207275,-2.9997897783862513
1708433599.4025037,-2.0995326042175293,-1.3343620759299775,-2.5359166304217737,6.044917213707723,1.0305131673812866,-3.0012972990619105
1708433599.4045107,-2.099097490310669,-1.334469811325409,-2.536044422780172,6.044633018761434,1.0306730270385742,-3.002700153981344
1708433599.4065044,-2.098618507385254,-1.3346406680396576,-2.5361223856555384,6.044232594757833,1.0308541059494019,-3.0041750113116663
1708433599.4085271,-2.0981874465942383,-1.3347601157477875,-2.5362752119647425,6.04387794712142,1.0310025215148926,-3.005620781575338
1708433599.4105072,-2.0976595878601074,-1.3349196922830124,-2.5363622347461146,6.043521988182821,1.0311589241027832,-3.007087055836813
1708433599.4125128,-2.0971646308898926,-1.3350716692260285,-2.5365150610553187,6.0431063053901575,1.031322956085205,-3.0086148420916956
1708433599.4145377,-2.096669912338257,-1.3352467727712174,-2.5366337935077112,6.0427565453346155,1.0314587354660034,-3.010052267705099
1708433599.416541,-2.0961945056915283,-1.3353741329959412,-2.5368240515338343,6.042327034264364,1.0316758155822754,-3.0115018526660364
1708433599.4185383,-2.095677375793457,-1.3355824065259476,-2.5369606653796595,6.041984903603353,1.0318193435668945,-3.0129357020007532
1708433599.4205139,-2.0951318740844727,-1.3357169044068833,-2.537137571965353,6.041604745178976,1.031983494758606,-3.014437977467672
1708433599.4225056,-2.094630241394043,-1.3359050464681168,-2.537210766469137,6.041200744896688,1.0321719646453857,-3.0158172289477747
1708433599.4245236,-2.0940709114074707,-1.3360888224891205,-2.5373547712909144,6.040851223259725,1.032352328300476,-3.017275873814718
1708433599.4265163,-2.0935938358306885,-1.3362393093160172,-2.537565056477682,6.040541398316183,1.0325123071670532,-3.018622700368063
1708433599.4285467,-2.09306263923645,-1.3364593249610444,-2.537672821675436,6.040033924370565,1.0326765775680542,-3.0201123396502894
1708433599.4305363,-2.0925498008728027,-1.3366065484336396,-2.537828509007589,6.039679991989889,1.0328667163848877,-3.0215798060046595
1708433599.43251,-2.0919928550720215,-1.3367893111756821,-2.5379067103015345,6.039310681610861,1.03306245803833,-3.0230332056628626
1708433599.4345062,-2.091431140899658,-1.3369770658067246,-2.538074795399801,6.038924681931295,1.0331857204437256,-3.0244715849505823
1708433599.4365528,-2.090801954269409,-1.3371524673751374,-2.5382381121264856,6.038438784867086,1.033410906791687,-3.0258856455432337
1708433599.4385304,-2.0902695655822754,-1.3373444092324753,-2.5383580366717737,6.0380722163017175,1.0335915088653564,-3.027339522038595
1708433599.4405212,-2.0896835327148438,-1.3375032556108017,-2.5385142008410853,6.037669408112325,1.0337803363800049,-3.0288026968585413
1708433599.4425135,-2.0891692638397217,-1.3377304089120408,-2.5386248270617884,6.037218320160665,1.033935546875,-3.03024131456484
1708433599.4445457,-2.088573455810547,-1.337845579986908,-2.5388062636004847,6.036889540940084,1.0341159105300903,-3.0317118803607386
1708433599.4465468,-2.087956666946411,-1.3380583238652726,-2.538966957722799,6.036416518479147,1.0343129634857178,-3.032990280781881
1708433599.4485316,-2.0873610973358154,-1.3382575076869507,-2.5391274134265345,6.036099302559652,1.034537672996521,-3.0343108812915247
1708433599.450544,-2.0868053436279297,-1.3384572726539155,-2.539304320012228,6.035688388138571,1.0347018241882324,-3.035607639943258
1708433599.4525354,-2.0862088203430176,-1.3386693608811875,-2.5394230524646204,6.035272466927328,1.034889578819275,-3.0369673410998743
1708433599.4545217,-2.085601806640625,-1.338815064435341,-2.5395787397967737,6.034919607430258,1.0350983142852783,-3.0384066740619105
1708433599.456539,-2.0849785804748535,-1.339039073591568,-2.5397632757769983,6.034469473152914,1.0353074073791504,-3.0397263208972376
1708433599.4585218,-2.0844013690948486,-1.3392064434340973,-2.539905611668722,6.034073221474447,1.0355042219161987,-3.0410199801074427
1708433599.4605334,-2.0838003158569336,-1.339372695689537,-2.54010516801943,6.0336904404456995,1.035671353340149,-3.0422824064837855
1708433599.4625127,-2.083188533782959,-1.3395847392133255,-2.5401650110827845,6.033285248070516,1.0358102321624756,-3.0436013380633753
1708433599.4645407,-2.0825581550598145,-1.3397758913091202,-2.5403838793383997,6.032852756768026,1.036061406135559,-3.0449140707599085
1708433599.466525,-2.0819501876831055,-1.339996577506401,-2.5404816309558313,6.032408940583029,1.0361838340759277,-3.046138111745016
1708433599.4685364,-2.0812792778015137,-1.3401705038598557,-2.5406585375415247,6.032047974854269,1.0364328622817993,-3.047443215047018
1708433599.4705236,-2.080665111541748,-1.3403284561685105,-2.5408218542682093,6.031645881920614,1.0366789102554321,-3.0487387816058558
1708433599.4725277,-2.080014705657959,-1.3405612123063584,-2.5410245100604456,6.031197297364034,1.0368179082870483,-3.0499733130084437
1708433599.4745202,-2.07939076423645,-1.34076081336055,-2.54114276567568,6.030778753548422,1.03700590133667,-3.05127984682192
1708433599.476534,-2.0787346363067627,-1.3409957599690934,-2.5412703196154993,6.03035985210494,1.0372309684753418,-3.0525577704059046
1708433599.4785202,-2.0781219005584717,-1.3411545020392914,-2.541471544896261,6.029983269959249,1.0374070405960083,-3.053749148045675
1708433599.4805167,-2.0774788856506348,-1.3413945597461243,-2.5416107813464563,6.0295623419578455,1.0375744104385376,-3.0550223032580774
1708433599.482514,-2.076795816421509,-1.3415728074363251,-2.5417380968676966,6.029134619026937,1.0378451347351074,-3.0563138167010706
1708433599.4845247,-2.0761494636535645,-1.3417794865420838,-2.5419660250293177,6.028713214188375,1.0380040407180786,-3.057560984288351
1708433599.4865334,-2.075507164001465,-1.3420403611711045,-2.542131487523214,6.0282078860099695,1.0382378101348877,-3.058878246937887
1708433599.4886022,-2.074812889099121,-1.3422804486802598,-2.5422332922564905,6.027860748558798,1.038388729095459,-3.060232464467184
1708433599.490546,-2.0741686820983887,-1.3424784553102036,-2.5424352327929896,6.027416455536642,1.0386052131652832,-3.061453882847921
1708433599.4925492,-2.0734574794769287,-1.3427096468261261,-2.5425825754748743,6.027035105019369,1.0387688875198364,-3.0626490751849573
1708433599.4945524,-2.0727996826171875,-1.3429543536952515,-2.5427220503436487,6.026592361717977,1.0390344858169556,-3.0638073126422327
1708433599.4965045,-2.0721170902252197,-1.3431274008801957,-2.542820994053976,6.026160228043356,1.0392301082611084,-3.0650060812579554
1708433599.498542,-2.071406364440918,-1.343376101260521,-2.5429800192462366,6.025844800263204,1.0394477844238281,-3.0661023298846644
1708433599.5005128,-2.070789098739624,-1.343587340121605,-2.543227259312765,6.025301682740011,1.0396432876586914,-3.067312542592184
1708433599.5025082,-2.070077657699585,-1.3438424927047272,-2.5433788935290735,6.024899589806356,1.0398728847503662,-3.068460766469137
1708433599.5045347,-2.0694351196289062,-1.3440652799657364,-2.543510977421896,6.024437653809347,1.0400389432907104,-3.0695956389056605
1708433599.506521,-2.0687882900238037,-1.3442927312901993,-2.5437026659594935,6.023969638138571,1.0402814149856567,-3.0708258787738245
1708433599.508529,-2.068089246749878,-1.3445276331952591,-2.543821159993307,6.023579227715292,1.0404891967773438,-3.0719783941852015
1708433599.5105445,-2.0673770904541016,-1.344766454105713,-2.5439651648150843,6.023190367012777,1.0406492948532104,-3.07319146791567
1708433599.5125277,-2.0667033195495605,-1.3450099688819428,-2.544133011494772,6.022776233940878,1.0408458709716797,-3.074303929005758
1708433599.514559,-2.065984010696411,-1.3452328604510804,-2.5443056265460413,6.0223004696662805,1.0410339832305908,-3.075460735951559
1708433599.5165553,-2.065303087234497,-1.3454680007747193,-2.544464413319723,6.021872746735372,1.0412710905075073,-3.076602284108297
1708433599.5185845,-2.064587116241455,-1.3456504952958603,-2.5446983019458216,6.0214706538017175,1.041475772857666,-3.0777035395251673
1708433599.520635,-2.0638468265533447,-1.3459710043719788,-2.544821325932638,6.021051990776815,1.0417159795761108,-3.078881565724508
1708433599.5225608,-2.0631983280181885,-1.3461773258498688,-2.544980589543478,6.020634400635519,1.0419411659240723,-3.080052200947897
1708433599.5245295,-2.062429666519165,-1.3464489591172715,-2.5451648871051233,6.020229208260336,1.0421116352081299,-3.0810917059527796
1708433599.5265336,-2.0617599487304688,-1.3466642510942002,-2.5453372637378138,6.019722211151876,1.042381763458252,-3.0822787920581263
1708433599.528523,-2.0609889030456543,-1.346911982899048,-2.545526091252462,6.019345152169027,1.0425366163253784,-3.0833967367755335
1708433599.530534,-2.0603108406066895,-1.347147451048233,-2.545668665562765,6.0188695071037195,1.0427162647247314,-3.0845544973956507
1708433599.532523,-2.0595147609710693,-1.3473491978696366,-2.5458200613604944,6.018474924355306,1.042978286743164,-3.0856509844409388
1708433599.5345218,-2.058915615081787,-1.3475843530944367,-2.546037260686056,6.018133747368612,1.0431993007659912,-3.086792294179098
1708433599.5365274,-2.0581419467926025,-1.347840578561165,-2.5462220350848597,6.0177029249961755,1.043407917022705,-3.0878973642932337
1708433599.5385308,-2.057375431060791,-1.3480874460986634,-2.546382490788595,6.017311322480001,1.0435911417007446,-3.0889809767352503
1708433599.5405276,-2.0566883087158203,-1.348298118715622,-2.5465250650988978,6.016895639687338,1.0437794923782349,-3.09011680284609
1708433599.5425417,-2.0559587478637695,-1.3485624951175232,-2.5467665831195276,6.016455876618185,1.0440404415130615,-3.0913127104388636
1708433599.544563,-2.055189609527588,-1.3487518739751359,-2.54689866701235,6.016074287682333,1.0442495346069336,-3.0923648516284388
1708433599.5465386,-2.0544583797454834,-1.3489939135364075,-2.5470274130450647,6.015686738282003,1.044477939605713,-3.093401018773214
1708433599.5485342,-2.053696632385254,-1.3493029040149231,-2.547246042882101,6.0153716681297205,1.0446734428405762,-3.094447914754049
1708433599.5505445,-2.05293607711792,-1.3495147836259385,-2.5473840872394007,6.014882671623983,1.044901728630066,-3.0954464117633265
