Eg3-git/Classifiers/Data Collection/u1/u1cir4_ur3e_joint_states.csv
time,elbow_joint,shoulder_lift_joint,shoulder_pan_joint,wrist_1_joint,wrist_2_joint,wrist_3_joint
1708433582.092436,-2.1411800384521484,-1.3331713390401383,-2.525951687489645,6.108326542168417,1.0158419609069824,-2.468118731175558
1708433582.0943942,-2.1411547660827637,-1.3331802052310486,-2.525914732609884,6.108257996826925,1.0158451795578003,-2.4681299368487757
1708433582.0964057,-2.141188144683838,-1.3332091730884095,-2.5258942286120813,6.108298289566793,1.0158705711364746,-2.4681180159198206
1708433582.0984023,-2.141188144683838,-1.3332409423640748,-2.525943104420797,6.108244526177206,1.0158631801605225,-2.4681668917285364
1708433582.1004152,-2.1412124633789062,-1.3332334023765107,-2.525907341633932,6.108260977059164,1.015858769416809,-2.468116585408346
1708433582.1023693,-2.14113187789917,-1.333200530414917,-2.525963846837179,6.108241307526388,1.0158705711364746,-2.4681418577777308
1708433582.1043966,-2.141162872314453,-1.3332210940173645,-2.525914732609884,6.108208405762472,1.0158343315124512,-2.468140427266256
1708433582.1063733,-2.1411757469177246,-1.3332036447576066,-2.525947395955221,6.108267056732931,1.0158330202102661,-2.468194309865133
1708433582.1084104,-2.141223907470703,-1.3332202446511765,-2.525935475026266,6.108281838684835,1.0158541202545166,-2.468210522328512
1708433582.1104085,-2.1412081718444824,-1.3331961643746872,-2.5259268919574183,6.108233916550436,1.0158705711364746,-2.468206230794088
1708433582.1123986,-2.14121675491333,-1.3331873577884217,-2.5259605089770716,6.10822485664443,1.0158751010894775,-2.4682462851153772
1708433582.114399,-2.1412010192871094,-1.3331917238286515,-2.525943104420797,6.108200776367941,1.015858769416809,-2.4682374636279505
1708433582.116409,-2.1411757469177246,-1.3332124811461945,-2.525931183491842,6.108250367432394,1.0158872604370117,-2.468175474797384
1708433582.118387,-2.1412010192871094,-1.3332334172776719,-2.5259767214404505,6.108205306320944,1.0158917903900146,-2.468306366597311
1708433582.120383,-2.141192674636841,-1.3332079958966752,-2.525902811680929,6.108180272370138,1.0158917903900146,-2.468313995991842
1708433582.1223953,-2.1411476135253906,-1.3332210791162034,-2.5259278456317347,6.108205306320944,1.0158872604370117,-2.468281332646505
1708433582.1244035,-2.1411547660827637,-1.3331473183682938,-2.5259724299060267,6.1081474898155115,1.015879511833191,-2.4683595339404505
1708433582.1263928,-2.1411430835723877,-1.3331516844085236,-2.5259278456317347,6.108221995621481,1.015879511833191,-2.4683848063098353
1708433582.1283898,-2.1412124633789062,-1.3331802052310486,-2.525935475026266,6.108165371208944,1.015879511833191,-2.4683879057513636
1708433582.1303787,-2.141127109527588,-1.3332420599511643,-2.5259886423694056,6.108132231026449,1.0158783197402954,-2.4684041182147425
1708433582.1323814,-2.1411476135253906,-1.3332048070481797,-2.5258942286120813,6.108162152558126,1.0158631801605225,-2.468407217656271
1708433582.1344047,-2.1411757469177246,-1.333216817384102,-2.525951687489645,6.108195292740621,1.0158917903900146,-2.468365732823507
1708433582.1364157,-2.1411588191986084,-1.333191694026329,-2.525902811680929,6.10815309265212,1.015879511833191,-2.46839410463442
1708433582.1384032,-2.1411476135253906,-1.3332254600575943,-2.525914732609884,6.108165371208944,1.015917181968689,-2.4684434572802942
1708433582.140411,-2.1411547660827637,-1.333181382422783,-2.525907341633932,6.108136641770162,1.0158631801605225,-2.4684599081622522
1708433582.142409,-2.1411519050598145,-1.3332005155137558,-2.525914732609884,6.108198153763571,1.0158419609069824,-2.4684303442584437
1708433582.1444175,-2.141188621520996,-1.3331845712712784,-2.525907341633932,6.1081862328346155,1.0158705711364746,-2.468437735234396
1708433582.1463592,-2.141176462173462,-1.3331888628057023,-2.525926653538839,6.108195292740621,1.0158828496932983,-2.4684985319720667
1708433582.1483803,-2.1411800384521484,-1.3332342219403763,-2.525919262562887,6.108133780747213,1.0158722400665283,-2.4684703985797327
1708433582.1504142,-2.141176462173462,-1.3332048070481797,-2.5259104410754603,6.108178841858663,1.0158541202545166,-2.4685311953174036
1708433582.1523767,-2.141167640686035,-1.3331682992032547,-2.525931183491842,6.108220565110006,1.015858769416809,-2.468518082295553
1708433582.1543763,-2.141143321990967,-1.3331961643746872,-2.5259397665606897,6.108150231629171,1.015858769416809,-2.4685636202441614
1708433582.1564147,-2.1411476135253906,-1.333176926975586,-2.525951687489645,6.10817431190566,1.0158872604370117,-2.4685216585742396
1708433582.1583881,-2.1411476135253906,-1.3332583469203492,-2.5259104410754603,6.108195292740621,1.0159245729446411,-2.468534056340353
1708433582.160417,-2.14113187789917,-1.3332091730884095,-2.5259485880481165,6.108147370606222,1.0159082412719727,-2.468569819127218
1708433582.1623867,-2.1411609649658203,-1.3332253855517884,-2.5259397665606897,6.108190643578329,1.0158917903900146,-2.4685948530780237
1708433582.1644273,-2.1411404609680176,-1.3331682843020936,-2.5259161631213587,6.108162152558126,1.015858769416809,-2.4686318079577845
1708433582.1663673,-2.1411476135253906,-1.3331725609353562,-2.5259485880481165,6.108141171723165,1.0158828496932983,-2.468644444142477
1708433582.168385,-2.1411967277526855,-1.3331845563701172,-2.525898520146505,6.1081293700035,1.015912652015686,-2.4686313311206263
1708433582.1704314,-2.1411561965942383,-1.3331845712712784,-2.5259366671191614,6.108145820885458,1.0158751010894775,-2.468598190938131
1708433582.172383,-2.1411633491516113,-1.333200530414917,-2.525923554097311,6.108162152558126,1.0158252716064453,-2.4686136881457728
1708433582.17438,-2.141171932220459,-1.3331976544908066,-2.525869909917013,6.10815309265212,1.0159111022949219,-2.4686625639544886
1708433582.1764388,-2.1411561965942383,-1.3330936890891572,-2.525877300892965,6.10817431190566,1.0158419609069824,-2.4686582724200647
1708433582.1783826,-2.1412010192871094,-1.3331932139447709,-2.5259247461902063,6.1081546423728845,1.015929102897644,-2.4686864058123987
1708433582.180379,-2.141111373901367,-1.3331932139447709,-2.5259116331683558,6.108178841858663,1.0158660411834717,-2.4687071482287806
1708433582.1823754,-2.141171455383301,-1.3332091730884095,-2.5258992354022425,6.108113038330831,1.0158677101135254,-2.4686906973468226
1708433582.184389,-2.1412010192871094,-1.3331440401128312,-2.5258830229388636,6.108216154366293,1.0158162117004395,-2.4687064329730433
1708433582.1863847,-2.141118288040161,-1.3331396740726014,-2.5258622805224817,6.108169901161947,1.0158631801605225,-2.468764845524923
1708433582.1883965,-2.141188621520996,-1.3332223457149048,-2.5259080568896692,6.108162152558126,1.015879511833191,-2.4687841574298304
1708433582.1903822,-2.1411633491516113,-1.3331932139447709,-2.5258753935443323,6.10816656330184,1.0158464908599854,-2.468754593526022
1708433582.1924021,-2.1411807537078857,-1.3332420599511643,-2.5258711020099085,6.1081862328346155,1.015879511833191,-2.4687915484057825
1708433582.194388,-2.141167640686035,-1.333176926975586,-2.5258546511279505,6.108124840050497,1.015858769416809,-2.4687989393817347
1708433582.1964278,-2.1411633491516113,-1.333181382422783,-2.5258711020099085,6.108121859818258,1.0158841609954834,-2.4688647429095667
1708433582.1984165,-2.141167640686035,-1.3332299006036301,-2.525851551686422,6.1081710932548425,1.0158677101135254,-2.468785826359884
1708433582.2004178,-2.141193151473999,-1.3332124513438721,-2.5259080568896692,6.1081710932548425,1.0158872604370117,-2.4688709417926233
1708433582.2023985,-2.141205310821533,-1.3331603121808548,-2.5258384386645716,6.108162152558126,1.0158796310424805,-2.4688623587237757
1708433582.204404,-2.1411843299865723,-1.3331932139447709,-2.525916639958517,6.108157622605123,1.0158600807189941,-2.4688177744494837
1708433582.2063901,-2.141160726547241,-1.3331917238286515,-2.5258341471301478,6.1081862328346155,1.0158343315124512,-2.4688342253314417
1708433582.2084148,-2.141221046447754,-1.3331682843020936,-2.525884215031759,6.108190643578329,1.0158555507659912,-2.468907181416647
1708433582.2103853,-2.14117693901062,-1.3331945550492783,-2.5258308092700403,6.108181822090902,1.0158677101135254,-2.468886677418844
1708433582.2124014,-2.141167163848877,-1.3331725609353562,-2.525884215031759,6.108184683113851,1.015843391418457,-2.468926731740133
1708433582.2143846,-2.1411800384521484,-1.3332210940173645,-2.525876585637228,6.1081817028816126,1.0158432722091675,-2.4689253012286585
1708433582.2163937,-2.141188621520996,-1.3331516844085236,-2.5258634726153772,6.108230936318197,1.015831470489502,-2.4689837137805384
1708433582.2183845,-2.1412014961242676,-1.3332063865712662,-2.5258196035968226,6.108205306320944,1.015822410583496,-2.468991820012228
1708433582.220389,-2.141127109527588,-1.3331603121808548,-2.525876585637228,6.1082594273384,1.015838861465454,-2.469003502522604
1708433582.2223854,-2.141166925430298,-1.3332210940173645,-2.525827471409933,6.1083117602165125,1.0157941579818726,-2.469019953404562
1708433582.2244089,-2.141223907470703,-1.333217979674675,-2.525827471409933,6.108253466873922,1.0157909393310547,-2.4690361658679407
1708433582.2263877,-2.1412124633789062,-1.3332299006036301,-2.525855843220846,6.108265387802877,1.015826940536499,-2.46899921098818
1708433582.22842,-2.14123797416687,-1.3331976395896454,-2.52579909959902,6.108310448914327,1.0157818794250488,-2.4690468947040003
1708433582.23038,-2.141192674636841,-1.3331682843020936,-2.5258317629443567,6.108251917153158,1.0157864093780518,-2.4690800348864954
1708433582.232383,-2.141166925430298,-1.3331976693919678,-2.5258033911334437,6.108292567520895,1.015745997428894,-2.4690993467914026
1708433582.2344038,-2.141195058822632,-1.333168314104416,-2.5258317629443567,6.1083611128623865,1.015762448310852,-2.469058100377218
1708433582.2364593,-2.1411712169647217,-1.333168314104416,-2.5258808771716517,6.108335602074423,1.0157759189605713,-2.4691525141345423
1708433582.2383964,-2.1412110328674316,-1.3332005453160782,-2.5257542769061487,6.108368384629049,1.0157427787780762,-2.469135109578268
1708433582.2404191,-2.141183614730835,-1.333209143286087,-2.5258122126208704,6.108380305558004,1.0157713890075684,-2.469168249760763
1708433582.2424786,-2.1412200927734375,-1.333209143286087,-2.525782648717062,6.108408915787496,1.0157427787780762,-2.4691551367389124
1708433582.2443976,-2.1412243843078613,-1.3331845712712784,-2.5257914702044886,6.108477580338278,1.0157549381256104,-2.4692240397082728
1708433582.2464094,-2.1412558555603027,-1.3331845712712784,-2.5258076826678675,6.108468520432272,1.0157217979431152,-2.469187084828512
1708433582.2484317,-2.141251802444458,-1.3332210940173645,-2.5257957617389124,6.10847173908309,1.0157054662704468,-2.4691837469684046
1708433582.2503815,-2.14127779006958,-1.3332254600575943,-2.5257752577411097,6.108546721726217,1.0157263278961182,-2.4692514578448694
1708433582.2523913,-2.1412854194641113,-1.333217979674675,-2.5257707277881067,6.108561265259542,1.0156978368759155,-2.46928841272463
1708433582.254386,-2.1412179470062256,-1.3332376939109345,-2.5258122126208704,6.108585464745321,1.0156854391098022,-2.4692514578448694
1708433582.2564185,-2.1412596702575684,-1.3331976693919678,-2.5258076826678675,6.108579146652975,1.015723466873169,-2.469311062489645
1708433582.2583873,-2.1412765979766846,-1.333249719148018,-2.5258165041552942,6.108624207764425,1.015699028968811,-2.4693315664874476
1708433582.2604034,-2.1412551403045654,-1.333200530414917,-2.5258033911334437,6.10869728305892,1.015699028968811,-2.4693480173694056
1708433582.2624028,-2.1412675380706787,-1.3331845861724396,-2.5258122126208704,6.108652460366049,1.0156663656234741,-2.469325844441549
1708433582.264412,-2.1412949562072754,-1.3331845712712784,-2.5257795492755335,6.108712422638693,1.015687108039856,-2.4694116751300257
1708433582.2664096,-2.141328811645508,-1.3331845712712784,-2.525766436253683,6.108745324402609,1.015703558921814,-2.4694278875934046
1708433582.26837,-2.1413357257843018,-1.3332158786109467,-2.5257630983935755,6.108781087189474,1.015687108039856,-2.4694324175464075
1708433582.2703826,-2.141310930252075,-1.3332365912250062,-2.5258165041552942,6.1088530896003626,1.0156781673431396,-2.469487969075338
1708433582.2723808,-2.141343593597412,-1.3331932139447709,-2.5258448759662073,6.10882734039382,1.0157079696655273,-2.469524923955099
1708433582.2743998,-2.141322374343872,-1.3332202446511765,-2.5257630983935755,6.1088929055030725,1.0156916379928589,-2.4694793860064905
1708433582.2763767,-2.141387701034546,-1.3332080107978364,-2.5258076826678675,6.1089244959648035,1.0156826972961426,-2.469527546559469
1708433582.278385,-2.1413674354553223,-1.3332333725741883,-2.5257795492755335,6.108918416291036,1.0156618356704712,-2.469543759022848
1708433582.2803907,-2.1413426399230957,-1.3332124513438721,-2.5257466475116175,6.108997928887167,1.0156826972961426,-2.469567600880758
1708433582.2823722,-2.1413958072662354,-1.3332246255925675,-2.5257914702044886,6.108982789307394,1.015699028968811,-2.4696295897113245
1708433582.2843716,-2.1414082050323486,-1.3332822036794205,-2.5257630983935755,6.109068023949423,1.0156499147415161,-2.4695671240436
1708433582.2863748,-2.141394853591919,-1.3332202446511765,-2.5257673899279993,6.109075772553243,1.0156707763671875,-2.4696195761310022
1708433582.2883909,-2.141422986984253,-1.333232120876648,-2.5257542769061487,6.109102237015524,1.0156782865524292,-2.46965200105776
1708433582.2903795,-2.1413991451263428,-1.3332408976605912,-2.5257630983935755,6.109138238220968,1.015654444694519,-2.4696553389178675
1708433582.2923753,-2.141484260559082,-1.3331992638162156,-2.5258165041552942,6.109199631005087,1.0157126188278198,-2.469696585332052
1708433582.2943847,-2.1414761543273926,-1.3332659614137192,-2.5258362928973597,6.109205472260275,1.0156588554382324,-2.46970779100527
1708433582.2963915,-2.141516923904419,-1.3331829917481919,-2.5257752577411097,6.109283315926351,1.0156961679458618,-2.469719711934225
1708433582.2983797,-2.1415035724639893,-1.333216817384102,-2.5257752577411097,6.109335529595175,1.015687108039856,-2.469747845326559
1708433582.3004413,-2.1414830684661865,-1.3332159382155915,-2.5257838408099573,6.109342801361837,1.0156961679458618,-2.4697521368609827
1708433582.3023956,-2.1415274143218994,-1.3332646948150177,-2.5257585684405726,6.109461653023519,1.0156588554382324,-2.4698055426227015
1708433582.3044257,-2.1415441036224365,-1.3332246106914063,-2.5257795492755335,6.109453666001119,1.0156916379928589,-2.4698129335986536
1708433582.3063822,-2.1415274143218994,-1.3332409125617524,-2.5258002916919153,6.109531509667196,1.0156707763671875,-2.469860378895895
1708433582.3083913,-2.1416099071502686,-1.3332290810397645,-2.5258241335498255,6.10948525646285,1.0156798362731934,-2.4697912375079554
1708433582.3103874,-2.141540288925171,-1.3332691204598923,-2.525782648717062,6.109574544220724,1.015654444694519,-2.469921890889303
1708433582.3124783,-2.1415445804595947,-1.3332353097251435,-2.525788132344381,6.1095958826835535,1.0156707763671875,-2.4698999563800257
1708433582.3143957,-2.141585350036621,-1.3332484525493165,-2.5258076826678675,6.109704959183492,1.0156751871109009,-2.4699280897723597
1708433582.316384,-2.141653060913086,-1.333264709716179,-2.525762144719259,6.109725940018453,1.0156662464141846,-2.469935719166891
1708433582.3183753,-2.1415855884552,-1.3332234484008332,-2.5257795492755335,6.109785425453939,1.015687108039856,-2.469971481953756
1708433582.3203862,-2.1416261196136475,-1.3332725328258057,-2.5257752577411097,6.109805094986715,1.0156588554382324,-2.4700167814837855
1708433582.3223724,-2.1416172981262207,-1.3332353097251435,-2.5258284250842493,6.109800565033712,1.0156707763671875,-2.4700124899493616
1708433582.3244214,-2.1416172981262207,-1.333259568815567,-2.525794569646017,6.109881269722738,1.015703558921814,-2.47009784380068
1708433582.326395,-2.1416499614715576,-1.3332266521504899,-2.52584416071047,6.1098588583763025,1.0156916379928589,-2.4700682798968714
1708433582.3283918,-2.141669511795044,-1.3332559031299134,-2.525773827229635,6.109981405525961,1.0156499147415161,-2.470093552266256
1708433582.3303943,-2.1417043209075928,-1.3333158654025574,-2.5258241335498255,6.110003697663107,1.015708088874817,-2.4701245466815394
1708433582.3323898,-2.141714572906494,-1.3333166700652619,-2.525766436253683,6.110065090447225,1.0156288146972656,-2.4701884428607386
1708433582.3343842,-2.141690731048584,-1.3333288890174408,-2.5258284250842493,6.110047089844503,1.0156707763671875,-2.470168654118673
1708433582.3364115,-2.141714572906494,-1.3333527606776734,-2.52579909959902,6.110071170120992,1.0157113075256348,-2.4702492395984095
1708433582.3384116,-2.1417348384857178,-1.3333484095386048,-2.5258033911334437,6.110184895783224,1.0157325267791748,-2.4702447096454065
1708433582.3404145,-2.1417837142944336,-1.3333571714213868,-2.5257871786700647,6.110229956894674,1.015720248222351,-2.4702885786639612
1708433582.342373,-2.1417577266693115,-1.3333278161338349,-2.5257871786700647,6.110260951309957,1.0157158374786377,-2.470321242009298
1708433582.3443828,-2.141787052154541,-1.3333844107440491,-2.5257871786700647,6.110229599266805,1.0156855583190918,-2.4703362623797815
1708433582.3463755,-2.1418399810791016,-1.3334018600038071,-2.5258405844317835,6.110332834511556,1.0157235860824585,-2.4703574816333216
1708433582.348416,-2.141791582107544,-1.3333235096982499,-2.525827471409933,6.1103848097618005,1.0157517194747925,-2.470414702092306
1708433582.3504064,-2.1418392658233643,-1.3333428365043183,-2.525806490574972,6.1103625176246545,1.015730857849121,-2.4704418818103235
1708433582.3523846,-2.141876697540283,-1.3334051233581086,-2.5258153120623987,6.110365736275472,1.0157923698425293,-2.470444981251852
1708433582.354383,-2.141850709915161,-1.3333888810924073,-2.525855843220846,6.110506284027853,1.0157877206802368,-2.470517698918478
1708433582.3564088,-2.1418890953063965,-1.3333756786635895,-2.5258196035968226,6.110455024033346,1.0157922506332397,-2.4705165068255823
1708433582.3583868,-2.1418585777282715,-1.3333463978818436,-2.525811020527975,6.110473263054647,1.0158495903015137,-2.4705033938037317
1708433582.3603885,-2.1418755054473877,-1.3333712679198761,-2.5258427301989954,6.110546457558431,1.0158240795135498,-2.4705961386310022
1708433582.3624067,-2.141939640045166,-1.3334245544723053,-2.525900427495138,6.110577809601583,1.0157986879348755,-2.470600430165426
1708433582.3644161,-2.1418983936309814,-1.3333507639220734,-2.5258634726153772,6.110616671829977,1.015864610671997,-2.4706414381610315
1708433582.3663855,-2.1419551372528076,-1.3334041398814698,-2.5258873144732874,6.110642182617941,1.0158886909484863,-2.4707141558276575
1708433582.3683953,-2.1419551372528076,-1.3334114861539383,-2.5258546511279505,6.1106688854988,1.0158343315124512,-2.4707136789904993
1708433582.3703818,-2.141925573348999,-1.3334277433208008,-2.5258916060077112,6.1107438681419275,1.015905499458313,-2.470736328755514
1708433582.3723853,-2.141916513442993,-1.3334320795587082,-2.5259204546557825,6.1107754586036584,1.0158705711364746,-2.4707730452166956
1708433582.3743885,-2.1419663429260254,-1.3334277731231232,-2.5259080568896692,6.110769259720602,1.0158946514129639,-2.4707756678210657
1708433582.376396,-2.141998052597046,-1.3334244948676606,-2.525881830845968,6.1108425734336755,1.0159275531768799,-2.4708693663226526
1708433582.378406,-2.1419708728790283,-1.3334440004876633,-2.525898520146505,6.110838162689962,1.015960931777954,-2.4708939234363
1708433582.3803978,-2.142002582550049,-1.3334397238544007,-2.5259442965136927,6.110918628960409,1.015933871269226,-2.470933977757589
1708433582.3823783,-2.142010450363159,-1.3334440302899857,-2.5259397665606897,6.110888707428732,1.0160120725631714,-2.47097355524172
1708433582.384378,-2.141989231109619,-1.3334396493485947,-2.525980059300558,6.110929238587179,1.0160119533538818,-2.47097355524172
1708433582.386427,-2.1420016288757324,-1.3334234070828934,-2.525980059300558,6.110993492394247,1.016052484512329,-2.4710047880755823
1708433582.3883958,-2.1419928073883057,-1.3334888082793732,-2.525959316884176,6.110993492394247,1.0160720348358154,-2.4710453192340296
1708433582.3903694,-2.1420469284057617,-1.3334308576634903,-2.526020590459005,6.111044156342306,1.0160796642303467,-2.471081558858053
1708433582.3923872,-2.1420254707336426,-1.3334562641433259,-2.5260282198535364,6.111015903740682,1.016082525253296,-2.4711011091815394
1708433582.3943777,-2.142033338546753,-1.3334430915168305,-2.5260074774371546,6.111042845040121,1.016132116317749,-2.4711700121508997
1708433582.3963916,-2.142059326171875,-1.333493099813797,-2.5260282198535364,6.111113297730245,1.0161638259887695,-2.4712100664721888
1708433582.3983934,-2.1420254707336426,-1.3335172247937699,-2.5260074774371546,6.1111042378242395,1.0161592960357666,-2.4712331930743616
1708433582.400388,-2.142073154449463,-1.3334997606328507,-2.5260193983661097,6.111156451493063,1.0161876678466797,-2.471273724232809
1708433582.4023774,-2.1420817375183105,-1.3335070622018357,-2.526034657155172,6.11117576339797,1.016185998916626,-2.4713051954852503
1708433582.4044075,-2.1420819759368896,-1.3335200560143967,-2.526043478642599,6.1112414477165125,1.0162570476531982,-2.471375290547506
1708433582.4063864,-2.142103433609009,-1.3334831309369584,-2.52605110803713,6.111204373627462,1.016313910484314,-2.4714022318469446
1708433582.4083986,-2.14206862449646,-1.333449439411499,-2.5260587374316614,6.111214387207784,1.0162345170974731,-2.4714348951922815
1708433582.410383,-2.1420483589172363,-1.3334756356528779,-2.526083771382467,6.111200797348776,1.0163171291351318,-2.4715104738818567
1708433582.4123921,-2.142073154449463,-1.3334911179593583,-2.5260914007769983,6.1112639782722376,1.0163109302520752,-2.4715305010425013
1708433582.4144018,-2.142073154449463,-1.3335233491710206,-2.526128355656759,6.111259448319235,1.0163724422454834,-2.4715824762927454
1708433582.4163888,-2.1420810222625732,-1.3335648638061066,-2.52614409128298,6.11127136924819,1.016330599784851,-2.471635166798727
1708433582.4183865,-2.142127275466919,-1.333539606337883,-2.5261271635638636,6.111299979477682,1.0164296627044678,-2.4716299215899866
1708433582.4204137,-2.1420645713806152,-1.3334955287030716,-2.5261383692370813,6.111329901009359,1.016437292098999,-2.4717064539538782
1708433582.4223778,-2.14211368560791,-1.3335648340037842,-2.526142660771505,6.11131631115035,1.016449213027954,-2.4717257658587855
1708433582.4243941,-2.1421093940734863,-1.3335070771029969,-2.5261884371386927,6.1113773463066,1.0164928436279297,-2.471752707158224
1708433582.4263694,-2.14213490486145,-1.333514542584755,-2.526187245045797,6.111291038780966,1.0164854526519775,-2.471825901662008
1708433582.4284108,-2.1420888900756836,-1.333584414129593,-2.5261948744403284,6.111310350685873,1.0165166854858398,-2.4718740622149866
1708433582.4303715,-2.1420888900756836,-1.333551899795868,-2.526269261037008,6.111277568131246,1.0165648460388184,-2.471950356160299
1708433582.43238,-2.1421005725860596,-1.3335430336049576,-2.5262473265277308,6.111298429756918,1.0165904760360718,-2.4719579855548304
1708433582.4343708,-2.14213490486145,-1.3334971082261582,-2.526243034993307,6.111302840500631,1.0165979862213135,-2.4720800558673304
1708433582.4363873,-2.14211368560791,-1.333580033188202,-2.526243034993307,6.111335623055258,1.016629695892334,-2.4720786253558558
1708433582.4384189,-2.14211368560791,-1.3335352700999756,-2.526275698338644,6.111314880638876,1.0166369676589966,-2.472191874180929
1708433582.440438,-2.142080545425415,-1.3335308146527787,-2.5262954870807093,6.111335623055258,1.0167062282562256,-2.472177807484762
1708433582.442409,-2.142163038253784,-1.3335756075433274,-2.526283327733175,6.111331212311544,1.0166971683502197,-2.472292963658468
1708433582.4443953,-2.142084836959839,-1.333596558575966,-2.526311699544088,6.111352073937216,1.01674222946167,-2.4723601976977747
1708433582.4463782,-2.142117500305176,-1.3335922223380585,-2.5263312498675745,6.111368524819174,1.0167577266693115,-2.4724109808551233
1708433582.4484067,-2.1421217918395996,-1.3335966032794495,-2.5263925234424036,6.111322271614828,1.0167666673660278,-2.472476307545797
1708433582.4503736,-2.1420891284942627,-1.3335386377624054,-2.526334349309103,6.1113401530082605,1.016800880432129,-2.472555462514059
1708433582.4523888,-2.1421587467193604,-1.333559365277626,-2.5263763109790247,6.111343133240499,1.016800880432129,-2.472603146229879
1708433582.45439,-2.1420979499816895,-1.3335756373456498,-2.526375118886129,6.111368524819174,1.0168490409851074,-2.472663227711813
1708433582.4563732,-2.1420722007751465,-1.3335307252458115,-2.526419464741842,6.1113672135169885,1.0168986320495605,-2.4727166334735315
1708433582.4583962,-2.142163038253784,-1.3335668307593842,-2.5263705889331263,6.111305939942159,1.016930103302002,-2.4728360811816614
1708433582.4603798,-2.14211368560791,-1.333579109316208,-2.5264764467822474,6.111383545189657,1.0169332027435303,-2.472867552434103
1708433582.4623675,-2.1421430110931396,-1.333620385532715,-2.5264721552478235,6.111363994866171,1.0169615745544434,-2.4729881922351282
1708433582.4644048,-2.1421473026275635,-1.3335790497115632,-2.5264514128314417,6.111341583519735,1.0170023441314697,-2.473088328038351
1708433582.4663801,-2.142122268676758,-1.3335580986789246,-2.5265124479876917,6.111385214119711,1.0169978141784668,-2.473168436680929
1708433582.4683924,-2.1421093940734863,-1.3336041879704972,-2.526557270680563,6.111355054169454,1.0170533657073975,-2.4733009974109095
1708433582.470388,-2.1421306133270264,-1.333660439854004,-2.526503626500265,6.111355054169454,1.0170488357543945,-2.4733856360064905
1708433582.472394,-2.1421263217926025,-1.3335867536119004,-2.5264905134784144,6.111376273422994,1.0171012878417969,-2.4734819571124476
1708433582.4744086,-2.1421005725860596,-1.3335660260966797,-2.5265024344073694,6.111314761429586,1.017167568206787,-2.473542038594381
1708433582.4764023,-2.1420891284942627,-1.3335537773421784,-2.5265191237079065,6.111343133240499,1.0171661376953125,-2.4736459890948694
1708433582.4783776,-2.1421263217926025,-1.333611623649933,-2.5265265146838587,6.111308800965109,1.0171661376953125,-2.473741594945089
1708433582.480397,-2.14213490486145,-1.3335822236588974,-2.5266128222094935,6.111322271614828,1.017247200012207,-2.4738572279559534
1708433582.4823854,-2.1421499252319336,-1.3336232018521805,-2.5265710989581507,6.111326682358541,1.0172290802001953,-2.4740150610553187
1708433582.4844117,-2.1421263217926025,-1.3336101931384583,-2.5266531149493616,6.111363994866171,1.0172667503356934,-2.4741182963000696
1708433582.4863887,-2.142084836959839,-1.3336473864367981,-2.526578966771261,6.1112849591071985,1.0172849893569946,-2.4741972128497522
1708433582.4884312,-2.142134189605713,-1.333651841883995,-2.526562277470724,6.111350524216451,1.0172984600067139,-2.4743593374835413
1708433582.4903877,-2.1420936584472656,-1.3336223822883149,-2.526619259511129,6.111359464913168,1.017364740371704,-2.4744339624988
1708433582.4924002,-2.1420891284942627,-1.3336014312556763,-2.52665621439089,6.111385214119711,1.0173512697219849,-2.4745989481555384
1708433582.4943852,-2.1421048641204834,-1.333576650624611,-2.5266431013690394,6.111299860268392,1.0173405408859253,-2.474759642277853
1708433582.4963682,-2.1420557498931885,-1.333671198492386,-2.5266388098346155,6.111368405609884,1.017401933670044,-2.4749444166766565
1708433582.4983966,-2.14208984375,-1.3336624217084427,-2.5266342798816126,6.111331212311544,1.0173883438110352,-2.4750645796405237
1708433582.5003867,-2.1421022415161133,-1.3336966049722214,-2.52661377588381,6.111343133240499,1.0174425840377808,-2.4751959482776087
1708433582.5023694,-2.1420810222625732,-1.3336474162391205,-2.5266671816455286,6.111307370453634,1.017466425895691,-2.4753318468676966
1708433582.504384,-2.14206862449646,-1.3336136204055329,-2.5266671816455286,6.111307370453634,1.0174741744995117,-2.4755340258227747
1708433582.5063765,-2.142085552215576,-1.3336549264243622,-2.526703182850973,6.11128197887496,1.0175191164016724,-2.475701395665304
1708433582.5083723,-2.142073154449463,-1.3336834919503708,-2.5266900698291224,6.111288058548727,1.0175342559814453,-2.47584039369692
1708433582.5103908,-2.142085552215576,-1.3336834621480484,-2.5266781489001673,6.111278998642721,1.017514705657959,-2.4760499636279505
1708433582.5123882,-2.142045736312866,-1.33363430321727,-2.526764456425802,6.11123405674056,1.0175795555114746,-2.4762421290027063
1708433582.514404,-2.1420865058898926,-1.333622397189476,-2.526731554661886,6.111205327301779,1.0175628662109375,-2.47646671930422
1708433582.5163832,-2.1420705318450928,-1.3336593222669144,-2.526743475590841,6.111226665764608,1.0176318883895874,-2.4765945116626185
1708433582.518385,-2.1420209407806396,-1.3336668622544785,-2.5267470518695276,6.111141431122579,1.0175853967666626,-2.4768195788012903
1708433582.5204031,-2.1420300006866455,-1.3336537045291443,-2.5268078486071985,6.11122344711379,1.0176351070404053,-2.4770355860339563
1708433582.5224404,-2.1419970989227295,-1.3336343479207535,-2.5268002192126673,6.111208903580465,1.0176546573638916,-2.477208201085226
1708433582.524428,-2.141989231109619,-1.333679960375168,-2.526766363774435,6.111187922745504,1.0176846981048584,-2.4774373213397425
1708433582.5263736,-2.141982316970825,-1.3336909276298066,-2.526815954838888,6.111121642380514,1.0176470279693604,-2.4776530901538294
1708433582.528399,-2.1419777870178223,-1.3336966049722214,-2.526832167302267,6.111193764000692,1.0176756381988525,-2.477849547063009
1708433582.5303943,-2.141923666000366,-1.333618016248085,-2.526790205632345,6.111165511399069,1.0176502466201782,-2.478069845830099
1708433582.5323815,-2.14188289642334,-1.3336593222669144,-2.526811424885885,6.111024963646688,1.0177191495895386,-2.478293482457296
1708433582.5343957,-2.141880512237549,-1.333613635306694,-2.526863400136129,6.1110890982444666,1.0176812410354614,-2.478628460560934
1708433582.5364075,-2.141880512237549,-1.3337072742036362,-2.526896301900045,6.111053216248312,1.0177717208862305,-2.4788158575641077
1708433582.5384016,-2.141840934753418,-1.333690957432129,-2.526851479207174,6.110982644348898,1.0177565813064575,-2.4791041056262415
1708433582.540412,-2.141841411590576,-1.3336877685836335,-2.5268548170672815,6.110942828446188,1.0177552700042725,-2.479319159184591
1708433582.542432,-2.141822338104248,-1.3336506348899384,-2.5268591086017054,6.11096070983962,1.0177929401397705,-2.479567352925436
1708433582.5444374,-2.141785144805908,-1.3336668771556397,-2.526940886174337,6.110903489380636,1.0177626609802246,-2.47988468805422
1708433582.5464063,-2.141793966293335,-1.3336922091296692,-2.526845995579855,6.110835063248434,1.0177748203277588,-2.480157438908712
1708433582.5484746,-2.141791582107544,-1.3337115955403824,-2.526923481618063,6.110811102181234,1.0177626609802246,-2.480377976094381
1708433582.5503747,-2.1417248249053955,-1.3336505752852936,-2.5269442240344446,6.110769259720602,1.017798900604248,-2.480673853551046
1708433582.552412,-2.1416943073272705,-1.3336747002652665,-2.5269115606891077,6.110707747727194,1.017798900604248,-2.480933729802267
1708433582.5543864,-2.141653299331665,-1.3336580854705353,-2.526975933705465,6.110680806427755,1.0178813934326172,-2.4812961260425013
1708433582.5564034,-2.1416285037994385,-1.3336997491172333,-2.526975933705465,6.110592949181356,1.0178680419921875,-2.4815836588488978
1708433582.5583897,-2.141584634780884,-1.3336909723332901,-2.527017418538229,6.110521304398336,1.0178512334823608,-2.481906000767843
1708433582.5603843,-2.141594409942627,-1.3337191206267853,-2.5269671122180384,6.1105092642600916,1.0178468227386475,-2.482136074696676
1708433582.5623817,-2.14153790473938,-1.333679975276329,-2.526970450078146,6.110355126648702,1.0178875923156738,-2.4825015703784388
1708433582.5644197,-2.1415059566497803,-1.3336747002652665,-2.5270000139819544,6.110386597901144,1.0178875923156738,-2.4828384558307093
1708433582.566415,-2.1414706707000732,-1.3336790216020127,-2.5270074049579065,6.110236990242758,1.017911434173584,-2.4831631819354456
1708433582.568421,-2.1413519382476807,-1.3337116104415436,-2.5270524660693567,6.110184895783224,1.0179188251495361,-2.483513418828146
1708433582.5703783,-2.1413426399230957,-1.3337028932622452,-2.5270357767688196,6.1101053831870935,1.0178934335708618,-2.483849112187521
1708433582.572434,-2.141261100769043,-1.333637387757637,-2.527088228856222,6.110050308495321,1.0179266929626465,-2.4842258135425013
1708433582.5743873,-2.1412339210510254,-1.3336703342250367,-2.527112070714132,6.109918701439657,1.0179550647735596,-2.484579865132467
1708433582.5764275,-2.141174554824829,-1.3337354224971314,-2.527079407368795,6.109751093178549,1.0179836750030518,-2.4849112669574183
1708433582.5783882,-2.141131639480591,-1.3337354224971314,-2.5270870367633265,6.109751331597128,1.0180166959762573,-2.4852805773364466
1708433582.5804014,-2.141059160232544,-1.3337310564569016,-2.5270424524890345,6.109631764679708,1.017986536026001,-2.4856694380389612
1708433582.5823832,-2.1409919261932373,-1.3337429922870179,-2.5271032492267054,6.1094374535377405,1.0180782079696655,-2.486058775578634
1708433582.5844085,-2.140866279602051,-1.3337671619704743,-2.5271690527545374,6.109344470291891,1.0179897546768188,-2.486401383076803
1708433582.5864093,-2.1408028602600098,-1.3337417852929612,-2.5271154085742396,6.1092519638831995,1.0180556774139404,-2.4867783228503626
1708433582.5884256,-2.1406781673431396,-1.3337921363166352,-2.5271273295031946,6.109099495201864,1.0180890560150146,-2.487220112477438
1708433582.5903847,-2.1405704021453857,-1.3337789934924622,-2.527163569127218,6.108918416291036,1.0180935859680176,-2.4876495043383997
1708433582.592421,-2.140516757965088,-1.333844394688942,-2.5271382967578333,6.108833539276876,1.0180587768554688,-2.488037411366598
1708433582.5944028,-2.1403756141662598,-1.333842859869339,-2.5271831194507044,6.108652341156759,1.0181128978729248,-2.4884663263904017
1708433582.5963955,-2.1402931213378906,-1.3338635724833985,-2.527252976094381,6.108567344933309,1.018078327178955,-2.4888630549060267
1708433582.5984097,-2.1401772499084473,-1.3338194352439423,-2.52717096010317,6.108422267227926,1.0181159973144531,-2.4893365542041224
1708433582.6004014,-2.1400818824768066,-1.333867923622467,-2.5272517840014856,6.1082594273384,1.0181732177734375,-2.489727560673849
1708433582.6024408,-2.13997745513916,-1.3337766391089936,-2.5272637049304407,6.108017074852743,1.0181732177734375,-2.4902456442462366
1708433582.6044304,-2.139789581298828,-1.3338254553130646,-2.5272517840014856,6.107900488167562,1.0181474685668945,-2.4906752745257776
1708433582.6063995,-2.139662027359009,-1.333813951616623,-2.5272679964648646,6.107674944191732,1.0181806087493896,-2.4910739103900355
1708433582.6084104,-2.139571189880371,-1.3338539761355896,-2.527332369481222,6.107535588532247,1.0181912183761597,-2.4915714899646204
1708433582.6103868,-2.139432430267334,-1.333911584024765,-2.5273521582232874,6.107344376831808,1.018178939819336,-2.4920390287982386
1708433582.61244,-2.1391983032226562,-1.333874599342682,-2.5273478666888636,6.107162225037374,1.0182406902313232,-2.4925127665149134
1708433582.6144073,-2.1390912532806396,-1.3338658970645447,-2.527350966130392,6.106954085617819,1.0182271003723145,-2.493009630833761
1708433582.6164024,-2.1388916969299316,-1.3339281690171738,-2.527350966130392,6.106734621315756,1.01826012134552,-2.4935274759875696
1708433582.6184194,-2.1387083530426025,-1.333898441200592,-2.527407948170797,6.106490599900045,1.0182316303253174,-2.494040075932638
1708433582.6204321,-2.1385364532470703,-1.3339106899550934,-2.5273991266833704,6.106292235642233,1.0182795524597168,-2.494545284901754
1708433582.6223915,-2.138368606567383,-1.333926947121956,-2.5274110476123255,6.106079804688253,1.0182676315307617,-2.4950953165637415
1708433582.6243863,-2.1381454467773438,-1.3339432340911408,-2.5274677912341517,6.105836140900411,1.0183247327804565,-2.495599333439962
1708433582.6263895,-2.137993335723877,-1.3339344424060364,-2.5275333563434046,6.105570184975424,1.0183321237564087,-2.4961045424090784
1708433582.62841,-2.1377577781677246,-1.3338940900615235,-2.5275233427630823,6.105331170349874,1.018318772315979,-2.4966536203967493
1708433582.6303885,-2.137578010559082,-1.3339417737773438,-2.5275548140155237,6.105018842011251,1.0183942317962646,-2.4971938768969935
1708433582.6324034,-2.137322425842285,-1.3339863878539582,-2.5275922457324427,6.104707586556234,1.0183517932891846,-2.4977756182300013
1708433582.6343899,-2.1371238231658936,-1.3339907687953492,-2.527583424245016,6.104453670769491,1.0183924436569214,-2.498328749333517
1708433582.636394,-2.1368985176086426,-1.3339986366084595,-2.5276313463794153,6.1042353985603235,1.0184180736541748,-2.498905960713522
1708433582.6384537,-2.1366803646087646,-1.3340311360410233,-2.5276389757739466,6.103876697808065,1.0183955430984497,-2.499368969594137
1708433582.640413,-2.1364850997924805,-1.3340343099883576,-2.52763015428652,6.103598463326254,1.018399953842163,-2.4999430815326136
1708433582.6424136,-2.136235237121582,-1.3340473038009186,-2.527674976979391,6.103342878609457,1.0184403657913208,-2.500462834035055
1708433582.6444297,-2.1359667778015137,-1.3340862107327958,-2.5276899973498743,6.102952706604757,1.0184767246246338,-2.501049820576803
1708433582.6464062,-2.1357147693634033,-1.3340495389750977,-2.5277558008777063,6.102617728501119,1.0185185670852661,-2.5015297571765345
1708433582.6483972,-2.135504722595215,-1.3341223758510132,-2.5277589003192347,6.102317440300741,1.0184797048568726,-2.502110306416647
1708433582.6503828,-2.135240316390991,-1.334094227557518,-2.5277918020831507,6.101941931038656,1.018548607826233,-2.5026262442218226
1708433582.652391,-2.134981155395508,-1.3341213029674073,-2.527794901524679,6.10151623466567,1.0185441970825195,-2.5031891504870813
1708433582.6543884,-2.134713888168335,-1.334125594501831,-2.5278266111956995,6.1011496661003015,1.0185561180114746,-2.503700558339254
1708433582.6564026,-2.1344377994537354,-1.3341736209443589,-2.5278998056994837,6.100721943169393,1.0185801982879639,-2.5042572657214563
1708433582.658386,-2.13413143157959,-1.3342301410487671,-2.5279117266284388,6.100405442505636,1.0186372995376587,-2.5048020521747034
1708433582.6603951,-2.133884906768799,-1.3342135709575196,-2.5279224554644983,6.100010621338644,1.0186402797698975,-2.505329434071676
1708433582.6624136,-2.1336052417755127,-1.3342820417932053,-2.527976099644796,6.099498021393575,1.0186973810195923,-2.5059245268451136
1708433582.6644068,-2.133293390274048,-1.3342939627221604,-2.527966086064474,6.099164831429281,1.0186960697174072,-2.5064647833453577
1708433582.6663895,-2.1329739093780518,-1.3343258214047928,-2.5279412905322474,6.098755109101095,1.0187411308288574,-2.5070186297046106
1708433582.668431,-2.132641553878784,-1.334336594944336,-2.528043810521261,6.098341214447775,1.0187667608261108,-2.5075669924365442
1708433582.6703734,-2.1323370933532715,-1.3343564581922074,-2.5280633608447474,6.097892629891195,1.0187411308288574,-2.5081923643695276
1708433582.672409,-2.1319639682769775,-1.334364966755249,-2.5280619303332728,6.097454416542806,1.0188146829605103,-2.508733336125509
1708433582.6743782,-2.1316077709198,-1.3344245863011857,-2.528123203908102,6.096932637482443,1.0187712907791138,-2.5093186537372034
1708433582.6764276,-2.1312978267669678,-1.3344725382379075,-2.528167788182394,6.096550094872274,1.0188252925872803,-2.509932343159811
1708433582.6783857,-2.130901575088501,-1.3345179569772263,-2.5281670729266565,6.096060025482931,1.018861174583435,-2.51050836244692
1708433582.6803935,-2.1305274963378906,-1.334487722521164,-2.5282235781299036,6.095502364426412,1.018890142440796,-2.511165444050924
1708433582.6823726,-2.1301565170288086,-1.3345442575267334,-2.5282345453845423,6.094947564392843,1.0188930034637451,-2.511709276829855
1708433582.684417,-2.129777669906616,-1.3345929396203537,-2.5282824675189417,6.0945485709007166,1.0189049243927002,-2.512364212666647
1708433582.6863642,-2.129347801208496,-1.3346330386451264,-2.5283151308642786,6.094016539841451,1.0189005136489868,-2.5129314104663294
1708433582.6883917,-2.128950595855713,-1.3346027892879029,-2.528395716344015,6.093454587250509,1.0189123153686523,-2.5135653654681605
1708433582.6903996,-2.128516912460327,-1.3347004663995286,-2.528412644063131,6.0928372023399255,1.0189815759658813,-2.5141571203814905
1708433582.6923919,-2.1281135082244873,-1.3346550029567261,-2.52846342722048,6.092390048294821,1.0189951658248901,-2.5147998968707483
1708433582.6943822,-2.1276657581329346,-1.3347398352674027,-2.5284624735461634,6.091745602875509,1.0190266370773315,-2.5153771082507532
1708433582.6963997,-2.127201795578003,-1.3347268265536805,-2.52850586572756,6.091144907265463,1.0190508365631104,-2.5159769693957728
1708433582.6983821,-2.126779556274414,-1.3347466450980683,-2.52857476869692,6.0905260918434045,1.0190703868865967,-2.516602341328756
1708433582.7003899,-2.126284599304199,-1.3348508787206192,-2.5286687056170862,6.089928138047018,1.0190749168395996,-2.5171950499164026
1708433582.702369,-2.125828981399536,-1.334871531730034,-2.5287120977984827,6.089388596802511,1.0190941095352173,-2.5178125540362757
1708433582.7044199,-2.125370740890503,-1.334854171877243,-2.5287395159350794,6.088703620224752,1.0191377401351929,-2.518359963093893
1708433582.706392,-2.1248838901519775,-1.3349190664342423,-2.5288408438311976,6.088107812195577,1.0191664695739746,-2.519014898930685
1708433582.7083917,-2.124356269836426,-1.3350159984878083,-2.5288646856891077,6.087366211205282,1.0191737413406372,-2.5196319262133997
1708433582.7104006,-2.1238577365875244,-1.3350843054107209,-2.528895441685812,6.086757886200704,1.0192146301269531,-2.5202367941485804
1708433582.7123847,-2.1233184337615967,-1.3350377690843125,-2.5289598147021692,6.086031543999471,1.019242763519287,-2.5208566824542444
1708433582.7143934,-2.1227948665618896,-1.3350942891887208,-2.5290361086474817,6.085399377136984,1.0192910432815552,-2.5215185324298304
1708433582.7164176,-2.122260332107544,-1.3351866465858002,-2.52907640138735,6.084664690285482,1.0192819833755493,-2.5220897833453577
1708433582.7183878,-2.1217293739318848,-1.3352017861655732,-2.529083315526144,6.0839059231574915,1.0193270444869995,-2.52273136774172
1708433582.7203908,-2.1211695671081543,-1.3353105199388047,-2.5291877428637903,6.083254086762228,1.0193179845809937,-2.523292128239767
1708433582.722379,-2.120642900466919,-1.3353258830359955,-2.5292192141162317,6.082540499954977,1.0193135738372803,-2.5239902178393763
1708433582.7243848,-2.120100259780884,-1.3354344975999375,-2.5292673746692103,6.08181260803298,1.019378423690796,-2.5245867411242884
1708433582.7263772,-2.1195340156555176,-1.3354366582683106,-2.5293243567096155,6.081063735276022,1.0193902254104614,-2.5252893606769007
1708433582.7283921,-2.11893892288208,-1.3355205816081543,-2.5293708483325403,6.080264079361715,1.0194143056869507,-2.5258565584765833
1708433582.7303693,-2.118384838104248,-1.3355921071818848,-2.5294395128833216,6.07951973655776,1.0194458961486816,-2.5265563170062464
1708433582.7323992,-2.117716073989868,-1.3356800985387345,-2.5295408407794397,6.0787768242652795,1.0194838047027588,-2.5271683374988
1708433582.7343836,-2.117180347442627,-1.335788683300354,-2.529599730168478,6.078006970673361,1.0195316076278687,-2.5278499762164515
1708433582.7363925,-2.116518259048462,-1.3358398538878937,-2.5296805540667933,6.077244269638815,1.0195300579071045,-2.528482977543966
1708433582.7384336,-2.115962266921997,-1.3359443855336686,-2.5297394434558313,6.076495635300436,1.0195753574371338,-2.529030148183004
1708433582.7404013,-2.115302085876465,-1.3360682141831894,-2.5297144095050257,6.075643646508016,1.0195753574371338,-2.5296922365771692
1708433582.742505,-2.1146509647369385,-1.336115063433983,-2.5298026243792933,6.074844229012289,1.0195990800857544,-2.530324999486105
1708433582.7444556,-2.113952398300171,-1.3362269711545487,-2.529842201863424,6.074023473053732,1.0196276903152466,-2.530994478856222
1708433582.7464223,-2.113314151763916,-1.3362985712340851,-2.5299227873431605,6.073104250222006,1.0196354389190674,-2.5316322485553187
1708433582.7484221,-2.1126718521118164,-1.3363693368485947,-2.529961887990133,6.072358238487997,1.0196337699890137,-2.532304827366964
1708433582.7504027,-2.1120221614837646,-1.3364944171956559,-2.5301082769977015,6.071488845139303,1.0197285413742065,-2.5329206625567835
1708433582.7523859,-2.1113758087158203,-1.3365900677493592,-2.5301266352282923,6.0706413862998865,1.0196986198425293,-2.5334654490100306
1708433582.754382,-2.1106650829315186,-1.3366333109191437,-2.530170265828268,6.069802868157186,1.019750952720642,-2.534135643635885
1708433582.7564049,-2.110027313232422,-1.3367897284081955,-2.530280415211813,6.068896400719442,1.019776463508606,-2.534708325062887
1708433582.7584198,-2.1093242168426514,-1.3368691813996811,-2.530299250279562,6.068019735604086,1.0197796821594238,-2.5353084246264856
1708433582.7604127,-2.108638286590576,-1.3369323027184983,-2.53042442003359,6.067186701088705,1.0198155641555786,-2.535853687916891
1708433582.762391,-2.1080002784729004,-1.337035523062088,-2.5304389635669153,6.0663689253623865,1.0198397636413574,-2.5364583174334925
1708433582.764415,-2.107259750366211,-1.3371238720468064,-2.5305607954608362,6.065549003868856,1.0198185443878174,-2.5370095411883753
1708433582.7663982,-2.1065595149993896,-1.33728443205867,-2.530567232762472,6.064638006478109,1.0198274850845337,-2.5376814047442835
1708433582.7684214,-2.1058616638183594,-1.3373268407634278,-2.5306480566607874,6.063736665039816,1.0198352336883545,-2.538215223942892
1708433582.7703996,-2.105088949203491,-1.3374671351960679,-2.5307439009295862,6.062934386521139,1.019889235496521,-2.538837258015768
1708433582.7723784,-2.104379892349243,-1.3376147610000153,-2.5308082739459437,6.062035786896505,1.019887924194336,-2.539426390324728
1708433582.774399,-2.1036291122436523,-1.3376853328994294,-2.530856434498922,6.061132299691,1.0198997259140015,-2.5399838129626673
1708433582.776422,-2.1028647422790527,-1.3378174018910904,-2.5308781305896204,6.06021939495162,1.0198339223861694,-2.540584150944845
1708433582.7784243,-2.102221727371216,-1.3379251819900055,-2.5309763590442103,6.059330928116598,1.0198711156845093,-2.541187111531393
1708433582.7803993,-2.101480007171631,-1.338029609327652,-2.531031910573141,6.058448898583212,1.0198503732681274,-2.541724507008688
1708433582.7824028,-2.1006908416748047,-1.3381524246982117,-2.5310874621020716,6.057544219284811,1.0198473930358887,-2.5423789660083216
1708433582.7844217,-2.0999441146850586,-1.3382717829993744,-2.5311759153949183,6.0565539477165125,1.0198503732681274,-2.543004099522726
1708433582.7863846,-2.0992140769958496,-1.3384731125882645,-2.53123909631838,6.055682408600607,1.0198293924331665,-2.5435293356524866
1708433582.788387,-2.0984528064727783,-1.3386061203530808,-2.5312872568713587,6.054705726891317,1.01987886428833,-2.544084135686056
1708433582.7904074,-2.0976693630218506,-1.338669480090477,-2.5313549677478235,6.0537874577339075,1.0198413133621216,-2.5446484724627894
1708433582.7923863,-2.096888542175293,-1.3388266277364274,-2.531414810811178,6.052823054581442,1.0198248624801636,-2.5452867189990442
1708433582.794398,-2.0961575508117676,-1.3389742237380524,-2.5315194765674036,6.051908719330587,1.0198923349380493,-2.545842234288351
1708433582.7963877,-2.0953574180603027,-1.3391428750804444,-2.5315540472613733,6.051003682404318,1.0198473930358887,-2.5464354197131556
1708433582.7983894,-2.0946013927459717,-1.3392656755498429,-2.531668011342184,6.050034272461691,1.0198049545288086,-2.5470576922046106
1708433582.800426,-2.0938053131103516,-1.3394744855216523,-2.531693998967306,6.049092638283529,1.019781231880188,-2.547610584889547
1708433582.8023863,-2.093045473098755,-1.339534805422165,-2.531811777745382,6.048135268479147,1.0198140144348145,-2.548145596181051
1708433582.804394,-2.092271566390991,-1.3397316944650193,-2.531867567692892,6.047247278481283,1.0198473930358887,-2.5487850348102015
1708433582.8063807,-2.0914573669433594,-1.3399571490338822,-2.5319109598742884,6.046349751740255,1.0198352336883545,-2.5493198076831263
1708433582.8084397,-2.0906786918640137,-1.340078593497612,-2.532006804143087,6.045432436257162,1.0197902917861938,-2.5498600641833704
1708433582.8104346,-2.0899133682250977,-1.340291978125908,-2.532038752232687,6.044486391335287,1.019785761833191,-2.5504425207721155
1708433582.8124187,-2.0891268253326416,-1.3404476654580613,-2.5320854822741907,6.043466913491049,1.0197738409042358,-2.5509946982013147
1708433582.8144124,-2.088299036026001,-1.3406520795873185,-2.53217059770693,6.0425875065620325,1.019770622253418,-2.551567618046896
1708433582.816427,-2.087472677230835,-1.3407484901002427,-2.5322590509997767,6.04165135601119,1.0197374820709229,-2.5521612803088587
1708433582.8184228,-2.086676597595215,-1.340939612393715,-2.53233510652651,6.040774810105123,1.0197211503982544,-2.5527504126178187
1708433582.8204038,-2.085853099822998,-1.3412087273648758,-2.5324085394488733,6.0398244736488245,1.019694209098816,-2.5533230940448206
1708433582.8223972,-2.084969997406006,-1.3413715672544022,-2.532393995915548,6.038895475655355,1.0196460485458374,-2.55389911333193
1708433582.8244097,-2.08418607711792,-1.3415331703475495,-2.532440725957052,6.037896621018209,1.0196006298065186,-2.554431740437643
1708433582.8263834,-2.08327579498291,-1.3417495054057618,-2.5325587431537073,6.0370445130165,1.0195978879928589,-2.5550058523761194
1708433582.8284009,-2.082479238510132,-1.3419723075679322,-2.5326560179339808,6.036081898003378,1.0196232795715332,-2.5556471983539026
1708433582.8304114,-2.0816102027893066,-1.3421519261649628,-2.532699171696798,6.035105216294088,1.0196082592010498,-2.5562413374530237
1708433582.832445,-2.080782413482666,-1.3423596930554886,-2.532710615788595,6.034319746285238,1.0195543766021729,-2.556751553212301
1708433582.8343854,-2.079944372177124,-1.3425913167050858,-2.5327299276935022,6.033418285637655,1.0195209980010986,-2.5574000517474573
1708433582.8364012,-2.079105854034424,-1.342778043156006,-2.5328269640551966,6.03258644321517,1.0195181369781494,-2.557983700429098
1708433582.8384426,-2.078279972076416,-1.3429811757854004,-2.5328708330737513,6.031593429833212,1.019480586051941,-2.5586209932910364
1708433582.8404331,-2.0774576663970947,-1.343151570563652,-2.532921854649679,6.030740964203634,1.0194323062896729,-2.5591240564929407
1708433582.8423886,-2.0766069889068604,-1.3434324723533173,-2.5329905192004603,6.029839503556051,1.0194053649902344,-2.5597384611712855
1708433582.844392,-2.0757694244384766,-1.3436923188022156,-2.533025566731588,6.028869855194845,1.0193935632705688,-2.5602710882769983
1708433582.8463788,-2.074878454208374,-1.3438424181989213,-2.5330453554736536,6.027949082642355,1.0193289518356323,-2.5608277956592005
1708433582.8484259,-2.0740103721618652,-1.344163404112198,-2.533093277608053,6.0270471451576135,1.0192925930023193,-2.561364475880758
1708433582.8504145,-2.0731561183929443,-1.344332293873169,-2.5331857840167444,6.0261738179023645,1.0192493200302124,-2.5619784037219446
1708433582.852386,-2.07232666015625,-1.3445791763118287,-2.533245865498678,6.025276648789205,1.0191304683685303,-2.5625761190997522
1708433582.8544164,-2.071449041366577,-1.3448510479978104,-2.5333147684680384,6.024358618050375,1.0190988779067993,-2.5631285349475306
1708433582.856418,-2.070598602294922,-1.3450619292310257,-2.5333712736712855,6.023465144425192,1.0190401077270508,-2.563718620930807
1708433582.8584054,-2.0697035789489746,-1.3453128647855301,-2.533464256917135,6.022552120476522,1.0189964771270752,-2.5643144289599817
1708433582.860416,-2.068854808807373,-1.345608727341034,-2.5334585348712366,6.021703707962789,1.0189318656921387,-2.5647993723498743
1708433582.8624277,-2.0680041313171387,-1.3459250044873734,-2.533506457005636,6.02078531959609,1.0189003944396973,-2.5653494040118616
1708433582.8644044,-2.0671703815460205,-1.3461957585862656,-2.5335708300219935,6.019944894104757,1.0187578201293945,-2.5658767859088343
1708433582.8663745,-2.0663084983825684,-1.3464838129333039,-2.533606831227438,6.019108760147848,1.0186736583709717,-2.5664220491992396
1708433582.8684006,-2.065413236618042,-1.346747027044632,-2.5336135069476526,6.018240082054891,1.0186357498168945,-2.566969935094015
1708433582.870397,-2.0645556449890137,-1.347016618852951,-2.533677641545431,6.017371284752645,1.0185052156448364,-2.5675318876849573
1708433582.872391,-2.063706874847412,-1.3473239553025742,-2.5337181727038782,6.016484129219808,1.0184437036514282,-2.5681055227862757
1708433582.8743856,-2.062823534011841,-1.3475991797498246,-2.5337987581836146,6.015622722893514,1.0183141231536865,-2.568624798451559
1708433582.8764498,-2.061952590942383,-1.3479430240443726,-2.5338261763202112,6.014874803810873,1.0181972980499268,-2.5692198912249964
1708433582.8783839,-2.0610294342041016,-1.3481884461692353,-2.5338903109179896,6.014002907067098,1.018072247505188,-2.5697625319110315
1708433582.8803914,-2.060199737548828,-1.3484948736480256,-2.533872906361715,6.013207781105795,1.017980694770813,-2.5703287760363978
1708433582.882409,-2.05928635597229,-1.3488797855428238,-2.5339658896075647,6.01240502574996,1.0178813934326172,-2.570881191884176
1708433582.8844216,-2.058469772338867,-1.3491568279317399,-2.533973519002096,6.0116121647651575,1.0177265405654907,-2.5714550654040735
1708433582.8863902,-2.057569742202759,-1.3494766664556046,-2.5340169111834925,6.010819542198934,1.0176485776901245,-2.5719545523272913
1708433582.8884041,-2.056739330291748,-1.3498025995543976,-2.5340331236468714,6.010041820793905,1.0175117254257202,-2.572562281285421
1708433582.8903868,-2.055846691131592,-1.35015523553405,-2.534097496663229,6.009184229164877,1.017429232597351,-2.5731053988086146
1708433582.8923938,-2.054999828338623,-1.3504614394954224,-2.534097496663229,6.008410441666403,1.017266869544983,-2.57371169725527
1708433582.8943913,-2.054117441177368,-1.3508247894099732,-2.5341246763812464,6.007539140969076,1.0171178579330444,-2.5743168036090296
1708433582.896415,-2.0532498359680176,-1.3511635971120377,-2.5341861883746546,6.006782042771139,1.0170475244522095,-2.5748449007617396
1708433582.8983915,-2.0524046421051025,-1.3515224170735856,-2.534140173588888,6.005989897042074,1.0168730020523071,-2.57544714609255
1708433582.900396,-2.0515077114105225,-1.3518605840257187,-2.534262243901388,6.005215513497152,1.0167123079299927,-2.5759385267840784
1708433582.9023933,-2.050693988800049,-1.3521908831647416,-2.5342448393451136,6.004477011948385,1.0166172981262207,-2.5765026251422327
1708433582.9043999,-2.049851417541504,-1.3525493454984208,-2.5342941919909876,6.003763425141134,1.0164849758148193,-2.5770960489856165
1708433582.9064,-2.0489773750305176,-1.3528919380954285,-2.5342896620379847,6.003107058792867,1.016340732574463,-2.5776243845569056
1708433582.9083972,-2.0481419563293457,-1.3532267224839707,-2.5342643896686,6.002372133522787,1.016217827796936,-2.5781498591052454
1708433582.9104073,-2.0472326278686523,-1.353634462957718,-2.534292999898092,6.001711356430807,1.0160146951675415,-2.578742567692892
1708433582.9124339,-2.046354293823242,-1.3540184509805222,-2.534288469945089,6.000997411995687,1.0158840417861938,-2.579320017491476
1708433582.9143996,-2.0454986095428467,-1.354417310362198,-2.534313503895895,6.000316846161642,1.0156974792480469,-2.579886261616842
1708433582.916411,-2.0446598529815674,-1.3547869187644501,-2.5342679659472864,5.999638187676229,1.01555335521698,-2.580421034489767
1708433582.9184082,-2.0437843799591064,-1.3551902633956452,-2.534297291432516,5.998906957894125,1.0153939723968506,-2.5810073057757776
1708433582.920432,-2.0429270267486572,-1.3555312317660828,-2.5342918078051966,5.998246061592855,1.0152348279953003,-2.5815556685077112
1708433582.9223783,-2.0420541763305664,-1.3558978897384186,-2.5343080202685755,5.997583734780111,1.0150665044784546,-2.5820563475238245
1708433582.9244375,-2.041243314743042,-1.3563131851008912,-2.534292999898092,5.996900069504537,1.0149223804473877,-2.5826409498797815
1708433582.9263785,-2.0403501987457275,-1.3567315203002472,-2.5343297163592737,5.996228563576498,1.0147391557693481,-2.583258930836813
1708433582.9284098,-2.0395619869232178,-1.3571248662522812,-2.5343015829669397,5.995613801270284,1.0145660638809204,-2.583820168172018
1708433582.9304154,-2.0387027263641357,-1.3576023888638993,-2.5343504587756556,5.995016085892477,1.0143495798110962,-2.584334913884298
1708433582.9323928,-2.037856101989746,-1.3580153298429032,-2.5342567602740687,5.994321930199423,1.0142006874084473,-2.5848808924304407
1708433582.934388,-2.0370495319366455,-1.3584095549634476,-2.534309212361471,5.993716466217794,1.0140010118484497,-2.5854862372027796
1708433582.936405,-2.0362024307250977,-1.3589102041772385,-2.5342732111560267,5.993093001633444,1.0138068199157715,-2.585978333150045
1708433582.9384143,-2.035398483276367,-1.3592913311770936,-2.5343061129199427,5.992493378907003,1.0136024951934814,-2.5865724722491663
1708433582.9404557,-2.0345840454101562,-1.3597187411836167,-2.534236017857687,5.991840112000265,1.0133771896362305,-2.5871692339526575
1708433582.9423997,-2.033789873123169,-1.3601574462703248,-2.5342567602740687,5.9913062928016565,1.0131865739822388,-2.587694231663839
1708433582.9444015,-2.0329418182373047,-1.3605546218207856,-2.5342329184161585,5.990739929467001,1.0129320621490479,-2.5882917086230677
1708433582.9463935,-2.0321364402770996,-1.3610121619752427,-2.5342209974872034,5.990153419762411,1.0127445459365845,-2.588855568562643
1708433582.9483988,-2.0312771797180176,-1.3614843946746369,-2.534156386052267,5.989541876107015,1.0125612020492554,-2.5894292036639612
1708433582.950393,-2.030506134033203,-1.3618983340314408,-2.5342100302325647,5.988970625191488,1.012287974357605,-2.5899975935565394
1708433582.9523933,-2.029693365097046,-1.362378792171814,-2.5341575781451624,5.988492595940389,1.012062430381775,-2.590632740651266
1708433582.9543862,-2.0289156436920166,-1.3628533494523545,-2.5341249147998255,5.988002049713888,1.0118591785430908,-2.5911691824542444
1708433582.9564183,-2.028158187866211,-1.36331062138591,-2.534121576939718,5.9874294874961755,1.011630892753601,-2.5917206446277063
1708433582.9583797,-2.0272934436798096,-1.3637042057565232,-2.5340638796435755,5.986950266152181,1.0114192962646484,-2.592249933873312
1708433582.960425,-2.0264978408813477,-1.364206777220108,-2.534036461506979,5.986458170204916,1.011152744293213,-2.5928805510150355
1708433582.9624074,-2.0257036685943604,-1.3647049528411408,-2.5339961687671106,5.985966551094808,1.0108795166015625,-2.5934208075152796
1708433582.964409,-2.0249087810516357,-1.3651957225850602,-2.534046236668722,5.985503542214193,1.0106313228607178,-2.5940220991717737
1708433582.9663825,-2.024078369140625,-1.3656248164227982,-2.5339930693255823,5.9850525734718225,1.0103909969329834,-2.594595257435934
1708433582.968406,-2.0232491493225098,-1.366181881432869,-2.533900324498312,5.984634268074789,1.0101910829544067,-2.595114294682638
1708433582.9704192,-2.02250075340271,-1.366621733908989,-2.533867422734396,5.984264242440023,1.0099176168441772,-2.5957000891314905
1708433582.972409,-2.0216476917266846,-1.3671533179334183,-2.5338359514819544,5.983802187233724,1.0096622705459595,-2.5961380640613
1708433582.9744148,-2.0208358764648438,-1.367627279167511,-2.533828322087423,5.983353960305013,1.0093885660171509,-2.596778217946188
1708433582.976424,-2.0200045108795166,-1.368150607948639,-2.5338051954852503,5.982925283699789,1.0091781616210938,-2.5973106066333216
1708433582.9783936,-2.0192103385925293,-1.3686291736415406,-2.5337191263781946,5.982556569367208,1.0089139938354492,-2.5978599230395716
1708433582.9804153,-2.018400192260742,-1.3691055339625855,-2.533761803303854,5.98212348201827,1.0086194276809692,-2.5983513037311
1708433582.9823897,-2.0175881385803223,-1.3696247798255463,-2.5336440245257776,5.981718885689535,1.0083471536636353,-2.598966185246603
1708433582.9844477,-2.0168089866638184,-1.3701099914363404,-2.5336535612689417,5.98136984088973,1.0080541372299194,-2.5995147863971155
1708433582.9864178,-2.016061305999756,-1.37059939027343,-2.5335925261126917,5.9810067293937585,1.0077869892120361,-2.600013319646017
1708433582.9884226,-2.0152952671051025,-1.3711014998010178,-2.533520762120382,5.980608093529501,1.007469654083252,-2.600581947957174
1708433582.9903877,-2.0144834518432617,-1.37168242157016,-2.533501211796896,5.980365264206686,1.0071643590927124,-2.601130787526266
1708433582.992402,-2.0137195587158203,-1.3721522104791184,-2.533464018498556,5.979957568436422,1.0068639516830444,-2.6016503016101282
1708433582.9943922,-2.012932300567627,-1.3726664346507569,-2.5333755652057093,5.9795933840568445,1.0066086053848267,-2.6021626631366175
1708433582.9964063,-2.012176752090454,-1.3731668454459687,-2.5334094206439417,5.97927867153243,1.0062626600265503,-2.6027115027057093
1708433582.9984055,-2.011399030685425,-1.3737063717893143,-2.5332756678210657,5.978918778687277,1.005924940109253,-2.60321289697756
1708433583.0003994,-2.0106794834136963,-1.3741916728070755,-2.533276383076803,5.9785756943519495,1.005706548690796,-2.603760067616598
1708433583.002392,-2.009934425354004,-1.3747392308763047,-2.5331760088550013,5.978316294937887,1.0053023099899292,-2.6043244043933313
1708433583.0044026,-2.0091707706451416,-1.3753032100251694,-2.5331934134112757,5.977968084603109,1.0050437450408936,-2.6048200766192835
1708433583.006379,-2.008467197418213,-1.3758380723050614,-2.5330844561206263,5.977695214539327,1.0047476291656494,-2.6054251829730433
1708433583.0083933,-2.007720470428467,-1.3763360244086762,-2.533044163380758,5.977470862656393,1.0044379234313965,-2.6059327761279505
1708433583.0103874,-2.0069737434387207,-1.3768918973258515,-2.533001724873678,5.977205264359274,1.0041298866271973,-2.606420342122213
1708433583.0124147,-2.0063138008117676,-1.377390907411911,-2.5329044500934046,5.976953494339742,1.0038089752197266,-2.607030455266134
1708433583.0143898,-2.0055949687957764,-1.3779551100781937,-2.5327835718738,5.976706254273214,1.003522276878357,-2.607473675404684
1708433583.0165331,-2.0048601627349854,-1.3785254818252106,-2.5327442328082483,5.976457583695211,1.0031678676605225,-2.608032528554098
1708433583.018404,-2.0041940212249756,-1.3790903699449082,-2.5326555410968226,5.976273166924276,1.0028815269470215,-2.6086140314685267
1708433583.0204399,-2.0034661293029785,-1.3795662236264725,-2.5326460043536585,5.975949394493856,1.0025287866592407,-2.609094206486837
1708433583.0223804,-2.0027663707733154,-1.3801514220288773,-2.532492224370138,5.9758291123206995,1.002187967300415,-2.609588925038473
1708433583.0244637,-2.0020711421966553,-1.3807387214950104,-2.532449547444479,5.975567090302267,1.0018603801727295,-2.6100686232196253
1708433583.0263836,-2.001441240310669,-1.3812567603639145,-2.5323646704303187,5.975355493813314,1.0014901161193848,-2.610671106969015
1708433583.0284045,-2.0007362365722656,-1.3818002057126542,-2.532260004674093,5.975175845413961,1.0011460781097412,-2.611155096684591
1708433583.0303848,-2.000108242034912,-1.3823098105243226,-2.5321551004992884,5.975018369942465,1.0008387565612793,-2.6116634050952356
1708433583.0324059,-1.9993972778320312,-1.3828936529210587,-2.532067839299337,5.974829542427816,1.0004827976226807,-2.6122337023364466
1708433583.0343854,-1.998750925064087,-1.3834772419980546,-2.5320406595813196,5.974715816765585,1.0001705884933472,-2.6126883665667933
1708433583.036408,-1.9980411529541016,-1.3840030592731019,-2.5319045225726526,5.974530088692465,0.99983149766922,-2.6132176558123987
1708433583.038394,-1.9973644018173218,-1.3845945310643692,-2.5318170229541224,5.974402653961935,0.9994667768478394,-2.613664690648214
1708433583.0404456,-1.9966996908187866,-1.3851291102221985,-2.5316765944110315,5.9742867825324915,0.9990928769111633,-2.614180390034811
1708433583.0423865,-1.9960113763809204,-1.3857086610845109,-2.5316200892077845,5.974198567658224,0.9987461566925049,-2.614692513142721
1708433583.0444362,-1.9953818321228027,-1.3862596464208146,-2.531508509312765,5.974101054459371,0.998336672782898,-2.615253750477926
1708433583.0463805,-1.9947503805160522,-1.3868435633233567,-2.53137976328005,5.9740052101905725,0.997976541519165,-2.615763012562887
1708433583.0484042,-1.9941296577453613,-1.3873738658479233,-2.531271759663717,5.973834264069357,0.9976211190223694,-2.6162715593921106
1708433583.0503771,-1.9934537410736084,-1.3879947823337098,-2.531163756047384,5.973778950959005,0.9972560405731201,-2.6167481581317347
1708433583.0524004,-1.9928169250488281,-1.3885238033584137,-2.53107196489443,5.973699557572164,0.9968762397766113,-2.61729342142214
1708433583.0543852,-1.992157220840454,-1.3890752506307145,-2.5309327284442347,5.9736695168311975,0.9965178370475769,-2.6178136507617396
1708433583.0563846,-1.9914960861206055,-1.3896419864944,-2.53080398241152,5.973638045578756,0.9961273074150085,-2.6183047930346888
1708433583.0583897,-1.9908850193023682,-1.3902039241841813,-2.5306838194476526,5.973516690521993,0.9958014488220215,-2.6188581625567835
1708433583.0604026,-1.9902329444885254,-1.3907711219838639,-2.5305116812335413,5.97345648983077,0.9953873753547668,-2.6194563547717493
1708433583.062381,-1.9896429777145386,-1.3913713109544297,-2.530391279851095,5.97345648983077,0.9950315952301025,-2.619934860860006
1708433583.064403,-1.9889696836471558,-1.3919385981610795,-2.5302556196795862,5.973425256996908,0.9946069717407227,-2.6204243342029017
1708433583.0663807,-1.9883339405059814,-1.3924398136189957,-2.530151669179098,5.973419058113851,0.9941966533660889,-2.6209760347949427
1708433583.068402,-1.987750768661499,-1.393011749987938,-2.5299869219409388,5.973452198296346,0.9938624501228333,-2.621488396321432
1708433583.0703888,-1.9871002435684204,-1.3935615134290238,-2.5298472086535853,5.973372924118795,0.993453860282898,-2.6220391432391565
1708433583.0723906,-1.9865378141403198,-1.3941246581128617,-2.529740635548727,5.9733773348625085,0.9930384159088135,-2.622464720402853
1708433583.0744116,-1.9859026670455933,-1.3947529804757615,-2.529555145894186,5.973407256394186,0.9926139116287231,-2.6230021158801478
1708433583.0763865,-1.9853174686431885,-1.3952429008534928,-2.5294156710254114,5.973417508393087,0.9921754002571106,-2.6234903971301478
1708433583.0783997,-1.984742522239685,-1.3958136153272171,-2.529280487691061,5.973458039551534,0.9917668104171753,-2.6239336172686976
1708433583.0804038,-1.9841537475585938,-1.3964330714992066,-2.5291321913348597,5.9735015509422205,0.9914340972900391,-2.624418083821432
1708433583.0823815,-1.9836270809173584,-1.396942914729454,-2.5289762655841272,5.973624574929037,0.9909549355506897,-2.6248448530780237
1708433583.0844269,-1.9830584526062012,-1.3974689853242417,-2.5288365522967737,5.973651516228475,0.9905183911323547,-2.625314537678854
1708433583.0863967,-1.9824237823486328,-1.3980157536319275,-2.5286925474749964,5.973706829338827,0.9901117086410522,-2.625852409993307
1708433583.0884132,-1.9818568229675293,-1.3985842776349564,-2.528536860142843,5.973774301796713,0.9896796345710754,-2.626324240361349
1708433583.0903938,-1.981300950050354,-1.399130956535675,-2.5283432642566126,5.973807441979208,0.9892430305480957,-2.626805369053976
1708433583.092399,-1.9807446002960205,-1.3996657145074387,-2.528240982686178,5.973876225739279,0.9888014793395996,-2.627313200627462
1708433583.094392,-1.9802213907241821,-1.4002888363650818,-2.5280240217791956,5.973898875504293,0.9883829951286316,-2.627794329320089
1708433583.0964198,-1.9796944856643677,-1.4008028668216248,-2.5279210249530237,5.973999607353964,0.9879493117332458,-2.6282299200641077
1708433583.0984066,-1.9791128635406494,-1.4012973469546814,-2.5277445952044886,5.974125134735861,0.9875304698944092,-2.628620688115255
1708433583.1003976,-1.9786465167999268,-1.4018808019212265,-2.5275235811816614,5.974107134133138,0.9870933890342712,-2.629105869923727
1708433583.1023889,-1.9780853986740112,-1.4023331266692658,-2.5274089018451136,5.974177586823263,0.9866807460784912,-2.629540983830587
1708433583.1044178,-1.9775841236114502,-1.4029347610524674,-2.52720815340151,5.974286901741781,0.9862768650054932,-2.630052153264181
1708433583.1064124,-1.9770874977111816,-1.403485746388771,-2.5270240942584437,5.974392044335165,0.9858160018920898,-2.630463425313131
1708433583.1084175,-1.976549744606018,-1.4040367317250748,-2.5268402735339563,5.974523770600118,0.985387921333313,-2.6309025923358362
1708433583.110385,-1.9760463237762451,-1.4045757961324234,-2.5266857782946985,5.974594223290243,0.9849318861961365,-2.6314249674426478
1708433583.112406,-1.975562334060669,-1.4050373297980805,-2.5264559427844446,5.974777567177572,0.9844620823860168,-2.631875816975729
1708433583.1143835,-1.9750418663024902,-1.4056216490319748,-2.5262962023364466,5.9749241946037195,0.9840629696846008,-2.632352654133932
1708433583.1164312,-1.974561095237732,-1.4061525923064728,-2.526087824498312,5.975064980774679,0.9835947155952454,-2.632817331944601
1708433583.118444,-1.9740747213363647,-1.4066797357848664,-2.5258713404284876,5.975180732994833,0.98317950963974,-2.6332088152514856
1708433583.1204126,-1.973610758781433,-1.4072099191001435,-2.525741163884298,5.975345361023702,0.9827392101287842,-2.6336734930621546
1708433583.1224144,-1.9731050729751587,-1.4077176314643403,-2.5255656878100794,5.975487458496847,0.9822937846183777,-2.6341233889209192
1708433583.124427,-1.9726539850234985,-1.4083067637733002,-2.525348726903097,5.975643741875448,0.9818325638771057,-2.6345630327807825
1708433583.1264236,-1.9722318649291992,-1.4087430995753785,-2.525173012410299,5.975787508278646,0.9814499020576477,-2.6350534597979944
1708433583.1284,-1.9717175960540771,-1.4092578452876587,-2.5249198118792933,5.975939261704244,0.9810012578964233,-2.6354482809649866
1708433583.1304047,-1.9712942838668823,-1.409748063688614,-2.5247326532946985,5.976202952652731,0.9805252552032471,-2.635881010686056
1708433583.1324155,-1.9708507061004639,-1.4102522891810914,-2.5245450178729456,5.976342427521505,0.9801124930381775,-2.636362139378683
1708433583.1343982,-1.9704394340515137,-1.4107478272965928,-2.5243693033801478,5.97642599323348,0.9796680808067322,-2.6368051210986536
1708433583.1363974,-1.9699811935424805,-1.4112268847278138,-2.524137083684103,5.9765909788902185,0.9792362451553345,-2.637225929890768
1708433583.1383998,-1.9695786237716675,-1.4117063593915482,-2.523867432271139,5.976794707566061,0.978774905204773,-2.6376290957080286
1708433583.1404161,-1.969159483909607,-1.4122015100768586,-2.52375299135317,5.976955282479086,0.9783762097358704,-2.638061825429098
1708433583.1424136,-1.9687150716781616,-1.4126393508962174,-2.523534123097555,5.977154481201925,0.9779574871063232,-2.638493601475851
1708433583.1444037,-1.968322992324829,-1.4130823028138657,-2.523309055958883,5.9773809788520715,0.9774864315986633,-2.6389437357531946
1708433583.146396,-1.9679356813430786,-1.4136033070138474,-2.523097817097799,5.977552044182577,0.9770674109458923,-2.6393469015704554
1708433583.1484032,-1.967519760131836,-1.4140335482409974,-2.522909943257467,5.977706301003256,0.9766354560852051,-2.6397586504565638
1708433583.150405,-1.9670867919921875,-1.4145005357316514,-2.5226526896106165,5.977919208794393,0.9762154817581177,-2.640223566685812
1708433583.1524355,-1.9667000770568848,-1.4149346065572281,-2.522472683583395,5.978053796082296,0.9757991433143616,-2.640595022832052
1708433583.1544073,-1.9663243293762207,-1.4153781992248078,-2.522244993840353,5.97830747345046,0.9753292798995972,-2.640971008931295
1708433583.1563985,-1.9659264087677002,-1.4158007514527817,-2.5220659414874476,5.978499161988058,0.9749180674552917,-2.641367499028341
1708433583.158394,-1.96551513671875,-1.416342170243599,-2.521841351185934,5.978736030846395,0.9745032787322998,-2.6418083349811
1708433583.1604187,-1.965172290802002,-1.4166836899570008,-2.5216501394854944,5.978909718781271,0.9740004539489746,-2.6421683470355433
1708433583.1624033,-1.9647598266601562,-1.4171717923930665,-2.5214346090899866,5.979091393738546,0.9736353754997253,-2.642592970524923
1708433583.1644073,-1.9644217491149902,-1.417589933877327,-2.521233860646383,5.97928141334609,0.9731897711753845,-2.643017832432882
1708433583.1663873,-1.9639955759048462,-1.4180301290801545,-2.5210514704333704,5.97945390918807,0.9727168083190918,-2.6434019247638147
1708433583.1684237,-1.9636644124984741,-1.4184743475965043,-2.520789925252096,5.979681718140402,0.9722967147827148,-2.6437440554248255
1708433583.1704147,-1.9632630348205566,-1.418869526391365,-2.520520273839132,5.979925977974691,0.971885621547699,-2.6441786924945276
1708433583.1724246,-1.962852954864502,-1.4192473155311127,-2.5203331152545374,5.980170714646139,0.9714322090148926,-2.644582811986105
1708433583.1744068,-1.962589144706726,-1.4196273398450394,-2.5201061407672327,5.9803128121192834,0.9710493683815002,-2.6449549833880823
1708433583.176401,-1.9622241258621216,-1.419984371667244,-2.5198681990252894,5.980479347496786,0.9706509113311768,-2.645379368458883
1708433583.1784215,-1.9618433713912964,-1.4203596425107499,-2.519677464162008,5.980729448586263,0.9702011346817017,-2.6457722822772425
1708433583.1804209,-1.961469292640686,-1.4206909251264115,-2.519482437764303,5.9808841822441,0.9697851538658142,-2.6461573282824915
1708433583.1824126,-1.9611397981643677,-1.421056554918625,-2.519210163746969,5.9810818312461755,0.9693601727485657,-2.6465042273150843
1708433583.1843922,-1.9608317613601685,-1.4215109807303925,-2.518989864979879,5.981302487641134,0.9689404368400574,-2.6468926111804407
1708433583.1863916,-1.96046781539917,-1.421894447212555,-2.5187860170947474,5.981444585114279,0.9685243964195251,-2.6472931543933313
1708433583.1884172,-1.9601978063583374,-1.4221959573081513,-2.518632237111227,5.981674062996664,0.9681074023246765,-2.64763313928713
1708433583.1904008,-1.9597865343093872,-1.422607661490776,-2.5184407869922083,5.981840240746298,0.9677349925041199,-2.6480050722705286
1708433583.1924012,-1.959466814994812,-1.4229397636703034,-2.5181551615344446,5.982024657517233,0.9673965573310852,-2.6483450571643274
1708433583.1943893,-1.959163784980774,-1.423221842651703,-2.5179393927203577,5.982200133591451,0.9669634699821472,-2.6487513224231165
1708433583.1964035,-1.9588068723678589,-1.423577756886818,-2.517740074788229,5.982441532402792,0.9665444493293762,-2.6491056124316614
1708433583.198394,-1.9585036039352417,-1.4238775384477158,-2.5174837748156946,5.982552635460653,0.9662427306175232,-2.649454180394308
1708433583.2003899,-1.9581671953201294,-1.4241682452014466,-2.5172932783709925,5.982736813813009,0.9658060669898987,-2.6498435179339808
1708433583.2023864,-1.9578394889831543,-1.424496130352356,-2.517040554677145,5.982895600586691,0.9654546976089478,-2.6501901785479944
1708433583.2044096,-1.9575074911117554,-1.4248041969588776,-2.5168126265155237,5.9830301878745935,0.9650571942329407,-2.6505466143237513
1708433583.2063823,-1.9571582078933716,-1.4251318734935303,-2.516547981892721,5.983194100647726,0.9647223949432373,-2.6509204546557825
1708433583.2083955,-1.9568723440170288,-1.4253615599921723,-2.5163615385638636,5.983366358071127,0.964357316493988,-2.6513009707080286
1708433583.2104146,-1.9565311670303345,-1.4256532800248642,-2.5161455313311976,5.983517515450277,0.9639972448348999,-2.651649061833517
1708433583.2124043,-1.956191062927246,-1.4259158682874222,-2.5159300009356897,5.983681070595541,0.9635875225067139,-2.6520381609546106
1708433583.2144163,-1.9558950662612915,-1.4261418891004105,-2.515681330357687,5.983845579415121,0.9632558226585388,-2.6522987524615687
1708433583.216424,-1.9555753469467163,-1.4265216004899521,-2.515453640614645,5.9839810011680505,0.962846040725708,-2.652755085621969
1708433583.2183917,-1.9552758932113647,-1.4267673951438447,-2.5153284708606165,5.984129297524252,0.9625154733657837,-2.6529927889453333
1708433583.2204087,-1.9549685716629028,-1.4269861739924927,-2.515038553868429,5.984286534577169,0.9621812105178833,-2.653426472340719
1708433583.2223923,-1.9546231031417847,-1.4272508037141343,-2.514855686818258,5.984459030419149,0.961814820766449,-2.6538031736956995
1708433583.2244294,-1.9543604850769043,-1.4274847668460389,-2.514607016240255,5.984505522042074,0.9615043997764587,-2.6540818850146692
1708433583.2264163,-1.9539923667907715,-1.4277094316533585,-2.514378372822897,5.984616386681356,0.9611676931381226,-2.6544912497149866
1708433583.2284079,-1.953641414642334,-1.4279697400382538,-2.5141711870776575,5.984744059830465,0.9608439207077026,-2.6547985712634485
1708433583.230414,-1.9533333778381348,-1.4281886231950303,-2.5139594713794153,5.984851825028219,0.9605269432067871,-2.6551223436938685
1708433583.2324297,-1.953062653541565,-1.4283176076463242,-2.513780180607931,5.985015141754904,0.9601954221725464,-2.6554396788226526
1708433583.2344172,-1.952783226966858,-1.4285751742175599,-2.513564173375265,5.98504792430953,0.959862470626831,-2.6557677427874964
1708433583.2364113,-1.9524098634719849,-1.428766981964447,-2.5134006182300013,5.985124695092001,0.9596073031425476,-2.656017605458395
1708433583.2385237,-1.9521260261535645,-1.4289913040450593,-2.5131850878344935,5.9852566597755334,0.959261953830719,-2.656403128300802
1708433583.24051,-1.9517658948898315,-1.4291578245214005,-2.5129812399493616,5.9853495238120935,0.9589585661888123,-2.6567283312426966
1708433583.2424555,-1.9514416456222534,-1.4293253880790253,-2.512821976338522,5.985346305161276,0.9586990475654602,-2.656999413167135
1708433583.2444599,-1.9511497020721436,-1.4295540761998673,-2.5126052538501185,5.9854681370551965,0.9583870768547058,-2.6573367754565638
1708433583.246393,-1.9508535861968994,-1.429675818686821,-2.5124669710742396,5.985515939980306,0.9580850005149841,-2.6576204935656946
1708433583.2484357,-1.9505208730697632,-1.4298766267350693,-2.512238089238302,5.985541331558981,0.9578599333763123,-2.65792423883547
1708433583.250464,-1.9502301216125488,-1.4300231796554108,-2.512078110371725,5.985598313599386,0.9575390815734863,-2.6582325140582483
1708433583.2523987,-1.9498695135116577,-1.4302251648953934,-2.5118823687182825,5.985670077591696,0.9572955965995789,-2.6585779825793665
1708433583.2544007,-1.9495913982391357,-1.4303317081979294,-2.511707131062643,5.9857510206993005,0.9570584893226624,-2.6588528792010706
1708433583.2564013,-1.9492378234863281,-1.4304171067527314,-2.5115111509906214,5.985791551857748,0.9567540287971497,-2.659128729497091
1708433583.2584033,-1.9489094018936157,-1.430523858671524,-2.511355225239889,5.985735881119528,0.9565467834472656,-2.659483019505636
1708433583.2604606,-1.9485986232757568,-1.43075084805999,-2.511167828236715,5.985758292465963,0.9563503265380859,-2.659755055104391
1708433583.2624586,-1.9482495784759521,-1.4308619511178513,-2.5110045115100306,5.985871302872457,0.956135630607605,-2.660034243260519
1708433583.2644243,-1.9479337930679321,-1.4309812796166916,-2.5108442942248743,5.985829221993246,0.9559404253959656,-2.6603599230395716
1708433583.2664092,-1.9476064443588257,-1.431080551152565,-2.5106480757342737,5.985841023712911,0.9557106494903564,-2.6606605688678187
1708433583.2683866,-1.947282075881958,-1.4312169414809723,-2.5105252901660364,5.985774743347921,0.955511212348938,-2.660931412373678
1708433583.2704282,-1.946909785270691,-1.4312960368445893,-2.510385576878683,5.985771882324972,0.9553474187850952,-2.6612167994128626
1708433583.2723935,-1.94656503200531,-1.4313800644925614,-2.5102015177356165,5.9857568619544885,0.955122172832489,-2.6615338961230677
1708433583.2744327,-1.9462379217147827,-1.4314833593419571,-2.510073725377218,5.985737550049581,0.9549421668052673,-2.6618509928332728
1708433583.2764425,-1.9459078311920166,-1.4315432471087952,-2.50986892381777,5.985647427826681,0.9547619223594666,-2.66213566461672
1708433583.278395,-1.9454927444458008,-1.4316390019706269,-2.5096803347217005,5.985620844155111,0.9546059370040894,-2.66241699854006
1708433583.2804048,-1.9451855421066284,-1.4317437571338196,-2.5095868746386927,5.985548722534933,0.9544305801391602,-2.66270095506777
1708433583.2823987,-1.9448304176330566,-1.4318439674428483,-2.5093897024737757,5.98552023151473,0.9543329477310181,-2.6630144754992884
1708433583.2843993,-1.9444448947906494,-1.4319203954986115,-2.509286944066183,5.985491859703817,0.9541346430778503,-2.6632781664477747
1708433583.2864478,-1.944072961807251,-1.4319683921388169,-2.50916296640505,5.985400187760153,0.9540146589279175,-2.6635757128344935
1708433583.2884073,-1.943705677986145,-1.432010443215706,-2.5090518633471888,5.9853927967842,0.9539109468460083,-2.6638603846179407
1708433583.2904127,-1.9433339834213257,-1.4320748013309021,-2.5088663736926478,5.985356914788046,0.9538483023643494,-2.6641936937915247
1708433583.2924259,-1.9429168701171875,-1.4320601534894486,-2.5088446776019495,5.985334384232321,0.9536994695663452,-2.664450470601217
1708433583.2944124,-1.942544937133789,-1.4321499329856415,-2.5086312929736536,5.985227930336752,0.9536529183387756,-2.664718214665548
1708433583.296412,-1.9421683549880981,-1.4321811956218262,-2.5085275808917444,5.985160338669576,0.9534953832626343,-2.665044609700338
1708433583.2983937,-1.9417147636413574,-1.432225988512375,-2.5084522406207483,5.985120165138998,0.9534157514572144,-2.665342156087057
1708433583.3004038,-1.9413655996322632,-1.4322991234115143,-2.5083442370044153,5.985031711846151,0.9533363580703735,-2.6655359903918665
1708433583.3023922,-1.940948247909546,-1.432277039890625,-2.5082650820361536,5.985006081848898,0.953273355960846,-2.6659346262561243
1708433583.304398,-1.9405558109283447,-1.432310016160347,-2.5081363360034388,5.984872567444601,0.9532283544540405,-2.666215483342306
1708433583.3064272,-1.9401026964187622,-1.4323174369386216,-2.508113447819845,5.984706389694967,0.9531679153442383,-2.6665034929858606
1708433583.3084292,-1.9396828413009644,-1.4323099565557023,-2.508017603551046,5.98460732677535,0.9531110525131226,-2.666849676762716
1708433583.3104138,-1.9392839670181274,-1.432342917924263,-2.507887903844015,5.9845337746436975,0.9531008005142212,-2.667105499898092
1708433583.312407,-1.938887119293213,-1.4322114300778885,-2.507857624684469,5.984383809357443,0.9530933499336243,-2.667361323033468
1708433583.3144221,-1.938435673713684,-1.4322532278350373,-2.507757012044088,5.984247553139486,0.9530901312828064,-2.667637888585226
1708433583.316412,-1.9380172491073608,-1.4322399509004136,-2.507786575947897,5.984172689705648,0.953069269657135,-2.6679633299456995
1708433583.3184159,-1.9375488758087158,-1.4322083306363602,-2.5076897780047815,5.984036314278402,0.9531351923942566,-2.6682725588427942
1708433583.3204186,-1.9371044635772705,-1.432163582449295,-2.5076285044299524,5.983897077828207,0.9531636834144592,-2.6686387697802942
1708433583.3223977,-1.9366555213928223,-1.4320874226144333,-2.507620875035421,5.9837273237998865,0.9532150030136108,-2.668922726308004
1708433583.3244033,-1.9362009763717651,-1.4320571732572098,-2.5075653235064905,5.983592617302694,0.9532824158668518,-2.669220272694723
1708433583.3263934,-1.9357255697250366,-1.4320659947446366,-2.507566277180807,5.983419883042135,0.9533706903457642,-2.6695414225207728
1708433583.3284419,-1.9352526664733887,-1.4319809836200257,-2.507545773183004,5.983264434128561,0.9534472823143005,-2.6698504129992884
1708433583.3304253,-1.9347727298736572,-1.4319418382695694,-2.507566277180807,5.983111607819357,0.9535285234451294,-2.6701563040362757
1708433583.332435,-1.934326171875,-1.4318806242993851,-2.507493559514181,5.983042228012838,0.9535478353500366,-2.670464817677633
1708433583.334397,-1.933882474899292,-1.4318252962878724,-2.5075629393206995,5.982823598175802,0.9536229968070984,-2.6707621256457728
1708433583.336407,-1.9333913326263428,-1.4317980718663712,-2.5075348059283655,5.9827215550239465,0.9536950588226318,-2.671124521886007
1708433583.338414,-1.9328519105911255,-1.4317172479680558,-2.507573906575338,5.98254023769454,0.9538299441337585,-2.671382490788595
1708433583.3404112,-1.9323254823684692,-1.431678132419922,-2.5076263586627405,5.982394921570577,0.9539290070533752,-2.671765391026632
1708433583.3424451,-1.9318257570266724,-1.4316049975207825,-2.507669989262716,5.98216866233901,0.9540491700172424,-2.672065560017721
1708433583.344438,-1.9313136339187622,-1.4316152197173615,-2.5077829996692103,5.982024657517233,0.9541648626327515,-2.672360960637228
1708433583.3464007,-1.9307901859283447,-1.4315180343440552,-2.507777992879049,5.981814610749044,0.954310417175293,-2.6727524439441126
1708433583.3484323,-1.930270791053772,-1.43147765219722,-2.507887903844015,5.9816874144370935,0.9543508887290955,-2.673077646886007
1708433583.3503945,-1.9297720193862915,-1.4313820165446778,-2.507951800023214,5.981523978501119,0.9545415043830872,-2.673364226018087
1708433583.3524106,-1.9292490482330322,-1.431357891564705,-2.508007589970724,5.981381642609396,0.9547140002250671,-2.6736584345446985
1708433583.354491,-1.9286720752716064,-1.4312739384225388,-2.5080469290362757,5.981192934304037,0.9549466967582703,-2.6740079561816614
1708433583.3564093,-1.928195834159851,-1.4312216204455872,-2.5081351439105433,5.981098401337423,0.9551225304603577,-2.6743245760547083
1708433583.358446,-1.9276726245880127,-1.431191385989525,-2.5082269350634974,5.980894434243002,0.955355167388916,-2.6746822039233606
1708433583.3604,-1.9271148443222046,-1.4310691219619294,-2.508331362401144,5.980736958771505,0.9555636644363403,-2.6749725977527063
1708433583.3624086,-1.9265806674957275,-1.4310313028148194,-2.508379046116964,5.980519997864523,0.9558112621307373,-2.675351683293478
1708433583.3644104,-1.9260501861572266,-1.430925266151764,-2.508519713078634,5.980357873230734,0.956072211265564,-2.6756964365588587
1708433583.366378,-1.9255009889602661,-1.4309027952006836,-2.508611265813009,5.980272280960836,0.956333577632904,-2.6760247389422815
1708433583.36842,-1.9249956607818604,-1.4308460664800187,-2.5086942354785364,5.980012881546774,0.9565889239311218,-2.6764000097857874
1708433583.3703759,-1.9244135618209839,-1.43076545119796,-2.5088065306292933,5.9798797247703455,0.9569113850593567,-2.6767144838916224
1708433583.3723865,-1.923852562904358,-1.4308051478913804,-2.508890215550558,5.979641186981954,0.957071840763092,-2.677088801060812
1708433583.374391,-1.9232765436172485,-1.430703581576683,-2.508998219166891,5.979507791786947,0.9574024677276611,-2.6774748007403772
1708433583.3764117,-1.9227752685546875,-1.4306019705585022,-2.509106222783224,5.979289161949911,0.9577231407165527,-2.6777659098254603
1708433583.3784564,-1.9222395420074463,-1.4306210291436692,-2.5092912356006067,5.979160177498617,0.9580506086349487,-2.678160015736715
1708433583.380405,-1.9216465950012207,-1.4305520814708252,-2.5094428698169153,5.978947388916769,0.9584978222846985,-2.6785298029529017
1708433583.3823948,-1.9211337566375732,-1.4304803025773545,-2.509610716496603,5.978848325997152,0.9588025212287903,-2.6788902918445032
1708433583.3844228,-1.9205315113067627,-1.4303786915591736,-2.509749952946798,5.978631007462301,0.9592210650444031,-2.67920691171755
1708433583.3864324,-1.919978141784668,-1.430298240189888,-2.509925429021017,5.978470551758566,0.9596176743507385,-2.679559294377462
1708433583.3884058,-1.9194198846817017,-1.4302753967097779,-2.51011830965151,5.97831009605483,0.9599460363388062,-2.679990355168478
1708433583.3903792,-1.9187991619110107,-1.4302647870830079,-2.5103111902820032,5.97819613197402,0.9602736830711365,-2.680366341267721
1708433583.3923986,-1.918308973312378,-1.4301435363343735,-2.5104695002185267,5.978068935662069,0.9606547951698303,-2.6807640234576624
1708433583.394418,-1.9176750183105469,-1.4300673317960282,-2.510702435170309,5.977920400887289,0.9610792398452759,-2.6811814943896692
1708433583.3964033,-1.9170968532562256,-1.4300074887326737,-2.5109544436084192,5.977817165642538,0.9615044593811035,-2.6816063562976282
1708433583.3984234,-1.9164834022521973,-1.4299636793187638,-2.5111852327929896,5.977652299195089,0.9618869423866272,-2.6820364634143274
1708433583.4004004,-1.9159423112869263,-1.4298635584167023,-2.5114739576922815,5.977536785393514,0.9623117446899414,-2.6824215094195765
1708433583.4023976,-1.9153534173965454,-1.4297787112048645,-2.5117343107806605,5.977438080101766,0.9627276062965393,-2.6827991644488733
1708433583.4044034,-1.9147459268569946,-1.4296993029168625,-2.511981789265768,5.977325308113851,0.9631762504577637,-2.6831677595721644
1708433583.4064457,-1.9141380786895752,-1.4296315175345917,-2.5122366587268274,5.97722493389205,0.9636390805244446,-2.683568541203634
1708433583.4084258,-1.9135754108428955,-1.4296418589404603,-2.512520138417379,5.977085697441854,0.9640904664993286,-2.683920685444967
1708433583.4103754,-1.912972331047058,-1.4295282673886796,-2.5128567854510706,5.977072226792135,0.9645179510116577,-2.6842978636371058
1708433583.4123888,-1.9122933149337769,-1.429436818962433,-2.5131564776050013,5.97688769081191,0.9650313258171082,-2.6847201029406946
1708433583.4144309,-1.911734938621521,-1.4294022035649796,-2.51355749765505,5.97681890705184,0.9655849933624268,-2.6851208845721644
1708433583.4164329,-1.9111168384552002,-1.4292723548463364,-2.513848606740133,5.976718532830038,0.9661136865615845,-2.685591522847311
1708433583.4184165,-1.9104797840118408,-1.4292094123414536,-2.514232937489645,5.976619231491842,0.9666121006011963,-2.6860323588000696
1708433583.4204025,-1.9098765850067139,-1.4291536521962662,-2.5145555178271692,5.976530778198995,0.9671913981437683,-2.686408583317892
1708433583.4223928,-1.9092698097229004,-1.4290731859258194,-2.5149152914630335,5.976475465088644,0.9677026271820068,-2.6868463198291224
1708433583.4244251,-1.9086766242980957,-1.429030717616417,-2.5153074900256556,5.976366150170126,0.9682635068893433,-2.6872428099261683
1708433583.426411,-1.9080326557159424,-1.428961993460991,-2.515679184590475,5.976327287941732,0.96877521276474,-2.6876853148089808
1708433583.4284084,-1.9074089527130127,-1.4288780850223084,-2.5161195437060755,5.976252066880026,0.969409704208374,-2.6880906263934534
1708433583.430409,-1.906767725944519,-1.4288108211806794,-2.5165346304522913,5.976192223816671,0.9700132012367249,-2.688519064580099
1708433583.4324305,-1.9061620235443115,-1.4287455391934891,-2.516965929661886,5.9761472819145105,0.9706946611404419,-2.688948933278219
1708433583.434415,-1.905595064163208,-1.4286210995963593,-2.51745850244631,5.976087438851156,0.9713205099105835,-2.689352814351217
1708433583.4364283,-1.9050052165985107,-1.428570033316948,-2.517921749745504,5.976097690850057,0.9719813466072083,-2.6898396650897425
1708433583.4384062,-1.9043316841125488,-1.428550363784172,-2.5183282534228724,5.976024377136984,0.9725319743156433,-2.6903138796435755
1708433583.4404233,-1.9037692546844482,-1.428503857260086,-2.518768612538473,5.975967514305868,0.9731578826904297,-2.6906893889056605
1708433583.4424636,-1.9031476974487305,-1.4284348797849198,-2.5192609469043177,5.975910532265463,0.9738321304321289,-2.691139284764425
1708433583.4444249,-1.9025291204452515,-1.4284046006253739,-2.5197880903827112,5.975928532868185,0.9744843244552612,-2.6916008631335657
1708433583.4464314,-1.9018964767456055,-1.4283166539720078,-2.520238701497213,5.975912081986227,0.9751722812652588,-2.692037884389059
1708433583.4484115,-1.9012739658355713,-1.4282315981439133,-2.520775381718771,5.975890862732687,0.9758992195129395,-2.692508045827047
1708433583.4504113,-1.9006454944610596,-1.4281911265901108,-2.521352831517355,5.975921141892233,0.9766062498092651,-2.6929286162005823
1708433583.452387,-1.9000006914138794,-1.4281071585467835,-2.5218802134143274,5.975956904679098,0.9773263931274414,-2.6933000723468226
1708433583.4543884,-1.899332046508789,-1.4280428898385544,-2.5224409739123743,5.975944983750143,0.9779852628707886,-2.6938684622394007
1708433583.4564044,-1.898738145828247,-1.4280694735101243,-2.522926394139425,5.975992905884542,0.9787195920944214,-2.69429594675173
1708433583.4583976,-1.898116946220398,-1.4280083042434235,-2.5235374609576624,5.976052748947897,0.9794192314147949,-2.6947456041919153
1708433583.4603906,-1.8975028991699219,-1.4279678177884598,-2.5241051355945032,5.976129162102499,0.9801487922668457,-2.6952932516681116
1708433583.4624348,-1.896883249282837,-1.4279823911241074,-2.524757448826925,5.97616075256423,0.9809548258781433,-2.6957700888263147
1708433583.464403,-1.8962678909301758,-1.4278961432031174,-2.525320355092184,5.9762823460395715,0.9817318916320801,-2.696218554173605
1708433583.4664114,-1.8955957889556885,-1.427860141997673,-2.5259690920459192,5.97630928733901,0.9825606942176819,-2.696676794682638
1708433583.4684122,-1.8949440717697144,-1.4278152149966736,-2.5265570322619837,5.9763526795204065,0.9833692908287048,-2.6971593538867396
1708433583.4704096,-1.8943251371383667,-1.4278831642917176,-2.527212206517355,5.976409661560812,0.9841412305831909,-2.697667185460226
1708433583.472458,-1.8936371803283691,-1.4278088372996827,-2.5278170744525355,5.976429211884298,0.9849669933319092,-2.69814378419985
1708433583.4743984,-1.893050193786621,-1.4278012973121186,-2.5284648577319544,5.976500856667318,0.985828161239624,-2.6986704508410853
1708433583.4764166,-1.8924016952514648,-1.4276659798673172,-2.529092852269308,5.976551997452535,0.9866064190864563,-2.6991799513446253
1708433583.4783916,-1.891791582107544,-1.4277000290206452,-2.5297282377826136,5.97668086269454,0.9874202013015747,-2.699627463017599
1708433583.4804204,-1.891221523284912,-1.4277414840510865,-2.5303764978991907,5.97680829742507,0.9882155060768127,-2.7001712957965296
1708433583.4824057,-1.8905447721481323,-1.4277490091374894,-2.5310068766223353,5.976883280068197,0.9889842867851257,-2.7007139364825647
1708433583.4844031,-1.8899611234664917,-1.4277370882085343,-2.5317447821246546,5.976932751923361,0.9898005127906799,-2.7011080423938196
1708433583.4864194,-1.889317512512207,-1.4277490240386506,-2.5324111620532435,5.977106678276815,0.990617573261261,-2.701623264943258
1708433583.4884539,-1.8887659311294556,-1.427737073307373,-2.5331652800189417,5.977148759156027,0.9915280342102051,-2.7021408716784876
1708433583.4904335,-1.8881711959838867,-1.4277819258025666,-2.533872429524557,5.977317917137899,0.992472231388092,-2.7026823202716272
1708433583.4924302,-1.887527346611023,-1.4277849805406113,-2.534612480794088,5.977486121445455,0.9934389591217041,-2.7031834761248987
1708433583.494407,-1.8869529962539673,-1.4278131884387513,-2.535335365925924,5.977572905808248,0.9942915439605713,-2.703689161931173
1708433583.4964032,-1.8863683938980103,-1.427840457563736,-2.5360925833331507,5.97772108295516,0.9952251315116882,-2.7041831652270716
1708433583.498422,-1.8857933282852173,-1.4278882902911683,-2.5367868582354944,5.977895486145773,0.9960687756538391,-2.704667870198385
1708433583.5004208,-1.8851810693740845,-1.4279450637153168,-2.537555996571676,5.9780239937599084,0.9969946146011353,-2.7051575819598597
1708433583.5023994,-1.884669542312622,-1.4279450488141556,-2.538330856953756,5.978250252991476,0.9979041814804077,-2.7055769602404993
1708433583.5044184,-1.8840906620025635,-1.4280096304467698,-2.5391388575183313,5.978476512223043,0.9988769292831421,-2.7061224619494837
1708433583.5064209,-1.8835264444351196,-1.4280663144639512,-2.5399721304522913,5.978598224907675,0.9998301267623901,-2.70668608347048
1708433583.508421,-1.8829498291015625,-1.4281349790147324,-2.540767256413595,5.978822815209188,1.000847578048706,-2.7072086969958704
1708433583.510398,-1.8823403120040894,-1.4281829458526154,-2.5415788332568567,5.978974330216207,1.0017801523208618,-2.707688872014181
1708433583.5124104,-1.8818747997283936,-1.4281805467656632,-2.542382780705587,5.979239570885458,1.0026260614395142,-2.7081943194018763
1708433583.5144033,-1.881355881690979,-1.428204358821251,-2.5432072321521204,5.9793280241783044,1.0035057067871094,-2.708698813115255
1708433583.5164535,-1.8807919025421143,-1.428317667250969,-2.54397422472109,5.9796427367027185,1.004427433013916,-2.7092486063586634
1708433583.5184052,-1.8802307844161987,-1.4283492428115387,-2.544793430958883,5.97987066486434,1.005353331565857,-2.7097302118884485
1708433583.520397,-1.8797413110733032,-1.4283795219710846,-2.545699421559469,5.980127322464742,1.0063974857330322,-2.7102554480182093
1708433583.5224264,-1.8791968822479248,-1.4284898203662415,-2.5465992132769983,5.980336892395773,1.0074117183685303,-2.7107701937304896
1708433583.5244162,-1.8786433935165405,-1.42853036642585,-2.5474301020251673,5.980668055802145,1.0084502696990967,-2.711278025303976
1708433583.5263982,-1.8780831098556519,-1.428568036561348,-2.548337523137228,5.980927455216207,1.0094966888427734,-2.711857620869772
1708433583.5284286,-1.877602219581604,-1.4286322903684159,-2.5492504278766077,5.981165873795309,1.0105631351470947,-2.7123711744891565
1708433583.5304163,-1.8770527839660645,-1.4287043076804657,-2.5501335302936,5.981450545578756,1.0115842819213867,-2.712900702153341
1708433583.5324209,-1.876515507698059,-1.4287807953408738,-2.551021401082174,5.981759297638693,1.0125868320465088,-2.7133927981006067
1708433583.5343869,-1.87606680393219,-1.4288315188935776,-2.551933828984396,5.98198567607955,1.0135018825531006,-2.7138519922839563
1708433583.53639,-1.8755289316177368,-1.4289123874953766,-2.5528655687915247,5.982339489250936,1.0144764184951782,-2.7144492308246058
1708433583.5384026,-1.8750141859054565,-1.4290215385011216,-2.5538416544543665,5.982667791634359,1.0155025720596313,-2.7150116602527063
1708433583.5404441,-1.8745684623718262,-1.4290561538985749,-2.554796282445089,5.983003723412313,1.0165832042694092,-2.7155328432666224
1708433583.5424523,-1.8739982843399048,-1.4291444283774872,-2.5557401815997522,5.9833335755165,1.017624855041504,-2.715992037449972
1708433583.5444002,-1.873449683189392,-1.4292073559812088,-2.5567851702319544,5.983669268875875,1.0186352729797363,-2.716527525578634
1708433583.5463905,-1.8729665279388428,-1.4292825025371094,-2.5576775709735315,5.984073865204611,1.019704818725586,-2.7169867197619837
1708433583.5483987,-1.8725013732910156,-1.4293464881232758,-2.558674160634176,5.9843859551246545,1.0206737518310547,-2.717553202305929
1708433583.5504057,-1.8719550371170044,-1.4295421701720734,-2.5596981684314173,5.984741318016805,1.021654725074768,-2.718139950429098
1708433583.5524645,-1.8714452981948853,-1.4295562368682404,-2.5606537500964563,5.985174286156454,1.0226894617080688,-2.7186787764178675
1708433583.5544271,-1.8709138631820679,-1.4296234858087082,-2.5616934935199183,5.985600101738729,1.0237938165664673,-2.719149414693014
1708433583.55642,-1.8704264163970947,-1.4297226530364533,-2.5627124945269983,5.985986816674032,1.0248254537582397,-2.7196131388293665
1708433583.5583951,-1.869943380355835,-1.429846779709198,-2.563817803059713,5.986406433373251,1.02598237991333,-2.7201367060290735
1708433583.5604534,-1.869463324546814,-1.4299390476993104,-2.564841095601217,5.98687111118392,1.0270264148712158,-2.7206295172320765
1708433583.5624168,-1.8690077066421509,-1.4300623101047059,-2.5659499804126185,5.987256157189169,1.0280719995498657,-2.7210996786700647
1708433583.564392,-1.8685325384140015,-1.430149258380272,-2.566939894353048,5.987729656487264,1.0290906429290771,-2.721572224293844
1708433583.5664146,-1.8680812120437622,-1.4303229016116639,-2.5680070559131067,5.988124000817098,1.0301669836044312,-2.7221105734454554
1708433583.5684047,-1.8676092624664307,-1.4304095965674897,-2.5690627733813685,5.988608586579122,1.031213641166687,-2.722595993672506
1708433583.5704176,-1.867189884185791,-1.4306234878352662,-2.5702090899096888,5.989121067314901,1.0322805643081665,-2.72308856645693
1708433583.5724418,-1.8667315244674683,-1.4307266485742112,-2.571292225514547,5.989548313408651,1.0333861112594604,-2.723553482686178
1708433583.574424,-1.86622154712677,-1.4308870893767853,-2.5724523703204554,5.990045535355367,1.0344669818878174,-2.7240527311908167
1708433583.5764387,-1.8657933473587036,-1.4310546529344101,-2.5734873453723353,5.99051200130538,1.0356107950210571,-2.7245612780200403
1708433583.5784266,-1.8653655052185059,-1.4311896425536652,-2.5745542685138147,5.991023051529684,1.0366777181625366,-2.725053850804464
1708433583.580433,-1.865003228187561,-1.4314218026450654,-2.575702492390768,5.991553294449606,1.0377867221832275,-2.725550715123312
