Eg3-git/Classifiers/Data Collection/u1/u1cir1_ur3e_joint_states.csv
time,elbow_joint,shoulder_lift_joint,shoulder_pan_joint,wrist_1_joint,wrist_2_joint,wrist_3_joint
1708433471.5634074,-2.141721487045288,-1.3338715893081208,-2.527679506932394,6.111437189369955,1.0192071199417114,-1.8058622519122522
1708433471.5654237,-2.141747236251831,-1.3338385832360764,-2.527703348790304,6.1114985821540735,1.0191558599472046,-1.8058651129352015
1708433471.5674095,-2.1417596340179443,-1.3338182133487244,-2.527686897908346,6.111495601921835,1.019186019897461,-1.8059194723712366
1708433471.5693934,-2.141730546951294,-1.333874673848488,-2.527679506932394,6.11147032955245,1.019181489944458,-1.8058698813067835
1708433471.571515,-2.1416773796081543,-1.333822564487793,-2.527665917073385,6.111503112107076,1.0191439390182495,-1.8058894316302698
1708433471.5734727,-2.141747236251831,-1.3338182282498856,-2.527670447026388,6.111449467926779,1.0191936492919922,-1.8059147039996546
1708433471.575492,-2.141726016998291,-1.3338672679713746,-2.527691427861349,6.111479270249166,1.019176959991455,-1.805873219166891
1708433471.5774696,-2.141747236251831,-1.333851934676506,-2.527698818837301,6.111441600113668,1.019202709197998,-1.805906120930807
1708433471.579442,-2.1417348384857178,-1.3338505935719986,-2.527674976979391,6.111441600113668,1.0191904306411743,-1.805897061024801
1708433471.5814397,-2.141710042953491,-1.3338182282498856,-2.527686897908346,6.111479270249166,1.0191904306411743,-1.8059147039996546
1708433471.5834565,-2.1417348384857178,-1.3338182282498856,-2.527665917073385,6.111441600113668,1.019148349761963,-1.805906120930807
1708433471.5854797,-2.141714572906494,-1.3338270497373124,-2.527691427861349,6.11141203620986,1.0192145109176636,-1.805922810231344
1708433471.5874841,-2.1416773796081543,-1.3338385832360764,-2.52765399614443,6.111400234490194,1.0191981792449951,-1.805873219166891
1708433471.589452,-2.1416773796081543,-1.3338475090316315,-2.5277121702777308,6.111453878670492,1.019186019897461,-1.8059433142291468
1708433471.5914366,-2.1417429447174072,-1.3338593405536194,-2.527691427861349,6.111491191178121,1.01914381980896,-1.805922810231344
1708433471.5934005,-2.141710042953491,-1.333867297773697,-2.5276957193957728,6.111456739693441,1.019181489944458,-1.8059600035296839
1708433471.5954533,-2.141721487045288,-1.3338638556054612,-2.527707878743307,6.111479270249166,1.0191439390182495,-1.805967156087057
1708433471.5974407,-2.1417553424835205,-1.3339087081006546,-2.527707878743307,6.111462819367208,1.0192145109176636,-1.8059185186969202
1708433471.5994427,-2.141714572906494,-1.3337974709323426,-2.527663056050436,6.111491191178121,1.019164800643921,-1.8059600035296839
1708433471.6014519,-2.141721487045288,-1.3338137728026886,-2.5277121702777308,6.111488091736593,1.019181489944458,-1.805979077016012
1708433471.6034176,-2.141747236251831,-1.3338716340116044,-2.527695957814352,6.111465799599447,1.0191935300827026,-1.8059585730182093
1708433471.6054325,-2.1416943073272705,-1.3338315051845093,-2.5277002493487757,6.111474740296163,1.0191936492919922,-1.8059747854815882
1708433471.6074047,-2.1417393684387207,-1.3338093024543305,-2.527686897908346,6.111491191178121,1.0192234516143799,-1.8059542814837855
1708433471.6094153,-2.1417429447174072,-1.333846167927124,-2.527679506932394,6.111507642060079,1.019186019897461,-1.805979077016012
1708433471.611408,-2.141721487045288,-1.333854929809906,-2.52765399614443,6.111486661225118,1.0191439390182495,-1.8059828917132776
1708433471.6134224,-2.141710042953491,-1.3338385832360764,-2.527684036885397,6.1115198014076135,1.019160270690918,-1.8059423605548304
1708433471.6154287,-2.1417641639709473,-1.333813802605011,-2.527686897908346,6.111524212151327,1.019202709197998,-1.8059962431537073
1708433471.6174073,-2.1416852474212646,-1.333846167927124,-2.527715269719259,6.111502992897787,1.0192099809646606,-1.8059786001788538
1708433471.6194193,-2.141723394393921,-1.3338385832360764,-2.527649466191427,6.111437189369955,1.019176959991455,-1.8059423605548304
1708433471.6214952,-2.141730546951294,-1.3338182282498856,-2.5276616255389612,6.111427056580343,1.0192099809646606,-1.8059585730182093
1708433471.6234915,-2.1417348384857178,-1.3338253063014527,-2.5277121702777308,6.111500131874838,1.0191484689712524,-1.8059914747821253
1708433471.6254194,-2.141747236251831,-1.3338269901326676,-2.527703348790304,6.111446130066671,1.019164800643921,-1.8059871832477015
1708433471.6274493,-2.141730546951294,-1.3338672828725358,-2.527679506932394,6.111458408623495,1.019164800643921,-1.8059614340411585
1708433471.6294122,-2.1417596340179443,-1.333825336103775,-2.527695957814352,6.111502992897787,1.0191529989242554,-1.8059871832477015
1708433471.6314375,-2.14176869392395,-1.3337718558362504,-2.527691427861349,6.111491191178121,1.0191725492477417,-1.8060200850116175
1708433471.6334238,-2.14176869392395,-1.3338298213532944,-2.5276675860034388,6.111430036812582,1.0191394090652466,-1.8060277144061487
1708433471.6354382,-2.141721487045288,-1.3338702482036133,-2.527670447026388,6.11147032955245,1.0191981792449951,-1.80597430864443
1708433471.637451,-2.1417348384857178,-1.3338672679713746,-2.5276616255389612,6.111425506859579,1.019181489944458,-1.8059900442706507
1708433471.63945,-2.141719102859497,-1.3338416528752823,-2.527665917073385,6.111486661225118,1.0192278623580933,-1.8059871832477015
1708433471.641424,-2.1417124271392822,-1.333846167927124,-2.527682367955343,6.111500131874838,1.0191320180892944,-1.8059900442706507
1708433471.6434467,-2.1417429447174072,-1.333846167927124,-2.527663056050436,6.111479151039877,1.0191981792449951,-1.8060277144061487
1708433471.6454244,-2.141719102859497,-1.333846167927124,-2.5277121702777308,6.111465799599447,1.0191848278045654,-1.8060110251056116
1708433471.6474183,-2.1416943073272705,-1.333846167927124,-2.5276616255389612,6.111511933594503,1.019164800643921,-1.8060439268695276
1708433471.6494179,-2.1416728496551514,-1.333843008880951,-2.527695957814352,6.111477720528402,1.0192115306854248,-1.8060200850116175
1708433471.6514058,-2.1416852474212646,-1.333854929809906,-2.5277331511126917,6.111491071968832,1.0191725492477417,-1.8059786001788538
1708433471.6534388,-2.1416852474212646,-1.3338372272304078,-2.527679506932394,6.111462819367208,1.0191892385482788,-1.8059662024127405
1708433471.6554096,-2.141710042953491,-1.3338539016297837,-2.5277121702777308,6.111449467926779,1.019202709197998,-1.8060272375689905
1708433471.6574287,-2.1417171955108643,-1.333846167927124,-2.527695957814352,6.111471879273214,1.0191904306411743,-1.8060067335711878
1708433471.659402,-2.1417348384857178,-1.333874673848488,-2.527670447026388,6.11157642582015,1.0191439390182495,-1.8059786001788538
1708433471.6614027,-2.1417012214660645,-1.3338505935719986,-2.527684036885397,6.111491071968832,1.0191892385482788,-1.805993382130758
1708433471.6634066,-2.1416773796081543,-1.3338372272304078,-2.527658526097433,6.11147032955245,1.0191737413406372,-1.806009594594137
1708433471.6654205,-2.141726016998291,-1.333895520572998,-2.527698818837301,6.11150752285079,1.019160270690918,-1.8060067335711878
1708433471.667418,-2.141726016998291,-1.3338682812503357,-2.52765399614443,6.111458408623495,1.019164800643921,-1.806047264729635
1708433471.6694083,-2.1417348384857178,-1.3337974709323426,-2.527674976979391,6.111502992897787,1.0192055702209473,-1.806014362965719
1708433471.6714804,-2.141726016998291,-1.3338372272304078,-2.527703348790304,6.1114210961158655,1.019164800643921,-1.8060429731952112
1708433471.6734707,-2.1417338848114014,-1.3338314306787034,-2.52765399614443,6.111486661225118,1.0191936492919922,-1.8060100714312952
1708433471.6754377,-2.1416683197021484,-1.333834246998169,-2.527633253728048,6.111465799599447,1.0191439390182495,-1.806054417287008
1708433471.6774592,-2.141730546951294,-1.3338298213532944,-2.5276451746570032,6.111453878670492,1.0192145109176636,-1.8060348669635218
1708433471.679457,-2.141723394393921,-1.3337974709323426,-2.527665917073385,6.111441600113668,1.0191153287887573,-1.806063477193014
1708433471.6814196,-2.141721487045288,-1.333813802605011,-2.52767783800234,6.1114985821540735,1.0192099809646606,-1.806056324635641
1708433471.6834128,-2.141756296157837,-1.3338253510049363,-2.527707878743307,6.111540663033285,1.0191439390182495,-1.805993382130758
1708433471.6854653,-2.1416897773742676,-1.3338715893081208,-2.527695957814352,6.111428129463949,1.019164800643921,-1.806030575429098
1708433471.68748,-2.141714572906494,-1.3338999462178727,-2.527707640324728,6.111500131874838,1.019164800643921,-1.806030575429098
1708433471.6894455,-2.1417057514190674,-1.333809272652008,-2.52765399614443,6.111453878670492,1.0191847085952759,-1.8060758749591272
1708433471.691416,-2.1417171955108643,-1.3338538569263,-2.5277121702777308,6.111497032433309,1.0191395282745361,-1.806080166493551
1708433471.693481,-2.1417384147644043,-1.3338549000075837,-2.5277121702777308,6.111483800202169,1.019181489944458,-1.8060262838946741
1708433471.6954384,-2.1417641639709473,-1.3338018965772171,-2.527670447026388,6.11150752285079,1.0191981792449951,-1.8060515562640589
1708433471.6975696,-2.1417393684387207,-1.3338061434081574,-2.527682367955343,6.111444818764486,1.0191725492477417,-1.8060625235186976
1708433471.6994598,-2.141726016998291,-1.3338583272746583,-2.5276616255389612,6.11147032955245,1.0191725492477417,-1.8060711065875452
1708433471.701452,-2.1416897773742676,-1.3338298213532944,-2.527691427861349,6.111465799599447,1.0191892385482788,-1.8060668150531214
1708433471.7034485,-2.141747236251831,-1.3338298213532944,-2.527698818837301,6.111437189369955,1.0192145109176636,-1.806075398121969
1708433471.7054148,-2.141714572906494,-1.3337807965329667,-2.527691427861349,6.111515271454611,1.0191395282745361,-1.806021515523092
1708433471.7074585,-2.1416985988616943,-1.3338208955577393,-2.527637783681051,6.111458408623495,1.0192099809646606,-1.8060992399798792
1708433471.7094164,-2.141721487045288,-1.333854929809906,-2.5277367273913782,6.11152874210433,1.0191439390182495,-1.8060343901263636
1708433471.7114143,-2.1417338848114014,-1.3338715893081208,-2.527703348790304,6.111531722336569,1.0192174911499023,-1.8060410658465784
1708433471.71347,-2.141747236251831,-1.3338715893081208,-2.5277121702777308,6.111495601921835,1.0192099809646606,-1.806080166493551
1708433471.7154374,-2.14178466796875,-1.3338672679713746,-2.527684036885397,6.111449348717489,1.0191936492919922,-1.8060458342181605
1708433471.7174723,-2.141726016998291,-1.3338328164866944,-2.527621094380514,6.1114985821540735,1.0191981792449951,-1.8060744444476526
1708433471.71943,-2.1417641639709473,-1.3338372272304078,-2.527695957814352,6.111494052201071,1.0191725492477417,-1.8060830275165003
1708433471.7214894,-2.1417641639709473,-1.333876059656479,-2.527649704610006,6.1115198014076135,1.0192099809646606,-1.8060668150531214
1708433471.7234764,-2.1417348384857178,-1.3337973815253754,-2.527686897908346,6.111437189369955,1.0192145109176636,-1.8060458342181605
1708433471.725479,-2.1416773796081543,-1.3338298213532944,-2.527698818837301,6.111515271454611,1.0191904306411743,-1.8060668150531214
1708433471.7274413,-2.141726016998291,-1.3338416528752823,-2.527674976979391,6.111503112107076,1.0191981792449951,-1.8060668150531214
1708433471.7294598,-2.1417429447174072,-1.3338298213532944,-2.527682367955343,6.111500131874838,1.0191848278045654,-1.8060582319842737
1708433471.7314544,-2.141751766204834,-1.3338386130383988,-2.527707878743307,6.111524212151327,1.019176959991455,-1.8061073462115687
1708433471.733454,-2.141710042953491,-1.3338505935719986,-2.527679506932394,6.111486661225118,1.0191725492477417,-1.8060830275165003
1708433471.7354884,-2.141721487045288,-1.3338792038014908,-2.52765399614443,6.111441600113668,1.0191725492477417,-1.8060086409198206
1708433471.7374911,-2.141726016998291,-1.3338298213532944,-2.527665917073385,6.111524212151327,1.0192219018936157,-1.8060668150531214
1708433471.739431,-2.1417348384857178,-1.3337510985187073,-2.527698818837301,6.111465799599447,1.0192099809646606,-1.8060458342181605
1708433471.7414253,-2.1417384147644043,-1.3338416528752823,-2.527710739766256,6.111465799599447,1.0192099809646606,-1.8060830275165003
1708433471.7434657,-2.141726016998291,-1.333834246998169,-2.527698818837301,6.111524212151327,1.0192145109176636,-1.8060625235186976
1708433471.745445,-2.141730546951294,-1.3338583272746583,-2.527691427861349,6.111524212151327,1.0192294120788574,-1.8060653845416468
1708433471.7474635,-2.1417641639709473,-1.3338672679713746,-2.527719561253683,6.111486661225118,1.019226312637329,-1.8060458342181605
1708433471.7494783,-2.1417596340179443,-1.3338583272746583,-2.527703348790304,6.111465799599447,1.0192219018936157,-1.8060830275165003
1708433471.7514446,-2.1417553424835205,-1.3338628423265,-2.527689758931295,6.111510741501608,1.0192594528198242,-1.8060711065875452
1708433471.753423,-2.1417553424835205,-1.3337961298278351,-2.52767783800234,6.1114776013191126,1.019208550453186,-1.8060458342181605
1708433471.755431,-2.1417384147644043,-1.3337974709323426,-2.527670447026388,6.11147032955245,1.0192174911499023,-1.8060625235186976
1708433471.7574446,-2.1417429447174072,-1.333788515334465,-2.5277121702777308,6.111486661225118,1.019196629524231,-1.8060625235186976
1708433471.7594247,-2.1417293548583984,-1.3338791889003296,-2.52771240869631,6.111441600113668,1.019242763519287,-1.8060343901263636
1708433471.761409,-2.1417429447174072,-1.3338252914002915,-2.527689758931295,6.11147032955245,1.019196629524231,-1.806054417287008
1708433471.7634425,-2.141730546951294,-1.3338715893081208,-2.527628723775045,6.111453878670492,1.0191967487335205,-1.8060744444476526
1708433471.7654605,-2.1416897773742676,-1.3338416528752823,-2.527665917073385,6.11150752285079,1.0192055702209473,-1.806058708821432
1708433471.767427,-2.141660451889038,-1.3338505935719986,-2.527682367955343,6.111525404244222,1.019208550453186,-1.8060668150531214
1708433471.7694132,-2.141721487045288,-1.3338164252093812,-2.527665917073385,6.111500251084127,1.019213080406189,-1.8060343901263636
1708433471.7714741,-2.1416897773742676,-1.3338583272746583,-2.5276642481433313,6.111474740296163,1.0192248821258545,-1.8061040083514612
1708433471.7735038,-2.1417596340179443,-1.3338252914002915,-2.527682367955343,6.11147032955245,1.019250512123108,-1.8060501257525843
1708433471.7754123,-2.1417429447174072,-1.3338252914002915,-2.527719799672262,6.111488091736593,1.0192627906799316,-1.8060787359820765
1708433471.777433,-2.141710042953491,-1.3338628572276612,-2.5277286211596888,6.111504542618551,1.0192415714263916,-1.8061121145831507
1708433471.7794309,-2.141751766204834,-1.3338505935719986,-2.527698818837301,6.111416685372152,1.0192910432815552,-1.8060744444476526
1708433471.7814112,-2.141711950302124,-1.3337974709323426,-2.5277212301837366,6.1114821312721155,1.019267201423645,-1.806075398121969
1708433471.7834375,-2.1416728496551514,-1.3338715893081208,-2.527665917073385,6.111458289414205,1.019204020500183,-1.8060668150531214
1708433471.7854304,-2.1417057514190674,-1.3338416528752823,-2.527707878743307,6.1115198014076135,1.0192461013793945,-1.8060992399798792
1708433471.7874947,-2.1416819095611572,-1.3338049513152619,-2.52771240869631,6.111413705139913,1.0192415714263916,-1.8060830275165003
1708433471.7894528,-2.141710042953491,-1.333846167927124,-2.5276780764209192,6.111510860710897,1.0192114114761353,-1.8060787359820765
1708433471.7914171,-2.141747236251831,-1.3338672083667298,-2.5276616255389612,6.111491071968832,1.0192203521728516,-1.806054417287008
1708433471.7934496,-2.141727924346924,-1.3338760298541565,-2.527694288884298,6.111432659416952,1.0192627906799316,-1.8060262838946741
1708433471.7954173,-2.141714572906494,-1.3338628423265,-2.527741257344381,6.111462819367208,1.0192493200302124,-1.806108299885885
1708433471.7974327,-2.1416773796081543,-1.333791510467865,-2.5277276674853724,6.1114985821540735,1.0193121433258057,-1.8060343901263636
1708433471.799443,-2.1417076587677,-1.333895520572998,-2.5277167002307337,6.111502992897787,1.019267201423645,-1.8060429731952112
1708433471.8014474,-2.1417348384857178,-1.3338298213532944,-2.5277062098132532,6.111503112107076,1.0192537307739258,-1.8060830275165003
1708433471.8034735,-2.1416897773742676,-1.333874673848488,-2.527715269719259,6.111479270249166,1.0192370414733887,-1.8060429731952112
1708433471.8054192,-2.1417641639709473,-1.3338628423265,-2.5277321974383753,6.1114210961158655,1.0192415714263916,-1.8060501257525843
1708433471.807465,-2.1416637897491455,-1.3338327717832108,-2.527686897908346,6.111516463547506,1.0192865133285522,-1.8060744444476526
1708433471.809436,-2.141710042953491,-1.3338062179139634,-2.527682367955343,6.111540663033285,1.0192338228225708,-1.8060787359820765
1708433471.811456,-2.1416852474212646,-1.3338628423265,-2.5276780764209192,6.111483800202169,1.0192447900772095,-1.8060668150531214
1708433471.8134432,-2.1417057514190674,-1.3338182133487244,-2.527649704610006,6.111545073776998,1.0192582607269287,-1.8060429731952112
1708433471.815437,-2.1417758464813232,-1.3338062030128022,-2.527694288884298,6.111453878670492,1.019213080406189,-1.806014362965719
1708433471.8174417,-2.141730546951294,-1.3338879507831116,-2.527719799672262,6.111423718720236,1.0192612409591675,-1.8061040083514612
1708433471.819453,-2.141710042953491,-1.3338673126748581,-2.527698818837301,6.111524212151327,1.0192493200302124,-1.8060711065875452
1708433471.8214588,-2.1416728496551514,-1.333829791550972,-2.527698818837301,6.111479270249166,1.0192700624465942,-1.8060429731952112
1708433471.823487,-2.1416773796081543,-1.3338791889003296,-2.527698818837301,6.11140917518691,1.0192582607269287,-1.8060711065875452
1708433471.8254714,-2.141721487045288,-1.3338505935719986,-2.527665917073385,6.111500131874838,1.0192370414733887,-1.8060219923602503
1708433471.8274484,-2.1416773796081543,-1.333846167927124,-2.527703348790304,6.111450660019674,1.0192537307739258,-1.8060219923602503
1708433471.8294318,-2.1417031288146973,-1.3338253063014527,-2.527689758931295,6.111453878670492,1.0192114114761353,-1.806075398121969
1708433471.8314342,-2.1417012214660645,-1.3337930601886292,-2.5277395884143274,6.111545073776998,1.0192447900772095,-1.806021515523092
1708433471.8334715,-2.1416943073272705,-1.3338385832360764,-2.5277062098132532,6.111503112107076,1.0192326307296753,-1.806014362965719
1708433471.8354359,-2.1417124271392822,-1.333859385257103,-2.5277367273913782,6.111474740296163,1.0191996097564697,-1.806030575429098
1708433471.8374677,-2.141756296157837,-1.333813802605011,-2.527715269719259,6.111494052201071,1.0192910432815552,-1.8060429731952112
1708433471.839419,-2.141730546951294,-1.333843008880951,-2.527724091206686,6.11150752285079,1.0192700624465942,-1.806056324635641
1708433471.8414018,-2.1416852474212646,-1.333822564487793,-2.5277276674853724,6.111491191178121,1.0191950798034668,-1.8060186545001429
1708433471.843446,-2.1416985988616943,-1.3338628274253388,-2.5277321974383753,6.111449467926779,1.0192865133285522,-1.805969540272848
1708433471.8454626,-2.141719102859497,-1.333883599644043,-2.527698818837301,6.1114611504371545,1.01932692527771,-1.806002442036764
1708433471.8474286,-2.1417057514190674,-1.3338182431510468,-2.52767783800234,6.111432659416952,1.0192447900772095,-1.8060272375689905
1708433471.8494349,-2.1417031288146973,-1.333806262617447,-2.527686897908346,6.1114611504371545,1.0192819833755493,-1.805997673665182
1708433471.8514452,-2.141756296157837,-1.333876059656479,-2.527694288884298,6.111468660622396,1.0192537307739258,-1.8059981505023401
1708433471.8534467,-2.1416943073272705,-1.3337851774743577,-2.527698818837301,6.111491071968832,1.0192612409591675,-1.8060515562640589
1708433471.855449,-2.141721487045288,-1.3338062477162858,-2.527710739766256,6.111494052201071,1.0193030834197998,-1.8060515562640589
1708433471.857418,-2.1417429447174072,-1.3338716340116044,-2.527661387120382,6.111495601921835,1.0192537307739258,-1.8059900442706507
1708433471.8594196,-2.1416819095611572,-1.3338371974280854,-2.527715269719259,6.11150752285079,1.019277572631836,-1.8059914747821253
1708433471.8614073,-2.1416985988616943,-1.3338225942901154,-2.5276570955859583,6.111479270249166,1.0192493200302124,-1.8060482184039515
1708433471.8634276,-2.141711950302124,-1.3338093024543305,-2.527703348790304,6.111486661225118,1.0192567110061646,-1.8059828917132776
1708433471.8654177,-2.1417031288146973,-1.333887980585434,-2.5277016798602503,6.1114985821540735,1.0192656517028809,-1.8059662024127405
1708433471.8674517,-2.1416985988616943,-1.3338372719338913,-2.527694288884298,6.111491071968832,1.0192986726760864,-1.80597430864443
1708433471.8694587,-2.141719102859497,-1.333874688749649,-2.527694288884298,6.111440408020773,1.0192656517028809,-1.805969540272848
1708433471.8714962,-2.1416819095611572,-1.3338505935719986,-2.52767783800234,6.111447918206014,1.0193105936050415,-1.8060029188739222
1708433471.873502,-2.1416773796081543,-1.3338138473084946,-2.527703348790304,6.1114550707633875,1.0192656517028809,-1.8059571425067347
1708433471.8754325,-2.1416943073272705,-1.3338461381248017,-2.527691427861349,6.111465799599447,1.019273042678833,-1.8059662024127405
1708433471.8774538,-2.141719102859497,-1.3338182431510468,-2.527682367955343,6.111474740296163,1.0192986726760864,-1.8059499899493616
1708433471.8794198,-2.141719102859497,-1.3338093024543305,-2.5277276674853724,6.111516582756796,1.0192700624465942,-1.8059662024127405
1708433471.8814135,-2.1417031288146973,-1.333846167927124,-2.527682367955343,6.11147032955245,1.0192819833755493,-1.8059871832477015
1708433471.883446,-2.141714572906494,-1.333822564487793,-2.527686897908346,6.111536133080282,1.0193032026290894,-1.805950943623678
1708433471.88543,-2.141726016998291,-1.3337930303863068,-2.527710739766256,6.111483800202169,1.0192865133285522,-1.805929962788717
1708433471.888093,-2.1416728496551514,-1.333834246998169,-2.527682367955343,6.111525523453512,1.0192700624465942,-1.8059585730182093
1708433471.889922,-2.141710042953491,-1.3338138324073334,-2.527698818837301,6.111446010857382,1.0192819833755493,-1.8059747854815882
1708433471.8914268,-2.141690731048584,-1.333874673848488,-2.527710739766256,6.1114210961158655,1.0192819833755493,-1.8059704939471644
1708433471.8934586,-2.1417348384857178,-1.3338672828725358,-2.5277062098132532,6.1114985821540735,1.0192686319351196,-1.806004826222555
1708433471.8954475,-2.1417348384857178,-1.3338461530259629,-2.527694288884298,6.111495601921835,1.0192986726760864,-1.8059423605548304
1708433471.8974438,-2.141719102859497,-1.333879144196846,-2.5277605692492884,6.111474740296163,1.0192656517028809,-1.8059466520892542
1708433471.8994393,-2.141726016998291,-1.3338583272746583,-2.527694288884298,6.111449467926779,1.0192909240722656,-1.8059380690204065
1708433471.901433,-2.1416985988616943,-1.3338505786708375,-2.527710739766256,6.111432659416952,1.0192567110061646,-1.8059476057635706
1708433471.9034262,-2.141727924346924,-1.3338138473084946,-2.527665917073385,6.111467349320211,1.0192656517028809,-1.8059466520892542
1708433471.90541,-2.1417348384857178,-1.3338253063014527,-2.5276780764209192,6.11147021034316,1.0192612409591675,-1.805929962788717
1708433471.9074378,-2.141686201095581,-1.3338549447110672,-2.527649704610006,6.111425626068868,1.019273042678833,-1.8059185186969202
1708433471.909405,-2.141730546951294,-1.3338416379741211,-2.5277062098132532,6.111479151039877,1.019294261932373,-1.805950943623678
1708433471.9114337,-2.141756296157837,-1.3338505935719986,-2.5277062098132532,6.111449348717489,1.0193150043487549,-1.805906120930807
1708433471.9134336,-2.141669511795044,-1.3338549596122284,-2.527736488972799,6.111495601921835,1.0193105936050415,-1.8059271017657679
1708433471.9154046,-2.1416943073272705,-1.3338628125241776,-2.527673308049337,6.111502992897787,1.0192865133285522,-1.805922810231344
1708433471.9174368,-2.141726016998291,-1.333858386879303,-2.527698818837301,6.111465799599447,1.019277572631836,-1.8059361616717737
1708433471.9194183,-2.141710042953491,-1.333846167927124,-2.527682367955343,6.111540663033285,1.019273042678833,-1.8059428373919886
1708433471.9214325,-2.1417393684387207,-1.3338416528752823,-2.5276854673968714,6.111476170807638,1.0192819833755493,-1.8058865706073206
1708433471.923465,-2.1417031288146973,-1.3338298213532944,-2.5277062098132532,6.111444818764486,1.019273042678833,-1.8058417479144495
1708433471.9254212,-2.1417348384857178,-1.3338298213532944,-2.527694288884298,6.111482250481405,1.0193017721176147,-1.8058984915362757
1708433471.9274628,-2.1417348384857178,-1.3338583272746583,-2.5276451746570032,6.111500251084127,1.0192656517028809,-1.8058832327472132
1708433471.9294353,-2.1417031288146973,-1.333874673848488,-2.5277062098132532,6.111449467926779,1.0192567110061646,-1.8058369795428675
1708433471.9314277,-2.1417393684387207,-1.3338386130383988,-2.527710739766256,6.111491071968832,1.0193032026290894,-1.8058221975909632
1708433471.9334416,-2.1417393684387207,-1.3338164699128647,-2.527673308049337,6.1114985821540735,1.0192567110061646,-1.8058469931231897
1708433471.935462,-2.141751766204834,-1.3338327419808884,-2.5277321974383753,6.111482250481405,1.0192612409591675,-1.8057530562030237
1708433471.937436,-2.1417438983917236,-1.333780751829483,-2.5277650992022913,6.1115208742912195,1.0192447900772095,-1.805793587361471
1708433471.9394135,-2.141730546951294,-1.333853931432106,-2.5277321974383753,6.111462819367208,1.019244909286499,-1.8058350721942347
1708433471.94142,-2.1417393684387207,-1.333804876809456,-2.527698818837301,6.111467349320211,1.019294261932373,-1.8057859579669397
1708433471.9434636,-2.141730546951294,-1.3338385981372376,-2.527682367955343,6.111474740296163,1.0192567110061646,-1.8057363669024866
1708433471.9454849,-2.1417605876922607,-1.3338269901326676,-2.5277186075793665,6.111502992897787,1.0192192792892456,-1.8057664076434534
1708433471.9474878,-2.141730546951294,-1.333843008880951,-2.527719799672262,6.11150752285079,1.019277572631836,-1.805758301411764
1708433471.9494612,-2.1417348384857178,-1.3338164699128647,-2.5277276674853724,6.111458408623495,1.019277572631836,-1.8057706991778772
1708433471.951452,-2.141690731048584,-1.3338137877038498,-2.5277321974383753,6.111512052803793,1.0193030834197998,-1.8057463804828089
1708433471.9534657,-2.1417076587677,-1.3338430237821122,-2.5277231375323694,6.1115153906639,1.0192358493804932,-1.80573016801943
1708433471.9554129,-2.1416985988616943,-1.3338702482036133,-2.527682367955343,6.111500251084127,1.019273042678833,-1.8056777159320276
1708433471.9574776,-2.141719102859497,-1.333820865755417,-2.5277186075793665,6.111531722336569,1.0193016529083252,-1.8056862990008753
1708433471.9594023,-2.141730546951294,-1.333846167927124,-2.5277321974383753,6.111441600113668,1.019277572631836,-1.8056400457965296
1708433471.9614017,-2.141655921936035,-1.3338416379741211,-2.5276852289782923,6.111453878670492,1.019223690032959,-1.8056371847735804
1708433471.9634209,-2.1416819095611572,-1.3338702482036133,-2.5277350584613245,6.111479151039877,1.0192447900772095,-1.805657688771383
1708433471.9654067,-2.1417348384857178,-1.333847464328148,-2.5277350584613245,6.111479151039877,1.0192656517028809,-1.8055594603167933
1708433471.967442,-2.1417348384857178,-1.3338208210519333,-2.527741018925802,6.111479270249166,1.0193030834197998,-1.8055813948260706
1708433471.9694035,-2.1417057514190674,-1.3338342768004914,-2.527698818837301,6.111502992897787,1.019298791885376,-1.8055771032916468
1708433471.9714208,-2.1416985988616943,-1.3338836592486878,-2.527719799672262,6.111524212151327,1.0192897319793701,-1.8055899778949183
1708433471.9734616,-2.141721487045288,-1.3338539016297837,-2.5277350584613245,6.111449467926779,1.0192910432815552,-1.805566136037008
1708433471.9754572,-2.1417076587677,-1.3339073967984696,-2.527698818837301,6.11147032955245,1.019294261932373,-1.805521313344137
1708433471.9774773,-2.141727924346924,-1.3338582974723359,-2.5277062098132532,6.11152874210433,1.0192656517028809,-1.8055341879474085
1708433471.9794576,-2.141719102859497,-1.3338539165309449,-2.527710739766256,6.111446010857382,1.0192612409591675,-1.8054450193988245
1708433471.9814517,-2.141714572906494,-1.333846167927124,-2.5276525656329554,6.11150752285079,1.019294261932373,-1.8054116407977503
1708433471.9834833,-2.1416943073272705,-1.3338004362634202,-2.5276644865619105,6.11147032955245,1.019294261932373,-1.8054731527911585
1708433471.9854488,-2.1417338848114014,-1.333801881676056,-2.5276854673968714,6.111488210945883,1.0192853212356567,-1.8054207007037562
1708433471.9874644,-2.1417076587677,-1.3338385832360764,-2.527694288884298,6.111474740296163,1.0192612409591675,-1.805396858845846
1708433471.9894795,-2.1417348384857178,-1.3338505935719986,-2.527710739766256,6.111437189369955,1.0193076133728027,-1.8053515593158167
1708433471.9914405,-2.1417076587677,-1.3338672828725358,-2.527694288884298,6.11147021034316,1.0192447900772095,-1.8053777853595179
1708433471.9934447,-2.141723394393921,-1.3338628572276612,-2.527694288884298,6.111479151039877,1.0192656517028809,-1.8053486982928675
1708433471.995428,-2.141664981842041,-1.3338252764991303,-2.527682367955343,6.111489522248068,1.019277572631836,-1.8053572813617151
1708433471.997477,-2.1417393684387207,-1.3338505786708375,-2.5277062098132532,6.1115420935447595,1.019277572631836,-1.805295769368307
1708433471.9994411,-2.1416444778442383,-1.333809257750847,-2.5277276674853724,6.11150752285079,1.0192986726760864,-1.8052433172809046
1708433472.0014384,-2.141747236251831,-1.3338208508542557,-2.527703348790304,6.111449348717489,1.0193060636520386,-1.8052776495562952
1708433472.0034301,-2.141751766204834,-1.3338505935719986,-2.5276690165149134,6.111461269646444,1.0192852020263672,-1.8052776495562952
1708433472.005455,-2.141669511795044,-1.3338062030128022,-2.5277441183673304,6.111510741501608,1.0192863941192627,-1.8051684538470667
1708433472.0074344,-2.141686201095581,-1.3338328909925004,-2.5277231375323694,6.11147032955245,1.0192819833755493,-1.8051684538470667
1708433472.0094218,-2.141747236251831,-1.333809257750847,-2.527715269719259,6.111495601921835,1.0192986726760864,-1.8051322142230433
1708433472.0114348,-2.1416985988616943,-1.3338298213532944,-2.527710739766256,6.111444937973776,1.0192612409591675,-1.8051531950580042
1708433472.0134401,-2.141710042953491,-1.333883599644043,-2.527710739766256,6.111486661225118,1.0193060636520386,-1.805103603993551
1708433472.0154278,-2.141719102859497,-1.3338672679713746,-2.5277395884143274,6.1114985821540735,1.019294261932373,-1.8051541487323206
1708433472.0174694,-2.141747236251831,-1.3338506084731598,-2.5277062098132532,6.1115208742912195,1.0192612409591675,-1.8051303068744105
1708433472.019432,-2.141751766204834,-1.3338506084731598,-2.527719799672262,6.111452328949728,1.0192656517028809,-1.8050554434405726
1708433472.0214853,-2.141751766204834,-1.3338252914002915,-2.5277276674853724,6.111458289414205,1.0192612409591675,-1.8050482908831995
1708433472.0235076,-2.141726016998291,-1.3338628274253388,-2.527719799672262,6.111437189369955,1.0192986726760864,-1.805094067250387
1708433472.0254416,-2.141747236251831,-1.3338628572276612,-2.527682367955343,6.111482250481405,1.0192493200302124,-1.80504018465151
1708433472.0274913,-2.141719102859497,-1.3338583272746583,-2.527694288884298,6.111491191178121,1.0192612409591675,-1.8050702253924769
1708433472.0294297,-2.1417031288146973,-1.333846167927124,-2.5277062098132532,6.111474740296163,1.0192493200302124,-1.8049710432635706
1708433472.0314224,-2.141669511795044,-1.333834246998169,-2.527689758931295,6.111462819367208,1.0192700624465942,-1.805012051259176
1708433472.0334518,-2.1417031288146973,-1.3338416528752823,-2.527748409901754,6.111467349320211,1.019277572631836,-1.8050053755389612
1708433472.0354235,-2.141710042953491,-1.3338062030128022,-2.5277062098132532,6.111444818764486,1.0192326307296753,-1.8049305121051233
1708433472.0374725,-2.1417348384857178,-1.3338372272304078,-2.527710739766256,6.111486661225118,1.019228219985962,-1.8050249258624476
1708433472.0394611,-2.1417641639709473,-1.3338702482036133,-2.5277276674853724,6.111486661225118,1.0192493200302124,-1.8050163427936
1708433472.0414264,-2.1416943073272705,-1.3338716638139267,-2.5276780764209192,6.111479151039877,1.0192656517028809,-1.804988209401266
1708433472.0434904,-2.1417057514190674,-1.3338879507831116,-2.5277367273913782,6.111502992897787,1.0192415714263916,-1.8049758116351526
1708433472.0454485,-2.1417031288146973,-1.3338270050338288,-2.5277486483203333,6.1115198014076135,1.0192537307739258,-1.8049967924701136
1708433472.0474734,-2.141747236251831,-1.3338792038014908,-2.5277062098132532,6.111500131874838,1.0192700624465942,-1.8049925009356897
1708433472.049434,-2.1416985988616943,-1.3337762218764802,-2.527673308049337,6.1115243313606165,1.0192415714263916,-1.8050411383258265
1708433472.0514255,-2.141719102859497,-1.3338182282498856,-2.5277395884143274,6.111557113915243,1.0192415714263916,-1.8050206343280237
1708433472.0534291,-2.1416985988616943,-1.3338506084731598,-2.527656857167379,6.111524212151327,1.0192493200302124,-1.8050578276263636
1708433472.055414,-2.141690731048584,-1.3338416528752823,-2.527694288884298,6.111444818764486,1.0192582607269287,-1.80497914949526
1708433472.0574498,-2.1416819095611572,-1.333834246998169,-2.5277321974383753,6.1115198014076135,1.0192627906799316,-1.8050702253924769
1708433472.0594125,-2.141719102859497,-1.3338093024543305,-2.5276570955859583,6.111428129463949,1.019250512123108,-1.8050687948810022
1708433472.061412,-2.1416728496551514,-1.333822564487793,-2.5277395884143274,6.11147032955245,1.0192338228225708,-1.8050239721881312
1708433472.0634325,-2.141719102859497,-1.3338062030128022,-2.527694288884298,6.1115198014076135,1.0192537307739258,-1.8050969282733362
1708433472.0654457,-2.141719102859497,-1.333874688749649,-2.527698818837301,6.111474740296163,1.0192792415618896,-1.8050883452044886
1708433472.0674407,-2.1416728496551514,-1.3338416379741211,-2.5277367273913782,6.111453878670492,1.019213080406189,-1.805124584828512
1708433472.0694206,-2.141690731048584,-1.3338372272304078,-2.527698818837301,6.111500251084127,1.019213080406189,-1.8051732222186487
1708433472.0714872,-2.141723394393921,-1.3338018220714112,-2.527686897908346,6.111491191178121,1.019208550453186,-1.8051322142230433
1708433472.0734725,-2.141714572906494,-1.3338416379741211,-2.527694288884298,6.111467349320211,1.0192174911499023,-1.805197540913717
1708433472.07546,-2.141719102859497,-1.3338955652764817,-2.5276687780963343,6.11147032955245,1.0192011594772339,-1.8052046934710901
1708433472.0774512,-2.1416728496551514,-1.333834246998169,-2.5277321974383753,6.111503112107076,1.0192174911499023,-1.8052414099322718
1708433472.0794568,-2.1416897773742676,-1.3337884706309815,-2.52771240869631,6.111453878670492,1.0191848278045654,-1.805293385182516
1708433472.0814943,-2.141714572906494,-1.3338298213532944,-2.527719799672262,6.11147021034316,1.0191724300384521,-1.8053014914142054
1708433472.0834606,-2.1417429447174072,-1.3338583272746583,-2.52775746980776,6.1115243313606165,1.0191529989242554,-1.8053539435016077
1708433472.085493,-2.1416943073272705,-1.3338137877038498,-2.527724091206686,6.111495601921835,1.0191484689712524,-1.8053935209857386
1708433472.0875351,-2.141719102859497,-1.333809272652008,-2.5277395884143274,6.11140917518691,1.019181489944458,-1.8054669539081019
1708433472.089473,-2.1417653560638428,-1.3339163076928635,-2.527719799672262,6.111420976906576,1.0191574096679688,-1.8055179754840296
1708433472.0914395,-2.1417031288146973,-1.3338342320970078,-2.527715269719259,6.111443507462301,1.0191242694854736,-1.8055585066424769
1708433472.093445,-2.1417031288146973,-1.3338836294463654,-2.5277276674853724,6.111446130066671,1.0190916061401367,-1.8056100050555628
1708433472.09545,-2.1416819095611572,-1.3338342320970078,-2.527670447026388,6.111361133843221,1.0191333293914795,-1.8057025114642542
1708433472.0975914,-2.1417031288146973,-1.3338252764991303,-2.527682367955343,6.111393916397848,1.0191287994384766,-1.805807892476217
1708433472.0994234,-2.141695261001587,-1.3338298064521332,-2.527649704610006,6.111344682961263,1.0191094875335693,-1.8058918158160608
1708433472.1014194,-2.1416783332824707,-1.333876059656479,-2.527673308049337,6.111374604492941,1.0191258192062378,-1.8059833685504358
1708433472.1034448,-2.1417031288146973,-1.333838553433754,-2.527682367955343,6.111380803375997,1.0190924406051636,-1.8061211744891565
1708433472.1054099,-2.1416985988616943,-1.3338298213532944,-2.527698818837301,6.111323821335592,1.0191141366958618,-1.8062122503863733
1708433472.1074395,-2.1417393684387207,-1.3338225346854706,-2.527698818837301,6.111314761429586,1.019097089767456,-1.8063977400409144
1708433472.1094193,-2.1416738033294678,-1.3338999164155503,-2.527686897908346,6.111322271614828,1.0191186666488647,-1.8064973990069788
1708433472.1114228,-2.141726016998291,-1.333822564487793,-2.527642075215475,6.111314761429586,1.0190569162368774,-1.8066180388080042
1708433472.1134582,-2.1416943073272705,-1.333813802605011,-2.527666155491964,6.111380803375997,1.0190281867980957,-1.8067663351642054
1708433472.1154153,-2.1416943073272705,-1.3338416528752823,-2.527698818837301,6.111344563751974,1.0190523862838745,-1.806976620350973
1708433472.1174483,-2.1416773796081543,-1.3338252914002915,-2.527703348790304,6.111353742867269,1.0190328359603882,-1.8071072737323206
1708433472.119414,-2.141686201095581,-1.3337884706309815,-2.527715269719259,6.111283528595724,1.0190372467041016,-1.8073294798480433
1708433472.1214693,-2.1417031288146973,-1.3337973964265366,-2.527694288884298,6.111274587899008,1.018999695777893,-1.807476822529928
1708433472.1234977,-2.141727924346924,-1.3338726919940491,-2.527674976979391,6.111288058548727,1.0190294981002808,-1.807652775441305
1708433472.1254203,-2.1417076587677,-1.3338298362544556,-2.527637783681051,6.11127136924819,1.0189756155014038,-1.807861630116598
1708433472.127456,-2.1416783332824707,-1.3338225346854706,-2.5277286211596888,6.11118637302474,1.0190054178237915,-1.8080585638629358
1708433472.1294258,-2.141662359237671,-1.3338137877038498,-2.527674976979391,6.111157882004537,1.0190099477767944,-1.8082793394671839
1708433472.1314201,-2.141690731048584,-1.3338385683349152,-2.527682367955343,6.111159312516012,1.0189727544784546,-1.808406178151266
1708433472.133437,-2.141657829284668,-1.3338138175061722,-2.527695957814352,6.111168372422018,1.0189518928527832,-1.808692757283346
1708433472.1354356,-2.141669273376465,-1.3339251440814515,-2.527670447026388,6.111118781357565,1.0189528465270996,-1.8089903036700647
1708433472.1374786,-2.1416831016540527,-1.333847553735115,-2.527658526097433,6.111120331078329,1.0189815759658813,-1.8092215696917933
1708433472.1394327,-2.14169979095459,-1.3337762218764802,-2.5276451746570032,6.111113297730245,1.0189437866210938,-1.8094127813922327
1708433472.1414242,-2.1416757106781006,-1.333822564487793,-2.527707878743307,6.111051785736837,1.0189698934555054,-1.8096578756915491
1708433472.143459,-2.1416499614715576,-1.3337895286134263,-2.527649704610006,6.111068236618795,1.0189290046691895,-1.809930149708883
1708433472.1454294,-2.141666889190674,-1.333806188111641,-2.527686897908346,6.110994922905721,1.0189335346221924,-1.810211483632223
1708433472.1475146,-2.1416375637054443,-1.333859385257103,-2.527695957814352,6.111006724625387,1.018945336341858,-1.8105009237872522
1708433472.149426,-2.1416103839874268,-1.3338062030128022,-2.5276675860034388,6.11104582527236,1.0188840627670288,-1.8107650915728968
1708433472.1514504,-2.1415843963623047,-1.333802880053856,-2.527684036885397,6.1109574911888025,1.0189138650894165,-1.8110664526568812
1708433472.153489,-2.1416218280792236,-1.3337895435145875,-2.5276885668383997,6.11091576793746,1.0188766717910767,-1.811338249837057
1708433472.1554377,-2.1415934562683105,-1.3338342320970078,-2.5276601950274866,6.110929238587179,1.0188677310943604,-1.8116462866412562
1708433472.1574779,-2.1415810585021973,-1.3338430237821122,-2.527633253728048,6.110907900124349,1.0188766717910767,-1.8119514624225062
1708433472.1594315,-2.1416022777557373,-1.3338475239327927,-2.52765399614443,6.110881554871359,1.0188857316970825,-1.8123257795916956
1708433472.1614249,-2.141578435897827,-1.3338195842555542,-2.527663056050436,6.110873925476827,1.0188730955123901,-1.812624756489889
1708433472.1634667,-2.14158296585083,-1.3337895435145875,-2.527658526097433,6.110784160881796,1.0188686847686768,-1.812990967427389
1708433472.1654267,-2.1415627002716064,-1.3337985587171097,-2.5276511351214808,6.110772239952841,1.0187909603118896,-1.81329852739443
1708433472.1674473,-2.1415536403656006,-1.3337939393571396,-2.527679506932394,6.110778319626608,1.018811821937561,-1.8136885801898401
1708433472.169431,-2.141526460647583,-1.3337930005839844,-2.5276556650744837,6.1107122776801965,1.0188403129577637,-1.8140528837787073
1708433472.1714892,-2.1414742469787598,-1.3338106137565156,-2.5276556650744837,6.110659825592794,1.0188404321670532,-1.8144868055926722
1708433472.1734877,-2.1414945125579834,-1.333813802605011,-2.5276511351214808,6.1106454012687585,1.018757939338684,-1.8149030844317835
1708433472.1754658,-2.1414425373077393,-1.3338018667748948,-2.5276435057269495,6.11062120178298,1.0188374519348145,-1.8152998129474085
1708433472.1774745,-2.141414165496826,-1.3338018667748948,-2.5276148954974573,6.110565888672628,1.0188285112380981,-1.8157370726214808
1708433472.179537,-2.141422986984253,-1.3338341873935242,-2.5276511351214808,6.110550987511434,1.0188746452331543,-1.8161581198321741
1708433472.1814342,-2.1413867473602295,-1.333815099006035,-2.5275729338275355,6.110437142639913,1.0188297033309937,-1.8166282812701624
1708433472.183435,-2.1413538455963135,-1.333806262617447,-2.5276194254504603,6.110400187760153,1.0188583135604858,-1.8169801870929163
1708433472.1854157,-2.1413357257843018,-1.333815113907196,-2.5275939146624964,6.110393988877096,1.0188133716583252,-1.8173683325396937
1708433472.1874268,-2.1412904262542725,-1.3338106584599991,-2.527553383504049,6.110332596092977,1.0187757015228271,-1.817768398915426
1708433472.1894538,-2.141263008117676,-1.3337895435145875,-2.527545754109518,6.1103341458137415,1.0188251733779907,-1.8182066122638147
1708433472.1914535,-2.1412153244018555,-1.3337984693101426,-2.52759558359255,6.110262381821432,1.0188043117523193,-1.8186877409564417
1708433472.1934514,-2.141179323196411,-1.3338062477162858,-2.527574602757589,6.110226261406698,1.0187921524047852,-1.819160286580221
1708433472.1954365,-2.141118049621582,-1.333810643558838,-2.5275219122516077,6.1101053831870935,1.0187803506851196,-1.8196504751788538
1708433472.1974585,-2.1410627365112305,-1.3338315200856705,-2.527541224156515,6.110071170120992,1.0188298225402832,-1.8201521078692835
1708433472.199434,-2.141075849533081,-1.33383862793956,-2.527545754109518,6.110051619797506,1.0188044309616089,-1.8206079641925257
1708433472.2014167,-2.141045093536377,-1.3338152033141633,-2.527533833180563,6.109958994179525,1.0187758207321167,-1.8210156599627894
1708433472.2034495,-2.1409919261932373,-1.333747999077179,-2.527550284062521,6.1098588583763025,1.0187547206878662,-1.8215339819537562
1708433472.205408,-2.140918254852295,-1.3337895286134263,-2.527541224156515,6.109810936241903,1.0188251733779907,-1.822010342274801
1708433472.2074275,-2.1409080028533936,-1.333813802605011,-2.5275428930865687,6.109730469971456,1.0187921524047852,-1.8225329558001917
1708433472.2094169,-2.140852451324463,-1.3338138324073334,-2.527571503316061,6.109639036446371,1.0187803506851196,-1.8230541388141077
1708433472.2114203,-2.14082407951355,-1.333887980585434,-2.5276179949389856,6.109562742501058,1.0188044309616089,-1.8235629240619105
1708433472.2134676,-2.1407480239868164,-1.3338182431510468,-2.527545754109518,6.109476077347555,1.0187954902648926,-1.824104134236471
1708433472.2154145,-2.1406633853912354,-1.3338106733611603,-2.5275638739215296,6.109425651818075,1.0187921524047852,-1.8246620337115687
1708433472.2174191,-2.1406357288360596,-1.3338138324073334,-2.5275548140155237,6.109283435135641,1.0187472105026245,-1.8252447287188929
1708433472.2194107,-2.140584707260132,-1.3338106286576767,-2.5275548140155237,6.109196412354269,1.0188251733779907,-1.8257721106158655
1708433472.2214828,-2.1404964923858643,-1.3338549447110672,-2.527583662663595,6.10910843589858,1.0188088417053223,-1.8262808958636683
1708433472.2234802,-2.1404306888580322,-1.3337939542583008,-2.527600113545553,6.109002101212301,1.018799901008606,-1.826857868825094
1708433472.225439,-2.1404383182525635,-1.3337865334800263,-2.527550284062521,6.108879554062643,1.0188374519348145,-1.8274152914630335
1708433472.2274818,-2.140305757522583,-1.333809272652008,-2.52759558359255,6.108844029694357,1.0188463926315308,-1.8280418554889124
1708433472.229457,-2.1402039527893066,-1.3338298213532944,-2.527553383504049,6.108698951988973,1.0188044309616089,-1.828590218220846
1708433472.2314222,-2.1401360034942627,-1.3338106733611603,-2.5276148954974573,6.108565676003256,1.0188239812850952,-1.8291786352740687
1708433472.2334845,-2.140101671218872,-1.333838553433754,-2.5276029745685022,6.10845040062026,1.018811821937561,-1.8298261801349085
1708433472.2354422,-2.1399590969085693,-1.3338672530702134,-2.5276406447040003,6.10828589180068,1.0188239812850952,-1.8304594198810022
1708433472.2374768,-2.139859437942505,-1.3338092875531693,-2.5276315847979944,6.108133780747213,1.0188567638397217,-1.8310287634478968
1708433472.239446,-2.139801025390625,-1.3338253212026139,-2.5276525656329554,6.108015763550558,1.0188312530517578,-1.8316462675677698
1708433472.241431,-2.139700412750244,-1.3338298064521332,-2.5276389757739466,6.107867705612936,1.0188766717910767,-1.8322661558734339
1708433472.2434938,-2.139622926712036,-1.3338461530259629,-2.5276675860034388,6.107759821205892,1.0188885927200317,-1.8329246679889124
1708433472.245461,-2.1395184993743896,-1.3338538867286225,-2.527694288884298,6.107559668808737,1.0188958644866943,-1.8335164229022425
1708433472.247477,-2.1393778324127197,-1.3337895435145875,-2.527745787297384,6.107446062355795,1.0189380645751953,-1.8342607657061976
1708433472.2494226,-2.139248847961426,-1.3338716340116044,-2.5277062098132532,6.1072577116783044,1.0189743041992188,-1.8348763624774378
1708433472.2514398,-2.1391422748565674,-1.3338792038014908,-2.5277515093432825,6.107073890953817,1.0189155340194702,-1.8355420271502894
1708433472.2534378,-2.139019250869751,-1.3338673126748581,-2.5277543703662317,6.106943952828207,1.0189698934555054,-1.8361261526690882
1708433472.2554126,-2.1388654708862305,-1.3338298064521332,-2.52779204050173,6.1067837355430505,1.0189815759658813,-1.836731259022848
1708433472.2574422,-2.138763189315796,-1.3338702333024521,-2.527811590825216,6.106592523842611,1.0189682245254517,-1.8374016920672815
1708433472.2594173,-2.138615608215332,-1.3338164252093812,-2.527823511754171,6.106429445534506,1.0189964771270752,-1.8380020300494593
1708433472.2614164,-2.138446807861328,-1.3338416379741211,-2.5278714338885706,6.10621594169692,1.0190626382827759,-1.8387249151812952
1708433472.263435,-2.138336658477783,-1.333882139330246,-2.527911965047018,6.105975138932028,1.0190613269805908,-1.839386288319723
1708433472.265428,-2.1381075382232666,-1.3338416677764435,-2.527877394353048,6.105764376908102,1.0191104412078857,-1.8400028387652796
1708433472.2674632,-2.137951374053955,-1.3338866096786042,-2.5279765764819544,6.105591046601095,1.0191015005111694,-1.8406675497638147
1708433472.2694151,-2.1378328800201416,-1.3339207631400605,-2.5279510656939905,6.105355012207784,1.019085168838501,-1.8413828055011194
1708433472.2715154,-2.1375951766967773,-1.333870218401291,-2.5280078093158167,6.1051604626472376,1.019158959388733,-1.8420398871051233
1708433472.2734807,-2.1374902725219727,-1.3338940751603623,-2.528027359639303,6.104900586396017,1.0191500186920166,-1.8426726500140589
1708433472.275429,-2.1373448371887207,-1.3338806939176102,-2.528076950703756,6.104643332749166,1.0191782712936401,-1.8433426062213343
1708433472.2774541,-2.1371071338653564,-1.3339062494090577,-2.5280423800097864,6.10444592216567,1.0192145109176636,-1.8439558188067835
1708433472.2794635,-2.1369266510009766,-1.3339716506055375,-2.5281081835376185,6.1042353985603235,1.0192639827728271,-1.8446982542621058
1708433472.2814274,-2.136739492416382,-1.3339539033225556,-2.528139893208639,6.103979933052816,1.0192627906799316,-1.8453262487994593
1708433472.283482,-2.1365556716918945,-1.3339584034732361,-2.528118912373678,6.103686439781942,1.0192612409591675,-1.845982853566305
1708433472.285441,-2.1363208293914795,-1.3340643507293244,-2.5281546751605433,6.103413092881002,1.0193179845809937,-1.8466399351703089
1708433472.287509,-2.1361119747161865,-1.3340212565711518,-2.5282073656665247,6.103187310486593,1.0193212032318115,-1.8472936789142054
1708433472.2894492,-2.135934591293335,-1.3340510737947007,-2.528231207524435,6.102858412056722,1.0194082260131836,-1.8479927221881312
1708433472.2914515,-2.135791301727295,-1.3340821278146286,-2.528255287800924,6.102550732880392,1.0194474458694458,-1.8486087957965296
1708433472.2934554,-2.1355185508728027,-1.3341269505074997,-2.5282674471484583,6.102280008583822,1.019454836845398,-1.849262539540426
1708433472.2954369,-2.135331153869629,-1.334134430890419,-2.528318230305807,6.101997363358297,1.0194612741470337,-1.849893871937887
1708433472.2974596,-2.135124683380127,-1.3341466647437592,-2.5283167997943323,6.101661073952474,1.0195226669311523,-1.8505566755877894
1708433472.2994409,-2.1348719596862793,-1.3341453832438965,-2.52840239206423,6.101318824082174,1.0195389986038208,-1.851189438496725
1708433472.3014264,-2.134612560272217,-1.3342225712588807,-2.528454605733053,6.100988375931539,1.0196157693862915,-1.8518312613116663
1708433472.3034525,-2.134401321411133,-1.334217147236206,-2.5284817854510706,6.100590336113729,1.0196517705917358,-1.8524845282184046
1708433472.3054695,-2.134133815765381,-1.3342779886773606,-2.5285146872149866,6.100278246193685,1.0197120904922485,-1.8530924955951136
1708433472.30745,-2.133927583694458,-1.334239737396576,-2.528600041066305,6.09999297836379,1.0197808742523193,-1.8537419478045862
1708433472.3094382,-2.133716583251953,-1.3342635345510026,-2.528613869343893,6.099592196732321,1.019787311553955,-1.8544366995440882
1708433472.3114207,-2.1333987712860107,-1.3343620014241715,-2.528658692036764,6.099245178490438,1.0198229551315308,-1.8550408522235315
1708433472.3134353,-2.133110761642456,-1.334311456685402,-2.5286901632892054,6.098928439408102,1.019883394241333,-1.8556607405291956
1708433472.3154094,-2.132859230041504,-1.3343680065921326,-2.5287638346301478,6.098575341492452,1.019952416419983,-1.8563273588763636
1708433472.3174589,-2.132613182067871,-1.3344857853702088,-2.5288100878344935,6.0981719372566126,1.0199552774429321,-1.8570058981524866
1708433472.3194177,-2.132251262664795,-1.3344562959722062,-2.5288553873645228,6.097764122277059,1.0199990272521973,-1.8575957457171839
1708433472.3214452,-2.131986141204834,-1.3344594252160569,-2.5289483706103724,6.0973888514335535,1.020039439201355,-1.858213249837057
1708433472.3234878,-2.1316819190979004,-1.3345202666572114,-2.5289586226092737,6.096972811013021,1.0201040506362915,-1.8588951269732874
1708433472.3254347,-2.131361961364746,-1.3345149171403428,-2.529064957295553,6.096545564919271,1.0201762914657593,-1.8595650831805628
1708433472.3274803,-2.131026268005371,-1.3346455705216904,-2.5291011969195765,6.096103179245748,1.0201836824417114,-1.8601577917682093
1708433472.3294468,-2.1306703090667725,-1.3346444380334397,-2.529114548360006,6.09567271450118,1.0202858448028564,-1.8608267943011683
1708433472.331428,-2.1303231716156006,-1.3346399378827591,-2.529203001652853,6.095200168877401,1.0202797651290894,-1.8614543120013636
1708433472.3334563,-2.1300008296966553,-1.3346995574286957,-2.529227081929342,6.094774472504415,1.0203160047531128,-1.8620942274676722
1708433472.3354442,-2.1296448707580566,-1.3346329045346756,-2.5293124357806605,6.094390380173483,1.020361065864563,-1.8627203146563929
1708433472.3374708,-2.129270315170288,-1.33478036642585,-2.5293589274035853,6.093877422600546,1.0204333066940308,-1.86342698732485
1708433472.339439,-2.1289119720458984,-1.3347950887731095,-2.529426399861471,6.0933276293571375,1.020472526550293,-1.8640735785113733
1708433472.3414404,-2.1284420490264893,-1.3348236841014405,-2.5295448938952845,6.092858063965597,1.020548939704895,-1.8646519819842737
1708433472.3434348,-2.1280553340911865,-1.3348223578980942,-2.5295375029193323,6.0923006413276575,1.0205897092819214,-1.8652971426593226
1708433472.3454244,-2.1276729106903076,-1.334838719373085,-2.529655996953146,6.0918640969093225,1.020607829093933,-1.865976635609762
1708433472.347492,-2.127310276031494,-1.3348910224488755,-2.5297325293170374,6.091358887940206,1.0206694602966309,-1.8665521780597132
1708433472.3494394,-2.126958131790161,-1.334952251320221,-2.529820982609884,6.090872871666708,1.0206797122955322,-1.867176357899801
1708433472.3514416,-2.1265010833740234,-1.3349878948977967,-2.5298808256732386,6.0902594206626794,1.0207489728927612,-1.8678110281573694
1708433472.3534715,-2.1260416507720947,-1.3350076389363785,-2.5299304167376917,6.089693534165182,1.0208512544631958,-1.868403736745016
1708433472.3554852,-2.1255974769592285,-1.3350310933640976,-2.529957119618551,6.089116799622335,1.0208569765090942,-1.8690484205829065
1708433472.3574357,-2.125192165374756,-1.3350869429162522,-2.5300548712359827,6.088520872383871,1.0209590196609497,-1.8696511427508753
1708433472.3594625,-2.1246871948242188,-1.3351301115802308,-2.5301480929004114,6.087985265045919,1.0210057497024536,-1.8702595869647425
1708433472.3614442,-2.1242072582244873,-1.3351662319949646,-2.53028113046755,6.087390291481771,1.021058440208435,-1.870901886616842
1708433472.3634655,-2.1238269805908203,-1.335206301217415,-2.5302873293506067,6.086779820709982,1.0210660696029663,-1.8714702765094202
1708433472.3654435,-2.1233439445495605,-1.3352868568948288,-2.5303636232959192,6.086161720543661,1.0211052894592285,-1.8720982710467737
1708433472.3674455,-2.1228766441345215,-1.3352736693671723,-2.5304389635669153,6.085527288704672,1.021174430847168,-1.8727081457721155
1708433472.3694117,-2.1223435401916504,-1.335352973347046,-2.5305033365832728,6.084874379425802,1.0212631225585938,-1.873333756123678
1708433472.3715324,-2.1218369007110596,-1.3353965145400544,-2.5306039492236536,6.084153640061178,1.0212777853012085,-1.8739598433123987
1708433472.373489,-2.1213057041168213,-1.3354824942401429,-2.530654493962423,6.083500492363729,1.0213381052017212,-1.8745482603656214
1708433472.3754783,-2.120790719985962,-1.3355294179967423,-2.53075081506838,6.0827873823936365,1.021390676498413,-1.8751729170428675
1708433472.3774507,-2.1202356815338135,-1.3356513541987916,-2.53084379831423,6.082081782608785,1.021471619606018,-1.875758473073141
1708433472.3794382,-2.119736671447754,-1.3356400293162842,-2.5309203306781214,6.081449496537008,1.0214853286743164,-1.876404110585348
1708433472.3814416,-2.119201421737671,-1.3357532632401963,-2.531004254017965,6.080725896149435,1.021575689315796,-1.876972500477926
1708433472.383446,-2.1186769008636475,-1.3357999187758942,-2.5311089197741907,6.079954731255331,1.0216102600097656,-1.877589527760641
1708433472.3854313,-2.118130683898926,-1.335847870712616,-2.5311885515796106,6.079239475518026,1.0216960906982422,-1.878155533467428
1708433472.3874738,-2.1175427436828613,-1.3359713119319458,-2.5312557856189173,6.07848213890151,1.0217316150665283,-1.8787677923785608
1708433472.3894534,-2.1169228553771973,-1.3360271763852616,-2.5312979857074183,6.077766406327047,1.0217876434326172,-1.8794062773333948
1708433472.391443,-2.1163699626922607,-1.3360910725644608,-2.531433169041769,6.0770078776176355,1.0218310356140137,-1.8799827734576624
1708433472.3934698,-2.1157844066619873,-1.3362283122590561,-2.531503740941183,6.076304185181417,1.0219029188156128,-1.8805678526507776
1708433472.3954375,-2.1151649951934814,-1.33626181006942,-2.5315964857684534,6.075465667038717,1.0219436883926392,-1.8811162153827112
1708433472.397482,-2.1145339012145996,-1.3363618117621918,-2.5316596666919153,6.07472990730361,1.0219544172286987,-1.8817547003375452
1708433472.399441,-2.1138696670532227,-1.3364380610040207,-2.531757179890768,6.073962199478903,1.0220532417297363,-1.8823064009295862
1708433472.4014165,-2.113252639770508,-1.3365022552064438,-2.5318244139300745,6.073125946312704,1.022064208984375,-1.8828509489642542
1708433472.4034462,-2.1126201152801514,-1.3366066378406067,-2.5319040457354944,6.072374689369955,1.02207612991333,-1.883416477833883
1708433472.405425,-2.1119778156280518,-1.3367145222476502,-2.531987969075338,6.071569669037618,1.022161841392517,-1.8839777151690882
1708433472.4074392,-2.1113762855529785,-1.3367489141276856,-2.532095972691671,6.0707095740135095,1.0221529006958008,-1.8845179716693323
1708433472.4094453,-2.1107053756713867,-1.3368291121772309,-2.532163445149557,6.069868910103597,1.0222129821777344,-1.885104004536764
1708433472.4114134,-2.1100387573242188,-1.3369281154922028,-2.532200638447897,6.068932640343466,1.0222444534301758,-1.8857429663287562
1708433472.4134479,-2.1092987060546875,-1.33698362231765,-2.5324016253100794,6.068135607033529,1.022247314453125,-1.886282745991842
1708433472.4154158,-2.1086783409118652,-1.3370925349048157,-2.5324674288379114,6.067245232849874,1.02225923538208,-1.8868597189532679
1708433472.4174585,-2.10799503326416,-1.3372042936137696,-2.532490317021505,6.066388237267294,1.0223073959350586,-1.8874037901507776
1708433472.4194272,-2.107287883758545,-1.3372596365264435,-2.5325995127307337,6.065572130471029,1.0223073959350586,-1.8880346457110804
1708433472.4215012,-2.1065573692321777,-1.3373628866723557,-2.5327075163470667,6.064653265267172,1.0223510265350342,-1.8885787169085901
1708433472.4234915,-2.10587215423584,-1.33747190356765,-2.5327752272235315,6.0638325093086145,1.0223722457885742,-1.8892129103290003
1708433472.425429,-2.1051371097564697,-1.337549940948822,-2.532856289540426,6.062987792282858,1.0224124193191528,-1.8897860685931605
1708433472.4274435,-2.1043906211853027,-1.3376710575870057,-2.532947842274801,6.062057840615072,1.0224277973175049,-1.8903668562518519
1708433472.429434,-2.1036555767059326,-1.3377625954202195,-2.5330901781665247,6.061089265137472,1.022465467453003,-1.8910005728351038
1708433472.431438,-2.102895736694336,-1.3378701669028779,-2.5330570379840296,6.0600740788276575,1.0224593877792358,-1.891529385243551
1708433472.4334738,-2.102201223373413,-1.3379657429507752,-2.533225123082296,6.059161293297567,1.0224965810775757,-1.892146412526266
1708433472.435455,-2.1014702320098877,-1.3380689483932038,-2.533267084752218,6.058181869774618,1.0225046873092651,-1.892752472554342
1708433472.4375412,-2.100665807723999,-1.338209555750229,-2.533346478139059,6.057236897736349,1.0225447416305542,-1.8934057394610804
1708433472.4394534,-2.099933624267578,-1.3383051616004487,-2.5334394613849085,6.056226241379537,1.0224984884262085,-1.8939622084247034
1708433472.4414573,-2.0991499423980713,-1.3384216737798234,-2.5335355440722864,6.055248725205221,1.0225000381469727,-1.8946078459369105
1708433472.443461,-2.0984089374542236,-1.3385771077922364,-2.533595387135641,6.054243433266439,1.0225046873092651,-1.8952420393573206
1708433472.4454198,-2.097552537918091,-1.338616208439209,-2.533731762562887,6.053206670075216,1.0224965810775757,-1.895801846181051
1708433472.447516,-2.0967459678649902,-1.33874003708873,-2.5337589422809046,6.052121507912435,1.0224385261535645,-1.8964107672320765
1708433472.4494336,-2.0959575176239014,-1.3388622266105195,-2.5338385740863245,6.051038372307577,1.0224518775939941,-1.8970568815814417
1708433472.4514325,-2.0951247215270996,-1.338973031645157,-2.5339553991900843,6.050043928414144,1.0223932266235352,-1.897665802632467
1708433472.4534488,-2.0943126678466797,-1.3390972477248688,-2.534010950719015,6.048977958946981,1.0224156379699707,-1.898327652608053
1708433472.4554245,-2.0934436321258545,-1.3392379593900223,-2.5340784231769007,6.047979104309835,1.0224609375,-1.8988760153399866
1708433472.4574513,-2.092607259750366,-1.3393289756825943,-2.5342074076281946,6.046950328141012,1.022387146949768,-1.8995335737811487
1708433472.4594314,-2.0918185710906982,-1.3394020211747666,-2.534217898045675,6.045830476074972,1.0223464965820312,-1.9001224676715296
1708433472.4614441,-2.090989112854004,-1.339554564361908,-2.53432280222048,6.04483841636733,1.0223195552825928,-1.9007685820208948
1708433472.463454,-2.0901269912719727,-1.3397562962821503,-2.5344200770007532,6.0436346409614465,1.0222746133804321,-1.9014175573932093
1708433472.4654086,-2.089203357696533,-1.3398879778436203,-2.534478727971212,6.042588341027059,1.0222218036651611,-1.9020550886737269
1708433472.4674382,-2.088351249694824,-1.3400672686151047,-2.5345056692706507,6.041409718781271,1.0222069025039673,-1.9027045408831995
1708433472.4694126,-2.087451696395874,-1.3401418340257187,-2.5346391836749476,6.040400373726644,1.0221794843673706,-1.9033291975604456
1708433472.4715114,-2.086589813232422,-1.340342493062355,-2.534703556691305,6.039239513664999,1.0220850706100464,-1.9040282408343714
1708433472.4734745,-2.0856714248657227,-1.3404573810151597,-2.5347593466388147,6.038142788201132,1.0220911502838135,-1.904640022908346
1708433472.4754555,-2.0848228931427,-1.3406053644469758,-2.5348101297961634,6.03698610046462,1.0220789909362793,-1.90529710451235
1708433472.4775026,-2.0838520526885986,-1.3407608282617112,-2.5348838011371058,6.0357998488243005,1.0220189094543457,-1.9060075918780726
1708433472.479475,-2.0829102993011475,-1.3409281981042405,-2.534981075917379,6.034632670670309,1.0219453573226929,-1.9066765944110315
1708433472.481439,-2.08192777633667,-1.3411004108241578,-2.5349329153644007,6.0334510681922815,1.021979808807373,-1.9073050657855433
1708433472.4834638,-2.080994129180908,-1.3412345212749024,-2.5350170771228235,6.032269227295675,1.0219064950942993,-1.9079998175250452
1708433472.4854383,-2.080048084259033,-1.3414273870042344,-2.535085980092184,6.031153070717611,1.0218040943145752,-1.908689324055807
1708433472.4874737,-2.0791120529174805,-1.3415816587260743,-2.5351250807391565,6.030004012375631,1.02178156375885,-1.9093626181231897
1708433472.4895172,-2.0781285762786865,-1.3417530369809647,-2.53521973291506,6.02874921539382,1.0217169523239136,-1.9100268522845667
1708433472.4914787,-2.077202081680298,-1.3418833923390885,-2.5352464357959192,6.027527439385214,1.0216282606124878,-1.9106839338885706
1708433472.4934516,-2.0762226581573486,-1.3420360547355195,-2.5352495352374476,6.026276814728536,1.02155601978302,-1.9114020506488245
1708433472.4954307,-2.07525372505188,-1.3422241073897858,-2.535330597554342,6.025099622994222,1.0214345455169678,-1.9120553175555628
1708433472.4975145,-2.0742857456207275,-1.3424124282649537,-2.5353949705706995,6.023795354157247,1.0213592052459717,-1.9127891699420374
1708433472.4994311,-2.073267698287964,-1.3426275116256257,-2.5353813807116907,6.022500622063436,1.0212631225585938,-1.9134743849383753
1708433472.501439,-2.072275161743164,-1.3427499693683167,-2.535417381917135,6.021227466851034,1.0211594104766846,-1.9142125288592737
1708433472.5034595,-2.071293592453003,-1.3429013651660462,-2.5354653040515345,6.019963252335348,1.0210256576538086,-1.9148805777179163
1708433472.505424,-2.070286750793457,-1.3430716854384919,-2.5355106035815638,6.018611180573263,1.0208693742752075,-1.9155710379229944
1708433472.5074625,-2.0692877769470215,-1.3432837587646027,-2.535558525715963,6.017441260605612,1.0207581520080566,-1.9163091818438929
1708433472.509423,-2.0683157444000244,-1.3434554946473618,-2.53554350534548,6.016176211624899,1.020621657371521,-1.9170921484576624
1708433472.5114472,-2.067314624786377,-1.343676970606186,-2.535592857991354,6.015037166863241,1.0205011367797852,-1.9178012053119105
1708433472.513442,-2.066373825073242,-1.3437947493842621,-2.535624329243795,6.013820993691244,1.0203688144683838,-1.9184492270099085
1708433472.5154402,-2.06536602973938,-1.3439608973315735,-2.5356977621661585,6.012573468476095,1.0202363729476929,-1.9192236105548304
1708433472.5174916,-2.0643651485443115,-1.3441733580878754,-2.535717550908224,6.011291253357687,1.020075798034668,-1.919931713734762
1708433472.5194297,-2.0633392333984375,-1.3443643611720582,-2.535700861607687,6.010014283448019,1.0198866128921509,-1.9206369558917444
1708433472.5214725,-2.062319755554199,-1.3445689541152497,-2.535753313695089,6.008667576103964,1.0197796821594238,-1.9214065710650843
1708433472.5234942,-2.0613009929656982,-1.344718412762024,-2.5357323328601282,6.007387745171346,1.0196280479431152,-1.922173325215475
1708433472.5254443,-2.060319185256958,-1.3449312013438721,-2.5357654730426233,6.0060216067130945,1.0194387435913086,-1.9229591528521937
1708433472.5275013,-2.059288263320923,-1.3450907480767746,-2.5357864538775843,6.004747497826376,1.0193318128585815,-1.92375356355776
1708433472.5294518,-2.0582995414733887,-1.3452466589263459,-2.5357442537890833,6.003512966423788,1.0190974473953247,-1.924474064503805
1708433472.5314512,-2.057311534881592,-1.345458672647812,-2.5357442537890833,6.002162921219625,1.0189458131790161,-1.9252708593951624
1708433472.5334482,-2.056251287460327,-1.3456169080785294,-2.535753313695089,6.000887262612142,1.0187938213348389,-1.9260461966144007
1708433472.5354502,-2.0552425384521484,-1.3458036494306107,-2.535708491002218,5.999578344612875,1.0186423063278198,-1.9268692175494593
1708433472.5375204,-2.054219961166382,-1.34599061430011,-2.535724941884176,5.998299109726705,1.0184122323989868,-1.927636448537008
1708433472.5394619,-2.0532028675079346,-1.3462104064277192,-2.535679642354147,5.996999370842733,1.0181957483291626,-1.928438965474264
1708433472.5414548,-2.05212140083313,-1.3463971477798005,-2.5356887022601526,5.995639192848959,1.0180107355117798,-1.9292977491961878
1708433472.5434818,-2.0510828495025635,-1.3466748905232926,-2.5356438795672815,5.994352328568258,1.0178035497665405,-1.930025879536764
1708433472.5454266,-2.0500338077545166,-1.3467842799476166,-2.5356739203082483,5.993069517403402,1.017614483833313,-1.9308198134051722
1708433472.5475905,-2.049098491668701,-1.3469263625196,-2.535628859196798,5.991782414704122,1.0173858404159546,-1.9315808455096644
1708433472.5494292,-2.0479953289031982,-1.3471550208381196,-2.5355525652514856,5.99044297912673,1.0171482563018799,-1.9324248472796839
1708433472.5514257,-2.0469536781311035,-1.3472880286029358,-2.5355284849749964,5.989155280381002,1.0169365406036377,-1.9332588354693812
1708433472.5534518,-2.045942783355713,-1.3474867206862946,-2.535471264516012,5.987737405091085,1.0166791677474976,-1.9340484778033655
1708433472.555464,-2.044851541519165,-1.3477408599904557,-2.535468403493063,5.986438143044271,1.0164388418197632,-1.934869114552633
1708433472.5574844,-2.0438404083251953,-1.3479696226171036,-2.535391871129171,5.9850937006767175,1.0161864757537842,-1.935739819203512
1708433472.5594642,-2.042851209640503,-1.3481607151082535,-2.535388771687643,5.983847367554464,1.016007423400879,-1.9365375677691858
1708433472.5614593,-2.0417745113372803,-1.3483672154000779,-2.5352657477008265,5.982607233315267,1.015713095664978,-1.9374282995807093
1708433472.5634737,-2.0408003330230713,-1.348517970447876,-2.535255495701925,5.981215822487631,1.0154480934143066,-1.938204590474264
1708433472.5654595,-2.039757490158081,-1.3486928951791306,-2.5352359453784388,5.9799455282981775,1.0152578353881836,-1.9390433470355433
1708433472.567483,-2.038722515106201,-1.3489169490388413,-2.5352073351489466,5.978676187783041,1.0149643421173096,-1.9399750868426722
1708433472.5694447,-2.0376477241516113,-1.3490668696216126,-2.5351503531085413,5.977311599045553,1.0146878957748413,-1.9407308737384241
1708433472.5715346,-2.036579132080078,-1.3492699724486847,-2.5351205507861536,5.975930082588949,1.0143496990203857,-1.9416664282428187
1708433472.5735013,-2.0355417728424072,-1.3495062303594132,-2.5350709597217005,5.974632727890768,1.014068603515625,-1.9425113836871546
1708433472.5754402,-2.0345401763916016,-1.3497141164592286,-2.535027567540304,5.973352062493124,1.0138343572616577,-1.943373982106344
1708433472.57746,-2.033498764038086,-1.3498918426087876,-2.5350003878222864,5.971989857941427,1.0135505199432373,-1.944169823323385
1708433472.579473,-2.032465696334839,-1.350111649637558,-2.5349164644824427,5.97073374965743,1.0132646560668945,-1.9450905958758753
1708433472.5814185,-2.031373977661133,-1.3503775757602234,-2.5348685423480433,5.969459044724264,1.0129404067993164,-1.9458954969989222
1708433472.583449,-2.030409574508667,-1.3505479854396363,-2.5347755591021937,5.968211877136984,1.0126830339431763,-1.9467294851886194
1708433472.5854306,-2.0293333530426025,-1.3507137161544343,-2.5347276369677942,5.9668829319770715,1.0123587846755981,-1.9476483503924769
1708433472.5874763,-2.028317928314209,-1.350982980137207,-2.5346885363208216,5.96557496765212,1.0120127201080322,-1.94850999513735
1708433472.589469,-2.0273027420043945,-1.351177157168724,-2.534591023121969,5.964245307236471,1.0117286443710327,-1.9493792692767542
1708433472.5914283,-2.026268720626831,-1.351380543117859,-2.534516159688131,5.962910043984213,1.01137113571167,-1.9502690474139612
1708433472.593457,-2.025238513946533,-1.351579339509346,-2.5344186464892786,5.961595523148336,1.0110598802566528,-1.951188866292135
1708433472.5954187,-2.024219512939453,-1.3518018585494538,-2.534330193196432,5.960332500725546,1.010685682296753,-1.9520490805255335
1708433472.5975657,-2.023164749145508,-1.352087752228119,-2.5342686812030237,5.9590386030967615,1.0104196071624756,-1.9529922644244593
1708433472.59944,-2.022125720977783,-1.352262334232666,-2.5342088381396692,5.957734215050497,1.0100288391113281,-1.9538291136371058
1708433472.6014287,-2.0211029052734375,-1.3524535459331055,-2.5341246763812464,5.956431376724996,1.0096596479415894,-1.954792324696676
1708433472.6034782,-2.0200934410095215,-1.352652372126915,-2.5340150038348597,5.955118882447042,1.0093318223953247,-1.9557355085956019
1708433472.605439,-2.0190324783325195,-1.3528796595386048,-2.5339117685901087,5.953850018769064,1.0090069770812988,-1.9567349592791956
1708433472.6074564,-2.0179901123046875,-1.3531113427928467,-2.53379470506777,5.952519881516256,1.0086253881454468,-1.9576123396502894
1708433472.6094809,-2.0170047283172607,-1.3532816034606476,-2.533670250569479,5.951344358711996,1.008338451385498,-1.9585784117328089
1708433472.6114497,-2.0160067081451416,-1.353537605409958,-2.5336149374591272,5.950084316521444,1.0079236030578613,-1.9595196882831019
1708433472.6134346,-2.015000343322754,-1.3537243020585557,-2.533508364354269,5.948850261956014,1.0075842142105103,-1.9605067412005823
1708433472.6154218,-2.0139029026031494,-1.353926108484604,-2.533374849949972,5.94761203506545,1.0072367191314697,-1.9614270369159144
1708433472.6174495,-2.0129342079162598,-1.354163483982422,-2.5332909266101282,5.9463528273399255,1.0068429708480835,-1.9624388853656214
1708433472.619449,-2.011918306350708,-1.3543580782464524,-2.533163372670309,5.945059764176168,1.0064901113510132,-1.9633105436908167
1708433472.6214888,-2.01088285446167,-1.3545355063727875,-2.533076588307516,5.943784820824423,1.0060527324676514,-1.964285675679342
1708433472.6234987,-2.0098841190338135,-1.35480488956485,-2.5329235235797327,5.942542421608724,1.0056796073913574,-1.9652937094317835
1708433472.625432,-2.0088610649108887,-1.3549961012652894,-2.532839600239889,5.941296088486471,1.0053188800811768,-1.9662836233722132
1708433472.6274605,-2.0078721046447754,-1.3552233141711731,-2.5326414744006556,5.940049874573507,1.0049238204956055,-1.9672978560077112
1708433472.6294513,-2.0068302154541016,-1.3553727132133027,-2.5325456301318567,5.938841926842489,1.004500389099121,-1.968257252370016
1708433472.6314304,-2.005934715270996,-1.3555356127074738,-2.532393995915548,5.937759506493368,1.0041122436523438,-1.969255272542135
1708433472.6334658,-2.004930019378662,-1.3557912421277543,-2.532257382069723,5.936520206719198,1.0037401914596558,-1.970168415700094
1708433472.6354542,-2.003926992416382,-1.3559543651393433,-2.5321345965014856,5.935299861222067,1.0033905506134033,-1.9711220900165003
1708433472.637493,-2.003002882003784,-1.3562232118896027,-2.532029453908102,5.9341174242790125,1.0029598474502563,-1.9721205870257776
1708433472.639456,-2.0020058155059814,-1.356398032312729,-2.5318663755999964,5.932914364128866,1.0026086568832397,-1.9730952421771448
1708433472.6414526,-2.001042127609253,-1.3566509050181885,-2.531675640736715,5.931826936989584,1.0021913051605225,-1.9740379492389124
1708433472.643466,-2.0000698566436768,-1.356780694132187,-2.5315900484668177,5.930549847870626,1.001819133758545,-1.974938694630758
1708433472.6454487,-1.999163031578064,-1.3570050162127991,-2.5314720312701624,5.929428684502401,1.0013612508773804,-1.9759629408465784
1708433472.6475842,-1.9981868267059326,-1.3571454745582123,-2.5313144365893763,5.928244697838583,1.0010327100753784,-1.9768231550799769
1708433472.6494622,-1.9972420930862427,-1.3573533457568665,-2.531142059956686,5.927049863129415,1.0005898475646973,-1.9777448813067835
1708433472.6514707,-1.996311068534851,-1.357569770222046,-2.5310474077807825,5.925904142647543,1.000226378440857,-1.9787324110614222
1708433472.653451,-1.995409369468689,-1.3577535611442109,-2.5309036413775843,5.924848544388571,0.9998258948326111,-1.979677979146139
1708433472.6554368,-1.9944422245025635,-1.3579078328660508,-2.530759398137228,5.923744427948751,0.9994493722915649,-1.9806879202472132
1708433472.657449,-1.993545651435852,-1.35810341060672,-2.5306201616870325,5.922575700073995,0.9991353154182434,-1.9816206137286585
1708433472.6594758,-1.9926111698150635,-1.3583368074944993,-2.5304835478412073,5.921539175301351,0.9987374544143677,-1.9826062361346644
1708433472.6614523,-1.9917271137237549,-1.3585278403810044,-2.530377213154928,5.920532691269674,0.9983537197113037,-1.9835894743548792
1708433472.663449,-1.9908084869384766,-1.3586936754039307,-2.5302212874041956,5.919419753342428,0.9979693293571472,-1.984584156666891
1708433472.6654353,-1.989792823791504,-1.3589255076697846,-2.5300563017474573,5.918380725174703,0.997581958770752,-1.9855745474444788
1708433472.6674774,-1.988943099975586,-1.3591046345284958,-2.52993613878359,5.917336213379659,0.9971678256988525,-1.9865863958941858
1708433472.6694329,-1.987977147102356,-1.3592588615468522,-2.52978760400881,5.916293489723959,0.996799886226654,-1.9875806013690394
1708433472.6714993,-1.987112045288086,-1.3593651813319703,-2.5296106974231165,5.915302026062765,0.9963617920875549,-1.9885590712176722
1708433472.6735187,-1.986215353012085,-1.3595652145198365,-2.529475752507345,5.914267527848043,0.9960361123085022,-1.9895589987384241
1708433472.6754577,-1.9852854013442993,-1.3597608369639893,-2.529322687779562,5.913214432984152,0.995639979839325,-1.9905746618853968
1708433472.67745,-1.9843559265136719,-1.359941990380623,-2.5291863123523157,5.912192094116964,0.9952678084373474,-1.9915679136859339
1708433472.6794672,-1.9835178852081299,-1.3600539428046723,-2.5290802160846155,5.911156165390768,0.9949350953102112,-1.9926074186908167
1708433472.6814218,-1.9826068878173828,-1.3603170079043885,-2.52895695367922,5.910147654801168,0.9945350289344788,-1.9935925642596644
1708433472.6834254,-1.9817520380020142,-1.3604890716126938,-2.528811279927389,5.909188020020284,0.994170069694519,-1.9946602026568812
1708433472.6854475,-1.9808330535888672,-1.3605980587056656,-2.528721634541647,5.908221232682028,0.9938563108444214,-1.995601002370016
1708433472.6875389,-1.979976773262024,-1.360749052172043,-2.5285475889789026,5.9072725651557825,0.9934468269348145,-1.9966204802142542
1708433472.689466,-1.9790960550308228,-1.360911877160408,-2.528445545827047,5.9063687203224084,0.9930866360664368,-1.9977148214923304
1708433472.6914306,-1.9782639741897583,-1.3611049515059968,-2.528309170399801,5.905444013863363,0.9927260875701904,-1.9986866156207483
1708433472.6934252,-1.9773882627487183,-1.3612466615489502,-2.528163735066549,5.904500353127279,0.9923995137214661,-1.9997428099261683
1708433472.6954327,-1.9764950275421143,-1.3614483934691926,-2.528018299733297,5.903555023461141,0.9920167326927185,-2.0007951895343226
1708433472.6975482,-1.9756625890731812,-1.3615952742150803,-2.527952257786886,5.902596938401022,0.9916848540306091,-2.0018299261676233
1708433472.699428,-1.9747722148895264,-1.3617342871478577,-2.527801815663473,5.901674973755636,0.9913862943649292,-2.002880398427145
1708433472.7014518,-1.9739551544189453,-1.3619268995574494,-2.527787510548727,5.900778281479635,0.9910874962806702,-2.0039194265948694
1708433472.703458,-1.9731115102767944,-1.3620599967292328,-2.527620855961935,5.899860965996542,0.9907872080802917,-2.0049331823932093
1708433472.7054267,-1.9722272157669067,-1.3622362178615113,-2.527500931416647,5.89896987655715,0.9904600977897644,-2.005902115498678
1708433472.70744,-1.9714560508728027,-1.3623500329307099,-2.527442518864767,5.898090588837423,0.9901375770568848,-2.006913963948385
1708433472.7094214,-1.9705932140350342,-1.3625713747790833,-2.52728778520693,5.897193777352133,0.9897801876068115,-2.007900063191549
1708433472.7114613,-1.9697580337524414,-1.362702654009201,-2.5271711985217493,5.8963403580482385,0.9894982576370239,-2.008965317402975
1708433472.7134664,-1.9689055681228638,-1.3628490728190918,-2.5271499792682093,5.895465481072225,0.9892176985740662,-2.00995904604067
1708433472.715455,-1.9680496454238892,-1.3630135518363495,-2.5270212332354944,5.894604074745931,0.9889368414878845,-2.0110233465777796
1708433472.717441,-1.9672387838363647,-1.3631825012019654,-2.52691895166506,5.893880593567648,0.9887027740478516,-2.0120704809771937
1708433472.7194414,-1.9663972854614258,-1.3633530896953125,-2.526898209248678,5.8929635165031335,0.988426685333252,-2.0130532423602503
1708433472.7214158,-1.9655734300613403,-1.363475428228714,-2.526743475590841,5.892170417099752,0.9881591796875,-2.0141194502459925
1708433472.7235231,-1.9647550582885742,-1.363691971903183,-2.5267301241504114,5.891368257790365,0.9878650903701782,-2.0151546637164515
1708433472.7254865,-1.9639297723770142,-1.3639058631709595,-2.52665359178652,5.890651452332296,0.9876145124435425,-2.016238037739889
1708433472.7274828,-1.9630765914916992,-1.3640118104270478,-2.5265892187701624,5.889949071198263,0.9873863458633423,-2.0172646681415003
1708433472.7294395,-1.9623013734817505,-1.3641463977149506,-2.526545588170187,5.889168846398153,0.9871177673339844,-2.0183804670916956
1708433472.7314377,-1.9614744186401367,-1.3643512588790436,-2.5265217463122767,5.888410556107321,0.9868850111961365,-2.019512955342428
1708433472.73345,-1.960620641708374,-1.3644557160190125,-2.5265324751483362,5.887624847679891,0.9867063164710999,-2.0205543676959437
1708433472.7354174,-1.9597967863082886,-1.364677057867386,-2.526470724736349,5.886851537018575,0.9864947199821472,-2.0216367880450647
1708433472.7374775,-1.9589616060256958,-1.3647996944240113,-2.5264347235309046,5.886110174446859,0.9863142967224121,-2.022712055836813
1708433472.7394297,-1.9581810235977173,-1.3649761241725464,-2.52637488046755,5.885450589447775,0.9860893487930298,-2.0238798300372522
1708433472.741444,-1.9573601484298706,-1.365098701124527,-2.526404921208517,5.884719598084249,0.9858806729316711,-2.024966065083639
1708433472.7434347,-1.9565238952636719,-1.365237833266594,-2.526370350514547,5.884003507881918,0.9856734871864319,-2.0260818640338343
1708433472.7454238,-1.9557321071624756,-1.3653364044478913,-2.5263341108905237,5.883326041489401,0.9855504631996155,-2.027159039174215
1708433472.7475545,-1.9549001455307007,-1.3655408781817933,-2.52637488046755,5.882595407753744,0.9853569865226746,-2.0282352606402796
1708433472.7494407,-1.954150915145874,-1.365651713018753,-2.526407782231466,5.881904947548666,0.9852384924888611,-2.0293481985675257
1708433472.751448,-1.9532932043075562,-1.3658247602036973,-2.5264437834369105,5.881190287857809,0.9850820302963257,-2.030518356953756
1708433472.7534893,-1.952497959136963,-1.3659175795367737,-2.5264888445483606,5.880579340248861,0.9849541783332825,-2.0316270033465784
1708433472.7554412,-1.9516361951828003,-1.3661196392825623,-2.526515785847799,5.879919636040487,0.9848343729972839,-2.032708470021383
1708433472.7574651,-1.9509185552597046,-1.366185413008072,-2.5265637079821985,5.879306065827169,0.9847068190574646,-2.0338414351092737
1708433472.7594616,-1.9501466751098633,-1.3663285386613389,-2.526649300252096,5.878710377007284,0.9845947027206421,-2.0349062124835413
1708433472.7614198,-1.9493004083633423,-1.3664392989924927,-2.5267048517810267,5.878169524460592,0.9845027923583984,-2.036008659993307
1708433472.7634203,-1.9485372304916382,-1.3666693431190033,-2.526757303868429,5.877611028939047,0.984403669834137,-2.0370591322528284
1708433472.7654583,-1.947784423828125,-1.3667309147170563,-2.5268080870257776,5.877045738487997,0.9842746257781982,-2.03807241121401
1708433472.7674286,-1.9469928741455078,-1.3668502879193802,-2.5268800894366663,5.876445519715109,0.984208345413208,-2.0391209761248987
1708433472.7694304,-1.9462043046951294,-1.36698633552108,-2.527010981236593,5.875924455910482,0.9841201901435852,-2.0402424971209925
1708433472.7715409,-1.945417881011963,-1.3670939070037385,-2.527073923741476,5.875369059830465,0.9840479493141174,-2.041306797658102
1708433472.77351,-1.9446370601654053,-1.3672345143607636,-2.5271411577807825,5.874834883003988,0.9839792847633362,-2.042457882558004
1708433472.775437,-1.9438328742980957,-1.367406354551651,-2.5272207895862024,5.874296176224508,0.9839400053024292,-2.0435050169574183
1708433472.7774715,-1.943043828010559,-1.3675093364766617,-2.527288262044088,5.873757469445028,0.9839367270469666,-2.0445597807513636
1708433472.779429,-1.9422587156295776,-1.3675992053798218,-2.5274503866778772,5.873243438988485,0.9838753342628479,-2.045664135609762
1708433472.7814546,-1.941512942314148,-1.367715672855713,-2.52751332918276,5.872745382576742,0.9838438630104065,-2.0467947165118616
1708433472.783449,-1.9407442808151245,-1.3679087919047852,-2.5275760332690638,5.87222300746993,0.9838752746582031,-2.047910992299215
1708433472.7854416,-1.9400098323822021,-1.3680310410312195,-2.527790609990255,5.871750581055441,0.9839054942131042,-2.0489934126483362
1708433472.78748,-1.9392374753952026,-1.3681627374938508,-2.527881924306051,5.871232020645895,0.9839084148406982,-2.050192658101217
1708433472.7894506,-1.9384266138076782,-1.3683196765235444,-2.5279975573169153,5.870772707253256,0.984018087387085,-2.051272694264547
1708433472.791475,-1.9377098083496094,-1.3684334021857758,-2.5281217733966272,5.870317923813619,0.9840643405914307,-2.0524256865130823
1708433472.7934663,-1.9369505643844604,-1.3686321538737793,-2.52828556696047,5.869868743210592,0.9842067956924438,-2.053558651600973
1708433472.7954443,-1.9361978769302368,-1.3686962884715577,-2.528405253087179,5.869480478554525,0.9842625260353088,-2.054704491292135
1708433472.7975032,-1.935491681098938,-1.3688622576049347,-2.5285704771624964,5.86895905712203,0.9843316078186035,-2.055800739918844
1708433472.7994542,-1.9347182512283325,-1.3690084379962464,-2.528696123753683,5.868596064835348,0.984346330165863,-2.056876007710592
1708433472.8014512,-1.9340126514434814,-1.3691478234580536,-2.5288401285754603,5.868161189347067,0.9844380021095276,-2.058059040700094
1708433472.8034775,-1.933239459991455,-1.36929144084964,-2.5290713945971888,5.867762076645651,0.98452228307724,-2.05920917192568
1708433472.8054411,-1.9325157403945923,-1.3693764370730896,-2.529332224522726,5.867346751480856,0.9846224784851074,-2.060329262410299
1708433472.8074434,-1.9317739009857178,-1.3695452970317383,-2.5294716993915003,5.867068636208334,0.9847365021705627,-2.061554257069723
1708433472.8094313,-1.9310054779052734,-1.3697262567332764,-2.5296905676471155,5.86663972118453,0.9848313331604004,-2.0626729170428675
1708433472.81146,-1.9302988052368164,-1.3698469263366242,-2.529930655156271,5.8662500260169885,0.9848825335502625,-2.0638139883624476
1708433472.813471,-1.9295814037322998,-1.3700236541083832,-2.530154053364889,5.8658907292182825,0.9850026965141296,-2.064894501362936
1708433472.8154244,-1.9288089275360107,-1.3701504629901429,-2.530391041432516,5.865497815399923,0.9851570725440979,-2.066014591847555
1708433472.8174531,-1.9281973838806152,-1.3703271013549347,-2.5306714216815394,5.8651723740394495,0.9852635860443115,-2.0671408812152308
1708433472.8194191,-1.9274603128433228,-1.3704912227443238,-2.5308993498431605,5.864886867790975,0.9854525923728943,-2.068296257649557
1708433472.8214324,-1.9266802072525024,-1.370618299846985,-2.531224791203634,5.864586460381307,0.9856495261192322,-2.069324318562643
1708433472.8235116,-1.9259755611419678,-1.3707454961589356,-2.5315218607531946,5.864228832512655,0.9858503341674805,-2.0705087820636194
1708433472.8254519,-1.9252650737762451,-1.370920256977417,-2.5317962805377405,5.863929021149435,0.9860904216766357,-2.0716102758990687
1708433472.8274865,-1.924545407295227,-1.3710277837565918,-2.5321620146380823,5.863627183228292,0.9862947463989258,-2.072665039693014
1708433472.8294334,-1.9237850904464722,-1.3712537002614518,-2.532403532658712,5.863455521851339,0.9864969253540039,-2.0737345854388636
1708433472.831435,-1.9230774641036987,-1.3713554006865998,-2.5327165762530726,5.8631759760673425,0.9867131114006042,-2.0749133268939417
1708433472.8334415,-1.9223299026489258,-1.3714747589877625,-2.5330079237567347,5.862873542099752,0.9869430661201477,-2.0760343710528772
1708433472.8354535,-1.9216424226760864,-1.3716675502112885,-2.533381525670187,5.862690317421713,0.987159252166748,-2.0771096388446253
1708433472.8375115,-1.9209327697753906,-1.3718110781959076,-2.5337052981006067,5.862411963730612,0.9874368906021118,-2.078273121510641
1708433472.8394427,-1.9201796054840088,-1.3719157737544556,-2.534123484288351,5.862238991051473,0.9877129793167114,-2.0793960730182093
1708433472.841424,-1.9194693565368652,-1.372098134165146,-2.5345194975482386,5.862041580467977,0.9879932999610901,-2.0805380980121058
1708433472.843416,-1.9187378883361816,-1.372298614387848,-2.5348733107196253,5.861812937050619,0.9882603883743286,-2.081752125416891
1708433472.845414,-1.917988657951355,-1.3724942964366456,-2.5352214018451136,5.8615184901054285,0.9885861277580261,-2.082888905202047
1708433472.8474705,-1.9172717332839966,-1.3725840610316773,-2.5356083551989954,5.861430275231161,0.9887712597846985,-2.0840871969806116
1708433472.8495047,-1.9165723323822021,-1.372715876703598,-2.536057774220602,5.861185419350424,0.9890844821929932,-2.085261646901266
1708433472.8514285,-1.9158954620361328,-1.3728498977473755,-2.5364633242236536,5.861116993218221,0.9893531203269958,-2.086470905934469
1708433472.8534808,-1.9151339530944824,-1.3730742794326325,-2.5368498007403772,5.860887992172994,0.9895397424697876,-2.0875685850726526
1708433472.8554752,-1.914434790611267,-1.3732432287982483,-2.5372982660876673,5.86073254325942,0.9898483753204346,-2.0887907187091272
1708433472.85748,-1.91370689868927,-1.3733405631831666,-2.5377331415759485,5.860640156060018,0.9901996850967407,-2.0899928251849573
1708433472.859462,-1.9129782915115356,-1.3735075157931824,-2.538226906453268,5.8604410765464685,0.9905360341072083,-2.091191116963522
1708433472.861414,-1.9123139381408691,-1.3736560058644791,-2.5386949221240442,5.860330331116476,0.9909173846244812,-2.092372242604391
1708433472.8634398,-1.911580204963684,-1.373845563536026,-2.5391092936145228,5.860213863640585,0.9911906123161316,-2.0935571829425257
1708433472.8654232,-1.910901427268982,-1.3740060043386002,-2.539577309285299,5.860133397370138,0.9914864301681519,-2.0947745482074183
1708433472.8674412,-1.910210371017456,-1.3742257815650483,-2.5400376955615442,5.860004770546713,0.9918477535247803,-2.0959394613849085
1708433472.8694284,-1.9095196723937988,-1.3744144302657624,-2.540539089833395,5.859921085625448,0.9922332763671875,-2.0971034208880823
1708433472.8714287,-1.9087903499603271,-1.374540553694107,-2.540985170994894,5.8599140522773645,0.9926053285598755,-2.098203484212057
1708433472.8734956,-1.9081318378448486,-1.374802367096283,-2.5415175596820276,5.859836089401998,0.9930261969566345,-2.0994084517108362
1708433472.8754327,-1.9074040651321411,-1.3749281626990815,-2.5420594851123255,5.859736072808065,0.9934507012367249,-2.1005638281451624
1708433472.8774722,-1.9066718816757202,-1.3751828533462067,-2.5425334612475794,5.859643208771505,0.9938743114471436,-2.101778809224264
1708433472.8794694,-1.9059687852859497,-1.3753399115851899,-2.543041769658224,5.85964463928298,0.9942794442176819,-2.1028249899493616
1708433472.881459,-1.9053223133087158,-1.3755826216987153,-2.5435243288623255,5.859592544823446,0.994662880897522,-2.103999439870016
1708433472.8834605,-1.904645562171936,-1.3758128744414826,-2.5440495649920862,5.859544503479757,0.9950969815254211,-2.105140988026754
1708433472.8854296,-1.903961181640625,-1.3759645086577912,-2.544570271168844,5.859475958138265,0.9954184293746948,-2.1063340345965784
1708433472.8874905,-1.9033114910125732,-1.376204029922821,-2.545081440602438,5.859457957535543,0.9958638548851013,-2.10744554201235
1708433472.8894618,-1.9026567935943604,-1.3764207524112244,-2.5456042925464075,5.859396803170004,0.996284544467926,-2.1085599104510706
1708433472.8914635,-1.9019798040390015,-1.376608358030655,-2.5461986700641077,5.859408724098959,0.99666428565979,-2.109746758137838
1708433472.8934648,-1.901321291923523,-1.376807303433754,-2.5467050711261194,5.859390961914816,0.9971099495887756,-2.110941712056295
1708433472.8954852,-1.9006274938583374,-1.3770961326411744,-2.5472922960864466,5.859414803772726,0.9975330829620361,-2.1120951811419886
1708433472.8975248,-1.8999263048171997,-1.3772460681251069,-2.5478230158435267,5.859393822937765,0.9979564547538757,-2.113361660634176
1708433472.8994374,-1.8992644548416138,-1.3774854403785248,-2.5484536329852503,5.859393822937765,0.9984243512153625,-2.1145718733416956
1708433472.9014306,-1.8986173868179321,-1.377758042221405,-2.5490530172931116,5.859420645027914,0.998846173286438,-2.1157410780536097
1708433472.9035134,-1.897921085357666,-1.3779645723155518,-2.549673382435934,5.859448897629537,0.9992337822914124,-2.116981331502096
1708433472.9054348,-1.89725661277771,-1.3782462638667603,-2.5502622763263147,5.859604584961691,0.9996616244316101,-2.118202034627096
1708433472.9074535,-1.8966108560562134,-1.378420041208603,-2.5508726278888147,5.859561192780294,1.0000172853469849,-2.1194074789630335
1708433472.9094307,-1.8958938121795654,-1.3786761176637192,-2.5514848867999476,5.859682309418478,1.0004304647445679,-2.1206653753863733
1708433472.911437,-1.8952271938323975,-1.3789275598577042,-2.5521236101733606,5.859722840576925,1.0008800029754639,-2.1219375769244593
1708433472.9134676,-1.8945717811584473,-1.379246563916542,-2.5527733008014124,5.859754073410787,1.0012587308883667,-2.1231749693499964
1708433472.9154253,-1.8938313722610474,-1.3794232469848176,-2.553420607243673,5.859801995545187,1.0016957521438599,-2.124434773121969
1708433472.917442,-1.893181324005127,-1.3797149074128647,-2.55406362215151,5.85985695102767,1.0020899772644043,-2.1256468931781214
1708433472.9194596,-1.8925055265426636,-1.3799262207797547,-2.554694716130392,5.859848129540243,1.0025402307510376,-2.1268814245807093
1708433472.9214277,-1.8918585777282715,-1.380191223030426,-2.5554049650775355,5.859945165901937,1.0028780698776245,-2.1280296484576624
1708433472.9235883,-1.891161322593689,-1.3804669392159958,-2.556011740361349,5.860000598221578,1.0033406019210815,-2.129235569630758
1708433472.925468,-1.89052414894104,-1.3806432646564026,-2.556687895451681,5.860085952072897,1.0037199258804321,-2.1304529348956507
1708433472.9274359,-1.8897981643676758,-1.380928323870041,-2.5574165026294153,5.860178577690878,1.0041539669036865,-2.131626907979147
1708433472.929453,-1.8891714811325073,-1.381195829515793,-2.5580130259143274,5.860257375031271,1.0045820474624634,-2.1327508131610315
1708433472.9314663,-1.8885074853897095,-1.3814313870719452,-2.5587218443499964,5.860299575119772,1.0050073862075806,-2.1339600721942347
1708433472.9334855,-1.8878061771392822,-1.381743924026825,-2.559406820927755,5.8603787300880334,1.0054149627685547,-2.135170284901754
1708433472.935438,-1.8871623277664185,-1.3819659811309357,-2.5600934664355677,5.860526430397787,1.0058894157409668,-2.136322323475973
1708433472.9374611,-1.8865466117858887,-1.3823656004718323,-2.5607486406909388,5.860640156060018,1.006305456161499,-2.137545887623922
1708433472.9394872,-1.8858742713928223,-1.3825902205756684,-2.561441246663229,5.860804545670309,1.0066949129104614,-2.1387460867511194
1708433472.9414482,-1.885194182395935,-1.3828732830337067,-2.562162462865011,5.86084936836318,1.007082223892212,-2.1398914496051233
1708433472.9434566,-1.8846328258514404,-1.3831084233573456,-2.562798802052633,5.861026990204611,1.007445216178894,-2.141134564076559
1708433472.9454174,-1.88396418094635,-1.3834406596473237,-2.5635057131396692,5.861072051316061,1.0078647136688232,-2.142299477254049
1708433472.9474466,-1.8833057880401611,-1.383753852253296,-2.564270798360006,5.861261951714315,1.008301854133606,-2.1435654799090784
1708433472.9494631,-1.8827276229858398,-1.3840816181949158,-2.5649197737323206,5.8613812802131555,1.008722186088562,-2.1448572317706507
1708433472.9514513,-1.8820765018463135,-1.384407715206482,-2.565648142491476,5.861477243691244,1.0091748237609863,-2.1460941473590296
1708433472.9534554,-1.8814284801483154,-1.3847493094256897,-2.5663726965533655,5.861650454788961,1.0095957517623901,-2.1473663488971155
1708433472.955462,-1.8807792663574219,-1.385005460386612,-2.5671194235431116,5.8617355702217,1.0099458694458008,-2.148627583180563
1708433472.9574616,-1.880223274230957,-1.3853514355472107,-2.5678442160235804,5.861862528115072,1.0103310346603394,-2.1498234907733362
1708433472.9594634,-1.8795075416564941,-1.3856284481338044,-2.5685516039477747,5.86204348781661,1.0107007026672363,-2.1510122458087366
1708433472.9614618,-1.8788920640945435,-1.3859889072230835,-2.569252077733175,5.862132894783773,1.0109467506408691,-2.152287308369772
1708433472.9634645,-1.8782812356948853,-1.3863546711257477,-2.5699241797076624,5.862376796990194,1.011285424232483,-2.153632465993063
1708433472.965447,-1.8776413202285767,-1.3866673570922394,-2.5706737677203577,5.8624318716819666,1.0116264820098877,-2.154841725026266
1708433472.9674456,-1.8769989013671875,-1.3870538038066407,-2.5714386145221155,5.8626489517982385,1.0119918584823608,-2.15617543855776
1708433472.969438,-1.876315951347351,-1.3873787385276337,-2.5720999876605433,5.862772452622213,1.0123957395553589,-2.1574204603778284
1708433472.9714258,-1.875694990158081,-1.3877559167197724,-2.572893206273214,5.8628426668937585,1.0128023624420166,-2.1587355772601526
1708433472.9735234,-1.8750795125961304,-1.3880660396865387,-2.5736239592181605,5.86305187919692,1.0130749940872192,-2.1599724928485315
1708433472.975453,-1.8744604587554932,-1.3884416383555909,-2.574314896260397,5.863238918572225,1.0134540796279907,-2.1612241903888147
1708433472.977479,-1.873799204826355,-1.3887770038894196,-2.575014893208639,5.863318073540487,1.013811469078064,-2.1624563376056116
1708433472.979497,-1.8732199668884277,-1.389133707886078,-2.5757065455066126,5.863474952965536,1.0141199827194214,-2.1636722723590296
1708433472.9814904,-1.872558355331421,-1.3894329977086564,-2.5764458815204065,5.863561737328329,1.0144639015197754,-2.1649168173419397
1708433472.983473,-1.871922492980957,-1.389870063667633,-2.57713228860964,5.86366759517745,1.0147764682769775,-2.166121784840719
1708433472.9854844,-1.8713613748550415,-1.3902995747378846,-2.5779390970813196,5.863852965622701,1.0151132345199585,-2.1673739592181605
1708433472.9874692,-1.8706955909729004,-1.3906833690455933,-2.5786264578448694,5.863968241005697,1.015442132949829,-2.1686466375934046
1708433472.9894743,-1.8700312376022339,-1.3910950434258957,-2.5793896357165735,5.864111530571737,1.015683889389038,-2.169903580342428
1708433472.9915261,-1.869431495666504,-1.3914661717465897,-2.580108944569723,5.864181983261862,1.0159698724746704,-2.1711276213275355
1708433472.993464,-1.868847131729126,-1.391806111936905,-2.5808237234698694,5.8643414852912805,1.0162090063095093,-2.172417465840475
1708433472.995489,-1.8681716918945312,-1.3922224652818223,-2.581538502370016,5.864444958954611,1.01646888256073,-2.1736109892474573
1708433472.997492,-1.8674982786178589,-1.3926189851811905,-2.582341019307272,5.864588129311361,1.0167224407196045,-2.174962345753805
1708433472.9994419,-1.8669136762619019,-1.3930101555636902,-2.583055559788839,5.864679205208578,1.0169512033462524,-2.1762588659869593
1708433473.001428,-1.8662643432617188,-1.3934830588153382,-2.5837984720813196,5.864774691849508,1.0171798467636108,-2.1775272528277796
1708433473.003456,-1.8655993938446045,-1.393852711921074,-2.584482494984762,5.864886748581686,1.017436146736145,-2.1788328329669397
1708433473.0054262,-1.8649523258209229,-1.3942406189492722,-2.585261408482687,5.8650245545204065,1.0177220106124878,-2.1802189985858362
1708433473.007443,-1.8643726110458374,-1.3946596694043656,-2.5860002676593226,5.865141498833456,1.0178948640823364,-2.181418244038717
1708433473.0094295,-1.8637057542800903,-1.3950464141419907,-2.586770836506979,5.86520670631484,1.0180870294570923,-2.1826956907855433
1708433473.0114567,-1.8630638122558594,-1.39541311681781,-2.5874484221087855,5.865314709931173,1.0182058811187744,-2.1840184370623987
1708433473.0134697,-1.8624309301376343,-1.3958909970572968,-2.5882166067706507,5.865384804993429,1.0184074640274048,-2.1853159109698694
1708433473.0154846,-1.8617829084396362,-1.3963119995645066,-2.58893853822817,5.865428197174825,1.0185636281967163,-2.1867225805865687
1708433473.0174673,-1.8611549139022827,-1.396750496034958,-2.5897095839129847,5.8655282137687585,1.0187064409255981,-2.1880295912372034
1708433473.0194204,-1.8605084419250488,-1.3971985292485734,-2.590440813695089,5.865612017899313,1.0188837051391602,-2.1894004980670374
1708433473.021443,-1.8598875999450684,-1.3975849461606522,-2.5911555925952356,5.865721094399252,1.0190114974975586,-2.190683666859762
1708433473.0234978,-1.859215259552002,-1.3980982166579743,-2.591853443776266,5.86570297458724,1.0191149711608887,-2.191951576863424
1708433473.0254526,-1.8585461378097534,-1.3985084009221573,-2.592572037373678,5.865828501969137,1.0192309617996216,-2.1932509581195276
1708433473.0275018,-1.8579633235931396,-1.398935319190361,-2.593304697667257,5.865855204849996,1.019327163696289,-2.194486443196432
1708433473.0294383,-1.8573647737503052,-1.3993964952281495,-2.5940068403827112,5.865853774338522,1.0194593667984009,-2.1957033316241663
1708433473.03143,-1.856777310371399,-1.399838389163353,-2.5946314970599573,5.865943419724264,1.0196051597595215,-2.196981732045309
1708433473.0334878,-1.856135606765747,-1.4002712678960343,-2.5953825155841272,5.865967261582174,1.0197734832763672,-2.198153320943014
1708433473.0354626,-1.8555878400802612,-1.4007624101689835,-2.595964495335714,5.865937459259786,1.0198861360549927,-2.199451271687643
1708433473.0374978,-1.8548457622528076,-1.40122643232856,-2.5967231432544153,5.866022813111105,1.0200018882751465,-2.20068866411318
1708433473.0394702,-1.8542553186416626,-1.4016812306693573,-2.597393814717428,5.865933048516073,1.0200892686843872,-2.2019503752337855
1708433473.0414333,-1.853661298751831,-1.402186245923378,-2.598053280507223,5.865961539536276,1.0201525688171387,-2.203141991292135
1708433473.0435176,-1.8530102968215942,-1.402627856736519,-2.5987117926227015,5.865876304894247,1.0202902555465698,-2.204461399708883
1708433473.0454276,-1.8525023460388184,-1.403057948952057,-2.5993498007403772,5.865918385773458,1.02033269405365,-2.205644432698385
1708433473.0474422,-1.851891040802002,-1.4035458874753495,-2.600030247365133,5.865844714432516,1.0203267335891724,-2.2069509665118616
1708433473.0495367,-1.8512933254241943,-1.4040341836265107,-2.6006656328784388,5.865759956627645,1.020359754562378,-2.208179299031393
1708433473.0514402,-1.8506731986999512,-1.4044474524310608,-2.6012588183032435,5.865737306862631,1.0204166173934937,-2.209505860005514
1708433473.053467,-1.8501243591308594,-1.4049593967250367,-2.601865355168478,5.8656489727790735,1.0203913450241089,-2.210721794758932
