Eg3-git/Classifiers/Data Collection/u1/u1star2_ur3e_joint_states.csv
time,elbow_joint,shoulder_lift_joint,shoulder_pan_joint,wrist_1_joint,wrist_2_joint,wrist_3_joint
1708433398.9828215,-2.1458239555358887,-1.334392638211586,-2.5251360575305384,6.119307744293966,1.014427661895752,-1.8311708609210413
1708433398.9848166,-2.145893096923828,-1.3343480092338105,-2.5251224676715296,6.119315254479208,1.0144938230514526,-1.8311455885516565
1708433398.9868379,-2.1458396911621094,-1.3344007444432755,-2.5251527468310755,6.1193286059196375,1.014444351196289,-1.8311660925494593
1708433398.9888148,-2.145843982696533,-1.3343723577312012,-2.5251105467425745,6.119286882668295,1.0144399404525757,-1.8312032858477991
1708433398.9908755,-2.1458353996276855,-1.3343757551959534,-2.5251269976245325,6.1193450568015955,1.0144894123077393,-1.8311966101275843
1708433398.9928722,-2.145875930786133,-1.3343681407025834,-2.5251105467425745,6.119331586151876,1.014448881149292,-1.831200901662008
1708433398.9948888,-2.1458845138549805,-1.3343799722245713,-2.5250912348376673,6.119315254479208,1.014423131942749,-1.8311875502215784
1708433398.9968715,-2.145875930786133,-1.3343596172383805,-2.5251527468310755,6.119307744293966,1.0144068002700806,-1.8311966101275843
1708433398.9988916,-2.1458425521850586,-1.3343681407025834,-2.5251122156726282,6.119310605316915,1.014427661895752,-1.8311837355243128
1708433399.0008378,-2.145872116088867,-1.3343523454717179,-2.5250986258136194,6.1193240759666345,1.0144562721252441,-1.8311346212970179
1708433399.0028434,-2.145893096923828,-1.3343638342669983,-2.5251060167895716,6.119277941971578,1.0144398212432861,-1.8311470190631312
1708433399.004857,-2.1458678245544434,-1.3343884956887742,-2.5250867048846644,6.119282471924581,1.0144399404525757,-1.8311589399920862
1708433399.0068872,-2.1458468437194824,-1.3344007444432755,-2.5251360575305384,6.1193240759666345,1.014411211013794,-1.8311708609210413
1708433399.0089,-2.145826578140259,-1.3343964380076905,-2.5251105467425745,6.119273412018575,1.014423131942749,-1.8311389128314417
1708433399.0109034,-2.1458468437194824,-1.3343884956887742,-2.5251196066485804,6.11929880359725,1.0144399404525757,-1.831200901662008
1708433399.0128958,-2.1458635330200195,-1.3343554002097626,-2.5251360575305384,6.119360077172079,1.0144321918487549,-1.8311422506915491
1708433399.0148697,-2.145826816558838,-1.3343799722245713,-2.5251269976245325,6.1193004725273035,1.014482021331787,-1.8311665693866175
1708433399.0168412,-2.1458592414855957,-1.3344330203584214,-2.5250940958606165,6.11933599689559,1.0144562721252441,-1.8311470190631312
1708433399.0188775,-2.1458353996276855,-1.3343565475991745,-2.5251105467425745,6.119295823365011,1.0144366025924683,-1.8311379591571253
1708433399.0208693,-2.145915985107422,-1.3343596172383805,-2.5250986258136194,6.119286882668295,1.0144158601760864,-1.8311050573932093
1708433399.022856,-2.1459133625030518,-1.3343523156693955,-2.5250867048846644,6.119312274246969,1.014427661895752,-1.8311885038958948
1708433399.024853,-2.1458311080932617,-1.3343799722245713,-2.5251527468310755,6.1192537424858,1.0144068002700806,-1.831151310597555
1708433399.0268621,-2.1458802223205566,-1.3343638342669983,-2.5250867048846644,6.119316804199972,1.014444351196289,-1.8311966101275843
1708433399.028813,-2.1458678245544434,-1.3343842786601563,-2.5251105467425745,6.1193405268485925,1.0143994092941284,-1.8311885038958948
1708433399.030835,-2.145872116088867,-1.3343403947404404,-2.5251122156726282,6.119324195175924,1.0144202709197998,-1.8311966101275843
1708433399.0328097,-2.1458311080932617,-1.3343638640693207,-2.5251150766955774,6.1193405268485925,1.014411211013794,-1.8311470190631312
1708433399.0348837,-2.1458888053894043,-1.3343964380076905,-2.5251196066485804,6.119324195175924,1.0144366025924683,-1.8311298529254358
1708433399.0368285,-2.145843982696533,-1.3344252419522782,-2.525083605443136,6.119282471924581,1.0144578218460083,-1.8311675230609339
1708433399.038863,-2.1458845138549805,-1.3343922358802338,-2.525104824696676,6.119295823365011,1.01446533203125,-1.8311589399920862
1708433399.0409648,-2.1458678245544434,-1.334429458980896,-2.5251150766955774,6.119279134064474,1.014444351196289,-1.831151310597555
1708433399.042854,-2.145854949951172,-1.3343964380076905,-2.5251527468310755,6.1193405268485925,1.0144321918487549,-1.8311927954303187
1708433399.0448623,-2.145872116088867,-1.334416852598526,-2.52509576479067,6.119316804199972,1.0144158601760864,-1.831151310597555
1708433399.0468526,-2.1458511352539062,-1.3343681556037446,-2.5251269976245325,6.119321214943685,1.014427661895752,-1.8311708609210413
1708433399.0488737,-2.1458635330200195,-1.3343554002097626,-2.5250986258136194,6.1193240759666345,1.0144366025924683,-1.8311646620379847
1708433399.0508385,-2.1458845138549805,-1.3343565326980134,-2.5250700155841272,6.11929880359725,1.0144411325454712,-1.831118408833639
1708433399.0528588,-2.145859718322754,-1.3343922358802338,-2.5251150766955774,6.119348275452413,1.014453411102295,-1.831125561391012
1708433399.0549107,-2.145893096923828,-1.3343964380076905,-2.5251572767840784,6.119270074158468,1.0144246816635132,-1.831097427998678
1708433399.0569186,-2.145872116088867,-1.3343884956887742,-2.5250867048846644,6.1193121550376794,1.0144202709197998,-1.8311389128314417
1708433399.0588253,-2.14585542678833,-1.3344007444432755,-2.525133196507589,6.1193121550376794,1.0144411325454712,-1.8311269919024866
1708433399.0608268,-2.1458468437194824,-1.334429458980896,-2.5251076857196253,6.119303214340963,1.0144202709197998,-1.8311298529254358
1708433399.0628486,-2.145872116088867,-1.3343968254378815,-2.5251618067370813,6.119339334755697,1.014412760734558,-1.8311474959002894
1708433399.0648496,-2.1458239555358887,-1.3343681407025834,-2.5251076857196253,6.119336116104879,1.0144578218460083,-1.8311470190631312
1708433399.0668788,-2.145897388458252,-1.3343884956887742,-2.525083605443136,6.119331586151876,1.0144246816635132,-1.8311927954303187
1708433399.0688426,-2.145872116088867,-1.3343842786601563,-2.5251405874835413,6.119286882668295,1.0143920183181763,-1.8311808745013636
1708433399.0708408,-2.1458468437194824,-1.3344091039947052,-2.5250654856311243,6.119315135269918,1.0143874883651733,-1.83116323152651
1708433399.0728493,-2.145872116088867,-1.3344210994294663,-2.525079075490133,6.119327056198873,1.0144039392471313,-1.831172291432516
1708433399.074805,-2.145872116088867,-1.3343842786601563,-2.5251241366015833,6.119295823365011,1.0143920183181763,-1.8311675230609339
1708433399.0768461,-2.145872116088867,-1.3343681407025834,-2.525062624608175,6.119319665222921,1.0144083499908447,-1.8311474959002894
1708433399.0788178,-2.14585542678833,-1.3344491583159943,-2.525116745625631,6.11934374549941,1.0144202709197998,-1.8311603705035608
1708433399.0808244,-2.1458353996276855,-1.3344210994294663,-2.5251286665545862,6.119264590531149,1.0143749713897705,-1.83116323152651
1708433399.0828106,-2.1458916664123535,-1.3343673211387177,-2.5250867048846644,6.119282471924581,1.0144010782241821,-1.8311808745013636
1708433399.0848198,-2.1458678245544434,-1.3343842786601563,-2.5251122156726282,6.1192418215568445,1.0143793821334839,-1.8311474959002894
1708433399.0868304,-2.145893096923828,-1.3343437922051926,-2.5251405874835413,6.119337665825643,1.0143964290618896,-1.8311227003680628
1708433399.0888295,-2.145875930786133,-1.3343554002097626,-2.5250867048846644,6.119344937592306,1.0143884420394897,-1.8311227003680628
1708433399.0908818,-2.145904541015625,-1.334416852598526,-2.5251572767840784,6.119295823365011,1.0143885612487793,-1.8311179319964808
1708433399.0928981,-2.1458592414855957,-1.334404931669571,-2.5251031557666224,6.119282471924581,1.0144248008728027,-1.831151310597555
1708433399.0948594,-2.1458802223205566,-1.3343723577312012,-2.52507454553713,6.119295823365011,1.0143884420394897,-1.8311269919024866
1708433399.0968456,-2.1458468437194824,-1.334376485352852,-2.525079075490133,6.119286882668295,1.0143840312957764,-1.8311432043658655
1708433399.098853,-2.1458468437194824,-1.334432990556099,-2.5251122156726282,6.1193240759666345,1.0143884420394897,-1.8311346212970179
1708433399.100841,-2.14585542678833,-1.3343799722245713,-2.52509576479067,6.119304883271017,1.0143721103668213,-1.8311432043658655
1708433399.102828,-2.1458511352539062,-1.3343437922051926,-2.52509576479067,6.1193286059196375,1.0144010782241821,-1.8311432043658655
1708433399.104872,-2.1458311080932617,-1.3343922209790726,-2.5250912348376673,6.119294273644247,1.0143601894378662,-1.831118408833639
1708433399.106876,-2.1458396911621094,-1.3343681407025834,-2.5251031557666224,6.119274604111471,1.0143975019454956,-1.8311432043658655
1708433399.108865,-2.145822286605835,-1.3343277138522645,-2.5251196066485804,6.119282471924581,1.0143840312957764,-1.8311474959002894
1708433399.1108286,-2.1458511352539062,-1.3343757551959534,-2.525058094655172,6.119262683182516,1.0143765211105347,-1.8310778776751917
1708433399.1128752,-2.145875930786133,-1.3343884956887742,-2.52509576479067,6.119321214943685,1.01435124874115,-1.8311389128314417
1708433399.1148682,-2.145904541015625,-1.3343964380076905,-2.525083605443136,6.119352805405416,1.014369249343872,-1.8311031500445765
1708433399.1168792,-2.1458845138549805,-1.3344252419522782,-2.52507454553713,6.119279134064474,1.0143647193908691,-1.8311432043658655
1708433399.1188393,-2.145904541015625,-1.3344168824008484,-2.5251076857196253,6.119303333550253,1.0143647193908691,-1.8311432043658655
1708433399.1207929,-2.145907402038574,-1.3343681407025834,-2.5251031557666224,6.119303333550253,1.0143765211105347,-1.8311107794391077
1708433399.1228175,-2.1458635330200195,-1.3343799871257325,-2.5250654856311243,6.119307744293966,1.0143438577651978,-1.8311718145953577
1708433399.1248324,-2.1458511352539062,-1.3343842786601563,-2.525079075490133,6.119324195175924,1.0143646001815796,-1.8311556021319788
1708433399.1268456,-2.1458802223205566,-1.3343757551959534,-2.525121037160055,6.11935709693984,1.0143482685089111,-1.8311522642718714
1708433399.1288154,-2.145893096923828,-1.3344083589366456,-2.5251122156726282,6.11933325508193,1.014336109161377,-1.831125561391012
1708433399.1308708,-2.1458425521850586,-1.3344049614718934,-2.525104824696676,6.119310605316915,1.0143482685089111,-1.8311227003680628
1708433399.1328259,-2.145871639251709,-1.3344413799098511,-2.52509576479067,6.119324195175924,1.014327049255371,-1.8311150709735315
1708433399.1348326,-2.1458959579467773,-1.334376500254013,-2.525104824696676,6.119344937592306,1.0143437385559082,-1.8311470190631312
1708433399.1368163,-2.1458635330200195,-1.3343681407025834,-2.5250912348376673,6.119312274246969,1.0143061876296997,-1.8311312834369105
1708433399.138818,-2.1458959579467773,-1.3344406348517914,-2.5251122156726282,6.1193405268485925,1.014331579208374,-1.8310940901385706
1708433399.1409874,-2.1458592414855957,-1.3344533902457734,-2.5251031557666224,6.119303214340963,1.014327049255371,-1.8311556021319788
1708433399.1428757,-2.145911693572998,-1.3344372373870392,-2.52507454553713,6.119352924614706,1.014336109161377,-1.8311227003680628
1708433399.1448574,-2.1458828449249268,-1.3344083589366456,-2.52509576479067,6.119339334755697,1.0143241882324219,-1.8311150709735315
1708433399.1468458,-2.1458888053894043,-1.3344287139228364,-2.5251241366015833,6.119367587357321,1.014336109161377,-1.831085507069723
1708433399.1488411,-2.1458916664123535,-1.3344083589366456,-2.525079075490133,6.119327056198873,1.0143285989761353,-1.8311031500445765
1708433399.1508348,-2.1458873748779297,-1.3343842786601563,-2.5251286665545862,6.119394647866049,1.0143285989761353,-1.8311432043658655
1708433399.1528525,-2.1459295749664307,-1.3343681407025834,-2.5251241366015833,6.1193556664283655,1.0143450498580933,-1.8310897986041468
1708433399.1548796,-2.1458802223205566,-1.3343681407025834,-2.52507454553713,6.119342195778646,1.0143241882324219,-1.8311064879046839
1708433399.1568658,-2.1458828449249268,-1.3343723577312012,-2.5250700155841272,6.119381177216329,1.014352798461914,-1.8311479727374476
1708433399.1588287,-2.1458678245544434,-1.3343681407025834,-2.525083605443136,6.119392621308126,1.0143001079559326,-1.8311432043658655
1708433399.160835,-2.145954132080078,-1.3343596172383805,-2.5251076857196253,6.119403350144186,1.0143450498580933,-1.8311556021319788
1708433399.1628153,-2.1458828449249268,-1.3343922209790726,-2.5250654856311243,6.119406211167135,1.0143033266067505,-1.8311474959002894
1708433399.1648104,-2.1459295749664307,-1.3344049614718934,-2.5251076857196253,6.119424211769857,1.0143285989761353,-1.8311522642718714
1708433399.166879,-2.145911693572998,-1.3343842786601563,-2.525079075490133,6.119431602745809,1.0143241882324219,-1.831130329762594
1708433399.168848,-2.145907402038574,-1.3344049614718934,-2.525104824696676,6.119406211167135,1.0143033266067505,-1.8311107794391077
1708433399.170865,-2.1458899974823,-1.3343884956887742,-2.525088135396139,6.119427192002096,1.0142788887023926,-1.8311556021319788
1708433399.1728582,-2.1459031105041504,-1.3344007444432755,-2.52507454553713,6.119430410652914,1.0143241882324219,-1.831172291432516
1708433399.1748111,-2.1458828449249268,-1.3343638640693207,-2.525083605443136,6.11941825130538,1.0143122673034668,-1.8311355749713343
1708433399.176871,-2.1459410190582275,-1.3344533902457734,-2.5251122156726282,6.11941825130538,1.0142955780029297,-1.8311312834369105
1708433399.1788132,-2.145878553390503,-1.3343511682799836,-2.5250700155841272,6.119431602745809,1.0143001079559326,-1.8310897986041468
1708433399.1808226,-2.145875930786133,-1.3343723577312012,-2.52509576479067,6.119431602745809,1.0142788887023926,-1.8310869375811976
1708433399.1828456,-2.145920991897583,-1.334376500254013,-2.5250912348376673,6.119476783066549,1.0142743587493896,-1.8311522642718714
1708433399.1848216,-2.1459295749664307,-1.334404156809189,-2.52509576479067,6.119476783066549,1.0143482685089111,-1.8311179319964808
1708433399.1868424,-2.145920991897583,-1.3343799871257325,-2.52509576479067,6.11948703506545,1.0142955780029297,-1.8311017195331019
1708433399.1888068,-2.1458899974823,-1.334404156809189,-2.52509576479067,6.119470941811361,1.0143495798110962,-1.8311269919024866
1708433399.1908574,-2.1459295749664307,-1.3344210994294663,-2.5251122156726282,6.11948441246108,1.014357328414917,-1.8311227003680628
1708433399.19287,-2.1458985805511475,-1.334421069627144,-2.525100294743673,6.1194753525550745,1.0143033266067505,-1.8311646620379847
1708433399.194886,-2.14591646194458,-1.3343638640693207,-2.5251122156726282,6.1194989559944055,1.0143122673034668,-1.8311227003680628
1708433399.1968713,-2.145878553390503,-1.3343964380076905,-2.5251286665545862,6.119557249336996,1.0143122673034668,-1.8311064879046839
1708433399.1988811,-2.1458873748779297,-1.334421069627144,-2.52509576479067,6.119448411255636,1.0143406391143799,-1.831151310597555
1708433399.2008684,-2.1459295749664307,-1.3343565475991745,-2.5250700155841272,6.119544017105856,1.0143450498580933,-1.8311227003680628
1708433399.2028499,-2.1459121704101562,-1.3344049614718934,-2.525036875401632,6.119527566223898,1.0143285989761353,-1.8311017195331019
1708433399.2048855,-2.14591646194458,-1.3343554449132462,-2.52509576479067,6.1195260165031335,1.0142955780029297,-1.8311389128314417
1708433399.206877,-2.1458828449249268,-1.3344168824008484,-2.525100294743673,6.119591939240255,1.0143405199050903,-1.8311556021319788
1708433399.208881,-2.1459031105041504,-1.3343964380076905,-2.52509576479067,6.119521486550131,1.0143241882324219,-1.8311718145953577
1708433399.2109,-2.1459436416625977,-1.334388480787613,-2.525067154561178,6.1195260165031335,1.0143241882324219,-1.8311556021319788
1708433399.2128744,-2.145923614501953,-1.3343596172383805,-2.5251286665545862,6.11954544761733,1.0143122673034668,-1.8311470190631312
1708433399.2148564,-2.14591646194458,-1.3344049614718934,-2.525079075490133,6.119575488358297,1.0143285989761353,-1.831130329762594
1708433399.2169027,-2.145923614501953,-1.334432990556099,-2.525121275578634,6.119505035668173,1.014336109161377,-1.8311389128314417
1708433399.218939,-2.145881414413452,-1.3343681407025834,-2.525088135396139,6.119598972588339,1.0143450498580933,-1.8311885038958948
1708433399.2208283,-2.145977020263672,-1.3344252419522782,-2.525045935307638,6.119537818222799,1.0143241882324219,-1.8311389128314417
1708433399.2228665,-2.1459813117980957,-1.3343757551959534,-2.5250700155841272,6.119591939240255,1.0143001079559326,-1.8311346212970179
1708433399.2248294,-2.145927906036377,-1.3344083589366456,-2.52509576479067,6.119627582817831,1.0143167972564697,-1.83116323152651
1708433399.2268507,-2.1459436416625977,-1.3343922358802338,-2.525104824696676,6.119570958405294,1.014336109161377,-1.83116323152651
1708433399.2288017,-2.1459524631500244,-1.3344090592912217,-2.5251241366015833,6.119537818222799,1.014357328414917,-1.831125561391012
1708433399.2308733,-2.145939350128174,-1.3343880039504548,-2.52507454553713,6.119549739151754,1.0143617391586304,-1.8311298529254358
1708433399.232833,-2.145939350128174,-1.3343554002097626,-2.5250700155841272,6.11960648277358,1.0143405199050903,-1.8311389128314417
1708433399.2347996,-2.145977020263672,-1.3343638342669983,-2.525100294743673,6.11961983421401,1.0143197774887085,-1.831179443989889
1708433399.2368379,-2.1459603309631348,-1.3343638640693207,-2.525058094655172,6.119642483979025,1.014357328414917,-1.8311718145953577
1708433399.2388232,-2.145923614501953,-1.3343681258014222,-2.52509576479067,6.119605052262106,1.0143617391586304,-1.83116323152651
1708433399.2409039,-2.145984172821045,-1.3343673658422013,-2.525054995213644,6.119626152306356,1.0143078565597534,-1.8311718145953577
1708433399.2428436,-2.145981550216675,-1.3343638640693207,-2.525100294743673,6.119594561844625,1.014336109161377,-1.831130329762594
1708433399.2448761,-2.1459598541259766,-1.3343884956887742,-2.52509576479067,6.119711506157675,1.014315128326416,-1.8311589399920862
1708433399.246896,-2.145923614501953,-1.334399939780571,-2.5251122156726282,6.119641291886129,1.0143241882324219,-1.8311589399920862
1708433399.2488282,-2.1459150314331055,-1.3343964380076905,-2.52509576479067,6.119642483979025,1.0143646001815796,-1.831179443989889
1708433399.2508523,-2.145977020263672,-1.3343842786601563,-2.52509576479067,6.119646894722738,1.0142955780029297,-1.831130329762594
1708433399.2528458,-2.1459221839904785,-1.334388018851616,-2.525104824696676,6.119654643326559,1.014315128326416,-1.83116323152651
1708433399.25494,-2.1460044384002686,-1.3343999248794098,-2.525062624608175,6.119657623558798,1.014357328414917,-1.8311379591571253
1708433399.2568598,-2.1459105014801025,-1.3343837720206757,-2.525116745625631,6.119670974999227,1.0143152475357056,-1.831212345753805
1708433399.2588325,-2.1459474563598633,-1.3343799722245713,-2.525062624608175,6.11964117267684,1.014315128326416,-1.83116323152651
1708433399.260794,-2.1459431648254395,-1.3344287139228364,-2.5250912348376673,6.119711625366964,1.0143197774887085,-1.831196133290426
1708433399.2628396,-2.1459603309631348,-1.3343885254910965,-2.525100294743673,6.1197396395500085,1.0143438577651978,-1.8311665693866175
1708433399.264785,-2.145968437194824,-1.3344244968942185,-2.525079075490133,6.119747030525961,1.014357328414917,-1.8311708609210413
1708433399.2668672,-2.1459388732910156,-1.3344286990216752,-2.5250609556781214,6.119751441269674,1.014352798461914,-1.8311575094806116
1708433399.2688434,-2.1459755897521973,-1.3344244968942185,-2.5251122156726282,6.1196937439735315,1.0143482685089111,-1.8311947027789515
1708433399.2708097,-2.145984172821045,-1.3344330203584214,-2.5251076857196253,6.1197712300117395,1.0143033266067505,-1.8312199751483362
1708433399.2728345,-2.1459712982177734,-1.3344083589366456,-2.5251031557666224,6.119733440666952,1.0143197774887085,-1.8312352339373987
1708433399.2748032,-2.1459555625915527,-1.334432990556099,-2.5251286665545862,6.119734990387716,1.014357328414917,-1.8312814871417444
1708433399.2768247,-2.1459999084472656,-1.3344202798656006,-2.5251122156726282,6.119700777321615,1.014373779296875,-1.831214729939596
1708433399.2788072,-2.1459755897521973,-1.3343565326980134,-2.525088135396139,6.119726168900289,1.014331579208374,-1.8312395254718226
1708433399.280821,-2.145991325378418,-1.3344406348517914,-2.5251122156726282,6.119738089829244,1.0143152475357056,-1.8311980406390589
1708433399.282852,-2.145979881286621,-1.3343922209790726,-2.52507454553713,6.119724619179525,1.014369249343872,-1.8312433401690882
1708433399.2848074,-2.1459667682647705,-1.3344202947667618,-2.5250912348376673,6.1197171089942834,1.014327049255371,-1.831247631703512
1708433399.2868288,-2.146029233932495,-1.3344613176635285,-2.5250912348376673,6.119745719223776,1.0143766403198242,-1.831275765095846
1708433399.2888174,-2.1460249423980713,-1.3343596172383805,-2.525067154561178,6.119745719223776,1.0143107175827026,-1.8312891165362757
1708433399.2908552,-2.145987033843994,-1.3344406348517914,-2.525104824696676,6.119750249176779,1.0143810510635376,-1.831263844166891
1708433399.2928777,-2.1459755897521973,-1.3344083589366456,-2.5250912348376673,6.1197335598762415,1.0143675804138184,-1.8312190214740198
1708433399.2948766,-2.1459755897521973,-1.3343437922051926,-2.525062624608175,6.1197125790412805,1.014327049255371,-1.8312714735614222
1708433399.2968311,-2.145946741104126,-1.3344448518804093,-2.5250912348376673,6.119789111405172,1.0143810510635376,-1.8312848250018519
1708433399.2988603,-2.1460206508636475,-1.3344534498504181,-2.525067154561178,6.119763839035787,1.0143438577651978,-1.831263844166891
1708433399.300832,-2.145995616912842,-1.3344168824008484,-2.525079075490133,6.119681465416708,1.0143601894378662,-1.831275765095846
1708433399.3028343,-2.1460249423980713,-1.3343511682799836,-2.525079075490133,6.119747030525961,1.014336109161377,-1.8312681357013147
1708433399.304833,-2.1460161209106445,-1.3344007444432755,-2.5251286665545862,6.119766580849447,1.0144065618515015,-1.8312714735614222
1708433399.3068578,-2.1460206508636475,-1.3344007444432755,-2.52509576479067,6.11979495266036,1.0143557786941528,-1.8312833944903772
1708433399.308949,-2.1459598541259766,-1.3343964380076905,-2.525079075490133,6.119778620987692,1.0143601894378662,-1.8312800566302698
1708433399.3108528,-2.1459739208221436,-1.3344202798656006,-2.5251360575305384,6.119762170105734,1.014352798461914,-1.8312791029559534
1708433399.3128452,-2.1460049152374268,-1.3343799722245713,-2.525100294743673,6.119753229409017,1.014336109161377,-1.8312833944903772
1708433399.3148491,-2.1459755897521973,-1.3344406199506302,-2.5251122156726282,6.119745719223776,1.014327049255371,-1.8312714735614222
1708433399.3168604,-2.1460206508636475,-1.3344168824008484,-2.525149647389547,6.119781482010641,1.0143766403198242,-1.8312953154193323
1708433399.3187983,-2.1460249423980713,-1.3344202798656006,-2.5250940958606165,6.119783031731405,1.0143721103668213,-1.8312628904925745
1708433399.3207939,-2.1460118293762207,-1.3344040972045441,-2.5251076857196253,6.1197712300117395,1.0143393278121948,-1.8312628904925745
1708433399.322862,-2.1459712982177734,-1.3343964380076905,-2.5250912348376673,6.119741308480062,1.014352798461914,-1.8312628904925745
1708433399.324825,-2.1459739208221436,-1.3343596768430253,-2.5250912348376673,6.119790541916647,1.0143929719924927,-1.8312867323504847
1708433399.3268378,-2.1460275650024414,-1.3344448816827317,-2.5250535647021692,6.119774091034689,1.0143393278121948,-1.8312833944903772
1708433399.3288288,-2.1460249423980713,-1.3343638193658371,-2.5250867048846644,6.119748699456014,1.0144020318984985,-1.8312791029559534
1708433399.330822,-2.1460189819335938,-1.3344160628369828,-2.52507454553713,6.119715559273519,1.0143766403198242,-1.8312791029559534
1708433399.3328886,-2.146040678024292,-1.3344083440354844,-2.5251122156726282,6.119757640152731,1.0143840312957764,-1.8312833944903772
1708433399.334819,-2.1460232734680176,-1.3344372373870392,-2.525100294743673,6.119774091034689,1.0143810510635376,-1.83130389848818
1708433399.3368626,-2.1460275650024414,-1.3344533902457734,-2.5251031557666224,6.11975775936202,1.0143765211105347,-1.8313120047198694
1708433399.3388417,-2.146000385284424,-1.334388018851616,-2.5250654856311243,6.119711148529806,1.0143226385116577,-1.8312791029559534
1708433399.3408604,-2.14599609375,-1.3344322753003617,-2.525062624608175,6.119765150337972,1.0143721103668213,-1.8312953154193323
1708433399.3428624,-2.1459712982177734,-1.3344364178231736,-2.525144879017965,6.119783031731405,1.0143721103668213,-1.8313162962542933
1708433399.3448298,-2.1459739208221436,-1.3344448667815705,-2.5250912348376673,6.119769680290975,1.014330267906189,-1.831385914479391
1708433399.3468502,-2.1460399627685547,-1.3343837720206757,-2.5250371138202112,6.119820701866903,1.0143840312957764,-1.8313282171832483
1708433399.3488352,-2.1460275650024414,-1.3343964380076905,-2.5250700155841272,6.119778501778402,1.0143557786941528,-1.8312867323504847
1708433399.3508348,-2.1460161209106445,-1.334432215695717,-2.525116745625631,6.119781362801351,1.0143675804138184,-1.831299130116598
1708433399.3528657,-2.1460118293762207,-1.3343681407025834,-2.525133196507589,6.119798171311178,1.0143766403198242,-1.8313162962542933
1708433399.3548374,-2.145982503890991,-1.3343880039504548,-2.525083605443136,6.119786011963644,1.0144054889678955,-1.8312953154193323
1708433399.3568952,-2.146003246307373,-1.3344125759652634,-2.525116745625631,6.1197993634040735,1.0143884420394897,-1.831299130116598
1708433399.3588212,-2.1460530757904053,-1.3343837720206757,-2.525079075490133,6.11979495266036,1.0143793821334839,-1.8313077131854456
1708433399.3608418,-2.1460092067718506,-1.3344007444432755,-2.5250912348376673,6.119762170105734,1.0143766403198242,-1.8313573042498987
1708433399.3628254,-2.14599609375,-1.3343880486539383,-2.5250654856311243,6.119765031128683,1.014367699623108,-1.8312819639789026
1708433399.3648088,-2.1460118293762207,-1.3344406348517914,-2.525079075490133,6.119741308480062,1.0143840312957764,-1.8312748114215296
1708433399.3668764,-2.1460318565368652,-1.3344083589366456,-2.5251122156726282,6.119727837830343,1.0143393278121948,-1.8312819639789026
1708433399.3688247,-2.146000385284424,-1.3344364178231736,-2.5250986258136194,6.119724619179525,1.0143929719924927,-1.8313162962542933
1708433399.370829,-2.146000385284424,-1.3344168824008484,-2.525133196507589,6.1197171089942834,1.0143630504608154,-1.8312819639789026
1708433399.3728158,-2.146057367324829,-1.3344487112811585,-2.525041405354635,6.119741308480062,1.0143766403198242,-1.8313401381122034
1708433399.374806,-2.1460049152374268,-1.3344448667815705,-2.525100294743673,6.119775640755453,1.0144010782241821,-1.8312867323504847
1708433399.3768322,-2.1460275650024414,-1.3344364178231736,-2.5251076857196253,6.1197712300117395,1.0144020318984985,-1.831320587788717
1708433399.3788276,-2.1460049152374268,-1.3343999844840546,-2.52509576479067,6.11977111080245,1.0143793821334839,-1.8313239256488245
1708433399.3808196,-2.146040678024292,-1.3344406497529526,-2.5250490347491663,6.119724499970236,1.0143630504608154,-1.8312748114215296
1708433399.3828313,-2.146040678024292,-1.3344041419080277,-2.52509576479067,6.119804012566366,1.0144338607788086,-1.8313120047198694
1708433399.3848028,-2.145958185195923,-1.3343757551959534,-2.5250700155841272,6.119753229409017,1.0143929719924927,-1.8312867323504847
1708433399.3868394,-2.14599609375,-1.3344168973020096,-2.5250912348376673,6.11975775936202,1.0143629312515259,-1.8313120047198694
1708433399.38881,-2.146000385284424,-1.3344202798656006,-2.52509576479067,6.119738089829244,1.0143885612487793,-1.8313077131854456
1708433399.3908875,-2.145982503890991,-1.3343922209790726,-2.525083605443136,6.119783031731405,1.0143585205078125,-1.8313120047198694
1708433399.3928738,-2.1460275650024414,-1.3343964529088517,-2.525067154561178,6.119783031731405,1.0143964290618896,-1.8313077131854456
1708433399.394833,-2.1460609436035156,-1.3343715381673356,-2.5251286665545862,6.119790422707357,1.0143840312957764,-1.8313162962542933
1708433399.3968658,-2.1460275650024414,-1.3344202649644394,-2.5250867048846644,6.1197547791297815,1.0144174098968506,-1.8313077131854456
1708433399.3988538,-2.146007537841797,-1.3344287139228364,-2.525088135396139,6.119783031731405,1.0144292116165161,-1.8312819639789026
1708433399.4008281,-2.1460275650024414,-1.3343922209790726,-2.5251122156726282,6.119741308480062,1.0144246816635132,-1.8312996069537562
1708433399.4028246,-2.1460232734680176,-1.3344448667815705,-2.525104824696676,6.1197290299232385,1.0143749713897705,-1.8313034216510218
1708433399.4048374,-2.1460161209106445,-1.3344168973020096,-2.5250912348376673,6.11975775936202,1.01438307762146,-1.8313120047198694
1708433399.4068584,-2.146036386489868,-1.3344487261823197,-2.5250700155841272,6.119783031731405,1.0143840312957764,-1.8312996069537562
1708433399.408888,-2.145991802215576,-1.3343715828708191,-2.52509576479067,6.119778501778402,1.0144202709197998,-1.8313358465777796
1708433399.4108431,-2.1460161209106445,-1.3344287437251587,-2.525137726460592,6.1197712300117395,1.0143829584121704,-1.8313162962542933
1708433399.4128826,-2.1460232734680176,-1.3344125759652634,-2.52509576479067,6.119811641960897,1.0144083499908447,-1.8312748114215296
1708433399.4148183,-2.145946741104126,-1.3344083589366456,-2.525133196507589,6.1197547791297815,1.014394760131836,-1.8313239256488245
1708433399.4169316,-2.1460318565368652,-1.3343880039504548,-2.5251076857196253,6.119750249176779,1.0144038200378418,-1.8312791029559534
1708433399.4188895,-2.145987033843994,-1.3344041270068665,-2.525121275578634,6.119750249176779,1.0144158601760864,-1.8313358465777796
1708433399.4208415,-2.1460206508636475,-1.3343842786601563,-2.525092665349142,6.119762170105734,1.0144248008728027,-1.8313196341144007
1708433399.4228122,-2.1459624767303467,-1.3344322007945557,-2.52509576479067,6.1197290299232385,1.0144578218460083,-1.8313239256488245
1708433399.424826,-2.1460318565368652,-1.334452898507454,-2.525121275578634,6.119691836624899,1.0144174098968506,-1.8313077131854456
1708433399.4267948,-2.146007537841797,-1.3344448667815705,-2.52509576479067,6.119792091637411,1.0143874883651733,-1.8312833944903772
1708433399.4288092,-2.146036386489868,-1.3344774705222626,-2.525092665349142,6.119703638344564,1.014450192451477,-1.831299130116598
1708433399.4308136,-2.1460485458374023,-1.334335447554924,-2.5250867048846644,6.119721758156576,1.0144038200378418,-1.8312910238849085
1708433399.4328218,-2.145987033843994,-1.3344287139228364,-2.5251241366015833,6.119741308480062,1.0143829584121704,-1.8312342802630823
1708433399.4348028,-2.1460049152374268,-1.3344330054572602,-2.5250912348376673,6.119684684067526,1.0143948793411255,-1.8313401381122034
1708433399.4367852,-2.145982503890991,-1.3344330203584214,-2.525100294743673,6.11978446224288,1.014423131942749,-1.8313034216510218
1708433399.4388297,-2.145991802215576,-1.3344083589366456,-2.52507454553713,6.119721638947286,1.014427661895752,-1.8313162962542933
1708433399.4408422,-2.145987033843994,-1.3343998950770875,-2.5251031557666224,6.119680154114523,1.014460802078247,-1.8313210646258753
1708433399.4428577,-2.1460118293762207,-1.3343837720206757,-2.5251122156726282,6.119718658715048,1.0144367218017578,-1.8312819639789026
1708433399.4448721,-2.1460654735565186,-1.3344160479358216,-2.5251241366015833,6.119726168900289,1.014448881149292,-1.831257168446676
1708433399.4468284,-2.1460206508636475,-1.3344245117953797,-2.5251196066485804,6.119714247971334,1.014427661895752,-1.8313077131854456
1708433399.4488819,-2.146000385284424,-1.3344203245690842,-2.5251122156726282,6.119681465416708,1.014448881149292,-1.8312628904925745
1708433399.450863,-2.146036386489868,-1.3344322007945557,-2.525100294743673,6.119744050293722,1.0144864320755005,-1.8313573042498987
1708433399.45285,-2.14599609375,-1.3343964678100129,-2.5251618067370813,6.119680273323812,1.0144246816635132,-1.8313401381122034
1708433399.454885,-2.1460161209106445,-1.3344202649644394,-2.5251618067370813,6.119742619782247,1.0144652128219604,-1.8313077131854456
1708433399.4568336,-2.1460161209106445,-1.3344330203584214,-2.5251076857196253,6.119665133744039,1.01446533203125,-1.8313034216510218
1708433399.4588757,-2.1459782123565674,-1.3344007295421143,-2.5251286665545862,6.119681465416708,1.0144321918487549,-1.831299130116598
1708433399.4608424,-2.1460092067718506,-1.3343554002097626,-2.5251572767840784,6.119674074440756,1.0144729614257812,-1.8313239256488245
1708433399.4628527,-2.146036386489868,-1.3343638193658371,-2.5251360575305384,6.119636642723837,1.01446533203125,-1.8313282171832483
1708433399.4648273,-2.145982503890991,-1.3343715381673356,-2.5251076857196253,6.119629013329305,1.0144773721694946,-1.8312910238849085
1708433399.4668052,-2.145982503890991,-1.3344491583159943,-2.5250912348376673,6.119666564255514,1.0144399404525757,-1.8313329855548304
1708433399.4688022,-2.145982503890991,-1.3343964380076905,-2.5251241366015833,6.119609701424398,1.0144892930984497,-1.8313034216510218
1708433399.4708254,-2.145982503890991,-1.3343879890492936,-2.52507454553713,6.119677173882284,1.0144803524017334,-1.8312791029559534
1708433399.4728155,-2.145982503890991,-1.3344286990216752,-2.5251618067370813,6.119626152306356,1.014464020729065,-1.8312910238849085
1708433399.4748356,-2.1460049152374268,-1.3344244968942185,-2.5251150766955774,6.119564997940817,1.0144847631454468,-1.8313239256488245
1708433399.4767966,-2.1460118293762207,-1.3344570708325882,-2.5251646677600306,6.119614231377401,1.0144803524017334,-1.831287686024801
1708433399.4787917,-2.146029233932495,-1.3343842786601563,-2.5250776449786585,6.119560587197103,1.0144848823547363,-1.8313034216510218
1708433399.480852,-2.14599609375,-1.334416077738144,-2.5251150766955774,6.1195974228675745,1.014464020729065,-1.8312996069537562
1708433399.4828174,-2.14599609375,-1.3344364029220124,-2.5251269976245325,6.11956952789382,1.0144803524017334,-1.8313196341144007
1708433399.4848413,-2.1460049152374268,-1.3344041419080277,-2.5251315275775355,6.119537937432089,1.0145089626312256,-1.8313034216510218
1708433399.4868033,-2.1460049152374268,-1.3344125908664246,-2.5251269976245325,6.119582879334249,1.014508843421936,-1.8313196341144007
1708433399.488822,-2.145946741104126,-1.3343922209790726,-2.5251241366015833,6.119563329010763,1.0145375728607178,-1.8312910238849085
1708433399.490921,-2.1459667682647705,-1.3344406348517914,-2.5251601378070276,6.1195740578468225,1.0144925117492676,-1.8313239256488245
1708433399.492848,-2.145995616912842,-1.3343956631473084,-2.5251391569720667,6.119587409287252,1.0144712924957275,-1.8312910238849085
1708433399.4948714,-2.1459712982177734,-1.334399939780571,-2.5251932779895228,6.119612443238058,1.0145330429077148,-1.8313401381122034
1708433399.4968846,-2.145991325378418,-1.3344447922757645,-2.525175158177511,6.119615304261007,1.014523983001709,-1.8312953154193323
1708433399.4988499,-2.1460134983062744,-1.3344491434148331,-2.525179688130514,6.11966489532546,1.0145330429077148,-1.8313401381122034
1708433399.5008438,-2.1460049152374268,-1.3343956184438248,-2.525196139012472,6.119607913285055,1.0145072937011719,-1.8313282171832483
1708433399.502854,-2.146040678024292,-1.3344287139228364,-2.52521258989443,6.11956940868453,1.014540672302246,-1.8313401381122034
1708433399.5048783,-2.146000385284424,-1.334416077738144,-2.5252366701709192,6.119591939240255,1.014528512954712,-1.8312776724444788
1708433399.5068812,-2.145987033843994,-1.3344448667815705,-2.525215450917379,6.11954544761733,1.0145208835601807,-1.8313077131854456
1708433399.5088096,-2.1460092067718506,-1.3344406348517914,-2.525182549153463,6.119546878128805,1.014545202255249,-1.8313120047198694
1708433399.5108294,-2.145987033843994,-1.3344083589366456,-2.5252533594714563,6.1195576069648645,1.01456618309021,-1.8312705198871058
1708433399.5128005,-2.145995616912842,-1.3343922358802338,-2.525199000035421,6.119562136917867,1.014528512954712,-1.8312953154193323
1708433399.514847,-2.1460249423980713,-1.334359661941864,-2.5252321402179163,6.119563329010763,1.014540672302246,-1.8313401381122034
1708433399.5168574,-2.1459755897521973,-1.334380031829216,-2.525182549153463,6.11955879905776,1.014545202255249,-1.8312833944903772
1708433399.5188382,-2.145995616912842,-1.3344528538039704,-2.5252488295184534,6.119542348175802,1.014523983001709,-1.8313034216510218
1708433399.5208375,-2.1459555625915527,-1.334461287861206,-2.5252397696124476,6.119555818825521,1.0145361423492432,-1.8313239256488245
1708433399.5228367,-2.1459388732910156,-1.334448666577675,-2.5252607504474085,6.11953495719985,1.014540672302246,-1.8312953154193323
1708433399.5248187,-2.145979881286621,-1.3343800020268937,-2.5252636114703577,6.119497287064352,1.014545202255249,-1.8313077131854456
1708433399.5268142,-2.145972728729248,-1.3343838167241593,-2.5252109209643763,6.119555818825521,1.0145779848098755,-1.8313196341144007
1708433399.528822,-2.1459062099456787,-1.3344244968942185,-2.5252185503589075,6.1194989559944055,1.0145554542541504,-1.8313034216510218
1708433399.530823,-2.1459474563598633,-1.3343715530684968,-2.5252276102649134,6.119527566223898,1.0145317316055298,-1.8312748114215296
1708433399.5328658,-2.1459598541259766,-1.3344405901483078,-2.5252230803119105,6.119464623719015,1.0145689249038696,-1.8313077131854456
1708433399.5348525,-2.145942449569702,-1.3344049465707322,-2.5252636114703577,6.119518506317892,1.014609456062317,-1.8313034216510218
1708433399.5368104,-2.1459667682647705,-1.3344330352595826,-2.5252230803119105,6.119523036270895,1.0146217346191406,-1.8313325087176722
1708433399.5388198,-2.1459712982177734,-1.334420309667923,-2.5252276102649134,6.119497406273641,1.0146429538726807,-1.8313573042498987
1708433399.5408983,-2.1459641456604004,-1.3344287437251587,-2.525215450917379,6.119519817620077,1.0146081447601318,-1.8313525358783167
1708433399.542822,-2.145972728729248,-1.3343758297017594,-2.5252488295184534,6.119519817620077,1.0146172046661377,-1.8313239256488245
1708433399.544841,-2.145991325378418,-1.3343757402947922,-2.5252533594714563,6.119515287667074,1.014603614807129,-1.8313401381122034
1708433399.5468616,-2.1459999084472656,-1.3344898980906983,-2.5252109209643763,6.1194753525550745,1.0145959854125977,-1.8313358465777796
1708433399.5488236,-2.145951747894287,-1.3343838465264817,-2.5252743403064173,6.119451272278585,1.0146576166152954,-1.8312791029559534
1708433399.5508423,-2.1459474563598633,-1.3344125610641022,-2.5252109209643763,6.1194753525550745,1.0146411657333374,-1.8312748114215296
1708433399.5528247,-2.1459641456604004,-1.3344286990216752,-2.5252018610583704,6.119371998101034,1.014624834060669,-1.8312581221209925
1708433399.554876,-2.1459884643554688,-1.3343999695828934,-2.5252094904529017,6.11948703506545,1.0146338939666748,-1.831299130116598
1708433399.556819,-2.145979881286621,-1.3344329309514542,-2.5252516905414026,6.119434940605917,1.014603614807129,-1.8313568274127405
1708433399.558822,-2.1459150314331055,-1.3344613474658509,-2.5252516905414026,6.119434821396627,1.0146293640136719,-1.8313153425799769
1708433399.5608068,-2.1459474563598633,-1.3344117862037201,-2.525215450917379,6.119452821999349,1.014620304107666,-1.8313034216510218
1708433399.562833,-2.14593505859375,-1.3344041270068665,-2.5252230803119105,6.1193734286125085,1.0146323442459106,-1.8313077131854456
1708433399.5648248,-2.1459264755249023,-1.3344042015126725,-2.5252607504474085,6.119457351952352,1.0146560668945312,-1.831311051045553
1708433399.5668113,-2.145984172821045,-1.3344125312617798,-2.5252607504474085,6.119374739914694,1.0146939754486084,-1.8312953154193323
1708433399.5688417,-2.145956039428711,-1.3343837720206757,-2.5252352396594446,6.119391429215231,1.0146605968475342,-1.8312996069537562
1708433399.570798,-2.1459436416625977,-1.3344329756549378,-2.5252607504474085,6.119419801026144,1.0146727561950684,-1.8313120047198694
1708433399.572864,-2.145885705947876,-1.334444822078087,-2.5252185503589075,6.119424211769857,1.0146682262420654,-1.8313196341144007
1708433399.574825,-2.1459078788757324,-1.334416077738144,-2.5252471605883997,6.119403350144186,1.0146849155426025,-1.8313196341144007
1708433399.5768063,-2.1459078788757324,-1.3344202798656006,-2.5252772013293665,6.119397151261129,1.0146968364715576,-1.8313239256488245
1708433399.5788224,-2.1459035873413086,-1.3344202798656006,-2.5252397696124476,6.119400369911947,1.0146894454956055,-1.8313525358783167
1708433399.5808234,-2.145923614501953,-1.3344286990216752,-2.5252397696124476,6.119346844940939,1.0146968364715576,-1.8313120047198694
1708433399.5828295,-2.1459603309631348,-1.3343715381673356,-2.5252261797534388,6.119436251908102,1.0146805047988892,-1.8313077131854456
1708433399.584838,-2.1459603309631348,-1.3343723279288788,-2.5252845923053187,6.119386899262228,1.0147253274917603,-1.831311051045553
1708433399.5868003,-2.1459121704101562,-1.3343673658422013,-2.5252307097064417,6.119334804802694,1.0147373676300049,-1.8312748114215296
1708433399.588876,-2.145939350128174,-1.3344091039947052,-2.5252681414233606,6.119327056198873,1.0147417783737183,-1.8312953154193323
1708433399.5908391,-2.145878553390503,-1.3343922358802338,-2.5252681414233606,6.119348275452413,1.0147045850753784,-1.831343952809469
1708433399.5928748,-2.1459121704101562,-1.3344161075404664,-2.52527100244631,6.11935721614913,1.014732837677002,-1.8313573042498987
1708433399.5948477,-2.145885705947876,-1.3344571751407166,-2.525266472493307,6.119294273644247,1.0147045850753784,-1.8313120047198694
1708433399.5968843,-2.1459367275238037,-1.3344160926393052,-2.52527100244631,6.11932252624587,1.0147045850753784,-1.8313077131854456
1708433399.5988922,-2.145925283432007,-1.3343554598144074,-2.525275532399313,6.119360196381368,1.0147045850753784,-1.8313034216510218
1708433399.6008785,-2.145920991897583,-1.3343998950770875,-2.525282923375265,6.119249331742086,1.0146877765655518,-1.831299130116598
1708433399.602868,-2.145920991897583,-1.334404156809189,-2.525266472493307,6.119294273644247,1.0147209167480469,-1.8312776724444788
1708433399.6048186,-2.1459646224975586,-1.33440417171035,-2.525299612675802,6.119267332344808,1.0146877765655518,-1.8313196341144007
1708433399.6068592,-2.1458942890167236,-1.3344447922757645,-2.525282923375265,6.119267213135519,1.0147417783737183,-1.831299130116598
1708433399.6089025,-2.145920991897583,-1.3344364178231736,-2.525299612675802,6.119279134064474,1.0147253274917603,-1.8313449064837855
1708433399.6108556,-2.1459031105041504,-1.3344083589366456,-2.525329653416769,6.119300353318014,1.014779806137085,-1.831299130116598
1708433399.6128547,-2.1458916664123535,-1.334477351312973,-2.525254551564352,6.119319665222921,1.0147662162780762,-1.8313358465777796
1708433399.6148493,-2.145867109298706,-1.3343795549920578,-2.525325123463766,6.119324195175924,1.0147916078567505,-1.8312657515155237
1708433399.6168272,-2.1459121704101562,-1.334399939780571,-2.525332752858297,6.119369256287374,1.014744758605957,-1.8313120047198694
1708433399.618865,-2.145911693572998,-1.3344612580588837,-2.52531606355776,6.119291412621298,1.0147463083267212,-1.8312776724444788
1708433399.6208768,-2.145911693572998,-1.3343922656825562,-2.5252800623523157,6.119259941368856,1.0147401094436646,-1.8312824408160608
1708433399.6228678,-2.1458845138549805,-1.3343837720206757,-2.525291983281271,6.119304883271017,1.0147571563720703,-1.8313196341144007
1708433399.6248252,-2.1458592414855957,-1.334399939780571,-2.525320593510763,6.119271743088522,1.0147571563720703,-1.8313077131854456
1708433399.6268666,-2.145920515060425,-1.3343800020268937,-2.525282923375265,6.119255292206564,1.0147618055343628,-1.8312776724444788
1708433399.6288347,-2.145900249481201,-1.3343880337527771,-2.525278393422262,6.119243371277609,1.0147734880447388,-1.8312748114215296
1708433399.630812,-2.145871639251709,-1.334432990556099,-2.525278393422262,6.119276153832235,1.014748215675354,-1.831299130116598
1708433399.632873,-2.1458933353424072,-1.3344486963799973,-2.52531606355776,6.119196998863973,1.0147826671600342,-1.8313034216510218
1708433399.6348186,-2.1458635330200195,-1.334383786921837,-2.525295082722799,6.119273292809286,1.014752745628357,-1.8313196341144007
1708433399.636854,-2.145911693572998,-1.334416077738144,-2.525250021611349,6.119210707932272,1.0147809982299805,-1.8313196341144007
1708433399.6388328,-2.145854949951172,-1.334412546162941,-2.525325123463766,6.119219648628988,1.0147438049316406,-1.8313401381122034
1708433399.640847,-2.1458802223205566,-1.334428684120514,-2.525304142628805,6.119238960533895,1.0147854089736938,-1.8313701788531702
1708433399.642862,-2.145876407623291,-1.3344083738378067,-2.52527100244631,6.119212138443746,1.0147809982299805,-1.8313444296466272
1708433399.6448107,-2.145908832550049,-1.3343964380076905,-2.525287453328268,6.1192195294196985,1.0147526264190674,-1.8313239256488245
1708433399.6468303,-2.1458239555358887,-1.3344118160060425,-2.525291983281271,6.119167196541586,1.0147736072540283,-1.831294361745016
1708433399.6488166,-2.1458115577697754,-1.3344491136125107,-2.525308672581808,6.119225728302755,1.014776587486267,-1.8313358465777796
1708433399.6508493,-2.1458282470703125,-1.3344322007945557,-2.5252800623523157,6.119186389237203,1.0148214101791382,-1.8313034216510218
1708433399.6528518,-2.1458027362823486,-1.334368110900261,-2.5252965132342737,6.119221198349752,1.0148214101791382,-1.8313077131854456
1708433399.654864,-2.145843982696533,-1.3343922209790726,-2.5252979437457483,6.119204509049215,1.0147883892059326,-1.8313282171832483
1708433399.6568427,-2.145852565765381,-1.3344287139228364,-2.525257412587301,6.119188058167257,1.014833688735962,-1.8312953154193323
1708433399.6588268,-2.145859718322754,-1.334404156809189,-2.525290552769796,6.119171607285299,1.0148005485534668,-1.8313034216510218
1708433399.6608183,-2.145815849304199,-1.3344286990216752,-2.525311533604757,6.119135963707723,1.0148050785064697,-1.8313401381122034
1708433399.6628215,-2.145798921585083,-1.3343999248794098,-2.525311533604757,6.119140374451437,1.0148786306381226,-1.8313077131854456
1708433399.664853,-2.145798921585083,-1.3344161075404664,-2.525291983281271,6.119098651200094,1.014829158782959,-1.8313282171832483
1708433399.6668305,-2.145787477493286,-1.3344448816827317,-2.5253401438342493,6.119146454125204,1.01487135887146,-1.8312953154193323
1708433399.6688457,-2.1458542346954346,-1.3344571006349106,-2.525346342717306,6.119077789574423,1.0148786306381226,-1.8312867323504847
1708433399.6708162,-2.1457550525665283,-1.3343838316253205,-2.525311533604757,6.119047391205587,1.014862298965454,-1.8313034216510218
1708433399.6728296,-2.145824670791626,-1.3343964231065293,-2.5253282229052942,6.119060981064596,1.0148532390594482,-1.8313491980182093
1708433399.6748538,-2.145829200744629,-1.3343838167241593,-2.5253101030932825,6.1190117476280115,1.014844298362732,-1.8312996069537562
1708433399.6768517,-2.145768165588379,-1.3344287437251587,-2.5253565947162073,6.11900423744277,1.0148860216140747,-1.8313120047198694
1708433399.6788552,-2.145768165588379,-1.3343799275210877,-2.525311533604757,6.118980514794149,1.0148695707321167,-1.8313401381122034
1708433399.6808186,-2.1457724571228027,-1.3343511384776612,-2.525307003651754,6.118939983635702,1.014844298362732,-1.8313372770892542
1708433399.6828353,-2.145732879638672,-1.3343795102885743,-2.5253265539752405,6.11891125419692,1.0149105787277222,-1.8313196341144007
1708433399.6848385,-2.145732879638672,-1.3344202798656006,-2.5253520647632044,6.11893247345046,1.0148814916610718,-1.8313077131854456
1708433399.6868386,-2.145683526992798,-1.3343964529088517,-2.5253356138812464,6.1188803789909265,1.0148860216140747,-1.8312495390521448
1708433399.6888618,-2.1456668376922607,-1.3344491881183167,-2.5253852049456995,6.1188849089439294,1.0148969888687134,-1.8313239256488245
1708433399.6908622,-2.1456711292266846,-1.3344202947667618,-2.525367085133688,6.118774282723226,1.0149341821670532,-1.8313120047198694
1708433399.6928487,-2.145684242248535,-1.3344090592912217,-2.5253220240222376,6.118808376580038,1.014920711517334,-1.8312867323504847
1708433399.6948287,-2.1457009315490723,-1.3344329756549378,-2.525391165410177,6.118847238808431,1.014946460723877,-1.8313153425799769
1708433399.6968856,-2.145688533782959,-1.3343922358802338,-2.5253761450396937,6.1187442419822595,1.0149117708206177,-1.8313444296466272
1708433399.6988804,-2.1456971168518066,-1.3343523156693955,-2.525367085133688,6.118785965233602,1.0149537324905396,-1.8312953154193323
1708433399.7008414,-2.1456446647644043,-1.3344533753446122,-2.525386635457174,6.1187500832374475,1.0149731636047363,-1.831299130116598
1708433399.702855,-2.145632266998291,-1.3343799126199265,-2.525433127080099,6.118679988175192,1.0149568319320679,-1.831290070210592
1708433399.7048185,-2.145636558532715,-1.3343880337527771,-2.52537447610964,6.118702399521627,1.0149946212768555,-1.8313325087176722
1708433399.7068875,-2.145603895187378,-1.334371567969658,-2.525391165410177,6.11866186836318,1.015018343925476,-1.8312867323504847
1708433399.7088537,-2.1456170082092285,-1.3343880337527771,-2.52537447610964,6.11863802650527,1.0149929523468018,-1.8313239256488245
1708433399.7108014,-2.1456239223480225,-1.334396393304207,-2.525456968938009,6.118560421257772,1.015016794204712,-1.8312910238849085
1708433399.7128305,-2.1455764770507812,-1.334396870141365,-2.525369946156637,6.118569600373068,1.0150575637817383,-1.8313196341144007
1708433399.7148077,-2.1455650329589844,-1.3344330203584214,-2.5254388491259974,6.118533479958334,1.0150363445281982,-1.831299130116598
1708433399.7168539,-2.1455650329589844,-1.3344125908664246,-2.5253804365741175,6.118500339775839,1.015114426612854,-1.8313196341144007
1708433399.7188392,-2.145512104034424,-1.3344372671893616,-2.5254603067981165,6.118539559632101,1.0150845050811768,-1.8313077131854456
1708433399.7208242,-2.1455330848693848,-1.3343921911767502,-2.5254676977740687,6.118473636894979,1.015138864517212,-1.8313401381122034
1708433399.7228189,-2.1454854011535645,-1.3344049167684098,-2.5254603067981165,6.1184706566627405,1.0151703357696533,-1.8313282171832483
1708433399.7248023,-2.145476818084717,-1.3343715530684968,-2.5254841486560267,6.11842559555129,1.0151777267456055,-1.8313162962542933
1708433399.7268522,-2.1454360485076904,-1.3343799275210877,-2.525536600743429,6.1183522818382166,1.0152394771575928,-1.8313444296466272
1708433399.728823,-2.1454200744628906,-1.3343638193658371,-2.525503460560934,6.118349659233846,1.0152934789657593,-1.831311051045553
1708433399.7308426,-2.1453843116760254,-1.3343885105899354,-2.525498930607931,6.118367659836569,1.0152664184570312,-1.8313239256488245
1708433399.7328699,-2.145348072052002,-1.3343565177968522,-2.525553051625387,6.118339049607076,1.0152451992034912,-1.8313611189471644
1708433399.7348082,-2.1453988552093506,-1.3343842786601563,-2.5255561510669153,6.118253814965048,1.0153309106826782,-1.8313525358783167
1708433399.7368383,-2.145362377166748,-1.3343764704516907,-2.5255890528308313,6.118264066963949,1.0153056383132935,-1.8312748114215296
1708433399.7388248,-2.1452932357788086,-1.3343596172383805,-2.5256205240832728,6.11818956115798,1.0153509378433228,-1.8313854376422327
1708433399.7408366,-2.1452653408050537,-1.3343799722245713,-2.5256250540362757,6.11820279338912,1.0153746604919434,-1.831327263508932
1708433399.742845,-2.1452901363372803,-1.3343880039504548,-2.525649134312765,6.118138539582052,1.0154105424880981,-1.831294361745016
1708433399.7448306,-2.1451926231384277,-1.3343926233104249,-2.525635544453756,6.118077504425802,1.0154722929000854,-1.831311051045553
1708433399.7468674,-2.1452012062072754,-1.3344090592912217,-2.5256429354297083,6.118090855866232,1.015425682067871,-1.8313444296466272
1708433399.7488425,-2.1451568603515625,-1.334396870141365,-2.5256593863116663,6.118038522988119,1.0155041217803955,-1.8313596884356897
1708433399.7508593,-2.145063638687134,-1.334376485352852,-2.5257120768176478,6.117970096855917,1.0154905319213867,-1.8313682715045374
1708433399.7528634,-2.145109176635742,-1.3343800020268937,-2.525703016911642,6.117893326073446,1.0155115127563477,-1.831372086201803
1708433399.7548482,-2.1451194286346436,-1.3343885254910965,-2.525731388722555,6.117915856629171,1.015542984008789,-1.831372086201803
1708433399.7569537,-2.1450252532958984,-1.3343523007682343,-2.5257840792285364,6.11783384063796,1.0155547857284546,-1.831351105366842
1708433399.7588277,-2.145033836364746,-1.334421069627144,-2.5257840792285364,6.117806780129232,1.0156210660934448,-1.8313959280597132
1708433399.760825,-2.144970417022705,-1.3343807470849534,-2.52577788034548,6.11769317367629,1.0155702829360962,-1.8314407507525843
1708433399.7628357,-2.144958972930908,-1.3343850386193772,-2.5257914702044886,6.117691504746237,1.015622615814209,-1.831428352986471
1708433399.7648008,-2.144880533218384,-1.3343723577312012,-2.525839630757467,6.1176020977790735,1.0156679153442383,-1.8313873449908655
1708433399.766831,-2.144918918609619,-1.3343723577312012,-2.525851551686422,6.1176034090812585,1.0157158374786377,-1.8313620726214808
1708433399.7688215,-2.1448416709899902,-1.3343606752208252,-2.525884453450338,6.117519962578573,1.015723466873169,-1.8314645926104944
1708433399.77084,-2.1448187828063965,-1.334353045826294,-2.5259280840503138,6.1174672720725916,1.0157562494277954,-1.8314321676837366
1708433399.7728496,-2.1448025703430176,-1.3343806725791474,-2.525944534932272,6.117477881699362,1.015730857849121,-1.8314641157733362
1708433399.77485,-2.1447620391845703,-1.3342999827912827,-2.525944534932272,6.117401945381918,1.0157787799835205,-1.83146840730776
1708433399.7768698,-2.14471697807312,-1.3343733859113236,-2.525942866002218,6.117309200554647,1.0158677101135254,-1.8314879576312464
1708433399.7788482,-2.1446948051452637,-1.3343204420856019,-2.5259621779071253,6.117232668190756,1.0158631801605225,-1.8315160910235804
1708433399.7808545,-2.144662380218506,-1.3343119782260437,-2.5260358492480677,6.117189514427938,1.0159111022949219,-1.8315327803241175
1708433399.782865,-2.1446144580841064,-1.3343849790147324,-2.5260570685016077,6.117159473686971,1.0159683227539062,-1.831536118184225
1708433399.784822,-2.144605875015259,-1.3343407970717927,-2.526116911564962,6.117074239044943,1.016008734703064,-1.8315156141864222
1708433399.7868526,-2.1445512771606445,-1.334324674015381,-2.5260959307300013,6.117007362633505,1.0160164833068848,-1.8315523306476038
1708433399.7888234,-2.144571304321289,-1.3342598390630265,-2.5261078516589563,6.116935241013326,1.0160390138626099,-1.831559960042135
1708433399.7908106,-2.1445112228393555,-1.3343373847058793,-2.5261407534228724,6.116880166321554,1.0160675048828125,-1.831592861806051
1708433399.792885,-2.1445322036743164,-1.3343127530864258,-2.526130501423971,6.116823303490438,1.016127586364746,-1.8315513769732874
1708433399.7948358,-2.144446611404419,-1.3342725348523636,-2.526179854069845,6.116768228798666,1.016192078590393,-1.8316124121295374
1708433399.7968872,-2.144418478012085,-1.3343005937388916,-2.5261827150927942,6.116671073227682,1.0162615776062012,-1.8316572348224085
1708433399.7988944,-2.144362449645996,-1.334268332724907,-2.5262399355517786,6.116632091789999,1.016309380531311,-1.8316944281207483
1708433399.8008494,-2.144388437271118,-1.3342241507819672,-2.5262444655047815,6.116600501328268,1.0163453817367554,-1.8316767851458948
1708433399.802846,-2.1443352699279785,-1.3342606288245697,-2.526280466710226,6.116548526078024,1.016339659690857,-1.8316767851458948
1708433399.8048131,-2.1442630290985107,-1.3342164021781464,-2.5262637774096888,6.116458523064413,1.0164130926132202,-1.8316763083087366
1708433399.8068619,-2.1442224979400635,-1.334228367810585,-2.526278797780172,6.116379129677572,1.0165108442306519,-1.831717316304342
1708433399.8089056,-2.144224166870117,-1.3342129451087494,-2.5263357798205774,6.116342055588522,1.0165425539016724,-1.831707779561178
1708433399.810884,-2.144204616546631,-1.3342648309520264,-2.5263431707965296,6.116289722710409,1.0165573358535767,-1.8317773977862757
1708433399.8128524,-2.1441516876220703,-1.3342767518809815,-2.526383940373556,6.11621783950881,1.0166175365447998,-1.8317611853228968
1708433399.8148856,-2.14410400390625,-1.3342409890941163,-2.526358429585592,6.116177665978231,1.0166399478912354,-1.8318012396441858
1708433399.8168607,-2.1440844535827637,-1.334240974192955,-2.526445452366964,6.116110431938925,1.0167183876037598,-1.831785027180807
1708433399.8188918,-2.143991231918335,-1.3342206490090867,-2.5263970533954065,6.115987884789266,1.0167495012283325,-1.8317964712726038
1708433399.8208559,-2.1440200805664062,-1.334240974192955,-2.5264301935779017,6.11600278595046,1.016839861869812,-1.8318365255938929
1708433399.822852,-2.143916130065918,-1.3342698973468323,-2.526482645665304,6.115897762566366,1.0168790817260742,-1.8318527380572718
1708433399.8248475,-2.1439571380615234,-1.3341964942267914,-2.526482645665304,6.115892159729757,1.0169107913970947,-1.8318770567523401
1708433399.8268614,-2.1439120769500732,-1.334204987888672,-2.5265546480761927,6.115797626763143,1.0169377326965332,-1.8318880240069788
1708433399.8288674,-2.143885612487793,-1.3342290234616776,-2.5266135374652308,6.115746962815084,1.0170022249221802,-1.8319042364703577
1708433399.8308163,-2.143825054168701,-1.3341964942267914,-2.526637379323141,6.115699159889974,1.0170668363571167,-1.8319790999041956
1708433399.8328784,-2.1437692642211914,-1.3342376065305253,-2.526583258305685,6.115573632508077,1.017119288444519,-1.8319485823260706
1708433399.8348262,-2.143756866455078,-1.3342613291791459,-2.526652161275045,6.115551459580221,1.0171886682510376,-1.8319643179522913
1708433399.836812,-2.143704891204834,-1.3342452061227341,-2.5266671816455286,6.115465748101034,1.017197608947754,-1.8320301214801233
1708433399.8388188,-2.1436853408813477,-1.3342206490090867,-2.526707712803976,6.115452515869894,1.0172576904296875,-1.8320377508746546
1708433399.840802,-2.14363694190979,-1.334200696354248,-2.526728693638937,6.115347611695089,1.0173312425613403,-1.832041088734762
1708433399.8428445,-2.143620729446411,-1.3342087131789704,-2.5267136732684534,6.115304457932272,1.0173912048339844,-1.8320944944964808
1708433399.844902,-2.143622398376465,-1.3341726672700425,-2.5267677942859095,6.115186559944906,1.0174472332000732,-1.8320816198932093
1708433399.8468926,-2.1435933113098145,-1.3341803562692185,-2.5268214384662073,6.115210521012106,1.0175327062606812,-1.8321259657489222
1708433399.8488586,-2.1435413360595703,-1.334200681453087,-2.526844326649801,6.115133988648214,1.0175641775131226,-1.8321002165423792
1708433399.8508468,-2.143542766571045,-1.3342256408980866,-2.526818815861837,6.115032303124227,1.017627477645874,-1.8322280089007776
1708433399.8529038,-2.1434485912323,-1.3341972690871735,-2.5268664995776575,6.11495195606307,1.0176591873168945,-1.832191292439596
1708433399.8548768,-2.1434741020202637,-1.3341922473958512,-2.5268831888781946,6.114908444672384,1.0177147388458252,-1.832193676625387
1708433399.8568792,-2.1434054374694824,-1.3342333447984238,-2.526935640965597,6.114857542305746,1.0177884101867676,-1.8322256247149866
1708433399.8589149,-2.1433825492858887,-1.3341768991998215,-2.526947561894552,6.1148263094718835,1.0177825689315796,-1.8322737852679651
1708433399.860825,-2.143350601196289,-1.3341964942267914,-2.5269928614245813,6.114790308266439,1.0178799629211426,-1.8323271910296839
1708433399.8628442,-2.143317222595215,-1.3342049729875107,-2.5269866625415247,6.114701974182882,1.0179113149642944,-1.8323066870318812
1708433399.8648124,-2.1433072090148926,-1.3341930371573945,-2.527026955281393,6.114685642510214,1.0179475545883179,-1.8323009649859827
1708433399.8668313,-2.1432454586029053,-1.3341888648322602,-2.5270841757403772,6.114676940232076,1.0179954767227173,-1.832325283681051
1708433399.8688498,-2.1432547569274902,-1.3342091900161286,-2.5270870367633265,6.114619958191671,1.0180511474609375,-1.832374397908346
1708433399.870868,-2.1432390213012695,-1.3342171174338837,-2.5271363894092005,6.114543783455648,1.0181082487106323,-1.832409683858053
1708433399.8728404,-2.1431448459625244,-1.3341735315373917,-2.527205769215719,6.114471900254049,1.0181851387023926,-1.8324301878558558
1708433399.8748274,-2.1431422233581543,-1.3341692251018067,-2.52717096010317,6.1144317267234705,1.018204689025879,-1.8324545065509241
1708433399.8768854,-2.1430776119232178,-1.3341888648322602,-2.5271998087512415,6.114419805794515,1.0182573795318604,-1.8324740568744105
1708433399.8788197,-2.1430864334106445,-1.3341853481582184,-2.5272565523730677,6.114331710129537,1.018308401107788,-1.8324936071978968
1708433399.8808246,-2.1430697441101074,-1.3341896396926423,-2.527309242879049,6.1143075106437585,1.0183321237564087,-1.8325546423541468
1708433399.8828387,-2.142958641052246,-1.334141270523407,-2.5272672812091272,6.114272939949789,1.0184016227722168,-1.8325493971454065
1708433399.8848488,-2.1429543495178223,-1.3341570657542725,-2.5273194948779505,6.114204513817587,1.0185036659240723,-1.8326104323016565
1708433399.8868556,-2.142906427383423,-1.334161178474762,-2.527367655430929,6.114184844284811,1.018543004989624,-1.8326309362994593
1708433399.888817,-2.142960786819458,-1.3341453683427353,-2.527391497288839,6.11413990238265,1.018548607826233,-1.8326719442950647
1708433399.8908324,-2.1428990364074707,-1.3341334474137803,-2.527429167424337,6.11411594131545,1.0185638666152954,-1.8326910177813929
1708433399.8929849,-2.142871856689453,-1.3341453832438965,-2.5274201075183313,6.114086377411642,1.0186492204666138,-1.8327057997332972
1708433399.8948512,-2.1428558826446533,-1.3341207963279267,-2.527442518864767,6.114029395371237,1.0186973810195923,-1.8327468077289026
1708433399.896881,-2.142807960510254,-1.334153876905777,-2.527466360722677,6.1139728901679895,1.018709659576416,-1.8327296415912073
1708433399.8988917,-2.1427431106567383,-1.3341692847064515,-2.527482811604635,6.1139293787773035,1.0187697410583496,-1.8328192869769495
1708433399.9008505,-2.142730474472046,-1.3341369193843384,-2.5275161902057093,6.113869535713949,1.0188010931015015,-1.8328807989703577
1708433399.9028287,-2.1427111625671387,-1.3341696870378037,-2.5275281111346644,6.113842475205221,1.0188298225402832,-1.8329046408282679
1708433399.904832,-2.14272403717041,-1.3341170263341446,-2.5275760332690638,6.113807904511251,1.0189155340194702,-1.8329070250140589
1708433399.9068568,-2.1427001953125,-1.3341861379197617,-2.5275638739215296,6.113775479584493,1.0189470052719116,-1.8329675833331507
1708433399.90888,-2.1426634788513184,-1.334153876905777,-2.527545754109518,6.1137544987495325,1.0189154148101807,-1.8329713980304163
1708433399.9109056,-2.1426806449890137,-1.3341412854245682,-2.5275865236865442,6.1137366173561,1.0189845561981201,-1.83303147951235
1708433399.9128363,-2.142627239227295,-1.334125132565834,-2.5276270548449915,6.113675343781271,1.0190536975860596,-1.8330391089068812
1708433399.9148083,-2.1426444053649902,-1.334173546438553,-2.5276811758624476,6.113648402481832,1.0190417766571045,-1.8330467383014124
1708433399.9168532,-2.142604351043701,-1.3341453981450577,-2.5276766459094446,6.113610732346334,1.019089698791504,-1.8331154028521937
1708433399.918822,-2.142613649368286,-1.334125132565834,-2.527616564427511,6.113584029465475,1.0190924406051636,-1.8331473509417933
1708433399.920813,-2.142609119415283,-1.334137738948204,-2.527674976979391,6.113564598351278,1.0191782712936401,-1.8331835905658167
1708433399.9228354,-2.142568588256836,-1.3340805184892197,-2.527707878743307,6.113486873894491,1.019181489944458,-1.8332155386554163
1708433399.9248226,-2.142601251602173,-1.3341739040664216,-2.527715269719259,6.113519656449117,1.0192055702209473,-1.833276096974508
1708433399.9268315,-2.142540454864502,-1.3341169965318223,-2.5277321974383753,6.113459813385763,1.0192582607269287,-1.8333495298968714
1708433399.9288225,-2.1425318717956543,-1.3341570657542725,-2.5277305285083216,6.1134105799491785,1.0192493200302124,-1.8333528677569788
1708433399.9308262,-2.1425647735595703,-1.3341739040664216,-2.5276852289782923,6.113424050598898,1.0192612409591675,-1.8333800474749964
1708433399.9328692,-2.142533302307129,-1.3341213476708909,-2.5277259985553187,6.113428580551901,1.0193270444869995,-1.8334248701678675
1708433399.9348195,-2.1425561904907227,-1.334080548291542,-2.5277679602252405,6.11338351944045,1.0193918943405151,-1.8334563414203089
1708433399.936826,-2.142495632171631,-1.334092454319336,-2.5277724901782435,6.113341557770529,1.0193992853164673,-1.8335331122027796
1708433399.9388266,-2.142446279525757,-1.3340847206166764,-2.5277259985553187,6.1133612273033044,1.019407033920288,-1.833520237599508
1708433399.9408216,-2.1425251960754395,-1.3340889823487778,-2.5277634302722376,6.113326895027914,1.0194430351257324,-1.8335846106158655
1708433399.9428737,-2.1425297260284424,-1.3341495853713532,-2.5277424494372767,6.113325583725729,1.0194593667984009,-1.833620850239889
1708433399.9448762,-2.1424636840820312,-1.3341580939343949,-2.5277798811541956,6.113356816559591,1.01946222782135,-1.8336480299579065
1708433399.9468343,-2.1424927711486816,-1.3341453981450577,-2.5277679602252405,6.113382088928976,1.0194748640060425,-1.8337090651141565
1708433399.948864,-2.1424548625946045,-1.3341334772161026,-2.527733389531271,6.11335967758254,1.01947021484375,-1.8337329069720667
1708433399.9508555,-2.1424479484558105,-1.3340882521918793,-2.5277560392962855,6.113352286606588,1.0195149183273315,-1.8337929884540003
1708433399.9528697,-2.1424973011016846,-1.3340932589820405,-2.5277424494372767,6.11329864242629,1.0195239782333374,-1.8338330427752894
1708433399.9548275,-2.1425058841705322,-1.3341377538493653,-2.52779204050173,6.113347756653585,1.019536018371582,-1.8338974157916468
1708433399.956863,-2.142510175704956,-1.334125505094864,-2.5277424494372767,6.1133389351661584,1.0195029973983765,-1.833933178578512
1708433399.958854,-2.1424636840820312,-1.3341043901494523,-2.5277679602252405,6.1133612273033044,1.0195014476776123,-1.8340514341937464
1708433399.9608235,-2.142439126968384,-1.3341339242509385,-2.527787510548727,6.113365638047018,1.0195226669311523,-1.8340328375445765
1708433399.9628494,-2.1424479484558105,-1.3340932589820405,-2.5277708212481897,6.113340365677633,1.0195181369781494,-1.834113899861471
1708433399.9648225,-2.1424927711486816,-1.334129737024643,-2.527787510548727,6.1133389351661584,1.0194777250289917,-1.8342230955706995
1708433399.9668794,-2.142488956451416,-1.3341612380794068,-2.5277543703662317,6.113278972893514,1.0195103883743286,-1.834250275288717
1708433399.9688277,-2.142460823059082,-1.3341255348971863,-2.5277589003192347,6.113328444748678,1.0195149183273315,-1.8342984358416956
1708433399.970813,-2.1424434185028076,-1.3340932440808793,-2.5277965704547327,6.113340365677633,1.019439697265625,-1.8343375364886683
1708433399.9728446,-2.142456531524658,-1.3340479594520112,-2.527716938649313,6.113347875862875,1.0194940567016602,-1.8344185988055628
1708433399.9748244,-2.1425058841705322,-1.3341297221234818,-2.5277708212481897,6.113410341530599,1.019498586654663,-1.8345068136798304
1708433399.976836,-2.1424765586853027,-1.3341135841659089,-2.5277214686023157,6.113344776421346,1.0195239782333374,-1.8345583120929163
1708433399.978826,-2.1424365043640137,-1.3340643805316468,-2.527766291295187,6.113352286606588,1.019439697265625,-1.83461839357485
1708433399.9808364,-2.1424479484558105,-1.3341334623149415,-2.5277424494372767,6.1132956621940515,1.0194748640060425,-1.8346994558917444
1708433399.9828339,-2.1425015926361084,-1.3341093820384522,-2.5277469793902796,6.113352286606588,1.0194865465164185,-1.8348000685321253
1708433399.9848375,-2.142472267150879,-1.334133968954422,-2.5277965704547327,6.113331424980917,1.0194578170776367,-1.834811035786764
1708433399.986861,-2.1424973011016846,-1.3340855103782197,-2.52779204050173,6.11333595493392,1.0194748640060425,-1.8349249998675745
1708433399.9888313,-2.1424927711486816,-1.3340813380530854,-2.5277140776263636,6.113352286606588,1.019519329071045,-1.835013214741842
1708433399.9908187,-2.14243221282959,-1.3341255348971863,-2.5277424494372767,6.1133566973503015,1.0194578170776367,-1.8351262251483362
1708433399.992863,-2.14243221282959,-1.3341101717999955,-2.5277634302722376,6.113323914795675,1.0194414854049683,-1.8351777235614222
1708433399.9948528,-2.1424365043640137,-1.3341263395598908,-2.5277259985553187,6.113323914795675,1.0194504261016846,-1.8352540175067347
1708433399.9968562,-2.1424434185028076,-1.334125505094864,-2.5277424494372767,6.11329864242629,1.0194385051727295,-1.835348908101217
1708433399.9988894,-2.1424803733825684,-1.3341016632369538,-2.5277424494372767,6.113385069161215,1.0194098949432373,-1.8354046980487269
1708433400.0008645,-2.142472267150879,-1.3341461730054398,-2.5277965704547327,6.113294231682577,1.0194593667984009,-1.8355219999896448
1708433400.0028594,-2.142456531524658,-1.3341135841659089,-2.5277350584613245,6.113303172379293,1.0194220542907715,-1.8356130758868616
1708433400.0048099,-2.1424758434295654,-1.3341016930392762,-2.5277062098132532,6.113319504051962,1.0194008350372314,-1.835717503224508
1708433400.0068521,-2.1424672603607178,-1.3341377836516877,-2.5277515093432825,6.113382088928976,1.0193935632705688,-1.8358429113971155
1708433400.0088716,-2.142484664916992,-1.334081308250763,-2.5276971499072474,6.113385069161215,1.0193935632705688,-1.835893456135885
1708433400.0108602,-2.1424973011016846,-1.3340974611094971,-2.5277016798602503,6.113323914795675,1.0193902254104614,-1.836050812398092
1708433400.0128765,-2.1424803733825684,-1.3340729188970109,-2.5277231375323694,6.113352286606588,1.019352674484253,-1.8361876646624964
1708433400.0148757,-2.142484664916992,-1.3340733510306855,-2.5277441183673304,6.113319504051962,1.0193634033203125,-1.8363001982318323
1708433400.0168514,-2.1424803733825684,-1.3341016632369538,-2.5277276674853724,6.1133731482322595,1.0193378925323486,-1.8364608923541468
1708433400.018819,-2.142467975616455,-1.3341016632369538,-2.5277724901782435,6.11335979679183,1.0193135738372803,-1.836592976246969
1708433400.0208273,-2.1424434185028076,-1.334085540180542,-2.5277016798602503,6.113347875862875,1.0192971229553223,-1.8366969267474573
1708433400.0228446,-2.1425297260284424,-1.3341059845737,-2.5277231375323694,6.113410341530599,1.019277572631836,-1.8367965857135218
1708433400.0248342,-2.1424927711486816,-1.3340326261571427,-2.527719799672262,6.1133224842842,1.0192656517028809,-1.8369939962970179
1708433400.0268295,-2.1424434185028076,-1.3341227930835267,-2.527620855961935,6.11335967758254,1.0192203521728516,-1.8371012846576136
1708433400.0288048,-2.1424636840820312,-1.334045336847641,-2.527665917073385,6.113368618279257,1.01917564868927,-1.8372457663165491
1708433400.0308278,-2.1424973011016846,-1.3340940338424225,-2.527694288884298,6.113401520043173,1.0191802978515625,-1.8374393622027796
1708433400.0328522,-2.142484664916992,-1.334064857368805,-2.527682367955343,6.1133566973503015,1.0192055702209473,-1.8376029173480433
1708433400.0348446,-2.1424758434295654,-1.3340657365373154,-2.527670447026388,6.1133612273033044,1.0191892385482788,-1.8377593199359339
1708433400.0368495,-2.1424927711486816,-1.3340656620315094,-2.527642075215475,6.11333595493392,1.0191737413406372,-1.8378542105304163
1708433400.0388062,-2.142488956451416,-1.3340572577765961,-2.527674976979391,6.113394009857931,1.0191410779953003,-1.8380721251117151
1708433400.0408444,-2.1424758434295654,-1.3340210181525727,-2.5276225248919886,6.113310563355245,1.0191454887390137,-1.838236157094137
1708433400.0428543,-2.1424927711486816,-1.3340775978616257,-2.527625385914938,6.113316523819723,1.0190924406051636,-1.8383682409869593
1708433400.0448768,-2.1424927711486816,-1.3340411198190232,-2.527637545262472,6.1133612273033044,1.019085168838501,-1.8385856787311
1708433400.0468552,-2.142484188079834,-1.334033728843071,-2.5276315847979944,6.11331199386672,1.0190823078155518,-1.8387535254107874
1708433400.048878,-2.1424927711486816,-1.3340495389750977,-2.5275865236865442,6.113344776421346,1.0190613269805908,-1.8389337698565882
1708433400.0508292,-2.142534017562866,-1.334061474805214,-2.5276029745685022,6.113344895630636,1.0190401077270508,-1.8391879240619105
1708433400.0528336,-2.1424591541290283,-1.334057242875435,-2.5275700728045862,6.113344776421346,1.0189919471740723,-1.8393023649798792
1708433400.0548825,-2.142508029937744,-1.3340421479991456,-2.527616564427511,6.113382088928976,1.0189846754074097,-1.8394854704486292
1708433400.056863,-2.142488479614258,-1.3340453219464798,-2.527591053639547,6.113337385445394,1.0189437866210938,-1.8397439161883753
1708433400.0589025,-2.1424434185028076,-1.3340614599040528,-2.5275383631335657,6.113332855492391,1.0189788341522217,-1.8399608770953577
1708433400.0608125,-2.1425251960754395,-1.334033728843071,-2.5275383631335657,6.113332855492391,1.0189335346221924,-1.840173069630758
1708433400.0628245,-2.1425418853759766,-1.3340536665967484,-2.5275593439685267,6.11333583572463,1.0188958644866943,-1.8404176870929163
1708433400.064812,-2.1424927711486816,-1.3340256971171875,-2.5275638739215296,6.113262522011556,1.0188974142074585,-1.8406427542315882
1708433400.0668252,-2.1424927711486816,-1.3340860617211838,-2.5275519529925745,6.113276111870565,1.0188567638397217,-1.840842072163717
1708433400.068846,-2.1425042152404785,-1.3340623092702408,-2.5275264422046106,6.1133121130760095,1.0188404321670532,-1.8410947958575647
1708433400.0708206,-2.1425375938415527,-1.3340336841395875,-2.527478281651632,6.113283383637228,1.0188044309616089,-1.8412860075580042
1708433400.0728245,-2.1424803733825684,-1.3340213608792801,-2.527461830769674,6.113292443543234,1.018751621246338,-1.841614071522848
1708433400.0748324,-2.142484188079834,-1.3340213608792801,-2.527504269276754,6.11331199386672,1.0187517404556274,-1.8418381849872034
1708433400.076833,-2.142484188079834,-1.3340256971171875,-2.527482811604635,6.113259541779318,1.0187742710113525,-1.8420403639422815
1708433400.0788226,-2.142484188079834,-1.334009514456131,-2.52744704881777,6.113287913590231,1.0187034606933594,-1.8423269430743616
1708433400.080829,-2.1424927711486816,-1.3340580475381394,-2.52747089067568,6.113240110665121,1.0186793804168701,-1.8425825277911585
1708433400.082824,-2.1425251960754395,-1.3340464544347306,-2.527409617100851,6.113265383034506,1.0186312198638916,-1.842921559010641
1708433400.0848098,-2.1425251960754395,-1.3339933466962357,-2.527430597935812,6.113232600479879,1.0186192989349365,-1.843163792287008
1708433400.0868387,-2.1424505710601807,-1.3339368265918274,-2.5274396578418177,6.113265502243795,1.0186327695846558,-1.8433755079852503
1708433400.0888422,-2.1424927711486816,-1.3340580475381394,-2.5274036566363733,6.113239991455831,1.018575668334961,-1.8437469641314905
1708433400.0908196,-2.1424758434295654,-1.3339899194291611,-2.5274322668658655,6.113204228668966,1.018592357635498,-1.8439419905291956
1708433400.092864,-2.142512321472168,-1.3340051782182236,-2.527375046406881,6.113159644394674,1.0185728073120117,-1.8442705313311976
1708433400.0948763,-2.1425464153289795,-1.333997593527176,-2.5274155775653284,6.113196837693014,1.0185322761535645,-1.8445513884173792
1708433400.0968573,-2.1424803733825684,-1.33399851739917,-2.5273779074298304,6.113201367646017,1.0185322761535645,-1.8448446432696741
1708433400.098918,-2.1424803733825684,-1.3340384674123307,-2.5273824373828333,6.113120662956991,1.018484115600586,-1.8451655546771448
1708433400.1008556,-2.142495632171631,-1.3340266358903428,-2.527379576359884,6.113054859429159,1.0184555053710938,-1.8454578558551233
1708433400.1028748,-2.1424548625946045,-1.3339856725982209,-2.527313295994894,6.113039719849386,1.0184437036514282,-1.8458150068866175
1708433400.1048458,-2.1425209045410156,-1.3339454245618363,-2.5273600260363978,6.1130233881767175,1.0184481143951416,-1.8460992018329065
1708433400.1068418,-2.1424973011016846,-1.3340678226998826,-2.527334515248434,6.113024699478903,1.0184028148651123,-1.8464601675616663
1708433400.1088622,-2.1424758434295654,-1.3339649152806778,-2.5273013750659388,6.11304138877944,1.0183700323104858,-1.8467767874347132
1708433400.1109,-2.1424434185028076,-1.334018961792328,-2.5272985140429896,6.112984764366903,1.0183806419372559,-1.8471172491656702
1708433400.1128528,-2.142484664916992,-1.3340061169913788,-2.5273435751544397,6.112957703858175,1.0183382034301758,-1.8474419752704065
1708433400.11481,-2.1425085067749023,-1.3339572560838242,-2.5273223559008997,6.112974154740133,1.0183353424072266,-1.8478100935565394
1708433400.116836,-2.1424591541290283,-1.333965854053833,-2.5273194948779505,6.112950312882223,1.0183444023132324,-1.8481634298907679
1708433400.1188278,-2.1424803733825684,-1.333974452023842,-2.527339045201437,6.112848627358236,1.0183157920837402,-1.8485282103167933
1708433400.1208,-2.1424479484558105,-1.3339899343303223,-2.5272985140429896,6.112796056061544,1.018290400505066,-1.8489297072040003
1708433400.1228206,-2.142484664916992,-1.3340147149613877,-2.5273240248309534,6.1128588793571375,1.0182875394821167,-1.849323574696676
1708433400.12484,-2.1424155235290527,-1.3339985323003312,-2.5272985140429896,6.112842547684469,1.0182749032974243,-1.8496750036822718
1708433400.1268413,-2.1424758434295654,-1.3339417737773438,-2.5272911230670374,6.112820017128744,1.0182512998580933,-1.8501165548907679
1708433400.128831,-2.1425058841705322,-1.3339454245618363,-2.5273121039019983,6.112679350167074,1.0182421207427979,-1.850480858479635
1708433400.1308088,-2.142456531524658,-1.3339985323003312,-2.527304712926046,6.112796413689413,1.0182512998580933,-1.850905720387594
1708433400.133037,-2.142456531524658,-1.3339215827039261,-2.5272837320910853,6.112685429840841,1.0182676315307617,-1.8513100782977503
1708433400.1348093,-2.1423959732055664,-1.3339615923217316,-2.5272956530200403,6.112689959793844,1.0182181596755981,-1.8517892996417444
1708433400.1368506,-2.1424245834350586,-1.3340018552592774,-2.527254883443014,6.112642276078024,1.0182316303253174,-1.852180306111471
1708433400.138812,-2.142404556274414,-1.3339734387448807,-2.5272837320910853,6.1126513359840295,1.0182437896728516,-1.8526294867144983
1708433400.1408088,-2.1423840522766113,-1.3339496713927765,-2.527259413396017,6.112528908043661,1.0182271003723145,-1.8530543486224573
1708433400.142861,-2.142307758331299,-1.3340266358903428,-2.527276341115133,6.112583744316854,1.0181776285171509,-1.8535144964801233
1708433400.1448467,-2.142353057861328,-1.333965854053833,-2.52726394334902,6.112473118096151,1.018215298652649,-1.8539679686175745
1708433400.1468449,-2.1422641277313232,-1.333965854053833,-2.527254883443014,6.112470137863912,1.0181821584701538,-1.8544581572162073
1708433400.1489067,-2.1422929763793945,-1.3339572560838242,-2.52727181116213,6.112441885262289,1.0182197093963623,-1.8549473921405237
1708433400.1508207,-2.1422533988952637,-1.3339529943517228,-2.527254883443014,6.112431514054098,1.018215298652649,-1.8553746382342737
1708433400.152832,-2.142160177230835,-1.3340104532292862,-2.527276341115133,6.112337219506063,1.018215298652649,-1.8558405081378382
1708433400.1548283,-2.1421566009521484,-1.3339410734227677,-2.527254883443014,6.112331139832296,1.0182287693023682,-1.856304947529928
1708433400.1568706,-2.142152786254883,-1.3339615923217316,-2.5272627512561243,6.112307536392965,1.018216609954834,-1.856790844594137
1708433400.1588492,-2.1421093940734863,-1.3339572560838242,-2.527254883443014,6.112238395005026,1.0182075500488281,-1.8573244253741663
1708433400.1607933,-2.1420488357543945,-1.3339283180287858,-2.527217451726095,6.112132298737325,1.018178939819336,-1.8578079382525843
1708433400.162832,-2.142012357711792,-1.3340232980302353,-2.5272837320910853,6.112065303116598,1.0182119607925415,-1.8582847754107874
1708433400.1648307,-2.141964912414551,-1.333965854053833,-2.527250353490011,6.112071144371786,1.0181865692138672,-1.8588016668902796
1708433400.1668463,-2.141953945159912,-1.3339734089425583,-2.5272865931140345,6.1120022414024255,1.0181912183761597,-1.8592622915851038
1708433400.168846,-2.141925573348999,-1.3339289140752335,-2.5272627512561243,6.11191867569045,1.0182406902313232,-1.8598440329181116
1708433400.1708214,-2.141913890838623,-1.3339906346848984,-2.527288262044088,6.111948716431417,1.0182197093963623,-1.8603575865374964
1708433400.1728194,-2.1417880058288574,-1.3340061169913788,-2.527325693761007,6.111794578820028,1.0182528495788574,-1.8609512487994593
1708433400.1748202,-2.1417407989501953,-1.3339529943517228,-2.5272792021380823,6.111779558449545,1.0182271003723145,-1.86143666902651
1708433400.176852,-2.1417253017425537,-1.3339862835458298,-2.5272865931140345,6.111649381905355,1.0182483196258545,-1.8620241324054163
1708433400.178835,-2.141685962677002,-1.3339777749827881,-2.5272820631610315,6.111631858139791,1.0182271003723145,-1.8625310103045862
1708433400.1808064,-2.1416711807250977,-1.3339691770127793,-2.5272746721850794,6.111556756287374,1.0182691812515259,-1.8630731741534632
1708433400.1828842,-2.1415982246398926,-1.3339606684497376,-2.5273526350604456,6.111513602524557,1.0182437896728516,-1.8636305967914026
1708433400.1848009,-2.141510009765625,-1.3340384674123307,-2.5273240248309534,6.111406194954672,1.0182749032974243,-1.8642237822162073
1708433400.186814,-2.1414427757263184,-1.333988995557167,-2.5273223559008997,6.111308681755819,1.0182874202728271,-1.8647444883929651
1708433400.1888285,-2.1413090229034424,-1.334029958849289,-2.5273223559008997,6.1112310765083215,1.018312931060791,-1.8653410116778772
1708433400.1908536,-2.141237258911133,-1.3340256971171875,-2.527350966130392,6.111056077271261,1.018372893333435,-1.8659470717059534
1708433400.192988,-2.1411850452423096,-1.334029958849289,-2.5274458567248743,6.111027705460348,1.0183472633361816,-1.8665240446673792
1708433400.194851,-2.141139030456543,-1.3340018552592774,-2.5274487177478235,6.110948550492086,1.0183969736099243,-1.8670652548419397
1708433400.1968715,-2.141059398651123,-1.3339649003795166,-2.5273900667773646,6.11079882362441,1.0183671712875366,-1.8677032629596155
1708433400.1988778,-2.140918493270874,-1.333997593527176,-2.5274890104876917,6.110665905266561,1.0184253454208374,-1.8682506720172327
1708433400.2008746,-2.1408557891845703,-1.3340171885541459,-2.527475420628683,6.110530006676473,1.0183745622634888,-1.8689168135272425
1708433400.2028584,-2.140794515609741,-1.3340129268220444,-2.527482811604635,6.110407578736105,1.0184314250946045,-1.869481388722555
1708433400.2048414,-2.140723705291748,-1.3340697896531601,-2.5275071302997034,6.110365736275472,1.0184268951416016,-1.8701484839068812
1708433400.206848,-2.1406326293945312,-1.3340095740607758,-2.527562443410055,6.11015938499526,1.0184812545776367,-1.8707483450519007
1708433400.2089238,-2.1404881477355957,-1.3340536665967484,-2.5275684038745325,6.110014188080587,1.0184885263442993,-1.8713820616351526
1708433400.2108827,-2.1403112411499023,-1.334085540180542,-2.527612034474508,6.1099363444145105,1.018538475036621,-1.8720553557025355
1708433400.212866,-2.1402201652526855,-1.3340614599040528,-2.527633015309469,6.109738814621725,1.0185694694519043,-1.8727124373065394
1708433400.214881,-2.1401166915893555,-1.3340898317149659,-2.5276103655444544,6.109608995705404,1.0185801982879639,-1.873321835194723
1708433400.2168832,-2.1400091648101807,-1.3341093820384522,-2.5276556650744837,6.109424936562338,1.0186254978179932,-1.8739836851703089
1708433400.2189841,-2.1399025917053223,-1.334125505094864,-2.5276721159564417,6.109335529595175,1.0186736583709717,-1.8746569792376917
1708433400.2208562,-2.139749050140381,-1.3341292601874848,-2.527689758931295,6.109168159752645,1.018676519393921,-1.8753064314471644
1708433400.2228425,-2.139604330062866,-1.334125505094864,-2.5277321974383753,6.1089587090309045,1.0187169313430786,-1.875857178364889
1708433400.224828,-2.1395304203033447,-1.3341653955033799,-2.5277469793902796,6.108820068627157,1.0187770128250122,-1.876606289540426
1708433400.226846,-2.1393959522247314,-1.3342176240733643,-2.527808491383688,6.10856722572402,1.0188179016113281,-1.8771942297564905
1708433400.2288237,-2.1391592025756836,-1.3342459809831162,-2.527839962636129,6.10843716838912,1.018861174583435,-1.8778274695025843
1708433400.2308097,-2.1390066146850586,-1.3342290681651612,-2.5277963320361536,6.108245837479391,1.0189543962478638,-1.8784883658038538
1708433400.232847,-2.1388354301452637,-1.334257112150528,-2.5279210249530237,6.108045804291525,1.0189862251281738,-1.8791182676898401
1708433400.2348156,-2.1386635303497314,-1.3342368018678208,-2.5279057661639612,6.107876646309652,1.01905357837677,-1.8797348181353968
1708433400.2368438,-2.138576030731201,-1.3343216639808197,-2.5279749075519007,6.107632624893942,1.0191060304641724,-1.8803308645831507
1708433400.2388003,-2.138381004333496,-1.3343132150224228,-2.528040949498312,6.10739957073287,1.019204020500183,-1.8809760252581995
1708433400.2408104,-2.1381893157958984,-1.3342920702746888,-2.5280304590808313,6.1071368334587,1.0192687511444092,-1.8816917578326624
1708433400.2428598,-2.138000249862671,-1.3343764704516907,-2.5281251112567347,6.106957423477926,1.0192747116088867,-1.8823073546039026
1708433400.244926,-2.137798309326172,-1.3343445521644135,-2.52812630334963,6.1066565392311,1.0193347930908203,-1.8829897085772913
1708433400.246859,-2.137605667114258,-1.334383786921837,-2.5282374064074915,6.106414663582601,1.0194357633590698,-1.883679215108053
1708433400.2488832,-2.137382984161377,-1.3344647747329255,-2.528292957936422,6.106175291329183,1.0195001363754272,-1.8843076864825647
1708433400.2508838,-2.1372036933898926,-1.3344766211560746,-2.528306309376852,6.10588692405776,1.019605278968811,-1.885019604359762
1708433400.2528577,-2.1369638442993164,-1.3345326495221634,-2.528358761464254,6.105726825981893,1.0196640491485596,-1.8856967131244105
1708433400.254852,-2.136768102645874,-1.3345201027444382,-2.528484884892599,6.105398046761312,1.0197480916976929,-1.8863533178912562
1708433400.256854,-2.136589527130127,-1.334499717955925,-2.5285192171679896,6.105167972832479,1.0197827816009521,-1.8870299498187464
1708433400.258894,-2.1363306045532227,-1.3345032346299668,-2.528600279484884,6.104868876724996,1.019941806793213,-1.8877776304828089
1708433400.260944,-2.136090040206909,-1.334616408949234,-2.5286722818957728,6.104544627457418,1.0200260877609253,-1.8884056250201624
1708433400.262851,-2.1357786655426025,-1.3346325320056458,-2.528741423283712,6.104245531349935,1.020096778869629,-1.889113728200094
1708433400.2648077,-2.135571002960205,-1.3346482825330277,-2.528825346623556,6.103913533478536,1.0201809406280518,-1.8898728529559534
1708433400.2668145,-2.135312557220459,-1.3346474927714844,-2.5289092699633997,6.103583204537191,1.020281434059143,-1.8905323187457483
1708433400.2688713,-2.1350443363189697,-1.334683285360672,-2.5289722124682825,6.103260504990377,1.020359754562378,-1.8912671248065394
1708433400.2708142,-2.1347782611846924,-1.3347481352141877,-2.5290725866900843,6.102920877724447,1.0204647779464722,-1.8920086065875452
1708433400.2728114,-2.1344854831695557,-1.3348045212081452,-2.529144350682394,6.102584945946493,1.0205656290054321,-1.89270526567568
1708433400.2748156,-2.1342058181762695,-1.334775672560074,-2.5292046705829065,6.102282511978903,1.020645022392273,-1.8934758345233362
1708433400.2768042,-2.1339194774627686,-1.3348239970258255,-2.529276672993795,6.101966011315145,1.020774483680725,-1.8941615263568323
1708433400.2788165,-2.133635997772217,-1.3348148626140137,-2.529353205357687,6.101588952332296,1.0208467245101929,-1.8948658148394983
1708433400.280809,-2.1333322525024414,-1.3348267835429688,-2.529419008885519,6.101239192276754,1.0209096670150757,-1.8955958525287073
1708433400.282823,-2.1329808235168457,-1.3348705035499115,-2.5295451323138636,6.100828397064962,1.0210269689559937,-1.8962400595294397
1708433400.284816,-2.132646083831787,-1.3349549633315583,-2.5296528975116175,6.1003678915794275,1.0211683511734009,-1.8970311323748987
1708433400.2868125,-2.132370948791504,-1.3349464696696778,-2.5296996275531214,6.099992501526632,1.0212675333023071,-1.8977559248553675
1708433400.2888112,-2.1320106983184814,-1.3349787604859848,-2.529846254979269,6.0996367810066126,1.0213876962661743,-1.8984368483172815
1708433400.2908475,-2.131654977798462,-1.3350059998086472,-2.5299366156207483,6.099207865982809,1.0214625597000122,-1.899142090474264
1708433400.2929177,-2.1313188076019287,-1.3350949895432969,-2.530020538960592,6.098839032440939,1.021575689315796,-1.8998921553241175
1708433400.2948625,-2.1309800148010254,-1.3350816083005448,-2.530111853276388,6.0984442112739465,1.0217006206512451,-1.9006336371051233
1708433400.2968717,-2.130645990371704,-1.3351744723371048,-2.5301628748523157,6.09797881820754,1.021801233291626,-1.901325527821676
1708433400.2988398,-2.130236864089966,-1.3351975244334717,-2.5302885214435022,6.097532260208883,1.0219335556030273,-1.9021285215960901
1708433400.3009312,-2.1299076080322266,-1.3352181774428864,-2.5303924719439905,6.097070443421163,1.0220340490341187,-1.9028413931476038
1708433400.302891,-2.129511833190918,-1.3352854412845154,-2.5305305163012903,6.096592414170065,1.022170901298523,-1.9036558310138147
1708433400.304876,-2.1291279792785645,-1.335345746283867,-2.5305541197406214,6.096212255745687,1.0222861766815186,-1.9044459501849573
1708433400.3068786,-2.128709554672241,-1.3354423505118866,-2.5306878725634974,6.095630872040548,1.02238130569458,-1.9051993528949183
1708433400.3089159,-2.1283340454101562,-1.335485802297928,-2.5307956377612513,6.095148074417867,1.0225598812103271,-1.9059484640704554
1708433400.3108857,-2.1279680728912354,-1.3355091971210022,-2.5309293905841272,6.094657885819235,1.0226678848266602,-1.9066732565509241
1708433400.3128538,-2.1275646686553955,-1.3355524998954316,-2.5310493151294153,6.094224440842428,1.0227464437484741,-1.9074309507953089
1708433400.3148615,-2.127127170562744,-1.3355843883803864,-2.531102959309713,6.093660938530721,1.0228707790374756,-1.9081891218768519
1708433400.316828,-2.1267385482788086,-1.3356927049211045,-2.531182591115133,6.093134867935934,1.0230032205581665,-1.9088934103595179
1708433400.3189127,-2.1262879371643066,-1.3357608926347275,-2.531320635472433,6.09253083446578,1.0231518745422363,-1.9095991293536585
1708433400.320832,-2.125828742980957,-1.335832656627037,-2.5315142313586634,6.092034327774801,1.0232678651809692,-1.9103272596942347
1708433400.3228393,-2.1253485679626465,-1.3358319860747834,-2.531576697026388,6.091451632767477,1.0234031677246094,-1.911081616078512
1708433400.324815,-2.124890089035034,-1.3359601509622117,-2.5317135492907923,6.090881931572714,1.023586630821228,-1.9118641058551233
1708433400.3268564,-2.124480724334717,-1.335970939402916,-2.5318411032306116,6.090348350792684,1.0237263441085815,-1.9125574270831507
1708433400.328813,-2.124009370803833,-1.3360423606685181,-2.531889025365011,6.089786398201742,1.0238133668899536,-1.9133308569537562
1708433400.3308244,-2.123533248901367,-1.3361190271428605,-2.5320406595813196,6.089188205986776,1.0239366292953491,-1.914088551198141
1708433400.3328679,-2.123023748397827,-1.336218850021698,-2.5321109930621546,6.088601457863607,1.0240401029586792,-1.9148505369769495
1708433400.334855,-2.1225149631500244,-1.3362419468215485,-2.532248560582296,6.087959515839376,1.0242222547531128,-1.9156163374530237
1708433400.3368592,-2.1219635009765625,-1.3363335889628907,-2.5323718229876917,6.087316620140829,1.0243093967437744,-1.9163973967181605
1708433400.338812,-2.1214606761932373,-1.3364176911166687,-2.5324962774859827,6.086704361229696,1.0244747400283813,-1.9171956221209925
1708433400.3408678,-2.1209425926208496,-1.336517573600151,-2.532665793095724,6.086088406830587,1.0246309041976929,-1.9179685751544397
1708433400.3428404,-2.1204192638397217,-1.3365528148463746,-2.53274375597109,6.085380422859945,1.0247677564620972,-1.9187505880938929
1708433400.3448927,-2.119901418685913,-1.3366610568812867,-2.5328756014453333,6.0847617266471765,1.0248910188674927,-1.9195306936847132
1708433400.3468456,-2.1194400787353516,-1.3367286336473008,-2.5329626242267054,6.084115612297811,1.0250515937805176,-1.9203489462481897
1708433400.3488724,-2.1188642978668213,-1.3368615371039887,-2.5331202189074915,6.083377110749044,1.0251630544662476,-1.9212163130389612
1708433400.3508716,-2.118250846862793,-1.33694543064151,-2.5332849661456507,6.082679974823751,1.0252755880355835,-1.9219849745379847
1708433400.3528333,-2.117750406265259,-1.337000386123993,-2.5333927313434046,6.081965195923605,1.0254079103469849,-1.9228556791888636
1708433400.3548548,-2.1171510219573975,-1.337096558218338,-2.5335159937488,6.081249344139852,1.0255645513534546,-1.9236767927752894
1708433400.3568833,-2.116560459136963,-1.337146983747818,-2.533665959035055,6.080478060036459,1.0257340669631958,-1.9245875517474573
1708433400.3588426,-2.115949869155884,-1.3372717660716553,-2.5337801615344446,6.0797778246696375,1.0258381366729736,-1.925375763569967
1708433400.360817,-2.1153790950775146,-1.3373429787210007,-2.5339210669146937,6.079072582512655,1.0259729623794556,-1.9261940161334437
1708433400.3628368,-2.114780902862549,-1.3374631714871903,-2.534051243458883,6.078346121102133,1.0260766744613647,-1.927093807850973
1708433400.3648155,-2.1141979694366455,-1.3374694001725693,-2.53418475786318,6.07765685298995,1.0262675285339355,-1.9278829733477991
1708433400.3668299,-2.113567352294922,-1.3376013946584244,-2.5343199411975306,6.076902496605673,1.0263744592666626,-1.9287288824664515
1708433400.368884,-2.1129238605499268,-1.337685005073883,-2.534489456807272,6.076136815338888,1.0264662504196167,-1.929610554371969
1708433400.3708036,-2.1123106479644775,-1.3378422272256394,-2.53457481065859,6.075290548592367,1.0266237258911133,-1.930448357258932
1708433400.372813,-2.1116440296173096,-1.3378772300532837,-2.534765068684713,6.074496972351827,1.0267393589019775,-1.9313390890704554
1708433400.3747969,-2.11102032661438,-1.338053972726204,-2.5348520914660853,6.073720919876852,1.026817798614502,-1.9321544806109827
1708433400.3768387,-2.1103708744049072,-1.3381571036628266,-2.535027329121725,6.072928416519918,1.0269501209259033,-1.9330633322345179
1708433400.3788135,-2.1097283363342285,-1.3382201802781601,-2.535131279622213,6.072164523392477,1.0271180868148804,-1.9340251127826136
1708433400.3808057,-2.1091136932373047,-1.3383636486581345,-2.5352373758899134,6.071358907013693,1.0272685289382935,-1.9349067846881312
1708433400.3828268,-2.10842227935791,-1.3384560656598588,-2.5353995005237024,6.070521580963888,1.027391791343689,-1.9358623663531702
1708433400.3848062,-2.107787847518921,-1.3385584664395829,-2.535572115574972,6.069678652077474,1.027521014213562,-1.936763111745016
1708433400.3868303,-2.107102394104004,-1.3386140924743195,-2.535671059285299,6.068817722588339,1.0276321172714233,-1.9376938978778284
1708433400.3888583,-2.106379747390747,-1.338773475294449,-2.5358076731311243,6.067993032723226,1.0277947187423706,-1.9385870138751429
1708433400.3908026,-2.105665683746338,-1.3388737452081223,-2.5359514395343226,6.067082035332479,1.0278546810150146,-1.9394448439227503
1708433400.3928142,-2.1049463748931885,-1.3390541088632126,-2.536062304173605,6.066287624626913,1.0280332565307617,-1.940340820943014
1708433400.3948576,-2.104300022125244,-1.3391247999719162,-2.536227051411764,6.0654687760169885,1.0281463861465454,-1.9412420431720179
1708433400.3968518,-2.103634834289551,-1.339305044417717,-2.536361042653219,6.064524876862325,1.0282199382781982,-1.9421075026141565
1708433400.3988268,-2.1029112339019775,-1.3393920821002503,-2.5364583174334925,6.063729750901022,1.028385043144226,-1.9429643789874476
1708433400.4008632,-2.1022300720214844,-1.3394794029048462,-2.5365873018847864,6.062927710800924,1.028556227684021,-1.9437945524798792
1708433400.4028497,-2.10152268409729,-1.339634896521904,-2.5366984049426478,6.062120187073507,1.0286705493927002,-1.9446843306170862
1708433400.4048529,-2.1008241176605225,-1.3397835356048127,-2.536862913762228,6.061242687493124,1.0287787914276123,-1.945571247731344
1708433400.4068472,-2.1001386642456055,-1.3399549734643479,-2.536999289189474,6.060356724053182,1.028899073600769,-1.9464777151690882
1708433400.408878,-2.0994443893432617,-1.3400377345136185,-2.5371270815478724,6.05949233749465,1.0289812088012695,-1.9473679701434534
1708433400.4108775,-2.098721981048584,-1.3402097982219239,-2.5372546354876917,6.05850778797225,1.0290658473968506,-1.948327366505758
1708433400.412871,-2.097999334335327,-1.340340019469597,-2.537415091191427,6.0576538918311975,1.0292022228240967,-1.9491632620440882
1708433400.4148629,-2.09724760055542,-1.3405172538808365,-2.537543837224142,6.056763279228964,1.0293108224868774,-1.950047794972555
1708433400.4168708,-2.0965383052825928,-1.3406444799951096,-2.5376129786120813,6.0558522818382166,1.0294173955917358,-1.951008145009176
1708433400.4188392,-2.0958025455474854,-1.3407634061625977,-2.5378244558917444,6.055000769882955,1.0295403003692627,-1.9518850485431116
1708433400.4208498,-2.095097780227661,-1.3409270358136673,-2.537938419972555,6.054095375328817,1.0296142101287842,-1.9528539816485804
1708433400.4228299,-2.0943715572357178,-1.3410740059665223,-2.5380058924304407,6.053184020310201,1.0296939611434937,-1.9537022749530237
1708433400.424816,-2.093665361404419,-1.341270462875702,-2.538232151662008,6.052270400315084,1.0298113822937012,-1.9546406904803675
1708433400.4268534,-2.092883825302124,-1.341449813251831,-2.538323704396383,6.05139838436202,1.029874563217163,-1.9556682745562952
1708433400.4288213,-2.0921618938446045,-1.34160868943248,-2.538448158894674,6.050398218422689,1.0299828052520752,-1.956564728413717
1708433400.4308548,-2.0914111137390137,-1.3417357367328187,-2.5385664145099085,6.049491393357076,1.030099868774414,-1.957458798085348
1708433400.432875,-2.0906646251678467,-1.3419272017529984,-2.5387030283557337,6.04856966713027,1.0301913022994995,-1.958388630543844
1708433400.4348202,-2.0898780822753906,-1.3420661997846146,-2.5388107935534876,6.047690140991964,1.0302799940109253,-1.9593475500689905
1708433400.4368398,-2.089151620864868,-1.3422251355699082,-2.538955036793844,6.046795594483175,1.0303478240966797,-1.9602540175067347
1708433400.4388053,-2.0884833335876465,-1.3423891824534913,-2.539095942174093,6.045890080719747,1.0304558277130127,-1.9611924330340784
1708433400.440822,-2.087728261947632,-1.342589096432068,-2.53919488588442,6.044943439751425,1.0305640697479248,-1.9621065298663538
1708433400.4428036,-2.086920976638794,-1.3428012442639847,-2.5393014589892786,6.043982732086935,1.030678153038025,-1.9630430380450647
1708433400.4448583,-2.08610200881958,-1.3429640990546723,-2.539464775715963,6.043018328934469,1.0307204723358154,-1.9639809767352503
1708433400.4468768,-2.0853493213653564,-1.3431836378625412,-2.539560858403341,6.042077290802755,1.030813455581665,-1.9649398962603968
1708433400.4488487,-2.0845863819122314,-1.3433586669019242,-2.539743725453512,6.041107642441549,1.0309054851531982,-1.965992275868551
1708433400.4509792,-2.0838162899017334,-1.3435498786023636,-2.5398455301867884,6.040191280632772,1.0309861898422241,-1.9669774214373987
1708433400.452855,-2.0829970836639404,-1.343749300842621,-2.5399747530566614,6.039273488312521,1.0310330390930176,-1.9680007139789026
1708433400.4548485,-2.082247495651245,-1.343924344783165,-2.5401023069964808,6.038311111717977,1.0311304330825806,-1.968978230153219
1708433400.4568489,-2.081451177597046,-1.3440825802138825,-2.5402100721942347,6.037458288460531,1.0312105417251587,-1.9698670546161097
1708433400.4588714,-2.0806758403778076,-1.3443479102901001,-2.540313784276144,6.036444532662191,1.0312373638153076,-1.9708336035357874
1708433400.4609451,-2.0798747539520264,-1.344612033372261,-2.540457789097921,6.035525309830465,1.0313422679901123,-1.9717806021319788
1708433400.4628513,-2.079047679901123,-1.344803051357605,-2.540591065083639,6.034567701607504,1.0313326120376587,-1.9727218786822718
1708433400.464827,-2.0782933235168457,-1.3449818354896088,-2.5407260099994105,6.033549296646871,1.0314700603485107,-1.9736312071429651
1708433400.466862,-2.0774919986724854,-1.345201240187027,-2.5408247152911585,6.032658326416769,1.0315438508987427,-1.974480454121725
1708433400.46888,-2.0766940116882324,-1.345448986893036,-2.5409539381610315,6.031779038697042,1.0315543413162231,-1.9754441420184534
