Eg3-git/Classifiers/Data Collection/u1/u1star4_ur3e_joint_states.csv
time,elbow_joint,shoulder_lift_joint,shoulder_pan_joint,wrist_1_joint,wrist_2_joint,wrist_3_joint
1708433424.1010227,-2.1567413806915283,-1.3399896931699296,-2.5321605841266077,6.153727519303121,1.027693748474121,-2.1860230604754847
1708433424.1030285,-2.1567368507385254,-1.3399431270411988,-2.532238308583395,6.153722870140829,1.0277104377746582,-2.1860206762896937
1708433424.1050062,-2.156694173812866,-1.3399896931699296,-2.5322216192828577,6.153677928238668,1.0277268886566162,-2.1860769430743616
1708433424.1070676,-2.1567368507385254,-1.339963973765709,-2.5321767965899866,6.153739559441366,1.0277358293533325,-2.1860531012164515
1708433424.1090248,-2.1567115783691406,-1.3400179904750367,-2.5321977774249476,6.1536974785621545,1.027665376663208,-2.186040703450338
1708433424.1110446,-2.156745433807373,-1.3399941486171265,-2.5322349707232874,6.153694617539205,1.0277178287506104,-2.186094109212057
1708433424.1130483,-2.156741142272949,-1.3399717223695298,-2.5322261492358606,6.153666007309713,1.0276801586151123,-2.1860769430743616
1708433424.1150131,-2.156752586364746,-1.3400015991977234,-2.532238308583395,6.153682338982382,1.0277435779571533,-2.1860817114459437
1708433424.1170666,-2.1567325592041016,-1.339940221314766,-2.5322051684008997,6.153685676842489,1.0276846885681152,-2.186072651539938
1708433424.1190875,-2.156696319580078,-1.33999256909404,-2.5322428385363978,6.153636085778036,1.0276892185211182,-2.1861146132098597
1708433424.121071,-2.1567201614379883,-1.339928300385811,-2.532200638447897,6.153673398285665,1.0277222394943237,-2.186044518147604
1708433424.123065,-2.156728982925415,-1.339928300385811,-2.5321977774249476,6.153682458191671,1.0276968479156494,-2.1860488096820276
1708433424.1250632,-2.1566920280456543,-1.3399970543435593,-2.532184425984518,6.153668868332662,1.0277222394943237,-2.186039749776022
1708433424.1270773,-2.1567330360412598,-1.339923844938614,-2.5322096983539026,6.153661596566,1.0277435779571533,-2.186094109212057
1708433424.1290565,-2.156749725341797,-1.339947597389557,-2.5322516600238245,6.153668868332662,1.0277268886566162,-2.186094109212057
1708433424.1310453,-2.1567330360412598,-1.3399357360652466,-2.5322261492358606,6.153652536659994,1.0277299880981445,-2.186047379170553
1708433424.133058,-2.156728982925415,-1.339947597389557,-2.5322216192828577,6.153694617539205,1.0277178287506104,-2.1860578695880335
1708433424.1350248,-2.1567330360412598,-1.3400060695460816,-2.5322352091418665,6.153694617539205,1.0277299880981445,-2.186072651539938
1708433424.1370263,-2.156707763671875,-1.3399475675872345,-2.5322023073779505,6.153681146889486,1.0277464389801025,-2.186063591633932
1708433424.1390135,-2.156752586364746,-1.3399864447167893,-2.532238308583395,6.153677928238668,1.0277509689331055,-2.186047379170553
1708433424.1410077,-2.1567323207855225,-1.3400429499200364,-2.5321977774249476,6.153690087586202,1.0277178287506104,-2.1860650221454065
1708433424.1431413,-2.156703472137451,-1.3399852228215714,-2.532200638447897,6.153676616936483,1.0277587175369263,-2.186100784932272
1708433424.1450326,-2.1567201614379883,-1.3399446469596406,-2.5322216192828577,6.153727400093832,1.0277087688446045,-2.186117951069967
1708433424.1470568,-2.1566991806030273,-1.339952142243721,-2.5322051684008997,6.153711068421163,1.0277419090270996,-2.186051670704977
1708433424.1490395,-2.1566762924194336,-1.3399565827897568,-2.5322216192828577,6.153648006706991,1.0277328491210938,-2.186085049306051
1708433424.1510568,-2.156696319580078,-1.339935765867569,-2.532217089329855,6.153668868332662,1.0277540683746338,-2.1860230604754847
1708433424.1530335,-2.156705141067505,-1.3399852228215714,-2.532245937977926,6.153677928238668,1.02776300907135,-2.186100784932272
1708433424.1550398,-2.1566977500915527,-1.3399774593165894,-2.532200638447897,6.153703558235922,1.0277631282806396,-2.186089340840475
1708433424.1570907,-2.156700611114502,-1.339977429514267,-2.532196108494894,6.153677928238668,1.0277419090270996,-2.186100784932272
1708433424.159026,-2.156693458557129,-1.339956597690918,-2.5321932474719446,6.1537020085151575,1.0277299880981445,-2.186059300099508
1708433424.1610029,-2.1566920280456543,-1.3399550479701539,-2.5321932474719446,6.1537126181419275,1.0277419090270996,-2.186096493397848
1708433424.1630216,-2.156693458557129,-1.33997297406707,-2.5322428385363978,6.153628814011373,1.0277750492095947,-2.186072651539938
1708433424.1650176,-2.1567091941833496,-1.339968518619873,-2.5322261492358606,6.15362428405837,1.0277585983276367,-2.186056439076559
1708433424.1670125,-2.1567163467407227,-1.3399896782687684,-2.5322096983539026,6.153727400093832,1.0277496576309204,-2.186085049306051
1708433424.16906,-2.156700611114502,-1.3399431270411988,-2.5322471300708216,6.15362428405837,1.0277540683746338,-2.186072651539938
1708433424.1709986,-2.156696319580078,-1.339968518619873,-2.532200638447897,6.153633224755087,1.0277913808822632,-2.186072651539938
1708433424.1730251,-2.1567373275756836,-1.3399819147637864,-2.5322051684008997,6.153694617539205,1.0277659893035889,-2.186068360005514
1708433424.175026,-2.1567459106445312,-1.339952142243721,-2.532238308583395,6.153654086380758,1.0277913808822632,-2.186042610798971
1708433424.1770535,-2.1567163467407227,-1.3399896782687684,-2.5321977774249476,6.1536868689353845,1.0277659893035889,-2.186039749776022
1708433424.1790643,-2.1567373275756836,-1.339923844938614,-2.5322592894183558,6.153656947403707,1.027773380279541,-2.186051670704977
1708433424.1810262,-2.156700611114502,-1.33997297406707,-2.532245937977926,6.153703558235922,1.0277959108352661,-2.186063591633932
1708433424.183027,-2.1567134857177734,-1.339952142243721,-2.532241408024923,6.1536868689353845,1.027777910232544,-2.186085049306051
1708433424.1850111,-2.1567206382751465,-1.339976192717888,-2.532200638447897,6.153670537262716,1.0277824401855469,-2.186085049306051
1708433424.1869965,-2.156676769256592,-1.3399475675872345,-2.5322261492358606,6.153630006104269,1.027777910232544,-2.1860650221454065
1708433424.1890142,-2.1567091941833496,-1.3399852228215714,-2.532266918812887,6.153636204987325,1.0277868509292603,-2.1860807577716272
1708433424.1910195,-2.1567091941833496,-1.339956597690918,-2.532250467930929,6.153610694199362,1.0277496576309204,-2.1861098448382776
1708433424.1930609,-2.1566598415374756,-1.339923844938614,-2.532212559376852,6.153670537262716,1.027789831161499,-2.186117951069967
1708433424.1950808,-2.1566643714904785,-1.3399806779674073,-2.532208029423849,6.1536913988883875,1.0277451276779175,-2.186094109212057
1708433424.1970408,-2.156693458557129,-1.3399402064136048,-2.532245937977926,6.1536704180534265,1.0277643203735352,-2.186068360005514
1708433424.1990802,-2.156729221343994,-1.339961053138115,-2.532262388859884,6.153654086380758,1.0277868509292603,-2.1860607306109827
1708433424.2010405,-2.1567091941833496,-1.3399986040643235,-2.5322533289538782,6.153654086380758,1.027777910232544,-2.186056439076559
1708433424.2030303,-2.156676769256592,-1.3399446916631241,-2.5322817007647913,6.153658497124471,1.0278112888336182,-2.1860607306109827
1708433424.205027,-2.156693458557129,-1.3399852228215714,-2.5322487990008753,6.153684007912435,1.027761459350586,-2.186113182698385
1708433424.2070518,-2.1566600799560547,-1.3399941486171265,-2.5322967211352747,6.153654086380758,1.0278022289276123,-2.186054531727926
1708433424.2090807,-2.156700611114502,-1.340003104215004,-2.5323222319232386,6.153609025269308,1.027797818183899,-2.186035458241598
1708433424.211034,-2.1566901206970215,-1.3399970543435593,-2.532325331364767,6.153597223549642,1.0277851819992065,-2.186094109212057
1708433424.2129805,-2.15664005279541,-1.339944676761963,-2.5323131720172327,6.153609025269308,1.027789831161499,-2.186047379170553
1708433424.2150307,-2.15664005279541,-1.339961053138115,-2.532325331364767,6.153565633087911,1.0277643203735352,-2.186072651539938
1708433424.2169929,-2.1566600799560547,-1.3399386715940018,-2.532337252293722,6.153520571976461,1.027777910232544,-2.1860221068011683
1708433424.219033,-2.1566805839538574,-1.339977429514267,-2.532362763081686,6.1535401222999475,1.0277868509292603,-2.1860817114459437
1708433424.2210486,-2.1566810607910156,-1.339956597690918,-2.532344643269674,6.153607713967123,1.0277942419052124,-2.186047379170553
1708433424.223027,-2.156648635864258,-1.33997297406707,-2.532332722340719,6.153549301415243,1.0278112888336182,-2.186051670704977
1708433424.2250028,-2.156693458557129,-1.3399852228215714,-2.532365624104635,6.153532850533285,1.0277851819992065,-2.186068360005514
1708433424.2270088,-2.1566686630249023,-1.339956597690918,-2.532349173222677,6.153550851136007,1.0277942419052124,-2.186089340840475
1708433424.2289915,-2.1566853523254395,-1.3399250668338318,-2.5323239008532923,6.153504359513082,1.0278112888336182,-2.186044518147604
1708433424.2310066,-2.1566810607910156,-1.339935765867569,-2.532356564198629,6.153513181000509,1.0277807712554932,-2.186042610798971
1708433424.232992,-2.1566977500915527,-1.3399357360652466,-2.532374684010641,6.153553831368246,1.0278440713882446,-2.1860769430743616
1708433424.2349994,-2.1566810607910156,-1.3399521124413987,-2.532374684010641,6.153574692993917,1.027768850326538,-2.1860807577716272
1708433424.2370012,-2.1566896438598633,-1.339956597690918,-2.532341782246725,6.153504240303793,1.027761459350586,-2.186089340840475
1708433424.2389967,-2.1566572189331055,-1.339968518619873,-2.532337252293722,6.153541910439291,1.0277823209762573,-2.1861098448382776
1708433424.2410223,-2.156655788421631,-1.3399610680392762,-2.532365624104635,6.153588044434347,1.0277987718582153,-2.1861141363727015
1708433424.2430017,-2.1566977500915527,-1.3399896782687684,-2.532349173222677,6.153574692993917,1.0278068780899048,-2.186094109212057
1708433424.2450795,-2.156693458557129,-1.3399896931699296,-2.532328192387716,6.153538572579183,1.0277807712554932,-2.186068360005514
1708433424.2470312,-2.1566977500915527,-1.3399655681899567,-2.5323777834521692,6.153538572579183,1.0278232097625732,-2.1860607306109827
1708433424.2490327,-2.1566896438598633,-1.3400060695460816,-2.532337252293722,6.153513181000509,1.0277851819992065,-2.186072651539938
1708433424.251064,-2.1566643714904785,-1.3399806779674073,-2.532349173222677,6.153591024666586,1.0278141498565674,-2.186105553303854
1708433424.2530532,-2.156648635864258,-1.3399970692447205,-2.532358233128683,6.153542983322897,1.0277942419052124,-2.186085049306051
1708433424.2550094,-2.1566357612609863,-1.3400474053672333,-2.532370154057638,6.153522240906515,1.0278186798095703,-2.1860807577716272
1708433424.2570317,-2.156632661819458,-1.3399986636689682,-2.532365624104635,6.153550851136007,1.027789831161499,-2.186094109212057
1708433424.2590284,-2.1566660404205322,-1.3399730038693924,-2.532365624104635,6.153488266258993,1.0277942419052124,-2.186068360005514
1708433424.2610478,-2.1566414833068848,-1.339968518619873,-2.532365624104635,6.153508770256796,1.027768850326538,-2.1860531012164515
1708433424.263043,-2.156672954559326,-1.3399940890124817,-2.5323732534991663,6.1535178301628015,1.0278068780899048,-2.186044518147604
1708433424.2650073,-2.156648635864258,-1.3399401915124436,-2.5323074499713343,6.153542983322897,1.027768850326538,-2.1860984007464808
1708433424.2670197,-2.1566529273986816,-1.3399610680392762,-2.5324109236346644,6.15355538108901,1.0278022289276123,-2.186092201863424
1708433424.2690153,-2.1566643714904785,-1.3400016588023682,-2.532370154057638,6.1535061476524255,1.027789831161499,-2.1861098448382776
1708433424.2710092,-2.1566643714904785,-1.3399537068656464,-2.532328192387716,6.153541791230001,1.0278022289276123,-2.186044518147604
1708433424.2729979,-2.1566286087036133,-1.339968503718712,-2.532341782246725,6.15355538108901,1.0277987718582153,-2.1860230604754847
1708433424.2750146,-2.1566643714904785,-1.3400269013694306,-2.5323670546161097,6.15353416183547,1.0278068780899048,-2.186085049306051
1708433424.277005,-2.156632900238037,-1.339923844938614,-2.5323131720172327,6.153537380486288,1.0277823209762573,-2.186089340840475
1708433424.2790046,-2.156672954559326,-1.3399282854846497,-2.5323131720172327,6.153513300209799,1.0277976989746094,-2.186085049306051
1708433424.280991,-2.1566600799560547,-1.3399357509664078,-2.532358233128683,6.153471815377035,1.0277942419052124,-2.1860817114459437
1708433424.2829962,-2.15659499168396,-1.3399684888175507,-2.5323670546161097,6.153492677002706,1.0277734994888306,-2.1860650221454065
1708433424.2849982,-2.1566193103790283,-1.339956597690918,-2.5323343912707728,6.153525101929464,1.0277824401855469,-2.186075989400045
1708433424.286996,-2.156648635864258,-1.3399819296649476,-2.532337252293722,6.153541791230001,1.0278068780899048,-2.1861026922809046
1708433424.2890372,-2.1566193103790283,-1.3400105249932786,-2.5323177019702356,6.153570163040914,1.0278068780899048,-2.1860273520099085
1708433424.291018,-2.156672954559326,-1.3399373304894944,-2.53232986131777,6.1535836336906335,1.0278068780899048,-2.1860230604754847
1708433424.2930532,-2.1566460132598877,-1.3399730038693924,-2.532341782246725,6.153559791832723,1.0277570486068726,-2.1860984007464808
1708433424.2951,-2.1566686630249023,-1.339970053439476,-2.5323789755450647,6.153550851136007,1.02775239944458,-2.1860273520099085
1708433424.2970667,-2.1566572189331055,-1.3399475675872345,-2.5323131720172327,6.153520691185751,1.0278233289718628,-2.1860817114459437
1708433424.2990594,-2.1566643714904785,-1.339956597690918,-2.532325569783346,6.153570163040914,1.027797818183899,-2.1861026922809046
1708433424.3010254,-2.156648635864258,-1.3399941486171265,-2.5323508421527308,6.15353416183547,1.0277851819992065,-2.1860607306109827
1708433424.303059,-2.156648635864258,-1.3399071258357544,-2.53232986131777,6.15353416183547,1.027768850326538,-2.1860607306109827
1708433424.3050106,-2.156632900238037,-1.3399521720460434,-2.532311979924337,6.153537380486288,1.027794361114502,-2.1860321203814905
1708433424.3070679,-2.156677484512329,-1.3399610233357926,-2.5323835054980677,6.153541910439291,1.027777910232544,-2.186044518147604
1708433424.3091166,-2.1566810607910156,-1.3399537068656464,-2.532362763081686,6.153559791832723,1.0278031826019287,-2.1859992186175745
1708433424.3110538,-2.1566286087036133,-1.3399401915124436,-2.532325331364767,6.153517710953512,1.0277451276779175,-2.1860817114459437
1708433424.3130264,-2.1566200256347656,-1.3399610680392762,-2.53230864206423,6.1535061476524255,1.027777910232544,-2.1860607306109827
1708433424.3150246,-2.1566853523254395,-1.3399193745902558,-2.532320801411764,6.153501736908712,1.027815818786621,-2.1860607306109827
1708433424.3170226,-2.1566977500915527,-1.339968503718712,-2.532320801411764,6.153513181000509,1.0277570486068726,-2.1861026922809046
1708433424.3190384,-2.1566896438598633,-1.339944676761963,-2.5323625246631067,6.153525221138754,1.0277868509292603,-2.186040703450338
1708433424.321055,-2.1566600799560547,-1.339956597690918,-2.53230864206423,6.1535717127616785,1.0278114080429077,-2.1860697905169886
1708433424.323062,-2.1567020416259766,-1.3399941486171265,-2.53230864206423,6.153562652855673,1.02775239944458,-2.1860488096820276
1708433424.325059,-2.1566572189331055,-1.3399402064136048,-2.5323222319232386,6.153537380486288,1.0277823209762573,-2.1860159079181116
1708433424.3270688,-2.1566853523254395,-1.3399357211640854,-2.5323389212237757,6.153504359513082,1.0277734994888306,-2.186056439076559
1708433424.32905,-2.1566529273986816,-1.339944676761963,-2.5323880354510706,6.15347312667922,1.0277913808822632,-2.1860650221454065
1708433424.331025,-2.156648635864258,-1.3400195699981232,-2.532299820576803,6.153564202576437,1.027794361114502,-2.1860488096820276
1708433424.3330312,-2.156587839126587,-1.339914785032608,-2.532341782246725,6.153520691185751,1.0277495384216309,-2.186007324849264
1708433424.3350027,-2.156632900238037,-1.3399864447167893,-2.532346312199728,6.153508770256796,1.0277913808822632,-2.1860159079181116
1708433424.3370173,-2.1566150188446045,-1.3399717521718522,-2.5322967211352747,6.153576123505392,1.0277868509292603,-2.1860817114459437
1708433424.3390286,-2.1566896438598633,-1.3399565827897568,-2.5323551336871546,6.1535717127616785,1.0277823209762573,-2.1860321203814905
1708433424.341035,-2.1566529273986816,-1.3399774593165894,-2.532321039830343,6.153529631882467,1.0278366804122925,-2.1861074606524866
1708433424.3430083,-2.1566529273986816,-1.339935765867569,-2.5323343912707728,6.1535881636436365,1.0277868509292603,-2.186056439076559
1708433424.345067,-2.156677484512329,-1.3399897080710907,-2.53232986131777,6.153508770256796,1.0277687311172485,-2.1859830061541956
1708433424.3470447,-2.1566810607910156,-1.3399852377227326,-2.532346312199728,6.153480756073751,1.0277868509292603,-2.1860273520099085
1708433424.349132,-2.1566243171691895,-1.340006099348404,-2.5323265234576624,6.153525221138754,1.027735948562622,-2.1860531012164515
1708433424.3510354,-2.1566853523254395,-1.339968503718712,-2.532325331364767,6.1535836336906335,1.027740716934204,-2.1860740820514124
1708433424.3530583,-2.156644344329834,-1.3399730038693924,-2.5323432127581995,6.153497206955709,1.0277615785598755,-2.1860488096820276
1708433424.355036,-2.156644344329834,-1.3399520826390763,-2.532325331364767,6.153595554619589,1.0277868509292603,-2.1860082785235804
1708433424.3570065,-2.156637191772461,-1.3399685484221955,-2.5323343912707728,6.153574692993917,1.0277868509292603,-2.1860035101519983
1708433424.35901,-2.1566853523254395,-1.339935765867569,-2.5322757403003138,6.1535717127616785,1.0277540683746338,-2.1860364119159144
1708433424.361029,-2.1566853523254395,-1.3399729889682312,-2.5323222319232386,6.153517710953512,1.0277704000473022,-2.186044518147604
1708433424.363084,-2.1566572189331055,-1.3399521571448822,-2.5322936216937464,6.153558242111959,1.0277283191680908,-2.1860364119159144
1708433424.3650405,-2.1566123962402344,-1.3399729889682312,-2.5323389212237757,6.153525101929464,1.0277451276779175,-2.1860607306109827
1708433424.367012,-2.1566810607910156,-1.3399700683406373,-2.532370154057638,6.1535178301628015,1.0277315378189087,-2.186040703450338
1708433424.3690515,-2.156632900238037,-1.33997297406707,-2.532287899647848,6.153538572579183,1.0277540683746338,-2.186044518147604
1708433424.3710124,-2.1566686630249023,-1.3399566125920792,-2.532304350529806,6.15355538108901,1.0277540683746338,-2.1859992186175745
1708433424.3730538,-2.1566600799560547,-1.3399774742177506,-2.5323670546161097,6.153574692993917,1.02776300907135,-2.1860531012164515
1708433424.3750155,-2.156632900238037,-1.3400224459222336,-2.5323177019702356,6.153525101929464,1.0277255773544312,-2.1860531012164515
1708433424.37702,-2.156637191772461,-1.339944676761963,-2.5323386828051966,6.153538691788473,1.0277328491210938,-2.1860206762896937
1708433424.3790247,-2.156637191772461,-1.3399897080710907,-2.532296959553854,6.153546321183004,1.0277868509292603,-2.1859949270831507
1708433424.3810327,-2.1566686630249023,-1.3400134605220337,-2.5322800318347376,6.153565633087911,1.0277495384216309,-2.1860273520099085
1708433424.3830502,-2.1566572189331055,-1.3399774742177506,-2.5323434511767786,6.153528320580282,1.0277373790740967,-2.1860531012164515
1708433424.3850162,-2.1566574573516846,-1.3399282854846497,-2.5323265234576624,6.153529631882467,1.0277540683746338,-2.1860488096820276
1708433424.3870437,-2.1566643714904785,-1.3399655383876343,-2.5323432127581995,6.1535717127616785,1.0277496576309204,-2.18604547182192
1708433424.3890498,-2.156694173812866,-1.3399774742177506,-2.5323222319232386,6.153520691185751,1.0277540683746338,-2.1860531012164515
1708433424.3910193,-2.156672954559326,-1.3399536621621628,-2.532296959553854,6.153624164849081,1.0277419090270996,-2.1860488096820276
1708433424.393004,-2.15669846534729,-1.339956597690918,-2.5323267618762415,6.153541910439291,1.0277284383773804,-2.1860159079181116
1708433424.3950288,-2.1566853523254395,-1.3399357360652466,-2.5323222319232386,6.153579103737631,1.0277913808822632,-2.1860697905169886
1708433424.3970637,-2.156672954559326,-1.3399774146131058,-2.5323265234576624,6.153553831368246,1.0277540683746338,-2.186040703450338
1708433424.3990722,-2.1566193103790283,-1.33994913220916,-2.5322967211352747,6.153594243317404,1.0277496576309204,-2.1860578695880335
1708433424.40107,-2.1566529273986816,-1.3399940741113205,-2.5322848002063196,6.15354477146224,1.0277585983276367,-2.18604547182192
1708433424.403027,-2.156637191772461,-1.339968518619873,-2.5322802702533167,6.153574573784628,1.0277704000473022,-2.186049763356344
1708433424.4050226,-2.1566600799560547,-1.3399312806180497,-2.5323222319232386,6.153558242111959,1.0277540683746338,-2.1860249678241175
1708433424.407049,-2.1566529273986816,-1.3399639886668702,-2.5323641935931605,6.153565752297201,1.0277540683746338,-2.1860159079181116
1708433424.4090376,-2.1566572189331055,-1.3399402511170884,-2.5322845617877405,6.153550851136007,1.0277585983276367,-2.1860607306109827
1708433424.411055,-2.1566617488861084,-1.3399402362159272,-2.5323103109942835,6.153616893082418,1.0277373790740967,-2.1860035101519983
1708433424.4130487,-2.156637191772461,-1.3399387460998078,-2.5323131720172327,6.153565633087911,1.0277419090270996,-2.1860740820514124
1708433424.415002,-2.1566529273986816,-1.3399595481208344,-2.5323343912707728,6.153603303223409,1.0277373790740967,-2.1860249678241175
1708433424.417001,-2.1566643714904785,-1.3399773997119446,-2.5322802702533167,6.153570163040914,1.0277372598648071,-2.1859753767596644
1708433424.4190242,-2.1566529273986816,-1.3400060695460816,-2.5323222319232386,6.153595435410299,1.0277750492095947,-2.186040703450338
1708433424.4210274,-2.1566150188446045,-1.33999855936084,-2.5323267618762415,6.153570163040914,1.0277299880981445,-2.1860035101519983
1708433424.4230769,-2.1566150188446045,-1.3399773997119446,-2.5323684851275843,6.153529631882467,1.0277495384216309,-2.1860697905169886
1708433424.4250107,-2.156676769256592,-1.3399729889682312,-2.5322936216937464,6.153549301415243,1.0277373790740967,-2.186054054890768
1708433424.4269907,-2.1566810607910156,-1.3399193596890946,-2.5322564283954065,6.153603303223409,1.0277750492095947,-2.1859915892230433
1708433424.4290004,-2.156668186187744,-1.3399852079204102,-2.5322845617877405,6.153628694802084,1.0277419090270996,-2.1859963575946253
1708433424.4309943,-2.156677484512329,-1.3399806779674073,-2.532274309788839,6.153558242111959,1.0277868509292603,-2.1860578695880335
1708433424.4330387,-2.1566896438598633,-1.339953677063324,-2.5322981516467493,6.153522240906515,1.0277750492095947,-2.1860159079181116
1708433424.4350343,-2.156672954559326,-1.3399684888175507,-2.5323148409472864,6.153628575592794,1.0277419090270996,-2.1860206762896937
1708433424.4370618,-2.1567063331604004,-1.340010480289795,-2.5322981516467493,6.153556692391195,1.0277585983276367,-2.1860082785235804
1708433424.4390275,-2.156672477722168,-1.3399446916631241,-2.5323012510882776,6.153628694802084,1.0277585983276367,-2.1860249678241175
1708433424.4410255,-2.1566600799560547,-1.340006024842598,-2.5322697798358362,6.153612363129415,1.0277178287506104,-2.186040703450338
1708433424.4430149,-2.1566810607910156,-1.3399566125920792,-2.5323148409472864,6.153624164849081,1.0277178287506104,-2.186054054890768
1708433424.4450862,-2.1567020416259766,-1.3399730038693924,-2.5322487990008753,6.1535611031349084,1.0277795791625977,-2.1860578695880335
1708433424.4470599,-2.156648635864258,-1.3399896633676072,-2.5322697798358362,6.1535775540168665,1.0277087688446045,-2.1859992186175745
1708433424.4490495,-2.1567020416259766,-1.3399863851121445,-2.5322323481189173,6.153594243317404,1.0277585983276367,-2.1860783735858362
1708433424.4510605,-2.156672954559326,-1.3399864000133057,-2.5322323481189173,6.153642165451803,1.0276892185211182,-2.1860035101519983
1708433424.453044,-2.1566643714904785,-1.3399072152427216,-2.532245937977926,6.153620946198263,1.0277104377746582,-2.1860249678241175
1708433424.455067,-2.1566810607910156,-1.3399357807687302,-2.532196108494894,6.153618085175314,1.0277345180511475,-2.1860249678241175
1708433424.4570394,-2.1566896438598633,-1.339940221314766,-2.5321841875659388,6.153646695404806,1.027693748474121,-2.1860249678241175
1708433424.4590755,-2.156644105911255,-1.3399160516313096,-2.532156054173605,6.153670537262716,1.0276846885681152,-2.1859872976886194
1708433424.4611855,-2.156689167022705,-1.339928315286972,-2.5322232882129114,6.153690087586202,1.0276846885681152,-2.1860249678241175
1708433424.4630334,-2.1566810607910156,-1.3399521571448822,-2.5322306791888636,6.15373061874465,1.0277059078216553,-2.1860035101519983
1708433424.4650369,-2.1566617488861084,-1.340006024842598,-2.5321455637561243,6.153727400093832,1.0277419090270996,-2.186012570058004
1708433424.4670172,-2.15664005279541,-1.3399610680392762,-2.5322395006762903,6.1537139294441126,1.0277299880981445,-2.186040703450338
1708433424.4690218,-2.156676769256592,-1.34002240121875,-2.5321407953845423,6.15370653846816,1.027701497077942,-2.18598443666567
1708433424.4710126,-2.1567020416259766,-1.340017945771553,-2.532149855290548,6.153704869538107,1.0277132987976074,-2.186016861592428
1708433424.4730437,-2.1566848754882812,-1.3399729889682312,-2.5321033636676233,6.153772341995992,1.0277299880981445,-2.186038319264547
1708433424.4750204,-2.1566529273986816,-1.3399896633676072,-2.5321784655200403,6.153703677445211,1.0277013778686523,-2.1859872976886194
1708433424.4770637,-2.1566357612609863,-1.3399852079204102,-2.532128636037008,6.153676616936483,1.0277299880981445,-2.1860340277301233
1708433424.479021,-2.156648635864258,-1.339956597690918,-2.5321784655200403,6.153722870140829,1.0277178287506104,-2.1859915892230433
1708433424.481019,-2.1566600799560547,-1.3399685335210343,-2.5321858564959925,6.15370939949111,1.0277390480041504,-2.1860292593585413
1708433424.4829957,-2.156644344329834,-1.3399729591659089,-2.532116715108053,6.153690087586202,1.0277178287506104,-2.186042610798971
1708433424.4850113,-2.1566810607910156,-1.3399610382369538,-2.5322065989123743,6.153775322228231,1.0276890993118286,-2.186025921498434
1708433424.4870408,-2.156632900238037,-1.3399729591659089,-2.532203737889425,6.153655397682943,1.0277178287506104,-2.1859977881061
1708433424.489019,-2.1566572189331055,-1.3399581474116822,-2.5321484247790735,6.153738009720602,1.0276846885681152,-2.1860082785235804
1708433424.491043,-2.1566896438598633,-1.3399312508157273,-2.5321365038501185,6.1537020085151575,1.0276801586151123,-2.185993019734518
1708433424.4930153,-2.156651496887207,-1.3399402511170884,-2.5321903864489954,6.153697597771444,1.0276532173156738,-2.185972038899557
1708433424.4950507,-2.156676769256592,-1.3399566274932404,-2.5322113672839563,6.15373061874465,1.0277104377746582,-2.1860182921039026
1708433424.4970748,-2.156733512878418,-1.339980663066246,-2.5321739355670374,6.15370939949111,1.0276744365692139,-2.185948197041647
1708433424.4990375,-2.1566810607910156,-1.3399327260306855,-2.5321903864489954,6.153726088791647,1.027669906616211,-2.1859315077411097
1708433424.5010707,-2.1567020416259766,-1.339989648466446,-2.5321946779834192,6.153684007912435,1.027669906616211,-2.1859691778766077
1708433424.503083,-2.1566977500915527,-1.339907170539238,-2.53217059770693,6.153779852181234,1.0276908874511719,-2.1859658400165003
1708433424.5050693,-2.156693458557129,-1.3399639886668702,-2.5322111288653772,6.153739559441366,1.0276654958724976,-2.1858957449542444
1708433424.507046,-2.1566810607910156,-1.3399565827897568,-2.5321739355670374,6.153733598976888,1.0276862382888794,-2.1859448591815394
1708433424.5090523,-2.156655788421631,-1.3399565827897568,-2.5321407953845423,6.1536974785621545,1.0277104377746582,-2.185925308858053
1708433424.511074,-2.1567020416259766,-1.3399654787829895,-2.5321858564959925,6.15375434139327,1.0276774168014526,-2.185913864766256
1708433424.5130837,-2.156693458557129,-1.3399357807687302,-2.5321784655200403,6.153676616936483,1.0276577472686768,-2.1858509222613733
1708433424.5150416,-2.1566896438598633,-1.3399357509664078,-2.532203737889425,6.153718340187826,1.027648687362671,-2.185852352772848
1708433424.5170305,-2.1566193103790283,-1.3399655234864731,-2.532145325337545,6.153742420464315,1.0276532173156738,-2.1858776251422327
1708433424.5190558,-2.156648635864258,-1.3398981851390381,-2.532133165990011,6.153700458794393,1.0276908874511719,-2.1858113447772425
1708433424.521058,-2.156606435775757,-1.3399773997119446,-2.532182757054464,6.153704869538107,1.0276365280151367,-2.1858819166766565
1708433424.5231295,-2.156637191772461,-1.339940221314766,-2.532133165990011,6.153684007912435,1.0275990962982178,-2.1858609358416956
1708433424.525039,-2.156697988510132,-1.3399685484221955,-2.532154385243551,6.15373061874465,1.0276410579681396,-2.1858084837542933
1708433424.5270402,-2.1566853523254395,-1.3399986040643235,-2.5321829954730433,6.153727519303121,1.0276200771331787,-2.185800854359762
1708433424.5290372,-2.156644344329834,-1.3399311614087601,-2.5321784655200403,6.153747069626608,1.0276217460632324,-2.1857603232013147
1708433424.5310578,-2.1567020416259766,-1.339952142243721,-2.5321572462665003,6.153722989350118,1.0276005268096924,-2.1857274214373987
1708433424.5330327,-2.156672954559326,-1.3399446171573182,-2.5321858564959925,6.153694736748495,1.0275554656982422,-2.1856964270221155
1708433424.5350497,-2.156637191772461,-1.3399655234864731,-2.5321858564959925,6.15371726730422,1.0276141166687012,-2.185660187398092
1708433424.5370374,-2.156648635864258,-1.3399940890124817,-2.532182757054464,6.153711068421163,1.0275932550430298,-2.1856520811664026
1708433424.5390344,-2.156606435775757,-1.3399521273425599,-2.532145325337545,6.153724419861593,1.0276141166687012,-2.1855786482440394
1708433424.5410247,-2.1566357612609863,-1.3399148446372529,-2.532187525426046,6.153654086380758,1.0276020765304565,-2.185608688985006
1708433424.54304,-2.156676769256592,-1.3399283301881333,-2.5321617762195032,6.153677928238668,1.027585744857788,-2.1855443159686487
1708433424.5450323,-2.1566598415374756,-1.3399610829404374,-2.532121245061056,6.153592693596639,1.0275993347167969,-2.1854575316058558
1708433424.5470598,-2.1566643714904785,-1.339956597690918,-2.532137695943014,6.153658616333761,1.0275449752807617,-2.1854665915118616
1708433424.5490468,-2.1566572189331055,-1.3399115961841126,-2.532104794179098,6.15358983257369,1.027558445930481,-2.185438934956686
1708433424.5510335,-2.156632900238037,-1.3398836118033906,-2.5321019331561487,6.153558242111959,1.027547836303711,-2.1854403654681605
1708433424.553052,-2.156619071960449,-1.3399774891189118,-2.532133165990011,6.153564321785726,1.027569055557251,-2.185387913380758
1708433424.5550466,-2.156619071960449,-1.3399206113866349,-2.532142225896017,6.153481948166647,1.027606725692749,-2.185347859059469
1708433424.5570538,-2.1566460132598877,-1.3399372708848496,-2.5320852438556116,6.15350769737319,1.0275404453277588,-2.1853116194354456
1708433424.559051,-2.156632423400879,-1.3399654936841507,-2.53206450143923,6.153458106308737,1.027565836906433,-2.185230557118551
1708433424.5610423,-2.1566574573516846,-1.339928300385811,-2.5321019331561487,6.153417694359579,1.0275375843048096,-2.185178581868307
1708433424.563041,-2.156619071960449,-1.339944676761963,-2.5320897738086146,6.153405773430624,1.0275301933288574,-2.1850808302508753
1708433424.5650504,-2.1565747261047363,-1.3398416203311463,-2.5320778528796595,6.15340410450057,1.027488112449646,-2.1851041952716272
1708433424.5670328,-2.156588315963745,-1.3399250519326706,-2.5320897738086146,6.153324711113729,1.0274848937988281,-2.1849501768695276
1708433424.5690403,-2.156597375869751,-1.3398969930461426,-2.5320897738086146,6.153260338097372,1.0274608135223389,-2.184927288685934
1708433424.5710356,-2.1565487384796143,-1.3399042201093216,-2.5320282618152063,6.153216826706686,1.0274488925933838,-2.1848133246051233
1708433424.5730672,-2.156618595123291,-1.3398505312255402,-2.5320492426501673,6.153198945313253,1.0274158716201782,-2.1847427527057093
1708433424.5750284,-2.1565396785736084,-1.3398684573224564,-2.5320702234851282,6.153146493225851,1.0274293422698975,-2.1846254507647913
1708433424.5770574,-2.1565487384796143,-1.3398654472878953,-2.5320492426501673,6.153119551926412,1.0273962020874023,-2.1845458189593714
1708433424.5790267,-2.1565327644348145,-1.3398565363935013,-2.53205377260317,6.152975785523214,1.0274215936660767,-2.1844542662249964
1708433424.5810282,-2.1565213203430176,-1.3398401600173493,-2.5320869127856653,6.152945863991537,1.0274068117141724,-2.1843088308917444
1708433424.5830507,-2.1564717292785645,-1.3398580712131043,-2.5320702234851282,6.152907001763143,1.0273557901382446,-2.184202019368307
1708433424.5850656,-2.156480550765991,-1.3398175251534958,-2.532058302556173,6.152821409493246,1.0273330211639404,-2.1840699354754847
1708433424.5870554,-2.1564781665802,-1.339829446082451,-2.53205377260317,6.152739035874166,1.0273256301879883,-2.1838839689837855
1708433424.5890396,-2.1564419269561768,-1.3397683960250397,-2.5320492426501673,6.15263997295455,1.0272928476333618,-2.183798615132467
1708433424.5910535,-2.1564011573791504,-1.3397892278483887,-2.532018009816305,6.152586328774252,1.027289628982544,-2.183591667805807
1708433424.593055,-2.156327486038208,-1.3397773069194336,-2.532074753438131,6.152569758683004,1.027310848236084,-2.1834591070758265
1708433424.5950294,-2.156325340270996,-1.339711458688118,-2.532013479863302,6.152442204743185,1.0272324085235596,-2.183324162160055
1708433424.597084,-2.156334161758423,-1.339715914135315,-2.5319936911212366,6.152346360474386,1.0272655487060547,-2.1830900351153772
1708433424.5990663,-2.156285524368286,-1.339705304508545,-2.5320010820971888,6.152295577317037,1.0271960496902466,-2.1829522291766565
1708433424.601163,-2.1562740802764893,-1.3397220087102433,-2.5320146719561976,6.152146088867941,1.027188777923584,-2.1826804319964808
1708433424.603074,-2.156210422515869,-1.33969338357959,-2.5320072809802454,6.15202151516036,1.0271812677383423,-2.1825011412249964
1708433424.605078,-2.1561765670776367,-1.3396486204913636,-2.5319607893573206,6.151951420098104,1.0271437168121338,-2.1822970549212855
1708433424.607067,-2.1561245918273926,-1.3396653246930619,-2.531933848057882,6.151855337410726,1.0271196365356445,-2.1820433775531214
1708433424.6090486,-2.1561131477355957,-1.3396576207927247,-2.5319817701922815,6.151714312821188,1.0271077156066895,-2.1818440596209925
1708433424.6110697,-2.156092882156372,-1.3396427792361756,-2.531921927128927,6.151599275856771,1.0271090269088745,-2.181598965321676
1708433424.6130817,-2.1560823917388916,-1.3396218580058594,-2.5319023768054407,6.151477801590719,1.027080774307251,-2.181373898183004
1708433424.6150372,-2.1559839248657227,-1.3395814013532181,-2.531921927128927,6.151351916580953,1.0270640850067139,-2.181054417287008
1708433424.6170719,-2.156006336212158,-1.339588777428009,-2.531855885182516,6.151203858643331,1.0270354747772217,-2.180770222340719
1708433424.6190321,-2.1559383869171143,-1.3395079982331772,-2.5318904558764856,6.151065695076742,1.0270085334777832,-2.1804941336261194
1708433424.621043,-2.1559181213378906,-1.3395006221583863,-2.5318573156939905,6.1509073851402185,1.0270159244537354,-2.1801655928241175
1708433424.6231248,-2.1558990478515625,-1.3394887012294312,-2.5318573156939905,6.150771128922262,1.0270129442214966,-2.1799028555499476
1708433424.6250281,-2.155818223953247,-1.3394813400558014,-2.5318573156939905,6.150610673218527,1.0269677639007568,-2.1795738379107874
1708433424.6270454,-2.155795097351074,-1.3395200085690995,-2.5318453947650355,6.150525319367208,1.0269603729248047,-2.179187599812643
1708433424.6290112,-2.155693769454956,-1.3395080876401444,-2.5318287054644983,6.150384533196249,1.0268900394439697,-2.1788395086871546
1708433424.6310093,-2.1556577682495117,-1.3394620430520554,-2.531825844441549,6.150207745819845,1.0269546508789062,-2.1784918943988245
1708433424.633021,-2.1556434631347656,-1.3394140315106888,-2.531839434300558,6.1501163122947595,1.0268745422363281,-2.1780741850482386
1708433424.635035,-2.155573844909668,-1.3393481832793732,-2.531809393559591,6.149936544686117,1.0268718004226685,-2.177697483693258
1708433424.6370354,-2.1555347442626953,-1.3393481832793732,-2.531789843236105,6.149731623917379,1.0268851518630981,-2.1772144476519983
1708433424.6390288,-2.1554784774780273,-1.3394110214761277,-2.531789843236105,6.149605977326193,1.0268235206604004,-2.1768315474139612
1708433424.6410224,-2.155477285385132,-1.3393467229655762,-2.5317657629596155,6.149396168976583,1.0268235206604004,-2.1763747374164026
1708433424.6430283,-2.155322313308716,-1.3393588823131104,-2.5317731539355677,6.149228560715475,1.026808738708496,-2.1759303251849573
1708433424.6450546,-2.15529203414917,-1.3393303465894242,-2.5317373911487024,6.149105655937948,1.0267964601516724,-2.1754782835589808
1708433424.6470933,-2.1552352905273438,-1.3392988008311768,-2.5317748228656214,6.148942220001974,1.0267020463943481,-2.174988094960348
1708433424.6490524,-2.1551549434661865,-1.339310960178711,-2.531701389943258,6.1487910626228235,1.0267560482025146,-2.1745122114764612
1708433424.6510503,-2.155076265335083,-1.3392422062209626,-2.531739060078756,6.1486068842704675,1.0266988277435303,-2.1740596930133265
1708433424.6530402,-2.1550164222717285,-1.3391852688840409,-2.5317135492907923,6.148434746056356,1.0266838073730469,-2.1735294500934046
1708433424.6550257,-2.1549324989318848,-1.339198650126793,-2.531668488179342,6.1482475874717615,1.0266838073730469,-2.1729772726642054
1708433424.657067,-2.154865264892578,-1.339191274052002,-2.53174335161318,6.148079621582784,1.026615023612976,-2.172523323689596
1708433424.659042,-2.154785633087158,-1.3391138327172776,-2.5316653887378138,6.147822248726644,1.0266358852386475,-2.1719959417926233
1708433424.6610656,-2.154656410217285,-1.3390897524407883,-2.5316370169269007,6.147690403252401,1.026611566543579,-2.171405617390768
1708433424.6630633,-2.1545724868774414,-1.3390912127545853,-2.5316579977618616,6.147483455925741,1.026583194732666,-2.1709159056292933
1708433424.665051,-2.1544883251190186,-1.3390342754176636,-2.5315962473498743,6.147296297341146,1.0265727043151855,-2.1703413168536585
1708433424.6670156,-2.154432535171509,-1.339022771721222,-2.5316551367389124,6.1470597861106775,1.026523232460022,-2.169776264821188
1708433424.6690087,-2.154292583465576,-1.3389792305282135,-2.5316339174853724,6.14684413650588,1.0265244245529175,-2.1692007223712366
1708433424.671024,-2.1542375087738037,-1.3389669817737122,-2.5316506067859095,6.146673309593954,1.026474952697754,-2.1685598532306116
1708433424.673076,-2.1541807651519775,-1.33895659566436,-2.5316923300372522,6.146391498833456,1.0264673233032227,-2.1679046789752405
1708433424.6750326,-2.15407395362854,-1.338923842912056,-2.5316551367389124,6.146229731827535,1.0264345407485962,-2.167243305836813
1708433424.677051,-2.1540188789367676,-1.3388713759234925,-2.531609837208883,6.145948517113485,1.0264434814453125,-2.166589085255758
1708433424.6790285,-2.1538655757904053,-1.3388386082700272,-2.5316594282733362,6.1457403776939294,1.0264030694961548,-2.1658251921283167
1708433424.6810324,-2.153794050216675,-1.338848741059639,-2.5316172281848353,6.145542490273275,1.0264118909835815,-2.165100399647848
1708433424.6830366,-2.153726816177368,-1.3387999397567292,-2.53160530725588,6.14531027057723,1.0263785123825073,-2.164436642323629
1708433424.685015,-2.1536262035369873,-1.3387803149274369,-2.531609837208883,6.145013558655538,1.0263293981552124,-2.163675610219137
1708433424.6870592,-2.1535844802856445,-1.3387144666961213,-2.531588856373922,6.144745814591207,1.026395559310913,-2.162886444722311
1708433424.6890092,-2.153512954711914,-1.3387233775905152,-2.531647268925802,6.144522535591879,1.026375651359558,-2.1621416250811976
1708433424.6910238,-2.1533799171447754,-1.3387368482402344,-2.5315797964679163,6.144242274552145,1.026375651359558,-2.1612823645221155
1708433424.6930492,-2.1532959938049316,-1.3386396926692505,-2.5315964857684534,6.143987643509664,1.0263125896453857,-2.1605141798602503
1708433424.6950183,-2.1531527042388916,-1.3386248660138627,-2.531588856373922,6.143734204560079,1.0263965129852295,-2.159628216420309
1708433424.6970713,-2.1531002521514893,-1.3386054796031495,-2.5316172281848353,6.143445479660787,1.0263457298278809,-2.1587746779071253
1708433424.69906,-2.153000593185425,-1.3385560077479859,-2.53158146539797,6.143211829453268,1.0263875722885132,-2.1578481833087366
1708433424.701043,-2.1529009342193604,-1.3385321658900757,-2.531635109578268,6.142971980362692,1.0263549089431763,-2.156961266194479
1708433424.7030897,-2.152785301208496,-1.3385244768908997,-2.53160530725588,6.142684447556295,1.0263621807098389,-2.155954186116354
1708433424.7050269,-2.152661085128784,-1.3384801161340256,-2.531588856373922,6.142473208695211,1.0264091491699219,-2.15505820909609
1708433424.7070758,-2.152545213699341,-1.3384724122336884,-2.531626288090841,6.142238485604086,1.0263831615447998,-2.1540635267840784
1708433424.709032,-2.1524858474731445,-1.338380054836609,-2.531626288090841,6.142027127533712,1.02644944190979,-2.153090778981344
1708433424.7110605,-2.152374744415283,-1.3384500306895752,-2.531602446232931,6.1416900036628626,1.026444673538208,-2.152085606251852
1708433424.713102,-2.152243137359619,-1.3383318048766633,-2.531626288090841,6.14156590679244,1.0264149904251099,-2.1510756651507776
1708433424.7150183,-2.152134418487549,-1.3383496415666123,-2.5316625277148646,6.141206013947286,1.026444673538208,-2.150061909352438
1708433424.7170284,-2.152005672454834,-1.338306264286377,-2.531635109578268,6.140923487931051,1.0263911485671997,-2.1489856878863733
1708433424.7189996,-2.1518781185150146,-1.338281200533249,-2.531630818043844,6.140616285591879,1.0264238119125366,-2.14793569246401
1708433424.7210505,-2.151761531829834,-1.3381628853133698,-2.5316460768329065,6.140307652741232,1.026416540145874,-2.146874729787008
1708433424.723097,-2.151610851287842,-1.338145138030388,-2.5316670576678675,6.140015232353964,1.0264689922332764,-2.1456788221942347
1708433424.7250202,-2.1515073776245117,-1.3381332171014328,-2.5316534678088587,6.139650451927938,1.0265007019042969,-2.1444547812091272
1708433424.727056,-2.1513633728027344,-1.3381135028651734,-2.5317164103137415,6.139455544739523,1.026470422744751,-2.143280331288473
1708433424.7290206,-2.151232957839966,-1.3380748343518754,-2.531693998967306,6.139089691429891,1.0265365839004517,-2.1420210043536585
1708433424.7310553,-2.1510868072509766,-1.33804206669841,-2.531703058873312,6.138823258667745,1.0265276432037354,-2.140811268483297
1708433424.7330873,-2.1509945392608643,-1.3379940551570435,-2.5316849390613,6.138449179917135,1.0265635251998901,-2.139685932789938
1708433424.735024,-2.1508238315582275,-1.3379344207099457,-2.531696859990255,6.138203489571371,1.0265922546386719,-2.13853627840151
1708433424.737041,-2.150736093521118,-1.3379151088050385,-2.531755510960714,6.137969720154562,1.0266205072402954,-2.137336556111471
1708433424.7390099,-2.15061354637146,-1.3378583800843735,-2.5317447821246546,6.137625562935629,1.0266450643539429,-2.13611871400942
1708433424.7410235,-2.1504898071289062,-1.3378357899240036,-2.531811062489645,6.137389766960897,1.026652216911316,-2.134848419819967
1708433424.743071,-2.1503095626831055,-1.3378075820258637,-2.531802002583639,6.137044417649069,1.0266764163970947,-2.1335623900042933
1708433424.7450233,-2.150231122970581,-1.3377715808204194,-2.531851116810934,6.136753904610433,1.0266838073730469,-2.132165257130758
1708433424.7470665,-2.1500463485717773,-1.3377890449813385,-2.5318332354175013,6.136442172318258,1.0267245769500732,-2.130892578755514
1708433424.7490742,-2.149935007095337,-1.3377041828683396,-2.5318694750415247,6.13617097118453,1.0267605781555176,-2.1296284834491175
1708433424.7510338,-2.149844169616699,-1.3376565885594864,-2.531897846852438,6.135841715126791,1.0268341302871704,-2.1282528082477015
1708433424.7530723,-2.1496880054473877,-1.3375954043916245,-2.531971279774801,6.135581004410543,1.0268748998641968,-2.12685996690859
1708433424.7550263,-2.1495649814605713,-1.3376085770181199,-2.531971279774801,6.135242807656088,1.0268479585647583,-2.125502888356344
1708433424.7570696,-2.1494247913360596,-1.3376098287156601,-2.5319908300982874,6.134984600334921,1.0269334316253662,-2.1241214911090296
1708433424.7590256,-2.1492769718170166,-1.3375161749175568,-2.5319817701922815,6.134685504227438,1.0269722938537598,-2.122730557118551
1708433424.7610548,-2.149181842803955,-1.3374932569316407,-2.532041851674215,6.134369480400839,1.027017593383789,-2.12130576768984
1708433424.763096,-2.149008274078369,-1.3374650490335007,-2.532037321721212,6.134062158852377,1.0270854234695435,-2.119836155568258
1708433424.7650428,-2.1488823890686035,-1.3374499392560502,-2.5320943037616175,6.1337870238120935,1.0271090269088745,-2.118449036275045
1708433424.7670574,-2.148778200149536,-1.3374261868051072,-2.532113854085104,6.133401500969686,1.0271903276443481,-2.1169913450824183
1708433424.7690256,-2.14861798286438,-1.3373782646707078,-2.5321572462665003,6.13316427448348,1.0272668600082397,-2.1154521147357386
1708433424.7710493,-2.148453712463379,-1.3373305809548874,-2.5322023073779505,6.132791149407186,1.0273154973983765,-2.1139076391803187
1708433424.7731013,-2.1483592987060547,-1.3372932386449357,-2.5322306791888636,6.132496225624838,1.027387261390686,-2.1124022642718714
1708433424.7750206,-2.148226499557495,-1.3372485053590317,-2.532245937977926,6.132180797844686,1.0274670124053955,-2.1108272711383265
1708433424.777071,-2.1481006145477295,-1.3372913759997864,-2.5323355833636683,6.131889807968893,1.0275347232818604,-2.10931903520693
1708433424.7790422,-2.1479430198669434,-1.3372508895448227,-2.5323687235461634,6.131651270180502,1.0276230573654175,-2.107760254536764
1708433424.781008,-2.1478114128112793,-1.3371945184520264,-2.532386843358175,6.131329524308004,1.0277162790298462,-2.1062825361834925
1708433424.7830253,-2.147693634033203,-1.337186725144722,-2.5324364344226282,6.131036269455709,1.0278396606445312,-2.1048110167132776
1708433424.7850225,-2.1475369930267334,-1.3371053051999588,-2.5324302355395716,6.130722749024191,1.027911901473999,-2.103196446095602
1708433424.7870376,-2.1473782062530518,-1.3370859038880845,-2.532523218785421,6.13040982463912,1.0280605554580688,-2.101661507283346
1708433424.7890108,-2.147287130355835,-1.337094546561577,-2.5325215498553675,6.130123722344198,1.0281357765197754,-2.1001256147967737
1708433424.7910113,-2.1470844745635986,-1.3370704662850876,-2.532590691243307,6.1298855421836755,1.0282649993896484,-2.0986297766314905
1708433424.7930205,-2.1469991207122803,-1.3370181036046525,-2.5326297918902796,6.129582273751058,1.0283867120742798,-2.0969908873187464
1708433424.7950206,-2.1467885971069336,-1.3370240342668076,-2.532682005559103,6.129319894104757,1.0284980535507202,-2.0954540411578577
1708433424.797061,-2.1466994285583496,-1.337016151552536,-2.5327840487109583,6.129023301392355,1.0285565853118896,-2.093750301991598
1708433424.7991967,-2.146543264389038,-1.3369213205626984,-2.5328155199633997,6.128707277565756,1.0287188291549683,-2.0920594374286097
1708433424.8010626,-2.1463794708251953,-1.336901844745018,-2.5328801313983362,6.128386246948995,1.0288299322128296,-2.0903895537005823
1708433424.8030453,-2.1462392807006836,-1.3369106513312836,-2.532909933720724,6.128114926605978,1.0289592742919922,-2.0886691252337855
1708433424.8050928,-2.1461052894592285,-1.3368618053248902,-2.5330644289599817,6.127929794579305,1.0290416479110718,-2.0870068709002894
1708433424.8070428,-2.1459600925445557,-1.336867333655693,-2.5331454912768763,6.127608167916097,1.0292035341262817,-2.0853527227984827
1708433424.8090405,-2.1458284854888916,-1.3368147325566788,-2.533175532017843,6.127369868546285,1.0292906761169434,-2.08353835741152
1708433424.8110435,-2.145681142807007,-1.3367451888373871,-2.5332489649402063,6.127045380860128,1.0294843912124634,-2.0818379561053675
1708433424.813077,-2.1454951763153076,-1.3367880147746583,-2.533299986516134,6.126765358238973,1.0295062065124512,-2.0799782911883753
1708433424.8150804,-2.1454098224639893,-1.3367181879333039,-2.5333717505084437,6.126534330635824,1.0297126770019531,-2.078158203755514
1708433424.8170993,-2.145258903503418,-1.336752013569214,-2.5334304014789026,6.126219379692831,1.0298362970352173,-2.0764477888690394
1708433424.8190382,-2.145098924636841,-1.3367234778455277,-2.5335474650012415,6.125896203308859,1.0299433469772339,-2.07473594347109
1708433424.821022,-2.144972085952759,-1.3366628003171463,-2.533607546483175,6.125686633377828,1.0301413536071777,-2.0729950110064905
1708433424.8231468,-2.144805908203125,-1.3366354417851944,-2.533686701451437,6.12537847736434,1.0302526950836182,-2.071207348500387
1708433424.8250062,-2.14469838142395,-1.3366564226201554,-2.5338128248797815,6.125130998879232,1.0304298400878906,-2.0694926420794886
1708433424.8270257,-2.1444921493530273,-1.3366235208562394,-2.5338295141803187,6.1248241541679285,1.0305771827697754,-2.067725483571188
1708433424.829004,-2.144352436065674,-1.3366116744330903,-2.533947769795553,6.124511348992147,1.03076171875,-2.065934960042135
1708433424.8309965,-2.1442067623138428,-1.3366204065135499,-2.534055534993307,6.124277341156759,1.0309393405914307,-2.064141575490133
1708433424.8330483,-2.144066572189331,-1.3366422218135376,-2.5341184774981897,6.1240064976509,1.0310670137405396,-2.0622547308551233
1708433424.8350086,-2.1438820362091064,-1.3366172176650544,-2.534215037022726,6.123792159348287,1.0312846899032593,-2.0603955427752894
1708433424.837071,-2.14378023147583,-1.3365486425212403,-2.5342777411090296,6.12350760677413,1.0313829183578491,-2.0585439840899866
1708433424.8390307,-2.143606424331665,-1.33649534106765,-2.5343948046313685,6.123192894249716,1.0315762758255005,-2.056652847920553
1708433424.8410444,-2.143474817276001,-1.3365486425212403,-2.5345147291766565,6.122996675759115,1.0317448377609253,-2.0548303763019007
1708433424.843052,-2.143364667892456,-1.3365278852036973,-2.5346630255328577,6.122719990998068,1.03189218044281,-2.0529325644122522
1708433424.845041,-2.1431894302368164,-1.3365042072585602,-2.534743849431173,6.122401940613546,1.032041072845459,-2.05094558397402
1708433424.8470547,-2.143073320388794,-1.3365617257407685,-2.5348356405841272,6.1222137091453455,1.0322375297546387,-2.048985783253805
1708433424.8490748,-2.142909526824951,-1.336512879734375,-2.534915033970968,6.121953594475546,1.032410740852356,-2.0469945112811487
1708433424.8510642,-2.142773389816284,-1.3365378987840195,-2.535013977681295,6.121709811478414,1.032611608505249,-2.045049492512838
1708433424.8530478,-2.1426706314086914,-1.336497725253441,-2.535180393849508,6.121487009316244,1.0327280759811401,-2.043208901082174
1708433424.8550506,-2.142482042312622,-1.3364355874112626,-2.535250727330343,6.121191131859579,1.032955288887024,-2.0413153807269495
1708433424.8570464,-2.1423423290252686,-1.336460829978325,-2.535309378300802,6.120949017792501,1.0331717729568481,-2.0394514242755335
1708433424.859048,-2.1421658992767334,-1.3365093630603333,-2.535468403493063,6.1206514714057825,1.0333552360534668,-2.0376437346087855
1708433424.861055,-2.1420791149139404,-1.3364564639380951,-2.5355432669269007,6.120418536454,1.0335651636123657,-2.0357793013202112
1708433424.8631318,-2.1419360637664795,-1.3364977699569245,-2.5356300512896937,6.120183455735006,1.0337530374526978,-2.033883873616354
1708433424.8650625,-2.1417922973632812,-1.3364530366710206,-2.535734001790182,6.1199684021766565,1.0339950323104858,-2.031895939503805
1708433424.8670526,-2.141648054122925,-1.3364814829877396,-2.535895888005392,6.1197008965309045,1.0341832637786865,-2.029909912739889
1708433424.8690393,-2.14150071144104,-1.3365216118148346,-2.53601581255068,6.119458544045248,1.034408450126648,-2.0279577414142054
1708433424.8710115,-2.141312837600708,-1.3364977699569245,-2.536069695149557,6.1191762564475916,1.0345872640609741,-2.0259721914874476
1708433424.8730996,-2.1412057876586914,-1.3364564639380951,-2.536185328160421,6.118949162750997,1.0347752571105957,-2.0239856878863733
1708433424.875018,-2.141029119491577,-1.33653478444133,-2.536306444798605,6.118651497154989,1.0350083112716675,-2.02195388475527
1708433424.877034,-2.1408958435058594,-1.3365541708520432,-2.53638464609255,6.11838053443984,1.0351793766021729,-2.0198987166034144
1708433424.8790286,-2.1407463550567627,-1.336489037876465,-2.536572043095724,6.118193971901693,1.035395860671997,-2.0178616682635706
1708433424.8810062,-2.1406025886535645,-1.336444230084755,-2.536593023930685,6.117947447090902,1.0356253385543823,-2.0158212820636194
1708433424.8830414,-2.1404426097869873,-1.3364847612432023,-2.5367758909808558,6.117743956833639,1.035797119140625,-2.013818089162008
1708433424.8850062,-2.140287399291992,-1.336513729100563,-2.536862913762228,6.1174975512321375,1.036038875579834,-2.0119407812701624
1708433424.8870294,-2.1402010917663574,-1.3364847612432023,-2.5369964281665247,6.117279040604391,1.036243200302124,-2.0100067297564905
1708433424.889031,-2.1399879455566406,-1.3364847612432023,-2.537114922200338,6.117084967881002,1.0364058017730713,-2.0080211798297327
1708433424.891005,-2.1398823261260986,-1.3364934039166947,-2.5371974150287073,6.116791832237997,1.0366028547286987,-2.0061524550067347
1708433424.893024,-2.13968563079834,-1.3365093630603333,-2.5373805204974573,6.1166350720222376,1.0368101596832275,-2.004270378743307
1708433424.8950002,-2.139582633972168,-1.336489037876465,-2.537450615559713,6.116374838143148,1.0369861125946045,-2.002242390309469
1708433424.8970418,-2.1393704414367676,-1.3364847612432023,-2.5376444498645228,6.1161385653312585,1.0371993780136108,-2.00038987794985
1708433424.89908,-2.139214038848877,-1.3365248006633301,-2.5376907030688685,6.115920293122091,1.0374399423599243,-1.9983742872821253
1708433424.9010441,-2.139030694961548,-1.3364311319640656,-2.537797276173727,6.115674960404196,1.037677526473999,-1.9964383284198206
1708433424.9030647,-2.138916015625,-1.3365336072495957,-2.537938181553976,6.115419494896688,1.0379029512405396,-1.9944670836078089
1708433424.905072,-2.1387929916381836,-1.336496264939644,-2.5380495230304163,6.115213262825765,1.038074254989624,-1.9924901167498987
1708433424.9070492,-2.1385979652404785,-1.3365093630603333,-2.538149897252218,6.114936816483297,1.0382858514785767,-1.9905732313739222
1708433424.9090433,-2.138363838195801,-1.336487592463829,-2.538323704396383,6.114706742554464,1.0385277271270752,-1.9884112516986292
1708433424.9110432,-2.1382453441619873,-1.3364477467587967,-2.5384512583362024,6.114500391274252,1.038735270500183,-1.9864071051227015
1708433424.9130538,-2.1380858421325684,-1.3365136545947571,-2.5385573546039026,6.114276039391317,1.0389729738235474,-1.9843924681292933
1708433424.915049,-2.137938976287842,-1.3365216118148346,-2.5386624971972864,6.114060628205099,1.0392104387283325,-1.982446018849508
1708433424.917047,-2.137803554534912,-1.3364759099534531,-2.5387795607196253,6.113859283715048,1.0394055843353271,-1.98045522371401
1708433424.919034,-2.137604236602783,-1.3364803057960053,-2.5389278570758265,6.113610732346334,1.039629578590393,-1.978523079548971
1708433424.9210167,-2.1373941898345947,-1.3365215969136734,-2.5390012899981897,6.1133519289787195,1.0398056507110596,-1.9766195456134241
1708433424.9230673,-2.137223720550537,-1.336541087632515,-2.5391467253314417,6.11311291435317,1.0400187969207764,-1.9746978918658655
1708433424.9250526,-2.137057065963745,-1.3365117025426407,-2.539262358342306,6.112894642144003,1.040181040763855,-1.9728253523456019
1708433424.9270349,-2.1368768215179443,-1.3365529638579865,-2.539452854787008,6.112576472550192,1.0403976440429688,-1.9708297888385218
1708433424.92903,-2.136685848236084,-1.3365279001048584,-2.539551560078756,6.112350570946493,1.040602207183838,-1.9689191023456019
1708433424.9310794,-2.136505126953125,-1.3365520995906373,-2.5396748224841517,6.112094986229696,1.0407898426055908,-1.9669302145587366
1708433424.933058,-2.136315107345581,-1.3365683865598221,-2.5397749582873743,6.111885893135824,1.0409897565841675,-1.9650023619281214
1708433424.9350405,-2.1361513137817383,-1.3365683269551774,-2.539877239857809,6.111574876099386,1.0412405729293823,-1.9630702177630823
1708433424.9370358,-2.1359848976135254,-1.3366204363158722,-2.539997164403097,6.111416685372152,1.0414526462554932,-1.961132828389303
1708433424.9390442,-2.1358211040496826,-1.3365954023650666,-2.54010516801943,6.11113070228652,1.0416854619979858,-1.9591439406024378
1708433424.9410257,-2.135640859603882,-1.3366902631572266,-2.540274445210592,6.110936748772421,1.0419138669967651,-1.957020107899801
1708433424.9430442,-2.135427951812744,-1.3366639924100419,-2.540410820637838,6.110636102944174,1.0420689582824707,-1.9550007025348108
1708433424.9450142,-2.135185480117798,-1.3366639626077195,-2.5405026117907923,6.110437261849203,1.0422611236572266,-1.9530466238604944
1708433424.9470525,-2.135061502456665,-1.3366846156171341,-2.54061466852297,6.1101112244422815,1.0425275564193726,-1.9510791937457483
1708433424.9490576,-2.134786605834961,-1.3366794002107163,-2.5407379309283655,6.109890091210165,1.0427227020263672,-1.9492104689227503
1708433424.9510474,-2.1345949172973633,-1.3367279481938859,-2.540793482457296,6.109613406449117,1.0429030656814575,-1.94725209871401
1708433424.953046,-2.134377956390381,-1.3367608201554795,-2.540928665791647,6.109302508621969,1.0430623292922974,-1.9453790823565882
1708433424.955028,-2.1341793537139893,-1.336775780921318,-2.5410857836352747,6.1090948460395715,1.0432500839233398,-1.9434340635882776
1708433424.9570472,-2.133951187133789,-1.3368291121772309,-2.541226927434103,6.108787047653951,1.0434757471084595,-1.9415939489947718
1708433424.9590228,-2.133744239807129,-1.3367999357036133,-2.5413511435138147,6.108462798386373,1.043722152709961,-1.9396308104144495
1708433424.9610286,-2.1335086822509766,-1.336856485610344,-2.5414305369006556,6.108133542328634,1.04390549659729,-1.9376876989947718
1708433424.963092,-2.1332902908325195,-1.3368445348790665,-2.541549269353048,6.107848274498739,1.044118881225586,-1.9357793966876429
1708433424.9650776,-2.133021354675293,-1.3368879717639466,-2.5416584650622767,6.1075371382530115,1.0442858934402466,-1.9338238875018519
1708433424.9670565,-2.1328353881835938,-1.336895541553833,-2.541769806538717,6.107223379402914,1.0444660186767578,-1.9318535963641565
1708433424.9690182,-2.132566452026367,-1.3369847995093842,-2.541868511830465,6.1068917391593835,1.0446826219558716,-1.9299491087542933
1708433424.9710257,-2.1323583126068115,-1.3369313043406983,-2.5420334974872034,6.106599795609274,1.0448840856552124,-1.9280379454242151
1708433424.9730494,-2.1321020126342773,-1.3369924140027543,-2.5421507994281214,6.1063129780586145,1.0450477600097656,-1.9260175863849085
1708433424.9750183,-2.131840944290161,-1.3369835925153275,-2.5422495047198694,6.105990159302511,1.0452239513397217,-1.9240272680865687
1708433424.9770484,-2.1315982341766357,-1.336974860434868,-2.5423126856433313,6.105684029846945,1.0453753471374512,-1.9220712820636194
1708433424.9790375,-2.131364345550537,-1.3370760840228577,-2.5424323717700403,6.105397927552023,1.0455302000045776,-1.920086685811178
1708433424.9810205,-2.1310477256774902,-1.3370835197022934,-2.5425480047809046,6.1050217030342,1.0457526445388794,-1.9181693235980433
1708433424.9830325,-2.1308016777038574,-1.3371239763549347,-2.5426891485797327,6.10472725608901,1.0458955764770508,-1.9163168112384241
1708433424.9850323,-2.1305203437805176,-1.337146596317627,-2.5428672472583216,6.1044219610984705,1.04611337184906,-1.914501969014303
1708433424.9870403,-2.1302297115325928,-1.3371790808490296,-2.5429049173938196,6.10406659820632,1.0462652444839478,-1.9126737753497522
1708433424.989,-2.1299757957458496,-1.3372315478375931,-2.543041531239645,6.103738653450765,1.0464258193969727,-1.9108622709857386
1708433424.9910028,-2.1297125816345215,-1.3372509491494675,-2.543135944996969,6.103403913765707,1.0465610027313232,-1.9090898672686976
1708433424.993032,-2.1294267177581787,-1.337249757056572,-2.543264929448263,6.103073704033651,1.0467249155044556,-1.9072006384478968
1708433424.9950304,-2.1291656494140625,-1.337348074918129,-2.54342228571047,6.102722394257345,1.0469309091567993,-1.9054248968707483
1708433424.9970613,-2.1288135051727295,-1.3373627972653885,-2.543542210255758,6.102372157364645,1.0470255613327026,-1.9035752455340784
1708433424.9990275,-2.128570318222046,-1.3374226850322266,-2.543558899556295,6.101923811226644,1.0471817255020142,-1.9017236868487757
1708433425.0010355,-2.1282007694244385,-1.3374248904040833,-2.543696467076437,6.101523506432333,1.047354817390442,-1.8998454252826136
1708433425.0030518,-2.1279520988464355,-1.3375273060849686,-2.5438738504992884,6.101142275124349,1.0474822521209717,-1.8980563322650355
1708433425.005089,-2.1276297569274902,-1.337526113992073,-2.543945852910177,6.10075210311965,1.0476475954055786,-1.896146599446432
1708433425.0070932,-2.127340793609619,-1.3375824701837082,-2.544058148060934,6.100360381394186,1.0477871894836426,-1.8942330519305628
1708433425.009089,-2.1270015239715576,-1.3376546663096924,-2.544169251118795,6.100034343987264,1.0479767322540283,-1.892346207295553
1708433425.01106,-2.126710891723633,-1.3376577210477372,-2.544232193623678,6.09960554817275,1.048145055770874,-1.8905609289752405
1708433425.0130694,-2.1263790130615234,-1.3377129149487992,-2.544377390538351,6.099239218025961,1.048322319984436,-1.8887575308429163
1708433425.0150867,-2.1260600090026855,-1.3377160888961335,-2.544525925313131,6.098899948387899,1.0484817028045654,-1.8870471159564417
1708433425.0170605,-2.1257128715515137,-1.3378457438996811,-2.544600788746969,6.09841405132369,1.0486408472061157,-1.885303799306051
1708433425.0190167,-2.1254029273986816,-1.3378878396800538,-2.5446999708758753,6.098012077599325,1.048782229423523,-1.8835304419146937
1708433425.021045,-2.125005006790161,-1.3379313063672562,-2.544812266026632,6.0975485918815515,1.0489579439163208,-1.8818624655352991
1708433425.0230725,-2.1246535778045654,-1.3380209070495148,-2.544929329548971,6.097138988762655,1.0490739345550537,-1.8801582495318812
1708433425.0250664,-2.1243019104003906,-1.3381492656520386,-2.5450401941882532,6.09668909290389,1.0492225885391235,-1.8784945646869105
1708433425.027047,-2.12398362159729,-1.338173435335495,-2.545140806828634,6.096310961037435,1.0493080615997314,-1.8767054716693323
1708433425.0290103,-2.1236393451690674,-1.3382194650224228,-2.545260731373922,6.095800030022421,1.0494495630264282,-1.8750665823565882
1708433425.031003,-2.1232070922851562,-1.3382752698710938,-2.545361105595724,6.095327007561483,1.0495365858078003,-1.8732917944537562
1708433425.0330083,-2.1228692531585693,-1.3383961927941819,-2.545453135167257,6.094915139466085,1.049654245376587,-1.8715656439410608
1708433425.0350065,-2.122462034225464,-1.338421494965889,-2.545551840459005,6.094436514168539,1.0497575998306274,-1.8698299566852015
1708433425.0370405,-2.1220829486846924,-1.338572384124138,-2.545685354863302,6.0939252255256555,1.0499062538146973,-1.868124787007467
1708433425.0390072,-2.1216557025909424,-1.3386560541442414,-2.545751396809713,6.093434679299154,1.0499948263168335,-1.8664429823504847
1708433425.0410068,-2.1212127208709717,-1.3386951398900528,-2.545826260243551,6.0929356692130945,1.0501242876052856,-1.8647435347186487
1708433425.0430453,-2.1208224296569824,-1.3387457740357895,-2.54602557817568,6.092425691872396,1.0501545667648315,-1.8629782835589808
1708433425.0449955,-2.120436429977417,-1.3389042180827637,-2.546075169240133,6.0919638750846765,1.0502914190292358,-1.861227814351217
1708433425.0470107,-2.1199934482574463,-1.3389639270356675,-2.546201292668478,6.091421234398641,1.0504082441329956,-1.8596285025226038
1708433425.0489972,-2.119539976119995,-1.339043305521347,-2.546286646519796,6.090888011246481,1.050524353981018,-1.8578828016864222
1708433425.051056,-2.1190969944000244,-1.339064122443535,-2.546433750783102,6.090352523117819,1.0506775379180908,-1.8562834898578089
1708433425.053074,-2.118659496307373,-1.3392314922860642,-2.546536986027853,6.089778411179342,1.050793170928955,-1.8546636740313929
1708433425.0550508,-2.1181716918945312,-1.3392407459071656,-2.546678129826681,6.089222180634298,1.0508923530578613,-1.8530104796039026
1708433425.0570314,-2.117715358734131,-1.339357243185379,-2.546760384236471,6.088702189713278,1.0510170459747314,-1.8514450232135218
1708433425.059043,-2.1172447204589844,-1.3394155663302918,-2.546868149434225,6.088103401451864,1.0511208772659302,-1.8498933951007288
1708433425.0610137,-2.116783380508423,-1.3395932775786896,-2.5469356218921106,6.087554681092062,1.0512245893478394,-1.8483465353595179
1708433425.0630348,-2.116274833679199,-1.339681328540184,-2.547067705784933,6.086891877442159,1.0513328313827515,-1.8468230406390589
1708433425.065074,-2.1157894134521484,-1.3397383850863953,-2.547192398701803,6.086370694428243,1.0514470338821411,-1.8452227751361292
1708433425.0670404,-2.115220069885254,-1.3398669374040146,-2.547267262135641,6.08574007728652,1.051562786102295,-1.8436568419085901
1708433425.0690184,-2.1147549152374268,-1.3399818998626252,-2.547400776539938,6.085107672005453,1.0516290664672852,-1.842025105153219
1708433425.0709994,-2.1142287254333496,-1.3400656592896958,-2.5474968592273157,6.08446894863204,1.051753282546997,-1.8404529730426233
1708433425.0730276,-2.113692045211792,-1.3402391535094758,-2.5475836435901087,6.083872902184286,1.0518300533294678,-1.8388493696795862
1708433425.075055,-2.1131985187530518,-1.340355710392334,-2.5476587454425257,6.083276140480795,1.0518975257873535,-1.8373850027667444
1708433425.0770266,-2.1126270294189453,-1.3404735040715714,-2.54777437845339,6.0825925944145105,1.0519942045211792,-1.8357914129840296
1708433425.0790205,-2.11209774017334,-1.3405486208251496,-2.5479362646686,6.08200370052413,1.0521111488342285,-1.8342025915728968
1708433425.0810041,-2.1115620136260986,-1.3407097619822999,-2.5480485598193567,6.081390964775839,1.0521488189697266,-1.8326810042010706
1708433425.0830321,-2.1109707355499268,-1.340820537214615,-2.548152033482687,6.080667483597555,1.0522629022598267,-1.8311141172992151
1708433425.0850039,-2.1104164123535156,-1.3409714859775086,-2.5483136812793177,6.0799646256263635,1.0523306131362915,-1.8294928709613245
1708433425.0870235,-2.109851121902466,-1.3411686432412644,-2.548384491597311,6.079345929413595,1.0524193048477173,-1.8279627005206507
1708433425.089025,-2.109222650527954,-1.3413077157786866,-2.548507277165548,6.078585254936971,1.0524494647979736,-1.826512638722555
1708433425.091021,-2.108614206314087,-1.341393159036972,-2.548624579106466,6.077972280770101,1.0525834560394287,-1.8250425497638147
1708433425.093049,-2.1080493927001953,-1.3415690672448655,-2.5487564245807093,6.077287661820211,1.0526056289672852,-1.8236516157733362
1708433425.0950096,-2.1074628829956055,-1.341708631520607,-2.5488644281970423,6.076573121338644,1.0526987314224243,-1.8222530523883265
1708433425.0970566,-2.1068482398986816,-1.3419057589820405,-2.548976723347799,6.075805890351095,1.0527546405792236,-1.8207901159869593
1708433425.0990307,-2.1062166690826416,-1.3420160424760361,-2.5490849653827112,6.075044023781576,1.052876353263855,-1.8194273153888147
1708433425.101076,-2.1056137084960938,-1.3422283691218873,-2.5492001215564173,6.074270117073812,1.0529769659042358,-1.8180578390704554
1708433425.103053,-2.105053424835205,-1.3423719120076676,-2.5492542425738733,6.073526012688436,1.0530402660369873,-1.8165839354144495
1708433425.105065,-2.1043436527252197,-1.3424765181592484,-2.5493996779071253,6.072732078820028,1.053149938583374,-1.8152759710894983
1708433425.107049,-2.103774070739746,-1.3427394789508362,-2.549479071293966,6.072008359223165,1.0532172918319702,-1.8138483206378382
1708433425.109046,-2.1031317710876465,-1.3428365153125306,-2.5496037642108362,6.071260320931234,1.0533467531204224,-1.812460724507467
1708433425.111054,-2.102442979812622,-1.3430248212865372,-2.549690548573629,6.070563781052389,1.0533405542373657,-1.8111069838153284
1708433425.1130724,-2.1018335819244385,-1.343216673736908,-2.54984957376589,6.069749343186178,1.0534443855285645,-1.8097699324237269
1708433425.115047,-2.1011953353881836,-1.343392477636673,-2.549964968358175,6.068930852204122,1.0534954071044922,-1.8084338347064417
1708433425.1170897,-2.100492000579834,-1.3435259622386475,-2.550068442021505,6.06817792633132,1.0535063743591309,-1.8070948759662073
1708433425.1190312,-2.0998785495758057,-1.3437961798957367,-2.5501509348498743,6.067472564965048,1.0535917282104492,-1.8057997862445276
1708433425.1210139,-2.0992863178253174,-1.3439430010369797,-2.5502668062793177,6.066664564400472,1.0537103414535522,-1.8044808546649378
1708433425.1230679,-2.098606586456299,-1.3441339892200013,-2.5503535906421106,6.065969097405233,1.0537209510803223,-1.8031910101519983
1708433425.1250465,-2.097949504852295,-1.344280706053116,-2.5505154768573206,6.065159189492025,1.0538172721862793,-1.8018267790423792
1708433425.1270819,-2.0972373485565186,-1.3444766116193314,-2.5506232420550745,6.0643653748329065,1.053869605064392,-1.800558869038717
1708433425.129044,-2.0965139865875244,-1.3446559768966218,-2.5507641474353235,6.063608753472128,1.053953766822815,-1.799227539693014
1708433425.1310718,-2.095853567123413,-1.3448470544866105,-2.550880018864767,6.0628031370933435,1.0539839267730713,-1.7979448477374476
1708433425.1330693,-2.0951569080352783,-1.3449801963618775,-2.551007095967428,6.062053787499227,1.054081678390503,-1.7967246214496058
1708433425.1350746,-2.094512701034546,-1.3452057552388688,-2.551119867955343,6.061209785729208,1.0541507005691528,-1.795525375996725
1708433425.1370604,-2.093775510787964,-1.3453434866717835,-2.5512965361224573,6.060400235443868,1.05415678024292,-1.794276539479391
1708433425.1390467,-2.0930795669555664,-1.3455601346543808,-2.5513580481158655,6.0596128580863855,1.0542467832565308,-1.7931268850909632
1708433425.1410549,-2.092397689819336,-1.3457766038230439,-2.5514827410327356,6.058806526451864,1.0543073415756226,-1.7920296827899378
1708433425.143086,-2.0916926860809326,-1.3459877681783219,-2.551635805760519,6.058067667275228,1.054367184638977,-1.7909100691424769
1708433425.145023,-2.090944528579712,-1.3461370331100007,-2.551796023045675,6.05720733383254,1.0544768571853638,-1.7897499243365687
1708433425.1470287,-2.090221881866455,-1.346386433844902,-2.5519235769854944,6.0563158867652795,1.0544780492782593,-1.7886937300311487
1708433425.149037,-2.089531660079956,-1.3465494972518464,-2.5520716349231165,6.055585253029623,1.0545309782028198,-1.7875660101519983
1708433425.1510365,-2.0887770652770996,-1.3467067939094086,-2.55218750635256,6.054698216706075,1.054595708847046,-1.786496941243307
1708433425.1530914,-2.0880281925201416,-1.346981168990471,-2.552281681691305,6.0539342043693445,1.0546916723251343,-1.7854231039630335
1708433425.1550276,-2.0873286724090576,-1.347113312487938,-2.552455727254049,6.053042161255636,1.0546855926513672,-1.7843897978412073
1708433425.1570687,-2.0866024494171143,-1.3473013800433655,-2.5525668303119105,6.052192914276876,1.0547986030578613,-1.7833040396319788
1708433425.1590369,-2.0857951641082764,-1.3475988370231171,-2.5527361075030726,6.051287162094869,1.054900884628296,-1.782262150441305
1708433425.1610413,-2.0849835872650146,-1.347826049929001,-2.552835289631979,6.050408470421591,1.0549064874649048,-1.7811921278582972
1708433425.1630447,-2.084221124649048,-1.3480038356832047,-2.552958075200216,6.049565779953756,1.054957628250122,-1.780118767415182
1708433425.1650362,-2.083451986312866,-1.3481906068376084,-2.5531352202044886,6.048768389015951,1.0550719499588013,-1.7790887991534632
1708433425.167095,-2.0827016830444336,-1.3484491270831604,-2.5532670656787317,6.047906386643209,1.0551276206970215,-1.7780855337726038
1708433425.1690254,-2.081998348236084,-1.3487436485341568,-2.55334979692568,6.0471242544944666,1.0551995038986206,-1.7770164648639124
1708433425.1710515,-2.081171989440918,-1.3489243698171158,-2.5535135904895228,6.046312320023336,1.0552476644515991,-1.7760894934283655
1708433425.1730516,-2.0803937911987305,-1.3492170584252854,-2.5536575953113,6.045429575234213,1.0552961826324463,-1.7750900427447718
1708433425.1750119,-2.079587459564209,-1.3494713020375748,-2.553826634083883,6.044531810074606,1.0553560256958008,-1.7741292158709925
1708433425.1770532,-2.0787854194641113,-1.349695847635605,-2.5539172331439417,6.043618786125936,1.055411458015442,-1.7731640974627894
1708433425.1790419,-2.0779683589935303,-1.3499823820642014,-2.554056946431295,6.042736518173971,1.0554718971252441,-1.7721903959857386
1708433425.181023,-2.0771944522857666,-1.3501887929490586,-2.554230038319723,6.0418752310569666,1.0555393695831299,-1.7712276617633265
1708433425.1830711,-2.076359987258911,-1.3504159909537812,-2.5543978849994105,6.041001426964559,1.0556342601776123,-1.7703154722796839
1708433425.1850193,-2.0755250453948975,-1.3507238638452073,-2.5545299688922327,6.040082800179281,1.055664300918579,-1.7694156805621546
1708433425.187061,-2.074742555618286,-1.3510080736926575,-2.55469781557192,6.0392377255256555,1.0557575225830078,-1.768477741871969
1708433425.1890683,-2.073991537094116,-1.3512289089015503,-2.5548136870013636,6.0383949158485315,1.0558249950408936,-1.7675188223468226
1708433425.1910367,-2.0730514526367188,-1.3515073967031022,-2.5549901167498987,6.037434208184042,1.055942177772522,-1.7666953245746058
1708433425.1930518,-2.072230100631714,-1.3518701803735276,-2.5551298300372522,6.036571371346273,1.05596923828125,-1.7658208052264612
1708433425.195037,-2.0713798999786377,-1.352127344613411,-2.555281464253561,6.035686957627096,1.0560415983200073,-1.7650201956378382
1708433425.1970801,-2.0705907344818115,-1.3524186176112671,-2.555457894002096,6.034804093628683,1.0561554431915283,-1.764181915913717
1708433425.1990397,-2.069746255874634,-1.3526893866113205,-2.555584732686178,6.033929931908407,1.0561692714691162,-1.7634337584124964
1708433425.2010899,-2.0688748359680176,-1.3529839229634781,-2.5557287375079554,6.03308533409194,1.0562502145767212,-1.7626941839801233
1708433425.2030492,-2.0680654048919678,-1.353275091653206,-2.5559216181384485,6.032204973488607,1.0562983751296997,-1.7618587652789515
1708433425.2050345,-2.067185163497925,-1.3536190700582047,-2.55607778230776,6.031350600510397,1.0563703775405884,-1.7611706892596644
1708433425.207042,-2.066324234008789,-1.353847787981369,-2.5562370459186,6.030446040421285,1.0564517974853516,-1.7604053656207483
1708433425.2090204,-2.065383195877075,-1.3542617571404953,-2.5564587751971644,6.029491412430563,1.0564653873443604,-1.7596729437457483
1708433425.2110505,-2.064544200897217,-1.354530931716301,-2.5565813223468226,6.028570878296652,1.0565627813339233,-1.7589638868915003
1708433425.2130342,-2.063641309738159,-1.3548344534686585,-2.556713406239645,6.027689683228292,1.0566017627716064,-1.7582390944110315
1708433425.215061,-2.0627269744873047,-1.355164648299553,-2.5568934122668665,6.0267525790031335,1.0566366910934448,-1.7575085798846644
1708433425.2170308,-2.061833381652832,-1.355529100900032,-2.5570862928973597,6.02590428569869,1.056750774383545,-1.7568495909320276
1708433425.2190037,-2.0609426498413086,-1.355786607866623,-2.5572498480426233,6.0249578831489465,1.0568439960479736,-1.7562039534198206
1708433425.220999,-2.0600199699401855,-1.3561424028924485,-2.55738073984255,6.024062382965841,1.0568543672561646,-1.755449120198385
1708433425.2230482,-2.0591158866882324,-1.3564812403968354,-2.5576136747943323,6.023094880371847,1.0569190979003906,-1.7548912207232874
1708433425.2250984,-2.0581657886505127,-1.3567817223123093,-2.5577569643603724,6.0221595642860315,1.0570690631866455,-1.7542131582843226
1708433425.227045,-2.0572643280029297,-1.3571750682643433,-2.5579169432269495,6.021198856621542,1.0570873022079468,-1.7535479704486292
1708433425.2290418,-2.056309223175049,-1.3575300586274643,-2.5581167379962366,6.020219671517172,1.0571670532226562,-1.7529199759112757
1708433425.2310197,-2.0553247928619385,-1.3578710717013855,-2.558317009602682,6.0192391751106165,1.0572123527526855,-1.7522857824908655
1708433425.2330337,-2.054354667663574,-1.3582515728524704,-2.558472458516256,6.018344270973959,1.0573009252548218,-1.7516654173480433
1708433425.2350018,-2.0534110069274902,-1.358544335966446,-2.5586770216571253,6.0174035904701135,1.0573320388793945,-1.7510436216937464
1708433425.237036,-2.0524404048919678,-1.3589849335006257,-2.558840815220968,6.016486513405599,1.0573925971984863,-1.7504881064044397
1708433425.2390082,-2.0514774322509766,-1.3592973065427323,-2.559021059666769,6.015555846482076,1.0574407577514648,-1.7498491446124476
1708433425.241006,-2.050530433654785,-1.3597350430539628,-2.5591800848590296,6.014701235085287,1.0574676990509033,-1.749322239552633
1708433425.2430336,-2.0495104789733887,-1.360040010218956,-2.5593395868884485,6.01376627662734,1.0575203895568848,-1.7487810293780726
1708433425.2449932,-2.0485682487487793,-1.3604031217149277,-2.5595973173724573,6.012826430588522,1.0575515031814575,-1.7482197920428675
1708433425.247063,-2.0476179122924805,-1.3607662332108994,-2.5597081820117396,6.011876094132223,1.0576000213623047,-1.7476595083819788
1708433425.2490237,-2.046619415283203,-1.3611333084157486,-2.5599120298968714,6.010894524842062,1.0576356649398804,-1.7471750418292444
1708433425.2510343,-2.045546054840088,-1.3615126770785828,-2.560035292302267,6.0098925707633875,1.0577006340026855,-1.7466667334186
1708433425.2530596,-2.044581651687622,-1.361889661555626,-2.560345474873678,6.008899676590719,1.0577741861343384,-1.7461822668658655
1708433425.2550547,-2.0435216426849365,-1.3622599703124543,-2.560488526021139,6.007865297585287,1.0578386783599854,-1.7456439177142542
1708433425.2570512,-2.042511463165283,-1.362660215502121,-2.5606444517718714,6.006921279221334,1.0578778982162476,-1.745171848927633
1708433425.2590733,-2.0415403842926025,-1.3630702656558533,-2.5607877413379114,6.005872952729025,1.0579122304916382,-1.7446792761432093
1708433425.2610292,-2.040513038635254,-1.3634706747582932,-2.5609756151782435,6.00495325306014,1.057957649230957,-1.7442753950702112
1708433425.2630465,-2.039483070373535,-1.3637457650950928,-2.561188522969381,6.003930556565084,1.0579817295074463,-1.7437894980060022
1708433425.2650661,-2.038439989089966,-1.364189774995186,-2.56136662164797,6.002966987877645,1.0580703020095825,-1.7433493773089808
1708433425.2670803,-2.0373642444610596,-1.3645796042731781,-2.5615628401385706,6.0019357083137415,1.0580523014068604,-1.742936913167135
1708433425.269043,-2.036271572113037,-1.365031049852707,-2.5617297331439417,6.00092242935256,1.0581259727478027,-1.7424886862384241
1708433425.2710223,-2.035205364227295,-1.3654510241797944,-2.5619214216815394,5.999901282578268,1.0581316947937012,-1.7420547644244593
1708433425.273051,-2.0341315269470215,-1.3657993835261841,-2.5620608965503138,5.998878586083212,1.0581605434417725,-1.7416670958148401
1708433425.275055,-2.03305721282959,-1.3662270468524476,-2.5622990767108362,5.997878420143881,1.0581846237182617,-1.7412298361407679
1708433425.2770298,-2.0319535732269287,-1.366661549811699,-2.562439028416769,5.9968944666679285,1.0582337379455566,-1.7408536116229456
1708433425.2790167,-2.0308828353881836,-1.367081494336464,-2.5625978151904505,5.9957642433936975,1.058220386505127,-1.7404745260821741
1708433425.2810154,-2.029759645462036,-1.367483527665474,-2.562782112752096,5.994810211449423,1.0583033561706543,-1.740040127431051
1708433425.2830794,-2.0286364555358887,-1.3678889882615586,-2.562965218220846,5.9937335131462,1.0582941770553589,-1.7397168318377894
1708433425.2850428,-2.0274975299835205,-1.3683896523765107,-2.5631495157824915,5.992654669075765,1.0582685470581055,-1.7392872015582483
1708433425.2870688,-2.0262985229492188,-1.3688483548215409,-2.563300911580221,5.9915658114250085,1.0582941770553589,-1.7389267126666468
1708433425.2890265,-2.0251407623291016,-1.369232715373375,-2.5635185877429407,5.990370261460104,1.058231234550476,-1.738570515309469
1708433425.291085,-2.02398681640625,-1.3696868282607575,-2.5636311213122767,5.989264118462362,1.0582447052001953,-1.7382424513446253
1708433425.2930162,-2.0228159427642822,-1.3701712054065247,-2.563819948826925,5.98820577838973,1.0582374334335327,-1.7379229704486292
1708433425.2950199,-2.0216193199157715,-1.3705400687507172,-2.5639925638781946,5.9870279906089685,1.0582040548324585,-1.7375806013690394
1708433425.297057,-2.020428419113159,-1.3710171592286606,-2.56417686143984,5.985976087837972,1.0581876039505005,-1.7372530142413538
1708433425.2990115,-2.019167900085449,-1.371442974810936,-2.5642908255206507,5.984797584801473,1.0581605434417725,-1.736934010182516
1708433425.3011231,-2.017967939376831,-1.3718512815288086,-2.564479653035299,5.983544933586874,1.0581483840942383,-1.7365801970111292
1708433425.3030488,-2.0166847705841064,-1.3722906124642869,-2.5646310488330286,5.982392179756918,1.0581574440002441,-1.736312214528219
1708433425.3050363,-2.0153822898864746,-1.372712181215622,-2.564841334019796,5.981100070267477,1.0581332445144653,-1.7359846274005335
1708433425.3071146,-2.014141798019409,-1.3732201618007203,-2.5650134722339075,5.979922520905294,1.0580716133117676,-1.7357361952411097
1708433425.309045,-2.0128307342529297,-1.3736988019994278,-2.5651307741748255,5.978702413826742,1.0580973625183105,-1.7354314962970179
1708433425.3110604,-2.0115339756011963,-1.3740806144526978,-2.5653210322009485,5.977467167168417,1.0580732822418213,-1.7351425329791468
1708433425.3130836,-2.010215997695923,-1.374523551469185,-2.5655174891101282,5.976265060692587,1.057990550994873,-1.734858814870016
1708433425.3150554,-2.00889253616333,-1.3749984514764328,-2.5656569639789026,5.975002872734823,1.0580086708068848,-1.7345736662494105
1708433425.3171482,-2.007577419281006,-1.3754832458547135,-2.565813128148214,5.973701345711508,1.0579065084457397,-1.734314266835348
1708433425.3190432,-2.006218910217285,-1.375868172650673,-2.5659526030169886,5.972370612412252,1.0578508377075195,-1.734000031148092
1708433425.3210552,-2.0048725605010986,-1.3763561707786103,-2.566115919743673,5.971055972367086,1.0577818155288696,-1.7337897459613245
1708433425.323045,-2.003450393676758,-1.3768202823451539,-2.5662599245654505,5.9696950791175745,1.0577834844589233,-1.733492676411764
1708433425.3250933,-2.002037525177002,-1.3772425663522263,-2.566399399434225,5.968450653343954,1.0577173233032227,-1.7333381811725062
1708433425.3270895,-2.0007002353668213,-1.377705143099167,-2.566564146672384,5.967155802040853,1.057715654373169,-1.733027760182516
1708433425.3290622,-1.999281883239746,-1.3781857949546357,-2.5667157808886927,5.965853440552511,1.0576057434082031,-1.7328441778766077
1708433425.3310595,-1.9978387355804443,-1.3786005091718216,-2.566805664693014,5.964454400330343,1.057582139968872,-1.7325871626483362
1708433425.3330822,-1.99641752243042,-1.3790626686862488,-2.566970411931173,5.963166582375326,1.0575307607650757,-1.7323392073260706
1708433425.3350668,-1.9949268102645874,-1.3795482230237504,-2.567066494618551,5.961729275971212,1.0574091672897339,-1.7320693174945276
1708433425.3371243,-1.993505597114563,-1.3799948406270524,-2.5672391096698206,5.960218059807577,1.0573217868804932,-1.731800381337301
1708433425.3390524,-1.9919378757476807,-1.3803882908872147,-2.5673633257495325,5.958724605828085,1.0572303533554077,-1.731598202382223
1708433425.3410442,-1.9904601573944092,-1.380872131591179,-2.567490879689352,5.957297909050741,1.0571085214614868,-1.7313697973834437
1708433425.3430648,-1.988968014717102,-1.3813465696624299,-2.5675910154925745,5.955762374192037,1.0569217205047607,-1.731140438710348
1708433425.3450336,-1.987418293952942,-1.3818124544671555,-2.567730967198507,5.954254019051351,1.056847095489502,-1.7309249083148401
1708433425.3470695,-1.9858964681625366,-1.3822675955346604,-2.567801300679342,5.952855098038473,1.0567069053649902,-1.7306879202472132
1708433425.3490264,-1.9844155311584473,-1.3826646518758317,-2.567942206059591,5.951423871308126,1.0565826892852783,-1.7304914633380335
1708433425.3510704,-1.98289954662323,-1.3830825996449967,-2.568054978047506,5.949974405556478,1.056433916091919,-1.7302716414081019
1708433425.3531547,-1.9813694953918457,-1.3836497080377121,-2.568179194127218,5.948417174607076,1.0563507080078125,-1.7300756613360804
1708433425.35507,-1.9798166751861572,-1.3840467643788834,-2.56828743616213,5.946900117188253,1.056205153465271,-1.729858700429098
1708433425.3570633,-1.9782168865203857,-1.3844896268895646,-2.568420712147848,5.945278990059652,1.0561105012893677,-1.729621712361471
1708433425.3590412,-1.9766274690628052,-1.3849467200091858,-2.568458382283346,5.943708288460531,1.0559122562408447,-1.7294381300555628
1708433425.3610616,-1.9750423431396484,-1.3853939485600968,-2.568561855946676,5.942102420120992,1.0557557344436646,-1.7292049566852015
1708433425.363091,-1.9734618663787842,-1.3857836437276383,-2.5686667601214808,5.940458524018087,1.0556373596191406,-1.7289918104754847
1708433425.3650284,-1.9717981815338135,-1.3862087738564988,-2.5687626043902796,5.938865053444662,1.0554929971694946,-1.7288454214679163
1708433425.3670635,-1.970241665840149,-1.3866608452847977,-2.5688419977771204,5.937300669937887,1.0553244352340698,-1.7286084334002894
1708433425.369065,-1.9686702489852905,-1.38710409522567,-2.5689378420459192,5.935783612519064,1.0551215410232544,-1.7283785978900355
1708433425.371085,-1.9670528173446655,-1.3875371229699631,-2.569038693104879,5.934093344002523,1.0549908876419067,-1.7282441298114222
1708433425.3730292,-1.965446949005127,-1.387942911391594,-2.569097344075338,5.932511436730184,1.054822564125061,-1.7280190626727503
1708433425.3750286,-1.9637724161148071,-1.3884083789638062,-2.5691946188556116,5.93084596374587,1.0546674728393555,-1.727823559437887
1708433425.3770435,-1.9621338844299316,-1.3887647253325959,-2.5692411104785364,5.929155814438619,1.0544826984405518,-1.7275570074664515
1708433425.3790388,-1.9604240655899048,-1.3892044436982651,-2.5693326632129114,5.92739628532485,1.054244041442871,-1.727410618458883
1708433425.381027,-1.9587372541427612,-1.38963636875663,-2.569434467946188,5.925603854447164,1.0541298389434814,-1.727189842854635
1708433425.3830323,-1.956985354423523,-1.3900807362845917,-2.5694571177112024,5.9239293215568445,1.0539283752441406,-1.7270258108722132
1708433425.3850145,-1.9553183317184448,-1.3904507172158738,-2.569554392491476,5.922275411873617,1.0537523031234741,-1.72683030763735
1708433425.3870327,-1.953603982925415,-1.390902803545334,-2.569573942814962,5.9205607054527185,1.053529977798462,-1.7266200224505823
1708433425.3890107,-1.951924443244934,-1.3912413728288193,-2.569603983555929,5.918847429543295,1.053346872329712,-1.7264860312091272
1708433425.3910263,-1.950199007987976,-1.3916563403657456,-2.5696983973132532,5.917101371079244,1.0531830787658691,-1.7262323538409632
1708433425.3930302,-1.948386311531067,-1.3920185279897233,-2.5697417894946497,5.915309893875875,1.0530116558074951,-1.7260358969317835
1708433425.3950615,-1.9465587139129639,-1.3923853945783158,-2.5697899500476282,5.913516032486715,1.0527650117874146,-1.7258437315570276
1708433425.397047,-1.9447630643844604,-1.392817498450615,-2.5697973410235804,5.911648380547323,1.052556037902832,-1.7256353537188929
1708433425.3990514,-1.9429354667663574,-1.3931982678226014,-2.569861952458517,5.909864890366354,1.0523685216903687,-1.7254675070392054
1708433425.4010932,-1.9411571025848389,-1.393585280781128,-2.569881264363424,5.908066856652059,1.0521610975265503,-1.7252710501300257
1708433425.40306,-1.9393227100372314,-1.3938989651254197,-2.5699172655688685,5.906413900643148,1.0519204139709473,-1.7250617186175745
1708433425.40505,-1.9375805854797363,-1.3943283718875428,-2.5699458757983606,5.90457974651412,1.0516859292984009,-1.7248371283160608
1708433425.4070861,-1.9357455968856812,-1.3946487617543717,-2.5700343290912073,5.902695405274191,1.051540493965149,-1.7246525923358362
1708433425.409041,-1.9338515996932983,-1.3950052720359345,-2.5700164476977747,5.900872337609091,1.0513511896133423,-1.7244976202594202
1708433425.4110625,-1.932041049003601,-1.3953853708556672,-2.570011917744772,5.89909981468276,1.0510954856872559,-1.724297825490133
1708433425.413024,-1.9301289319992065,-1.3957074743560334,-2.570068899785177,5.89716004112319,1.0508610010147095,-1.7241347471820276
1708433425.415098,-1.9282891750335693,-1.3961537343314667,-2.5701003710376185,5.8952910778816126,1.0506608486175537,-1.723889176045553
1708433425.4170635,-1.9264134168624878,-1.3964539778283616,-2.5700867811786097,5.893462645798483,1.0504504442214966,-1.7236974875079554
1708433425.419063,-1.9245285987854004,-1.3968329292586823,-2.570136372243063,5.891576874047079,1.050196647644043,-1.7235363165484827
1708433425.4210148,-1.9226694107055664,-1.3971280318549653,-2.570181194935934,5.8897297261054895,1.0499756336212158,-1.7233250776873987
1708433425.4230604,-1.9207762479782104,-1.3974439662745972,-2.570197645817892,5.887915003090658,1.0497428178787231,-1.7231491247760218
1708433425.4251206,-1.918865442276001,-1.3978042614511033,-2.5701151529895228,5.886009442597189,1.0494952201843262,-1.7229440847979944
1708433425.4270806,-1.9169843196868896,-1.3981844198754807,-2.5701196829425257,5.884071695595541,1.0492664575576782,-1.7227724234210413
1708433425.4290502,-1.9150034189224243,-1.3984740388444443,-2.570169274006979,5.882141220360555,1.049054741859436,-1.7225311438189905
1708433425.431046,-1.91311514377594,-1.3987942796996613,-2.570143763219015,5.880181300431051,1.0487884283065796,-1.7224167029010218
1708433425.433025,-1.9111477136611938,-1.3991132986596604,-2.5701242128955286,5.8782386658485315,1.048621654510498,-1.722159210835592
1708433425.4350595,-1.909192442893982,-1.3994652789882203,-2.5701077620135706,5.876400816231527,1.0483736991882324,-1.7219842115985315
1708433425.4370623,-1.9072872400283813,-1.3997263771346589,-2.570085350667135,5.874506938248434,1.0481241941452026,-1.72178823152651
1708433425.4390469,-1.905382513999939,-1.4000409555486222,-2.5700958410846155,5.8726727841194055,1.0479079484939575,-1.7216156164752405
1708433425.4410658,-1.903434157371521,-1.400390849714615,-2.5700629393206995,5.8708462593849084,1.0476795434951782,-1.721412483845846
1708433425.4430218,-1.9014742374420166,-1.4007276159575959,-2.5700929800616663,5.868935453682699,1.047469139099121,-1.7212322394000452
1708433425.4450705,-1.8994920253753662,-1.401041717534401,-2.57005221048464,5.867072093277731,1.0472116470336914,-1.7210033575641077
1708433425.4470398,-1.8975300788879395,-1.401353420024254,-2.57005221048464,5.865085947304525,1.0469744205474854,-1.7208316961871546
1708433425.4490263,-1.8955388069152832,-1.4016856712153931,-2.570007387791769,5.863216626435079,1.046750545501709,-1.7206757704364222
1708433425.4510574,-1.893540859222412,-1.4019763481668015,-2.570011917744772,5.861360180168905,1.0465296506881714,-1.7204631010638636
1708433425.4532084,-1.8914985656738281,-1.402323768740036,-2.5699713865863245,5.859486686974325,1.0463255643844604,-1.7202957312213343
1708433425.4550762,-1.8896046876907349,-1.4026038211635132,-2.569923464451925,5.857694852143087,1.0460636615753174,-1.7200787703143519
1708433425.4570582,-1.8876359462738037,-1.4028208714774628,-2.569840971623556,5.855846392899313,1.0459015369415283,-1.7199519316302698
1708433425.4590745,-1.8856704235076904,-1.4030961257270356,-2.5698753038989466,5.853962290077963,1.0456352233886719,-1.7198236624347132
1708433425.4610443,-1.8836473226547241,-1.4034259182265778,-2.5698605219470423,5.852140772133627,1.045404076576233,-1.7195699850665491
1708433425.463064,-1.8816198110580444,-1.4036803853562851,-2.56981069246401,5.850241529732504,1.0451782941818237,-1.7194302717791956
1708433425.4650395,-1.8796319961547852,-1.4040174347213288,-2.569791380559103,5.848408210068502,1.0449950695037842,-1.7192171255694788
1708433425.4670925,-1.8777413368225098,-1.4042462569526215,-2.569742027913229,5.846595036774435,1.0447620153427124,-1.7190950552569788
1708433425.4690518,-1.8757498264312744,-1.4045726966908951,-2.5697720686541956,5.844843733101644,1.044500470161438,-1.7188738028155726
1708433425.4710379,-1.8738279342651367,-1.4047868114760895,-2.569735829030172,5.843119132309713,1.0442557334899902,-1.7187541166888636
1708433425.473048,-1.8719031810760498,-1.405045972471573,-2.569702927266256,5.8415191052253626,1.0440815687179565,-1.718562428151266
1708433425.4750671,-1.8699054718017578,-1.4053572577289124,-2.5697031656848353,5.839706527977743,1.0438412427902222,-1.718398396168844
1708433425.4770155,-1.8680036067962646,-1.405601666574814,-2.5696592966662806,5.838122474938192,1.0436127185821533,-1.7182500998126429
1708433425.479052,-1.8660929203033447,-1.4058557909778138,-2.5696266333209437,5.8364590285118005,1.0433800220489502,-1.71800405183901
1708433425.4810505,-1.8641482591629028,-1.4061177384904404,-2.5696280638324183,5.834825861244955,1.043196201324463,-1.7178648153888147
1708433425.4830232,-1.8622058629989624,-1.406306804423668,-2.569587294255392,5.833129751473226,1.0429750680923462,-1.7177918593036097
1708433425.4850607,-1.8602372407913208,-1.4065506321242829,-2.5695470015155237,5.831476914673605,1.04280424118042,-1.7175896803485315
1708433425.487046,-1.8582961559295654,-1.4068217885545273,-2.5694780985461634,5.8297897455985925,1.042561650276184,-1.7174204031573694
1708433425.4890666,-1.8563978672027588,-1.4071108263782044,-2.5695021788226526,5.828234898834982,1.0423502922058105,-1.7172892729388636
1708433425.4910445,-1.8545293807983398,-1.4073175203851243,-2.56946307817568,5.826668250351705,1.0422194004058838,-1.717165772114889
1708433425.4930325,-1.8526580333709717,-1.4075615268996735,-2.5694032351123255,5.8251309273536584,1.0420105457305908,-1.7170217672931116
1708433425.495041,-1.8508074283599854,-1.4077725273421784,-2.5694032351123255,5.823653805046835,1.0417851209640503,-1.716858212147848
1708433425.4970484,-1.8489644527435303,-1.4080449354699631,-2.5693791548358362,5.822128999024191,1.0415970087051392,-1.7166975180255335
1708433425.4990444,-1.8471909761428833,-1.408277229671814,-2.569350306187765,5.820570575981893,1.0413670539855957,-1.7165730635272425
1708433425.501125,-1.8452930450439453,-1.4084837895682831,-2.5693729559527796,5.819131719857015,1.041224479675293,-1.7164772192584437
1708433425.5030887,-1.8435169458389282,-1.4086874586394806,-2.5692907015429896,5.817655908852377,1.0410033464431763,-1.716358486806051
1708433425.5050585,-1.841668725013733,-1.4089093071273346,-2.569275442753927,5.816219317704,1.0407824516296387,-1.7161763350116175
1708433425.5070791,-1.8399319648742676,-1.4091741305640717,-2.56924277940859,5.814830767899313,1.040635347366333,-1.716088596974508
1708433425.5090752,-1.8380956649780273,-1.4093942803195496,-2.5692487398730677,5.813446032791891,1.040442943572998,-1.7159894148456019
1708433425.5110722,-1.8364150524139404,-1.4095843446305771,-2.5691946188556116,5.812131392746725,1.0402836799621582,-1.7158978621112269
1708433425.5130692,-1.8345892429351807,-1.4098613870194932,-2.5691795984851282,5.810897576599874,1.0400943756103516,-1.7157405058490198
1708433425.5150852,-1.8328677415847778,-1.4100443583777924,-2.569122616444723,5.809592354088583,1.0398942232131958,-1.7156694571124476
1708433425.5171382,-1.831141471862793,-1.410271705394127,-2.569098774586813,5.808273899346151,1.039733648300171,-1.7156060377704065
1708433425.5190258,-1.82941472530365,-1.4105489563992997,-2.5690837542163294,5.8070798991020105,1.039589524269104,-1.7154195944415491
1708433425.5210152,-1.8277456760406494,-1.4107476633838196,-2.569042984639303,5.80587517002181,1.0394420623779297,-1.715372387562887
1708433425.523034,-1.8260295391082764,-1.4109383088401337,-2.5690117518054407,5.804775583534994,1.039236068725586,-1.7152765432940882
1708433425.5251205,-1.8243921995162964,-1.411210448747017,-2.5689995924579065,5.803621637612142,1.0390632152557373,-1.715177361165182
1708433425.5271115,-1.8226773738861084,-1.4114635598710557,-2.5689473787890833,5.802533733635702,1.0389190912246704,-1.715113941823141
1708433425.5290549,-1.8210554122924805,-1.4116300505450745,-2.568948809300558,5.801394808083334,1.0387388467788696,-1.7149689833270472
1708433425.531091,-1.8194750547409058,-1.4118394565633317,-2.5688961187945765,5.800293671875753,1.038636326789856,-1.7149294058429163
1708433425.5330954,-1.8178141117095947,-1.4120434087565918,-2.5688470045672815,5.799379575043478,1.038459300994873,-1.7148407141314905
1708433425.5351036,-1.8162840604782104,-1.4122676265290757,-2.568819586430685,5.798376905709066,1.0383148193359375,-1.714785401021139
1708433425.5370846,-1.8147248029708862,-1.4124908608249207,-2.5687580744372767,5.797435509949484,1.038170576095581,-1.7147014776812952
1708433425.5390491,-1.8131152391433716,-1.412696273331978,-2.568756643925802,5.796519624977865,1.0380113124847412,-1.7146619001971644
1708433425.5410805,-1.8116073608398438,-1.4129700374654313,-2.568704430256979,5.795658933907308,1.0377994775772095,-1.714609448109762
1708433425.5430477,-1.810091495513916,-1.413122833972313,-2.5686546007739466,5.794812428742208,1.0376970767974854,-1.714557949696676
1708433425.5450554,-1.8085788488388062,-1.4133636069348832,-2.5686426798449915,5.794076072960653,1.037552833557129,-1.7144892851458948
1708433425.5470545,-1.8071060180664062,-1.413575069313385,-2.568620268498556,5.793314683228292,1.0374462604522705,-1.7144654432879847
1708433425.5490186,-1.8055928945541382,-1.4137996894172211,-2.5685225168811243,5.792531955033102,1.037351369857788,-1.7144377867328089
1708433425.5510578,-1.8042120933532715,-1.4139939409545441,-2.56853157678713,5.791777717858114,1.0371860265731812,-1.714372460042135
1708433425.553061,-1.8027374744415283,-1.4141604614308854,-2.568504873906271,5.791149604111471,1.0370899438858032,-1.7143619696246546
1708433425.5550706,-1.801396369934082,-1.4144134533456345,-2.5684431234942835,5.7904995558555505,1.0369412899017334,-1.7143333593951624
1708433425.5570457,-1.7999615669250488,-1.4145843845656891,-2.5683744589435022,5.789919006615438,1.03682541847229,-1.7143505255328577
1708433425.5591083,-1.7986599206924438,-1.4148285251906891,-2.568371121083395,5.789356457978048,1.0366930961608887,-1.7142732779132288
1708433425.5610278,-1.7972639799118042,-1.4150604468635102,-2.5683112780200403,5.788763868599691,1.0365190505981445,-1.7143023649798792
1708433425.5630543,-1.7958903312683105,-1.4152880919030686,-2.5683608690844935,5.788276183396139,1.0363702774047852,-1.7142494360553187
1708433425.5650399,-1.7945771217346191,-1.415483759050705,-2.568336788808004,5.787695753365316,1.0362502336502075,-1.7142937819110315
1708433425.5670607,-1.7933635711669922,-1.4156997513822098,-2.5682392756091517,5.787329423218527,1.0361356735229492,-1.7142904440509241
1708433425.5690966,-1.7920897006988525,-1.4158407908729096,-2.5682151953326624,5.786816108017721,1.0360772609710693,-1.7142894903766077
1708433425.5711155,-1.7907965183258057,-1.4160648745349427,-2.5681913534747522,5.786431300431051,1.035891056060791,-1.7142975966082972
1708433425.5730474,-1.789559006690979,-1.4163077634624024,-2.568193022404806,5.786076772003927,1.035815715789795,-1.7143624464618128
1708433425.575013,-1.7883819341659546,-1.4165530514768143,-2.5681312719928187,5.785799729615011,1.035671591758728,-1.714374844227926
1708433425.5770261,-1.7871947288513184,-1.4167688649943848,-2.5681210199939173,5.785437452584066,1.0355584621429443,-1.7143777052508753
1708433425.5790281,-1.7860422134399414,-1.4169965100339432,-2.568063799534933,5.785215842514791,1.035426139831543,-1.7144387404071253
1708433425.5810137,-1.7848103046417236,-1.4172030550292511,-2.5679903666125696,5.784955966263571,1.0353108644485474,-1.7144749800311487
1708433425.583022,-1.7837269306182861,-1.417402134542801,-2.5680037180529993,5.784835803299703,1.0351858139038086,-1.71448260942568
1708433425.5850399,-1.782625436782837,-1.4176296603730698,-2.5679753462420862,5.784538256912985,1.0350780487060547,-1.7144697348224085
1708433425.5870228,-1.7815728187561035,-1.4179114264300843,-2.5679197947131556,5.784410822182455,1.0349410772323608,-1.7145631949054163
1708433425.589037,-1.7805190086364746,-1.4181313526681443,-2.5678959528552454,5.7843185541923425,1.0348206758499146,-1.7145102659808558
