Eg3-git/Classifiers/Data Collection/u1/u1star5_ur3e_joint_states.csv
time,elbow_joint,shoulder_lift_joint,shoulder_pan_joint,wrist_1_joint,wrist_2_joint,wrist_3_joint
1708433437.1171691,-2.142461061477661,-1.3341297668269654,-2.527785841618673,6.113319504051962,1.0195589065551758,-1.606262509022848
1708433437.1191509,-2.142493724822998,-1.3341178458980103,-2.527844492589132,6.113376128464498,1.019566297531128,-1.606269661580221
1708433437.1211374,-2.1424405574798584,-1.3340728443912049,-2.527790371571676,6.1133731482322595,1.0195868015289307,-1.6062582174884241
1708433437.1231678,-2.1424238681793213,-1.334085540180542,-2.5278685728656214,6.113368737488546,1.0196152925491333,-1.6062739531146448
1708433437.125171,-2.1424450874328613,-1.334085540180542,-2.5278263727771204,6.113376128464498,1.0196110010147095,-1.6062582174884241
1708433437.1271641,-2.142456531524658,-1.334088997249939,-2.5278473536120813,6.113344895630636,1.019590139389038,-1.6062739531146448
1708433437.1291513,-2.1424405574798584,-1.3341178458980103,-2.5278263727771204,6.113340365677633,1.0195739269256592,-1.6062582174884241
1708433437.1311412,-2.142432689666748,-1.3340648275664826,-2.5278685728656214,6.1133731482322595,1.0196022987365723,-1.6062210241900843
1708433437.1331599,-2.142476797103882,-1.3340898615172883,-2.5278189818011683,6.113331424980917,1.019594430923462,-1.606229607258932
1708433437.1351569,-2.142453908920288,-1.3341221672347565,-2.5278189818011683,6.11331199386672,1.0195695161819458,-1.6062372366534632
1708433437.137381,-2.142428159713745,-1.3341136288693924,-2.5278518835650843,6.113300072937765,1.019553303718567,-1.6062458197223108
1708433437.1391528,-2.142348289489746,-1.3341178458980103,-2.5278685728656214,6.113328444748678,1.0196022987365723,-1.6062453428851526
1708433437.1411414,-2.142415761947632,-1.3341178458980103,-2.5278099218951624,6.113356816559591,1.019553303718567,-1.6062210241900843
1708433437.1431687,-2.1424238681793213,-1.3341016930392762,-2.5278640429126185,6.113321053772726,1.0195695161819458,-1.6062372366534632
1708433437.1451383,-2.1423885822296143,-1.3340367537787934,-2.5278099218951624,6.113309132843771,1.0195739269256592,-1.6062668005572718
1708433437.1471608,-2.1424238681793213,-1.3341060292771836,-2.5278099218951624,6.1133121130760095,1.0196067094802856,-1.6062329451190394
1708433437.149132,-2.142428159713745,-1.334077076320984,-2.5278804937945765,6.113337385445394,1.019590139389038,-1.606269661580221
1708433437.1511772,-2.142465353012085,-1.3341060143760224,-2.5278337637530726,6.113316523819723,1.0195980072021484,-1.6062372366534632
1708433437.1531992,-2.142453908920288,-1.3341213029674073,-2.5278685728656214,6.11331199386672,1.0196067094802856,-1.6062167326556605
1708433437.155177,-2.142415761947632,-1.334077076320984,-2.5278263727771204,6.113321053772726,1.0196067094802856,-1.6062777678119105
1708433437.1571732,-2.1424450874328613,-1.334085540180542,-2.5278549830066126,6.113283264427938,1.0196022987365723,-1.6062653700457972
1708433437.15916,-2.142428159713745,-1.3340690594962616,-2.5278504530536097,6.1133612273033044,1.0196185111999512,-1.6062739531146448
1708433437.1611526,-2.1424405574798584,-1.334100828771927,-2.5278263727771204,6.113349306374349,1.0196067094802856,-1.6062091032611292
1708433437.163151,-2.142395496368408,-1.3340690594962616,-2.5278428236590784,6.113300072937765,1.0196067094802856,-1.6062582174884241
1708433437.1651828,-2.1424248218536377,-1.3341178458980103,-2.5278759638415735,6.113278853684225,1.0196142196655273,-1.6062167326556605
1708433437.1671526,-2.142432689666748,-1.3341178757003327,-2.5278127829181116,6.113316523819723,1.0196185111999512,-1.606241528187887
1708433437.1691542,-2.1424338817596436,-1.3340444427779694,-2.5278428236590784,6.113321053772726,1.0196185111999512,-1.6062329451190394
1708433437.171139,-2.1424202919006348,-1.3340401512435456,-2.5278759638415735,6.113340365677633,1.0196263790130615,-1.6062668005572718
1708433437.1731455,-2.1424460411071777,-1.3340733808330079,-2.5278595129596155,6.113316523819723,1.019593596458435,-1.6062453428851526
1708433437.1751866,-2.142437219619751,-1.3340648126653214,-2.5278428236590784,6.113318073540487,1.0196470022201538,-1.6062825361834925
1708433437.1772194,-2.142461061477661,-1.3340367537787934,-2.5278504530536097,6.1132956621940515,1.0196185111999512,-1.606286350880758
1708433437.1791968,-2.142411470413208,-1.3340690594962616,-2.5278595129596155,6.113304602890768,1.0196350812911987,-1.6062539259540003
1708433437.181216,-2.142441511154175,-1.3341016930392762,-2.5278504530536097,6.113321053772726,1.019565224647522,-1.6062501112567347
1708433437.1831923,-2.1424248218536377,-1.3340974611094971,-2.5278759638415735,6.113300072937765,1.0196512937545776,-1.6062124411212366
1708433437.1851542,-2.142415761947632,-1.3340846461108704,-2.527883593236105,6.113238441735067,1.0196470022201538,-1.606269661580221
1708433437.187187,-2.142432689666748,-1.3341383200934906,-2.5279088656054896,6.113296973496237,1.0196142196655273,-1.6062372366534632
1708433437.189172,-2.1424238681793213,-1.3341297668269654,-2.5278623739825647,6.113287913590231,1.019593596458435,-1.6062372366534632
1708433437.1912405,-2.1423840522766113,-1.3340325218490143,-2.5278759638415735,6.1132850525672815,1.0195565223693848,-1.6062200705157679
1708433437.193191,-2.142465353012085,-1.334081308250763,-2.5278337637530726,6.11330138423995,1.0195446014404297,-1.6062496344195765
1708433437.1952095,-2.1424202919006348,-1.3340733808330079,-2.527879063283102,6.113313662796774,1.0196142196655273,-1.6062091032611292
1708433437.1972222,-2.142428159713745,-1.334088997249939,-2.5279043356524866,6.113296973496237,1.019639492034912,-1.6062539259540003
1708433437.1992621,-2.1424238681793213,-1.3341255348971863,-2.5278623739825647,6.113341915398397,1.0195980072021484,-1.6062539259540003
1708433437.2011862,-2.142437219619751,-1.3340443980744858,-2.527890984212057,6.113291132241049,1.019594430923462,-1.6062167326556605
1708433437.2031732,-2.142411470413208,-1.334085540180542,-2.52789551416506,6.113292443543234,1.0196350812911987,-1.6062949339496058
1708433437.205188,-2.1424202919006348,-1.3341255497983475,-2.5278247038470667,6.113304602890768,1.0196055173873901,-1.6062372366534632
1708433437.2071724,-2.142415761947632,-1.3341334623149415,-2.5278669039355677,6.113280522614279,1.019609808921814,-1.6063111464129847
1708433437.209228,-2.142411470413208,-1.3340605956367035,-2.527870003377096,6.113304602890768,1.0196142196655273,-1.606229607258932
1708433437.2111547,-2.142411470413208,-1.334081308250763,-2.5278881231891077,6.113291251450338,1.0196185111999512,-1.6062329451190394
1708433437.213176,-2.1424450874328613,-1.3341016930392762,-2.5278669039355677,6.11326693275527,1.019630789756775,-1.6062582174884241
1708433437.215147,-2.1423797607421875,-1.3340690594962616,-2.5278623739825647,6.113250601082601,1.019630789756775,-1.6062668005572718
1708433437.2171516,-2.1423797607421875,-1.3340812933496018,-2.527907435094015,6.113275992661276,1.0196263790130615,-1.6062458197223108
1708433437.2191255,-2.142437219619751,-1.3340940934470673,-2.527841393147604,6.113320934563436,1.0196220874786377,-1.6062286535846155
1708433437.2211223,-2.1423866748809814,-1.334093229179718,-2.527874533330099,6.113304602890768,1.0195980072021484,-1.6062582174884241
1708433437.2231593,-2.142415761947632,-1.3341383647969742,-2.527898375188009,6.11326693275527,1.0195980072021484,-1.606290642415182
1708433437.2251651,-2.142395496368408,-1.3340889674476166,-2.5278623739825647,6.113325583725729,1.0196425914764404,-1.6062372366534632
1708433437.2271647,-2.1424248218536377,-1.334077076320984,-2.527911965047018,6.113342034607687,1.0195980072021484,-1.6062539259540003
1708433437.2291849,-2.1424248218536377,-1.3341060143760224,-2.527853552495138,6.1132956621940515,1.0195739269256592,-1.6061881224261683
1708433437.2311485,-2.142467498779297,-1.3340974611094971,-2.527857844029562,6.113304602890768,1.0196142196655273,-1.6062668005572718
1708433437.2331595,-2.1424338817596436,-1.334088997249939,-2.527879063283102,6.113332855492391,1.0196142196655273,-1.606262509022848
1708433437.235145,-2.142408847808838,-1.3341136139682312,-2.527848784123556,6.113342034607687,1.0195857286453247,-1.6062453428851526
1708433437.237154,-2.1424858570098877,-1.3341017079404374,-2.527865711842672,6.11326693275527,1.019639492034912,-1.6062210241900843
1708433437.2391956,-2.142432689666748,-1.3341624450734635,-2.5278247038470667,6.113309132843771,1.0196142196655273,-1.6062338987933558
1708433437.2411602,-2.142461061477661,-1.3341102463058014,-2.527853314076559,6.113356816559591,1.0195857286453247,-1.6062582174884241
1708433437.24314,-2.1424248218536377,-1.3340605658343812,-2.527928177510397,6.113344895630636,1.0196185111999512,-1.6062582174884241
1708433437.2451212,-2.142395496368408,-1.3341425520232697,-2.52783710161318,6.113291132241049,1.0195814371109009,-1.6062668005572718
1708433437.2471504,-2.1424291133880615,-1.3340846759131928,-2.527900044118063,6.113309132843771,1.019639492034912,-1.6062539259540003
1708433437.2491312,-2.1424248218536377,-1.3340563637069245,-2.5278566519366663,6.113332855492391,1.0196263790130615,-1.6062496344195765
1708433437.251121,-2.1424450874328613,-1.3340974611094971,-2.52789551416506,6.11331199386672,1.019593596458435,-1.6062496344195765
1708433437.2531369,-2.1424496173858643,-1.3340733808330079,-2.527911965047018,6.113304602890768,1.0196067094802856,-1.6062167326556605
1708433437.2551417,-2.142400026321411,-1.3341255497983475,-2.527857844029562,6.113250601082601,1.0196512937545776,-1.6061881224261683
1708433437.2571328,-2.142428159713745,-1.334056319003441,-2.527928177510397,6.113276111870565,1.0196022987365723,-1.6062372366534632
1708433437.259136,-2.1424787044525146,-1.3340648275664826,-2.527881924306051,6.113332855492391,1.0195814371109009,-1.6062782446490687
1708433437.2611418,-2.142428159713745,-1.3340974611094971,-2.527874533330099,6.113349306374349,1.019630789756775,-1.6062210241900843
1708433437.263135,-2.142415761947632,-1.3340690594962616,-2.527857844029562,6.1132956621940515,1.0196011066436768,-1.6062582174884241
1708433437.2651377,-2.142437219619751,-1.3341060143760224,-2.527940336857931,6.113259660988607,1.019593596458435,-1.606213394795553
1708433437.2671287,-2.1424202919006348,-1.3341297966292878,-2.527870003377096,6.113321053772726,1.019590139389038,-1.6062544027911585
1708433437.2691262,-2.142411470413208,-1.3341016930392762,-2.527928177510397,6.1133001921470544,1.0195980072021484,-1.6062668005572718
1708433437.2711313,-2.1423840522766113,-1.3341093820384522,-2.527870003377096,6.113365638047018,1.0195893049240112,-1.6062582174884241
1708433437.2731462,-2.1423909664154053,-1.3340563637069245,-2.527881924306051,6.113262522011556,1.0196229219436646,-1.6062544027911585
1708433437.2751973,-2.142415761947632,-1.334085540180542,-2.527886454259054,6.1132956621940515,1.0196229219436646,-1.6062372366534632
1708433437.2771883,-2.142415761947632,-1.334085540180542,-2.52789551416506,6.113304602890768,1.0196263790130615,-1.6062868277179163
1708433437.2791944,-2.1424238681793213,-1.3340690594962616,-2.527890984212057,6.1133464453514,1.0196229219436646,-1.6062338987933558
1708433437.2812114,-2.142413377761841,-1.3340898615172883,-2.527890984212057,6.113332855492391,1.019553303718567,-1.606229607258932
1708433437.2832167,-2.1423840522766113,-1.3341016930392762,-2.527890984212057,6.11333595493392,1.0195857286453247,-1.606241528187887
1708433437.2851915,-2.142441511154175,-1.334056319003441,-2.527940336857931,6.1132956621940515,1.0196350812911987,-1.6062668005572718
1708433437.2871776,-2.1424450874328613,-1.3341255348971863,-2.5279327074633997,6.113353717118063,1.0196142196655273,-1.6062458197223108
1708433437.2891598,-2.1424496173858643,-1.3341051501086731,-2.527907435094015,6.113356816559591,1.0195857286453247,-1.6063035170184534
1708433437.2912471,-2.142437219619751,-1.3340812933496018,-2.527907435094015,6.113307583123007,1.0196142196655273,-1.6062091032611292
1708433437.2931871,-2.1424858570098877,-1.3341339987567444,-2.527886454259054,6.113344895630636,1.019593596458435,-1.6062544027911585
1708433437.2951922,-2.1424496173858643,-1.3341297668269654,-2.5278611818896692,6.113321053772726,1.019590139389038,-1.6062091032611292
1708433437.2971976,-2.1424202919006348,-1.3340648126653214,-2.527911965047018,6.113278853684225,1.0195857286453247,-1.606225315724508
1708433437.2991676,-2.1424202919006348,-1.3340648275664826,-2.527874533330099,6.113307583123007,1.0195857286453247,-1.6062338987933558
1708433437.301144,-2.142432689666748,-1.334105135207512,-2.5278776327716272,6.113325583725729,1.0196229219436646,-1.6062091032611292
1708433437.3031712,-2.1424450874328613,-1.334077076320984,-2.52791935602297,6.1132744429405115,1.0196350812911987,-1.6062210241900843
1708433437.3051522,-2.1424248218536377,-1.3341178458980103,-2.527874533330099,6.113255131035604,1.0195980072021484,-1.606225315724508
1708433437.3071597,-2.142415761947632,-1.334081308250763,-2.527961079274313,6.113316523819723,1.0196022987365723,-1.6062091032611292
1708433437.3092365,-2.1423885822296143,-1.334122197037079,-2.527890984212057,6.113303053170004,1.019594430923462,-1.6062782446490687
1708433437.3111546,-2.142428159713745,-1.3341221672347565,-2.52789551416506,6.113325583725729,1.0195857286453247,-1.606229607258932
1708433437.3131542,-2.142408847808838,-1.3341060292771836,-2.527907435094015,6.11331199386672,1.0195857286453247,-1.6062210241900843
1708433437.3151414,-2.1424496173858643,-1.3341213029674073,-2.527890984212057,6.113316523819723,1.0195739269256592,-1.6062176863299769
1708433437.3171918,-2.1424248218536377,-1.3341297668269654,-2.527940336857931,6.113325583725729,1.0196110010147095,-1.6062782446490687
1708433437.319154,-2.142432689666748,-1.3340898615172883,-2.527848784123556,6.1133612273033044,1.0195980072021484,-1.6062219778644007
1708433437.3211462,-2.142395496368408,-1.3341178458980103,-2.52783710161318,6.113300072937765,1.0195857286453247,-1.606192413960592
1708433437.3231688,-2.142441511154175,-1.334093229179718,-2.527879063283102,6.113328444748678,1.0196185111999512,-1.6061723867999476
1708433437.3252647,-2.142469882965088,-1.3341060143760224,-2.52789551416506,6.113319504051962,1.019590139389038,-1.6061809698687952
1708433437.3271704,-2.142408847808838,-1.3341178757003327,-2.527890984212057,6.113330113678732,1.0195857286453247,-1.606196705495016
1708433437.3292112,-2.142404317855835,-1.3340367537787934,-2.527907435094015,6.113304602890768,1.0195695161819458,-1.6061895529376429
1708433437.3311899,-2.142462730407715,-1.334085540180542,-2.527890984212057,6.113332974701681,1.0195739269256592,-1.606241528187887
1708433437.333212,-2.1424026489257812,-1.3340932142785569,-2.5278623739825647,6.11331199386672,1.0196229219436646,-1.606192413960592
1708433437.335176,-2.142411470413208,-1.3341144782355805,-2.5279701391803187,6.113352286606588,1.019565224647522,-1.6062009970294397
1708433437.3372045,-2.1424248218536377,-1.334085540180542,-2.527883593236105,6.113370168000021,1.019590139389038,-1.6062005201922815
1708433437.3392413,-2.1423840522766113,-1.334077076320984,-2.527874533330099,6.113353717118063,1.0196272134780884,-1.6062305609332483
1708433437.3411598,-2.142469882965088,-1.3341093820384522,-2.527886454259054,6.113283383637228,1.019553303718567,-1.6062338987933558
1708433437.3431644,-2.1424238681793213,-1.334081308250763,-2.527900044118063,6.113291132241049,1.019578218460083,-1.6062095800982874
1708433437.3451269,-2.1424496173858643,-1.3341093820384522,-2.527870003377096,6.113324034004965,1.0195857286453247,-1.6062305609332483
1708433437.3471346,-2.142428159713745,-1.3340728443912049,-2.52789551416506,6.113309132843771,1.0196110010147095,-1.6061938444720667
1708433437.3491166,-2.142469882965088,-1.334105135207512,-2.527907435094015,6.113309132843771,1.0195857286453247,-1.6062052885638636
1708433437.3511186,-2.142395496368408,-1.3341339987567444,-2.527874533330099,6.11331199386672,1.0195695161819458,-1.6062095800982874
1708433437.3531382,-2.1424450874328613,-1.3340642315200348,-2.527931276951925,6.1133612273033044,1.0195814371109009,-1.6061895529376429
1708433437.3551214,-2.142415761947632,-1.334085540180542,-2.527839962636129,6.113344895630636,1.0195857286453247,-1.6062176863299769
1708433437.3571591,-2.142400026321411,-1.3341093820384522,-2.527865711842672,6.113291251450338,1.019590139389038,-1.606192413960592
1708433437.3591328,-2.142397403717041,-1.3341306310943146,-2.527890984212057,6.113292443543234,1.0196022987365723,-1.6062095800982874
1708433437.3611221,-2.1424248218536377,-1.3341017079404374,-2.527898375188009,6.113309132843771,1.019578218460083,-1.6062009970294397
1708433437.3631613,-2.142415761947632,-1.3340690594962616,-2.527907435094015,6.113292443543234,1.019578218460083,-1.6061771551715296
1708433437.3651617,-2.1424202919006348,-1.3340486747077485,-2.52789551416506,6.113255131035604,1.019594430923462,-1.606140438710348
1708433437.3671687,-2.142400026321411,-1.3341093820384522,-2.527849022542135,6.113309132843771,1.019578218460083,-1.6061652342425745
1708433437.36914,-2.142404317855835,-1.3340648126653214,-2.52789551416506,6.113349306374349,1.0195868015289307,-1.6061533133136194
1708433437.3711221,-2.142415761947632,-1.3340974611094971,-2.527881924306051,6.113325583725729,1.0195457935333252,-1.6062224547015589
1708433437.3731506,-2.142413377761841,-1.334081844692566,-2.527890984212057,6.113287913590231,1.0195825099945068,-1.6061857382403772
1708433437.3751655,-2.1424202919006348,-1.3340940934470673,-2.527890984212057,6.113325583725729,1.019550085067749,-1.6061165968524378
1708433437.3771672,-2.1424202919006348,-1.334085540180542,-2.527874533330099,6.113296973496237,1.019566297531128,-1.6061285177813929
1708433437.3791761,-2.1423704624176025,-1.3340728443912049,-2.527881924306051,6.113325583725729,1.019562005996704,-1.606161896382467
1708433437.381191,-2.142397403717041,-1.3340690594962616,-2.527911965047018,6.1133121130760095,1.0195457935333252,-1.6061294714557093
1708433437.3831568,-2.142437219619751,-1.334077612762787,-2.52783710161318,6.113275992661276,1.019550085067749,-1.6061213652240198
1708433437.3851345,-2.1424202919006348,-1.3341426116279145,-2.527928177510397,6.113309132843771,1.0196152925491333,-1.6061542669879358
1708433437.3871756,-2.142408847808838,-1.3340889674476166,-2.527898375188009,6.113362896233358,1.0195170640945435,-1.606088940297262
1708433437.3891895,-2.142401933670044,-1.334085540180542,-2.527877394353048,6.113320934563436,1.0195374488830566,-1.6061094442950647
1708433437.3911622,-2.1423885822296143,-1.3341016930392762,-2.527928177510397,6.113332855492391,1.0195705890655518,-1.6061542669879358
1708433437.3932061,-2.1424338817596436,-1.334093229179718,-2.527857844029562,6.113325583725729,1.0195415019989014,-1.606138054524557
1708433437.3951826,-2.1423840522766113,-1.334093229179718,-2.527907435094015,6.113259660988607,1.0195419788360596,-1.6061137358294886
1708433437.397208,-2.1423840522766113,-1.3340486747077485,-2.527902905141012,6.113342034607687,1.0195913314819336,-1.6060975233661097
1708433437.3991823,-2.1424248218536377,-1.3341581535390397,-2.527886454259054,6.113344895630636,1.019550085067749,-1.6060808340655726
1708433437.401146,-2.1423590183258057,-1.334081308250763,-2.527890984212057,6.113320934563436,1.0195257663726807,-1.6061094442950647
1708433437.4031944,-2.142397403717041,-1.3341060292771836,-2.527849022542135,6.113316523819723,1.0195589065551758,-1.6061137358294886
1708433437.4051201,-2.1423885822296143,-1.3341016930392762,-2.5279117266284388,6.113283383637228,1.0195138454437256,-1.6061137358294886
1708433437.4071426,-2.1424248218536377,-1.3340974611094971,-2.5279043356524866,6.113262522011556,1.0195462703704834,-1.6060650984393519
1708433437.4091277,-2.142347574234009,-1.334068478350975,-2.527900044118063,6.113287913590231,1.0195343494415283,-1.6061180273639124
1708433437.4111273,-2.1423590183258057,-1.334122197037079,-2.527870003377096,6.113238441735067,1.019482135772705,-1.6060565153705042
1708433437.4131808,-2.14241099357605,-1.3341297668269654,-2.527911965047018,6.113292443543234,1.0195015668869019,-1.6060765425311487
1708433437.4151516,-2.1423795223236084,-1.3341178458980103,-2.527874533330099,6.113275992661276,1.0195311307907104,-1.6060851255999964
1708433437.417165,-2.142413377761841,-1.334077076320984,-2.527900044118063,6.113287913590231,1.019485354423523,-1.6061061064349573
1708433437.4191277,-2.1423840522766113,-1.3341178458980103,-2.527881924306051,6.113287913590231,1.019514560699463,-1.6060569922076624
1708433437.4211292,-2.142347574234009,-1.3340520572713395,-2.527898375188009,6.113275992661276,1.0194897651672363,-1.6060822645770472
1708433437.4231486,-2.1423399448394775,-1.334085540180542,-2.527914826069967,6.113292443543234,1.019510269165039,-1.6061061064349573
1708433437.4252343,-2.1423726081848145,-1.3341297668269654,-2.5278731028186243,6.1133121130760095,1.0194897651672363,-1.6060484091388147
1708433437.4271662,-2.1423771381378174,-1.3341093820384522,-2.527928177510397,6.113300072937765,1.0195354223251343,-1.6060612837420862
1708433437.4291742,-2.1423885822296143,-1.3341102463058014,-2.52789551416506,6.113287913590231,1.019486427307129,-1.6060851255999964
1708433437.4311357,-2.1423726081848145,-1.3340770465186615,-2.527879063283102,6.113304602890768,1.019498348236084,-1.6060693899737757
1708433437.4331448,-2.1423611640930176,-1.3340529066375275,-2.527900044118063,6.113233911782064,1.0195354223251343,-1.60606557527651
1708433437.435158,-2.142352342605591,-1.3340898615172883,-2.5278759638415735,6.113300072937765,1.0194616317749023,-1.60606557527651
1708433437.4371333,-2.1423771381378174,-1.3340605956367035,-2.527898375188009,6.113276111870565,1.0194616317749023,-1.6060212294207972
1708433437.4391809,-2.1423566341400146,-1.334170938735344,-2.527900044118063,6.113255131035604,1.0195026397705078,-1.6060450712787073
1708433437.4411476,-2.1423680782318115,-1.3340932142785569,-2.527879063283102,6.113273131638326,1.01947021484375,-1.6060202757464808
1708433437.4431312,-2.1423726081848145,-1.334077612762787,-2.52789551416506,6.113256442337789,1.0194404125213623,-1.6059797445880335
1708433437.445123,-2.142401933670044,-1.3341060292771836,-2.527879063283102,6.113244521408834,1.0194790363311768,-1.6060341040240687
1708433437.4471276,-2.142347574234009,-1.3340572279742737,-2.527881924306051,6.113260853081503,1.0194621086120605,-1.6060493628131312
1708433437.44912,-2.142392873764038,-1.3340983551791687,-2.527857844029562,6.113256442337789,1.0194664001464844,-1.6060579458819788
1708433437.4511461,-2.1423611640930176,-1.3341051501086731,-2.5278504530536097,6.113223659783163,1.0195026397705078,-1.6060460249530237
1708433437.4531274,-2.1423840522766113,-1.3341016930392762,-2.527911965047018,6.113199817925253,1.01947021484375,-1.606009308491842
1708433437.455145,-2.1423611640930176,-1.334085540180542,-2.5279088656054896,6.1132415411765955,1.019474744796753,-1.6060178915606897
1708433437.4571183,-2.1423487663269043,-1.3341136288693924,-2.5278669039355677,6.113220917969503,1.0194952487945557,-1.6060383955584925
1708433437.4591389,-2.142336368560791,-1.3341016930392762,-2.527853314076559,6.113204228668966,1.0194458961486816,-1.6060178915606897
1708433437.4611409,-2.1423699855804443,-1.334019662146904,-2.527923885975973,6.113217699318685,1.0194621086120605,-1.6059935728656214
1708433437.4631484,-2.142381429672241,-1.334085540180542,-2.527853314076559,6.113232600479879,1.0194165706634521,-1.6060012022601526
1708433437.4651387,-2.1423115730285645,-1.334093229179718,-2.5278623739825647,6.113204228668966,1.019425392150879,-1.6060588995562952
1708433437.4671557,-2.1423399448394775,-1.3340486747077485,-2.5278504530536097,6.1132370112235925,1.0194134712219238,-1.606025520955221
1708433437.4691353,-2.1423726081848145,-1.334056319003441,-2.5278623739825647,6.113192307740011,1.0194296836853027,-1.6059978644000452
1708433437.4711354,-2.1423611640930176,-1.334085540180542,-2.527900044118063,6.113196837693014,1.0194458961486816,-1.6060054937945765
1708433437.4731796,-2.1423656940460205,-1.3340605956367035,-2.5278669039355677,6.113178956299581,1.0194011926651,-1.6059773604022425
1708433437.4751766,-2.1423566341400146,-1.3341306310943146,-2.527883593236105,6.113217699318685,1.0194621086120605,-1.6059406439410608
1708433437.4772112,-2.1423656940460205,-1.334085540180542,-2.527890984212057,6.113229977875509,1.0194621086120605,-1.6060097853290003
1708433437.479207,-2.1423399448394775,-1.334077612762787,-2.5278623739825647,6.11314736583785,1.0194578170776367,-1.6059816519366663
1708433437.481198,-2.1423771381378174,-1.3340940934470673,-2.527900044118063,6.113201367646017,1.019425392150879,-1.6059935728656214
1708433437.4832077,-2.1423187255859375,-1.3340648275664826,-2.527890984212057,6.113201367646017,1.0194134712219238,-1.6059849897967737
1708433437.4851434,-2.1423611640930176,-1.3341136139682312,-2.5278292338000696,6.113238918572225,1.019405484199524,-1.6060012022601526
1708433437.4871855,-2.1423442363739014,-1.3340282899192353,-2.5278669039355677,6.113202917366781,1.0194339752197266,-1.6059449354754847
1708433437.4891725,-2.142392873764038,-1.334085540180542,-2.527874533330099,6.1131653664405725,1.0194578170776367,-1.6059816519366663
1708433437.4912016,-2.1423115730285645,-1.3340733808330079,-2.5278623739825647,6.113156306534567,1.019404649734497,-1.606002155934469
1708433437.4932327,-2.142385959625244,-1.3341264438680192,-2.52789551416506,6.113172995835104,1.0194177627563477,-1.6059282461749476
1708433437.495153,-2.1423656940460205,-1.3340728145888825,-2.527883593236105,6.113114464073934,1.0194339752197266,-1.6059611479388636
1708433437.4971716,-2.1423771381378174,-1.3341383200934906,-2.5278428236590784,6.113193976670065,1.0194621086120605,-1.605941120778219
1708433437.499126,-2.1423487663269043,-1.3341213029674073,-2.527883593236105,6.113168465882101,1.0194339752197266,-1.6059449354754847
1708433437.5011363,-2.1423771381378174,-1.3341017079404374,-2.5278623739825647,6.113193976670065,1.0194134712219238,-1.6059535185443323
1708433437.5031404,-2.1423771381378174,-1.3341306906989594,-2.5278881231891077,6.113177525788107,1.0194264650344849,-1.6059282461749476
1708433437.5051448,-2.1423230171203613,-1.334089846616127,-2.5278669039355677,6.113177525788107,1.0194134712219238,-1.6059282461749476
1708433437.5071535,-2.142385959625244,-1.3341017079404374,-2.5278623739825647,6.1131640551383875,1.0194458961486816,-1.605941120778219
1708433437.5091512,-2.1423442363739014,-1.3340983551791687,-2.5278247038470667,6.113169777184286,1.0194220542907715,-1.6059492270099085
1708433437.5111277,-2.1423726081848145,-1.334065706734993,-2.5278549830066126,6.113210308342733,1.0194382667541504,-1.6059368292437952
1708433437.5131757,-2.1423399448394775,-1.3341060292771836,-2.527841631566183,6.1131865856941126,1.0194011926651,-1.6059368292437952
1708433437.5151227,-2.1423771381378174,-1.334056319003441,-2.527890984212057,6.113136994629659,1.0194296836853027,-1.60596210161318
1708433437.5171819,-2.1423699855804443,-1.3340690594962616,-2.527808491383688,6.113128053932943,1.0194544792175293,-1.6059377829181116
1708433437.5191605,-2.1423726081848145,-1.334114522939064,-2.5278881231891077,6.113177525788107,1.0194296836853027,-1.6059044043170374
1708433437.5211718,-2.142357587814331,-1.3340282303145905,-2.5278218428241175,6.113162386208334,1.0193849802017212,-1.6059086958514612
1708433437.523163,-2.1424107551574707,-1.3341017079404374,-2.527879063283102,6.113116133003988,1.019405484199524,-1.6058924833880823
1708433437.5251446,-2.1423230171203613,-1.3340974611094971,-2.5278759638415735,6.113128053932943,1.0194339752197266,-1.6059334913836878
1708433437.527183,-2.1423611640930176,-1.334085540180542,-2.5278309027301233,6.11318205574111,1.0194011926651,-1.6059454123126429
1708433437.5291946,-2.1423656940460205,-1.3341297966292878,-2.527916495000021,6.113111603050985,1.0193926095962524,-1.6058967749225062
1708433437.531169,-2.142331838607788,-1.334105135207512,-2.5279088656054896,6.113169777184286,1.019389271736145,-1.6058390776263636
1708433437.5331478,-2.1423566341400146,-1.3341060292771836,-2.5278669039355677,6.113107073097982,1.0194544792175293,-1.605929199849264
1708433437.535142,-2.1423442363739014,-1.3340648126653214,-2.527900044118063,6.11320577838973,1.01946222782135,-1.6058934370623987
1708433437.5371647,-2.142385959625244,-1.334048644905426,-2.5278428236590784,6.113177525788107,1.0194307565689087,-1.605884853993551
1708433437.5391521,-2.1423442363739014,-1.3340941083482285,-2.5278640429126185,6.113130914955892,1.0194011926651,-1.6059377829181116
1708433437.5411568,-2.1423442363739014,-1.3340358299067994,-2.5278504530536097,6.113172995835104,1.0194220542907715,-1.6058810392962855
1708433437.5431767,-2.1423115730285645,-1.3340690594962616,-2.5278926531421106,6.113156306534567,1.0193969011306763,-1.6058977285968226
1708433437.545128,-2.142392873764038,-1.334085540180542,-2.527879063283102,6.11320577838973,1.0194264650344849,-1.605889622365133
1708433437.5471609,-2.1423070430755615,-1.334048644905426,-2.5278640429126185,6.113144504814901,1.0194264650344849,-1.605889622365133
1708433437.5491421,-2.1423161029815674,-1.3340410453132172,-2.5278549830066126,6.1131865856941126,1.019405484199524,-1.6058691183673304
1708433437.5511339,-2.142397403717041,-1.3340898615172883,-2.5278640429126185,6.113177525788107,1.0194544792175293,-1.6058691183673304
1708433437.553163,-2.1423771381378174,-1.3340648126653214,-2.5278640429126185,6.1131653664405725,1.0194098949432373,-1.6058691183673304
1708433437.5551198,-2.1423487663269043,-1.3340818744948884,-2.5278008619891565,6.1131653664405725,1.0194426774978638,-1.6058648268329065
1708433437.5571494,-2.1423399448394775,-1.334085540180542,-2.5278881231891077,6.113156306534567,1.0193936824798584,-1.6058605352984827
1708433437.559128,-2.1423745155334473,-1.3341383647969742,-2.5278218428241175,6.11318205574111,1.0194469690322876,-1.605889145527975
1708433437.5611434,-2.1423275470733643,-1.3340495389750977,-2.5278099218951624,6.113156306534567,1.0194264650344849,-1.6058324019061487
1708433437.5631611,-2.1423611640930176,-1.3340733808330079,-2.5278595129596155,6.113252508431234,1.0194307565689087,-1.6058529059039515
1708433437.5651374,-2.1423275470733643,-1.3341060292771836,-2.5278337637530726,6.113189327507772,1.0194307565689087,-1.6058443228351038
1708433437.5671377,-2.1423656940460205,-1.3340528917363663,-2.5278759638415735,6.11320577838973,1.0193564891815186,-1.6058934370623987
1708433437.5691187,-2.142340898513794,-1.334065706734993,-2.5278504530536097,6.113198387413778,1.0194011926651,-1.6058767477618616
1708433437.5711322,-2.1423656940460205,-1.334122197037079,-2.5278595129596155,6.113219368248739,1.0193902254104614,-1.6058767477618616
1708433437.5731564,-2.1423771381378174,-1.3341102761081238,-2.52779204050173,6.113180386811056,1.0193806886672974,-1.6058529059039515
1708433437.57515,-2.1423656940460205,-1.3340528917363663,-2.527879063283102,6.11318205574111,1.0194220542907715,-1.6058853308307093
1708433437.5772052,-2.142392873764038,-1.3340410453132172,-2.5278382937060755,6.113125073700704,1.0194177627563477,-1.6058853308307093
1708433437.5791676,-2.1423275470733643,-1.3340941083482285,-2.5278595129596155,6.11318205574111,1.0194177627563477,-1.6058486143695276
1708433437.581193,-2.1423487663269043,-1.3340648126653214,-2.5278218428241175,6.1131865856941126,1.0194545984268188,-1.6058648268329065
1708433437.5831954,-2.1423399448394775,-1.3340452921441575,-2.5278595129596155,6.11318205574111,1.0194141864776611,-1.6058934370623987
1708433437.5851557,-2.1423442363739014,-1.3340690594962616,-2.527808491383688,6.113107073097982,1.0194307565689087,-1.6058529059039515
1708433437.5871842,-2.1423726081848145,-1.3340733808330079,-2.5277918020831507,6.1131489155586145,1.019389271736145,-1.6058853308307093
1708433437.5891778,-2.1423442363739014,-1.334085540180542,-2.5278173128711146,6.113189446717062,1.019405484199524,-1.6058648268329065
1708433437.5912168,-2.1423611640930176,-1.3340572130731125,-2.5278549830066126,6.11316858509139,1.019389271736145,-1.605828110371725
1708433437.5931745,-2.1423487663269043,-1.3340572130731125,-2.5278309027301233,6.113222110062399,1.019389271736145,-1.6058486143695276
1708433437.5951817,-2.1423566341400146,-1.334077612762787,-2.527879063283102,6.113234388619222,1.0194141864776611,-1.6058409849749964
1708433437.597182,-2.14241099357605,-1.334081308250763,-2.5278714338885706,6.113172995835104,1.0194141864776611,-1.6058648268329065
1708433437.5992064,-2.1423442363739014,-1.334085540180542,-2.5278008619891565,6.1131640551383875,1.0194011926651,-1.6058734099017542
1708433437.6011488,-2.1423771381378174,-1.3340898615172883,-2.5278382937060755,6.113226759224691,1.019405484199524,-1.6058648268329065
1708433437.603166,-2.1423699855804443,-1.334077627663948,-2.5278714338885706,6.113189446717062,1.0193979740142822,-1.6058767477618616
1708433437.6051369,-2.1423726081848145,-1.3340974611094971,-2.5278428236590784,6.113196837693014,1.0193684101104736,-1.6059182325946253
1708433437.607173,-2.1423611640930176,-1.3340733808330079,-2.5278850237475794,6.11316083648757,1.0193849802017212,-1.6058476606952112
1708433437.6091576,-2.142385959625244,-1.3341339987567444,-2.527879063283102,6.113222229271688,1.0194382667541504,-1.6058648268329065
1708433437.6111577,-2.142392873764038,-1.3340648275664826,-2.5278802553759974,6.113172995835104,1.0194091796875,-1.6058853308307093
1708433437.6131501,-2.1423354148864746,-1.334085540180542,-2.5278518835650843,6.113271462708273,1.0194141864776611,-1.6058810392962855
1708433437.6151419,-2.1423771381378174,-1.3340983253768464,-2.5278881231891077,6.113213288574972,1.0194426774978638,-1.6058324019061487
1708433437.6171427,-2.1423611640930176,-1.334085540180542,-2.5278714338885706,6.113213169365682,1.0194177627563477,-1.6058810392962855
1708433437.6191308,-2.142401933670044,-1.3340648275664826,-2.5278309027301233,6.113220917969503,1.0194382667541504,-1.6058366934405726
1708433437.621117,-2.1423399448394775,-1.3340898615172883,-2.5278175512896937,6.113232600479879,1.019425392150879,-1.6059063116656702
1708433437.6231658,-2.1423680782318115,-1.3341102761081238,-2.5278382937060755,6.113295542984762,1.0194011926651,-1.6058853308307093
1708433437.625167,-2.1423399448394775,-1.3340690594962616,-2.5278428236590784,6.1132415411765955,1.0194011926651,-1.6059301535235804
1708433437.6271634,-2.1423771381378174,-1.3340728443912049,-2.5278549830066126,6.113260972290792,1.019425392150879,-1.6059096495257776
1708433437.629149,-2.142385959625244,-1.3340770614198227,-2.5278428236590784,6.113204228668966,1.019405484199524,-1.605912987385885
1708433437.631165,-2.1423656940460205,-1.3340974313071747,-2.5278053919421595,6.113298523217001,1.0194220542907715,-1.6059582869159144
1708433437.6331367,-2.142352342605591,-1.3340614599040528,-2.5278850237475794,6.1132850525672815,1.0194220542907715,-1.6059420744525355
1708433437.6351366,-2.1423611640930176,-1.334077076320984,-2.5278173128711146,6.113313662796774,1.019405484199524,-1.6059258619891565
1708433437.6371605,-2.1423354148864746,-1.334077076320984,-2.5278053919421595,6.113325583725729,1.0194177627563477,-1.6058924833880823
1708433437.6391754,-2.142401933670044,-1.3340812933496018,-2.5278473536120813,6.113259660988607,1.019425392150879,-1.6058977285968226
1708433437.641167,-2.1423635482788086,-1.3340648275664826,-2.5278549830066126,6.113321053772726,1.0194177627563477,-1.6058724562274378
1708433437.6431837,-2.142397403717041,-1.3340940934470673,-2.5278309027301233,6.113374817162313,1.0194460153579712,-1.605868164693014
1708433437.6451283,-2.1423611640930176,-1.3340648126653214,-2.5278175512896937,6.1133464453514,1.0194458961486816,-1.6059096495257776
1708433437.6471498,-2.1423840522766113,-1.3340974611094971,-2.5278549830066126,6.113349306374349,1.0194621086120605,-1.6059172789203089
1708433437.6491165,-2.142413377761841,-1.3340898615172883,-2.5278714338885706,6.113352286606588,1.0194416046142578,-1.60590106645693
1708433437.6511192,-2.1423795223236084,-1.3341383647969742,-2.5278518835650843,6.113352286606588,1.0194264650344849,-1.6059325377093714
1708433437.6531663,-2.1423726081848145,-1.3341462773135682,-2.5278685728656214,6.113380658417501,1.0194339752197266,-1.6059368292437952
1708433437.655108,-2.1423795223236084,-1.3341102761081238,-2.5278337637530726,6.113371598511495,1.0194664001464844,-1.6059578100787562
1708433437.6571403,-2.142338752746582,-1.3341178757003327,-2.5278804937945765,6.113385069161215,1.0194220542907715,-1.6059325377093714
1708433437.6591465,-2.1423139572143555,-1.3341060292771836,-2.5278623739825647,6.113395678787985,1.0194458961486816,-1.6059325377093714
1708433437.661125,-2.1423840522766113,-1.334142030482628,-2.5278189818011683,6.1134047386939905,1.0194416046142578,-1.6059325377093714
1708433437.6631522,-2.142397403717041,-1.3340983551791687,-2.5278382937060755,6.1134211895759485,1.019466519355774,-1.6059816519366663
1708433437.6651614,-2.1423768997192383,-1.3341017079404374,-2.5278971830951136,6.1134002087409876,1.0194296836853027,-1.6059239546405237
1708433437.6671596,-2.142392873764038,-1.3340770465186615,-2.5278714338885706,6.1134822247321985,1.0194578170776367,-1.605990235005514
1708433437.6691325,-2.1424505710601807,-1.3341136288693924,-2.5278218428241175,6.113503205567159,1.0194134712219238,-1.6059849897967737
1708433437.6711328,-2.1423885822296143,-1.334048644905426,-2.5278459231006067,6.113443720131674,1.0194621086120605,-1.6059816519366663
1708433437.6731732,-2.1423840522766113,-1.334068478350975,-2.5278354326831263,6.1134822247321985,1.0194578170776367,-1.6059730688678187
1708433437.6751678,-2.1423635482788086,-1.3340444725802918,-2.5278337637530726,6.113464224129476,1.0194833278656006,-1.6059849897967737
1708433437.6772015,-2.1424179077148438,-1.3340605658343812,-2.5278504530536097,6.113459813385763,1.0194790363311768,-1.6060012022601526
1708433437.679156,-2.1424248218536377,-1.3341255497983475,-2.5278459231006067,6.1135257361228845,1.0194789171218872,-1.6060426870929163
1708433437.681154,-2.1424202919006348,-1.3340733808330079,-2.5278292338000696,6.1135151264961145,1.0194578170776367,-1.606013600026266
1708433437.6831865,-2.142392873764038,-1.3341017079404374,-2.5278263727771204,6.11354826667861,1.019432783126831,-1.6060012022601526
1708433437.6851604,-2.142411470413208,-1.3340528917363663,-2.5278595129596155,6.1134986756141565,1.0194952487945557,-1.6059730688678187
1708433437.6871932,-2.1424179077148438,-1.3341093820384522,-2.5278804937945765,6.113531815796652,1.0194458961486816,-1.6060264746295374
1708433437.689146,-2.1423840522766113,-1.3340941083482285,-2.5278714338885706,6.113522875099935,1.01944899559021,-1.6060741583453577
1708433437.6911752,-2.142437219619751,-1.3340770465186615,-2.5278714338885706,6.1136138317878626,1.01947021484375,-1.6060331503497522
1708433437.6932254,-2.1424248218536377,-1.3341255497983475,-2.5278337637530726,6.1135973809059045,1.01947021484375,-1.6060341040240687
1708433437.6951365,-2.1424338817596436,-1.3341017079404374,-2.5278263727771204,6.113551246910848,1.0194778442382812,-1.606009308491842
1708433437.697202,-2.142415761947632,-1.3341060292771836,-2.5278473536120813,6.11353491523818,1.019474744796753,-1.6060784498797815
1708433437.6991477,-2.1424460411071777,-1.3340728145888825,-2.5278263727771204,6.113567340164938,1.0195071697235107,-1.6060298124896448
1708433437.7011454,-2.142411470413208,-1.3341136288693924,-2.5278881231891077,6.113574969559469,1.01947021484375,-1.606053654347555
1708433437.703187,-2.142441511154175,-1.3341008138707657,-2.527883593236105,6.113574969559469,1.019498348236084,-1.606053654347555
1708433437.705146,-2.142437219619751,-1.3341590923121949,-2.5278337637530726,6.113598811417379,1.0195343494415283,-1.6060493628131312
1708433437.707168,-2.142401933670044,-1.334036723976471,-2.5278640429126185,6.113631951599874,1.019482135772705,-1.6060612837420862
1708433437.7091532,-2.1424248218536377,-1.3341462773135682,-2.5278473536120813,6.113607871323385,1.019498348236084,-1.6060169378863733
1708433437.7111526,-2.142453908920288,-1.3340812933496018,-2.5278802553759974,6.113655793457784,1.0194940567016602,-1.6060288588153284
1708433437.7131476,-2.142453908920288,-1.3340812933496018,-2.5278714338885706,6.113655793457784,1.019485354423523,-1.606015984212057
1708433437.715146,-2.142404317855835,-1.3340812933496018,-2.5278504530536097,6.113681542664327,1.0195059776306152,-1.6060527006732386
1708433437.717147,-2.142432689666748,-1.3341340285590668,-2.5278144518481653,6.1136512635047815,1.0195059776306152,-1.6060450712787073
1708433437.7191358,-2.1423885822296143,-1.3340974611094971,-2.5278428236590784,6.113667952805319,1.019510269165039,-1.6060484091388147
1708433437.7211306,-2.142428159713745,-1.3341340285590668,-2.5278595129596155,6.113703477173605,1.019485354423523,-1.6060693899737757
1708433437.7231557,-2.142453908920288,-1.334048644905426,-2.5278802553759974,6.113720166474142,1.0195181369781494,-1.6061061064349573
1708433437.7251306,-2.142465353012085,-1.3340965670398255,-2.5278926531421106,6.113658892899313,1.0195059776306152,-1.6060851255999964
1708433437.727183,-2.142472505569458,-1.3341548454812546,-2.527879063283102,6.113693344383993,1.0195387601852417,-1.6060693899737757
1708433437.729157,-2.1424193382263184,-1.3340932142785569,-2.5278218428241175,6.113654601364889,1.0194648504257202,-1.6060808340655726
1708433437.7311594,-2.1424148082733154,-1.3341178757003327,-2.5278473536120813,6.113694417267599,1.0195138454437256,-1.6060527006732386
1708433437.7331579,-2.142456531524658,-1.3340889674476166,-2.5278263727771204,6.113715636521139,1.0195268392562866,-1.6060932318316858
1708433437.735139,-2.142465353012085,-1.334116981630661,-2.527883593236105,6.113740908890524,1.0195225477218628,-1.6060650984393519
1708433437.7371676,-2.142476797103882,-1.3340812933496018,-2.527883593236105,6.11364101150588,1.019485354423523,-1.606105152760641
1708433437.73915,-2.1424849033355713,-1.3341093522361298,-2.5278173128711146,6.1137438891227625,1.0195268392562866,-1.6061061064349573
1708433437.7411704,-2.142476797103882,-1.3341213029674073,-2.5278504530536097,6.11368094661788,1.0195300579071045,-1.606088940297262
1708433437.7432327,-2.1424520015716553,-1.3341297966292878,-2.527883593236105,6.113720166474142,1.0195181369781494,-1.6060975233661097
1708433437.745134,-2.142467975616455,-1.334142030482628,-2.5278623739825647,6.1137558100517175,1.019485354423523,-1.6061256567584437
1708433437.7471528,-2.142467975616455,-1.3340846461108704,-2.527857844029562,6.113775360375204,1.0195059776306152,-1.6061299482928675
1708433437.7491364,-2.1424477100372314,-1.3341548454812546,-2.5278640429126185,6.113793480187216,1.0195505619049072,-1.606133762990133
1708433437.7511172,-2.1424429416656494,-1.334096611743309,-2.527890984212057,6.113751399308004,1.0195549726486206,-1.606133762990133
1708433437.753141,-2.1424272060394287,-1.3341297966292878,-2.5278623739825647,6.113754617958822,1.0195300579071045,-1.6061704794513147
1708433437.7551336,-2.142465353012085,-1.3340728145888825,-2.5278504530536097,6.113759028702535,1.0195592641830444,-1.606100861226217
1708433437.7571833,-2.1424636840820312,-1.3341334623149415,-2.5279088656054896,6.11372588852004,1.0195300579071045,-1.606133762990133
1708433437.759166,-2.1424803733825684,-1.3340889674476166,-2.5278595129596155,6.1137664196784876,1.0195212364196777,-1.6061423460589808
1708433437.761139,-2.142467975616455,-1.3340932142785569,-2.5278549830066126,6.1137945530708215,1.0195138454437256,-1.6061747709857386
1708433437.7631898,-2.142463445663452,-1.3340898615172883,-2.5278549830066126,6.113806712418356,1.0195050239562988,-1.6061542669879358
1708433437.765151,-2.1425087451934814,-1.3340890121511002,-2.5279043356524866,6.113798963814535,1.0195138454437256,-1.6061294714557093
1708433437.7671893,-2.1424636840820312,-1.3341624450734635,-2.5278640429126185,6.113836514740743,1.0195311307907104,-1.606117073689596
1708433437.769135,-2.142522096633911,-1.334085540180542,-2.5278623739825647,6.1137874005134485,1.0195419788360596,-1.606161896382467
1708433437.7711358,-2.1424973011016846,-1.3340812933496018,-2.5278504530536097,6.1137932417686365,1.0195257663726807,-1.6061866919146937
1708433437.7731557,-2.1424429416656494,-1.334153951411583,-2.5278759638415735,6.113782870560446,1.0194897651672363,-1.606166187916891
1708433437.7751436,-2.142467975616455,-1.334105135207512,-2.527883593236105,6.113839494972982,1.0195343494415283,-1.606178108845846
1708433437.7772806,-2.1424713134765625,-1.3340812933496018,-2.5279043356524866,6.1137664196784876,1.0195300579071045,-1.6061294714557093
1708433437.7791681,-2.1425063610076904,-1.3341377836516877,-2.5278669039355677,6.113811242371359,1.0195257663726807,-1.6061371008502405
1708433437.7811394,-2.1425132751464844,-1.3340924096158524,-2.527879063283102,6.113802182465353,1.0195138454437256,-1.6061704794513147
1708433437.783217,-2.1424758434295654,-1.3340889674476166,-2.5278759638415735,6.113823163300314,1.0195343494415283,-1.6061294714557093
1708433437.7851474,-2.1425063610076904,-1.3341377836516877,-2.52789551416506,6.113835084229269,1.0195181369781494,-1.6061695257769983
1708433437.7871444,-2.1424882411956787,-1.3341255497983475,-2.5278595129596155,6.113818633347311,1.0195674896240234,-1.606178108845846
1708433437.7891407,-2.1425087451934814,-1.3341654700091858,-2.5278595129596155,6.113830554276266,1.0195181369781494,-1.6061695257769983
1708433437.7911305,-2.1425087451934814,-1.334117830996849,-2.5278382937060755,6.113839494972982,1.0195059776306152,-1.6061533133136194
1708433437.7931938,-2.1425423622131348,-1.3341377836516877,-2.5278428236590784,6.113860475807943,1.0195138454437256,-1.606161896382467
1708433437.7951868,-2.1424758434295654,-1.3341426116279145,-2.5278504530536097,6.113805043488302,1.0195300579071045,-1.6061251799212855
1708433437.7972097,-2.1424927711486816,-1.3340974611094971,-2.527808491383688,6.113827693253317,1.0195343494415283,-1.6061857382403772
1708433437.7992103,-2.1425538063049316,-1.334105135207512,-2.5278518835650843,6.113837945252218,1.0195343494415283,-1.6061199347125452
1708433437.8012042,-2.1425211429595947,-1.334085540180542,-2.527857844029562,6.113868224411764,1.0195181369781494,-1.6061695257769983
1708433437.8031936,-2.1424667835235596,-1.3341178757003327,-2.5278640429126185,6.113847005158224,1.0195343494415283,-1.6061695257769983
1708433437.8051505,-2.1425302028656006,-1.3341213029674073,-2.5278218428241175,6.113837945252218,1.0195095539093018,-1.6061695257769983
1708433437.8072119,-2.1424624919891357,-1.3341127198985596,-2.5278428236590784,6.113868105202474,1.0195138454437256,-1.6061857382403772
1708433437.8091736,-2.1425254344940186,-1.3340770465186615,-2.5278292338000696,6.113837945252218,1.0195181369781494,-1.6062138716327112
1708433437.8111522,-2.142516613006592,-1.3341093820384522,-2.5278714338885706,6.113863694458761,1.0195419788360596,-1.6062381903277796
1708433437.8132124,-2.1425423622131348,-1.3341377836516877,-2.5278459231006067,6.113859164505758,1.0194734334945679,-1.6062052885638636
1708433437.8151302,-2.1425538063049316,-1.334142030482628,-2.5278354326831263,6.113837945252218,1.0195462703704834,-1.606152359639303
1708433437.817129,-2.142483949661255,-1.3341136288693924,-2.5278428236590784,6.113859164505758,1.0195462703704834,-1.6061728636371058
1708433437.819126,-2.142512083053589,-1.3341462773135682,-2.5278173128711146,6.113837945252218,1.019513726234436,-1.6061652342425745
1708433437.8211179,-2.142529010772705,-1.3341377836516877,-2.5278218428241175,6.113814103394308,1.0195505619049072,-1.6062009970294397
1708433437.823146,-2.142544984817505,-1.3340965670398255,-2.527916495000021,6.113859164505758,1.019514560699463,-1.6061857382403772
1708433437.8251517,-2.142524480819702,-1.334142030482628,-2.5278337637530726,6.113805043488302,1.0194735527038574,-1.6061938444720667
1708433437.8272321,-2.142516613006592,-1.3340965670398255,-2.5278881231891077,6.113847005158224,1.0195430517196655,-1.606185261403219
1708433437.8291883,-2.142516613006592,-1.3341136288693924,-2.5278504530536097,6.113818633347311,1.0195268392562866,-1.6061652342425745
1708433437.83124,-2.142529010772705,-1.3341136288693924,-2.5278640429126185,6.113833415299215,1.0195387601852417,-1.6062009970294397
1708433437.8331778,-2.142540454864502,-1.3341297966292878,-2.527883593236105,6.113851415901937,1.0194897651672363,-1.6062095800982874
1708433437.835167,-2.142533540725708,-1.334105135207512,-2.5278595129596155,6.113818633347311,1.0194810628890991,-1.606196705495016
1708433437.8371758,-2.1425211429595947,-1.3341255497983475,-2.5278669039355677,6.113842475205221,1.0194897651672363,-1.6062424818622034
1708433437.8391674,-2.142544984817505,-1.334149570470192,-2.5278504530536097,6.1138096926505945,1.0195059776306152,-1.6061938444720667
1708433437.8412185,-2.1424953937530518,-1.3341291856816788,-2.5278714338885706,6.113851415901937,1.0194897651672363,-1.6061938444720667
1708433437.8431952,-2.142516613006592,-1.3341334623149415,-2.5278759638415735,6.1138096926505945,1.0195146799087524,-1.6061609427081507
1708433437.8451662,-2.142533540725708,-1.3340846461108704,-2.5278175512896937,6.113778459816732,1.019482135772705,-1.6061814467059534
1708433437.8471622,-2.1425652503967285,-1.3340924096158524,-2.5278473536120813,6.11383210399703,1.0194735527038574,-1.6061566511737269
1708433437.8491569,-2.1425564289093018,-1.3341496300748368,-2.5278218428241175,6.113846885948934,1.0195311307907104,-1.6062424818622034
1708433437.8511343,-2.1425561904907227,-1.3341136288693924,-2.5278428236590784,6.113802182465353,1.0194909572601318,-1.6062219778644007
1708433437.8531466,-2.142529010772705,-1.3341093820384522,-2.5278053919421595,6.113802182465353,1.0194909572601318,-1.606168572102682
1708433437.8551378,-2.142531633377075,-1.3341334623149415,-2.5278309027301233,6.113762128144064,1.01944899559021,-1.6062052885638636
1708433437.8571982,-2.142544984817505,-1.3341377836516877,-2.5278640429126185,6.113785493164816,1.019498348236084,-1.6062024275409144
1708433437.859149,-2.142573118209839,-1.3341017079404374,-2.5278473536120813,6.113797771721639,1.0194447040557861,-1.6061728636371058
1708433437.8611596,-2.142551898956299,-1.3341505241445084,-2.5278714338885706,6.113790023117819,1.019474744796753,-1.6062095800982874
1708433437.8631628,-2.142524480819702,-1.3341292154840012,-2.5278144518481653,6.113839494972982,1.0194532871246338,-1.6062305609332483
1708433437.8651612,-2.142568826675415,-1.3340846759131928,-2.5278473536120813,6.1138096926505945,1.0194491147994995,-1.6062095800982874
1708433437.8671672,-2.142524480819702,-1.3341093820384522,-2.5278309027301233,6.113811242371359,1.0194296836853027,-1.6061771551715296
1708433437.869151,-2.1425652503967285,-1.3341213029674073,-2.5278309027301233,6.113797771721639,1.0194621086120605,-1.6061771551715296
1708433437.8711228,-2.142535924911499,-1.3341136288693924,-2.5278218428241175,6.113811242371359,1.0194501876831055,-1.6062138716327112
1708433437.873168,-2.142573118209839,-1.3341255497983475,-2.5278428236590784,6.1137945530708215,1.0194264650344849,-1.6062176863299769
1708433437.8751554,-2.1425607204437256,-1.334105135207512,-2.5278428236590784,6.113790023117819,1.0194501876831055,-1.6061895529376429
1708433437.8772156,-2.142568826675415,-1.3341008138707657,-2.5278518835650843,6.113827693253317,1.0194876194000244,-1.606168572102682
1708433437.879159,-2.142551898956299,-1.3340846461108704,-2.5278804937945765,6.113790023117819,1.019420862197876,-1.6061814467059534
1708433437.8811684,-2.142564296722412,-1.3341505241445084,-2.5278640429126185,6.113806712418356,1.0194296836853027,-1.6062052885638636
1708433437.883207,-2.1425156593322754,-1.3341292154840012,-2.5278549830066126,6.113802301674642,1.0194544792175293,-1.606185261403219
1708433437.8851883,-2.142610549926758,-1.3340728145888825,-2.5278428236590784,6.113827693253317,1.0193936824798584,-1.606140438710348
1708433437.8871849,-2.142568826675415,-1.3341051501086731,-2.5278549830066126,6.11385594585494,1.0194469690322876,-1.6061938444720667
1708433437.8891587,-2.142547369003296,-1.3341419708779831,-2.5277934710132044,6.113847005158224,1.0194264650344849,-1.6061609427081507
1708433437.8911693,-2.142568826675415,-1.3341462177089234,-2.5277980009662073,6.113802182465353,1.0193936824798584,-1.6061938444720667
1708433437.8932025,-2.1425156593322754,-1.334105135207512,-2.5278099218951624,6.11385594585494,1.019385814666748,-1.6062024275409144
1708433437.8951647,-2.142568826675415,-1.3341136288693924,-2.5277767817126673,6.11387716510848,1.019360899925232,-1.606124226246969
1708433437.897152,-2.142559766769409,-1.3341462773135682,-2.5278428236590784,6.113797771721639,1.019373893737793,-1.6061652342425745
1708433437.8991542,-2.1425156593322754,-1.3341050905040284,-2.5278189818011683,6.113802182465353,1.0193324089050293,-1.6061814467059534
1708433437.901173,-2.1425812244415283,-1.3341008138707657,-2.5278189818011683,6.113748538285055,1.0194110870361328,-1.6061576048480433
1708433437.9031632,-2.142535924911499,-1.3340889674476166,-2.5278144518481653,6.113881575852194,1.0193530321121216,-1.6062067190753382
1708433437.9051297,-2.14253830909729,-1.3341740381768723,-2.5278189818011683,6.113806712418356,1.0193573236465454,-1.6061609427081507
1708433437.907166,-2.142597198486328,-1.3341740381768723,-2.527811590825216,6.113736736565389,1.0193617343902588,-1.606211010609762
1708433437.9091332,-2.142568826675415,-1.334068478350975,-2.527790371571676,6.1137486574943445,1.019370436668396,-1.606211010609762
1708433437.9111347,-2.14253830909729,-1.334142030482628,-2.527749840413229,6.113862025528707,1.0193498134613037,-1.6061652342425745
1708433437.9131594,-2.142564296722412,-1.334142030482628,-2.527808491383688,6.113787281304159,1.019321322441101,-1.606161896382467
1708433437.9151337,-2.142618417739868,-1.334142030482628,-2.527766291295187,6.113823163300314,1.0193378925323486,-1.6061814467059534
1708433437.917159,-2.1425721645355225,-1.3341462773135682,-2.5277424494372767,6.113806712418356,1.0192973613739014,-1.606166187916891
1708433437.919141,-2.1425812244415283,-1.334068478350975,-2.52771240869631,6.113811242371359,1.019317865371704,-1.6061576048480433
1708433437.9211628,-2.1425857543945312,-1.3341255497983475,-2.5277305285083216,6.113806712418356,1.0192861557006836,-1.6061576048480433
1708433437.9231603,-2.142551898956299,-1.3341213029674073,-2.5277305285083216,6.113790023117819,1.019277572631836,-1.6061866919146937
1708433437.9251666,-2.142564296722412,-1.3341383647969742,-2.5277186075793665,6.113780963211813,1.0192731618881226,-1.606133762990133
1708433437.9272313,-2.1425507068634033,-1.3341255497983475,-2.5277062098132532,6.113839494972982,1.0192941427230835,-1.606133762990133
1708433437.929189,-2.1425678730010986,-1.3341496002725144,-2.527698818837301,6.113790023117819,1.019274353981018,-1.6061213652240198
1708433437.9311764,-2.1425766944885254,-1.334068478350975,-2.5277062098132532,6.113798963814535,1.0192862749099731,-1.606112305318014
1708433437.9331586,-2.1425766944885254,-1.3341666919044037,-2.527695957814352,6.113759028702535,1.0192328691482544,-1.606105152760641
1708433437.9351501,-2.1425766944885254,-1.3340889674476166,-2.527703348790304,6.113778459816732,1.0192087888717651,-1.6061294714557093
1708433437.9371924,-2.1426050662994385,-1.334085540180542,-2.527694288884298,6.1137945530708215,1.0192174911499023,-1.60608417192568
1708433437.939157,-2.142601490020752,-1.3341292154840012,-2.527728859578268,6.113798963814535,1.0192217826843262,-1.606105152760641
1708433437.9411976,-2.1425225734710693,-1.3341093820384522,-2.527691427861349,6.1137709496314905,1.0192055702209473,-1.6061561743365687
1708433437.9432137,-2.142559766769409,-1.334122197037079,-2.527703348790304,6.113737809448995,1.0192142724990845,-1.6060717741595667
1708433437.9451408,-2.1426093578338623,-1.334068478350975,-2.527642075215475,6.113811242371359,1.019160509109497,-1.6061094442950647
1708433437.9471195,-2.1425721645355225,-1.3341017079404374,-2.527658526097433,6.113782870560446,1.0191936492919922,-1.6061018149005335
1708433437.949131,-2.1425881385803223,-1.3340770465186615,-2.527658526097433,6.113775479584493,1.019160509109497,-1.6060569922076624
1708433437.9511127,-2.1425721645355225,-1.3341213029674073,-2.527658526097433,6.113733279495992,1.0191859006881714,-1.6060975233661097
1708433437.953176,-2.1425552368164062,-1.3341505241445084,-2.5276721159564417,6.113791811257162,1.0191901922225952,-1.6060612837420862
1708433437.9551194,-2.1425766944885254,-1.3341334623149415,-2.527679506932394,6.113775479584493,1.0191246271133423,-1.6060407797442835
1708433437.9571345,-2.1425721645355225,-1.3341548454812546,-2.527728859578268,6.113748538285055,1.0191454887390137,-1.6060851255999964
1708433437.959118,-2.1425721645355225,-1.3340728145888825,-2.527684036885397,6.113709437638082,1.0191376209259033,-1.6060851255999964
1708433437.9611142,-2.1425857543945312,-1.3341340285590668,-2.5276601950274866,6.113730418473043,1.019097089767456,-1.6060612837420862
1708433437.9631388,-2.142592668533325,-1.3341624450734635,-2.5276601950274866,6.11364101150588,1.0191376209259033,-1.6060212294207972
1708433437.965125,-2.1426005363464355,-1.3340974611094971,-2.5276511351214808,6.113707768708029,1.019085168838501,-1.606025520955221
1708433437.9671433,-2.142592668533325,-1.334093229179718,-2.527625385914938,6.113666522293844,1.0190882682800293,-1.6060121695147913
1708433437.9691088,-2.1425793170928955,-1.3341093820384522,-2.5276675860034388,6.113682496338644,1.0190646648406982,-1.6059921423541468
1708433437.9711347,-2.1425507068634033,-1.3341377836516877,-2.5276225248919886,6.113650071411886,1.0191056728363037,-1.6061003843890589
1708433437.9731457,-2.1426308155059814,-1.3341255497983475,-2.5276299158679407,6.1136958477790735,1.0190534591674805,-1.6060345808612269
1708433437.9751587,-2.142597198486328,-1.334112749700882,-2.5276179949389856,6.113655793457784,1.0190285444259644,-1.606070343648092
1708433437.9773066,-2.1426217555999756,-1.3340812933496018,-2.5276179949389856,6.113663422852316,1.0190329551696777,-1.6060417334186
1708433437.979169,-2.1425507068634033,-1.3341093969396134,-2.5276270548449915,6.113652932434835,1.019004464149475,-1.60600454012026
1708433437.981178,-2.1426005363464355,-1.3341017079404374,-2.5276194254504603,6.113622891693868,1.0190131664276123,-1.606013600026266
1708433437.9832053,-2.1426141262054443,-1.3341093820384522,-2.5276315847979944,6.113610732346334,1.0190380811691284,-1.6059640089618128
1708433437.9852438,-2.1425881385803223,-1.3341102761081238,-2.5276058355914515,6.11368607261733,1.0189933776855469,-1.6059683004962366
1708433437.987194,-2.1425721645355225,-1.3341060143760224,-2.5275984446154993,6.113631951599874,1.018977165222168,-1.6059864203082483
1708433437.9891896,-2.1426005363464355,-1.3340477508357544,-2.5276647249804896,6.113625752716818,1.018965244293213,-1.6060054937945765
1708433437.9912572,-2.1425812244415283,-1.3341136288693924,-2.527607504521505,6.113601672440328,1.018960952758789,-1.6059892813311976
1708433437.9931927,-2.1426093578338623,-1.3340846461108704,-2.5275984446154993,6.113573419838705,1.0189571380615234,-1.6059654394732874
1708433437.99519,-2.1426050662994385,-1.3340282303145905,-2.527566973363058,6.113598811417379,1.0189409255981445,-1.6059158484088343
1708433437.997207,-2.1426050662994385,-1.3340974611094971,-2.527574602757589,6.11361979225234,1.0189290046691895,-1.6059444586383265
1708433437.9992347,-2.1425836086273193,-1.3341136288693924,-2.527591053639547,6.113603341370382,1.0189496278762817,-1.6059625784503382
1708433438.0012114,-2.1426005363464355,-1.3340648126653214,-2.527550284062521,6.1136242029960535,1.018925428390503,-1.605941120778219
1708433438.0031862,-2.1426093578338623,-1.334105135207512,-2.527588192616598,6.113610732346334,1.0189049243927002,-1.6059277693377894
1708433438.005153,-2.1425747871398926,-1.3341383647969742,-2.527533833180563,6.1136454222495935,1.0188641548156738,-1.6059492270099085
1708433438.0071588,-2.1426217555999756,-1.3341136288693924,-2.5275383631335657,6.113562810211935,1.0188767910003662,-1.6059454123126429
1708433438.009131,-2.142591714859009,-1.3340770465186615,-2.5275428930865687,6.113607871323385,1.0188767910003662,-1.6059425512896937
1708433438.0111513,-2.1425588130950928,-1.3340889674476166,-2.527566973363058,6.113591420441427,1.0188524723052979,-1.6058514753924769
1708433438.0131507,-2.1425960063934326,-1.3341426116279145,-2.52752930322756,6.113574969559469,1.0188567638397217,-1.6058691183673304
1708433438.015134,-2.1426331996917725,-1.3340965968421479,-2.527500931416647,6.113551246910848,1.01888108253479,-1.6058571974383753
1708433438.0171576,-2.1426331996917725,-1.334056319003441,-2.5275428930865687,6.113555657654562,1.0188448429107666,-1.6058614889727991
1708433438.0191147,-2.1425836086273193,-1.3341297519258042,-2.5275054613696497,6.113551246910848,1.0188610553741455,-1.6058333555804651
1708433438.0211399,-2.1426005363464355,-1.3340889525464554,-2.5275638739215296,6.113539206772604,1.018816351890564,-1.6058781782733362
1708433438.0231345,-2.1426217555999756,-1.3341339540532609,-2.5275071302997034,6.113621222763815,1.0188120603561401,-1.60585862794985
1708433438.0251322,-2.142612934112549,-1.3340642613223572,-2.5275326410876673,6.113584029465475,1.0187922716140747,-1.605816666279928
1708433438.0271547,-2.1426377296447754,-1.3340932142785569,-2.5274646917926233,6.113551246910848,1.0187804698944092,-1.605837647114889
1708433438.029165,-2.1425836086273193,-1.3341008138707657,-2.5275400320636194,6.1135527966316126,1.0187804698944092,-1.6058014074908655
1708433438.0311766,-2.142597198486328,-1.334133968954422,-2.5274980703936976,6.113543736725607,1.0188010931015015,-1.6057599226581019
1708433438.0331697,-2.1426050662994385,-1.3340812486461182,-2.5275443235980433,6.113519656449117,1.0187519788742065,-1.6057475248919886
1708433438.035183,-2.1425766944885254,-1.3341093820384522,-2.527478281651632,6.1134986756141565,1.01875638961792,-1.6057732740985315
1708433438.0371928,-2.142592668533325,-1.3341255497983475,-2.5274692217456263,6.113519656449117,1.0187410116195679,-1.6058314482318323
1708433438.0391655,-2.142608404159546,-1.3341178011945267,-2.5275161902057093,6.11352418640212,1.0187113285064697,-1.6057623068438929
1708433438.0411694,-2.1425747871398926,-1.3341505092433472,-2.527482811604635,6.11346589305953,1.018703818321228,-1.6057208220111292
1708433438.0432012,-2.1425881385803223,-1.3341505241445084,-2.5274997393237513,6.113486873894491,1.0187366008758545,-1.6056998411761683
1708433438.0452244,-2.1425960063934326,-1.3340974313071747,-2.527454439793722,6.113494145661154,1.0186753273010254,-1.6057699362384241
1708433438.047142,-2.142604112625122,-1.3340690594962616,-2.527449909840719,6.1135257361228845,1.018720030784607,-1.605654541646139
1708433438.0491467,-2.1426005363464355,-1.334154875283577,-2.527479950581686,6.113470423012533,1.0187005996704102,-1.6057117621051233
1708433438.051143,-2.1425633430480957,-1.3340690445951005,-2.527405325566427,6.113474952965536,1.018716812133789,-1.6057341734515589
1708433438.0531569,-2.1426422595977783,-1.334163324241974,-2.527463499699728,6.113450753479757,1.0186840295791626,-1.6057174841510218
1708433438.0551307,-2.1425812244415283,-1.334122197037079,-2.5274997393237513,6.113441812783041,1.0186394453048706,-1.6056726614581507
1708433438.0571208,-2.142599582672119,-1.334117830996849,-2.527426067982809,6.1134225008781335,1.0186690092086792,-1.6056197325335901
1708433438.0591486,-2.1426331996917725,-1.3340974611094971,-2.527463499699728,6.113417970925131,1.0186734199523926,-1.6056440512286585
1708433438.0611584,-2.142592668533325,-1.3340528917363663,-2.5274844805346888,6.1134105799491785,1.0186480283737183,-1.6056440512286585
1708433438.0631342,-2.1426243782043457,-1.334069089298584,-2.5274351278888147,6.113398539810934,1.0186645984649658,-1.605600659047262
1708433438.0651288,-2.1425836086273193,-1.3341340285590668,-2.52744704881777,6.113424050598898,1.0186078548431396,-1.6056330839740198
1708433438.067111,-2.1425724029541016,-1.334085540180542,-2.5274186770068567,6.113473164826193,1.0186524391174316,-1.6055915991412562
1708433438.0691361,-2.1425507068634033,-1.334122197037079,-2.5273810068713587,6.113432991295614,1.0186654329299927,-1.6056049505816858
1708433438.071145,-2.1426050662994385,-1.334064857368805,-2.5273900667773646,6.1134376404579065,1.0185872316360474,-1.6056049505816858
1708433438.0731354,-2.1425704956054688,-1.3340528917363663,-2.5274441877948206,6.113371598511495,1.0186121463775635,-1.6056259314166468
1708433438.075171,-2.1426050662994385,-1.3341102761081238,-2.5274232069598597,6.113355266838827,1.018613338470459,-1.6055763403521937
1708433438.0772023,-2.1426005363464355,-1.334085540180542,-2.5273991266833704,6.11339699009017,1.0185801982879639,-1.6055691877948206
1708433438.0791943,-2.1426331996917725,-1.334045336847641,-2.5273824373828333,6.11341820934371,1.018588900566101,-1.6055477301227015
1708433438.0812109,-2.1425721645355225,-1.334069014792778,-2.527429167424337,6.113331424980917,1.018613338470459,-1.6055153051959437
1708433438.0832174,-2.142608404159546,-1.334036723976471,-2.5274081865893763,6.113371598511495,1.0185517072677612,-1.6055610815631312
1708433438.0852242,-2.142653703689575,-1.3341306012919922,-2.5274036566363733,6.113340365677633,1.0185312032699585,-1.6055610815631312
1708433438.0871735,-2.1426005363464355,-1.3340941083482285,-2.527391497288839,6.113307583123007,1.0185726881027222,-1.6055238882647913
1708433438.0891674,-2.1426289081573486,-1.3340495389750977,-2.5274081865893763,6.1133731482322595,1.0185312032699585,-1.6054957548724573
1708433438.0912154,-2.1426422595977783,-1.3340734106353302,-2.527350966130392,6.113316523819723,1.0185604095458984,-1.6054757277118128
1708433438.0932767,-2.1425793170928955,-1.3340898615172883,-2.527355496083395,6.11331199386672,1.018576979637146,-1.6054967085467737
1708433438.0951703,-2.1426289081573486,-1.334097446208336,-2.5273705164538782,6.113352286606588,1.0185236930847168,-1.605483357106344
1708433438.0971944,-2.1425960063934326,-1.3340898615172883,-2.5273869673358362,6.113316523819723,1.0185279846191406,-1.6054804960833948
1708433438.0991268,-2.1425793170928955,-1.334077627663948,-2.527363125477926,6.113323914795675,1.0185279846191406,-1.6054890791522425
1708433438.101142,-2.142604112625122,-1.3340529215386887,-2.527346436177389,6.113309132843771,1.018576979637146,-1.6055057684527796
1708433438.1031604,-2.1426331996917725,-1.3340690296939393,-2.527346436177389,6.113349306374349,1.0185073614120483,-1.6054728666888636
1708433438.1051474,-2.142612934112549,-1.3340410453132172,-2.527376715336935,6.113314974098959,1.018496036529541,-1.6054771582232874
1708433438.1071646,-2.1426050662994385,-1.334069089298584,-2.527329985295431,6.113287913590231,1.0184710025787354,-1.6054232756244105
1708433438.109149,-2.1426217555999756,-1.33404956877742,-2.527329985295431,6.113321053772726,1.018484115600586,-1.6054771582232874
1708433438.1111398,-2.1425678730010986,-1.3340983551791687,-2.5273223559008997,6.113292443543234,1.0184710025787354,-1.6054399649249476
1708433438.1131663,-2.1426262855529785,-1.3340495389750977,-2.527350966130392,6.113342034607687,1.0184928178787231,-1.6054695288287562
1708433438.115144,-2.142591714859009,-1.334069849257805,-2.5273013750659388,6.113239991455831,1.0185003280639648,-1.6054289976703089
1708433438.1171646,-2.1426217555999756,-1.334085540180542,-2.5273359457599085,6.113259660988607,1.018545389175415,-1.6053994337665003
1708433438.1191282,-2.142612934112549,-1.3340572130731125,-2.527341906224386,6.113271462708273,1.018484115600586,-1.6053713003741663
1708433438.1211538,-2.1426050662994385,-1.3340983849814911,-2.5273268858539026,6.113304602890768,1.018467903137207,-1.6054366270648401
1708433438.1231434,-2.1425678730010986,-1.3340410453132172,-2.5273104349719446,6.113325583725729,1.0184481143951416,-1.6054156462298792
1708433438.1251457,-2.142608404159546,-1.3340011102012177,-2.527339045201437,6.113273131638326,1.0184513330459595,-1.6054204146014612
1708433438.1272118,-2.1425588130950928,-1.334058092241623,-2.5273223559008997,6.113273131638326,1.0184556245803833,-1.605424706135885
1708433438.129183,-2.1426093578338623,-1.334058017735817,-2.527355496083395,6.113271462708273,1.0184513330459595,-1.6054533163653772
1708433438.1311817,-2.1425838470458984,-1.3340657365373154,-2.5273285547839563,6.113259660988607,1.0184394121170044,-1.6054366270648401
1708433438.1331651,-2.142608404159546,-1.3340336841395875,-2.5273526350604456,6.113230931549825,1.0184351205825806,-1.605358902608053
1708433438.1351676,-2.1425793170928955,-1.3340337139419098,-2.5273435751544397,6.113203036576071,1.0184481143951416,-1.6053994337665003
1708433438.1371722,-2.1425881385803223,-1.3340495240739365,-2.5272730032550257,6.113273131638326,1.0184481143951416,-1.6054447332965296
1708433438.1391594,-2.1426217555999756,-1.3340421927026291,-2.5273285547839563,6.1132415411765955,1.0184359550476074,-1.605440918599264
1708433438.141197,-2.1426005363464355,-1.3340409857085724,-2.5273268858539026,6.113229977875509,1.0184687376022339,-1.6054323355304163
1708433438.143253,-2.1425678730010986,-1.3340257120183487,-2.527334515248434,6.113199817925253,1.0184240341186523,-1.6054204146014612
1708433438.1451762,-2.1425881385803223,-1.3340537262013932,-2.5273268858539026,6.113151776581564,1.0184402465820312,-1.6054323355304163
1708433438.147171,-2.1425793170928955,-1.3340378564647217,-2.5273121039019983,6.113135325699606,1.018431544303894,-1.605424706135885
1708433438.1491487,-2.1425793170928955,-1.3339647364667435,-2.5272448698626917,6.113135325699606,1.0184402465820312,-1.6054275671588343
1708433438.1511471,-2.1426050662994385,-1.3340299737504502,-2.5272939840899866,6.113151776581564,1.018416166305542,-1.6054604689227503
1708433438.1531703,-2.142597198486328,-1.3340342950871964,-2.5273240248309534,6.113144385605612,1.0184284448623657,-1.6055024305926722
1708433438.1551485,-2.1426005363464355,-1.3340137612870713,-2.5272324720965784,6.1131876585777185,1.0184446573257446,-1.6054561773883265
1708433438.1571822,-2.1425633430480957,-1.3340343099883576,-2.5273149649249476,6.113120662956991,1.018403172492981,-1.6054890791522425
1708433438.159154,-2.1425881385803223,-1.3340666455081482,-2.5272701422320765,6.11307584026412,1.0184074640274048,-1.605537239705221
1708433438.161142,-2.1426050662994385,-1.3340051186135788,-2.5273073355304163,6.113138544350424,1.0184118747711182,-1.605537239705221
1708433438.1631453,-2.142601728439331,-1.3340464991382142,-2.5272491613971155,6.113080370217123,1.0184327363967896,-1.6055658499347132
1708433438.1651573,-2.1425464153289795,-1.333985687499382,-2.5273075739489954,6.113060700684347,1.018416166305542,-1.6056063810931605
1708433438.1671426,-2.1426217555999756,-1.333985687499382,-2.5272837320910853,6.113068449288168,1.0184074640274048,-1.6056092421161097
1708433438.169144,-2.1425960063934326,-1.3340256971171875,-2.5272672812091272,6.113077389984884,1.018399953842163,-1.6056631247149866
1708433438.1711366,-2.1425960063934326,-1.33400613189254,-2.527316395436422,6.113006579666891,1.0184086561203003,-1.605628792439596
1708433438.173166,-2.1425881385803223,-1.3340257120183487,-2.527250353490011,6.113071310311117,1.018399953842163,-1.605628792439596
1708433438.1751282,-2.142592668533325,-1.3340104979327698,-2.5272792021380823,6.11301730850295,1.0184240341186523,-1.6056845823871058
1708433438.1772358,-2.1425721645355225,-1.334031031732895,-2.527245823537008,6.1130127785499475,1.0184074640274048,-1.6056755224811
1708433438.179199,-2.1426174640655518,-1.3339605641416092,-2.527316395436422,6.1130292294319055,1.0184204578399658,-1.6057699362384241
1708433438.1812027,-2.1426093578338623,-1.3339899641326447,-2.5272672812091272,6.113038170128622,1.0184074640274048,-1.6057985464679163
1708433438.183184,-2.142592668533325,-1.3339691323092957,-2.5273121039019983,6.112956154137411,1.0183837413787842,-1.6058133284198206
1708433438.1851943,-2.1426141262054443,-1.3339899343303223,-2.5272792021380823,6.112948763161459,1.0183837413787842,-1.6058319250689905
1708433438.18718,-2.1425836086273193,-1.3340310615352173,-2.5272536913501185,6.112966763764181,1.018404245376587,-1.6058767477618616
1708433438.189161,-2.1425812244415283,-1.3339615774205704,-2.527304712926046,6.112978565483846,1.018404245376587,-1.606006924306051
1708433438.1911767,-2.142568588256836,-1.3339974594167252,-2.5273001829730433,6.112957703858175,1.0183675289154053,-1.6060012022601526
1708433438.1932294,-2.142590284347534,-1.3339899343303223,-2.5272837320910853,6.112896191864767,1.0183912515640259,-1.606098477040426
1708433438.1952178,-2.142597198486328,-1.3340028536370774,-2.5272792021380823,6.112897860794821,1.018416166305542,-1.6061304251300257
1708433438.1972044,-2.142564296722412,-1.3340104979327698,-2.5272911230670374,6.112860548287191,1.0184118747711182,-1.606222931538717
1708433438.199211,-2.142547369003296,-1.33392886937175,-2.5273001829730433,6.112811195641317,1.018399953842163,-1.6062539259540003
1708433438.2012074,-2.142559766769409,-1.334007204776146,-2.5272792021380823,6.112857568054952,1.0183956623077393,-1.606391731892721
1708433438.203174,-2.142540454864502,-1.333936722283699,-2.5273001829730433,6.112838017731466,1.0183923244476318,-1.6064723173724573
1708433438.2051468,-2.1425225734710693,-1.3339539182237168,-2.52722937265505,6.112809645920553,1.0184129476547241,-1.6065314451800745
1708433438.2071722,-2.142540454864502,-1.3339245033315201,-2.527304712926046,6.112842547684469,1.0184327363967896,-1.6066182295428675
1708433438.2091496,-2.142564296722412,-1.3339373928359528,-2.5272701422320765,6.112818705826559,1.018388032913208,-1.606765095387594
1708433438.2111266,-2.142544984817505,-1.3339539182237168,-2.5272627512561243,6.112790095597067,1.0183956623077393,-1.6068809668170374
1708433438.2131474,-2.142486333847046,-1.3339582693627854,-2.527241293584005,6.112807976990499,1.018404245376587,-1.6070130507098597
1708433438.2151418,-2.142512083053589,-1.3339053404382248,-2.5272672812091272,6.1127333519752405,1.018399953842163,-1.607154671345846
1708433438.217144,-2.1425492763519287,-1.3339172464660187,-2.527245823537008,6.112756001740255,1.018416166305542,-1.607253376637594
1708433438.219119,-2.142537832260132,-1.3339300912669678,-2.527245823537008,6.112735020905294,1.0183923244476318,-1.6073616186725062
1708433438.2211173,-2.142475128173828,-1.3338934642127533,-2.5272792021380823,6.1126736281211755,1.0183912515640259,-1.6075266043292444
1708433438.2231684,-2.1425254344940186,-1.333901972775795,-2.527292791997091,6.112727629929342,1.018399953842163,-1.6076872984515589
1708433438.2251396,-2.142507791519165,-1.3339300912669678,-2.5272911230670374,6.1126452563102625,1.0183956623077393,-1.6077702681170862
1708433438.2271852,-2.142512083053589,-1.333934338097908,-2.5272672812091272,6.112654316216268,1.018386960029602,-1.607950512562887
1708433438.2291918,-2.1424996852874756,-1.3338934940150757,-2.5272911230670374,6.1126394150550745,1.0184204578399658,-1.6080988089190882
1708433438.2311633,-2.1424996852874756,-1.3339097064784546,-2.527254883443014,6.112618195801534,1.0183545351028442,-1.6082585493670862
1708433438.2331748,-2.1424927711486816,-1.333941788678505,-2.52727181116213,6.112561213761129,1.018388032913208,-1.6084259192096155
1708433438.2351873,-2.1425132751464844,-1.333958239560463,-2.527288262044088,6.112591492920675,1.018416166305542,-1.6086424032794397
1708433438.2372046,-2.1424803733825684,-1.3339106750539322,-2.527325455342428,6.112570273667135,1.0183837413787842,-1.608814541493551
1708433438.2391708,-2.1424520015716553,-1.333945946102478,-2.5272956530200403,6.112528788834371,1.018416166305542,-1.6089742819415491
1708433438.2412267,-2.1425018310546875,-1.333893508916237,-2.5272672812091272,6.112537729531088,1.0183956623077393,-1.609138313923971
1708433438.2431936,-2.1424803733825684,-1.333864988093712,-2.5272837320910853,6.112579333573141,1.018416166305542,-1.6093719641314905
1708433438.245145,-2.1424803733825684,-1.3339106154492875,-2.5272627512561243,6.112522589951315,1.0184074640274048,-1.6096041838275355
1708433438.2471766,-2.142489194869995,-1.3338691902211686,-2.527250353490011,6.112444865494528,1.0184197425842285,-1.609812084828512
1708433438.2491522,-2.1424238681793213,-1.3339149516871949,-2.527238432561056,6.112404572754659,1.018375039100647,-1.6100729147540491
1708433438.2511146,-2.142406940460205,-1.3339139086059113,-2.52727181116213,6.112480747490682,1.0184240341186523,-1.6103137175189417
1708433438.2531407,-2.1424179077148438,-1.3338983815959473,-2.52722937265505,6.11241506317214,1.0183912515640259,-1.6104968229876917
1708433438.2551205,-2.142432689666748,-1.3338692051223298,-2.527254883443014,6.112447845726766,1.0184284448623657,-1.610753361378805
1708433438.2571573,-2.142469882965088,-1.3339069497636338,-2.5272367636310022,6.112395512848654,1.0183837413787842,-1.6110013167010706
1708433438.259167,-2.142400026321411,-1.333849774008133,-2.5272746721850794,6.112338530808248,1.0184327363967896,-1.6112211386310022
1708433438.261154,-2.142415761947632,-1.3338821691325684,-2.5272672812091272,6.112303244858541,1.0183955430984497,-1.611481014882223
1708433438.2631598,-2.142392873764038,-1.3338573288968583,-2.5272837320910853,6.112307536392965,1.0184074640274048,-1.6118148008929651
1708433438.2651293,-2.1424179077148438,-1.3339224618724366,-2.527304712926046,6.112344491272726,1.0183794498443604,-1.612091366444723
1708433438.2671366,-2.142354726791382,-1.3338375401547928,-2.5272746721850794,6.1122745154197595,1.0183987617492676,-1.6124289671527308
1708433438.2691348,-2.1423611640930176,-1.333886445765831,-2.5272582213031214,6.112271535187521,1.018399953842163,-1.6126869360553187
1708433438.2711356,-2.142352342605591,-1.3338454526713868,-2.5273001829730433,6.1122851250465295,1.0184327363967896,-1.6130488554583948
1708433438.273188,-2.1423726081848145,-1.3339310896447678,-2.5272539297686976,6.112256514817037,1.0184240341186523,-1.6133282820331019
1708433438.275137,-2.142338752746582,-1.333874524836876,-2.5272956530200403,6.11217890956954,1.0184446573257446,-1.6137049833880823
1708433438.2771895,-2.1423115730285645,-1.3338289272836228,-2.527241293584005,6.112187850266256,1.0184240341186523,-1.614016358052389
1708433438.279191,-2.1423487663269043,-1.3338778924993058,-2.5272746721850794,6.11217890956954,1.0184153318405151,-1.6144593397723597
1708433438.2811651,-2.142340898513794,-1.333846167927124,-2.527250353490011,6.112156379013815,1.0184687376022339,-1.6148980299579065
1708433438.2832067,-2.1423487663269043,-1.3338375103524704,-2.5272672812091272,6.112172829895773,1.0184656381607056,-1.6152570883380335
1708433438.2852068,-2.1422743797302246,-1.3338461828282853,-2.527320925389425,6.1121489880378626,1.0184272527694702,-1.615624729787008
1708433438.287196,-2.1423134803771973,-1.333874524836876,-2.5273030439959925,6.112106787949362,1.018452525138855,-1.6159518400775355
1708433438.289161,-2.142329454421997,-1.3338212829879303,-2.527288262044088,6.112101304322042,1.018452525138855,-1.6163857618915003
1708433438.2911885,-2.142272710800171,-1.3338426810554047,-2.527320925389425,6.112035381584921,1.018431544303894,-1.6167972723590296
1708433438.2931998,-2.1422886848449707,-1.3338255745223542,-2.5272746721850794,6.11204885223464,1.018497109413147,-1.6172402540790003
1708433438.2951725,-2.1422524452209473,-1.3338540506413956,-2.5272536913501185,6.111999261170187,1.0184853076934814,-1.6176274458514612
1708433438.297183,-2.1423017978668213,-1.3338054430535813,-2.527250353490011,6.112054574280538,1.0184636116027832,-1.6180885473834437
1708433438.2991369,-2.142244577407837,-1.3338583570769806,-2.5273030439959925,6.111963617592611,1.0184438228607178,-1.6184957663165491
1708433438.3011236,-2.1422295570373535,-1.3338427257588883,-2.5273001829730433,6.111965167313375,1.0184766054153442,-1.6190112272845667
1708433438.303169,-2.142200231552124,-1.3338546764901658,-2.5272792021380823,6.111969578057089,1.0184928178787231,-1.6194341818438929
1708433438.3051193,-2.1422295570373535,-1.3338540506413956,-2.5272837320910853,6.111954557686605,1.0184513330459595,-1.6199119726764124
1708433438.307161,-2.142184257507324,-1.3338183772614975,-2.5273121039019983,6.111884104996481,1.0185046195983887,-1.6203716436969202
1708433438.30916,-2.1421730518341064,-1.3338711720756073,-2.5272956530200403,6.111893164902487,1.0185291767120361,-1.6208913961993616
1708433438.3111393,-2.142127752304077,-1.3338384342244645,-2.5272820631610315,6.11183642128066,1.0184721946716309,-1.6213577429400843
1708433438.3131566,-2.142164945602417,-1.3338670444539567,-2.5272746721850794,6.111804950028219,1.018480896949768,-1.621746842061178
1708433438.3151336,-2.1421279907226562,-1.3338063669255753,-2.5273075739489954,6.111808168679037,1.0185540914535522,-1.6222623030291956
1708433438.3171709,-2.1421163082122803,-1.3338225495866318,-2.527337376271383,6.111842620163717,1.0185290575027466,-1.6228044668780726
1708433438.3191295,-2.142080068588257,-1.3338183623603364,-2.5273001829730433,6.111811029701986,1.018545389175415,-1.6233180204974573
1708433438.3211412,-2.1421172618865967,-1.3337694269469758,-2.527250353490011,6.111761796265402,1.0185322761535645,-1.6237552801715296
1708433438.323174,-2.1421263217926025,-1.3337941479733963,-2.5272701422320765,6.11175428608016,1.0185399055480957,-1.6243212858783167
1708433438.325123,-2.1420810222625732,-1.3337941330722352,-2.52722937265505,6.111676442414083,1.0184667110443115,-1.6248849073993128
1708433438.3271725,-2.142085552215576,-1.3337333512357255,-2.527316395436422,6.111718404084005,1.0185527801513672,-1.6253498236285608
1708433438.329287,-2.142057180404663,-1.333826870923378,-2.5272956530200403,6.111621129303732,1.0185312032699585,-1.6259310881244105
1708433438.3311687,-2.1420156955718994,-1.3337822568467637,-2.5273285547839563,6.111667859345236,1.0185441970825195,-1.6264732519732874
1708433438.3331928,-2.142059326171875,-1.3338192862323304,-2.5272865931140345,6.1116347191627405,1.0185322761535645,-1.626974884663717
1708433438.3351371,-2.1419928073883057,-1.333786593084671,-2.5272792021380823,6.11156581619338,1.0185441970825195,-1.6275861899005335
1708433438.33716,-2.1419758796691895,-1.333798499112465,-2.5272837320910853,6.111558425217428,1.0185192823410034,-1.628134552632467
1708433438.339161,-2.141993522644043,-1.3337779206088562,-2.5272911230670374,6.111570346146383,1.0185604095458984,-1.6287439505206507
1708433438.3411574,-2.1419804096221924,-1.3337865781835099,-2.5272746721850794,6.111506211548605,1.0185236930847168,-1.6293132940875452
1708433438.3432236,-2.1419575214385986,-1.3337746125510712,-2.5272582213031214,6.111431348114767,1.0185561180114746,-1.629911247883932
1708433438.3451455,-2.141979932785034,-1.3337627065232773,-2.5272582213031214,6.111450660019674,1.0185726881027222,-1.6304667631732386
1708433438.3471622,-2.141941547393799,-1.3337789189866562,-2.527316395436422,6.111418235092916,1.0185441970825195,-1.6310299078570765
1708433438.3491726,-2.141921043395996,-1.3337865632823487,-2.5272658506976526,6.111368644028463,1.0185354948043823,-1.6317022482501429
1708433438.3511336,-2.1419053077697754,-1.3337171536735077,-2.5272956530200403,6.11141978481368,1.0185801982879639,-1.6323326269732874
1708433438.3531902,-2.1418893337249756,-1.3337299984744568,-2.5272746721850794,6.1113836643989465,1.0185399055480957,-1.6329296270953577
1708433438.3551192,-2.1418490409851074,-1.3337994825891037,-2.5273285547839563,6.111314761429586,1.0185801982879639,-1.6335914770709437
1708433438.3571372,-2.1418867111206055,-1.33370195448909,-2.5273121039019983,6.111270057946005,1.0185595750808716,-1.6342232863055628
1708433438.3591628,-2.1418778896331787,-1.3337171536735077,-2.5273030439959925,6.111217605858602,1.018588900566101,-1.6348980108844202
1708433438.3611767,-2.1418302059173584,-1.333770365720131,-2.5272701422320765,6.111266839295187,1.0185682773590088,-1.6355002562152308
1708433438.3631833,-2.1418800354003906,-1.333758444791176,-2.5273075739489954,6.111242997437277,1.0185801982879639,-1.6362302939044397
1708433438.3651288,-2.1418371200561523,-1.3337591004422684,-2.5272865931140345,6.111240136414327,1.0186010599136353,-1.6367743651019495
1708433438.3671722,-2.1418135166168213,-1.3337461960366745,-2.5273240248309534,6.1111700413520715,1.0185474157333374,-1.6374309698687952
1708433438.369128,-2.141817808151245,-1.3337386411479493,-2.5273030439959925,6.111166703491964,1.0185801982879639,-1.6381123701678675
1708433438.3711226,-2.141765832901001,-1.333759070639946,-2.5272448698626917,6.11113070228652,1.018592357635498,-1.6388562361346644
1708433438.373176,-2.141744375228882,-1.3337343645146866,-2.5273359457599085,6.1110339043434045,1.0186002254486084,-1.639465634022848
1708433438.375122,-2.141798496246338,-1.3337505620769043,-2.5272911230670374,6.111129390984335,1.0186338424682617,-1.6401384512530726
1708433438.377296,-2.1417577266693115,-1.3337062460235138,-2.5273359457599085,6.111023175507345,1.01862633228302,-1.6408656279193323
1708433438.379177,-2.1417958736419678,-1.333636836414673,-2.5273359457599085,6.11105631568984,1.0185836553573608,-1.641533676777975
1708433438.3811624,-2.1417293548583984,-1.3337386709502717,-2.5273030439959925,6.110966670304098,1.0186089277267456,-1.6422298590289515
1708433438.3831742,-2.1417293548583984,-1.333718166952469,-2.5273359457599085,6.110959160118856,1.0186164379119873,-1.6429317633258265
1708433438.3852327,-2.141721487045288,-1.3337137711099167,-2.5273030439959925,6.110963809281149,1.018613338470459,-1.6436603705035608
1708433438.387194,-2.1417384147644043,-1.3337019097856064,-2.5272656122790735,6.110945689469137,1.0186045169830322,-1.644407097493307
1708433438.3891397,-2.1417057514190674,-1.3337267202189942,-2.5272582213031214,6.110839473992147,1.0186164379119873,-1.6451337973224085
1708433438.3911827,-2.1416819095611572,-1.333742917781212,-2.5272911230670374,6.110891568451681,1.018579363822937,-1.645909611378805
1708433438.393209,-2.1416714191436768,-1.3336453896811982,-2.5273402372943323,6.110823142319479,1.0186907052993774,-1.646686855946676
1708433438.3952067,-2.141657829284668,-1.333702878361084,-2.5273075739489954,6.1108648655708215,1.0186045169830322,-1.6473844687091272
1708433438.3972387,-2.1416218280792236,-1.3337395650199433,-2.5272730032550257,6.110800492554464,1.0185959339141846,-1.6481168905841272
1708433438.3992186,-2.141590118408203,-1.3337071996978302,-2.5273359457599085,6.110776650696554,1.0186078548431396,-1.6488588492022913
1708433438.4011822,-2.1416146755218506,-1.3336576384356995,-2.5273194948779505,6.1107287285621545,1.0186121463775635,-1.6496146360980433
1708433438.403192,-2.141632556915283,-1.333732010131218,-2.5273075739489954,6.110775339394369,1.0186121463775635,-1.6503437201129358
1708433438.405163,-2.14159893989563,-1.3336704832366486,-2.5273030439959925,6.110671746521749,1.0186654329299927,-1.6511533896075647
1708433438.4072015,-2.141594409942627,-1.3337233525565644,-2.5273149649249476,6.110713827400961,1.0186240673065186,-1.6519320646869105
1708433438.4091387,-2.1415627002716064,-1.3337320995381852,-2.5272865931140345,6.110652553826132,1.0186488628387451,-1.652670685444967
1708433438.4111655,-2.1415536403656006,-1.3336258244565506,-2.5273240248309534,6.110649812012472,1.0186121463775635,-1.6533992926227015
1708433438.4131708,-2.1415581703186035,-1.3336866807988663,-2.5273240248309534,6.1106228707130334,1.0186164379119873,-1.6542013327227991
1708433438.4151378,-2.141526460647583,-1.3336952340653916,-2.5273268858539026,6.110528576164999,1.0186283588409424,-1.654942814503805
1708433438.417166,-2.1414990425109863,-1.3336507391980668,-2.527273241673605,6.110553729325094,1.0186196565628052,-1.6555965582477015
1708433438.4191382,-2.1415059566497803,-1.3336909276298066,-2.5273149649249476,6.110492455750265,1.0186402797698975,-1.6564119497882288
1708433438.4211352,-2.1414990425109863,-1.333675430422165,-2.5273314158069056,6.1104822037513635,1.0186488628387451,-1.6571891943561
1708433438.4231806,-2.1414875984191895,-1.33366251111541,-2.5273194948779505,6.1104822037513635,1.0186121463775635,-1.6579301992999476
1708433438.42514,-2.1415326595306396,-1.3336747598699112,-2.5273194948779505,6.110446202545919,1.0185959339141846,-1.6586421171771448
1708433438.4271822,-2.141446828842163,-1.3336420369199296,-2.5273104349719446,6.110393988877096,1.0186164379119873,-1.6594002882586878
1708433438.4292154,-2.141418695449829,-1.333650679593422,-2.5272911230670374,6.110414969712057,1.0186402797698975,-1.6601384321795862
1708433438.431174,-2.141439914703369,-1.3336268079331894,-2.5273104349719446,6.110332596092977,1.0186152458190918,-1.6608017126666468
1708433438.433232,-2.1414761543273926,-1.3336311143687745,-2.5272985140429896,6.110329735070028,1.0186196565628052,-1.6615546385394495
1708433438.4351575,-2.1413609981536865,-1.3336396676352997,-2.5273149649249476,6.110325085907736,1.0186402797698975,-1.6622613112079065
1708433438.437169,-2.1414036750793457,-1.3336182695678254,-2.5273149649249476,6.110244500427999,1.0186654329299927,-1.6629794279681605
1708433438.4391596,-2.1413652896881104,-1.333598719244339,-2.5273268858539026,6.110302912979879,1.0186488628387451,-1.6637471357928675
1708433438.4411922,-2.1413912773132324,-1.3336231422475358,-2.5272730032550257,6.110208260803976,1.0186982154846191,-1.6644519011126917
1708433438.4431913,-2.141400098800659,-1.3336311143687745,-2.5272894541369837,6.110280501633444,1.0186033248901367,-1.6652043501483362
1708433438.4451447,-2.141343593597412,-1.3336189550212403,-2.5273149649249476,6.1102099297340295,1.018653154373169,-1.665952507649557
1708433438.447165,-2.141339063644409,-1.3335986745408555,-2.5273402372943323,6.110150444298544,1.0186445713043213,-1.6666649023639124
1708433438.4491296,-2.141331195831299,-1.3336189550212403,-2.5273481051074427,6.110147225647726,1.0185915231704712,-1.6674092451678675
1708433438.451129,-2.141298294067383,-1.3335791540196915,-2.5273688475238245,6.110114443093099,1.0186078548431396,-1.6681249777423304
1708433438.4531608,-2.141324281692505,-1.3336601567319413,-2.5272985140429896,6.110123383789816,1.0186240673065186,-1.668755356465475
1708433438.4551437,-2.141319751739502,-1.3336317104152222,-2.5273314158069056,6.110071170120992,1.0186164379119873,-1.6694472471820276
1708433438.4571402,-2.141237258911133,-1.3335953515819092,-2.5273075739489954,6.110047089844503,1.018635869026184,-1.6702101866351526
1708433438.4591298,-2.1413025856018066,-1.3336231422475358,-2.5272939840899866,6.1099737761314294,1.0186164379119873,-1.6709373633014124
1708433438.4611423,-2.1412835121154785,-1.3336482358029862,-2.5273268858539026,6.1099364636238,1.0186611413955688,-1.6716411749469202
1708433438.4631312,-2.1412293910980225,-1.3336030852845688,-2.5273526350604456,6.109996187477865,1.0186445713043213,-1.6723621527301233
1708433438.4651268,-2.141263246536255,-1.3336030852845688,-2.5273104349719446,6.109956013947286,1.0186078548431396,-1.6731026808368128
1708433438.467138,-2.1412596702575684,-1.3336274337819596,-2.5273526350604456,6.109897362976827,1.01863694190979,-1.6737945715533655
1708433438.4691246,-2.1412835121154785,-1.3336231422475358,-2.527273241673605,6.109887230187216,1.018635869026184,-1.6744902769671839
1708433438.471124,-2.1412551403045654,-1.3335910749486466,-2.5273314158069056,6.109903561859884,1.0186283588409424,-1.675241772328512
1708433438.4731596,-2.141247272491455,-1.3335464310697098,-2.5272939840899866,6.109881269722738,1.0186690092086792,-1.6759570280658167
1708433438.475132,-2.141268491744995,-1.333542139535286,-2.5272939840899866,6.109830605774679,1.0185836553573608,-1.6766002813922327
1708433438.477194,-2.1412642002105713,-1.3336158257773896,-2.5273526350604456,6.109860408097067,1.0186697244644165,-1.6773536841021937
1708433438.4791691,-2.1412155628204346,-1.3335798245719452,-2.527334515248434,6.109783875733175,1.0186611413955688,-1.6780651251422327
1708433438.4812658,-2.1412110328674316,-1.3336125624230881,-2.5273030439959925,6.109809624939718,1.0186489820480347,-1.678666893635885
1708433438.483238,-2.1412243843078613,-1.3335388761809845,-2.527301613484518,6.109821545868673,1.0186240673065186,-1.6794026533709925
1708433438.4851995,-2.1412110328674316,-1.3335669052651902,-2.5273223559008997,6.109752881317892,1.0186445713043213,-1.6801226774798792
1708433438.487226,-2.141195058822632,-1.3335755479386826,-2.5273104349719446,6.109703290253439,1.0186402797698975,-1.680739704762594
1708433438.489172,-2.141195058822632,-1.33358687282119,-2.5273435751544397,6.109712350159445,1.0186196565628052,-1.6814354101764124
1708433438.4912071,-2.1411545276641846,-1.33357127130542,-2.5272985140429896,6.1096898196037195,1.0186326503753662,-1.6821273008929651
1708433438.493298,-2.1411995887756348,-1.3335388761809845,-2.5273314158069056,6.1097274897392175,1.0186240673065186,-1.682763401662008
1708433438.4952016,-2.1411802768707275,-1.3335834306529541,-2.5272865931140345,6.109685408860006,1.0186283588409424,-1.6834681669818323
1708433438.4971845,-2.141192674636841,-1.3335517954877396,-2.5273404757129114,6.109661567002096,1.018582820892334,-1.6841033140765589
1708433438.4991422,-2.1411359310150146,-1.333559350376465,-2.5272894541369837,6.109592664032736,1.0186326503753662,-1.684793774281637
1708433438.5011423,-2.1411564350128174,-1.333587796693184,-2.5273481051074427,6.109642135887899,1.0186164379119873,-1.6854255835162562
1708433438.5032055,-2.1411633491516113,-1.3335266274264832,-2.5273733774768274,6.109567272454061,1.0186488628387451,-1.6860736052142542
1708433438.5051217,-2.1411449909210205,-1.333530308013298,-2.5273194948779505,6.109552132874288,1.0185750722885132,-1.6866610685931605
1708433438.5071425,-2.141106605529785,-1.3335474294475098,-2.5272894541369837,6.109556662827291,1.018629550933838,-1.687244717274801
1708433438.5091376,-2.1411519050598145,-1.3336169135621567,-2.5273149649249476,6.109530198365011,1.0186196565628052,-1.6878812948810022
1708433438.511191,-2.1411404609680176,-1.3335636270097275,-2.527329985295431,6.109561192780294,1.0186164379119873,-1.6884549299823206
1708433438.513161,-2.1410906314849854,-1.3335266274264832,-2.527256790791647,6.1095536825950525,1.0186045169830322,-1.6891372839557093
1708433438.5151343,-2.141122579574585,-1.3335517954877396,-2.5273359457599085,6.109500038414755,1.0185879468917847,-1.6897829214679163
1708433438.5171814,-2.141111135482788,-1.3335147064975281,-2.5273104349719446,6.109501588135519,1.0186002254486084,-1.6903098265277308
1708433438.5191727,-2.1411447525024414,-1.3335560721210022,-2.5273268858539026,6.109504449158468,1.0186002254486084,-1.6908682028399866
1708433438.5211234,-2.141075849533081,-1.3335517954877396,-2.5273223559008997,6.109451997071066,1.018592357635498,-1.691481892262594
1708433438.5231712,-2.14105486869812,-1.3335147064975281,-2.5273149649249476,6.109440076142111,1.0186132192611694,-1.692120377217428
1708433438.525184,-2.141059160232544,-1.3335765612176438,-2.5273314158069056,6.109470116883077,1.018571376800537,-1.6927054564105433
1708433438.5272064,-2.141084671020508,-1.33357226968322,-2.527339045201437,6.109453666001119,1.0186002254486084,-1.6932771841632288
1708433438.5291762,-2.14107608795166,-1.3335223507932206,-2.5273223559008997,6.109467136650839,1.0185670852661133,-1.6938422361956995
1708433438.5311978,-2.1410679817199707,-1.3335276258042832,-2.527355496083395,6.109474527626791,1.0185551643371582,-1.6944087187396448
1708433438.533212,-2.1410717964172363,-1.333519072537758,-2.5273435751544397,6.109401452332296,1.0185967683792114,-1.6949933210956019
1708433438.5351617,-2.141056537628174,-1.3335233491710206,-2.5273104349719446,6.1094552157218835,1.0185149908065796,-1.695535961781637
1708433438.5371778,-2.141036033630371,-1.3335431528142472,-2.527334515248434,6.109434592514791,1.0185801982879639,-1.6961258093463343
1708433438.5391736,-2.1410317420959473,-1.33357226968322,-2.5273359457599085,6.109385120659628,1.0185517072677612,-1.6966736952411097
1708433438.5411544,-2.1410768032073975,-1.333515615468361,-2.5273314158069056,6.10940312126235,1.0185561180114746,-1.6972268263446253
1708433438.5432153,-2.1410272121429443,-1.3335395467332383,-2.527317825947897,6.109369981079855,1.018563985824585,-1.6978204886065882
1708433438.5452008,-2.141040563583374,-1.3335352700999756,-2.5273314158069056,6.109332668572225,1.0186054706573486,-1.6983102003680628
1708433438.547179,-2.1410722732543945,-1.3334869903377076,-2.5273314158069056,6.10940312126235,1.0185399055480957,-1.6988094488727015
1708433438.5491612,-2.14104962348938,-1.3335114282420655,-2.5273104349719446,6.109346139221945,1.018561601638794,-1.699324909840719
1708433438.5511477,-2.141056537628174,-1.3335276258042832,-2.5273194948779505,6.109338509827413,1.018561601638794,-1.6998456160174769
1708433438.5531876,-2.1410610675811768,-1.3335480254939576,-2.5273481051074427,6.1093294499214075,1.0185160636901855,-1.7003796736346644
1708433438.5551312,-2.1410655975341797,-1.333519072537758,-2.5273600260363978,6.109338509827413,1.0185322761535645,-1.7009037176715296
1708433438.5571702,-2.1410272121429443,-1.333495558505394,-2.5273104349719446,6.10929690578536,1.0184872150421143,-1.7014816443072718
1708433438.5591288,-2.14104962348938,-1.3335361939719697,-2.5272894541369837,6.109260785370626,1.018484115600586,-1.7019532362567347
1708433438.5611806,-2.1410043239593506,-1.3335028749755402,-2.5273104349719446,6.109274375229635,1.0185365676879883,-1.7024214903460901
1708433438.5631545,-2.1410000324249268,-1.333573193555214,-2.5272939840899866,6.109248864441671,1.018479824066162,-1.702850643788473
1708433438.5651374,-2.1410088539123535,-1.333498553638794,-2.5273194948779505,6.109323966294088,1.0185046195983887,-1.70339280763735
1708433438.5671465,-2.141040563583374,-1.3335517954877396,-2.527252260838644,6.109253513603964,1.0185203552246094,-1.7038729826556605
1708433438.5691526,-2.1409752368927,-1.3335233491710206,-2.5273268858539026,6.109250533371725,1.0184228420257568,-1.7043197790728968
1708433438.571112,-2.141000986099243,-1.3335523915341874,-2.5273240248309534,6.109205591469564,1.0184636116027832,-1.7048257032977503
1708433438.5731366,-2.140961170196533,-1.3335523915341874,-2.5273569265948694,6.109156477242269,1.0185046195983887,-1.705256764088766
1708433438.5751362,-2.14098858833313,-1.333495558505394,-2.5273526350604456,6.109172808914938,1.018497109413147,-1.7057293097125452
1708433438.577251,-2.1409478187561035,-1.3335560721210022,-2.5272894541369837,6.1091980812843225,1.0184643268585205,-1.706238094960348
1708433438.5791945,-2.1409354209899902,-1.3335276258042832,-2.5272820631610315,6.109199631005087,1.0184481143951416,-1.7066615263568323
1708433438.5812616,-2.140965700149536,-1.3334423464587708,-2.5273240248309534,6.109223472862997,1.018480896949768,-1.7071059385882776
1708433438.5831802,-2.1408989429473877,-1.3335276258042832,-2.5273314158069056,6.109199631005087,1.018403172492981,-1.7075994650470179
1708433438.5851712,-2.1409363746643066,-1.3335147064975281,-2.527301613484518,6.109133708267965,1.0184272527694702,-1.7080276648150843
1708433438.587204,-2.1408867835998535,-1.3335276258042832,-2.5273569265948694,6.109180438309469,1.0184284448623657,-1.7085211912738245
1708433438.5892003,-2.1408638954162598,-1.333556057219841,-2.5273194948779505,6.109144317894735,1.0183825492858887,-1.7089369932757776
1708433438.591218,-2.1408514976501465,-1.3335352700999756,-2.527273241673605,6.109090673714437,1.0184568166732788,-1.7093527952777308
1708433438.5932157,-2.1408073902130127,-1.3335276258042832,-2.5272613207446497,6.109030711441793,1.0183956623077393,-1.7097399870501917
1708433438.5952046,-2.140845537185669,-1.3335071516088028,-2.5272911230670374,6.109063613205709,1.0184118747711182,-1.710118595753805
1708433438.597225,-2.1408073902130127,-1.3335104298642655,-2.5272865931140345,6.108964788704672,1.0183794498443604,-1.7105801741229456
1708433438.5992174,-2.1408002376556396,-1.3335266274264832,-2.5272701422320765,6.108987319260397,1.0184370279312134,-1.7109301725970667
1708433438.6011763,-2.140773057937622,-1.3335395467332383,-2.5273104349719446,6.108994710236349,1.018399953842163,-1.711395565663473
1708433438.6031992,-2.140714406967163,-1.3335395467332383,-2.5273059050189417,6.109003770142355,1.0183956623077393,-1.7118127981769007
