Eg3-git/Classifiers/Data Collection/u1/u1star1_ur3e_joint_states.csv
time,elbow_joint,shoulder_lift_joint,shoulder_pan_joint,wrist_1_joint,wrist_2_joint,wrist_3_joint
1708433385.3287714,-2.1418304443359375,-1.333702878361084,-2.5270031134234827,6.11113070228652,1.017863392829895,-2.0687220732318323
1708433385.3307064,-2.141871690750122,-1.3337071996978302,-2.52702242532839,6.111127841263571,1.0178751945495605,-2.0687134901629847
1708433385.332717,-2.1418590545654297,-1.333711491232254,-2.527060333882467,6.1111042378242395,1.0178676843643188,-2.0687459150897425
1708433385.3347027,-2.1418347358703613,-1.3336899292520066,-2.5270076433764856,6.111114370613851,1.0178709030151367,-2.0686972776996058
1708433385.3367367,-2.1418137550354004,-1.3337310266545792,-2.527043883000509,6.111165392189779,1.0178751945495605,-2.0686896483050745
1708433385.338729,-2.1418631076812744,-1.3337191206267853,-2.5270031134234827,6.111144172936239,1.0178589820861816,-2.0686896483050745
1708433385.340682,-2.141839027404785,-1.333702878361084,-2.5270031134234827,6.111123430519857,1.0178337097167969,-2.068655792866842
1708433385.3427367,-2.141888380050659,-1.333694265489914,-2.5270360151873987,6.111144172936239,1.0178709030151367,-2.068692986165182
1708433385.3446784,-2.141871690750122,-1.3337191206267853,-2.527026955281393,6.111144172936239,1.0178555250167847,-2.0687339941607874
1708433385.3467324,-2.141850471496582,-1.3337071996978302,-2.5269747416125696,6.111123430519857,1.017879605293274,-2.0687101523028772
1708433385.348683,-2.141843318939209,-1.333714799290039,-2.5269957224475306,6.111106979637899,1.0178751945495605,-2.0687382856952112
1708433385.3507192,-2.1417970657348633,-1.333653838639595,-2.52702242532839,6.111118781357565,1.0178468227386475,-2.068676773701803
1708433385.3527646,-2.1418092250823975,-1.333690957432129,-2.5270360151873987,6.1111817238624475,1.017879605293274,-2.068672482167379
1708433385.3546937,-2.141854763031006,-1.3337310415557404,-2.5270617643939417,6.1111159203346155,1.0178622007369995,-2.068700615559713
1708433385.356731,-2.1417810916900635,-1.333707184796669,-2.5270076433764856,6.111086356430807,1.017879605293274,-2.0687339941607874
1708433385.3587296,-2.141850471496582,-1.333711491232254,-2.527073685322897,6.111136662750997,1.017863392829895,-2.0686972776996058
1708433385.3607087,-2.1418347358703613,-1.3337071996978302,-2.5270031134234827,6.11109088638381,1.0178468227386475,-2.0687220732318323
1708433385.3627422,-2.141850471496582,-1.3337277483991166,-2.5270403067218226,6.111120331078329,1.0178261995315552,-2.0687058607684534
1708433385.3646905,-2.141854763031006,-1.333739624624588,-2.5270031134234827,6.11115192154006,1.0178511142730713,-2.068676773701803
1708433385.3667402,-2.141859292984009,-1.333702878361084,-2.52696139017214,6.1111042378242395,1.0178468227386475,-2.068709198628561
1708433385.3687549,-2.1418347358703613,-1.3336780083230515,-2.5270031134234827,6.111095416336813,1.0178219079971313,-2.0686972776996058
1708433385.3707101,-2.1417970657348633,-1.333702878361084,-2.526970450078146,6.111136662750997,1.0178502798080444,-2.0686896483050745
1708433385.3727405,-2.141805648803711,-1.3336538833430787,-2.526977841054098,6.1111042378242395,1.0178838968276978,-2.0686853567706507
1708433385.3746905,-2.141822338104248,-1.333702878361084,-2.527026955281393,6.111071097641744,1.0178261995315552,-2.0687220732318323
1708433385.3767161,-2.141801357269287,-1.333690957432129,-2.526989523564474,6.111054646759786,1.0178381204605103,-2.0686972776996058
1708433385.378751,-2.141822338104248,-1.3336996746114274,-2.526970450078146,6.111059295922079,1.0178546905517578,-2.0686729590045374
1708433385.3806798,-2.141846179962158,-1.3337266904166718,-2.527060333882467,6.1110726473625085,1.017879605293274,-2.0687015692340296
1708433385.3826687,-2.1418631076812744,-1.3336899739554902,-2.526977602635519,6.111060845642843,1.017814040184021,-2.0687015692340296
1708433385.3846838,-2.141846179962158,-1.33367474496875,-2.5270348230945032,6.1110068438346765,1.017863392829895,-2.0687015692340296
1708433385.3866956,-2.141843318939209,-1.3337764602950593,-2.5270512739764612,6.111048567086019,1.0178589820861816,-2.068714443837301
1708433385.3886862,-2.141850471496582,-1.3336790365031739,-2.526994053517477,6.111109959870138,1.0178589820861816,-2.0686729590045374
1708433385.3906906,-2.141854763031006,-1.3336747300675889,-2.5269911924945276,6.110971200257101,1.0178709030151367,-2.0687339941607874
1708433385.3927088,-2.141818046569824,-1.3337353479913254,-2.5270031134234827,6.111068236618795,1.0178381204605103,-2.068692986165182
1708433385.3946748,-2.141846179962158,-1.3336952787688752,-2.5270076433764856,6.111123311310568,1.017863392829895,-2.0686643759356897
1708433385.3966904,-2.141846179962158,-1.333702878361084,-2.5270360151873987,6.1110278246696375,1.0178589820861816,-2.0687101523028772
1708433385.3986762,-2.1418259143829346,-1.333698571925499,-2.5270572344409388,6.111032235413351,1.0178546905517578,-2.0687297026263636
1708433385.4006944,-2.1418590545654297,-1.333702878361084,-2.5269911924945276,6.111012923508444,1.0178664922714233,-2.0687339941607874
1708433385.4027317,-2.1418304443359375,-1.3336704534343262,-2.526994053517477,6.110978352814474,1.017891764640808,-2.0687220732318323
1708433385.4046876,-2.1418347358703613,-1.3336942356875916,-2.5269866625415247,6.111069786339559,1.0178306102752686,-2.068742577229635
1708433385.4067411,-2.1418416500091553,-1.3337115061334153,-2.5270076433764856,6.111074197083273,1.0178622007369995,-2.0686972776996058
1708433385.408731,-2.141839027404785,-1.3337515157512208,-2.5270002524005335,6.111023175507345,1.017863392829895,-2.068643395100729
1708433385.4107008,-2.141846179962158,-1.3336704087308426,-2.526956860219137,6.111036646157064,1.0179036855697632,-2.0686686674701136
1708433385.4127235,-2.141839027404785,-1.3337191206267853,-2.5270031134234827,6.111029374390402,1.0178874731063843,-2.0686853567706507
1708433385.4146864,-2.141843318939209,-1.3336942505887528,-2.5270360151873987,6.1110113737876794,1.0178874731063843,-2.0687382856952112
1708433385.4166908,-2.1417765617370605,-1.3337439906648179,-2.5269747416125696,6.110990512162008,1.0178709030151367,-2.0686729590045374
1708433385.4187155,-2.141801118850708,-1.3336985570243378,-2.527052942906515,6.111032235413351,1.0178709030151367,-2.0686896483050745
1708433385.4206774,-2.1418137550354004,-1.3336866360953827,-2.526994053517477,6.111069786339559,1.0178874731063843,-2.0686939398394983
1708433385.4226968,-2.1418137550354004,-1.3337071996978302,-2.5270031134234827,6.110999452858724,1.0178382396697998,-2.068714443837301
1708433385.424681,-2.1417899131774902,-1.333702878361084,-2.527043883000509,6.110982763558187,1.017891764640808,-2.0686972776996058
1708433385.4266946,-2.141854763031006,-1.333699719314911,-2.5269866625415247,6.111030685692587,1.017919898033142,-2.0687177816974085
1708433385.4287722,-2.1417970657348633,-1.3337353330901642,-2.526977841054098,6.1110113737876794,1.0178992748260498,-2.0687015692340296
1708433385.4306896,-2.141801357269287,-1.3337028634599228,-2.5270448366748255,6.1110068438346765,1.0178546905517578,-2.068692986165182
1708433385.4327092,-2.141839027404785,-1.3336985570243378,-2.5269911924945276,6.111057507782736,1.0178664922714233,-2.0687339941607874
1708433385.4346902,-2.1418259143829346,-1.333653838639595,-2.526977841054098,6.111069786339559,1.0178502798080444,-2.0686939398394983
1708433385.436722,-2.1417970657348633,-1.333690957432129,-2.5270031134234827,6.111053097039022,1.0179036855697632,-2.0687177816974085
1708433385.4386985,-2.1418137550354004,-1.3336704534343262,-2.5270076433764856,6.1110113737876794,1.0178489685058594,-2.0686972776996058
1708433385.4407153,-2.1418635845184326,-1.333653838639595,-2.5269911924945276,6.111057507782736,1.0179036855697632,-2.0686939398394983
1708433385.442733,-2.1418259143829346,-1.333690957432129,-2.5270572344409388,6.111057507782736,1.0178546905517578,-2.0686643759356897
1708433385.444699,-2.1417970657348633,-1.3337364357760926,-2.527055803929464,6.111041176110067,1.0178622007369995,-2.0686686674701136
1708433385.446732,-2.141839027404785,-1.3336780083230515,-2.527073685322897,6.110963809281149,1.0179036855697632,-2.0687382856952112
1708433385.448696,-2.141818046569824,-1.3337114614299317,-2.526956860219137,6.110999452858724,1.0178622007369995,-2.0686972776996058
1708433385.4507246,-2.1418099403381348,-1.3336823296597977,-2.527043883000509,6.110938417702474,1.0179154872894287,-2.0686686674701136
1708433385.4527414,-2.141846179962158,-1.3336985570243378,-2.5270357767688196,6.111032116204061,1.017919898033142,-2.0686686674701136
1708433385.4547174,-2.141801357269287,-1.3337191206267853,-2.527017895375387,6.111029374390402,1.017883062362671,-2.068688694630758
1708433385.4567435,-2.1418309211730957,-1.3336668771556397,-2.527039353047506,6.111029374390402,1.0179111957550049,-2.068660084401266
1708433385.4587278,-2.1418590545654297,-1.3336996746114274,-2.5270031134234827,6.110980140953817,1.0178906917572021,-2.068648163472311
1708433385.4607074,-2.141875982284546,-1.333702878361084,-2.527043883000509,6.111017334252157,1.017906904220581,-2.0686686674701136
1708433385.4627132,-2.141839027404785,-1.3336704087308426,-2.526977841054098,6.110999452858724,1.017906904220581,-2.0686939398394983
1708433385.4647152,-2.141846179962158,-1.33367474496875,-2.5270512739764612,6.111008393555441,1.017878770828247,-2.068709198628561
1708433385.4667323,-2.141818046569824,-1.3336462390473862,-2.5269747416125696,6.110991704254904,1.0178906917572021,-2.0686610380755823
1708433385.4687033,-2.1417741775512695,-1.3336952787688752,-2.5270512739764612,6.111066448479452,1.0178980827331543,-2.0687177816974085
1708433385.470693,-2.141805648803711,-1.333714799290039,-2.526994053517477,6.111024725228109,1.0178818702697754,-2.0686853567706507
1708433385.4727433,-2.1418590545654297,-1.33374838650737,-2.5270121733294886,6.110980140953817,1.0179188251495361,-2.068681065236227
1708433385.474717,-2.1418304443359375,-1.333653838639595,-2.5270360151873987,6.11094747760848,1.0178864002227783,-2.0686939398394983
1708433385.4767332,-2.1418099403381348,-1.3336581599763413,-2.52702242532839,6.110991704254904,1.0179400444030762,-2.0686772505389612
1708433385.4787397,-2.141805648803711,-1.3336952787688752,-2.527055803929464,6.110991704254904,1.0179356336593628,-2.068665329610006
1708433385.4806724,-2.141794204711914,-1.3337071996978302,-2.52702242532839,6.11099802234725,1.0179188251495361,-2.0686686674701136
1708433385.4826956,-2.141843318939209,-1.3336506348899384,-2.526994053517477,6.111005055695333,1.0179312229156494,-2.0686686674701136
1708433385.484702,-2.141843318939209,-1.33366251111541,-2.526989523564474,6.111009585648336,1.0179519653320312,-2.0686939398394983
1708433385.486711,-2.1418347358703613,-1.3336300265840073,-2.5270031134234827,6.110954630165853,1.0179026126861572,-2.068653408681051
1708433385.4887,-2.141801357269287,-1.3337439757636567,-2.5270403067218226,6.110972630768575,1.0179357528686523,-2.068653408681051
1708433385.4906924,-2.141826629638672,-1.3337277483991166,-2.527043883000509,6.110936629563131,1.0179636478424072,-2.068594757710592
1708433385.492706,-2.1418099403381348,-1.3336877834847947,-2.527039353047506,6.110975253372946,1.0179100036621094,-2.0686772505389612
1708433385.4947119,-2.141798496246338,-1.3336624813130875,-2.5269911924945276,6.110899078636923,1.0179400444030762,-2.068641487752096
1708433385.4966881,-2.1418304443359375,-1.3336996746114274,-2.527043883000509,6.110897648125448,1.0179474353790283,-2.068629566823141
1708433385.4986918,-2.1417899131774902,-1.333690957432129,-2.5270076433764856,6.110899078636923,1.0179431438446045,-2.06860858598818
1708433385.5006971,-2.141826629638672,-1.33366251111541,-2.5270360151873987,6.110970842629232,1.0179669857025146,-2.0686214605914515
1708433385.5027099,-2.1417784690856934,-1.3336996746114274,-2.527043883000509,6.1108752367790125,1.0179312229156494,-2.0685933271991175
1708433385.50471,-2.1417810916900635,-1.3336985570243378,-2.5270348230945032,6.110896217613973,1.0179388523101807,-2.06855279604067
1708433385.506715,-2.1418185234069824,-1.3337115061334153,-2.527043883000509,6.110863792687216,1.0179550647735596,-2.0685604254352015
1708433385.508694,-2.141798496246338,-1.3336952787688752,-2.5270031134234827,6.11095021942214,1.0179463624954224,-2.068545643483297
1708433385.5107148,-2.1417696475982666,-1.333629087810852,-2.5270360151873987,6.110860335617819,1.0179550647735596,-2.068500820790426
1708433385.5127146,-2.1417899131774902,-1.3336790365031739,-2.5270348230945032,6.110868203430929,1.0179997682571411,-2.0684970060931605
1708433385.5146985,-2.1418135166168213,-1.3336661469987412,-2.526989523564474,6.110893118172445,1.0179301500320435,-2.068517033253805
1708433385.51675,-2.141843318939209,-1.33364953220401,-2.526994053517477,6.110891568451681,1.0179712772369385,-2.0684521834002894
1708433385.518711,-2.141798496246338,-1.3336952787688752,-2.526994053517477,6.110851514130392,1.0179921388626099,-2.0684521834002894
1708433385.5206842,-2.141805648803711,-1.3336909723332901,-2.527069155369894,6.110881554871359,1.0179507732391357,-2.06838304201235
1708433385.522706,-2.141782760620117,-1.333714799290039,-2.52702242532839,6.110872614174642,1.0179014205932617,-2.068408791218893
1708433385.5246828,-2.141822338104248,-1.3336747300675889,-2.526994053517477,6.110839473992147,1.0179799795150757,-2.0683725515948694
1708433385.5267203,-2.141787052154541,-1.3337039959481736,-2.527017895375387,6.110877024918356,1.0179506540298462,-2.068320099507467
1708433385.528741,-2.1418027877807617,-1.3336624813130875,-2.527039353047506,6.110886084824362,1.0179669857025146,-2.068312470112936
1708433385.5306916,-2.14174485206604,-1.333702878361084,-2.527017895375387,6.1108693955238245,1.0179669857025146,-2.0682809988604944
1708433385.5327315,-2.1417362689971924,-1.3337191206267853,-2.527055803929464,6.110843884735861,1.0180163383483887,-2.068245236073629
1708433385.5346866,-2.1417696475982666,-1.333686650996544,-2.527085606251852,6.110872614174642,1.0179704427719116,-2.068204704915182
1708433385.5367486,-2.141787052154541,-1.333702878361084,-2.527017895375387,6.110839593201437,1.018003225326538,-2.0681970755206507
1708433385.53871,-2.1418228149414062,-1.3337028485587616,-2.5270031134234827,6.110836612969198,1.0180197954177856,-2.0682061354266565
1708433385.5406973,-2.141798496246338,-1.333637611275055,-2.527076784764425,6.110887276917257,1.0180119276046753,-2.0681069532977503
1708433385.5427458,-2.141787052154541,-1.3336747151664277,-2.527060333882467,6.110805022507467,1.0180153846740723,-2.0680678526507776
1708433385.5447328,-2.1417956352233887,-1.3336790365031739,-2.52702242532839,6.110795962601461,1.0180315971374512,-2.06800347963442
1708433385.5467248,-2.1417789459228516,-1.3336952787688752,-2.5270512739764612,6.110755789070883,1.0180360078811646,-2.0680421034442347
1708433385.548701,-2.141749382019043,-1.3336624813130875,-2.52702242532839,6.110724198609152,1.0180435180664062,-2.0680015722857874
1708433385.550678,-2.1417789459228516,-1.3336747300675889,-2.527039353047506,6.1107287285621545,1.0180392265319824,-2.0678818861590784
1708433385.552715,-2.141753673553467,-1.3336747151664277,-2.5270348230945032,6.110719787865438,1.017990231513977,-2.067883316670553
1708433385.554698,-2.1417579650878906,-1.333683432345726,-2.5270348230945032,6.1107122776801965,1.0180554389953613,-2.067828957234518
1708433385.5567143,-2.1417789459228516,-1.3337158870748063,-2.5270705858813685,6.110737669258871,1.0180273056030273,-2.06775409380068
1708433385.5587037,-2.1417579650878906,-1.333690957432129,-2.5270660559283655,6.110742199211874,1.0180511474609375,-2.067707363759176
1708433385.5606976,-2.1417667865753174,-1.33372017860923,-2.5270541349994105,6.11073778846816,1.0180754661560059,-2.0676563421832483
1708433385.5627055,-2.1417579650878906,-1.3336996746114274,-2.5270796457873743,6.110697614937582,1.0180798768997192,-2.0676234404193323
1708433385.5647144,-2.141771078109741,-1.3336506348899384,-2.5271201769458216,6.110673415451803,1.0181035995483398,-2.0675271193133753
1708433385.5667243,-2.1417667865753174,-1.3336747151664277,-2.5270617643939417,6.110628711968221,1.0181158781051636,-2.067453686391012
1708433385.5687454,-2.1417508125305176,-1.3337159168771286,-2.5271320978747767,6.1106570837791345,1.0181245803833008,-2.067324940358297
1708433385.5706697,-2.1417667865753174,-1.333744005565979,-2.527144257222311,6.110654341965475,1.0180786848068237,-2.0673068205462855
1708433385.572728,-2.141730308532715,-1.333724470143654,-2.527118508015768,6.1105806706245325,1.0181071758270264,-2.0672252813922327
1708433385.5746918,-2.1417129039764404,-1.3337115210345765,-2.527123037968771,6.110577809601583,1.0181190967559814,-2.067084614430563
1708433385.5769126,-2.1416971683502197,-1.3336462390473862,-2.527113978062765,6.110544669419088,1.018143892288208,-2.0670345465289515
1708433385.5787241,-2.1417551040649414,-1.333702878361084,-2.527163569127218,6.1105748293693445,1.0181071758270264,-2.0669100920306605
1708433385.580712,-2.1417057514190674,-1.3336790365031739,-2.527163569127218,6.110533106118002,1.0181365013122559,-2.0668333212481897
1708433385.5827162,-2.141742706298828,-1.3336747151664277,-2.527180020009176,6.110522734909811,1.0181353092193604,-2.066659752522604
1708433385.5846925,-2.1417031288146973,-1.3337028634599228,-2.5271876494037073,6.110501515656271,1.0181387662887573,-2.0666187445269983
1708433385.5867157,-2.1416821479797363,-1.3336866360953827,-2.527154509221212,6.110498535424032,1.0181553363800049,-2.0665181318866175
1708433385.5886939,-2.141716241836548,-1.333683432345726,-2.5271952787982386,6.110449182778158,1.0181553363800049,-2.066291634236471
1708433385.5906844,-2.141662359237671,-1.333702878361084,-2.5271998087512415,6.1104256985481165,1.0181877613067627,-2.0661428610431116
1708433385.5927172,-2.141613245010376,-1.3336790067008515,-2.5271785894977015,6.110443579941549,1.01816725730896,-2.0660269896136683
1708433385.5946977,-2.141617774963379,-1.3336257499507447,-2.5271664301501673,6.110370266228475,1.018211841583252,-2.0658543745623987
1708433385.596753,-2.1416306495666504,-1.3336952787688752,-2.5272117296801966,6.110386597901144,1.0182241201400757,-2.0656684080706995
1708433385.5987284,-2.141646385192871,-1.333671213393547,-2.5272236506091517,6.110346185951986,1.0182403326034546,-2.0655630270587366
1708433385.6006958,-2.141615390777588,-1.3337039214423676,-2.5272026697741907,6.110355007439413,1.0182969570159912,-2.0654147307025355
1708433385.6027622,-2.1415293216705322,-1.333683432345726,-2.5272117296801966,6.110268699913778,1.0182838439941406,-2.0652387777911585
1708433385.6046875,-2.1415748596191406,-1.3336704087308426,-2.5272026697741907,6.110295522003927,1.0182514190673828,-2.065066162739889
1708433385.6067245,-2.1415538787841797,-1.3337115061334153,-2.52726394334902,6.110229718476095,1.01829195022583,-2.0649102369891565
1708433385.6087177,-2.1415538787841797,-1.33364953220401,-2.5272489229785364,6.110217439919271,1.0183157920837402,-2.0647175947772425
1708433385.6107018,-2.141514301300049,-1.3336635839990159,-2.527247492467062,6.110130893975057,1.0182833671569824,-2.0645178000079554
1708433385.612752,-2.1414947509765625,-1.333609403376915,-2.527193848286764,6.110225188523092,1.0183485746383667,-2.0643094221698206
1708433385.6147172,-2.141479015350342,-1.3337202233127137,-2.5272401014911097,6.110126244812765,1.018369197845459,-2.064096275960104
1708433385.6168015,-2.141511917114258,-1.333692045216896,-2.527254883443014,6.110079991608419,1.018338680267334,-2.0638635794269007
1708433385.6187444,-2.141500473022461,-1.333671213393547,-2.527242962514059,6.11003993728713,1.018388032913208,-2.0636475721942347
1708433385.6206982,-2.1414101123809814,-1.3337115061334153,-2.527288262044088,6.110050308495321,1.018388032913208,-2.063448731099264
1708433385.6227505,-2.141444206237793,-1.3337202233127137,-2.527259413396017,6.110038149147787,1.0183749198913574,-2.063178841267721
1708433385.624713,-2.1414082050323486,-1.3336747300675889,-2.5272627512561243,6.109993564873495,1.0184327363967896,-2.062965695058004
1708433385.6267135,-2.1413588523864746,-1.3336668771556397,-2.5273001829730433,6.109994637757101,1.0184402465820312,-2.062753979359762
1708433385.6287258,-2.1413354873657227,-1.3336877536824723,-2.5273194948779505,6.109912860184469,1.0184853076934814,-2.062490765248434
1708433385.6307187,-2.1413285732269287,-1.3336952936700364,-2.5272939840899866,6.1099188206489465,1.018435001373291,-2.0621607939349573
1708433385.6327467,-2.1413354873657227,-1.3336549413255234,-2.5273030439959925,6.10987817028121,1.0184556245803833,-2.061932388936178
1708433385.6347034,-2.1412510871887207,-1.3337159019759675,-2.5273194948779505,6.109838115959921,1.018496036529541,-2.0616186300860804
1708433385.6367345,-2.141274929046631,-1.3336581897786637,-2.527334515248434,6.109773623734274,1.018601894378662,-2.0613654295550745
1708433385.6386876,-2.141247272491455,-1.3337320995381852,-2.527363125477926,6.109823214798727,1.0185844898223877,-2.0610960165606897
1708433385.6407166,-2.141197919845581,-1.3336592775634308,-2.5273764769183558,6.109764802246847,1.0185801982879639,-2.060774628316061
1708433385.6427097,-2.141171455383301,-1.3336877536824723,-2.527375046406881,6.109776484757223,1.0185757875442505,-2.0604198614703577
1708433385.644692,-2.1411519050598145,-1.333683432345726,-2.5273824373828333,6.109740721970358,1.018635869026184,-2.0601308981524866
1708433385.6467037,-2.1411139965057373,-1.3337202233127137,-2.5273869673358362,6.1096510765846155,1.0186808109283447,-2.0597360769854944
1708433385.648692,-2.1410999298095703,-1.3336920750192185,-2.5274201075183313,6.109640586167135,1.0186927318572998,-2.0593846479998987
1708433385.650709,-2.14107608795166,-1.333667979841568,-2.5274351278888147,6.109654056816854,1.0187287330627441,-2.0590360800372522
1708433385.6527488,-2.140991449356079,-1.333659292464592,-2.5274813810931605,6.109547602921285,1.0187737941741943,-2.05865985551943
1708433385.654717,-2.1410696506500244,-1.3336877536824723,-2.527479950581686,6.109516846924581,1.0187606811523438,-2.058225456868307
1708433385.6567543,-2.140984058380127,-1.3336747002652665,-2.527487341557638,6.109435784607687,1.0188053846359253,-2.057875458394186
1708433385.658725,-2.1409640312194824,-1.333646224146225,-2.527487341557638,6.109383690148153,1.0188337564468384,-2.0575063864337366
1708433385.660699,-2.140903949737549,-1.3336102676442643,-2.5275161902057093,6.109374391823568,1.0188578367233276,-2.0571263472186487
1708433385.662738,-2.140903949737549,-1.3336355102113266,-2.527473751698629,6.1093129990394495,1.0188567638397217,-2.056680504475729
1708433385.664695,-2.140859842300415,-1.3336635839990159,-2.5275309721576136,6.109280693321981,1.01888108253479,-2.0562103430377405
1708433385.6667485,-2.14084792137146,-1.3336679500392457,-2.527571503316061,6.109196650772848,1.018909215927124,-2.055847946797506
1708433385.6687012,-2.140836715698242,-1.3336030405810853,-2.527625385914938,6.1091322777564905,1.0188723802566528,-2.0554397741900843
1708433385.6707175,-2.1408090591430664,-1.333644063477852,-2.527628485356466,6.109142768173971,1.018912434577942,-2.0549338499652308
1708433385.6727254,-2.1407599449157715,-1.3336430352977295,-2.527661387120382,6.109083163529196,1.0189157724380493,-2.0545271078692835
1708433385.6746893,-2.140723705291748,-1.3336559248021622,-2.5276013056384485,6.108972298889913,1.018965244293213,-2.054052178059713
1708433385.676703,-2.140748977661133,-1.3336354804090043,-2.5276644865619105,6.108994710236349,1.0190305709838867,-2.053595844899313
1708433385.6787014,-2.140709400177002,-1.3336311292699357,-2.527703348790304,6.108915555268087,1.0190294981002808,-2.053115193043844
1708433385.6807148,-2.1406686305999756,-1.3336102676442643,-2.527698818837301,6.108763325005331,1.01905357837677,-2.0526512304889124
1708433385.6827238,-2.1406660079956055,-1.3335910451463242,-2.527698818837301,6.108794557839193,1.0190938711166382,-2.0521066824542444
1708433385.684664,-2.1406497955322266,-1.3336274784854432,-2.527719799672262,6.108767616539755,1.0191051959991455,-2.0515483061419886
1708433385.686703,-2.1405937671661377,-1.3336116087487717,-2.5276971499072474,6.108653771668234,1.0191246271133423,-2.0509818235980433
1708433385.6886988,-2.1405696868896484,-1.3335420501283188,-2.5277589003192347,6.108589517861166,1.0191901922225952,-2.050483051930563
1708433385.6907272,-2.140467643737793,-1.333608330493309,-2.527761761342184,6.1085431454475305,1.0192055702209473,-2.0498855749713343
1708433385.692696,-2.1404807567596436,-1.3335178953460236,-2.527823511754171,6.108516442566671,1.0192668437957764,-2.049387280141012
1708433385.6946924,-2.1404402256011963,-1.3335712564042588,-2.527816120778219,6.108420955925741,1.0193265676498413,-2.0488060156451624
1708433385.6967108,-2.140392541885376,-1.3335257780602952,-2.5278428236590784,6.108380305558004,1.0193510055541992,-2.048253838215963
1708433385.6986892,-2.1404056549072266,-1.3335395616343995,-2.5278144518481653,6.108299481659689,1.019358515739441,-2.047589127217428
1708433385.7006884,-2.1403157711029053,-1.3335233640721817,-2.5279088656054896,6.108260977059164,1.0194154977798462,-2.0469892660724085
1708433385.7027442,-2.1403374671936035,-1.3335561466268082,-2.5278881231891077,6.108191835671224,1.0194544792175293,-2.0464046637164515
1708433385.7046955,-2.140265464782715,-1.3335352850011368,-2.527841631566183,6.108136760979452,1.019474744796753,-2.045779530202047
1708433385.7067256,-2.140237808227539,-1.3334453266910096,-2.527923885975973,6.108056413918295,1.019514560699463,-2.0451300779925745
1708433385.7087348,-2.1401641368865967,-1.3335604232600708,-2.5279646555529993,6.107997762947836,1.0195257663726807,-2.044582192097799
1708433385.7107396,-2.140170097351074,-1.3335524660399933,-2.52794319788088,6.107973563462057,1.019590139389038,-2.0439046064959925
1708433385.7127123,-2.1401662826538086,-1.3335114282420655,-2.5279629866229456,6.107902037888326,1.0196382999420166,-2.043246571217672
1708433385.7147083,-2.140117645263672,-1.3335438531688233,-2.5280166308032435,6.107854473381796,1.019723653793335,-2.042609993611471
1708433385.7167382,-2.1401190757751465,-1.3334832203439255,-2.528019968663351,6.107773411064901,1.0197148323059082,-2.041896645222799
1708433385.7187,-2.1400206089019775,-1.3334831607392807,-2.528055969868795,6.10768078544692,1.0198001861572266,-2.0411999861346644
1708433385.7207022,-2.140015125274658,-1.3334997308305283,-2.5280752817737024,6.107698666840353,1.0198228359222412,-2.040527645741598
1708433385.7226958,-2.1399989128112793,-1.3334265512279053,-2.5280829111682337,6.1075912592704675,1.0198472738265991,-2.0398619810687464
1708433385.7246993,-2.139958381652832,-1.3334551316550751,-2.5280993620501917,6.107498633652487,1.019911289215088,-2.0391128698932093
1708433385.7266915,-2.13991117477417,-1.333484337931015,-2.528123442326681,6.107492673188009,1.0198938846588135,-2.038450543080465
1708433385.7286878,-2.1398720741271973,-1.3334756803563614,-2.528130833302633,6.107374417572775,1.019963026046753,-2.0377162138568323
1708433385.7306778,-2.1398587226867676,-1.3334962290576478,-2.5282045046435755,6.107330906182089,1.0200155973434448,-2.0370195547686976
1708433385.7327166,-2.1397995948791504,-1.3334475320628663,-2.52821928659548,6.107259499817648,1.020039439201355,-2.036262814198629
1708433385.7346914,-2.1397502422332764,-1.333438904290535,-2.5282073656665247,6.107248770981588,1.0200550556182861,-2.0355704466449183
1708433385.7367382,-2.139718532562256,-1.3334103983691712,-2.528264109288351,6.107127773552694,1.020070195198059,-2.034848992024557
1708433385.738711,-2.1396913528442383,-1.3335170906833191,-2.5282326380359095,6.107079851418295,1.0201265811920166,-2.034048859273092
1708433385.740749,-2.1396749019622803,-1.3334266257337113,-2.5282912890063685,6.107042538910665,1.020228624343872,-2.033315960560934
1708433385.7427478,-2.1396074295043945,-1.3335041266730805,-2.528310839329855,6.106921541481771,1.020248293876648,-2.03247577348818
1708433385.7447388,-2.139620304107666,-1.33344321072612,-2.528339449559347,6.1069006798561,1.020275354385376,-2.031721893941061
1708433385.746741,-2.139516592025757,-1.3334756654552002,-2.528325859700338,6.106849777489462,1.0203443765640259,-2.030912224446432
1708433385.7487183,-2.139552116394043,-1.333484248524048,-2.5284250418292444,6.106700527458944,1.0203763246536255,-2.0300892035113733
1708433385.7507236,-2.139472007751465,-1.333451808696129,-2.5284069220172327,6.106697308808126,1.0204285383224487,-2.0292657057391565
1708433385.7527363,-2.139432430267334,-1.3334799718907853,-2.5284441153155726,6.106622564583578,1.020517349243164,-2.028522316609518
1708433385.7546914,-2.139338254928589,-1.3334475022605439,-2.5284891764270228,6.106619584351339,1.020561695098877,-2.027531448994772
1708433385.756741,-2.139375686645508,-1.3334562194398423,-2.528483215962545,6.106494176178732,1.0205434560775757,-2.026752297078268
1708433385.7586963,-2.1393442153930664,-1.3334799867919465,-2.5285044352160853,6.106471645623007,1.0206284523010254,-2.0258949438678187
1708433385.760736,-2.1392996311187744,-1.3334475022605439,-2.5284999052630823,6.106468665390768,1.0206530094146729,-2.0249865690814417
1708433385.7627559,-2.1392760276794434,-1.333456204538681,-2.5285311380969446,6.106329667359152,1.0207138061523438,-2.0241316000567835
1708433385.7646964,-2.1392197608947754,-1.333452509050705,-2.528538767491476,6.106302726059713,1.0207576751708984,-2.0233705679522913
1708433385.766732,-2.139212131500244,-1.3334190410426636,-2.5286076704608362,6.106271493225851,1.0208054780960083,-2.022491757069723
1708433385.7687485,-2.1391358375549316,-1.3334396493485947,-2.5286031405078333,6.106183039933004,1.0208580493927002,-2.0216363112079065
1708433385.770684,-2.1392064094543457,-1.3334524643472214,-2.528618399296896,6.106172549515524,1.0208320617675781,-2.0207327047931116
1708433385.7727587,-2.1391334533691406,-1.3333956462195893,-2.5286603609668177,6.106117236405172,1.0209304094314575,-2.019909207020895
1708433385.7746947,-2.139069080352783,-1.333386943941452,-2.528663221989767,6.106008159905233,1.020961880683899,-2.0189808050738733
1708433385.7767143,-2.139019727706909,-1.3333875995925446,-2.528670612965719,6.10595582702712,1.021005392074585,-2.018081013356344
1708433385.7786968,-2.138967990875244,-1.333407224421837,-2.5287233034717005,6.105978119164266,1.021025538444519,-2.0171926657306116
1708433385.7807229,-2.1390228271484375,-1.3334158223918458,-2.5287352244006556,6.105951416283407,1.0210777521133423,-2.0162795225726526
1708433385.7827399,-2.1389613151550293,-1.3333999079516907,-2.5287712256061,6.105842339783468,1.021146535873413,-2.015360657368795
1708433385.7846947,-2.138946056365967,-1.333424450164177,-2.5287743250476282,6.105752455979147,1.0211784839630127,-2.0144532362567347
1708433385.7867422,-2.1389012336730957,-1.3334244352630158,-2.5288072268115442,6.105713593750753,1.0212218761444092,-2.0136335531817835
1708433385.7887168,-2.138874053955078,-1.3334114861539383,-2.5288761297809046,6.105656850128927,1.0212669372558594,-2.0128396193133753
1708433385.7907152,-2.1388649940490723,-1.3334320497563859,-2.5288882891284388,6.105638730316915,1.0213061571121216,-2.0118988196002405
1708433385.7927418,-2.1388297080993652,-1.3334190261415024,-2.528891150151388,6.105537164002218,1.0213263034820557,-2.011000458394186
1708433385.7946954,-2.138813018798828,-1.333399937754013,-2.528894011174337,6.105506169586935,1.0213871002197266,-2.010077778493063
1708433385.796738,-2.138803243637085,-1.3333919954350968,-2.5289014021502894,6.105462658196249,1.0213937759399414,-2.0091760794269007
1708433385.798686,-2.138749599456787,-1.3334115010550995,-2.5289059321032923,6.105422246247091,1.0214953422546387,-2.008249107991354
1708433385.800691,-2.138697624206543,-1.3333465170911332,-2.5289767424212855,6.105362641602316,1.0215107202529907,-2.0073116461383265
1708433385.8027182,-2.138697624206543,-1.3333919805339356,-2.528991762791769,6.1053939936454675,1.021550178527832,-2.0064080397235315
1708433385.8047154,-2.1386611461639404,-1.3334115010550995,-2.528982702885763,6.105275618820944,1.0216025114059448,-2.005531613026754
1708433385.806753,-2.138625144958496,-1.3333757382682343,-2.5290351549731653,6.105174171715536,1.0216383934020996,-2.0045788923846644
1708433385.8087592,-2.138641834259033,-1.333383397465088,-2.5290516058551233,6.1052366373832605,1.021695613861084,-2.00367242494692
1708433385.8107147,-2.1386590003967285,-1.3333999079516907,-2.5290589968310755,6.1051920531089685,1.0217357873916626,-2.00270921388735
1708433385.8127215,-2.1385929584503174,-1.3334041398814698,-2.5291250387774866,6.105132210045614,1.0217676162719727,-2.0017741362201136
1708433385.8147073,-2.1385369300842285,-1.3333919656327744,-2.52911621729006,6.105091678887167,1.0217829942703247,-2.0007265249835413
1708433385.8167295,-2.138554096221924,-1.3334234070828934,-2.5291596094714563,6.105093109398641,1.0218394994735718,-1.9997990767108362
1708433385.8187556,-2.138542652130127,-1.333412842159607,-2.5291431585894983,6.105043995171346,1.0218592882156372,-1.9988282362567347
1708433385.8207254,-2.1384782791137695,-1.3334171336940308,-2.5291386286364954,6.104970800667562,1.021907091140747,-1.9978912512408655
1708433385.8227062,-2.138490676879883,-1.333439664249756,-2.529170099888937,6.105022775917806,1.021865963935852,-1.9968817869769495
1708433385.8246696,-2.1384501457214355,-1.333404154782631,-2.5292285124408167,6.104933488159933,1.0219154357910156,-1.995892349873678
1708433385.8267047,-2.1384429931640625,-1.3333956015161057,-2.529177490864889,6.104913818627157,1.0219509601593018,-1.9949505964862269
1708433385.8286839,-2.1384263038635254,-1.3333999079516907,-2.529222551976339,6.104827630310812,1.0220320224761963,-1.9939115683185022
1708433385.8307056,-2.138411045074463,-1.3333833527616044,-2.5292838255511683,6.104837882309713,1.0219948291778564,-1.9929207007037562
1708433385.8327298,-2.1384196281433105,-1.333408535724022,-2.5292585531817835,6.104834663658895,1.0220832824707031,-1.9920290152179163
1708433385.8346865,-2.1384029388427734,-1.3333875697902222,-2.529315773640768,6.104827272682943,1.022074580192566,-1.9909880797015589
1708433385.8367085,-2.1383519172668457,-1.333392010336258,-2.529393498097555,6.104736077576437,1.0221149921417236,-1.9900534788714808
1708433385.8387218,-2.138352632522583,-1.3333875846913834,-2.529289786015646,6.1047167656715295,1.0221631526947021,-1.98903733888735
1708433385.8406882,-2.138327121734619,-1.333436281686165,-2.529335085545675,6.104779231339254,1.022203803062439,-1.9880097548114222
1708433385.8427365,-2.138335704803467,-1.333367110495903,-2.5293095747577112,6.104700433998861,1.0222440958023071,-1.9870813528644007
1708433385.8446932,-2.138267993927002,-1.333395631318428,-2.5293918291675013,6.104680645256796,1.0222761631011963,-1.9860437552081507
1708433385.8467548,-2.138242721557617,-1.3334492307952424,-2.5293951670276087,6.1046568033988855,1.0223116874694824,-1.985056225453512
1708433385.8487308,-2.1382880210876465,-1.3334041249803086,-2.5294085184680384,6.104670274048605,1.0223729610443115,-1.9840815703021448
1708433385.8506932,-2.1382105350494385,-1.3334287715009232,-2.529402558003561,6.104620802193441,1.0223721265792847,-1.98315936723818
1708433385.852738,-2.138201951980591,-1.3333638173392792,-2.529414478932516,6.104564416199484,1.022392749786377,-1.9821112791644495
1708433385.8547828,-2.1382229328155518,-1.333400623207428,-2.529430929814474,6.104573118477621,1.0224614143371582,-1.981208626423971
1708433385.856741,-2.1382105350494385,-1.333359496002533,-2.529443089162008,6.104631531029501,1.02243971824646,-1.9802573362933558
1708433385.8587327,-2.138206958770752,-1.3333963018706818,-2.529443089162008,6.104556786804952,1.022484302520752,-1.9792736212359827
1708433385.8607152,-2.138223648071289,-1.3334041398814698,-2.5294340292560022,6.104595649033346,1.0224831104278564,-1.9783600012408655
1708433385.8627603,-2.1381711959838867,-1.3334276986173172,-2.5294716993915003,6.104561197548666,1.022535800933838,-1.9774354139911097
1708433385.8647106,-2.138184070587158,-1.333379016523697,-2.5295074621783655,6.1045371172721765,1.022535800933838,-1.9764497915851038
1708433385.866731,-2.138211250305176,-1.3334320497563859,-2.529440228139059,6.104588138848104,1.022597074508667,-1.97559100786318
1708433385.8687289,-2.138192653656006,-1.333420069222786,-2.5294984022723597,6.104513394623556,1.0225926637649536,-1.9745963255511683
1708433385.8706882,-2.138171672821045,-1.3333875846913834,-2.52953011194338,6.104534256249227,1.0226417779922485,-1.9736884276019495
1708433385.8727345,-2.138199806213379,-1.3334374141744156,-2.529522482548849,6.104547607689657,1.0226573944091797,-1.9727385679828089
1708433385.874685,-2.1382040977478027,-1.3334128868630906,-2.529546562825338,6.104538666992941,1.0226531028747559,-1.9717734495746058
1708433385.8767207,-2.1381912231445312,-1.3334115010550995,-2.529543701802389,6.104543077736654,1.022665023803711,-1.9709022680865687
1708433385.8786905,-2.1381137371063232,-1.3334158223918458,-2.5295749346362513,6.104510414391317,1.0226519107818604,-1.969931427632467
1708433385.8806915,-2.138192653656006,-1.3333956015161057,-2.5295539538012903,6.104538666992941,1.0226681232452393,-1.9689796606646937
1708433385.8827384,-2.138134717941284,-1.3333999079516907,-2.5296109358416956,6.104522335320272,1.0227293968200684,-1.9680174032794397
1708433385.8846905,-2.138167381286621,-1.3333627593568345,-2.5295658747302454,6.104535686760702,1.0227534770965576,-1.9670479933368128
1708433385.8867154,-2.1382040977478027,-1.3333963018706818,-2.5296276251422327,6.104505884438314,1.022728443145752,-1.9661591688739222
1708433385.8887515,-2.1381759643554688,-1.3334482920220871,-2.5296152273761194,6.104503023415365,1.022752285003662,-1.9651711622821253
1708433385.8907037,-2.1381592750549316,-1.3333713424256821,-2.5295854250537317,6.104535567551412,1.0227479934692383,-1.9641740957843226
1708433385.8927343,-2.1381592750549316,-1.333408535724022,-2.5296276251422327,6.10455201843337,1.0227553844451904,-1.9631879965411585
1708433385.8946855,-2.138154983520508,-1.3333999079516907,-2.529639546071188,6.104543077736654,1.0228253602981567,-1.9622486273394983
1708433385.8967252,-2.1381592750549316,-1.3333875846913834,-2.529639546071188,6.1044983742530725,1.022821068763733,-1.9613264242755335
1708433385.8987122,-2.138154983520508,-1.3333919656327744,-2.529630486165182,6.104562508850851,1.0228047370910645,-1.9604094664203089
1708433385.9006965,-2.1381521224975586,-1.3333962869695206,-2.529658857976095,6.104510414391317,1.0228289365768433,-1.9594433943377894
1708433385.902702,-2.138143301010132,-1.3333875846913834,-2.529651467000143,6.104547488480367,1.0228289365768433,-1.9584677855121058
1708433385.9046912,-2.138127326965332,-1.3333843809417267,-2.529671017323629,6.1045312760169885,1.0228289365768433,-1.9575627485858362
1708433385.9067237,-2.1381723880767822,-1.3334450286677857,-2.5296452681170862,6.104550587921896,1.022820234298706,-1.9566453138934534
1708433385.9087324,-2.1381397247314453,-1.333408535724022,-2.529633347188131,6.104505884438314,1.022836446762085,-1.9557612578021448
1708433385.9107056,-2.1381521224975586,-1.3333919954350968,-2.529691759740011,6.104522335320272,1.0228846073150635,-1.9548071066485804
1708433385.9127245,-2.1381638050079346,-1.3333800596049805,-2.5296784082995813,6.104535686760702,1.022830843925476,-1.953846279774801
1708433385.9147332,-2.1381723880767822,-1.333424450164177,-2.5296979586230677,6.104529726296224,1.0228683948516846,-1.9529078642474573
1708433385.9167433,-2.1381311416625977,-1.3333875846913834,-2.5297115484820765,6.104566919594564,1.022929310798645,-1.9519904295550745
1708433385.9187622,-2.1381099224090576,-1.333408535724022,-2.5297098795520228,6.104531156807699,1.0228878259658813,-1.9511006514178675
1708433385.9207792,-2.1381266117095947,-1.3334200245193024,-2.5296905676471155,6.104513394623556,1.0229161977767944,-1.950188461934225
1708433385.9227223,-2.1381478309631348,-1.3333713424256821,-2.5297070185290735,6.1045758602912805,1.022929310798645,-1.9492958227740687
1708433385.9246905,-2.1381592750549316,-1.3334287267974396,-2.5297234694110315,6.104534256249227,1.0229249000549316,-1.9484389464007776
1708433385.9267132,-2.138171672821045,-1.3333833825639267,-2.5297144095050257,6.104531156807699,1.0229535102844238,-1.9474628607379358
1708433385.9287236,-2.138123035430908,-1.3334158521941681,-2.529754940663473,6.104526746063986,1.022932767868042,-1.9465902487384241
1708433385.9307396,-2.1381847858428955,-1.3333790612271805,-2.5296905676471155,6.104550587921896,1.0229655504226685,-1.94572621980776
1708433385.9327407,-2.138139009475708,-1.3334128123572846,-2.5297234694110315,6.104637491493978,1.0229655504226685,-1.9447372595416468
1708433385.9347055,-2.1381478309631348,-1.333411530857422,-2.5296815077411097,6.104538666992941,1.022989273071289,-1.9438517729388636
1708433385.936743,-2.138143301010132,-1.333399937754013,-2.5297098795520228,6.1046286700065515,1.0230013132095337,-1.9429219404803675
1708433385.9387584,-2.1381638050079346,-1.3334114712527771,-2.529712740574972,6.104562508850851,1.0229601860046387,-1.9420841375934046
1708433385.9407468,-2.1381592750549316,-1.3334320497563859,-2.5297427813159388,6.10463427284316,1.0230220556259155,-1.9411986509906214
1708433385.9427493,-2.1381311416625977,-1.3334244054606934,-2.529759470616476,6.10452817657546,1.0230257511138916,-1.9402459303485315
1708433385.9447198,-2.1381723880767822,-1.3333876144937058,-2.529733721409933,6.104549038201132,1.0229601860046387,-1.9393237272845667
1708433385.946731,-2.1381099224090576,-1.3334200394204636,-2.529724661503927,6.104643094330587,1.0230213403701782,-1.9384759108172815
1708433385.9487128,-2.1381847858428955,-1.3334439557841797,-2.529764000569479,6.104662883072653,1.023012638092041,-1.9375198523150843
1708433385.950692,-2.1381311416625977,-1.3334115010550995,-2.529708449040548,6.104616391449728,1.0230213403701782,-1.9365938345538538
1708433385.9527042,-2.1381592750549316,-1.3334158223918458,-2.529762570058004,6.104700076370992,1.023012638092041,-1.9356635252581995
1708433385.9547637,-2.138154983520508,-1.3334396195462723,-2.529783550892965,6.10462378242568,1.0230331420898438,-1.934779469166891
1708433385.9567337,-2.1381099224090576,-1.333374710088112,-2.529816452656881,6.104670274048605,1.023057222366333,-1.9338248411761683
1708433385.95874,-2.1381680965423584,-1.3334234219840546,-2.5297909418689173,6.104710805207052,1.0230367183685303,-1.9328740278827112
1708433385.9607043,-2.1381847858428955,-1.333424450164177,-2.529799763356344,6.104750978737631,1.0230529308319092,-1.9319270292865198
1708433385.9627264,-2.1381592750549316,-1.3333509725383301,-2.5297775904284876,6.104762899666586,1.0230201482772827,-1.9310429731952112
1708433385.9647148,-2.138134717941284,-1.3333833527616044,-2.5297909418689173,6.104749548226156,1.023057222366333,-1.930098835621969
1708433385.9667466,-2.1381266117095947,-1.3333985817483445,-2.5298147837268274,6.104803430825033,1.0230648517608643,-1.929230038319723
1708433385.9687111,-2.138143301010132,-1.3334440153888245,-2.5298119227038782,6.104794490128317,1.0230940580368042,-1.9283307234393519
1708433385.9707005,-2.1381478309631348,-1.3334041398814698,-2.5298028627978724,6.104797470360555,1.023069143295288,-1.927429501210348
1708433385.9726977,-2.138143301010132,-1.3334072095206757,-2.5297938028918665,6.10482274272994,1.0230722427368164,-1.9265688101397913
1708433385.974688,-2.138118028640747,-1.333407149916031,-2.5297818819629114,6.104821193009176,1.0230810642242432,-1.925633732472555
1708433385.9767263,-2.138139009475708,-1.3334234070828934,-2.5298028627978724,6.104877817421713,1.0230937004089355,-1.9247244040118616
1708433385.9786882,-2.1381421089172363,-1.3334244650653382,-2.5297938028918665,6.104898917465963,1.0230848789215088,-1.9238222281085413
1708433385.9806857,-2.138192653656006,-1.3334115457585831,-2.5298522154437464,6.104938018112936,1.0230679512023926,-1.9229701201068323
1708433385.9827032,-2.138143301010132,-1.3334724319032212,-2.529792372380392,6.1049078581626794,1.0231215953826904,-1.9220193068133753
1708433385.984697,-2.1381759643554688,-1.3334277433208008,-2.529775921498434,6.104981171875753,1.0231053829193115,-1.9211371580706995
1708433385.986737,-2.1382155418395996,-1.3333912652781983,-2.5297818819629114,6.104955899506368,1.0231261253356934,-1.9202912489520472
1708433385.9886947,-2.138184070587158,-1.333383397465088,-2.5297938028918665,6.104996073036947,1.0230848789215088,-1.9194300810443323
1708433385.9907079,-2.138134717941284,-1.3334449541619797,-2.5298598448382776,6.104991543083944,1.0230967998504639,-1.9185431639300745
1708433385.9927344,-2.138192653656006,-1.3333913397840043,-2.5298224131213587,6.1050217030342,1.0230880975723267,-1.9176862875567835
1708433385.9946852,-2.138211250305176,-1.3334027838758011,-2.5298057238208216,6.105008232384481,1.0231000185012817,-1.9167707602130335
1708433385.9967265,-2.13814640045166,-1.333432064657547,-2.5298388640033167,6.105106580048361,1.023149013519287,-1.9158814589129847
1708433385.998733,-2.1381630897521973,-1.3334072095206757,-2.5297849814044397,6.105105030327596,1.0231577157974243,-1.9149859587298792
1708433386.000692,-2.1382365226745605,-1.3334071797183533,-2.5298178831683558,6.10509608963088,1.0231328010559082,-1.9141643683062952
1708433386.0027306,-2.1381754875183105,-1.333411530857422,-2.529879395161764,6.105152952461996,1.023137092590332,-1.9133451620685022
1708433386.0047066,-2.1381869316101074,-1.333407224421837,-2.5298343340503138,6.105169641762533,1.0231328010559082,-1.9124239126788538
1708433386.0067246,-2.1382360458374023,-1.3333790761283417,-2.529872004185812,6.105177032738485,1.0231904983520508,-1.9115789572345179
1708433386.0087216,-2.1381869316101074,-1.33347241700206,-2.529870335255758,6.105160701065817,1.023153305053711,-1.910684887562887
1708433386.0107284,-2.138223648071289,-1.333439664249756,-2.529874865208761,6.10521279552535,1.0231860876083374,-1.9097731749164026
1708433386.0127401,-2.1382360458374023,-1.3334482920220871,-2.529862944279806,6.105206835060873,1.0231611728668213,-1.9089496771441858
1708433386.014707,-2.1381983757019043,-1.3334028136781235,-2.5299156347857874,6.105232226639547,1.0231852531433105,-1.9080436865436
1708433386.0167058,-2.1381938457489014,-1.333451808696129,-2.529895607625143,6.105275618820944,1.02314031124115,-1.907210652028219
1708433386.0188258,-2.1381938457489014,-1.3334810447743912,-2.5298989454852503,6.105315911560812,1.0231611728668213,-1.906325642262594
1708433386.0207255,-2.1381938457489014,-1.333469108944275,-2.529874865208761,6.105369794159689,1.0232014656066895,-1.9054878393756312
1708433386.0227146,-2.1382431983947754,-1.3333826524070282,-2.529870335255758,6.105351912766256,1.0231773853302002,-1.904504124318258
1708433386.0247219,-2.1382598876953125,-1.3334525239518662,-2.5298944155322474,6.1053727743919275,1.0231809616088867,-1.9035809675799769
1708433386.0267415,-2.1382555961608887,-1.3334637445262452,-2.529865805302755,6.105432617455282,1.0232133865356445,-1.9026835600482386
1708433386.0286968,-2.1382389068603516,-1.3334594678929825,-2.5299246946917933,6.105423676758566,1.0232508182525635,-1.9017370382892054
1708433386.0306945,-2.1382765769958496,-1.3334637147239228,-2.5299111048327845,6.105476128845968,1.0232133865356445,-1.9008339087115687
1708433386.032733,-2.1382923126220703,-1.3334517937949677,-2.5298989454852503,6.1055534956748865,1.0232133865356445,-1.8998983542071741
1708433386.0347123,-2.138251304626465,-1.3334767383388062,-2.5299020449267786,6.105516302376547,1.0232014656066895,-1.898975674306051
1708433386.036706,-2.138251304626465,-1.3334637445262452,-2.5298944155322474,6.1055312035377405,1.0232256650924683,-1.8981130758868616
1708433386.0387118,-2.138270854949951,-1.3334876012853165,-2.5298944155322474,6.105488168984213,1.0232422351837158,-1.897198502217428
1708433386.0406926,-2.1382994651794434,-1.3334680509618302,-2.5299094359027308,6.10555528381423,1.0232378244400024,-1.8962963263141077
1708433386.042722,-2.138275146484375,-1.33343097687278,-2.5299394766436976,6.105616676598348,1.0232168436050415,-1.8953588644610804
1708433386.044687,-2.1382908821105957,-1.3335171055844803,-2.5299230257617396,6.105631458550253,1.0232453346252441,-1.894444767628805
1708433386.0467212,-2.1382994651794434,-1.3335084331086655,-2.5299065748797815,6.105644929199972,1.0232410430908203,-1.893505875264303
1708433386.0487456,-2.1382551193237305,-1.333475650554039,-2.529921356831686,6.105618107109823,1.0232454538345337,-1.892597500477926
1708433386.0506895,-2.1382923126220703,-1.3334756654552002,-2.529958788548605,6.10567473152236,1.0232694149017334,-1.8917730490313929
1708433386.052704,-2.1382622718811035,-1.3335200411132355,-2.5299840609179896,6.105703341751852,1.0232932567596436,-1.890846077595846
1708433386.0547507,-2.1382551193237305,-1.333482564692833,-2.529975239430563,6.105691063195028,1.0232813358306885,-1.8898947874652308
1708433386.0567276,-2.138298988342285,-1.3335276556066056,-2.529966179524557,6.105701911240377,1.0233098268508911,-1.8890679518329065
1708433386.0587122,-2.138335704803467,-1.3335395765355607,-2.5299630800830286,6.105713593750753,1.0232813358306885,-1.8881686369525355
1708433386.0607033,-2.138270854949951,-1.3335473847440262,-2.529945198689596,6.105718242913046,1.0232932567596436,-1.8872945944415491
1708433386.0627239,-2.138275146484375,-1.3335233342698594,-2.5299950281726282,6.105791556626119,1.023354411125183,-1.8863709608661097
1708433386.0647025,-2.1382622718811035,-1.3335604828647156,-2.52997070947756,6.105795848160543,1.023317575454712,-1.885493580495016
1708433386.066746,-2.1382665634155273,-1.33356365681205,-2.52997070947756,6.105773556023397,1.0233500003814697,-1.8845799604998987
1708433386.0687513,-2.1382551193237305,-1.3335438829711457,-2.5300114790545862,6.105754005699911,1.0233500003814697,-1.883754078541891
1708433386.070698,-2.138319969177246,-1.33357988417659,-2.529973808919088,6.105773556023397,1.0233533382415771,-1.88281757036318
1708433386.0727384,-2.138279438018799,-1.333568037753441,-2.5299950281726282,6.1057166931922815,1.023357629776001,-1.8819802443133753
1708433386.0746896,-2.138275146484375,-1.3335834306529541,-2.5299692789660853,6.105770337372579,1.0233820676803589,-1.8810742537127894
1708433386.076718,-2.1382665634155273,-1.33356365681205,-2.5300143400775355,6.105774748116293,1.0233776569366455,-1.8801596800433558
1708433386.0787005,-2.1383442878723145,-1.333612636928894,-2.5300353209124964,6.105795848160543,1.0233646631240845,-1.879282299672262
1708433386.0806973,-2.138263702392578,-1.333575577741005,-2.5300262610064905,6.105774748116293,1.0234267711639404,-1.8784011046039026
1708433386.0827231,-2.138246536254883,-1.3335834306529541,-2.5300472418414515,6.105773556023397,1.0234342813491821,-1.8774483839618128
1708433386.0847204,-2.138307571411133,-1.3336158853820343,-2.5300381819354456,6.1057870266731165,1.0234136581420898,-1.8765767256366175
1708433386.0866911,-2.1383118629455566,-1.3336126518300553,-2.5300336519824427,6.10575686672286,1.023425579071045,-1.8756659666644495
1708433386.0887,-2.138270854949951,-1.3336317849210282,-2.5300548712359827,6.105855810433187,1.0233927965164185,-1.8748348394977015
1708433386.0906715,-2.138263702392578,-1.3335943830064316,-2.530083481465475,6.105770337372579,1.023474931716919,-1.8739073912249964
1708433386.092682,-2.138286590576172,-1.3336754900268097,-2.530081812535421,6.1057870266731165,1.0234737396240234,-1.8730219046222132
1708433386.094685,-2.138275146484375,-1.3336102676442643,-2.530053202305929,6.105774867325582,1.02350652217865,-1.8721988836871546
1708433386.0966778,-2.1382594108581543,-1.3336679500392457,-2.530107323323385,6.10582863071517,1.0235108137130737,-1.8712170759784144
1708433386.0987096,-2.1382551193237305,-1.3336668771556397,-2.530081812535421,6.105765807419576,1.0234899520874023,-1.870317284260885
1708433386.1006875,-2.1382594108581543,-1.3336754900268097,-2.5301149527179163,6.105770337372579,1.0234978199005127,-1.869422737752096
1708433386.1026967,-2.1382811069488525,-1.333692030315735,-2.5301223436938685,6.105791556626119,1.023533821105957,-1.8685911337481897
1708433386.1047192,-2.1382431983947754,-1.333683432345726,-2.5300968329059046,6.105746733933248,1.023533821105957,-1.8676384131061
1708433386.1067402,-2.138256311416626,-1.333683432345726,-2.5301793257342737,6.105746733933248,1.0235536098480225,-1.866831127797262
1708433386.1087306,-2.1381869316101074,-1.3336462688497086,-2.5301509539233606,6.10569583156661,1.0235579013824463,-1.8659160772906702
1708433386.1107347,-2.1381711959838867,-1.3336462688497086,-2.530158344899313,6.105730044632711,1.0235493183135986,-1.8650382200824183
1708433386.1127276,-2.138206958770752,-1.333653913145401,-2.530144755040304,6.105659830361166,1.0235894918441772,-1.8641966024981897
1708433386.1147068,-2.138192653656006,-1.3337028634599228,-2.530173126851217,6.105680930405416,1.0236104726791382,-1.8633478323565882
1708433386.1167727,-2.138143301010132,-1.333686650996544,-2.5301640669452112,6.105641948967733,1.023601770401001,-1.8625076452838343
1708433386.1187449,-2.1381099224090576,-1.3336704236320038,-2.5302439371692103,6.105659830361166,1.023601770401001,-1.8616369406329554
1708433386.1207054,-2.1380581855773926,-1.3337353330901642,-2.5302258173571985,6.1055582640464685,1.0236550569534302,-1.8608043829547327
1708433386.1227136,-2.1380667686462402,-1.3337843281081696,-2.5302496592151087,6.10557912567214,1.023658275604248,-1.8599212805377405
1708433386.1247227,-2.13801908493042,-1.3337558519891282,-2.530278269444601,6.105513322144308,1.0236945152282715,-1.8590720335589808
1708433386.126678,-2.1379785537719727,-1.3337505769780655,-2.5302870909320276,6.1055195210273645,1.0236945152282715,-1.8582947889911097
1708433386.1286907,-2.1379432678222656,-1.333705113535263,-2.530260149632589,6.105486380844869,1.023681640625,-1.8574546019183558
1708433386.1306937,-2.137899875640869,-1.3337995570949097,-2.530332390462057,6.105467188149252,1.0236902236938477,-1.8566458860980433
1708433386.1327312,-2.1378440856933594,-1.333746151333191,-2.5303171316729944,6.105352151184835,1.023669719696045,-1.8558347860919397
1708433386.134719,-2.1377992630004883,-1.333823637371399,-2.5303998629199427,6.105338442116537,1.023726224899292,-1.8550494352923792
1708433386.1367245,-2.1377530097961426,-1.3337984842113038,-2.5303788820849817,6.105336773186483,1.0237468481063843,-1.8541916052447718
1708433386.1387146,-2.1376559734344482,-1.3338106584599991,-2.530377213154928,6.105251896172323,1.0237503051757812,-1.8534014860736292
1708433386.140724,-2.137559175491333,-1.3338670146516343,-2.530426565800802,6.1051262495811365,1.0237743854522705,-1.8525961081134241
1708433386.1427817,-2.1375529766082764,-1.3338670146516343,-2.530414644871847,6.105061876564779,1.0237863063812256,-1.8518684546100062
1708433386.1447058,-2.1373956203460693,-1.333789126282074,-2.5304718653308313,6.105006921082296,1.0237863063812256,-1.8510940710650843
1708433386.1467068,-2.137328624725342,-1.3338417720845719,-2.5304656664477747,6.104923116951742,1.023789405822754,-1.85026723543276
1708433386.1487288,-2.1372971534729004,-1.3338789355805893,-2.530461136494772,6.104831921845236,1.023838758468628,-1.8494780699359339
1708433386.1510758,-2.137129545211792,-1.3339062494090577,-2.530527416859762,6.104637610703268,1.023850679397583,-1.8487418333636683
1708433386.1527734,-2.1369922161102295,-1.3339343977025528,-2.5305095354663294,6.1045806286628626,1.023871660232544,-1.8479378859149378
1708433386.1547163,-2.1369011402130127,-1.3338976365378876,-2.5305586496936243,6.104473221092977,1.0239205360412598,-1.8472169081317347
1708433386.1567206,-2.136744976043701,-1.3339583289674302,-2.5306113401996058,6.104311692505636,1.0238823890686035,-1.846419636403219
1708433386.1587646,-2.136629819869995,-1.3339300912669678,-2.5305994192706507,6.104144322663107,1.0239067077636719,-1.8456404844867151
1708433386.1607356,-2.1365110874176025,-1.3339583289674302,-2.5305736700641077,6.10404263713912,1.023918628692627,-1.8449175993548792
1708433386.162756,-2.136410713195801,-1.3339856278947373,-2.53062612215151,6.103858458786764,1.0239067077636719,-1.8441842238055628
1708433386.1647182,-2.136186122894287,-1.3340300035527726,-2.5306668917285364,6.103715407639303,1.023943543434143,-1.8434284369098108
1708433386.166703,-2.136009693145752,-1.3339690876058121,-2.5306788126574915,6.103453862458029,1.0239554643630981,-1.8427093664752405
1708433386.1687264,-2.135892629623413,-1.334029958849289,-2.5307446161853235,6.103229510575094,1.0239012241363525,-1.8419674078570765
1708433386.170693,-2.135715961456299,-1.3340256971171875,-2.530722204838888,6.102990615158834,1.023950219154358,-1.8412535826312464
1708433386.1727545,-2.1355159282684326,-1.334094138150551,-2.5307627359973353,6.102800357132711,1.0239416360855103,-1.8405159155475062
1708433386.1746929,-2.135298728942871,-1.3340657216361542,-2.5307746569262903,6.102532374649801,1.0239906311035156,-1.8398001829730433
1708433386.176691,-2.135141611099243,-1.3340974611094971,-2.530818287526266,6.102321851044454,1.0239992141723633,-1.8390191237079065
1708433386.178712,-2.1349291801452637,-1.3341136437705536,-2.5307775179492396,6.102012026100912,1.0239495038986206,-1.8383687178241175
1708433386.1806912,-2.134685516357422,-1.3341127049973984,-2.5308168570147913,6.101762640267172,1.0239700078964233,-1.8376997152911585
1708433386.1827219,-2.1345062255859375,-1.3341127049973984,-2.5309112707721155,6.1014829752738855,1.0240190029144287,-1.836984936391012
1708433386.184691,-2.134242057800293,-1.3341420900872727,-2.5308781305896204,6.101087558060446,1.0239862203598022,-1.8363044897662562
1708433386.186688,-2.1339914798736572,-1.3341368746808548,-2.5309141317950647,6.100764381676473,1.024010419845581,-1.8356803099261683
1708433386.1887443,-2.133735418319702,-1.33423766613517,-2.5309634844409388,6.100426661759176,1.024023413658142,-1.8350265661822718
1708433386.1906836,-2.133472204208374,-1.3341811460307618,-2.53097111383547,6.100054371147909,1.0240027904510498,-1.8343771139727991
1708433386.1927173,-2.1331846714019775,-1.3342818480781098,-2.5310431162463587,6.099729645043173,1.0240027904510498,-1.8337386290179651
1708433386.194668,-2.1328604221343994,-1.334261418586113,-2.5310431162463587,6.099300610810079,1.0240027904510498,-1.8330772558795374
1708433386.1966796,-2.132564067840576,-1.3342809838107605,-2.531067196522848,6.09890495517806,1.0240435600280762,-1.8325703779803675
1708433386.1986806,-2.13226056098938,-1.334304855470993,-2.531058136616842,6.0985686657722376,1.0240521430969238,-1.83189565340151
1708433386.200676,-2.131885290145874,-1.3343659502318879,-2.5310447851764124,6.098111259728231,1.0239776372909546,-1.8313105742083948
1708433386.202721,-2.1316184997558594,-1.334357352261879,-2.531092707310812,6.097673284798422,1.0239537954330444,-1.8307378927813929
1708433386.2047129,-2.1312527656555176,-1.334388480787613,-2.5311675707446497,6.097178447037496,1.0240027904510498,-1.8301880995379847
1708433386.2067022,-2.130885124206543,-1.334412620668747,-2.5311508814441126,6.096671449929037,1.0239580869674683,-1.8295624891864222
1708433386.2087169,-2.1304972171783447,-1.3344605428031464,-2.5311976114856165,6.096193301468649,1.0239667892456055,-1.8290813604937952
1708433386.2106977,-2.1300981044769287,-1.3344920736602326,-2.5312379042254847,6.095629799156942,1.0239293575286865,-1.8285430113421839
1708433386.2127151,-2.1297147274017334,-1.3345329773477097,-2.531274143849508,6.095140921860494,1.0239582061767578,-1.8279646078692835
1708433386.2147021,-2.12929105758667,-1.334508241420128,-2.531269613896505,6.09465645530776,1.0239590406417847,-1.8274534384356897
1708433386.2166848,-2.1289024353027344,-1.3345808994821091,-2.531327788029806,6.0941094038780115,1.0239100456237793,-1.8269150892840784
1708433386.2187552,-2.128458023071289,-1.3345842373422165,-2.5313506762133997,6.093503939896383,1.0239100456237793,-1.8264392058001917
1708433386.2207165,-2.1280624866485596,-1.3346080792001267,-2.5313597361194056,6.092979657440939,1.023902416229248,-1.8259204069720667
1708433386.2227051,-2.1276280879974365,-1.3346242320588608,-2.5314117113696497,6.09242473819808,1.023902416229248,-1.8254950682269495
1708433386.2247138,-2.1271560192108154,-1.33468450725589,-2.531426970158712,6.091707813530721,1.0238542556762695,-1.825050179158346
1708433386.2266846,-2.126619577407837,-1.334631310110428,-2.5314629713641565,6.091137993126669,1.023821473121643,-1.8246176878558558
1708433386.2287152,-2.1261448860168457,-1.3347482991269608,-2.5314539114581507,6.090389001160421,1.0237938165664673,-1.8241966406451624
1708433386.230672,-2.1257121562957764,-1.3347686392119904,-2.531539265309469,6.0896832821662805,1.0237776041030884,-1.823758904133932
1708433386.2326891,-2.1251814365386963,-1.334739775662758,-2.531539265309469,6.089031564980306,1.023741602897644,-1.8233426252948206
1708433386.234693,-2.1246700286865234,-1.3346822720817109,-2.5315588156329554,6.088340866356649,1.0237219333648682,-1.8229311148272913
1708433386.2366874,-2.1241424083709717,-1.3347387474826355,-2.531606976185934,6.087590682297506,1.023681640625,-1.8225205580340784
1708433386.2386973,-2.1236062049865723,-1.334807277922966,-2.531576935444967,6.08681486824111,1.0236945152282715,-1.822132412587301
1708433386.2407253,-2.1230642795562744,-1.3348276329091568,-2.5316429773913782,6.086096036225118,1.0236049890518188,-1.8217805067645472
1708433386.242712,-2.1224656105041504,-1.3348310601762314,-2.5316670576678675,6.085266697197714,1.0235973596572876,-1.8213990370379847
1708433386.2447243,-2.1218743324279785,-1.3347977560809632,-2.531693998967306,6.084408390312948,1.023590326309204,-1.821087662373678
1708433386.2466848,-2.1213302612304688,-1.3349028092673798,-2.5316849390613,6.0835715411003015,1.0234761238098145,-1.8207467238055628
1708433386.248704,-2.1206703186035156,-1.3349351596883317,-2.5317209402667444,6.082685100823202,1.0234812498092651,-1.8204801718341272
1708433386.2506857,-2.1200759410858154,-1.3349668991616745,-2.5317373911487024,6.081794488220968,1.0234243869781494,-1.8201754728900355
1708433386.2526968,-2.119391918182373,-1.334982455973961,-2.5317612330066126,6.080898868828573,1.023348093032837,-1.8198369185077112
1708433386.2547073,-2.11875319480896,-1.3350231510451813,-2.5317822138415735,6.079993235855856,1.0233283042907715,-1.8195479551898401
1708433386.2566879,-2.1181230545043945,-1.3350377988866349,-2.531792942677633,6.079112636833944,1.023220419883728,-1.8193004767047327
1708433386.258723,-2.117443561553955,-1.3350497347167511,-2.531867806111471,6.078130352288046,1.0231600999832153,-1.819023911152975
1708433386.2607288,-2.1167123317718506,-1.3350529980710526,-2.531842295323507,6.077124583512106,1.0230836868286133,-1.8188017050372522
1708433386.2627432,-2.1159942150115967,-1.3351822656444092,-2.5318785349475306,6.076156723290243,1.0230193138122559,-1.8185566107379358
1708433386.2647073,-2.1152515411376953,-1.3352102947286149,-2.5318740049945276,6.07508264759139,1.0229229927062988,-1.8182709852801722
1708433386.2667058,-2.1145427227020264,-1.3351813417724152,-2.5319023768054407,6.074030506401815,1.0228303670883179,-1.8180964628802698
1708433386.268778,-2.113816976547241,-1.3352735501578827,-2.531893316899435,6.072975384980001,1.0227633714675903,-1.8179038206683558
1708433386.2707014,-2.113008975982666,-1.3353016388467331,-2.531947437916891,6.071870076447286,1.0226672887802124,-1.8177278677569788
1708433386.2727494,-2.112231969833374,-1.335345984702446,-2.531947437916891,6.070812213211813,1.0225218534469604,-1.817585293446676
1708433386.2746928,-2.111490249633789,-1.3353572350791474,-2.531893316899435,6.069635975151815,1.0224376916885376,-1.8173587957965296
1708433386.276686,-2.110687017440796,-1.3353777092746277,-2.531975809727804,6.0685181496436975,1.0223219394683838,-1.8172438780414026
1708433386.2787068,-2.109828472137451,-1.335441843872406,-2.531933848057882,6.067263233452596,1.0221939086914062,-1.8171165625201624
1708433386.2806962,-2.108973741531372,-1.3355178546956559,-2.531921927128927,6.066043484001913,1.0220365524291992,-1.8169992605792444
1708433386.2827337,-2.1081295013427734,-1.3355378371528168,-2.531938378010885,6.064830767899313,1.021899938583374,-1.8168309370623987
1708433386.2846825,-2.107304573059082,-1.3355612021735688,-2.531971279774801,6.063606488495626,1.021838665008545,-1.8167136351214808
1708433386.2866817,-2.106419563293457,-1.3356656444123765,-2.531921927128927,6.062422382622518,1.0216814279556274,-1.816683594380514
1708433386.2887316,-2.105537176132202,-1.3356442910483857,-2.531921927128927,6.061221468239584,1.0215119123458862,-1.816582981740133
1708433386.2906873,-2.104680061340332,-1.335724653010704,-2.531930987034933,6.059917437821188,1.0213795900344849,-1.816519562398092
1708433386.2927258,-2.103686809539795,-1.3357528162053605,-2.53192645708193,6.05851565578536,1.0212104320526123,-1.816491429005758
1708433386.2946947,-2.1027674674987793,-1.3358132106116791,-2.531839434300558,6.057195770531454,1.021119475364685,-1.8164189497577112
1708433386.2967052,-2.1018497943878174,-1.3358150583556672,-2.5318437258349817,6.055768596916952,1.0209630727767944,-1.816416088734762
1708433386.298724,-2.100879430770874,-1.335855097775795,-2.5318408648120325,6.054345476418295,1.0207291841506958,-1.8164203802691858
1708433386.3006933,-2.0999512672424316,-1.3359234494021912,-2.5318709055529993,6.052973854332723,1.02056884765625,-1.8163889090167444
1708433386.3027442,-2.0989444255828857,-1.3360114705613633,-2.531825844441549,6.051569449692526,1.0204538106918335,-1.8164218107806605
1708433386.3047318,-2.0979902744293213,-1.3360270273736496,-2.53184682527651,6.0501019833381555,1.0202529430389404,-1.816469971333639
1708433386.306714,-2.0969974994659424,-1.3361027252725144,-2.531813923512594,6.048527347832479,1.0201091766357422,-1.8165348211871546
1708433386.3087208,-2.096010684967041,-1.3361140203526993,-2.5317776838885706,6.047092664032736,1.0199413299560547,-1.8165901342975062
1708433386.310719,-2.095001220703125,-1.3361736249974747,-2.5317404905902308,6.045616614609518,1.0196996927261353,-1.816641632710592
1708433386.3127217,-2.0939784049987793,-1.3362377446940918,-2.5317047278033655,6.044094073563375,1.0195070505142212,-1.816770378743307
1708433386.314708,-2.092921733856201,-1.336318017249443,-2.5316761175738733,6.042443024903097,1.0192625522613525,-1.816859547291891
1708433386.3166876,-2.0918960571289062,-1.3364072156003495,-2.531693998967306,6.0409700749214075,1.0190705060958862,-1.8169358412372034
1708433386.3187172,-2.090850353240967,-1.336458222275116,-2.5316160360919397,6.03942488411025,1.0187956094741821,-1.817000691090719
1708433386.3207214,-2.0897932052612305,-1.3365148317864914,-2.531621758137838,6.03782473781661,1.0186342000961304,-1.8170760313617151
1708433386.3227296,-2.0886847972869873,-1.3365495812943955,-2.531593386326925,6.03625379779891,1.0183675289154053,-1.817150894795553
1708433386.324695,-2.0876495838165283,-1.3366622042706986,-2.5315573851214808,6.0346953747566126,1.0182011127471924,-1.8173134962665003
1708433386.3267133,-2.0866825580596924,-1.3366973561099549,-2.5315378347979944,6.033147680550375,1.0179882049560547,-1.8173721472369593
1708433386.3287072,-2.0855751037597656,-1.3367406737855454,-2.5315213839160364,6.031586277275839,1.017783284187317,-1.8175628821002405
1708433386.330703,-2.084566593170166,-1.3367887002280732,-2.5315094629870813,6.030009138375082,1.0175551176071167,-1.8176668326007288
1708433386.332734,-2.083428144454956,-1.3368570667556305,-2.5314164797412317,6.028364884644308,1.0173135995864868,-1.8178723494159144
1708433386.3347003,-2.082366466522217,-1.3368998032859345,-2.5314088503467005,6.026734101563253,1.0170787572860718,-1.8180363813983362
1708433386.3367004,-2.0811784267425537,-1.3369345974973221,-2.531393829976217,6.025096165924825,1.0167893171310425,-1.818176571522848
1708433386.3387043,-2.0801162719726562,-1.3370767098716279,-2.531341616307394,6.023318874626913,1.0165772438049316,-1.8183687368976038
1708433386.3407288,-2.079003095626831,-1.3370910000852128,-2.5313053766833704,6.021678554802694,1.0163211822509766,-1.8185513655291956
1708433386.3427227,-2.077890157699585,-1.3371227544597168,-2.5312562624560755,6.019991504936971,1.016052484512329,-1.8187726179706019
1708433386.344734,-2.076756000518799,-1.3372720789960404,-2.531224552785055,6.018307316094198,1.0157713890075684,-1.8190072218524378
1708433386.3467047,-2.075699806213379,-1.3373072308352967,-2.5311976114856165,6.016645061760702,1.0155142545700073,-1.8192055861102503
1708433386.3486855,-2.074549436569214,-1.3373267364552994,-2.531165901814596,6.015006410866537,1.0152502059936523,-1.8194640318499964
1708433386.3506844,-2.0733988285064697,-1.3374594461968918,-2.531079117451803,6.013319599419393,1.0149812698364258,-1.819732968007223
1708433386.3527293,-2.07228684425354,-1.3374813509038468,-2.5310729185687464,6.011545884400167,1.0146393775939941,-1.8200190703021448
1708433386.3547,-2.0711405277252197,-1.3376480054906388,-2.531046215687887,6.009798276215353,1.0143797397613525,-1.8202579657184046
1708433386.3567052,-2.0699472427368164,-1.3376660507968445,-2.5309608618365687,6.008076178818502,1.0141246318817139,-1.8205097357379358
1708433386.3586922,-2.0688395500183105,-1.337684692149498,-2.5309410730945032,6.006331193238058,1.0137940645217896,-1.820803467427389
1708433386.3607168,-2.067610263824463,-1.3378139597228547,-2.5309022108661097,6.004611718445577,1.0135022401809692,-1.821120564137594
1708433386.362718,-2.06648588180542,-1.3378773790648957,-2.530821148549215,6.002912509232321,1.0131930112838745,-1.8213475386248987
1708433386.3646867,-2.06534481048584,-1.3379500371268769,-2.5307610670672815,6.001194703369894,1.012900948524475,-1.8216808477984827
1708433386.3666837,-2.064232349395752,-1.3380872172168274,-2.5307417551623743,5.99946295002059,1.012616753578186,-1.8220446745501917
1708433386.368713,-2.0630619525909424,-1.338083640938141,-2.530656401311056,5.997701394348898,1.0122871398925781,-1.8223064581500452
1708433386.3707283,-2.061880111694336,-1.3382578057101746,-2.530577007924215,5.9959425804908655,1.0120155811309814,-1.822674576436178
1708433386.3727448,-2.0607593059539795,-1.3382804256728669,-2.5305331389056605,5.994126784592428,1.0116581916809082,-1.8229277769671839
1708433386.3747482,-2.059558629989624,-1.3384163838675995,-2.530468765889303,5.992357480316915,1.0113862752914429,-1.8232973257647913
1708433386.3766892,-2.0584158897399902,-1.338479445581772,-2.5303621927844446,5.990539300232687,1.0110377073287964,-1.8236311117755335
1708433386.3787212,-2.0572614669799805,-1.338570700292923,-2.5303083101855677,5.988785612374105,1.0107611417770386,-1.823984448109762
1708433386.3807447,-2.056077718734741,-1.3386662167361756,-2.530252758656637,5.986950862198629,1.0104485750198364,-1.82432729402651
1708433386.3827415,-2.0549514293670654,-1.3387902540019532,-2.5301597754107874,5.985164987831869,1.010119080543518,-1.8246639410602015
1708433386.3846936,-2.053821563720703,-1.338872806434967,-2.530104462300436,5.983341920166769,1.0097711086273193,-1.825104061757223
1708433386.386681,-2.052626371383667,-1.3390600246242066,-2.530003849660055,5.981587993889608,1.0094835758209229,-1.8254559675799769
1708433386.3886962,-2.0514724254608154,-1.3391011518291016,-2.529940907155172,5.979782449990072,1.009084939956665,-1.8258121649371546
1708433386.3906927,-2.050273895263672,-1.3392491203597565,-2.5298686663257044,5.977943646698751,1.0087285041809082,-1.8261802832232874
1708433386.3926811,-2.049118995666504,-1.339324103002884,-2.529771391545431,5.97621105888442,1.0084199905395508,-1.8266194502459925
1708433386.3947122,-2.0479795932769775,-1.339455710058548,-2.529680077229635,5.9744276879127405,1.0080955028533936,-1.8269904295550745
1708433386.3966937,-2.0468170642852783,-1.3395849925330658,-2.5296245257007044,5.972736346512594,1.0077098608016968,-1.8273780981646937
1708433386.3986835,-2.0456900596618652,-1.3397194904140015,-2.5294910112964075,5.970939743309774,1.0074278116226196,-1.8278268019305628
1708433386.400705,-2.044544219970703,-1.339846746330597,-2.5294323603259485,5.969222771912374,1.0070244073867798,-1.8282139937030237
1708433386.402694,-2.043386697769165,-1.3399589520743866,-2.5293200651751917,5.967471468239584,1.0067050457000732,-1.8286188284503382
1708433386.4047368,-2.0421805381774902,-1.3400850755027314,-2.529252354298727,5.965703594475546,1.0062988996505737,-1.8290675322162073
1708433386.4067035,-2.0410890579223633,-1.3402904731086274,-2.529173199330465,5.963897454529562,1.005979299545288,-1.8295295874225062
1708433386.4087486,-2.039909839630127,-1.3404142719558259,-2.5290609041797083,5.96218632438735,1.0056591033935547,-1.8299787680255335
1708433386.4107697,-2.0387253761291504,-1.3404674094966431,-2.5289586226092737,5.960447299271383,1.0052820444107056,-1.8303692976581019
1708433386.412727,-2.0375874042510986,-1.3407014173320313,-2.5289257208453577,5.958648550301351,1.004867672920227,-1.8308537642108362
1708433386.4147146,-2.0364487171173096,-1.3408655685237427,-2.5288248697863978,5.956882822304525,1.0045115947723389,-1.831327263508932
1708433386.416714,-2.035290479660034,-1.340930626993515,-2.528717343007223,5.955188977509298,1.0041800737380981,-1.8317511717425745
1708433386.4187422,-2.0341477394104004,-1.341142700319626,-2.5286331812488,5.953397500305929,1.0037950277328491,-1.8322184721576136
1708433386.420742,-2.0329973697662354,-1.3413155537894745,-2.5285072962390345,5.951744186669149,1.0034271478652954,-1.83268911043276
1708433386.4227364,-2.0318589210510254,-1.341457949285843,-2.528445545827047,5.949942457466879,1.0030745267868042,-1.8331201712237757
1708433386.4247084,-2.0307161808013916,-1.3416491609862824,-2.5283170382129114,5.94826506355361,1.0027110576629639,-1.8336175123797815
1708433386.4267151,-2.029585123062134,-1.3418134164861222,-2.5282450358020228,5.946515548020162,1.0023475885391235,-1.8340209166156214
1708433386.4287074,-2.028459072113037,-1.341958836918213,-2.5281322638141077,5.944863545685568,1.001941442489624,-1.834548298512594
1708433386.4307423,-2.0273354053497314,-1.3421147030643006,-2.528040949498312,5.943178522377767,1.0016227960586548,-1.8349559942828577
1708433386.432694,-2.0262651443481445,-1.3423407238772889,-2.527933184300558,5.941500174790182,1.0012058019638062,-1.8354910055743616
1708433386.43471,-2.0251636505126953,-1.3424906891635437,-2.527872864400045,5.939739692002096,1.0008487701416016,-1.8359478155719202
1708433386.4367564,-2.0240402221679688,-1.3426657778075715,-2.527748409901754,5.938119160919943,1.000488519668579,-1.8364442030536097
1708433386.4387505,-2.0229287147521973,-1.3428983253291626,-2.52767783800234,5.936478602677145,1.0001119375228882,-1.8369372526751917
1708433386.440723,-2.0218186378479004,-1.3430231374553223,-2.5275445620166224,5.934812891274252,0.9998051524162292,-1.83746844926943
1708433386.4426937,-2.020693778991699,-1.3432873350432892,-2.527473751698629,5.933172213822164,0.9994164109230042,-1.8378985563861292
1708433386.4446936,-2.019585609436035,-1.3434832257083436,-2.5273690859424036,5.931476342469015,0.9990442395210266,-1.838433090840475
1708433386.446714,-2.0185303688049316,-1.3437104386142273,-2.527268711720602,5.929843294411459,0.9986839890480042,-1.8389623800860804
1708433386.448715,-2.0174200534820557,-1.3438571852496644,-2.527184788380758,5.928204881935873,0.9982744455337524,-1.8393967787372034
1708433386.4506984,-2.016324996948242,-1.344094232921936,-2.52706748643984,5.926562416344442,0.9978784918785095,-1.8399437109576624
1708433386.452705,-2.0153005123138428,-1.3442921203425904,-2.5269597212420862,5.924992787628927,0.997571587562561,-1.8404563109027308
1708433386.45479,-2.014237880706787,-1.3445245784572144,-2.5268848578082483,5.923422443657675,0.9972037076950073,-1.8409813086139124
1708433386.456709,-2.0131335258483887,-1.3446537417224427,-2.5268219153033655,5.921809184342184,0.9968470931053162,-1.841515843068258
1708433386.4587512,-2.012141466140747,-1.3449058842710038,-2.5266926924334925,5.920363414078512,0.9964946508407593,-1.8419435659991663
1708433386.4607325,-2.0110831260681152,-1.345162646179535,-2.5266132990466517,5.918785559922018,0.9961221814155579,-1.8424232641803187
1708433386.462689,-2.010009288787842,-1.3453442615321656,-2.5265219847308558,5.917217600136556,0.995778501033783,-1.843048397694723
1708433386.4647353,-2.0089573860168457,-1.3456003379872818,-2.526421372090475,5.915714967041769,0.9954226613044739,-1.8434951941119593
1708433386.4667084,-2.007913589477539,-1.3457747560790558,-2.526325289403097,5.914249169617452,0.9951026439666748,-1.8439973036395472
1708433386.4687123,-2.006890296936035,-1.346050427561142,-2.5262413660632532,5.912742244988241,0.9947170615196228,-1.844510857258932
1708433386.470732,-2.005910634994507,-1.3462419670871277,-2.5261738936053675,5.911285030632772,0.9943943619728088,-1.8450310865985315
1708433386.472707,-2.0048656463623047,-1.3464438182166596,-2.5260897318469446,5.909860002785482,0.9939807057380676,-1.8455031553851526
1708433386.474696,-2.0038669109344482,-1.3467323941043396,-2.52600604692568,5.908414828568258,0.9937260150909424,-1.845978085194723
1708433386.476705,-2.0028488636016846,-1.346914829020836,-2.5258846918689173,5.907001960068502,0.9933692812919617,-1.8465355078326624
1708433386.4787366,-2.001887083053589,-1.3471497160247345,-2.5258291403399866,5.905614721566,0.9929848909378052,-1.8470442930804651
1708433386.4807394,-2.0009119510650635,-1.3474837702563782,-2.525766197835104,5.904179203301229,0.9926696419715881,-1.8475740591632288
1708433386.4827082,-1.9999533891677856,-1.3476964247277756,-2.525689665471212,5.902832138329305,0.9923411011695862,-1.8480165640460413
1708433386.4847,-1.9989070892333984,-1.3479353201440354,-2.5256338755237024,5.901431190758505,0.9920092225074768,-1.8485921064959925
1708433386.486706,-1.9979230165481567,-1.348191038971283,-2.5255382696734827,5.899998295098104,0.991644561290741,-1.8490384260760706
1708433386.48873,-1.996976613998413,-1.3484463405660172,-2.525461737309591,5.898695814400472,0.9912998080253601,-1.8494985739337366
1708433386.4907076,-1.9960238933563232,-1.3487094056657334,-2.5254343191729944,5.897305595665731,0.9909470677375793,-1.850086514149801
1708433386.4926984,-1.9950355291366577,-1.348976956014969,-2.5253639856921595,5.89595257022933,0.9906108975410461,-1.8505080381976526
1708433386.4947503,-1.9940433502197266,-1.3492475163987656,-2.525311533604757,5.894596206932821,0.9903324842453003,-1.8510955015765589
1708433386.4967072,-1.993078589439392,-1.3495508891395112,-2.5252018610583704,5.8932673809821985,0.9900115132331848,-1.8515871206866663
1708433386.498687,-1.9921197891235352,-1.3498095285943528,-2.5251663366900843,5.891926276474752,0.9897081851959229,-1.8521001974688929
1708433386.5006979,-1.99111807346344,-1.3501618814519425,-2.5251269976245325,5.89064501503066,0.9893798232078552,-1.852617088948385
1708433386.5027056,-1.9902069568634033,-1.350440264945366,-2.52507454553713,5.889387833863058,0.9890350699424744,-1.85315448442568
1708433386.50481,-1.9892463684082031,-1.3506900531104584,-2.524998490010397,5.8882484314735315,0.9887871742248535,-1.8537090460406702
1708433386.506698,-1.9883273839950562,-1.3510009509376069,-2.524975601826803,5.886967527657308,0.9884834289550781,-1.8542168776141565
1708433386.508729,-1.9874157905578613,-1.3513118487647553,-2.5249443689929407,5.885696995049276,0.988175630569458,-1.854832951222555
1708433386.510707,-1.986472249031067,-1.3516671818545838,-2.5248902479754847,5.884457695275106,0.987862229347229,-1.8552945295916956
1708433386.5127425,-1.9854984283447266,-1.3519943368485947,-2.5248587767230433,5.883224952011862,0.9875590801239014,-1.8558638731585901
1708433386.5147178,-1.9845669269561768,-1.3523531568101426,-2.524756971989767,5.881979214936056,0.9872618317604065,-1.856438938771383
1708433386.516694,-1.9836870431900024,-1.3526565593532105,-2.5248077551471155,5.880707251816549,0.986962080001831,-1.8569133917437952
1708433386.5187416,-1.9827954769134521,-1.353019730453827,-2.5247462431537073,5.879627454071798,0.9866453409194946,-1.857511345540182
1708433386.5207222,-1.9818379878997803,-1.353309692149498,-2.524665419255392,5.8784087775047205,0.9863971471786499,-1.8580434958087366
1708433386.5227368,-1.9809702634811401,-1.3537055563977738,-2.5247252623187464,5.877285110741415,0.9861669540405273,-1.8586209456073206
1708433386.5246923,-1.9800866842269897,-1.3540643763593216,-2.5246339480029505,5.876141536026754,0.9858364462852478,-1.8591707388507288
1708433386.5267086,-1.9792261123657227,-1.3544318687966843,-2.524635140095846,5.875057804375448,0.9856266975402832,-1.8597148100482386
1708433386.5287223,-1.9783673286437988,-1.3548023712686081,-2.5246411005603235,5.87399040439681,0.9853211045265198,-1.86027700105776
1708433386.5307577,-1.977352261543274,-1.3550859701684494,-2.524561945592062,5.872854101448812,0.9850940704345703,-1.8608081976519983
1708433386.5326984,-1.976484775543213,-1.3554863941720505,-2.5245798269854944,5.87168430069045,0.9848134517669678,-1.861469570790426
1708433386.5347219,-1.9756383895874023,-1.3558940601399918,-2.5245917479144495,5.870639431267538,0.9845610857009888,-1.8620322386371058
1708433386.5367262,-1.9747111797332764,-1.3562232118896027,-2.524585787449972,5.869533645897665,0.9842840433120728,-1.862546745930807
1708433386.5387137,-1.973894715309143,-1.3565936249545594,-2.524531666432516,5.868528353958883,0.9840731024742126,-1.863138500844137
1708433386.540736,-1.97300386428833,-1.3570623409799119,-2.524536196385519,5.867454993515768,0.983809232711792,-1.8637192885028284
1708433386.5427198,-1.9720969200134277,-1.357423947458603,-2.5245559851275843,5.8663827059562585,0.9836257696151733,-1.864286247883932
1708433386.544778,-1.9712326526641846,-1.3577816796353837,-2.5245707670794886,5.86528097370223,0.9833801984786987,-1.8648393789874476
1708433386.5467503,-1.9703706502914429,-1.3582014602473755,-2.5246081987964075,5.864239084511556,0.983160674571991,-1.865469757710592
1708433386.548724,-1.9695669412612915,-1.3586685818484803,-2.5246530214892786,5.863210069924154,0.9829487204551697,-1.8660090605365198
1708433386.5506928,-1.9687151908874512,-1.3590025764754792,-2.5245991388904017,5.862215029984274,0.9827012419700623,-1.8666070143329065
1708433386.552708,-1.9677928686141968,-1.3594447833350678,-2.524623219166891,5.861256944924154,0.9824645519256592,-1.8671844641314905
1708433386.5547328,-1.9669781923294067,-1.3598277133754273,-2.524717632924215,5.860271560936727,0.9822365045547485,-1.8678024450885218
1708433386.5567372,-1.966139793395996,-1.3602342021516343,-2.5247419516192835,5.859324323921957,0.982003927230835,-1.8683837095843714
1708433386.5586958,-1.9652482271194458,-1.3606406611255188,-2.52474028268923,5.858422982483663,0.9817919731140137,-1.8689892927752894
1708433386.5607243,-1.964422583580017,-1.3611200165799637,-2.5248048941241663,5.857523190766134,0.981584370136261,-1.86955434480776
1708433386.562708,-1.963558316230774,-1.361506388788559,-2.5248568693744105,5.856552588730612,0.9813718795776367,-1.8701394240008753
1708433386.5646915,-1.9626848697662354,-1.3619780403426667,-2.524893347417013,5.855667578964987,0.9811394214630127,-1.8708065191852015
1708433386.5667167,-1.9618090391159058,-1.362388165002205,-2.5249322096454065,5.854733574181356,0.9809591174125671,-1.8713448683368128
1708433386.5686963,-1.9609653949737549,-1.3628508162549515,-2.5249443689929407,5.853822099953451,0.9808072447776794,-1.8720529715167444
1708433386.5707126,-1.9601458311080933,-1.3632148218205948,-2.525004212056295,5.852846729546346,0.9805955290794373,-1.8725736776935022
1708433386.5727274,-1.9592409133911133,-1.3636835527471085,-2.5250447432147425,5.852030622750082,0.980396032333374,-1.8731678167926233
1708433386.5747077,-1.958449363708496,-1.3641864371350785,-2.525076214467184,5.8512189266975305,0.9802563190460205,-1.8738144079791468
1708433386.5767179,-1.9575897455215454,-1.3646042507937928,-2.5251527468310755,5.850317704468527,0.980055034160614,-1.8744481245623987
1708433386.5786996,-1.956735372543335,-1.364997224216797,-2.52518874803652,5.849534380226888,0.9799197316169739,-1.8750422636615198
1708433386.580742,-1.9559661149978638,-1.3654776078513642,-2.5252366701709192,5.848711597710409,0.9797275066375732,-1.8755772749530237
1708433386.5826986,-1.9551386833190918,-1.365959794526436,-2.525299612675802,5.847913253098287,0.979576051235199,-1.8762486616717737
1708433386.5847023,-1.9542807340621948,-1.3663827937892457,-2.5253611246692103,5.847172963410177,0.9794319272041321,-1.876845661793844
1708433386.586746,-1.9534614086151123,-1.3668316167644043,-2.5254090468036097,5.846320974617758,0.979247510433197,-1.8774507681476038
1708433386.5887253,-1.9526227712631226,-1.367290200000145,-2.525461260472433,5.84559856632308,0.9790584444999695,-1.8780444304095667
1708433386.5906916,-1.9518144130706787,-1.3677536708167572,-2.5254796187030237,5.84482620933608,0.9789636135101318,-1.8786495367633265
1708433386.592724,-1.950994610786438,-1.368215413098671,-2.5255935827838343,5.844129788666525,0.9788314700126648,-1.8792441526996058
1708433386.594691,-1.950239896774292,-1.3687187147191544,-2.5256744066821497,5.843335735588827,0.9786713123321533,-1.8798101584063929
1708433386.5967295,-1.9493587017059326,-1.369151161318161,-2.5257299582110804,5.842609393387594,0.9785641431808472,-1.8804033438311976
1708433386.5986977,-1.9485265016555786,-1.3696188044599076,-2.525776449834005,5.841872918396749,0.9783917665481567,-1.8810160795794886
1708433386.6007156,-1.947770595550537,-1.3700604301742096,-2.525885883961813,5.841216432839193,0.9782344102859497,-1.8816264311419886
1708433386.6027026,-1.9469679594039917,-1.3705590677312394,-2.5259655157672327,5.840362059860983,0.9781098961830139,-1.8822224775897425
1708433386.604783,-1.9461222887039185,-1.3710579437068482,-2.5260329882251185,5.839663016587057,0.9780030250549316,-1.8828285376178187
1708433386.6067014,-1.94532310962677,-1.371495009665825,-2.5261288324939173,5.838968145638265,0.9779115915298462,-1.883416000996725
1708433386.6087208,-1.944560170173645,-1.372028113608696,-2.526196304951803,5.838222610741415,0.9778198599815369,-1.8840339819537562
1708433386.6107078,-1.9437600374221802,-1.3724854451468964,-2.526292387639181,5.837538349419393,0.9776953458786011,-1.8846023718463343
1708433386.6127088,-1.9430004358291626,-1.3729747396758576,-2.526393000279562,5.836905705719747,0.9775663614273071,-1.8852694670306605
1708433386.6147099,-1.9422203302383423,-1.3734808427146454,-2.5265007654773157,5.836254107743063,0.9775038957595825,-1.8859041372882288
1708433386.6167188,-1.9414161443710327,-1.3739958864501496,-2.5266178289996546,5.835556614189901,0.9773916006088257,-1.8865130583392542
1708433386.6187334,-1.9406198263168335,-1.374462680225708,-2.5267420450793665,5.834894287377157,0.9772346019744873,-1.8870552221881312
1708433386.6207638,-1.9398210048675537,-1.3750021171620865,-2.5268502871142786,5.834241497307577,0.9771713018417358,-1.8876927534686487
1708433386.6227043,-1.9389744997024536,-1.375557155614235,-2.5269129912005823,5.833624470024862,0.9770305156707764,-1.888331715260641
1708433386.6246886,-1.9382330179214478,-1.3760931801847,-2.5270662943469446,5.832911956101217,0.9769759178161621,-1.8889849821673792
1708433386.6267307,-1.9374500513076782,-1.3766038131764908,-2.5271740595446985,5.832282531052389,0.9769035577774048,-1.8896434942828577
1708433386.6287153,-1.9366534948349,-1.3770738256028672,-2.5272818247424524,5.83170376995162,0.9768067598342896,-1.8902924696551722
1708433386.6307993,-1.9358993768692017,-1.3776323211244126,-2.5273030439959925,5.831099021225729,0.9767106771469116,-1.8908851782428187
1708433386.6327002,-1.9351062774658203,-1.378139690761902,-2.5275097529040735,5.8305221674735925,0.9766671061515808,-1.891505543385641
1708433386.6347044,-1.934301733970642,-1.378642888074257,-2.5276299158679407,5.82987796047286,0.9766033887863159,-1.8921893278705042
1708433386.6367447,-1.9335542917251587,-1.3791735631278534,-2.527750078831808,5.829256403237142,0.9765108823776245,-1.8928373495685022
1708433386.6387367,-1.9327796697616577,-1.3797743034413834,-2.5279105345355433,5.828675138741293,0.9764955043792725,-1.89349872270693
1708433386.640735,-1.9320248365402222,-1.3802525264075776,-2.5280049482928675,5.828060734062948,0.9764313697814941,-1.8941481749164026
1708433386.642694,-1.9312726259231567,-1.380800114279129,-2.5281458536731165,5.827531683235922,0.9763590097427368,-1.894752327595846
1708433386.6446934,-1.9305148124694824,-1.3813831222108384,-2.528289858494894,5.826950061112203,0.9763317108154297,-1.8954017798053187
1708433386.6466968,-1.9297215938568115,-1.3819471162608643,-2.5284577051745813,5.826423036843099,0.976202130317688,-1.896087948475973
1708433386.6487095,-1.928944706916809,-1.3823915433934708,-2.5286107699023646,5.825952040940084,0.9761340618133545,-1.8967211882220667
1708433386.6506786,-1.9281294345855713,-1.3829752814820786,-2.528745714818136,5.825394618302145,0.9761027693748474,-1.8973577658282679
1708433386.6527147,-1.9273629188537598,-1.383539379840233,-2.5289226214038294,5.8247731802757166,0.9760545492172241,-1.898036305104391
1708433386.6547616,-1.9265669584274292,-1.384094701414444,-2.529057566319601,5.824227559357443,0.9759944081306458,-1.898639980946676
1708433386.6567144,-1.9257915019989014,-1.3846000593951722,-2.5292254129992884,5.82375060298995,0.97596275806427,-1.8993271032916468
1708433386.6587183,-1.9250164031982422,-1.385221929555275,-2.529364887868063,5.823212849884786,0.975935697555542,-1.8999598662005823
1708433386.660707,-1.9242199659347534,-1.3857718271068116,-2.5295825640307825,5.82271562793807,0.9759113788604736,-1.9006298224078577
1708433386.662698,-1.9234421253204346,-1.3862707924893876,-2.52979547182192,5.822206723480978,0.9758436679840088,-1.9012206236468714
1708433386.6647213,-1.9226276874542236,-1.3868249219707032,-2.529942576085226,5.821738588600912,0.9757587909698486,-1.9018695990191858
1708433386.666704,-1.9218697547912598,-1.3874056053212662,-2.530098263417379,5.821148383408346,0.9757345914840698,-1.9025309721576136
1708433386.668726,-1.9210617542266846,-1.387939141397812,-2.530248467122213,5.820649730950155,0.9756585359573364,-1.9031694571124476
1708433386.6707406,-1.9202505350112915,-1.3884768050960083,-2.5304749647723597,5.820165264397421,0.9756091833114624,-1.9038999716388147
1708433386.6726995,-1.9194742441177368,-1.389139564042427,-2.530618731175558,5.819628822594442,0.9756395816802979,-1.9045127073871058
1708433386.6747077,-1.9186627864837646,-1.3896519255689164,-2.530797068272726,5.8191729662712,0.97561115026474,-1.9052279631244105
1708433386.676699,-1.9178800582885742,-1.3901624989560624,-2.530978504811422,5.818688022881307,0.9755894541740417,-1.9058063665973108
1708433386.6787026,-1.917113184928894,-1.3907831323197861,-2.531137530003683,5.818193542748251,0.9755503535270691,-1.9064601103412073
1708433386.6807573,-1.9162408113479614,-1.3913506877473374,-2.5313339869128626,5.8176824925239465,0.9755960702896118,-1.9070857206927698
1708433386.6827002,-1.9154942035675049,-1.3918882322362442,-2.5314975420581263,5.81721721866683,0.9755557775497437,-1.907731835042135
1708433386.6847227,-1.9147340059280396,-1.3925082397511979,-2.531686607991354,5.816806423455038,0.9755632877349854,-1.9083884398089808
1708433386.6866996,-1.9139223098754883,-1.3930220764926453,-2.5318709055529993,5.816388952523031,0.9755513668060303,-1.9089520613299769
1708433386.6887124,-1.9131845235824585,-1.3936212968877335,-2.532079521809713,5.815934407501974,0.9755754470825195,-1.9096182028399866
1708433386.6906955,-1.9123756885528564,-1.3941232574037095,-2.532229248677389,5.815455901413717,0.9755885004997253,-1.9101617972003382
1708433386.6927016,-1.9116318225860596,-1.3947355908206482,-2.5324137846576136,5.815040933876791,0.975596010684967,-1.9108794371234339
1708433386.6947098,-1.9108682870864868,-1.395258442764618,-2.5326293150531214,5.8145333407218835,0.9755633473396301,-1.911471192036764
1708433386.696683,-1.910072684288025,-1.3958730411580582,-2.532814089451925,5.814045297890463,0.9756165742874146,-1.9119799772845667
1708433386.69871,-1.9093135595321655,-1.396451161508896,-2.532952133809225,5.813708293228903,0.9756277799606323,-1.9126642386065882
1708433386.7006848,-1.9085018634796143,-1.3970221144011994,-2.5331857840167444,5.813244807511129,0.9756112098693848,-1.9132207075702112
1708433386.7026794,-1.907740831375122,-1.3975364726832886,-2.5334139505969446,5.812765228539266,0.9756395816802979,-1.9138701597796839
1708433386.7047725,-1.9069733619689941,-1.3980832409909745,-2.5335894266711634,5.812354194908895,0.9756515622138977,-1.9145086447345179
1708433386.7067015,-1.9062395095825195,-1.398699240093567,-2.5337660948382776,5.811895596771993,0.9756760001182556,-1.915077034627096
1708433386.7087598,-1.9054226875305176,-1.3992416274598618,-2.5339911619769495,5.811490642815389,0.975663423538208,-1.915694538746969
1708433386.7107215,-1.90471351146698,-1.3998698604157944,-2.5341652075396937,5.811043011933126,0.9756877422332764,-1.9162910620318812
1708433386.7127106,-1.903892993927002,-1.4004019063762208,-2.5343857447253626,5.810628402024069,0.9757205247879028,-1.916863266621725
1708433386.7147124,-1.9031333923339844,-1.4010182333043595,-2.5345895926104944,5.810129749565878,0.9757281541824341,-1.9175084272967737
1708433386.716721,-1.9022815227508545,-1.4016491335681458,-2.5348220507251185,5.809681284218588,0.9757717251777649,-1.918159310017721
1708433386.718771,-1.9015228748321533,-1.4021906566670914,-2.5350380579577845,5.809299695282736,0.975787878036499,-1.9187324682818812
1708433386.720709,-1.9007230997085571,-1.402758152489998,-2.5351670424090784,5.8087730286415,0.9758080840110779,-1.9193204084979456
1708433386.722686,-1.8999018669128418,-1.4032973063043137,-2.535389010106222,5.808442103653707,0.9757792949676514,-1.9199755827533167
1708433386.7246943,-1.8991143703460693,-1.4039005649140854,-2.535633389149801,5.807966577797689,0.9758360385894775,-1.9205387274371546
1708433386.7266903,-1.8982980251312256,-1.4044506412795563,-2.535832945500509,5.807535874634542,0.9758472442626953,-1.9211562315570276
1708433386.7286937,-1.8974549770355225,-1.4050864589265366,-2.536077324544088,5.807034718781271,0.9759038686752319,-1.921786133443014
1708433386.730717,-1.8966482877731323,-1.4057010275176545,-2.5362559000598353,5.806665050774374,0.9759123921394348,-1.922424618397848
1708433386.7326863,-1.8957765102386475,-1.406325028543808,-2.536447588597433,5.806205737381735,0.9759401082992554,-1.9229963461505335
1708433386.7346916,-1.8949190378189087,-1.4068996918252488,-2.5366817156421106,5.80581949928359,0.9759508371353149,-1.9236624876605433
1708433386.7367423,-1.8940800428390503,-1.4075106245330353,-2.5368674437152308,5.805369722634115,0.975975751876831,-1.92424184480776
1708433386.738718,-1.8932411670684814,-1.4081016790917893,-2.537175003682272,5.804997908860006,0.9759912490844727,-1.9248135725604456
1708433386.7407417,-1.8924263715744019,-1.408686564569809,-2.537332598363058,5.804517614632406,0.9760117530822754,-1.9255154768573206
1708433386.7427313,-1.8915472030639648,-1.4092746090940018,-2.537602249776022,5.804095732956686,0.9760598540306091,-1.926051441823141
1708433386.744743,-1.8906925916671753,-1.4099879425815125,-2.537776295338766,5.803704964905538,0.9760675430297852,-1.9266513029681605
1708433386.7467437,-1.8898087739944458,-1.4105131936124344,-2.5380073229419153,5.80322419384078,0.976120114326477,-1.9273021856891077
1708433386.7487578,-1.8889662027359009,-1.411131502395012,-2.5383010546313685,5.802820193558492,0.9761276245117188,-1.927866284047262
1708433386.7507234,-1.888021469116211,-1.4117629838040848,-2.5385094324695032,5.8023027060325525,0.9761919975280762,-1.9284475485431116
1708433386.7527134,-1.8871564865112305,-1.4124025416425248,-2.5387404600726526,5.801851737290182,0.9763020277023315,-1.9290474096881312
1708433386.7547407,-1.8862323760986328,-1.412987933760025,-2.5389516989337366,5.8014715788658044,0.9763134121894836,-1.9296672979937952
1708433386.7567022,-1.8853524923324585,-1.4136402618936081,-2.5391886870013636,5.801015364914694,0.9763403534889221,-1.9302762190448206
1708433386.7587814,-1.8844573497772217,-1.4141936910203476,-2.539461914693014,5.800583350449362,0.9764289855957031,-1.9308441321002405
1708433386.7607255,-1.8835135698318481,-1.4148943436196824,-2.5396881739245813,5.8000239012535,0.9764810800552368,-1.9314540068255823
1708433386.7627265,-1.8825653791427612,-1.415537567143776,-2.5399654547320765,5.79957543590621,0.976545512676239,-1.9320557753192347
1708433386.7647142,-1.8816554546356201,-1.416232408290245,-2.54016358057131,5.7990233776863,0.9765851497650146,-1.9326031843768519
1708433386.7667153,-1.8806915283203125,-1.4168835592320939,-2.5404937903033655,5.798585164337911,0.9766318798065186,-1.9332793394671839
1708433386.7687356,-1.8797518014907837,-1.4175667029670258,-2.5407500902758997,5.798181164055624,0.9766757488250732,-1.933840576802389
1708433386.770735,-1.8788033723831177,-1.4182250213674088,-2.541006151829855,5.797677504807272,0.9766954779624939,-1.9344447294818323
1708433386.772761,-1.877807855606079,-1.4188543570092698,-2.5412161985980433,5.797239768296041,0.9767966866493225,-1.9350460211383265
1708433386.7747407,-1.8768759965896606,-1.4195174437812348,-2.5415058771716517,5.79672251918868,0.9768359661102295,-1.935693089162008
1708433386.776686,-1.8759340047836304,-1.420278177862503,-2.5417500177966517,5.796306597977438,0.976912260055542,-1.9362686316119593
1708433386.7787406,-1.8748729228973389,-1.420923338537552,-2.5420003573047083,5.79581772068099,0.977021336555481,-1.9368789831744593
1708433386.780792,-1.8738927841186523,-1.4216924023679276,-2.542280975972311,5.795250165253439,0.977145791053772,-1.9374640623675745
1708433386.7827156,-1.8729112148284912,-1.4223294270089646,-2.5425613562213343,5.794744717865743,0.9772375822067261,-1.9380815664874476
1708433386.7846842,-1.87189781665802,-1.4230387520841141,-2.5427969137774866,5.794271695404806,0.9773708581924438,-1.9386428038226526
1708433386.7867153,-1.8708361387252808,-1.4237354707768937,-2.543035332356588,5.793710219651022,0.9774341583251953,-1.9392321745501917
1708433386.78873,-1.8698010444641113,-1.424507812862732,-2.5434117952929896,5.793179142266073,0.9775137305259705,-1.939836327229635
1708433386.7906754,-1.8687654733657837,-1.425124080186226,-2.5435717741595667,5.792726981430807,0.9775892496109009,-1.940401856099264
1708433386.7927964,-1.8677012920379639,-1.4258464735797425,-2.5438645521747034,5.792196023255148,0.977685272693634,-1.9409669081317347
1708433386.7947283,-1.866658091545105,-1.4265952122262497,-2.544161383305685,5.791586982994833,0.9778106212615967,-1.941617790852682
1708433386.7967284,-1.8655245304107666,-1.4273497623256226,-2.5444119612323206,5.790958153992452,0.9778577089309692,-1.942153278981344
1708433386.7987087,-1.86440908908844,-1.428136707549431,-2.5447540918933313,5.790438282280721,0.9779495000839233,-1.9427555243121546
1708433386.8006892,-1.8632906675338745,-1.4288676244071503,-2.54502517381777,5.78977261760787,0.9780740737915039,-1.943329159413473
1708433386.8027613,-1.862191081047058,-1.4296260637095948,-2.5453293959247034,5.789230453758993,0.9782102108001709,-1.9439061323748987
1708433386.8047934,-1.8610190153121948,-1.4303393971971055,-2.5455873648272913,5.788722264557638,0.9782984256744385,-1.9445455710040491
1708433386.8067508,-1.8598822355270386,-1.4311482918313523,-2.545875612889425,5.788117992668905,0.978378176689148,-1.9451220671283167
1708433386.8087795,-1.8587560653686523,-1.4318285298398514,-2.5462339560138147,5.7875757096107385,0.9784536361694336,-1.9457109610186976
1708433386.8107405,-1.8575942516326904,-1.4326235812953492,-2.5464471022235315,5.7869900343711755,0.9785126447677612,-1.9462536017047327
1708433386.812723,-1.8565120697021484,-1.433334470992424,-2.546817127858297,5.786358582764425,0.978642463684082,-1.9468453566180628
1708433386.8147066,-1.855368733406067,-1.434138150220253,-2.547079626713888,5.78582130649642,0.9787309765815735,-1.9474151770221155
1708433386.8167033,-1.8541672229766846,-1.4348812413266678,-2.547391716633932,5.78521357753829,0.9788314700126648,-1.9480708281146448
