Eg3-git/Classifiers/Data Collection/u1/u1star3_ur3e_joint_states.csv
time,elbow_joint,shoulder_lift_joint,shoulder_pan_joint,wrist_1_joint,wrist_2_joint,wrist_3_joint
1708433411.534897,-2.142857074737549,-1.3340538156083603,-2.5272441546069544,6.1135408757026575,1.018247127532959,-2.0887025038348597
1708433411.5369332,-2.1428232192993164,-1.3340495389750977,-2.5272114912616175,6.113479363709249,1.0182186365127563,-2.0887444655047815
1708433411.5389452,-2.1427950859069824,-1.3340094101480027,-2.52717096010317,6.1135151264961145,1.0182557106018066,-2.088684860860006
1708433411.540893,-2.142815113067627,-1.3340495389750977,-2.5272071997271937,6.1135408757026575,1.0182795524597168,-2.088759247456686
1708433411.5429354,-2.1428399085998535,-1.334033579831459,-2.5271621386157435,6.1135363457496545,1.0182719230651855,-2.088693443928854
1708433411.5448985,-2.1427879333496094,-1.3340701025775452,-2.5272484461413782,6.113503324776449,1.018227219581604,-2.0887768904315394
1708433411.5469067,-2.14277982711792,-1.3340300631574173,-2.5271952787982386,6.113528597145834,1.0182600021362305,-2.0886781851397913
1708433411.54889,-2.142836093902588,-1.3340658259442826,-2.5271952787982386,6.113519656449117,1.0182524919509888,-2.0887067953692835
1708433411.5509045,-2.142819404602051,-1.3340378564647217,-2.5271952787982386,6.113503205567159,1.018198847770691,-2.088693443928854
1708433411.5529342,-2.1427907943725586,-1.3340495389750977,-2.5272322336779993,6.113531815796652,1.018227219581604,-2.088672463093893
1708433411.5549383,-2.1428020000457764,-1.3340495389750977,-2.52720290819277,6.113555657654562,1.0182600021362305,-2.0887606779681605
1708433411.556964,-2.1427669525146484,-1.334016965036728,-2.5271547476397913,6.113486873894491,1.0182197093963623,-2.088722054158346
1708433411.5589576,-2.142796516418457,-1.3340538156083603,-2.5271578470813196,6.113545286446371,1.0182229280471802,-2.0887048880206507
1708433411.560959,-2.1427836418151855,-1.3340378564647217,-2.5271788279162806,6.113533127098837,1.0182403326034546,-2.0887396971331995
1708433411.5629344,-2.1427836418151855,-1.334033579831459,-2.5272322336779993,6.1134986756141565,1.0182197093963623,-2.088660542164938
1708433411.5649395,-2.142831802368164,-1.3340495389750977,-2.5272484461413782,6.113543736725607,1.0182284116744995,-2.0886648336993616
1708433411.566911,-2.142807960510254,-1.334065855746605,-2.5272041002856653,6.1135151264961145,1.0181869268417358,-2.0887139479266565
1708433411.5689049,-2.142831802368164,-1.3340495389750977,-2.5271621386157435,6.1135151264961145,1.0181869268417358,-2.0887354055987757
1708433411.5709076,-2.142819404602051,-1.3340169501355668,-2.5271666685687464,6.113474833756246,1.0181913375854492,-2.0887439886676233
1708433411.5729294,-2.1428322792053223,-1.3340701025775452,-2.5271831194507044,6.1135151264961145,1.0182000398635864,-2.0887473265277308
1708433411.5750198,-2.1427669525146484,-1.3340538156083603,-2.5272367636310022,6.1134986756141565,1.0181628465652466,-2.0887115637408655
1708433411.576898,-2.1428446769714355,-1.3340466630509873,-2.5271952787982386,6.113528597145834,1.0181913375854492,-2.088698212300436
1708433411.578891,-2.1427993774414062,-1.334016965036728,-2.52716571489443,6.113528597145834,1.0181628465652466,-2.0886858145343226
1708433411.5808988,-2.142775058746338,-1.3339931231788178,-2.5271666685687464,6.1135408757026575,1.0181628465652466,-2.0887230078326624
1708433411.5829325,-2.142819404602051,-1.3340378564647217,-2.5272041002856653,6.11352418640212,1.0181790590286255,-2.0887182394610804
1708433411.5849006,-2.1427669525146484,-1.334045172934868,-2.5271995703326624,6.113510596543112,1.0181790590286255,-2.0887306372271937
1708433411.5868986,-2.1427993774414062,-1.3340169501355668,-2.5271874109851282,6.113527285843649,1.0182162523269653,-2.0887067953692835
1708433411.588911,-2.142831802368164,-1.3339812469533463,-2.5271831194507044,6.113561737328329,1.0181790590286255,-2.0887425581561487
1708433411.5908852,-2.14280366897583,-1.3340256971171875,-2.527170006428854,6.113531815796652,1.018195629119873,-2.088672463093893
1708433411.5929208,-2.1428236961364746,-1.334000752573349,-2.5271788279162806,6.113500225334921,1.0181466341018677,-2.0886810461627405
1708433411.594906,-2.142775535583496,-1.334074543123581,-2.527175251637594,6.113486754685201,1.0181387662887573,-2.0887306372271937
1708433411.5969336,-2.1427712440490723,-1.3340300631574173,-2.5271666685687464,6.113503324776449,1.0182000398635864,-2.0887067953692835
1708433411.5988998,-2.1427993774414062,-1.3340181422284623,-2.5271831194507044,6.113519656449117,1.0181466341018677,-2.0886767546283167
1708433411.6009295,-2.142775058746338,-1.3340181124261399,-2.5271578470813196,6.113506185799398,1.0181920528411865,-2.0886901060687464
1708433411.6029305,-2.1427950859069824,-1.3340387803367157,-2.5271874109851282,6.113527285843649,1.0181344747543335,-2.088639561329977
1708433411.6049032,-2.1428403854370117,-1.3340212416699906,-2.5272041002856653,6.113519656449117,1.0181553363800049,-2.0887025038348597
1708433411.6068978,-2.1427712440490723,-1.3340094101480027,-2.5271578470813196,6.113494264870443,1.0181553363800049,-2.0886810461627405
1708433411.6089115,-2.142810821533203,-1.3340538156083603,-2.527191940938131,6.113564598351278,1.0181758403778076,-2.0887115637408655
1708433411.6109111,-2.142792224884033,-1.334062622194626,-2.527175251637594,6.11354814746932,1.018151044845581,-2.0887182394610804
1708433411.6129444,-2.1428236961364746,-1.3340423119119187,-2.527175251637594,6.113543736725607,1.0181758403778076,-2.0887563864337366
1708433411.6149523,-2.1428165435791016,-1.3340094101480027,-2.5272114912616175,6.113461482315817,1.018208622932434,-2.0887272993670862
1708433411.6169357,-2.14280366897583,-1.3340423119119187,-2.5271666685687464,6.11354540565566,1.0181596279144287,-2.0886691252337855
1708433411.6189256,-2.1427669525146484,-1.3340378564647217,-2.5271995703326624,6.113482343941488,1.0181877613067627,-2.0887182394610804
1708433411.620929,-2.142775535583496,-1.3340387803367157,-2.52717096010317,6.113519656449117,1.0181553363800049,-2.0887067953692835
1708433411.622937,-2.142807960510254,-1.3340137761882325,-2.5271995703326624,6.113519656449117,1.0181834697723389,-2.0886691252337855
1708433411.6249423,-2.142807960510254,-1.3340018403581162,-2.5271251837359827,6.1135363457496545,1.0181430578231812,-2.0887139479266565
1708433411.6269183,-2.142796516418457,-1.3340300631574173,-2.527191940938131,6.113506185799398,1.0181561708450317,-2.0887516180621546
1708433411.62889,-2.1427712440490723,-1.3340256971171875,-2.5271666685687464,6.113531815796652,1.0181758403778076,-2.088693443928854
1708433411.6309056,-2.1427669525146484,-1.3340300631574173,-2.52717096010317,6.113519656449117,1.018130898475647,-2.0887139479266565
1708433411.6329298,-2.1428275108337402,-1.3340094101480027,-2.5271909872638147,6.113519656449117,1.0181553363800049,-2.0887306372271937
1708433411.6348946,-2.142815113067627,-1.333985612993576,-2.527191940938131,6.113495814591207,1.0181221961975098,-2.0887272993670862
1708433411.6369212,-2.1427793502807617,-1.3340582710555573,-2.5272041002856653,6.113543736725607,1.0181758403778076,-2.0887139479266565
1708433411.6389196,-2.14277982711792,-1.3340423119119187,-2.5271578470813196,6.113503205567159,1.018164038658142,-2.088693443928854
1708433411.640915,-2.142831802368164,-1.3339899343303223,-2.527179781590597,6.113495814591207,1.0181430578231812,-2.0887230078326624
1708433411.6429427,-2.142792224884033,-1.3339931529811402,-2.5271788279162806,6.113589751511373,1.0181596279144287,-2.0887182394610804
1708433411.6448903,-2.142819404602051,-1.3340466630509873,-2.527191940938131,6.1135363457496545,1.0181727409362793,-2.0887230078326624
1708433411.6469424,-2.142775058746338,-1.3340212416699906,-2.5272041002856653,6.113560068398275,1.018151879310608,-2.0887158552752894
1708433411.6489096,-2.1428489685058594,-1.3340423119119187,-2.5271788279162806,6.1135527966316126,1.018164038658142,-2.0887563864337366
1708433411.6509,-2.142831802368164,-1.3340378564647217,-2.527159039174215,6.113519656449117,1.0181758403778076,-2.0886719862567347
1708433411.6529176,-2.142807960510254,-1.3340423119119187,-2.5272041002856653,6.113519656449117,1.0181190967559814,-2.088738266621725
1708433411.6549199,-2.1427907943725586,-1.3340212565711518,-2.5271666685687464,6.113510596543112,1.018180251121521,-2.08869439760317
1708433411.6569593,-2.14280366897583,-1.334016965036728,-2.52717096010317,6.11354814746932,1.0181190967559814,-2.0887444655047815
1708433411.658969,-2.1428232192993164,-1.334062622194626,-2.5271788279162806,6.113555657654562,1.0181474685668945,-2.0887396971331995
1708433411.6609683,-2.142796516418457,-1.3340300631574173,-2.5271578470813196,6.113560187607565,1.0181684494018555,-2.0887182394610804
1708433411.6629555,-2.142810821533203,-1.3340256971171875,-2.527179781590597,6.113555657654562,1.0181715488433838,-2.08869439760317
1708433411.664953,-2.1427879333496094,-1.3340061914971848,-2.5272160212146204,6.11354814746932,1.0181353092193604,-2.08873159090151
1708433411.6669827,-2.1427793502807617,-1.3340018552592774,-2.5271666685687464,6.113560187607565,1.018114686012268,-2.0887230078326624
1708433411.6689396,-2.1427669525146484,-1.334033579831459,-2.52717096010317,6.113567340164938,1.018130898475647,-2.0887272993670862
1708433411.6709375,-2.14280366897583,-1.3339768511107941,-2.5271995703326624,6.113557207375326,1.0181233882904053,-2.0886767546283167
1708433411.6729054,-2.1428403854370117,-1.3340256971171875,-2.5271874109851282,6.113519656449117,1.0181233882904053,-2.0887768904315394
1708433411.6749597,-2.1428208351135254,-1.334004969601967,-2.5271874109851282,6.113506185799398,1.018114686012268,-2.0887396971331995
1708433411.6769629,-2.142775058746338,-1.3340212267688294,-2.5271666685687464,6.113600480347433,1.0181353092193604,-2.0886858145343226
1708433411.678956,-2.142792224884033,-1.3340212416699906,-2.5271874109851282,6.113518464356222,1.018164038658142,-2.0887306372271937
1708433411.6809318,-2.142807960510254,-1.3340669882348557,-2.5271547476397913,6.113543736725607,1.018151879310608,-2.0887182394610804
1708433411.682921,-2.142815113067627,-1.333988682632782,-2.52717096010317,6.113509404450216,1.018180251121521,-2.0887139479266565
1708433411.6848865,-2.142836093902588,-1.3340137761882325,-2.5272041002856653,6.113501775055685,1.0181233882904053,-2.088693443928854
1708433411.6869044,-2.1428403854370117,-1.3340669882348557,-2.527175251637594,6.113518464356222,1.0181102752685547,-2.0887067953692835
1708433411.6888978,-2.142819404602051,-1.3340170097402115,-2.527191940938131,6.113555657654562,1.018130898475647,-2.088651482258932
1708433411.6908917,-2.1428236961364746,-1.3340344291976471,-2.5271382967578333,6.1135151264961145,1.0181190967559814,-2.088698212300436
1708433411.6929235,-2.1428122520446777,-1.3340256971171875,-2.527196232472555,6.1135151264961145,1.0181684494018555,-2.0887025038348597
1708433411.6948884,-2.1427907943725586,-1.3339931231788178,-2.5271547476397913,6.113592850952902,1.0181028842926025,-2.088698212300436
1708433411.6969395,-2.142754554748535,-1.3340387803367157,-2.527191940938131,6.11353491523818,1.0181430578231812,-2.0887048880206507
1708433411.6989233,-2.14277982711792,-1.3340006929687043,-2.5271547476397913,6.113555657654562,1.0181430578231812,-2.088693443928854
1708433411.700904,-2.142836093902588,-1.3340006929687043,-2.5271547476397913,6.113527285843649,1.0181190967559814,-2.0887182394610804
1708433411.7029264,-2.14280366897583,-1.3339689683965226,-2.5271502176867884,6.113473284035482,1.0181604623794556,-2.0887182394610804
1708433411.7049022,-2.1428236961364746,-1.3340300631574173,-2.5271547476397913,6.113549697190084,1.0181071758270264,-2.0887158552752894
1708433411.7069213,-2.1428322792053223,-1.3339931231788178,-2.5271547476397913,6.113551366120138,1.0181604623794556,-2.0887067953692835
1708433411.7089336,-2.1427836418151855,-1.3340181422284623,-2.527163569127218,6.113580691605367,1.018151879310608,-2.0886572043048304
1708433411.7109158,-2.14280366897583,-1.3340006929687043,-2.5271459261523646,6.113518464356222,1.018143892288208,-2.0886858145343226
1708433411.7129421,-2.142815113067627,-1.3340387803367157,-2.527163569127218,6.113551246910848,1.0181233882904053,-2.088698212300436
1708433411.7149236,-2.142819404602051,-1.3339974892190476,-2.527159039174215,6.113604891091146,1.0181264877319336,-2.0886648336993616
1708433411.7169292,-2.1427879333496094,-1.3340006929687043,-2.5271998087512415,6.113539206772604,1.0181353092193604,-2.0887182394610804
1708433411.718926,-2.142796516418457,-1.3340344291976471,-2.5271459261523646,6.113564598351278,1.0181233882904053,-2.0887067953692835
1708433411.7209752,-2.1428403854370117,-1.3340582710555573,-2.52717096010317,6.1136019108589075,1.018130898475647,-2.0886781851397913
1708433411.7229714,-2.142836093902588,-1.3340018552592774,-2.527142588292257,6.113525855332174,1.018143892288208,-2.0886691252337855
1708433411.724912,-2.142807960510254,-1.3340467673591156,-2.527163569127218,6.113562810211935,1.0181474685668945,-2.0886648336993616
1708433411.7269387,-2.142792224884033,-1.3340048652938385,-2.52717096010317,6.113551246910848,1.0181102752685547,-2.088698212300436
1708433411.7289443,-2.142775535583496,-1.3340689104846497,-2.5271382967578333,6.113600480347433,1.0181474685668945,-2.0887182394610804
1708433411.7308958,-2.142754554748535,-1.3340181869319458,-2.5271294752704065,6.113553750305929,1.0181190967559814,-2.088698212300436
1708433411.732936,-2.1428322792053223,-1.334030107860901,-2.5271666685687464,6.113588440209188,1.018130898475647,-2.0887272993670862
1708433411.7348974,-2.1427836418151855,-1.3339855533889313,-2.52714711824526,6.1135796187217615,1.0181727409362793,-2.0887473265277308
1708433411.7369242,-2.142852783203125,-1.3340345186046143,-2.527200762425558,6.113551246910848,1.0181114673614502,-2.08873159090151
1708433411.7389212,-2.142796516418457,-1.3340627563050766,-2.5271382967578333,6.113621341973104,1.0180948972702026,-2.0886691252337855
1708433411.740964,-2.1427669525146484,-1.333985523586609,-2.527163330708639,6.113567340164938,1.0181320905685425,-2.0886719862567347
1708433411.7429247,-2.14277982711792,-1.3340018701604386,-2.527159039174215,6.113616931229391,1.0181233882904053,-2.088693443928854
1708433411.7449205,-2.1427879333496094,-1.3339944344810029,-2.527179781590597,6.1135750887687585,1.0181190967559814,-2.0887139479266565
1708433411.7469199,-2.1427669525146484,-1.3340423566154023,-2.527208391820089,6.113592970162191,1.0181525945663452,-2.0887635389911097
1708433411.748911,-2.142775535583496,-1.33398853362117,-2.527130905781881,6.113555657654562,1.0181396007537842,-2.0887230078326624
1708433411.7509196,-2.1428236961364746,-1.3339899343303223,-2.5271340052234095,6.113579499512472,1.0181190967559814,-2.0887606779681605
1708433411.7529123,-2.1427712440490723,-1.3340018552592774,-2.52710992494692,6.113604891091146,1.0181028842926025,-2.0887354055987757
1708433411.7549312,-2.1427950859069824,-1.3340389293483277,-2.5271056334124964,6.113628732949056,1.0180984735488892,-2.0887139479266565
1708433411.7569685,-2.1428236961364746,-1.334030107860901,-2.52714711824526,6.113612282067098,1.018127679824829,-2.08872634569277
1708433411.7589748,-2.1427993774414062,-1.334009365444519,-2.5271263758288782,6.113615262299337,1.0181233882904053,-2.088698212300436
1708433411.761017,-2.142807960510254,-1.3340137761882325,-2.527123037968771,6.113607871323385,1.0181396007537842,-2.0886810461627405
1708433411.7629342,-2.14280366897583,-1.3339930188706894,-2.52710992494692,6.113610732346334,1.0181353092193604,-2.0887025038348597
1708433411.7649555,-2.1428442001342773,-1.3340256822160264,-2.527106825505392,6.113615262299337,1.0181396007537842,-2.0887182394610804
1708433411.7669375,-2.1428122520446777,-1.3339767020991822,-2.527118746434347,6.113627421646871,1.0181190967559814,-2.0887473265277308
1708433411.7689157,-2.142831802368164,-1.3340181869319458,-2.527085844670431,6.113639342575826,1.0180819034576416,-2.088667694722311
1708433411.7709455,-2.1427836418151855,-1.3340137761882325,-2.527139488850729,6.113693344383993,1.018086314201355,-2.0887048880206507
1708433411.7729485,-2.142810821533203,-1.3339810830405732,-2.527118746434347,6.113684403687277,1.0181233882904053,-2.0886810461627405
1708433411.774967,-2.142852783203125,-1.334021196966507,-2.5271318594561976,6.113707768708029,1.0181396007537842,-2.0887182394610804
1708433411.776993,-2.1428399085998535,-1.3340555888465424,-2.527123037968771,6.113704907685079,1.018114686012268,-2.0887354055987757
1708433411.7788954,-2.142815113067627,-1.334001825456955,-2.5270989576922815,6.113706576615133,1.018127679824829,-2.0887425581561487
1708433411.780896,-2.142819404602051,-1.3339930933764954,-2.527079407368795,6.113703477173605,1.0181604623794556,-2.0887306372271937
1708433411.7829497,-2.142796516418457,-1.3339885038188477,-2.5270870367633265,6.113657343178549,1.0181396007537842,-2.0886557737933558
1708433411.7848983,-2.1427836418151855,-1.3339600426009675,-2.5270469824420374,6.113706695824423,1.0181483030319214,-2.0887067953692835
1708433411.786948,-2.1427993774414062,-1.3340345186046143,-2.5270751158343714,6.113689887314596,1.0181233882904053,-2.0887230078326624
1708433411.7888858,-2.1427879333496094,-1.3340389442494889,-2.5270469824420374,6.113687026291647,1.0180940628051758,-2.088693443928854
1708433411.790905,-2.142807960510254,-1.333955542450287,-2.5270262400256556,6.113711106568136,1.0181604623794556,-2.0887067953692835
1708433411.7929,-2.1427879333496094,-1.333985523586609,-2.527083937321798,6.1136735556419275,1.0181114673614502,-2.0886767546283167
1708433411.7948878,-2.1427907943725586,-1.3340017956546326,-2.527083937321798,6.113715636521139,1.0181396007537842,-2.0887425581561487
1708433411.7969508,-2.1427950859069824,-1.3340168756297608,-2.5270305315600794,6.113689887314596,1.018086314201355,-2.088698212300436
1708433411.7989423,-2.142819404602051,-1.3340423566154023,-2.5270350615130823,6.113677966385641,1.0181102752685547,-2.088738266621725
1708433411.8008976,-2.1428322792053223,-1.3340434294990082,-2.5270262400256556,6.113694417267599,1.018151879310608,-2.0887354055987757
1708433411.802969,-2.142815113067627,-1.33403895915065,-2.5270305315600794,6.113698947220602,1.018114686012268,-2.0887096563922327
1708433411.8049014,-2.1428279876708984,-1.3340048354915162,-2.5270305315600794,6.113698947220602,1.0181353092193604,-2.088663403187887
1708433411.8069563,-2.1428236961364746,-1.3339930337718506,-2.527079407368795,6.113718616753378,1.0181071758270264,-2.088733975087301
1708433411.8089657,-2.1427993774414062,-1.33406716704879,-2.5270512739764612,6.113694298058309,1.0181190967559814,-2.0887096563922327
1708433411.810904,-2.1427712440490723,-1.3340345186046143,-2.5270543734179896,6.113723027497091,1.0181396007537842,-2.0887516180621546
1708433411.8129215,-2.1428186893463135,-1.3339899343303223,-2.5270469824420374,6.113689887314596,1.0181071758270264,-2.0887048880206507
1708433411.8148994,-2.14280366897583,-1.3339930337718506,-2.5270589033709925,6.1136618731315515,1.0181353092193604,-2.0887096563922327
1708433411.8169193,-2.1428232192993164,-1.3340181720307847,-2.527092758809225,6.1137558100517175,1.0181233882904053,-2.0887683073626917
1708433411.8189275,-2.1428122520446777,-1.334009365444519,-2.527088228856222,6.113715636521139,1.0181396007537842,-2.088738266621725
1708433411.820918,-2.1427950859069824,-1.3339406114867707,-2.52706748643984,6.113724577217855,1.0181233882904053,-2.088759247456686
1708433411.8229413,-2.142831802368164,-1.3340181124261399,-2.5270543734179896,6.113727557450094,1.0181071758270264,-2.088775936757223
1708433411.8249066,-2.142815113067627,-1.3340094101480027,-2.52706748643984,6.113676416664877,1.0181517601013184,-2.0887048880206507
1708433411.8268864,-2.142810821533203,-1.3339768511107941,-2.5270305315600794,6.113757359772482,1.0181233882904053,-2.088680092488424
1708433411.828927,-2.142807960510254,-1.3339931231788178,-2.527088228856222,6.113698947220602,1.0181396007537842,-2.088672463093893
1708433411.830881,-2.1427836418151855,-1.3339887273362656,-2.527072016392843,6.113723027497091,1.0181233882904053,-2.0887306372271937
1708433411.8328924,-2.142810821533203,-1.3340509843877335,-2.5270512739764612,6.113650071411886,1.018143892288208,-2.088717285786764
1708433411.834893,-2.1428279876708984,-1.3340018552592774,-2.5270138422595423,6.113720166474142,1.018151879310608,-2.0887425581561487
1708433411.8368917,-2.142815113067627,-1.3340094101480027,-2.52706748643984,6.113720166474142,1.0181233882904053,-2.0887425581561487
1708433411.8388872,-2.1427836418151855,-1.3340509843877335,-2.5270350615130823,6.113706576615133,1.0181071758270264,-2.088759247456686
1708433411.8408813,-2.1428236961364746,-1.3340256822160264,-2.5270262400256556,6.113689887314596,1.0180853605270386,-2.088717285786764
1708433411.8428984,-2.142819404602051,-1.3339899343303223,-2.5270631949054163,6.113769399910726,1.018127679824829,-2.08875018755068
1708433411.8448803,-2.1428275108337402,-1.3339768511107941,-2.527104441319601,6.1137603400047205,1.018130898475647,-2.088738266621725
1708433411.846926,-2.142807960510254,-1.3340256971171875,-2.5270631949054163,6.1137499687965295,1.0181190967559814,-2.088754479085104
1708433411.8488858,-2.1427907943725586,-1.3340538007071991,-2.5270305315600794,6.113727557450094,1.0181561708450317,-2.088700596486227
1708433411.8508856,-2.142815113067627,-1.3339602959207078,-2.527083698903219,6.113759028702535,1.0181190967559814,-2.088775936757223
1708433411.8529117,-2.142836093902588,-1.3340018850615998,-2.5270751158343714,6.11372588852004,1.0181233882904053,-2.0886758009540003
1708433411.8549082,-2.142819404602051,-1.3340062362006684,-2.5270589033709925,6.113721477776327,1.0181071758270264,-2.088733975087301
1708433411.8569293,-2.142815113067627,-1.3339931082776566,-2.5270958582507532,6.11372588852004,1.0181071758270264,-2.088733975087301
1708433411.8589652,-2.142819404602051,-1.3339602214149018,-2.5270913282977503,6.113759147911825,1.0181071758270264,-2.088771645222799
1708433411.8609715,-2.14280366897583,-1.3339943897775193,-2.5270500818835657,6.113742220192709,1.0181727409362793,-2.088783089314596
1708433411.8629358,-2.1428275108337402,-1.3340062660029908,-2.5270512739764612,6.113730418473043,1.0180984735488892,-2.088759247456686
1708433411.864962,-2.142885446548462,-1.3340094250491639,-2.5270589033709925,6.113721358567037,1.0181727409362793,-2.088775936757223
1708433411.8669899,-2.142864465713501,-1.3340050143054505,-2.5270631949054163,6.113759028702535,1.0181363821029663,-2.088771645222799
1708433411.868916,-2.142848491668701,-1.3340714138797303,-2.5270467440234583,6.11378167846755,1.0180906057357788,-2.0887635389911097
1708433411.8709102,-2.1427993774414062,-1.3340094101480027,-2.5270500818835657,6.113763558655538,1.0181233882904053,-2.088738266621725
1708433411.872932,-2.1427862644195557,-1.3340510588935395,-2.5270500818835657,6.113730537682333,1.0180948972702026,-2.088778320943014
1708433411.8749373,-2.1427993774414062,-1.334022508268692,-2.527112070714132,6.113788950234213,1.0181320905685425,-2.0887158552752894
1708433411.876942,-2.1428020000457764,-1.3340344440988083,-2.5270631949054163,6.11372588852004,1.018130898475647,-2.088738266621725
1708433411.878912,-2.1428232192993164,-1.3340256673148652,-2.5270913282977503,6.113763558655538,1.0181190967559814,-2.088729206715719
1708433411.8809373,-2.1428232192993164,-1.3339931082776566,-2.5270512739764612,6.113742339401998,1.0181396007537842,-2.08875018755068
1708433411.8829296,-2.142848491668701,-1.3339680892280121,-2.5270708242999476,6.113791811257162,1.0181353092193604,-2.088733975087301
1708433411.884957,-2.1428020000457764,-1.3340257120183487,-2.5270589033709925,6.113730418473043,1.0181396007537842,-2.088741127644674
1708433411.8869658,-2.1427950859069824,-1.3340378564647217,-2.5270469824420374,6.1137874005134485,1.018127679824829,-2.088771645222799
1708433411.888917,-2.1428020000457764,-1.3340669882348557,-2.5270751158343714,6.113705026894369,1.0181353092193604,-2.088783089314596
1708433411.8909228,-2.142852783203125,-1.3340495389750977,-2.5270989576922815,6.113803374558248,1.018127679824829,-2.08875018755068
1708433411.892895,-2.1428353786468506,-1.334004969601967,-2.5270708242999476,6.113791811257162,1.018130898475647,-2.088832680379049
1708433411.8949037,-2.142860174179077,-1.334022508268692,-2.5270913282977503,6.113759028702535,1.018151879310608,-2.088766876851217
1708433411.8969448,-2.142815113067627,-1.3339931231788178,-2.5270467440234583,6.113737809448995,1.018151879310608,-2.088783089314596
1708433411.898917,-2.1428186893463135,-1.3340212416699906,-2.527079407368795,6.113803374558248,1.0181396007537842,-2.088754479085104
1708433411.900912,-2.142860174179077,-1.3340256822160264,-2.5270589033709925,6.113773929863729,1.0181396007537842,-2.0887582937823694
1708433411.9029384,-2.1428442001342773,-1.3339974892190476,-2.5271077791797083,6.113820183068075,1.0181396007537842,-2.08877402940859
1708433411.9049034,-2.1428353786468506,-1.3339931231788178,-2.5270870367633265,6.1137945530708215,1.0181474685668945,-2.088799778615133
1708433411.9069357,-2.1428442001342773,-1.3339931231788178,-2.5271034876452845,6.113773929863729,1.0181561708450317,-2.088778320943014
1708433411.908943,-2.142881155014038,-1.3340094250491639,-2.5270708242999476,6.1138425944145105,1.0181353092193604,-2.0887625853167933
1708433411.9109514,-2.1427977085113525,-1.3339812618545075,-2.5270751158343714,6.113855826645651,1.0181474685668945,-2.088733498250143
1708433411.912958,-2.1428143978118896,-1.3340256971171875,-2.5271032492267054,6.113767611771383,1.0181102752685547,-2.088724915181295
1708433411.914949,-2.142860174179077,-1.3340256971171875,-2.5270913282977503,6.113830554276266,1.0181561708450317,-2.088729206715719
1708433411.9169493,-2.142831802368164,-1.3340062212995072,-2.5270467440234583,6.113859164505758,1.0181474685668945,-2.088724915181295
1708433411.9189336,-2.142913579940796,-1.3340300631574173,-2.527079407368795,6.113830554276266,1.0181517601013184,-2.08875018755068
1708433411.9209323,-2.142860174179077,-1.3339812469533463,-2.5270782152758997,6.113826024323263,1.0181233882904053,-2.0888074080096644
1708433411.9229445,-2.1428186893463135,-1.3340538156083603,-2.5270708242999476,6.11382149437026,1.0181190967559814,-2.0887368361102503
1708433411.924938,-2.1428442001342773,-1.3340094101480027,-2.527079407368795,6.113851415901937,1.0181561708450317,-2.088745419179098
1708433411.9269679,-2.1428847312927246,-1.334067003136017,-2.527100149785177,6.113847005158224,1.018114686012268,-2.0887625853167933
1708433411.9289327,-2.1427862644195557,-1.3340466630509873,-2.5270705858813685,6.1137674925620935,1.0181114673614502,-2.0887368361102503
1708433411.9309065,-2.142881155014038,-1.3339974743178864,-2.5270589033709925,6.113839494972982,1.0180819034576416,-2.088724915181295
1708433411.9329498,-2.1428637504577637,-1.334022508268692,-2.527083937321798,6.113909947663107,1.018127679824829,-2.0887582937823694
1708433411.9349518,-2.1428143978118896,-1.333993138079979,-2.527033869420187,6.113846885948934,1.0180984735488892,-2.088783089314596
1708433411.9369671,-2.1428470611572266,-1.3340423119119187,-2.5271032492267054,6.113842475205221,1.0181071758270264,-2.0887087027179163
1708433411.938906,-2.14285945892334,-1.334037871365883,-2.5270631949054163,6.113888966828146,1.018130898475647,-2.0887535254107874
1708433411.9409246,-2.142826795578003,-1.33399751902137,-2.5271077791797083,6.11385594585494,1.018086314201355,-2.088738266621725
1708433411.9428916,-2.142826795578003,-1.334033564930298,-2.5270500818835657,6.113842475205221,1.0181430578231812,-2.0887535254107874
1708433411.9449213,-2.142880439758301,-1.3340256971171875,-2.5270913282977503,6.113846885948934,1.0181561708450317,-2.088811699544088
1708433411.9469085,-2.142838478088379,-1.3340181720307847,-2.5270589033709925,6.113888966828146,1.0181527137756348,-2.0886991659747522
1708433411.9489043,-2.142871856689453,-1.334046722655632,-2.5270870367633265,6.1138800261314294,1.0181102752685547,-2.088729206715719
1708433411.950898,-2.142880439758301,-1.3340018552592774,-2.52712852159609,6.113859164505758,1.0181233882904053,-2.0887983481036585
1708433411.9528909,-2.1428847312927246,-1.3340553951314469,-2.5270708242999476,6.113842475205221,1.0181353092193604,-2.088820759450094
1708433411.9549053,-2.1428680419921875,-1.3340050143054505,-2.5270751158343714,6.11386655548171,1.0181726217269897,-2.088745896016256
1708433411.9569693,-2.1428558826446533,-1.3340553951314469,-2.5270631949054163,6.11382149437026,1.018143892288208,-2.088741127644674
1708433411.9589653,-2.1428680419921875,-1.3340669882348557,-2.5270827452289026,6.113842475205221,1.018130898475647,-2.0887625853167933
1708433411.960938,-2.142871856689453,-1.3340256822160264,-2.5270870367633265,6.1138919470603845,1.018114686012268,-2.088771645222799
1708433411.962928,-2.142822504043579,-1.334062622194626,-2.527079407368795,6.113875734597006,1.0181353092193604,-2.0887697378741663
1708433411.9649332,-2.142871856689453,-1.3339974594167252,-2.5270782152758997,6.113829004555502,1.0180984735488892,-2.0887625853167933
1708433411.9669375,-2.1428182125091553,-1.334021271472313,-2.5270958582507532,6.113829004555502,1.018130898475647,-2.0887582937823694
1708433411.9689267,-2.142838478088379,-1.334016965036728,-2.5270500818835657,6.113875615387716,1.0181264877319336,-2.088759247456686
1708433411.9709344,-2.142855167388916,-1.3340037626079102,-2.527112070714132,6.113851415901937,1.0181190967559814,-2.08878738084902
1708433411.9729428,-2.142810106277466,-1.334021271472313,-2.5270631949054163,6.1138800261314294,1.018127679824829,-2.088804546986715
1708433411.974926,-2.1428847312927246,-1.3340006929687043,-2.5270958582507532,6.113842475205221,1.0180906057357788,-2.088717285786764
1708433411.976949,-2.142871856689453,-1.3339682233384629,-2.5270751158343714,6.113833415299215,1.0181028842926025,-2.0887625853167933
1708433411.9789186,-2.1428139209747314,-1.3339723956635972,-2.5270500818835657,6.113911378174581,1.0181190967559814,-2.088783089314596
1708433411.980934,-2.142801523208618,-1.3340378415635605,-2.5270870367633265,6.113859164505758,1.0181190967559814,-2.088766876851217
1708433411.9829535,-2.1428918838500977,-1.334074543123581,-2.5270913282977503,6.113855826645651,1.0181071758270264,-2.0887625853167933
1708433411.9849064,-2.14285945892334,-1.3340006929687043,-2.5270631949054163,6.113870966225424,1.018102765083313,-2.088778320943014
1708433411.9869592,-2.142871856689453,-1.3340538007071991,-2.5271077791797083,6.113812553673544,1.0181396007537842,-2.088778320943014
1708433411.988908,-2.1428182125091553,-1.334055410032608,-2.5270751158343714,6.113829004555502,1.0181561708450317,-2.0887582937823694
1708433411.9909382,-2.1428427696228027,-1.3340212565711518,-2.5270543734179896,6.113896596222677,1.0181233882904053,-2.088766876851217
1708433411.992918,-2.142871856689453,-1.3340300631574173,-2.5271032492267054,6.1138919470603845,1.0181396007537842,-2.0887625853167933
1708433411.9948926,-2.1428918838500977,-1.334021271472313,-2.5270708242999476,6.113857495575704,1.0181028842926025,-2.08875018755068
1708433411.9968977,-2.142822504043579,-1.3340335947326203,-2.5271077791797083,6.1138919470603845,1.018127679824829,-2.088771645222799
1708433411.9989026,-2.142838478088379,-1.3340212416699906,-2.5270708242999476,6.113833415299215,1.018127679824829,-2.088811699544088
1708433412.0009332,-2.1428918838500977,-1.3339812618545075,-2.527100149785177,6.113873946457662,1.0181233882904053,-2.0887625853167933
1708433412.0029016,-2.14285945892334,-1.3340669137290497,-2.5270989576922815,6.113892066269674,1.0181604623794556,-2.088832680379049
1708433412.0048895,-2.1428961753845215,-1.3340423119119187,-2.5270500818835657,6.113837945252218,1.0181233882904053,-2.088799778615133
1708433412.0070174,-2.1429076194763184,-1.334053785806038,-2.5270543734179896,6.113824474602499,1.0181114673614502,-2.088729206715719
1708433412.0089202,-2.1429076194763184,-1.3340094101480027,-2.5270870367633265,6.113779771118917,1.0181190967559814,-2.088724915181295
1708433412.0109432,-2.1429033279418945,-1.334016965036728,-2.5270946661578577,6.113812553673544,1.0181115865707397,-2.08877402940859
1708433412.0129642,-2.142871856689453,-1.3340495389750977,-2.5270782152758997,6.113859164505758,1.018114686012268,-2.0887954870807093
1708433412.0149019,-2.142876148223877,-1.3340335947326203,-2.5270915667163294,6.113882887154379,1.0181158781051636,-2.088775936757223
1708433412.0169451,-2.14288330078125,-1.334033579831459,-2.5270708242999476,6.113814103394308,1.018114686012268,-2.088820759450094
1708433412.01892,-2.1428918838500977,-1.3339974594167252,-2.5270827452289026,6.1139176962669275,1.0180906057357788,-2.088811699544088
1708433412.0209153,-2.1428427696228027,-1.334045187836029,-2.5271032492267054,6.113863694458761,1.0181353092193604,-2.08877402940859
1708433412.02293,-2.1428675651550293,-1.3340256971171875,-2.527112070714132,6.113837945252218,1.0181071758270264,-2.0887582937823694
1708433412.0249412,-2.14285945892334,-1.334067003136017,-2.5271032492267054,6.113892066269674,1.0181190967559814,-2.0887625853167933
1708433412.0269294,-2.1429200172424316,-1.3340300631574173,-2.5271032492267054,6.113859283715048,1.018151879310608,-2.0887535254107874
1708433412.0289059,-2.142932891845703,-1.3340300631574173,-2.5270913282977503,6.113857495575704,1.0181233882904053,-2.0887277762042444
1708433412.0309014,-2.1429004669189453,-1.3339723956635972,-2.5271032492267054,6.113842475205221,1.018127679824829,-2.0887582937823694
1708433412.0329442,-2.1428675651550293,-1.3340137612870713,-2.5270913282977503,6.113837945252218,1.0181190967559814,-2.088804546986715
1708433412.034922,-2.1428675651550293,-1.3340495389750977,-2.5271032492267054,6.113887417107382,1.0181604623794556,-2.088778320943014
1708433412.0369763,-2.142911911010742,-1.3340582263520737,-2.5270989576922815,6.113862025528707,1.0181233882904053,-2.0887907187091272
1708433412.0389273,-2.142850875854492,-1.3340582710555573,-2.527100149785177,6.113841044693746,1.018127679824829,-2.08871299425234
1708433412.0409539,-2.1428961753845215,-1.3340170097402115,-2.5271199385272425,6.113845693856039,1.0181483030319214,-2.088804546986715
1708433412.0429292,-2.142855167388916,-1.3340212416699906,-2.5271111170398157,6.113875615387716,1.0181114673614502,-2.088799778615133
1708433412.0449276,-2.142887592315674,-1.3340538156083603,-2.527112070714132,6.113871085434713,1.018143892288208,-2.088745896016256
1708433412.0469308,-2.142880439758301,-1.3340212863734742,-2.5271111170398157,6.113871085434713,1.0181353092193604,-2.088799778615133
1708433412.0489254,-2.142887592315674,-1.3339637082866211,-2.5271154085742396,6.113862144737997,1.0181363821029663,-2.088741127644674
1708433412.0509312,-2.142834186553955,-1.3340626519969483,-2.527090136204855,6.113841163903036,1.0181190967559814,-2.0887625853167933
1708433412.0529463,-2.1429033279418945,-1.3340292435935517,-2.527102295552389,6.113833534508505,1.0181071758270264,-2.0887535254107874
1708433412.0549011,-2.14288330078125,-1.3340538007071991,-2.527090136204855,6.113837945252218,1.018151879310608,-2.08875018755068
1708433412.0569532,-2.1428675651550293,-1.3340169948390503,-2.5271032492267054,6.11382149437026,1.0181190967559814,-2.088741127644674
1708433412.0589232,-2.14288330078125,-1.3340169948390503,-2.527102295552389,6.113847005158224,1.018164873123169,-2.0887535254107874
1708433412.0609272,-2.1429033279418945,-1.3340582859567185,-2.527114216481344,6.113868224411764,1.0181561708450317,-2.088745896016256
1708433412.06295,-2.142871856689453,-1.3340212416699906,-2.5271883646594446,6.113871085434713,1.0181604623794556,-2.088799778615133
1708433412.0649273,-2.1428298950195312,-1.3340422970107575,-2.52717096010317,6.113850223809042,1.018164038658142,-2.0887625853167933
1708433412.066922,-2.1428675651550293,-1.3340538305095215,-2.527175251637594,6.113850223809042,1.018180251121521,-2.088778320943014
1708433412.0689597,-2.142876148223877,-1.3340256226113816,-2.5271831194507044,6.113845693856039,1.018114686012268,-2.0887697378741663
1708433412.0709257,-2.1428632736206055,-1.3340495389750977,-2.5272203127490442,6.113829004555502,1.018127679824829,-2.0887368361102503
1708433412.0729592,-2.14288330078125,-1.3340006929687043,-2.5271909872638147,6.11382149437026,1.0181145668029785,-2.0887320677386683
1708433412.0749254,-2.142855167388916,-1.3340378415635605,-2.5272322336779993,6.1138800261314294,1.0180948972702026,-2.0888059774981897
1708433412.076977,-2.1428675651550293,-1.3340335947326203,-2.527252976094381,6.113875615387716,1.0181190967559814,-2.088729206715719
1708433412.0789564,-2.1429200172424316,-1.3339930784753342,-2.5272353331195276,6.113854634552755,1.0181561708450317,-2.0887907187091272
1708433412.0809348,-2.1429076194763184,-1.3340582710555573,-2.5271831194507044,6.113875615387716,1.0181233882904053,-2.0887864271747034
1708433412.082938,-2.1428847312927246,-1.3340538305095215,-2.5272114912616175,6.113895165711202,1.0180984735488892,-2.08881646791567
1708433412.0849528,-2.142838478088379,-1.3339974296144028,-2.5272441546069544,6.113862144737997,1.0180984735488892,-2.088811699544088
1708433412.0869606,-2.142880439758301,-1.33408638954673,-2.527186457310812,6.1138261435325525,1.0181353092193604,-2.088720146809713
1708433412.0889888,-2.1428918838500977,-1.3340256822160264,-2.5271788279162806,6.11386655548171,1.018130898475647,-2.0887354055987757
1708433412.0909321,-2.1428680419921875,-1.3340256822160264,-2.5271995703326624,6.113887417107382,1.0181353092193604,-2.0887821356402796
1708433412.0929255,-2.142871856689453,-1.334058241253235,-2.5271788279162806,6.113833415299215,1.0181430578231812,-2.0887816588031214
1708433412.0949075,-2.1429033279418945,-1.334012584095337,-2.5272114912616175,6.113841163903036,1.0181430578231812,-2.0887649695025843
1708433412.0969112,-2.142871856689453,-1.3340378415635605,-2.5272041002856653,6.113837945252218,1.018151879310608,-2.0888026396380823
1708433412.0989392,-2.1428918838500977,-1.3340169799378891,-2.5271909872638147,6.113892066269674,1.0181553363800049,-2.088741127644674
1708433412.100912,-2.1428427696228027,-1.3340378117612381,-2.5271831194507044,6.113859164505758,1.0181396007537842,-2.088811699544088
1708433412.102919,-2.142911434173584,-1.3340212267688294,-2.5271742979632776,6.113812553673544,1.0181553363800049,-2.0888145605670374
1708433412.1048985,-2.14288330078125,-1.3339844059995194,-2.527170006428854,6.1138906357581995,1.018180251121521,-2.0887492338763636
1708433412.1069193,-2.142855167388916,-1.3340423268130799,-2.5271874109851282,6.1137887118156335,1.0181430578231812,-2.0888269583331507
1708433412.1089365,-2.142850875854492,-1.3340169501355668,-2.5272160212146204,6.113904225617208,1.0181715488433838,-2.0887940565692347
1708433412.1109388,-2.142850875854492,-1.3340626519969483,-2.5272114912616175,6.113841163903036,1.0181715488433838,-2.0887606779681605
1708433412.1129384,-2.1429049968719482,-1.3340538007071991,-2.5271909872638147,6.113850223809042,1.018180251121521,-2.0887907187091272
1708433412.1149287,-2.1429286003112793,-1.3340378564647217,-2.527186457310812,6.113875615387716,1.01816725730896,-2.0888026396380823
1708433412.116929,-2.1429243087768555,-1.3340495389750977,-2.5271952787982386,6.113824474602499,1.0181628465652466,-2.0888074080096644
1708433412.1189213,-2.1428747177124023,-1.3340658259442826,-2.527186457310812,6.113904106407919,1.0182008743286133,-2.0887773672686976
1708433412.1209178,-2.142876148223877,-1.334053785806038,-2.5271788279162806,6.113824355393209,1.0181387662887573,-2.0888236204730433
1708433412.1229384,-2.142911911010742,-1.3340169948390503,-2.5271831194507044,6.11382149437026,1.0181264877319336,-2.0888026396380823
1708433412.1249409,-2.14285945892334,-1.3340495389750977,-2.5272322336779993,6.113859164505758,1.0181221961975098,-2.0887940565692347
1708433412.1270278,-2.14285945892334,-1.3340495389750977,-2.5272114912616175,6.113857495575704,1.0181758403778076,-2.0888193289386194
1708433412.1289487,-2.142879009246826,-1.3340212416699906,-2.5272114912616175,6.113808023720541,1.0182087421417236,-2.0887368361102503
1708433412.1309166,-2.142911911010742,-1.334046633248665,-2.5271909872638147,6.113863694458761,1.0181758403778076,-2.0887821356402796
1708433412.1329536,-2.142838478088379,-1.3340701025775452,-2.5271788279162806,6.1138261435325525,1.018164038658142,-2.0888026396380823
1708433412.1349149,-2.1428470611572266,-1.3340169501355668,-2.5272160212146204,6.113854634552755,1.018151044845581,-2.0888145605670374
1708433412.1369815,-2.1428847312927246,-1.3340212863734742,-2.5272191206561487,6.113850223809042,1.0182000398635864,-2.0888059774981897
1708433412.1389318,-2.14288330078125,-1.334058241253235,-2.5271742979632776,6.1138919470603845,1.0182043313980103,-2.0888102690326136
1708433412.1409235,-2.1429033279418945,-1.3340423119119187,-2.5272191206561487,6.113775241165914,1.0181715488433838,-2.0888059774981897
1708433412.1429253,-2.142911911010742,-1.334016965036728,-2.5271831194507044,6.113892066269674,1.0181877613067627,-2.0888012091266077
1708433412.1449242,-2.142911911010742,-1.3340700727752228,-2.5272160212146204,6.113847005158224,1.0181758403778076,-2.0888269583331507
1708433412.1469066,-2.1429243087768555,-1.3340495389750977,-2.5271742979632776,6.113833415299215,1.018151044845581,-2.0888193289386194
1708433412.1489494,-2.14288330078125,-1.334033579831459,-2.5271742979632776,6.11386655548171,1.0181877613067627,-2.0888026396380823
1708433412.15093,-2.142876148223877,-1.334062622194626,-2.5272484461413782,6.113895284920492,1.018195629119873,-2.0888193289386194
1708433412.152951,-2.142887592315674,-1.3340169948390503,-2.5271952787982386,6.113842475205221,1.0182000398635864,-2.0888145605670374
1708433412.1549168,-2.142887592315674,-1.3340212267688294,-2.5271578470813196,6.113892066269674,1.0182162523269653,-2.0888026396380823
1708433412.1569498,-2.14285945892334,-1.334061474805214,-2.527182165776388,6.113883125572958,1.0181747674942017,-2.0888026396380823
1708433412.1589308,-2.1428961753845215,-1.334058241253235,-2.527198378239767,6.1138919470603845,1.0181877613067627,-2.0888407866107386
1708433412.1609576,-2.1428310871124268,-1.3340422821095963,-2.5272560755359095,6.113892066269674,1.0181628465652466,-2.0888145605670374
1708433412.1629527,-2.1428298950195312,-1.3340212565711518,-2.5271621386157435,6.113908755570211,1.0181834697723389,-2.0888317267047327
1708433412.1649518,-2.1428918838500977,-1.3340422821095963,-2.5272114912616175,6.1138906357581995,1.0181877613067627,-2.0888236204730433
1708433412.1669548,-2.1429033279418945,-1.3340538007071991,-2.527186457310812,6.113859164505758,1.018195629119873,-2.088764015828268
1708433412.1689394,-2.142871856689453,-1.3340538007071991,-2.5272114912616175,6.113826024323263,1.0181628465652466,-2.088784996663229
1708433412.1709423,-2.1429004669189453,-1.3340137761882325,-2.5271742979632776,6.11382149437026,1.0182000398635864,-2.0887892881976526
1708433412.1729515,-2.142911434173584,-1.3340335947326203,-2.5272160212146204,6.113791692047872,1.0182162523269653,-2.0888341108905237
1708433412.1749768,-2.142911911010742,-1.3340094250491639,-2.5271621386157435,6.113837945252218,1.0181834697723389,-2.0887864271747034
1708433412.1769423,-2.142871856689453,-1.3340538007071991,-2.5272114912616175,6.113887417107382,1.0181585550308228,-2.088784996663229
1708433412.1789124,-2.1428675651550293,-1.3340700727752228,-2.527170006428854,6.113882887154379,1.0182533264160156,-2.0887940565692347
1708433412.180891,-2.1429243087768555,-1.3340378564647217,-2.5272203127490442,6.113899695664205,1.0182000398635864,-2.088780228291647
1708433412.1829278,-2.1428918838500977,-1.334058241253235,-2.5271909872638147,6.113857614784994,1.0181628465652466,-2.0888269583331507
1708433412.1848938,-2.142871856689453,-1.3340625923923035,-2.5271742979632776,6.113904106407919,1.0182284116744995,-2.0888317267047327
1708433412.186968,-2.1429033279418945,-1.3339757484248658,-2.5271995703326624,6.113875615387716,1.0181869268417358,-2.0888026396380823
1708433412.1888907,-2.1429200172424316,-1.3340582263520737,-2.5272203127490442,6.113841163903036,1.018195629119873,-2.0888193289386194
1708433412.1909387,-2.142911911010742,-1.3340538007071991,-2.5271416346179407,6.113915788918295,1.0182241201400757,-2.0887444655047815
1708433412.1929116,-2.142876148223877,-1.334045187836029,-2.5271995703326624,6.113857495575704,1.0182154178619385,-2.0888474623309534
1708433412.1949036,-2.14288330078125,-1.3340495389750977,-2.5271995703326624,6.113904106407919,1.018182635307312,-2.088784996663229
1708433412.196946,-2.142911911010742,-1.3340169948390503,-2.5271874109851282,6.1138906357581995,1.018227219581604,-2.0888474623309534
1708433412.1989224,-2.142879009246826,-1.3340495240739365,-2.5272041002856653,6.113857495575704,1.0182241201400757,-2.0887983481036585
1708433412.2009265,-2.142887592315674,-1.334049553876259,-2.5271897951709192,6.113899695664205,1.0182197093963623,-2.0888384024249476
1708433412.20294,-2.1429076194763184,-1.3340538007071991,-2.5271788279162806,6.113873946457662,1.0182644128799438,-2.0888474623309534
1708433412.2049263,-2.142894744873047,-1.3340256673148652,-2.5272071997271937,6.1138906357581995,1.0182316303253174,-2.0888474623309534
1708433412.2069366,-2.142880439758301,-1.3340495389750977,-2.5272114912616175,6.113860475807943,1.0182316303253174,-2.0888269583331507
1708433412.2089453,-2.1428961753845215,-1.3340423119119187,-2.5271666685687464,6.113948571472921,1.018227219581604,-2.0887649695025843
1708433412.2109578,-2.1428847312927246,-1.3340169948390503,-2.5272322336779993,6.113886225014486,1.0182316303253174,-2.0887940565692347
1708433412.2129316,-2.1428918838500977,-1.3340538156083603,-2.527198378239767,6.1138906357581995,1.018227219581604,-2.0887516180621546
1708433412.2149634,-2.142871856689453,-1.3340408366969605,-2.527182165776388,6.113895165711202,1.0181858539581299,-2.0887516180621546
1708433412.2169623,-2.1429076194763184,-1.3340256971171875,-2.5272398630725306,6.113857495575704,1.018227219581604,-2.0888269583331507
1708433412.2189248,-2.142850875854492,-1.334058241253235,-2.5272114912616175,6.1139142391975305,1.0182514190673828,-2.088796917592184
1708433412.2209194,-2.142932891845703,-1.334049553876259,-2.5271666685687464,6.113965260773458,1.0181944370269775,-2.0887516180621546
1708433412.2229452,-2.142894744873047,-1.3340495389750977,-2.5271995703326624,6.1138906357581995,1.0182600021362305,-2.0887892881976526
1708433412.2249742,-2.1429033279418945,-1.3340423119119187,-2.5271909872638147,6.113918649941244,1.0182968378067017,-2.0887983481036585
1708433412.2269578,-2.142887592315674,-1.334033579831459,-2.527186457310812,6.1139187691505334,1.0182394981384277,-2.088796917592184
1708433412.2289124,-2.1428675651550293,-1.3340248477509995,-2.5272041002856653,6.11387728431777,1.0182229280471802,-2.0887559095965784
1708433412.2309163,-2.1429033279418945,-1.334016965036728,-2.5272191206561487,6.113959300308981,1.0182394981384277,-2.0888059774981897
1708433412.232977,-2.142850875854492,-1.3340256971171875,-2.52720290819277,6.113966691284933,1.0182394981384277,-2.0888102690326136
1708433412.2349408,-2.1429367065429688,-1.3340582114509125,-2.527182165776388,6.1139293787773035,1.018227219581604,-2.0888360182391565
1708433412.237003,-2.1428675651550293,-1.334046648149826,-2.52720290819277,6.113933908730306,1.0182394981384277,-2.0888317267047327
1708433412.2389357,-2.1428918838500977,-1.3340292435935517,-2.52716571489443,6.1139577505882166,1.0182557106018066,-2.0888407866107386
1708433412.24093,-2.142894744873047,-1.334033579831459,-2.5271952787982386,6.11396216133193,1.0182557106018066,-2.0888074080096644
1708433412.2429316,-2.1428990364074707,-1.3340248477509995,-2.527170006428854,6.1139248488243005,1.0182437896728516,-2.0888317267047327
1708433412.244947,-2.14288330078125,-1.334058241253235,-2.5272398630725306,6.11393831947402,1.0182676315307617,-2.0888102690326136
1708433412.246918,-2.142928123474121,-1.3340408366969605,-2.52720290819277,6.113954770355978,1.0182838439941406,-2.0888102690326136
1708433412.248905,-2.14288330078125,-1.334033564930298,-2.5272279421435755,6.113959300308981,1.0182394981384277,-2.0888026396380823
1708433412.250916,-2.14288592338562,-1.3340658110431214,-2.52720290819277,6.113933789521017,1.0182514190673828,-2.0887444655047815
1708433412.2529426,-2.1428632736206055,-1.3340335947326203,-2.5272114912616175,6.113978612213888,1.0182838439941406,-2.0888522307025355
1708433412.254905,-2.1429243087768555,-1.334045187836029,-2.5271785894977015,6.1139458296592615,1.0182514190673828,-2.0888360182391565
1708433412.2569394,-2.1428990364074707,-1.3340495389750977,-2.5271788279162806,6.11396216133193,1.0182676315307617,-2.0888236204730433
1708433412.2589757,-2.1429409980773926,-1.3340538007071991,-2.52722675005068,6.113974082260885,1.0182600021362305,-2.0888407866107386
1708433412.2610483,-2.142894744873047,-1.33408638954673,-2.5271952787982386,6.113945710449972,1.018235206604004,-2.0887821356402796
1708433412.2629702,-2.142879009246826,-1.334012584095337,-2.5271621386157435,6.113969552307882,1.0182676315307617,-2.08877402940859
1708433412.2649808,-2.142890453338623,-1.3340451580337067,-2.5272398630725306,6.113966691284933,1.018247127532959,-2.0887821356402796
1708433412.2669985,-2.1429200172424316,-1.3339963269284745,-2.5272114912616175,6.11392496803359,1.0182437896728516,-2.0887983481036585
1708433412.2689433,-2.1429200172424316,-1.3340538007071991,-2.5272279421435755,6.113920318871298,1.0182514190673828,-2.0887940565692347
1708433412.2709289,-2.14288330078125,-1.3340292137912293,-2.5271909872638147,6.1139293787773035,1.0182394981384277,-2.0887983481036585
1708433412.2729428,-2.142915725708008,-1.334058241253235,-2.5272114912616175,6.114039647370138,1.0182394981384277,-2.0887983481036585
1708433412.274977,-2.142960786819458,-1.3340571087649842,-2.5272041002856653,6.113948690682211,1.0182806253433228,-2.0888026396380823
1708433412.2769196,-2.1428544521331787,-1.3340987128070374,-2.527170006428854,6.113974082260885,1.0182557106018066,-2.0888059774981897
1708433412.2789145,-2.1429483890533447,-1.3340943467668076,-2.5272398630725306,6.113974082260885,1.0182557106018066,-2.0888102690326136
1708433412.280945,-2.14288592338562,-1.3340495389750977,-2.527186457310812,6.113981711655416,1.0182557106018066,-2.0887821356402796
1708433412.282925,-2.1429033279418945,-1.3340495389750977,-2.5271742979632776,6.113986241608419,1.0182394981384277,-2.0887649695025843
1708433412.2850075,-2.1429193019866943,-1.3340495389750977,-2.5272160212146204,6.113969552307882,1.018235206604004,-2.0887821356402796
1708433412.2869575,-2.1429483890533447,-1.3340943318656464,-2.527214829121725,6.113992082863607,1.0182676315307617,-2.088811699544088
1708433412.288927,-2.14288592338562,-1.334033579831459,-2.5272398630725306,6.113986241608419,1.0182557106018066,-2.0888026396380823
1708433412.2909534,-2.142939805984497,-1.3340007227710267,-2.5272353331195276,6.113986241608419,1.018235206604004,-2.0887864271747034
1708433412.292916,-2.1429150104522705,-1.3340495389750977,-2.527236525212423,6.113990771561422,1.0182968378067017,-2.0887821356402796
1708433412.2949152,-2.1429238319396973,-1.3340169948390503,-2.5272517840014856,6.113978493004598,1.0183050632476807,-2.0888407866107386
1708433412.2969227,-2.142960786819458,-1.3340495389750977,-2.527198616658346,6.114023673325338,1.0182557106018066,-2.0887983481036585
1708433412.2989132,-2.1429026126861572,-1.3340276938727875,-2.5271909872638147,6.113986241608419,1.018227219581604,-2.0888384024249476
1708433412.3009384,-2.1428990364074707,-1.334045187836029,-2.5272279421435755,6.113990890770712,1.0182849168777466,-2.088784996663229
1708433412.3029554,-2.1429526805877686,-1.334045172934868,-2.5271831194507044,6.113983022957601,1.0182557106018066,-2.0888236204730433
1708433412.3049893,-2.1429026126861572,-1.3340614599040528,-2.5272191206561487,6.113978612213888,1.0182229280471802,-2.0888145605670374
1708433412.3069623,-2.1428816318511963,-1.334045172934868,-2.52717096010317,6.113969552307882,1.018263339996338,-2.0887940565692347
1708433412.3089256,-2.142939805984497,-1.3340658259442826,-2.5272160212146204,6.114019024163046,1.018247127532959,-2.0888074080096644
1708433412.310924,-2.142911434173584,-1.3340495389750977,-2.527194086705343,6.11400722244338,1.018247127532959,-2.0888193289386194
1708433412.3129299,-2.142890453338623,-1.334045172934868,-2.5272071997271937,6.113977300911703,1.0182600021362305,-2.08877402940859
1708433412.31492,-2.1429150104522705,-1.3340495389750977,-2.52720290819277,6.113953101425924,1.018247127532959,-2.0887983481036585
1708433412.3169715,-2.14288592338562,-1.3340495389750977,-2.5272071997271937,6.113990771561422,1.0182719230651855,-2.0887983481036585
1708433412.3189166,-2.1429367065429688,-1.334016965036728,-2.52716571489443,6.113986241608419,1.0182881355285645,-2.0888145605670374
1708433412.3209283,-2.142981767654419,-1.3340378564647217,-2.527198378239767,6.113998162537374,1.0182514190673828,-2.0887864271747034
1708433412.3229895,-2.142915725708008,-1.3340658259442826,-2.527186457310812,6.114002573281088,1.0182881355285645,-2.0887907187091272
1708433412.324976,-2.1428747177124023,-1.334045172934868,-2.5271831194507044,6.114004242211141,1.0182557106018066,-2.0887907187091272
1708433412.326962,-2.1429519653320312,-1.3340169948390503,-2.5271874109851282,6.113965022354879,1.0182557106018066,-2.0888283888446253
1708433412.3289075,-2.1429686546325684,-1.3340733808330079,-2.5271952787982386,6.113990771561422,1.0182143449783325,-2.0888145605670374
1708433412.3309166,-2.1429860591888428,-1.3340495389750977,-2.5272114912616175,6.113986241608419,1.0183011293411255,-2.0888059774981897
1708433412.3329391,-2.142965078353882,-1.3340614599040528,-2.5271578470813196,6.113998162537374,1.0182514190673828,-2.0887649695025843
1708433412.3349125,-2.142932415008545,-1.3340582710555573,-2.5271621386157435,6.114035117417135,1.0182838439941406,-2.0888074080096644
1708433412.3369586,-2.14290714263916,-1.3340495389750977,-2.5272114912616175,6.11400722244338,1.018247127532959,-2.0887864271747034
1708433412.3389027,-2.142932415008545,-1.3340495389750977,-2.5272114912616175,6.114014613419332,1.0182719230651855,-2.0887954870807093
1708433412.3409147,-2.142935276031494,-1.3340582710555573,-2.5272441546069544,6.113956200867452,1.0182514190673828,-2.088778320943014
1708433412.342923,-2.142894744873047,-1.3340733808330079,-2.5271742979632776,6.113993751793661,1.018263339996338,-2.0887535254107874
1708433412.3449483,-2.1428816318511963,-1.334058241253235,-2.5271502176867884,6.113984691887655,1.0182427167892456,-2.0887559095965784
1708433412.346937,-2.14290714263916,-1.3340700727752228,-2.5271831194507044,6.114002692490377,1.0182838439941406,-2.0888236204730433
1708433412.3489096,-2.14288592338562,-1.3340614599040528,-2.5271831194507044,6.11400722244338,1.0182514190673828,-2.0887940565692347
1708433412.3509102,-2.14290714263916,-1.334045187836029,-2.5272203127490442,6.113990771561422,1.0182838439941406,-2.088811699544088
1708433412.352919,-2.142939805984497,-1.3340495389750977,-2.5272484461413782,6.114004242211141,1.0182229280471802,-2.0887864271747034
1708433412.3549263,-2.142935276031494,-1.334045187836029,-2.52717096010317,6.113981830864706,1.018235206604004,-2.0887821356402796
1708433412.3569725,-2.1429238319396973,-1.334045172934868,-2.527210299168722,6.1140280840690515,1.018235206604004,-2.0887821356402796
1708433412.3589702,-2.1429309844970703,-1.3340495389750977,-2.5271785894977015,6.114035117417135,1.0182394981384277,-2.0888474623309534
1708433412.360929,-2.142911434173584,-1.3340614599040528,-2.52720290819277,6.113986241608419,1.018235206604004,-2.0888236204730433
1708433412.362934,-2.142879009246826,-1.334040806894638,-2.5271788279162806,6.113978493004598,1.0182676315307617,-2.0887907187091272
1708433412.3649516,-2.1429238319396973,-1.3340614599040528,-2.5272160212146204,6.113948690682211,1.018258810043335,-2.0887320677386683
1708433412.3669674,-2.1429309844970703,-1.3340495389750977,-2.5271874109851282,6.11400722244338,1.0182795524597168,-2.0887649695025843
1708433412.3689308,-2.1429483890533447,-1.3340658110431214,-2.5271785894977015,6.114019024163046,1.0183093547821045,-2.0887535254107874
1708433412.3709188,-2.142911434173584,-1.3340538156083603,-2.5271952787982386,6.113977300911703,1.0182676315307617,-2.0888145605670374
1708433412.372971,-2.142932415008545,-1.334074543123581,-2.5271666685687464,6.114002692490377,1.0183331966400146,-2.0887444655047815
1708433412.3749735,-2.142944097518921,-1.3340482872775574,-2.52716571489443,6.113986241608419,1.0182795524597168,-2.0888074080096644
1708433412.376934,-2.142894744873047,-1.3340495389750977,-2.5271831194507044,6.114002692490377,1.0182664394378662,-2.0887606779681605
1708433412.3789213,-2.142915725708008,-1.3340571087649842,-2.52720290819277,6.113993751793661,1.0182676315307617,-2.0888026396380823
1708433412.3808973,-2.142960786819458,-1.3340571087649842,-2.5271788279162806,6.114039647370138,1.0182676315307617,-2.0888193289386194
1708433412.3829257,-2.14290714263916,-1.3340821129134675,-2.527182165776388,6.114002692490377,1.018242597579956,-2.0888145605670374
1708433412.384899,-2.1428983211517334,-1.334045172934868,-2.5272353331195276,6.113981711655416,1.0182514190673828,-2.0887821356402796
1708433412.3869388,-2.1428983211517334,-1.3340821129134675,-2.5272234121905726,6.114035117417135,1.018235206604004,-2.0887864271747034
1708433412.3889177,-2.1429193019866943,-1.3340701025775452,-2.5272279421435755,6.113977300911703,1.0182514190673828,-2.0887773672686976
1708433412.390915,-2.142894744873047,-1.3340248477509995,-2.527259174977438,6.113990771561422,1.0182838439941406,-2.0887983481036585
1708433412.3929458,-2.142911434173584,-1.3340126138976593,-2.5271952787982386,6.1139728901679895,1.018263339996338,-2.0888450781451624
1708433412.3949063,-2.142935276031494,-1.334049553876259,-2.5271742979632776,6.113965022354879,1.0182676315307617,-2.0888059774981897
1708433412.396938,-2.1428983211517334,-1.3340658259442826,-2.527214829121725,6.113986241608419,1.0182881355285645,-2.0887907187091272
1708433412.3989284,-2.14290714263916,-1.3340658259442826,-2.5271952787982386,6.114023554116049,1.018296480178833,-2.0888059774981897
1708433412.4009135,-2.14290714263916,-1.334068925385811,-2.5272114912616175,6.114002573281088,1.018312692642212,-2.0887940565692347
1708433412.4029205,-2.1429643630981445,-1.3340821129134675,-2.5271909872638147,6.114016163140096,1.01827073097229,-2.0887730757342737
1708433412.4049416,-2.1429238319396973,-1.3340777319720765,-2.5271952787982386,6.114044177323141,1.018324375152588,-2.0887892881976526
1708433412.4069347,-2.142928123474121,-1.3340701025775452,-2.5271909872638147,6.113969552307882,1.0183038711547852,-2.0887773672686976
1708433412.4089186,-2.142915725708008,-1.334045187836029,-2.5272160212146204,6.113944160729208,1.0183007717132568,-2.0888102690326136
1708433412.4109895,-2.1429309844970703,-1.3340821129134675,-2.52720290819277,6.113960611611166,1.01827073097229,-2.0887907187091272
1708433412.412934,-2.1429309844970703,-1.3340495389750977,-2.527153555546896,6.114014613419332,1.018336296081543,-2.0888026396380823
1708433412.4149187,-2.142894744873047,-1.3340495389750977,-2.527144734059469,6.1140116331870935,1.0182952880859375,-2.0887535254107874
1708433412.4169612,-2.1429238319396973,-1.3340658259442826,-2.527182165776388,6.114026176720419,1.018336296081543,-2.0887892881976526
1708433412.4189157,-2.1428983211517334,-1.3340538007071991,-2.5271995703326624,6.11396216133193,1.0182952880859375,-2.0888236204730433
1708433412.4209352,-2.142944097518921,-1.334082083111145,-2.5272279421435755,6.113986241608419,1.0183277130126953,-2.0888317267047327
1708433412.42297,-2.142944097518921,-1.334024892454483,-2.5271788279162806,6.113990771561422,1.0183405876159668,-2.0888193289386194
1708433412.4249249,-2.142932415008545,-1.3340335947326203,-2.5272398630725306,6.113990890770712,1.0183277130126953,-2.0887864271747034
1708433412.4269326,-2.142944097518921,-1.3340733808330079,-2.5271952787982386,6.113999831467428,1.0183442831039429,-2.0887940565692347
1708433412.428907,-2.1429026126861572,-1.334058241253235,-2.52720290819277,6.113995301514425,1.0183517932891846,-2.0887697378741663
1708433412.430918,-2.142911434173584,-1.3340213012746354,-2.5272234121905726,6.113974082260885,1.0183277130126953,-2.0887187162982386
1708433412.4329383,-2.1429150104522705,-1.3340495389750977,-2.5271952787982386,6.113983022957601,1.0183277130126953,-2.0888074080096644
1708433412.4349222,-2.142944097518921,-1.3340538007071991,-2.5272279421435755,6.113986241608419,1.018323302268982,-2.0887821356402796
1708433412.4369433,-2.142890453338623,-1.3340495240739365,-2.5272191206561487,6.113981830864706,1.0183813571929932,-2.0888026396380823
1708433412.4389398,-2.1428816318511963,-1.3340863448432465,-2.5272071997271937,6.113990890770712,1.0183442831039429,-2.0887954870807093
1708433412.4409118,-2.14288592338562,-1.3340614599040528,-2.527214829121725,6.113944160729208,1.018319010734558,-2.0887983481036585
1708433412.442964,-2.1428990364074707,-1.334068940286972,-2.5272191206561487,6.1139248488243005,1.0183398723602295,-2.0888074080096644
1708433412.4448967,-2.1429238319396973,-1.3340408664992829,-2.5272398630725306,6.113983022957601,1.0183115005493164,-2.0887649695025843
1708433412.4469016,-2.142928123474121,-1.3340777319720765,-2.5272234121905726,6.113942849427023,1.0183355808258057,-2.0887940565692347
1708433412.4489121,-2.1429193019866943,-1.3340423119119187,-2.527210299168722,6.113974082260885,1.0183892250061035,-2.0887954870807093
1708433412.4508963,-2.142890453338623,-1.3340335947326203,-2.527214829121725,6.113987552910604,1.0183473825454712,-2.0887983481036585
1708433412.4529083,-2.1428589820861816,-1.3340408963016053,-2.5272472540484827,6.113926160126486,1.0183849334716797,-2.0887907187091272
1708433412.4549115,-2.142939805984497,-1.3340335947326203,-2.5272179285632532,6.11393831947402,1.0183180570602417,-2.0887625853167933
1708433412.4569216,-2.1428675651550293,-1.334049553876259,-2.5272679964648646,6.113921510964193,1.0183675289154053,-2.0887535254107874
1708433412.458959,-2.1428990364074707,-1.3340538007071991,-2.5272353331195276,6.1139248488243005,1.0183675289154053,-2.0887697378741663
1708433412.461048,-2.142879009246826,-1.334036411052086,-2.527206007634298,6.113954770355978,1.0183675289154053,-2.08875018755068
1708433412.4629576,-2.1428918838500977,-1.3340007078698655,-2.527238670979635,6.113905179291525,1.0183595418930054,-2.088733975087301
1708433412.4649975,-2.1428675651550293,-1.3340408366969605,-2.527210299168722,6.1138977883155725,1.0183342695236206,-2.0887306372271937
1708433412.4669244,-2.142876148223877,-1.3340408664992829,-2.527234141026632,6.113899695664205,1.0183837413787842,-2.088695828114645
1708433412.468915,-2.142855167388916,-1.3340495389750977,-2.527296845112936,6.113841044693746,1.0183923244476318,-2.0887654463397425
1708433412.4709074,-2.1428847312927246,-1.3340538007071991,-2.527222220097677,6.11383222320632,1.018416166305542,-2.0886648336993616
1708433412.472929,-2.1428470611572266,-1.3340292435935517,-2.527280394230978,6.113920199662008,1.0184240341186523,-2.088620964680807
1708433412.4749298,-2.1428675651550293,-1.334074543123581,-2.5272846857654017,6.113850104599752,1.0184074640274048,-2.08864671388735
1708433412.4769511,-2.1428918838500977,-1.3340363961509247,-2.527288023625509,6.113797771721639,1.0184118747711182,-2.0886343161212366
1708433412.478922,-2.142801523208618,-1.3340712946704407,-2.527288023625509,6.113811361580648,1.0184240341186523,-2.0886223951922815
1708433412.4809396,-2.1428961753845215,-1.3340538156083603,-2.527246061955587,6.113806712418356,1.0184197425842285,-2.0885914007769983
1708433412.4829464,-2.14285945892334,-1.3340249371579667,-2.5272868315326136,6.1137945530708215,1.0184272527694702,-2.08856708208193
1708433412.4849572,-2.1428637504577637,-1.3340777319720765,-2.5272541681872767,6.113773929863729,1.0184568166732788,-2.0885141531573694
1708433412.4869628,-2.1428680419921875,-1.3340378564647217,-2.527283493672506,6.113778459816732,1.0184853076934814,-2.0885022322284144
1708433412.488917,-2.142826795578003,-1.334037871365883,-2.5272584597217005,6.113714086800375,1.0184600353240967,-2.088433090840475
1708433412.49091,-2.1428470611572266,-1.3340336245349427,-2.527328077946798,6.113709556847372,1.018480896949768,-2.088428799306051
1708433412.4929788,-2.142848491668701,-1.3340614599040528,-2.5272911230670374,6.113723027497091,1.0184928178787231,-2.088425938283102
1708433412.4949358,-2.1428399085998535,-1.334049553876259,-2.5272584597217005,6.113685357361593,1.018479824066162,-2.0883153120623987
1708433412.4969492,-2.1428236961364746,-1.3340363514474411,-2.5272911230670374,6.1136618731315515,1.01853346824646,-2.088370148335592
1708433412.4989161,-2.1428558826446533,-1.3340495389750977,-2.527332607899801,6.113650071411886,1.0185322761535645,-2.0882847944842737
1708433412.5009694,-2.1428232192993164,-1.3340378862670441,-2.5272942225085657,6.113646733551779,1.0185322761535645,-2.0882323423968714
1708433412.5029857,-2.1428442001342773,-1.3340452027371903,-2.5273106733905237,6.113589870720663,1.0185604095458984,-2.088203732167379
1708433412.5049384,-2.1427950859069824,-1.3340821129134675,-2.5273762384997767,6.113630282669821,1.0185726881027222,-2.0881980101214808
1708433412.506983,-2.1428897380828857,-1.334029198890068,-2.527306143437521,6.113612401276388,1.018563985824585,-2.088116470967428
1708433412.508935,-2.1427993774414062,-1.3340776872685929,-2.527339045201437,6.113607871323385,1.0185474157333374,-2.0880892912494105
1708433412.5109298,-2.142819404602051,-1.3340658110431214,-2.5273552576648157,6.113579499512472,1.0185844898223877,-2.0880044142352503
1708433412.5129776,-2.142775535583496,-1.3340820682099839,-2.527334753667013,6.113569247513571,1.0185801982879639,-2.0879319349872034
1708433412.5149522,-2.142763137817383,-1.3340821129134675,-2.5273378531085413,6.113555657654562,1.018588900566101,-2.0878809134112757
1708433412.5169525,-2.1427648067474365,-1.3340657961419602,-2.5273543039904993,6.113470423012533,1.018592357635498,-2.0877860228167933
1708433412.5189364,-2.1427347660064697,-1.3340733808330079,-2.5273597876178187,6.113521206169882,1.0185670852661133,-2.0876949469195765
1708433412.5209138,-2.1427559852600098,-1.3340213012746354,-2.527342144642965,6.11345540264205,1.0186121463775635,-2.0876691977130335
1708433412.5229454,-2.1427884101867676,-1.334037871365883,-2.527395788823263,6.113391268044271,1.0186326503753662,-2.0875476042376917
1708433412.524941,-2.1427154541015625,-1.3340292286923905,-2.5273662249194544,6.113350736885824,1.0186326503753662,-2.087458912526266
1708433412.5269346,-2.142731189727783,-1.3340907853892823,-2.527412239705221,6.113388049393453,1.0186808109283447,-2.087416950856344
1708433412.52893,-2.1426830291748047,-1.334021271472313,-2.527412239705221,6.113314974098959,1.0186645984649658,-2.087311569844381
1708433412.5309484,-2.1427154541015625,-1.3340538305095215,-2.5274232069598597,6.113303172379293,1.0186152458190918,-2.0871904532061976
1708433412.5329597,-2.1427001953125,-1.3340658259442826,-2.5273781458484095,6.113319504051962,1.0186645984649658,-2.0871403853045862
1708433412.5349312,-2.1426916122436523,-1.3340538156083603,-2.5274110476123255,6.113224732666769,1.018647313117981,-2.0869572798358362
1708433412.5369601,-2.142679214477539,-1.3340495240739365,-2.5274110476123255,6.113260972290792,1.0186678171157837,-2.0868776480304163
1708433412.5389395,-2.142667770385742,-1.3340538007071991,-2.5274110476123255,6.113232600479879,1.018716812133789,-2.0867651144610804
1708433412.5409708,-2.1426520347595215,-1.3340378564647217,-2.5273903051959437,6.113196837693014,1.0187050104141235,-2.086649719868795
1708433412.542977,-2.1426563262939453,-1.3340495389750977,-2.5274351278888147,6.1130937216575525,1.0187453031539917,-2.086524788533346
1708433412.5449529,-2.1426849365234375,-1.3340378564647217,-2.527430836354391,6.11316083648757,1.0187780857086182,-2.086409393941061
1708433412.5469506,-2.1426358222961426,-1.3340495389750977,-2.5275002161609095,6.113092291146078,1.0187495946884155,-2.0862773100482386
1708433412.5489197,-2.1426286697387695,-1.3340733659318467,-2.527430836354391,6.113080370217123,1.0187451839447021,-2.0861452261554163
1708433412.5509548,-2.142587661743164,-1.3340169948390503,-2.5274632612811487,6.113051759987631,1.018769383430481,-2.086013142262594
1708433412.5529506,-2.1425681114196777,-1.3340658259442826,-2.5274339357959192,6.113080370217123,1.0188053846359253,-2.0858853499041956
1708433412.5549514,-2.1426172256469727,-1.3340495389750977,-2.527487103139059,6.113078820496359,1.018784761428833,-2.0857699553119105
1708433412.556959,-2.1425554752349854,-1.3340300631574173,-2.5274997393237513,6.1130292294319055,1.0188337564468384,-2.085574452077047
1708433412.5589526,-2.1425318717956543,-1.334040806894638,-2.52747089067568,6.112890350609579,1.0187804698944092,-2.0854695479022425
1708433412.56099,-2.142585515975952,-1.334045172934868,-2.527450148259298,6.11293517330245,1.0188219547271729,-2.085254971181051
1708433412.5630455,-2.142536163330078,-1.3340777468732377,-2.527475182210104,6.1129904864128015,1.0188045501708984,-2.085041348134176
1708433412.564944,-2.142491340637207,-1.334045172934868,-2.527482811604635,6.112896311074056,1.0188250541687012,-2.0849183241473597
1708433412.566995,-2.1425375938415527,-1.3340363663486023,-2.5274997393237513,6.112893330841818,1.0188567638397217,-2.084750477467672
1708433412.5689354,-2.1425085067749023,-1.334016965036728,-2.5274952093707483,6.112914192467489,1.018831729888916,-2.0846121946917933
1708433412.5709746,-2.1424765586853027,-1.334045172934868,-2.5275028387652796,6.112860548287191,1.0188899040222168,-2.0843523184405726
1708433412.5729485,-2.1424636840820312,-1.3340495389750977,-2.5275114218341272,6.112862098007955,1.018909215927124,-2.084179226552145
1708433412.574945,-2.1424202919006348,-1.3340495389750977,-2.5275028387652796,6.112826096802511,1.0188636779785156,-2.0839932600604456
1708433412.5769432,-2.142465114593506,-1.3340701025775452,-2.5274863878833216,6.112864839821615,1.018909215927124,-2.0837634245501917
1708433412.5789287,-2.1423845291137695,-1.3340466630509873,-2.5275428930865687,6.112797367363729,1.0189049243927002,-2.083620850239889
1708433412.580944,-2.1424062252044678,-1.3340169501355668,-2.5275548140155237,6.112726080208578,1.018921136856079,-2.08341628709902
1708433412.5829742,-2.1423683166503906,-1.3340256971171875,-2.527583424245016,6.112789022713461,1.0189409255981445,-2.083205048237936
1708433412.584944,-2.1423637866973877,-1.334033579831459,-2.5275548140155237,6.112714040070333,1.018965244293213,-2.082984272633688
1708433412.5869656,-2.142392635345459,-1.3340582114509125,-2.527534071599142,6.112621652870931,1.0189483165740967,-2.082754437123434
1708433412.588944,-2.142353057861328,-1.3340495389750977,-2.5275748411761683,6.112640845566549,1.018960952758789,-2.082531277333395
1708433412.590968,-2.142301082611084,-1.3340495240739365,-2.5276041666613978,6.112625944405355,1.0190064907073975,-2.082236115132467
1708433412.5929706,-2.1422924995422363,-1.334009365444519,-2.5275748411761683,6.11262725570754,1.018989086151123,-2.0819886366473597
1708433412.594946,-2.142268419265747,-1.3339931827834626,-2.527591053639547,6.112582433014669,1.0189803838729858,-2.0818517843829554
1708433412.5969763,-2.1422929763793945,-1.3340583008578797,-2.527623716984884,6.1125467894370935,1.0190337896347046,-2.081528965626852
1708433412.5989332,-2.1422324180603027,-1.3340538007071991,-2.527640167866842,6.112548458367147,1.019070029258728,-2.0812647978412073
1708433412.6009552,-2.1422181129455566,-1.3340049547008057,-2.5276106039630335,6.112474787026205,1.019020676612854,-2.081020180379049
1708433412.6029866,-2.142249584197998,-1.3340212416699906,-2.5276477972613733,6.112425434380331,1.0190613269805908,-2.0807817617999476
1708433412.6049876,-2.1421566009521484,-1.3340582710555573,-2.5276599566089075,6.112413513451376,1.019081950187683,-2.08046800294985
1708433412.6069589,-2.1421687602996826,-1.3340137910893937,-2.5276432673083704,6.112416732102194,1.0190894603729248,-2.0801628271686
1708433412.608944,-2.142152786254883,-1.3340345186046143,-2.5276599566089075,6.112398731499471,1.0190775394439697,-2.0798338095294397
1708433412.6109679,-2.142181873321533,-1.3340345186046143,-2.5276957193957728,6.112355220108785,1.0190808773040771,-2.079521958027975
1708433412.6129696,-2.1420962810516357,-1.3339810830405732,-2.5276432673083704,6.112359750061788,1.0190926790237427,-2.0792349020587366
1708433412.6149375,-2.1421093940734863,-1.333960012798645,-2.527663056050436,6.112295377045431,1.0190839767456055,-2.078909222279684
1708433412.6169763,-2.1420724391937256,-1.3339152050069352,-2.5277162233935755,6.112271535187521,1.0191419124603271,-2.0785892645465296
1708433412.6189191,-2.1420645713806152,-1.334010736351349,-2.527646843587057,6.112212884217062,1.01910400390625,-2.0783594290362757
1708433412.6209328,-2.14208984375,-1.3339988005212327,-2.527703110371725,6.112223732262411,1.0191903114318848,-2.078033749257223
1708433412.62292,-2.1420645713806152,-1.333977760081627,-2.5276945273028772,6.112237083702841,1.0191859006881714,-2.0776761213885706
1708433412.6249218,-2.142054557800293,-1.3339866262725373,-2.527707640324728,6.112204301148214,1.019181489944458,-2.0773966948138636
1708433412.6270223,-2.1419923305511475,-1.3339285117438813,-2.527707640324728,6.112099754601278,1.0191936492919922,-2.0770424048053187
1708433412.6289306,-2.1419930458068848,-1.3339584332755585,-2.5277558008777063,6.1121113179023645,1.0192261934280396,-2.0767224470721644
1708433412.6309593,-2.1419577598571777,-1.3339328628829499,-2.5277019182788294,6.112108695297994,1.0191806554794312,-2.0763877073871058
1708433412.63292,-2.14190411567688,-1.3339944195798417,-2.5276899973498743,6.11204885223464,1.0192830562591553,-2.0761025587665003
1708433412.634934,-2.1419460773468018,-1.333965854053833,-2.52776009241213,6.111994850426473,1.0192087888717651,-2.0757139364825647
1708433412.6369934,-2.141925573348999,-1.3339777749827881,-2.5277512709247034,6.111989009171285,1.0192787647247314,-2.07532769838442
1708433412.63891,-2.141913414001465,-1.3339614582112809,-2.5277350584613245,6.111948716431417,1.0192862749099731,-2.074958149586813
1708433412.6409311,-2.1418538093566895,-1.3339417588761826,-2.5277512709247034,6.111890303879537,1.0193146467208862,-2.0746353308307093
1708433412.6429431,-2.1418864727020264,-1.3339584332755585,-2.5277558008777063,6.111839401512899,1.0193146467208862,-2.074312988911764
1708433412.6449192,-2.1418542861938477,-1.3339213144830246,-2.5277839342700403,6.1118483422096155,1.0192854404449463,-2.0739854017840784
1708433412.6469507,-2.1418092250823975,-1.3339049232057114,-2.5277796427356165,6.11183642128066,1.0192854404449463,-2.0735753218280237
1708433412.6489084,-2.141818046569824,-1.3339417737773438,-2.527738157902853,6.111829030304708,1.019309163093567,-2.0731986204730433
1708433412.6509326,-2.1417970657348633,-1.3338765364936371,-2.5277872721301478,6.111767756729879,1.0193135738372803,-2.072800938283102
1708433412.6529255,-2.141745090484619,-1.3339018386653443,-2.5277872721301478,6.111761796265402,1.019321322441101,-2.072465721760885
1708433412.6549025,-2.1417741775512695,-1.3339584183743973,-2.5277872721301478,6.111758816033163,1.0193336009979248,-2.072085682545797
1708433412.6569374,-2.141753673553467,-1.3339594167521973,-2.527754608784811,6.111636268883505,1.0193825960159302,-2.0716970602618616
1708433412.6589255,-2.1417579650878906,-1.3339137893966218,-2.5277698675738733,6.111682402878561,1.0193660259246826,-2.071287457142965
1708433412.660964,-2.1417622566223145,-1.3339670908502121,-2.5277786890613,6.111568677216329,1.0193694829940796,-2.0708816687213343
1708433412.663016,-2.1417295932769775,-1.3338931661895295,-2.5278201738940638,6.111568677216329,1.0193901062011719,-2.0705435911761683
1708433412.6649399,-2.1417174339294434,-1.3339300763658066,-2.527823273335592,6.111582147866049,1.0193814039230347,-2.0701921621905726
1708433412.666979,-2.141690254211426,-1.3339549017003556,-2.527832094823019,6.111501800804891,1.0194264650344849,-2.0697253386126917
1708433412.668927,-2.1417205333709717,-1.3339018535665055,-2.527844015751974,6.111456620484152,1.0194013118743896,-2.0692809263812464
1708433412.6709127,-2.1416046619415283,-1.3339257699302216,-2.5278189818011683,6.111479270249166,1.0194220542907715,-2.0689008871661585
1708433412.6729403,-2.141637086868286,-1.3339107495597382,-2.5278144518481653,6.111413585930624,1.019405484199524,-2.0685089270221155
1708433412.6749225,-2.141646385192871,-1.3338807684234162,-2.5278058687793177,6.111410605698385,1.0194264650344849,-2.0680797735797327
1708433412.6769924,-2.141608953475952,-1.3339434278062363,-2.5278354326831263,6.111362683563986,1.0194578170776367,-2.0676515738116663
1708433412.6789188,-2.1416378021240234,-1.333897427921631,-2.5278189818011683,6.111341583519735,1.0194706916809082,-2.0672672430621546
1708433412.6809268,-2.1416234970092773,-1.3339790564826508,-2.527851645146505,6.111335742264547,1.0194134712219238,-2.0667899290667933
1708433412.682975,-2.1415786743164062,-1.3338896197131653,-2.5278340021716517,6.111250388413229,1.019474744796753,-2.066349808369772
1708433412.68493,-2.141590118408203,-1.3338732433370133,-2.527912680302755,6.111283528595724,1.0194532871246338,-2.0659125486956995
1708433412.6869574,-2.141545057296753,-1.3338940900615235,-2.5278592745410364,6.11127136924819,1.0194544792175293,-2.0655224959002894
1708433412.6889584,-2.141542434692383,-1.33393448710952,-2.527851645146505,6.111240136414327,1.019432783126831,-2.0650437513934534
1708433412.690984,-2.141530990600586,-1.3339151752046128,-2.5278309027301233,6.111159312516012,1.0194616317749023,-2.064648453389303
1708433412.692957,-2.1415510177612305,-1.3338931065848847,-2.527862612401144,6.11113070228652,1.01947021484375,-2.064194981251852
1708433412.694932,-2.1415553092956543,-1.33390727758918,-2.5278385321246546,6.111124861031332,1.0194778442382812,-2.0638120810138147
1708433412.6969523,-2.1414947509765625,-1.3339315217784424,-2.5278385321246546,6.111063825875082,1.0195188522338867,-2.0633466879474085
1708433412.6989257,-2.1414904594421387,-1.3338984859040757,-2.5278471151935022,6.111071097641744,1.0195059776306152,-2.062885586415426
1708433412.7009192,-2.1414384841918945,-1.3339638274959107,-2.5278385321246546,6.110999452858724,1.0195268392562866,-2.062429730092184
1708433412.7029464,-2.1414642333984375,-1.3338658970645447,-2.5278669039355677,6.1110501168067834,1.0195225477218628,-2.0619805494891565
1708433412.7049239,-2.141418933868408,-1.333874673848488,-2.5278506914721888,6.111014115601339,1.0195181369781494,-2.061545197163717
1708433412.7069516,-2.141418933868408,-1.3338416677764435,-2.5278669039355677,6.110932099610128,1.0195181369781494,-2.0610807577716272
1708433412.7089036,-2.141352891921997,-1.3338821542314072,-2.527841869984762,6.110938179283895,1.0195138454437256,-2.0606091658221644
1708433412.7109487,-2.1414036750793457,-1.3338985008052369,-2.527890984212057,6.110902058869161,1.0195181369781494,-2.060124222432272
1708433412.7129405,-2.1413824558258057,-1.3338539165309449,-2.5279117266284388,6.1108693955238245,1.0195462703704834,-2.0597146193133753
1708433412.7149236,-2.1413745880126953,-1.3339029115489502,-2.5278833548175257,6.110841023712911,1.019485354423523,-2.059319798146383
1708433412.7169437,-2.1413745880126953,-1.3338582676700135,-2.527853790913717,6.110746729164877,1.019516944885254,-2.0588706175433558
1708433412.7189133,-2.1413516998291016,-1.3338746440461655,-2.527862612401144,6.110772239952841,1.0195300579071045,-2.0583556334124964
1708433412.7209156,-2.141326427459717,-1.3338865798762818,-2.527879063283102,6.110724198609152,1.0195225477218628,-2.057957474385397
1708433412.7229328,-2.1413183212280273,-1.333895505671837,-2.527870241795675,6.110688555031576,1.0195300579071045,-2.0575016180621546
1708433412.7249248,-2.1413674354553223,-1.3338985008052369,-2.5279114882098597,6.110684025078573,1.0195374488830566,-2.0571215788470667
1708433412.726961,-2.1413400173187256,-1.333829866056778,-2.527829710637228,6.1106570837791345,1.0195331573486328,-2.0566557089435022
1708433412.728939,-2.141277551651001,-1.3338865798762818,-2.527890984212057,6.110616671829977,1.0195837020874023,-2.0561893622027796
1708433412.7309287,-2.1413028240203857,-1.3338614267161866,-2.5278952757464808,6.110633003502645,1.019562005996704,-2.055845562611715
1708433412.73294,-2.141343593597412,-1.3338701885989686,-2.527879063283102,6.110555279045858,1.0195212364196777,-2.055373493825094
1708433412.734914,-2.1413116455078125,-1.3338209402612229,-2.527886692677633,6.110585081368246,1.0195705890655518,-2.054966751729147
1708433412.7369337,-2.141274929046631,-1.3338746589473267,-2.5278506914721888,6.110516655236044,1.0195462703704834,-2.0545371214496058
1708433412.7389152,-2.141274929046631,-1.3338298362544556,-2.527870241795675,6.110488164215841,1.0195374488830566,-2.0540688673602503
1708433412.740908,-2.141274929046631,-1.3338672381690522,-2.527890984212057,6.11047779300765,1.0195374488830566,-2.0537050406085413
1708433412.7429137,-2.1411807537078857,-1.3338628274253388,-2.527870241795675,6.110474812775411,1.0195589065551758,-2.053243939076559
1708433412.7449207,-2.1412553787231445,-1.3338416826776047,-2.5278952757464808,6.110507714539327,1.0195705890655518,-2.052828613911764
1708433412.7469504,-2.141242504119873,-1.3338999164155503,-2.527858082448141,6.110450613289633,1.0195631980895996,-2.0523627440081995
1708433412.748923,-2.141263961791992,-1.3338372570327302,-2.5278952757464808,6.110364186554708,1.0195705890655518,-2.0519378821002405
1708433412.750924,-2.141263961791992,-1.3338093620589753,-2.527879063283102,6.11033986785964,1.0195631980895996,-2.0515578428851526
1708433412.7529411,-2.141247272491455,-1.3338968318751832,-2.5278952757464808,6.110412108689108,1.0195794105529785,-2.0511840025531214
1708433412.7549353,-2.1412315368652344,-1.3338151437095185,-2.527862612401144,6.110411989479818,1.0195419788360596,-2.0507009665118616
1708433412.7569947,-2.1412315368652344,-1.3338093322566529,-2.527853790913717,6.110374676972189,1.0195419788360596,-2.0503581205951136
1708433412.7589278,-2.141190767288208,-1.3338359010270615,-2.5278952757464808,6.1103505966956995,1.0195374488830566,-2.0499661604510706
1708433412.7609499,-2.1412158012390137,-1.3338138324073334,-2.527923647557394,6.110364067345419,1.0195751190185547,-2.049544636403219
1708433412.762967,-2.141197919845581,-1.333810643558838,-2.527879063283102,6.110314833908834,1.0195631980895996,-2.049145046864645
1708433412.7649984,-2.1412110328674316,-1.3338062328151246,-2.5278833548175257,6.110257851868429,1.0195419788360596,-2.0488012472735804
1708433412.7669847,-2.141237497329712,-1.3338461828282853,-2.527890984212057,6.110236990242758,1.0195631980895996,-2.048419777547018
1708433412.7689288,-2.1412243843078613,-1.3338195842555542,-2.5279203096972864,6.110271441727438,1.0195705890655518,-2.0480015913592737
1708433412.7709413,-2.1412196159362793,-1.3338194650462647,-2.5278506914721888,6.1102415201957605,1.0195257663726807,-2.047666851674215
1708433412.7729473,-2.1411373615264893,-1.3338385385325928,-2.527902905141012,6.110187279969015,1.0195419788360596,-2.0472410360919397
1708433412.7749367,-2.1411750316619873,-1.3337568801692505,-2.527883593236105,6.110264050751486,1.0195257663726807,-2.0468972365008753
1708433412.7770014,-2.1411757469177246,-1.333819569354393,-2.5278952757464808,6.110224950104513,1.0195015668869019,-2.04653245607485
1708433412.7789433,-2.1411547660827637,-1.3337984842113038,-2.527874771748678,6.1102521298225305,1.0195674896240234,-2.046208206807272
1708433412.7809355,-2.141167163848877,-1.333782122736313,-2.5278833548175257,6.110195386200704,1.0195343494415283,-2.0458434263812464
1708433412.782956,-2.1411924362182617,-1.3338403415730973,-2.5278506914721888,6.110211837082662,1.0194810628890991,-2.045511070881979
1708433412.7849474,-2.141167163848877,-1.3337953847697754,-2.527890984212057,6.110225307732382,1.0194690227508545,-2.0452197233783167
1708433412.7869523,-2.1411843299865723,-1.333811731343605,-2.5278833548175257,6.11020444610671,1.019485354423523,-2.0448949972735804
1708433412.7889376,-2.1411519050598145,-1.3337702018073578,-2.5279040972339075,6.110199916153707,1.0195059776306152,-2.044607464467184
1708433412.790927,-2.1411757469177246,-1.3337909889272233,-2.527829710637228,6.110145795136251,1.0194897651672363,-2.0442875067340296
1708433412.793004,-2.141171932220459,-1.3337449890426178,-2.5278833548175257,6.110205757408895,1.019510269165039,-2.0439937750445765
1708433412.79493,-2.1411519050598145,-1.3337776225856324,-2.5278998056994837,6.110187756806173,1.0195146799087524,-2.0436723867999476
1708433412.797,-2.1411590576171875,-1.3337998402169724,-2.5278964678393763,6.110112654953756,1.0194416046142578,-2.0434215704547327
1708433412.7989242,-2.1411800384521484,-1.3337702018073578,-2.5278592745410364,6.11013816574172,1.0194621086120605,-2.043177906666891
1708433412.8009133,-2.1411757469177246,-1.3337953847697754,-2.527858082448141,6.110086071282186,1.0194165706634521,-2.0428975264178675
1708433412.8029187,-2.141171932220459,-1.3337179583362122,-2.527862612401144,6.110107052117147,1.0194296836853027,-2.042621437703268
1708433412.8049636,-2.1411404609680176,-1.333795354967453,-2.5278471151935022,6.110102522164144,1.0194501876831055,-2.042319122944967
1708433412.8069336,-2.1411547660827637,-1.3337342006019135,-2.5278506914721888,6.110062229424276,1.0194177627563477,-2.0421302954303187
1708433412.8089275,-2.1411232948303223,-1.3337165874293824,-2.527900997792379,6.110086071282186,1.0194220542907715,-2.0419095198260706
1708433412.8109336,-2.1411633491516113,-1.3337208789638062,-2.5278266111956995,6.110111462860861,1.0194307565689087,-2.041624371205465
1708433412.8129628,-2.1412124633789062,-1.3337549579194565,-2.527851645146505,6.1101159928138635,1.019389271736145,-2.0414045492755335
1708433412.8149533,-2.1411924362182617,-1.3337835532477875,-2.5278592745410364,6.110113012581625,1.019439458847046,-2.0411890188800257
1708433412.8169723,-2.141171455383301,-1.3337583106807251,-2.5278144518481653,6.110078680306234,1.019385814666748,-2.0409186522113245
1708433412.8189323,-2.1411519050598145,-1.3337638241103669,-2.5278549830066126,6.110111462860861,1.0193617343902588,-2.0407846609698694
1708433412.8209262,-2.1411967277526855,-1.3337134283832093,-2.527868096028463,6.110117542534628,1.0193814039230347,-2.0405638853656214
1708433412.8229406,-2.1411519050598145,-1.3337672066739579,-2.527851645146505,6.110059249192037,1.019386887550354,-2.0403807798968714
1708433412.8249536,-2.1411561965942383,-1.3337626916221161,-2.527835194264547,6.110033619194784,1.0193170309066772,-2.040164295827047
1708433412.82699,-2.1411361694335938,-1.3337682050517579,-2.5278144518481653,6.1100425598915,1.019321322441101,-2.04002029100527
1708433412.8289173,-2.1411633491516113,-1.3337505620769043,-2.5278101603137415,6.110050308495321,1.0193257331848145,-2.039811913167135
1708433412.8309245,-2.1411633491516113,-1.33368073523555,-2.5278189818011683,6.110108482628622,1.0192811489105225,-2.0397141615497034
1708433412.833017,-2.141143321990967,-1.333726705317833,-2.527832094823019,6.110038029938497,1.019288420677185,-2.0395200888263147
1708433412.8349216,-2.1411519050598145,-1.3337628108314057,-2.5277817885028284,6.110068309098043,1.0192731618881226,-2.0393970648394983
1708433412.8369837,-2.1411361694335938,-1.3337311160615464,-2.527774159108297,6.110068309098043,1.0192699432373047,-2.039241139088766
1708433412.8389592,-2.1411476135253906,-1.333701567058899,-2.527761999760763,6.110051619797506,1.019261360168457,-2.0390756765948694
1708433412.840919,-2.1411590576171875,-1.3336821359447022,-2.5277708212481897,6.110084759980001,1.0192328691482544,-2.0389931837665003
1708433412.8429644,-2.1411633491516113,-1.3336821657470246,-2.5277708212481897,6.11005316951827,1.0191762447357178,-2.038835350667135
1708433412.844921,-2.141127586364746,-1.3337223094752808,-2.5277589003192347,6.110075700073995,1.0192174911499023,-2.038769547139303
1708433412.846953,-2.1411476135253906,-1.333702878361084,-2.5277307669269007,6.110072839051046,1.0191562175750732,-2.038666073475973
1708433412.8489237,-2.1411190032958984,-1.3337311160615464,-2.5277426878558558,6.110047089844503,1.0191770792007446,-2.038598362599508
1708433412.850939,-2.141188621520996,-1.3337637943080445,-2.5277512709247034,6.110072839051046,1.019181489944458,-2.0384963194476526
1708433412.8530045,-2.141127586364746,-1.3337028485587616,-2.5277512709247034,6.109994637757101,1.0191617012023926,-2.0383999983416956
1708433412.8549023,-2.141160726547241,-1.333682121043541,-2.5277262369738978,6.110030638962545,1.0191487073898315,-2.038356606160299
1708433412.8569276,-2.1411561965942383,-1.3337148141912003,-2.5277438799487513,6.110030638962545,1.0192031860351562,-2.038309876118795
1708433412.8589315,-2.141171455383301,-1.333707259302475,-2.5277350584613245,6.110060560494222,1.0191171169281006,-2.03829795518984
1708433412.8609471,-2.141171932220459,-1.3337280315211792,-2.527705732976095,6.110072839051046,1.0190925598144531,-2.038245503102438
1708433412.8629532,-2.14113187789917,-1.333689646129944,-2.5277019182788294,6.110098111420431,1.0191094875335693,-2.0382750670062464
1708433412.8649642,-2.141122579574585,-1.33375936866317,-2.5277631918536585,6.109994637757101,1.019097089767456,-2.0382140318499964
1708433412.8669894,-2.1411633491516113,-1.3337072742036362,-2.527698818837301,6.110048639565267,1.0191013813018799,-2.0382350126849573
1708433412.868975,-2.1411547660827637,-1.3336999130300065,-2.5277231375323694,6.11006377914504,1.0191268920898438,-2.038205925618307
1708433412.8709235,-2.141143321990967,-1.3337324869683762,-2.527710739766256,6.110048639565267,1.0190775394439697,-2.0382469336139124
1708433412.8729618,-2.1411757469177246,-1.3337236207774659,-2.5276780764209192,6.110051619797506,1.0190404653549194,-2.0382540861712855
1708433412.8749528,-2.1411757469177246,-1.3336998981288453,-2.5276618639575403,6.110080110817709,1.019073247909546,-2.038326088582174
1708433412.8770006,-2.1411633491516113,-1.3337028485587616,-2.527646843587057,6.110086309700765,1.0190329551696777,-2.0383742491351526
1708433412.8789582,-2.141209840774536,-1.3336953681758423,-2.527682606373922,6.110002505570211,1.019041657447815,-2.038431469594137
1708433412.880942,-2.1411843299865723,-1.3337103885463257,-2.527642313634054,6.110035168915548,1.0190337896347046,-2.0385368506061
1708433412.8829505,-2.1411843299865723,-1.3336865168860932,-2.527663056050436,6.110048639565267,1.0190293788909912,-2.0385544935809534
1708433412.884984,-2.14121675491333,-1.3336658042720337,-2.5276346842395228,6.110035288124838,1.0189478397369385,-2.0386388937579554
1708433412.8869596,-2.141167640686035,-1.3336702150157471,-2.5276182333575647,6.110035168915548,1.018960952758789,-2.0387004057513636
1708433412.8889658,-2.1411476135253906,-1.3337161999991913,-2.527646843587057,6.110002386360922,1.018960952758789,-2.0387466589557093
1708433412.8909578,-2.1411633491516113,-1.3336668771556397,-2.5276761690722864,6.11001883724288,1.0189976692199707,-2.038861099873678
1708433412.8929627,-2.141188621520996,-1.333671287899353,-2.5276106039630335,6.110014307289877,1.0189452171325684,-2.038919750844137
1708433412.894967,-2.141188621520996,-1.3336835366538544,-2.5276227633105677,6.11001883724288,1.0189614295959473,-2.0390217939959925
1708433412.896977,-2.1411633491516113,-1.333690957432129,-2.5276270548449915,6.110035168915548,1.018912434577942,-2.0390971342669886
1708433412.8989658,-2.1411519050598145,-1.3336909723332901,-2.5276148954974573,6.110036837845602,1.0189168453216553,-2.0392215887652796
1708433412.9009454,-2.141167640686035,-1.3336702150157471,-2.527668539677755,6.110060560494222,1.018880009651184,-2.0393250624286097
1708433412.902931,-2.1411232948303223,-1.3337161999991913,-2.5275941530810755,6.110044228821554,1.0188767910003662,-2.039511028920309
1708433412.9050019,-2.141188144683838,-1.3336790365031739,-2.5276103655444544,6.109978186875143,1.018909215927124,-2.039572540913717
1708433412.9069314,-2.1411843299865723,-1.3337161999991913,-2.527652088795797,6.110023247986593,1.0188930034637451,-2.039795223866598
1708433412.9089565,-2.1411547660827637,-1.3337369424155732,-2.5275941530810755,6.110036837845602,1.018843650817871,-2.039943520222799
1708433412.9109488,-2.1411547660827637,-1.333690957432129,-2.5276106039630335,6.1100114462669275,1.0188077688217163,-2.0401113669024866
1708433412.9129705,-2.1411843299865723,-1.3336623770049592,-2.5276313463794153,6.109999167710104,1.0188610553741455,-2.0402420202838343
1708433412.9149551,-2.14113187789917,-1.3336460453322907,-2.5275736490832728,6.110003697663107,1.0188535451889038,-2.040476147328512
1708433412.9169679,-2.141171932220459,-1.3336613339236756,-2.5275705496417444,6.1099856970603845,1.0187914371490479,-2.040668312703268
1708433412.9189553,-2.1411633491516113,-1.3337562841228028,-2.527644459401266,6.1099891541297815,1.0187879800796509,-2.0407994429217737
1708433412.9209602,-2.1411561965942383,-1.333674670462944,-2.5276148954974573,6.109972464829244,1.018816351890564,-2.0410125891314905
1708433412.9229784,-2.141165018081665,-1.3337161850980301,-2.527607504521505,6.110005128174581,1.0187835693359375,-2.0412285963641565
1708433412.9249508,-2.1411314010620117,-1.3336865466884156,-2.527583424245016,6.109915482788839,1.0188207626342773,-2.041428867970602
1708433412.9269676,-2.1411492824554443,-1.3337561947158356,-2.527607504521505,6.109899031906881,1.0188294649124146,-2.0416892210589808
1708433412.9289622,-2.141115665435791,-1.3336940568736573,-2.527628008519308,6.10991536357955,1.0188294649124146,-2.041926685963766
1708433412.9309561,-2.1410999298095703,-1.333689646129944,-2.527595345173971,6.109917032509603,1.0187594890594482,-2.042183224354879
1708433412.9329784,-2.141104221343994,-1.3336657744697114,-2.5275865236865442,6.109873997956075,1.018796682357788,-2.0424512068377894
1708433412.9349773,-2.1410322189331055,-1.333702878361084,-2.5275779406176966,6.109861957817831,1.018796682357788,-2.0426834265338343
1708433412.9369407,-2.1410765647888184,-1.3336984527162095,-2.5275822321521204,6.109792935639181,1.0188337564468384,-2.0429509321795862
1708433412.938932,-2.1409835815429688,-1.3336865615895768,-2.5275617281543177,6.109745132714071,1.0187804698944092,-2.0432570616351526
1708433412.9409935,-2.140984058380127,-1.3336821359447022,-2.527652088795797,6.109683620720663,1.0188053846359253,-2.04350454012026
1708433412.9429336,-2.140944480895996,-1.3337192249349137,-2.5275583902942103,6.109657037049093,1.0188337564468384,-2.0437477270709437
1708433412.9449677,-2.1409249305725098,-1.3337192100337525,-2.527599875126974,6.10962866523818,1.0188535451889038,-2.0440567175494593
1708433412.9469905,-2.14089298248291,-1.3338056367686768,-2.527623716984884,6.109592664032736,1.018796682357788,-2.0443289915667933
1708433412.9489646,-2.1408321857452393,-1.3337355715087433,-2.5276270548449915,6.109598862915792,1.0188088417053223,-2.044694725667135
1708433412.950979,-2.140780448913574,-1.3337637347033997,-2.5276106039630335,6.109525668412008,1.0188697576522827,-2.044929329548971
1708433412.9529607,-2.1407482624053955,-1.333689661031105,-2.5275986830340784,6.109492528229513,1.018816351890564,-2.045245949422018
1708433412.9549487,-2.1407322883605957,-1.3337297302535553,-2.5276313463794153,6.109477746277609,1.0188286304473877,-2.045563046132223
1708433412.9569728,-2.140709400177002,-1.3337518882802506,-2.5276106039630335,6.109430062561788,1.0188045501708984,-2.045941177998678
1708433412.9589384,-2.1406097412109375,-1.3337848794511338,-2.5276060740100306,6.109323727875509,1.018847942352295,-2.046244446431295
1708433412.9609702,-2.140577793121338,-1.3337430369905015,-2.5276477972613733,6.109254944115438,1.0188610553741455,-2.0465834776507776
1708433412.9629805,-2.1405258178710938,-1.3337672066739579,-2.5276511351214808,6.109293925553121,1.0188274383544922,-2.046929184590475
1708433412.9649754,-2.140509843826294,-1.333697111611702,-2.527642313634054,6.109250533371725,1.0188729763031006,-2.0472281614886683
1708433412.9669876,-2.140404224395752,-1.3337848049453278,-2.527674976979391,6.109210121422567,1.0189297199249268,-2.0476062933551233
1708433412.9689484,-2.140369415283203,-1.3337460619262238,-2.527682606373922,6.109133708267965,1.0189377069473267,-2.0479396025287073
1708433412.9710104,-2.140285015106201,-1.3337372702411194,-2.52771503130068,6.1090887663658044,1.0189334154129028,-2.048300568257467
1708433412.9729779,-2.1402220726013184,-1.3338028949550171,-2.5277062098132532,6.109047162323751,1.0189814567565918,-2.0486963430987757
1708433412.9749317,-2.1401212215423584,-1.333790974026062,-2.5277555624591272,6.108938085823812,1.0189847946166992,-2.049073044453756
1708433412.9769988,-2.14003849029541,-1.3337776523879548,-2.5277796427356165,6.108899104386129,1.0190131664276123,-2.0494816938983362
1708433412.9789522,-2.139998435974121,-1.3337939989617844,-2.5278080145465296,6.108840811043539,1.019020676612854,-2.049866024647848
1708433412.9809651,-2.1399073600769043,-1.3338715595057984,-2.5278201738940638,6.1087227938468835,1.0190491676330566,-2.0502899328814905
1708433412.9829574,-2.1398277282714844,-1.3338746589473267,-2.527811352406637,6.108615267067709,1.0190491676330566,-2.0506184736834925
1708433412.9849467,-2.139718532562256,-1.3338940900615235,-2.527868096028463,6.108494031220236,1.019097089767456,-2.0510485808001917
1708433412.9869416,-2.1395864486694336,-1.333935947423317,-2.5278757254229944,6.108386504441061,1.0191094875335693,-2.0514066855060022
1708433412.988935,-2.139437675476074,-1.333882139330246,-2.527890984212057,6.108243095665731,1.0191748142242432,-2.0518820921527308
1708433412.990925,-2.139310121536255,-1.3339181405356904,-2.527931038533346,6.108136760979452,1.0191859006881714,-2.052248779927389
1708433412.9929714,-2.1392269134521484,-1.333925725226738,-2.5279555956469935,6.107995974808492,1.0192055702209473,-2.052669350300924
1708433412.9949176,-2.139120578765869,-1.3339627546123047,-2.5280161539660853,6.107857095986166,1.0192861557006836,-2.0530646483050745
1708433412.9969373,-2.1389591693878174,-1.3339988452247162,-2.528015200291769,6.10768078544692,1.0193103551864624,-2.0535104910479944
1708433412.9989426,-2.1388518810272217,-1.3339732748321076,-2.5280588308917444,6.107565867691793,1.0193170309066772,-2.0539429823504847
1708433413.0009725,-2.1386849880218506,-1.3339899343303223,-2.5280750433551233,6.107365476876058,1.019398808479309,-2.054380242024557
1708433413.0029705,-2.138568639755249,-1.3340300482562562,-2.5281158129321497,6.107271420746603,1.0194458961486816,-2.054840866719381
1708433413.0049376,-2.138404607772827,-1.3340335947326203,-2.528158966694967,6.1070453999336145,1.0195026397705078,-2.055256191884176
1708433413.0069358,-2.1382901668548584,-1.334057093863823,-2.528174702321188,6.1069198725517175,1.0195343494415283,-2.0556891600238245
1708433413.0089698,-2.1381051540374756,-1.3341181141189118,-2.5283380190478724,6.106691467552938,1.0196512937545776,-2.0561092535602015
1708433413.0109534,-2.1379785537719727,-1.3340842884830018,-2.528328243886129,6.106486308365621,1.019720435142517,-2.056598965321676
1708433413.012952,-2.1377665996551514,-1.3341899526170273,-2.528339211140768,6.106395351677694,1.0198163986206055,-2.0570271650897425
1708433413.0150247,-2.1375999450683594,-1.3341811460307618,-2.5284081141101282,6.1061099646385095,1.0198516845703125,-2.057495419179098
1708433413.0169702,-2.1373984813690186,-1.3342391413501282,-2.528438393269674,6.105918514519491,1.019944429397583,-2.057904068623678
1708433413.0189466,-2.1372077465057373,-1.3341917854598542,-2.5284908453570765,6.105682360916891,1.0200536251068115,-2.05833608308901
1708433413.0209363,-2.1370246410369873,-1.334310532813408,-2.5285759607898157,6.105466830521383,1.0200963020324707,-2.0587571302997034
1708433413.023047,-2.1368048191070557,-1.334285483961441,-2.5286391417132776,6.105190384178915,1.020168662071228,-2.059249226246969
