Eg3-git/Classifiers/Data Collection/u1/u1www5_ur3e_joint_states.csv
time,elbow_joint,shoulder_lift_joint,shoulder_pan_joint,wrist_1_joint,wrist_2_joint,wrist_3_joint
1708433728.7096949,-2.141982316970825,-1.3335318875363846,-2.5267723242389124,6.110877024918356,1.017719030380249,-3.0626309553729456
1708433728.711662,-2.141970634460449,-1.3335646402886887,-2.5267558733569544,6.110896217613973,1.0176985263824463,-3.0626209417926233
1708433728.7137182,-2.141982316970825,-1.3335233491710206,-2.5267377535449427,6.110872733383932,1.0177147388458252,-3.0626893679248255
1708433728.7156994,-2.141932725906372,-1.3335071218064805,-2.5267842451678675,6.110916960030355,1.017707347869873,-3.062721554433004
1708433728.7177014,-2.1419777870178223,-1.3335190576365967,-2.5267301241504114,6.1109050391014,1.0176860094070435,-3.0627973715411585
1708433728.7196875,-2.1419451236724854,-1.333486945634224,-2.5267391840564173,6.110929238587179,1.017723560333252,-3.062817398701803
1708433728.7216718,-2.1419708728790283,-1.3335028153708954,-2.5267558733569544,6.110900628357687,1.017669677734375,-3.0628796259509485
1708433728.7236996,-2.141986608505249,-1.3334869009307404,-2.5267513434039515,6.110851633339681,1.0176904201507568,-3.062988821660177
1708433728.7256913,-2.141975164413452,-1.3335071218064805,-2.5267632643329065,6.110930192261495,1.0177028179168701,-3.0630133787738245
1708433728.727683,-2.141953945159912,-1.3335395765355607,-2.5267346541034144,6.1108683226402185,1.0176904201507568,-3.063063923512594
1708433728.7296796,-2.141928195953369,-1.3335517954877396,-2.5267887751208704,6.110896217613973,1.0177072286605835,-3.0631449858294886
1708433728.7316658,-2.1419460773468018,-1.333515689974167,-2.5267513434039515,6.110851514130392,1.0176904201507568,-3.063221279774801
1708433728.7336767,-2.141975164413452,-1.3335276407054444,-2.5267346541034144,6.110859262734213,1.0176985263824463,-3.063263479863302
1708433728.7356687,-2.141932725906372,-1.333543137913086,-2.5267301241504114,6.110866534500875,1.0176990032196045,-3.0634148756610315
1708433728.737685,-2.141979932785034,-1.3335233491710206,-2.5267301241504114,6.110929238587179,1.017707347869873,-3.0634329954730433
1708433728.7396762,-2.1419451236724854,-1.3334825199893494,-2.5267346541034144,6.1109423516090295,1.0176904201507568,-3.063488547001974
1708433728.7416873,-2.1419663429260254,-1.333511472945549,-2.5267346541034144,6.110877024918356,1.017685890197754,-3.0636051336871546
1708433728.7436745,-2.141982316970825,-1.3334790033153077,-2.5267887751208704,6.110818850785055,1.0176773071289062,-3.0636833349811
1708433728.745697,-2.1419708728790283,-1.3335809421590348,-2.5267797152148646,6.110896217613973,1.0176860094070435,-3.063737455998556
1708433728.7476864,-2.1419777870178223,-1.3335276705077668,-2.5267587343799036,6.110933649330892,1.0176827907562256,-3.0638094584094446
1708433728.749703,-2.141895294189453,-1.3334702861360093,-2.5267513434039515,6.1108916876609705,1.017657995223999,-3.0638838450061243
1708433728.751688,-2.1419460773468018,-1.333536223774292,-2.5267587343799036,6.110938060074606,1.017723560333252,-3.06399375597109
1708433728.7536826,-2.141949415206909,-1.3335308742574234,-2.5267887751208704,6.110900628357687,1.0176784992218018,-3.0640724341021937
1708433728.7556956,-2.141953945159912,-1.3335318875363846,-2.5267255941974085,6.110863792687216,1.017674207687378,-3.0641639868365687
1708433728.7576864,-2.141953945159912,-1.3335524809411545,-2.5267558733569544,6.110863792687216,1.0176784992218018,-3.0642433802234095
1708433728.759673,-2.1419122219085693,-1.3335524809411545,-2.5267391840564173,6.110877024918356,1.0176503658294678,-3.064324204121725
1708433728.7617018,-2.141930103302002,-1.3334955436042328,-2.5267227331744593,6.1108916876609705,1.017657995223999,-3.0644364992724817
1708433728.7636912,-2.141979932785034,-1.3335405153087159,-2.5267513434039515,6.110872733383932,1.0176708698272705,-3.0645583311664026
1708433728.7656732,-2.141986608505249,-1.3335233491710206,-2.5267346541034144,6.1109094498451135,1.0176503658294678,-3.0646334330188196
1708433728.767736,-2.1419708728790283,-1.3334747117808838,-2.5267513434039515,6.110909330635824,1.0176175832748413,-3.0647409597979944
1708433728.7696679,-2.141921043395996,-1.3334955287030716,-2.5267723242389124,6.110912549286642,1.0176175832748413,-3.064862314854757
1708433728.7716765,-2.141953945159912,-1.3335233491710206,-2.5267723242389124,6.1109094498451135,1.0176677703857422,-3.0649612585650843
1708433728.7736895,-2.141925573348999,-1.3335524958423157,-2.526752773915426,6.110900628357687,1.0176140069961548,-3.065044943486349
1708433728.7756796,-2.141953945159912,-1.3335071367076416,-2.52669865289797,6.110900628357687,1.0175855159759521,-3.065115753804342
1708433728.777672,-2.1419708728790283,-1.3335604828647156,-2.52674371400942,6.110854851990499,1.0176140069961548,-3.065190855656759
1708433728.7796896,-2.141991138458252,-1.3335276556066056,-2.526748243962423,6.1109050391014,1.0176022052764893,-3.065314833317892
1708433728.781664,-2.141895294189453,-1.333502785568573,-2.5266416708575647,6.11098741272048,1.017591118812561,-3.065453116093771
1708433728.7836845,-2.141982316970825,-1.3335405600121994,-2.5267167727099817,6.110833751946249,1.017594337463379,-3.065540138875143
1708433728.7856743,-2.141975164413452,-1.3334984642318268,-2.5266249815570276,6.110896217613973,1.017578125,-3.065610710774557
1708433728.7877028,-2.1420071125030518,-1.3335308742574234,-2.5266552607165735,6.110933649330892,1.0174883604049683,-3.0657556692706507
1708433728.7896557,-2.141895294189453,-1.3335363280824204,-2.5266476313220423,6.1109050391014,1.0175591707229614,-3.0658722559558313
1708433728.7916775,-2.141982316970825,-1.3334912222674866,-2.5266056696521204,6.110882866173544,1.0175342559814453,-3.0659471193896692
1708433728.7936773,-2.1419777870178223,-1.3334584695151825,-2.526619259511129,6.110996353417196,1.0175504684448242,-3.066071335469381
1708433728.7956755,-2.141982316970825,-1.3335406345180054,-2.526623789464132,6.110859262734213,1.0175223350524902,-3.0661872068988245
1708433728.7976754,-2.141899824142456,-1.3334997308305283,-2.526602808629171,6.110896217613973,1.017498254776001,-3.0663066546069544
1708433728.7996624,-2.1419451236724854,-1.333536223774292,-2.526562039052145,6.110924708634176,1.0174741744995117,-3.0664308706866663
1708433728.801733,-2.141989231109619,-1.3334997606328507,-2.526590887700216,6.110965239792623,1.0174132585525513,-3.066500250493185
1708433728.8037026,-2.1419732570648193,-1.3335309040597458,-2.526609007512228,6.110927688866415,1.0174262523651123,-3.0666587988482874
1708433728.8056943,-2.141982316970825,-1.3335156452706833,-2.5265637079821985,6.110957371979513,1.0174676179885864,-3.0667508284198206
1708433728.8076894,-2.141986608505249,-1.3335156452706833,-2.526587788258688,6.1109293577964685,1.0174185037612915,-3.0668659845935267
1708433728.809689,-2.1419732570648193,-1.3335276258042832,-2.5265665690051478,6.1109410403068445,1.0174227952957153,-3.0669661203967493
1708433728.811694,-2.1419644355773926,-1.3335233640721817,-2.5265143553363245,6.110951888352194,1.0173497200012207,-3.0671401659594935
1708433728.813712,-2.141993761062622,-1.3335691106370469,-2.5265262762652796,6.110991704254904,1.0173208713531494,-3.0671733061419886
1708433728.815687,-2.1420094966888428,-1.3334704053452988,-2.5265353361712855,6.111017215042867,1.0172852277755737,-3.0673182646380823
1708433728.817695,-2.1420185565948486,-1.3334825348905106,-2.5265398661242884,6.111011492996969,1.017293930053711,-3.0674214998828333
1708433728.819671,-2.1420061588287354,-1.3334746819785614,-2.5264857451068323,6.111048567086019,1.0172489881515503,-3.0675583521472376
1708433728.8216672,-2.1419804096221924,-1.3335561019233246,-2.5265443960772913,6.111044156342306,1.017196774482727,-3.0676661173449915
1708433728.823695,-2.142000436782837,-1.3334869605353852,-2.526487175618307,6.111117589264669,1.0172011852264404,-3.0677736441241663
1708433728.8256872,-2.142050266265869,-1.333569036131241,-2.526466194783346,6.111088979035177,1.0172173976898193,-3.0679340998279017
1708433728.8276901,-2.142066240310669,-1.333531917338707,-2.526475254689352,6.11104296424941,1.017181396484375,-3.0680208841906946
1708433728.8296769,-2.142061710357666,-1.3334669184735795,-2.526437822972433,6.111091005593099,1.017128825187683,-3.0681496302234095
1708433728.8316753,-2.142042398452759,-1.3334941130927582,-2.526442352925436,6.111118900566854,1.017129898071289,-3.068314854298727
1708433728.833688,-2.142094373703003,-1.3335200113109131,-2.526463333760397,6.1111159203346155,1.0170924663543701,-3.068435017262594
1708433728.8356671,-2.14206862449646,-1.3335352700999756,-2.5264092127429407,6.111163842469015,1.0170437097549438,-3.0685341993915003
1708433728.8376741,-2.142085552215576,-1.3334627610496064,-2.5264318625079554,6.111195432930746,1.0170446634292603,-3.068625513707296
1708433728.8396678,-2.1421263217926025,-1.3335156303695221,-2.526386801396505,6.1112533686454675,1.0170655250549316,-3.0687196890460413
1708433728.8416624,-2.1420810222625732,-1.3334955287030716,-2.526395861302511,6.111251938133993,1.0170458555221558,-3.068855587636129
1708433728.8437023,-2.1421172618865967,-1.3334746074727555,-2.5263987223254603,6.111284720688619,1.017005205154419,-3.068981949483053
1708433728.8456814,-2.1420888900756836,-1.333478943710663,-2.526379410420553,6.111266839295187,1.01698899269104,-3.069085423146383
1708433728.8477023,-2.1421570777893066,-1.3335480999997635,-2.526358429585592,6.111266839295187,1.0169275999069214,-3.069176737462179
1708433728.849686,-2.1421456336975098,-1.3335156601718445,-2.5263477007495325,6.111316191941061,1.0168960094451904,-3.069329086934225
1708433728.851703,-2.142181873321533,-1.3335114282420655,-2.5263386408435267,6.111363875656881,1.016897201538086,-3.069470230733053
1708433728.8536925,-2.142197847366333,-1.3335362088731308,-2.5263102690326136,6.1113672135169885,1.0168894529342651,-3.069512430821554
1708433728.8556755,-2.1422359943389893,-1.3335071367076416,-2.5263193289386194,6.111391055374899,1.0168566703796387,-3.069623057042257
1708433728.8577027,-2.1422295570373535,-1.3335405898145218,-2.526300017033712,6.111332762032308,1.0168039798736572,-3.06974703470339
1708433728.8596778,-2.1422791481018066,-1.3334789735129853,-2.526300017033712,6.111434566765585,1.0167921781539917,-3.0698629061328333
1708433728.861709,-2.1422579288482666,-1.3334703755429764,-2.526280466710226,6.111427056580343,1.0167648792266846,-3.0700069109546106
1708433728.8637025,-2.1422524452209473,-1.3334955436042328,-2.526280466710226,6.111465918808737,1.0167124271392822,-3.0701265970813196
1708433728.8656862,-2.142305612564087,-1.3335200113109131,-2.5262354055987757,6.111482250481405,1.016676425933838,-3.070312563573019
1708433728.8677151,-2.142305612564087,-1.3335362684777756,-2.5262354055987757,6.11152063587264,1.0166566371917725,-3.0703542868243616
1708433728.869674,-2.142390489578247,-1.3335146617940445,-2.5261617342578333,6.111538994103231,1.0166531801223755,-3.0705040136920374
1708433728.8716588,-2.142381429672241,-1.3334626865438004,-2.526137892399923,6.111518251686849,1.0165550708770752,-3.0705655256854456
1708433728.8737314,-2.142331838607788,-1.3334869158319016,-2.526172463093893,6.11157916763381,1.0165472030639648,-3.070685688649313
1708433728.8757062,-2.142397403717041,-1.3335114580443879,-2.5261271635638636,6.111631619721212,1.0165526866912842,-3.0708726088153284
1708433728.8777096,-2.142413377761841,-1.3335352700999756,-2.5260778109179896,6.111590015679159,1.0164721012115479,-3.0709055105792444
1708433728.8797033,-2.142432689666748,-1.3335114431432267,-2.5260749498950403,6.111613857537069,1.0164555311203003,-3.0710423628436487
1708433728.881677,-2.142465353012085,-1.3334746968797226,-2.5260868708239954,6.111649977951803,1.0163617134094238,-3.071152989064352
1708433728.883725,-2.1424813270568848,-1.3335276556066056,-2.526072088872091,6.111625659256735,1.016350507736206,-3.0712695757495325
1708433728.8856833,-2.142493724822998,-1.3335190576365967,-2.526026789342062,6.111682283669271,1.0163966417312622,-3.0713937918292444
1708433728.8877032,-2.1425211429595947,-1.333478943710663,-2.526026789342062,6.111719596176901,1.0163319110870361,-3.0715065638171595
1708433728.8896832,-2.142533302307129,-1.3335071069053193,-2.5260074774371546,6.111693012505331,1.0162993669509888,-3.0716145674334925
1708433728.8916602,-2.142537832260132,-1.3335518103889008,-2.525992457066671,6.11175428608016,1.0162837505340576,-3.0717344919787806
1708433728.8936896,-2.142551898956299,-1.3334789735129853,-2.52595025697817,6.1117498753364465,1.0162642002105713,-3.0717960039721888
1708433728.8957016,-2.142597198486328,-1.333523378973343,-2.525921885167257,6.1117873070533655,1.0161820650100708,-3.0719335714923304
1708433728.8977225,-2.1425721645355225,-1.3335647147944947,-2.525909964238302,6.111813890724935,1.0161340236663818,-3.0720954577075403
1708433728.899678,-2.1425836086273193,-1.3335395765355607,-2.5258992354022425,6.111821639328756,1.0161395072937012,-3.0721169153796595
1708433728.9016895,-2.1426005363464355,-1.3334713292172928,-2.525923554097311,6.111833560257711,1.0160784721374512,-3.0722740332232874
1708433728.903706,-2.1426570415496826,-1.3334669035724183,-2.5258947054492396,6.111875164299764,1.016034722328186,-3.0723534266101282
1708433728.905772,-2.142652750015259,-1.3335362535766144,-2.5258589426623743,6.111848580628195,1.0159821510314941,-3.072444502507345
1708433728.9077072,-2.142660617828369,-1.3334869307330628,-2.5258260408984583,6.111893164902487,1.0159833431243896,-3.072528664265768
1708433728.9096825,-2.1426517963409424,-1.3335276556066056,-2.525832001362936,6.111905085831442,1.0159754753112793,-3.072622839604513
1708433728.9116786,-2.1427128314971924,-1.3334703010371705,-2.5257750193225306,6.1119247553642175,1.0159273147583008,-3.072714153920309
1708433728.9136884,-2.1427083015441895,-1.333491252069809,-2.5257869402514856,6.111948835640707,1.0158872604370117,-3.072871748601095
1708433728.9157205,-2.1427109241485596,-1.3334422570518036,-2.5257704893695276,6.111993419914999,1.0158344507217407,-3.0729437510119837
1708433728.91769,-2.1427152156829834,-1.333527685408928,-2.5257554689990442,6.111989009171285,1.0158064365386963,-3.0730605761157435
1708433728.919725,-2.1427934169769287,-1.3334746819785614,-2.525731388722555,6.112071025162496,1.0157787799835205,-3.073160950337545
1708433728.9216697,-2.142810106277466,-1.3334789735129853,-2.525731388722555,6.112102377205648,1.0157755613327026,-3.0732975641833704
1708433728.9236872,-2.142796754837036,-1.3335680675557633,-2.525686566029684,6.112040030747213,1.0157103538513184,-3.073343817387716
1708433728.925688,-2.1428170204162598,-1.3334831905416031,-2.5256791750537317,6.1121264574821375,1.0156664848327637,-3.073444430028097
1708433728.927729,-2.1427903175354004,-1.3335438531688233,-2.5256837050067347,6.112083542137899,1.0156588554382324,-3.073514763508932
1708433728.9296913,-2.1428487300872803,-1.3335114282420655,-2.5257256666766565,6.112169730454244,1.0156139135360718,-3.0736642519580286
1708433728.9317005,-2.142810583114624,-1.3335233640721817,-2.5255966822253626,6.1121370671089075,1.0155898332595825,-3.0737770239459437
1708433728.9337225,-2.1428308486938477,-1.3335028749755402,-2.525656525288717,6.112222182541647,1.0155622959136963,-3.0737767855273646
1708433728.9356842,-2.1428921222686768,-1.3334997159293671,-2.5256100336657923,6.112186062126913,1.0155341625213623,-3.073890511189596
1708433728.9377182,-2.142887592315674,-1.3335362535766144,-2.525557343159811,6.1122710583503626,1.01545250415802,-3.074036423360006
1708433728.9396982,-2.142911434173584,-1.3335156303695221,-2.5255828539477747,6.112257706909933,1.0154337882995605,-3.0741124788867396
1708433728.9417114,-2.1429443359375,-1.3334912371686478,-2.5255919138537806,6.112232553749838,1.0154051780700684,-3.0741170088397425
1708433728.9437125,-2.142935276031494,-1.3335610938123246,-2.5255799929248255,6.112265217095175,1.0154017210006714,-3.074250046406881
1708433728.9456966,-2.1429147720336914,-1.3334704500487824,-2.5255470911609095,6.112194049149313,1.0153942108154297,-3.074387852345602
1708433728.947685,-2.1429059505462646,-1.3334585142186661,-2.525506321583883,6.11228500583724,1.0153701305389404,-3.0744317213641565
1708433728.9496918,-2.1429848670959473,-1.3335276407054444,-2.525503460560934,6.112254965096273,1.015305757522583,-3.0745227972613733
1708433728.9516888,-2.1429760456085205,-1.3335276556066056,-2.525487009678976,6.112292396813192,1.0152567625045776,-3.074615780507223
1708433728.953712,-2.1429953575134277,-1.3335276407054444,-2.525498930607931,6.112321007042684,1.0152785778045654,-3.074657980595724
1708433728.9557087,-2.1429696083068848,-1.333528609280922,-2.525433365498678,6.112332927971639,1.0152052640914917,-3.074765745793478
1708433728.9577203,-2.1429786682128906,-1.3334912073663254,-2.5254960695849817,6.112316596298971,1.0152335166931152,-3.0748913923846644
1708433728.9596708,-2.143023729324341,-1.3335041415742417,-2.5255051294909876,6.112369763642111,1.0151973962783813,-3.0749176184283655
1708433728.961673,-2.143014669418335,-1.3335438829711457,-2.5254812876330774,6.112307655602255,1.0151612758636475,-3.074977223073141
1708433728.9637125,-2.1430509090423584,-1.3334593784860154,-2.5254388491259974,6.112389313965597,1.0151417255401611,-3.0750730673419397
1708433728.96574,-2.143059730529785,-1.3335286390832444,-2.5253894964801233,6.11238061168746,1.015096664428711,-3.0751450697528284
1708433728.9677095,-2.1430914402008057,-1.3335276556066056,-2.5254767576800745,6.112392532616415,1.0150978565216064,-3.075226132069723
1708433728.969671,-2.1430914402008057,-1.3334912222674866,-2.525391165410177,6.11238061168746,1.0150575637817383,-3.075272862111227
1708433728.9716814,-2.1430466175079346,-1.333430291419365,-2.525365416203634,6.112396943360128,1.0150409936904907,-3.0753820578204554
1708433728.9736824,-2.1431076526641846,-1.3334869158319016,-2.525369946156637,6.112343179970541,1.0150785446166992,-3.075411621724264
1708433728.9756725,-2.143082857131958,-1.3335156452706833,-2.525365416203634,6.112396943360128,1.014984369277954,-3.0755298773394983
1708433728.9776907,-2.1431119441986084,-1.333536298280098,-2.5253594557391565,6.11238061168746,1.0150421857833862,-3.0755601564990442
1708433728.9796755,-2.1430816650390625,-1.3335146617940445,-2.5253265539752405,6.112385022431173,1.0149481296539307,-3.0756121317492884
1708433728.9816763,-2.143094062805176,-1.3335363280824204,-2.5253310839282435,6.112371670990743,1.0149331092834473,-3.075717035924093
1708433728.9837,-2.1430985927581787,-1.3335233491710206,-2.5253565947162073,6.112416612892904,1.014925241470337,-3.075791899357931
1708433728.985664,-2.1431846618652344,-1.3335146617940445,-2.5253565947162073,6.11239110210494,1.0148433446884155,-3.0758658091174524
1708433728.9877012,-2.1431190967559814,-1.3335028153708954,-2.5253401438342493,6.112371670990743,1.0148682594299316,-3.0759452025042933
1708433728.9896748,-2.143094062805176,-1.3335286390832444,-2.5253282229052942,6.112421023636617,1.0148608684539795,-3.076017204915182
1708433728.9916878,-2.1431596279144287,-1.3335243326476593,-2.5253475348102015,6.112379181175985,1.0148323774337769,-3.0760555903064173
1708433728.9937286,-2.1431596279144287,-1.3334745925715943,-2.525295082722799,6.112382161408224,1.0148204565048218,-3.076094929371969
1708433728.9956846,-2.1431667804718018,-1.3335071218064805,-2.52531606355776,6.1124329445655725,1.0148212909698486,-3.0761833826648157
1708433728.9976988,-2.143139362335205,-1.3334997606328507,-2.525257412587301,6.112407672196188,1.014800786972046,-3.076268259678976
1708433728.999694,-2.143113613128662,-1.3335200411132355,-2.525282923375265,6.112435924797811,1.0147645473480225,-3.0763166586505335
1708433729.001679,-2.1431925296783447,-1.3335156452706833,-2.525275532399313,6.112419593125143,1.014748215675354,-3.07640511194338
1708433729.0037072,-2.1431710720062256,-1.3334997308305283,-2.525259081517355,6.1124151823814294,1.0147571563720703,-3.076385561619894
1708433729.0057082,-2.143200397491455,-1.3334756654552002,-2.5252307097064417,6.112403261452474,1.0147273540496826,-3.076512638722555
1708433729.007705,-2.143150806427002,-1.3334541779807587,-2.525291983281271,6.112395512848654,1.0147618055343628,-3.076543633137838
1708433729.0097005,-2.143155336380005,-1.3335156452706833,-2.5252307097064417,6.112382161408224,1.0147078037261963,-3.076599899922506
1708433729.0116808,-2.143134832382202,-1.3335084182075043,-2.5253010431872767,6.112440335541525,1.014732837677002,-3.076716725026266
1708433729.0137212,-2.1431710720062256,-1.3334799718907853,-2.5252636114703577,6.112382161408224,1.014683723449707,-3.0767234007464808
1708433729.0156972,-2.143200397491455,-1.3334831905416031,-2.5252352396594446,6.1123612997825525,1.0147533416748047,-3.0768280665027063
1708433729.017717,-2.143153429031372,-1.3335233491710206,-2.5252817312823694,6.112403261452474,1.014757752418518,-3.0769084135638636
1708433729.0196831,-2.1431667804718018,-1.3335363280824204,-2.5252397696124476,6.112449276238241,1.014704704284668,-3.0769103209124964
1708433729.0216784,-2.1431710720062256,-1.3334997308305283,-2.52521258989443,6.112431514054098,1.014704704284668,-3.0769804159747522
1708433729.0237067,-2.1431915760040283,-1.3334541332772751,-2.525215450917379,6.112419593125143,1.0146881341934204,-3.0770390669452112
1708433729.0256648,-2.1431329250335693,-1.3335114282420655,-2.525170628224508,6.112365829735555,1.0146881341934204,-3.0770626703845423
1708433729.0276856,-2.143195867538452,-1.3335318875363846,-2.525166098271505,6.11236726024703,1.0146794319152832,-3.077106539403097
1708433729.0296702,-2.143211841583252,-1.3335406494191666,-2.525196139012472,6.112390029221334,1.0146924257278442,-3.0772040526019495
1708433729.0316613,-2.143174648284912,-1.3335362535766144,-2.525146547948019,6.1124151823814294,1.0147134065628052,-3.077221695576803
1708433729.0336697,-2.143207311630249,-1.3335318726352234,-2.525179688130514,6.112465727120199,1.0146968364715576,-3.0773025194751185
1708433729.0356686,-2.143207311630249,-1.3334756654552002,-2.525163237248556,6.112428533821859,1.0146596431732178,-3.077355448399679
1708433729.037676,-2.143207550048828,-1.3335114282420655,-2.52515417734255,6.112398850708761,1.0146806240081787,-3.0773776213275355
1708433729.0396698,-2.143179178237915,-1.3334962588599701,-2.525146547948019,6.112362849503317,1.0146806240081787,-3.0774477163897913
1708433729.0416718,-2.1431825160980225,-1.3334955287030716,-2.525167767201559,6.112424003868856,1.014717698097229,-3.07745868364443
1708433729.0437036,-2.143207311630249,-1.3334669780782242,-2.525146547948019,6.112395512848654,1.0146771669387817,-3.0774927775012415
1708433729.0456953,-2.143200397491455,-1.3335286539844056,-2.5251556078540247,6.112374651222982,1.014648675918579,-3.077615563069479
1708433729.0476925,-2.143170118331909,-1.3334713590196152,-2.525130097066061,6.11236726024703,1.0146561861038208,-3.0776050726519983
1708433729.04967,-2.1431984901428223,-1.3334541481784363,-2.5251601378070276,6.112350928574362,1.0147055387496948,-3.077674214039938
1708433729.0516667,-2.143195867538452,-1.3334832203439255,-2.525184218083517,6.112382161408224,1.014664888381958,-3.077735964451925
1708433729.0536852,-2.143157720565796,-1.3334912222674866,-2.5251482168780726,6.112424003868856,1.0146324634552002,-3.0777700583087366
1708433729.055674,-2.1432206630706787,-1.3335243326476593,-2.5251482168780726,6.112386572151937,1.014648675918579,-3.077784840260641
1708433729.0576875,-2.143146276473999,-1.3334669780782242,-2.5251224676715296,6.11240433433608,1.0146161317825317,-3.0778420607196253
1708433729.0596848,-2.1431329250335693,-1.3334918928197403,-2.5251196066485804,6.11240433433608,1.0146454572677612,-3.077822510396139
1708433729.0616937,-2.143207311630249,-1.333504171376564,-2.5251360575305384,6.112341987877645,1.0146410465240479,-3.077937904988424
1708433729.0636635,-2.1431915760040283,-1.3334179681590577,-2.5250776449786585,6.112329828530111,1.0146126747131348,-3.0779905954944056
1708433729.0656881,-2.1431283950805664,-1.3334389191916962,-2.5251737276660364,6.112355339318075,1.0146411657333374,-3.078021828328268
1708433729.0676951,-2.1431214809417725,-1.3334389191916962,-2.5251391569720667,6.112385141640463,1.0146205425262451,-3.0780983606921595
1708433729.0696793,-2.1431374549865723,-1.3335004609874268,-2.5251782576190394,6.11242555358962,1.0145916938781738,-3.0780893007861536
1708433729.0716991,-2.143203020095825,-1.3334507507136841,-2.5251436869250696,6.112438547402181,1.0146454572677612,-3.0781620184527796
1708433729.0736725,-2.143153429031372,-1.3334061664393921,-2.5251286665545862,6.1123520014579675,1.014575481414795,-3.0781737009631556
1708433729.075695,-2.1431915760040283,-1.3335005056909104,-2.5251436869250696,6.112410175591268,1.0145885944366455,-3.07821232477297
1708433729.0776963,-2.143144369125366,-1.3334875863841553,-2.5250867048846644,6.1123520014579675,1.0145843029022217,-3.0783022085772913
1708433729.079674,-2.1431610584259033,-1.3334507507136841,-2.5251031557666224,6.112364280014791,1.0145916938781738,-3.0782888571368616
1708433729.0816958,-2.1431915760040283,-1.3334886592677613,-2.5251286665545862,6.112289893418112,1.0146410465240479,-3.078381601964132
1708433729.083688,-2.143146276473999,-1.3334886592677613,-2.5251150766955774,6.1123283980186365,1.0146048069000244,-3.0783682505237024
1708433729.0856838,-2.143157720565796,-1.333471344118454,-2.5251196066485804,6.112344372063436,1.0146256685256958,-3.0784629026996058
1708433729.0876844,-2.143153429031372,-1.3334594380906601,-2.5250821749316614,6.112312066345968,1.0145928859710693,-3.078477446232931
1708433729.0896714,-2.143200397491455,-1.3334223640016098,-2.5250700155841272,6.112312066345968,1.0146090984344482,-3.078517738972799
1708433729.0916593,-2.143211841583252,-1.333459423189499,-2.5251241366015833,6.112321007042684,1.014621376991272,-3.078568998967306
1708433729.0936832,-2.143204927444458,-1.3335127395442505,-2.525100294743673,6.1122790453727625,1.014559268951416,-3.078515354787008
1708433729.0956848,-2.143146276473999,-1.333447517161705,-2.5251031557666224,6.112305867462911,1.0145680904388428,-3.0786002318011683
1708433729.0976994,-2.143174648284912,-1.3334929955056687,-2.52507454553713,6.112280595093527,1.0145885944366455,-3.0786336104022425
1708433729.0996747,-2.143141984939575,-1.3335084331086655,-2.5251570383654993,6.11228500583724,1.0145766735076904,-3.078672234212057
1708433729.101677,-2.143204689025879,-1.3334961992553254,-2.5251286665545862,6.112240063935079,1.0145810842514038,-3.0787175337420862
1708433729.1036956,-2.143179178237915,-1.3335127395442505,-2.52509576479067,6.112248885422506,1.0145885944366455,-3.0787859598742884
1708433729.1057167,-2.143134832382202,-1.33345182359729,-2.525137488042013,6.1122028706367395,1.0146090984344482,-3.0787232557879847
1708433729.1077526,-2.143200397491455,-1.3334842783263703,-2.5251122156726282,6.112183558731832,1.0145810842514038,-3.078846279774801
1708433729.1097562,-2.1431667804718018,-1.333447517161705,-2.52509576479067,6.112163769989767,1.0145972967147827,-3.0788326899157923
1708433729.1117132,-2.1431374549865723,-1.333484248524048,-2.5250821749316614,6.112223732262411,1.0145928859710693,-3.0789106527911585
1708433729.113707,-2.143134832382202,-1.3334309172681351,-2.525079075490133,6.11216281631545,1.0146048069000244,-3.078912083302633
1708433729.115669,-2.143183469772339,-1.3335091781667252,-2.52507454553713,6.112147438317098,1.0145766735076904,-3.078956667576925
1708433729.1176777,-2.1432206630706787,-1.3334352535060425,-2.525062624608175,6.112138616829672,1.0146048069000244,-3.0789886156665247
1708433729.119673,-2.1431658267974854,-1.333447517161705,-2.525100294743673,6.1121370671089075,1.014543890953064,-3.079078022633688
1708433729.121689,-2.143150806427002,-1.3334886592677613,-2.5250700155841272,6.1121325371559045,1.0145885944366455,-3.079012457524435
1708433729.1236959,-2.143118143081665,-1.3334352684072037,-2.525054995213644,6.1121325371559045,1.0146048069000244,-3.0790482203113
1708433729.1256692,-2.143122434616089,-1.3334302467158814,-2.525116745625631,6.112145769387045,1.0145723819732666,-3.0791099707232874
1708433729.1276886,-2.143148183822632,-1.3334104430726548,-2.525054995213644,6.112114655762472,1.0146090984344482,-3.079115692769186
1708433729.129677,-2.1431596279144287,-1.3333899092725296,-2.525100294743673,6.112040030747213,1.0145723819732666,-3.0791683832751673
1708433729.1316664,-2.143150806427002,-1.3334234070828934,-2.5250821749316614,6.112027752190389,1.0146135091781616,-3.0792086760150355
1708433729.1337285,-2.143126964569092,-1.3335091930678864,-2.5250867048846644,6.112119066506185,1.0145843029022217,-3.0792248884784144
1708433729.135676,-2.143101215362549,-1.3334352684072037,-2.52509576479067,6.1120444414909265,1.0145928859710693,-3.079252306615011
1708433729.1377296,-2.143126964569092,-1.333439664249756,-2.5250986258136194,6.111971366196432,1.014621376991272,-3.079325262700216
1708433729.1396806,-2.143122434616089,-1.33343097687278,-2.5251241366015833,6.112008440285482,1.0146048069000244,-3.0793238321887415
1708433729.1416876,-2.143139362335205,-1.3334028285792847,-2.525100294743673,6.111975776940145,1.0145680904388428,-3.07934815088381
1708433729.1437314,-2.143094062805176,-1.3334568750909348,-2.525142256413595,6.111963736801901,1.0145723819732666,-3.0794346968280237
1708433729.1456885,-2.143152952194214,-1.33345182359729,-2.5251150766955774,6.11199055889205,1.0145916938781738,-3.079416577016012
1708433729.1477036,-2.1431145668029785,-1.3333540868810196,-2.5251031557666224,6.111923205643453,1.0145843029022217,-3.0794230143176478
1708433729.1496754,-2.1430816650390625,-1.3333790761283417,-2.5251436869250696,6.111978518753805,1.0145843029022217,-3.0794978777514856
1708433729.1517339,-2.143143892288208,-1.3334244352630158,-2.5251031557666224,6.1118754027183435,1.01458740234375,-3.079496208821432
1708433729.153681,-2.1431190967559814,-1.3334041398814698,-2.52509576479067,6.111817228585043,1.0146005153656006,-3.0795517603503626
1708433729.155795,-2.1430771350860596,-1.3333628487638016,-2.525121275578634,6.111921775131979,1.0146005153656006,-3.0795770327197474
1708433729.157746,-2.1430985927581787,-1.3333595258048554,-2.52509576479067,6.1118695614631555,1.0146082639694214,-3.079632822667257
1708433729.1596577,-2.143132448196411,-1.3334579479745408,-2.525121275578634,6.111918318062582,1.0145885944366455,-3.079628292714254
1708433729.161707,-2.1430625915527344,-1.3333725345185776,-2.5251241366015833,6.111808287888326,1.0146039724349976,-3.0796147028552454
1708433729.1636841,-2.143095016479492,-1.333314837222435,-2.5251122156726282,6.111829149513998,1.0146785974502563,-3.0796669165240687
1708433729.1656904,-2.1431164741516113,-1.3333472919515152,-2.5251527468310755,6.111812817841329,1.014685869216919,-3.079698626195089
1708433729.1677117,-2.1430420875549316,-1.3333645921996613,-2.5250821749316614,6.111812817841329,1.0146691799163818,-3.079703156148092
1708433729.169681,-2.143030881881714,-1.3333602857640763,-2.5251436869250696,6.111776816635885,1.014648675918579,-3.0797598997699183
1708433729.1717281,-2.143073797225952,-1.3333681386760254,-2.5251286665545862,6.111769664078512,1.0146324634552002,-3.0797837416278284
1708433729.1737187,-2.1430623531341553,-1.3333364439061661,-2.5251451174365442,6.111712801247396,1.0146771669387817,-3.0798068682300013
1708433729.175703,-2.143059730529785,-1.3332993698171158,-2.5251060167895716,6.111736523896017,1.0146849155426025,-3.0798233191119593
1708433729.1777163,-2.143031597137451,-1.3332921874574204,-2.5251556078540247,6.111766207009115,1.0146980285644531,-3.0798969904529017
1708433729.1797025,-2.143019199371338,-1.333332137470581,-2.5251436869250696,6.111713874131002,1.0146849155426025,-3.0799205938922327
1708433729.1817214,-2.1429898738861084,-1.3333429855159302,-2.5251391569720667,6.111709463387289,1.0147209167480469,-3.0799027124988
1708433729.183691,-2.142986536026001,-1.3333483648351212,-2.525172297154562,6.11163483837203,1.014733910560608,-3.0799763838397425
1708433729.1856935,-2.143012285232544,-1.3333440583995362,-2.525167767201559,6.111673342972555,1.014716625213623,-3.0799627939807337
1708433729.187697,-2.1430165767669678,-1.3333080571940918,-2.5251391569720667,6.111685621529379,1.0147122144699097,-3.079991165791647
1708433729.1896687,-2.1430041790008545,-1.333320216541626,-2.525205198918478,6.1116570112998865,1.0147490501403809,-3.080010477696554
1708433729.1916933,-2.1429431438446045,-1.3333080571940918,-2.525158707295553,6.111682283669271,1.014744758605957,-3.0800560156451624
1708433729.1937158,-2.1429555416107178,-1.3333440583995362,-2.525167767201559,6.111604797631063,1.0147485733032227,-3.0800750891314905
1708433729.1956904,-2.142951250076294,-1.333327831034996,-2.525170628224508,6.1115689156349084,1.0147852897644043,-3.0801034609424036
1708433729.1977043,-2.142951250076294,-1.3333570075086136,-2.525167767201559,6.111590015679159,1.014835000038147,-3.080156151448385
1708433729.199712,-2.1429522037506104,-1.3332704615643998,-2.525182549153463,6.111546742707052,1.0147842168807983,-3.0801518599139612
1708433729.201706,-2.1429688930511475,-1.3333602857640763,-2.5252276102649134,6.111530053406515,1.01487135887146,-3.080212656651632
1708433729.2037122,-2.1429522037506104,-1.3332950633815308,-2.525175158177511,6.111539113312521,1.0148738622665405,-3.0802112261401575
1708433729.2057316,-2.142935276031494,-1.3332993698171158,-2.525196139012472,6.111456858902731,1.0148944854736328,-3.080231014882223
1708433729.2077196,-2.14296555519104,-1.333351583485939,-2.525191609059469,6.11145697811202,1.0149189233779907,-3.080254856740133
1708433729.2096949,-2.142878770828247,-1.3333559793284913,-2.525215450917379,6.111462819367208,1.0148682594299316,-3.0803614298449915
1708433729.2116835,-2.1428585052490234,-1.3332993698171158,-2.5252307097064417,6.111393081932821,1.014937400817871,-3.0803359190570276
1708433729.2137153,-2.1429238319396973,-1.3333408248475571,-2.525199000035421,6.111415135651388,1.0149509906768799,-3.080371681843893
1708433729.2156906,-2.142871618270874,-1.333323524599411,-2.5252185503589075,6.111382114678182,1.0149774551391602,-3.0803654829608362
1708433729.2177258,-2.142915964126587,-1.3333246123841782,-2.5252681414233606,6.111353981285848,1.0149731636047363,-3.080419365559713
1708433729.2196858,-2.14288067817688,-1.333327831034996,-2.525212828313009,6.111346113472738,1.0150343179702759,-3.0804482142077845
1708433729.221703,-2.1428849697113037,-1.3333364439061661,-2.525308672581808,6.111326801567831,1.0149801969528198,-3.080442015324728
1708433729.223713,-2.1428682804107666,-1.3333688837340851,-2.525275532399313,6.111343133240499,1.0150421857833862,-3.080486838017599
1708433729.225686,-2.1428399085998535,-1.3333440583995362,-2.525275532399313,6.111340033798971,1.015053153038025,-3.0805469194995325
1708433729.227712,-2.1428487300872803,-1.3333526265672226,-2.525332752858297,6.111320721894064,1.0150903463363647,-3.0805557409869593
1708433729.229704,-2.1428487300872803,-1.3333559793284913,-2.525307003651754,6.1112791178520105,1.0150697231292725,-3.080545488988058
1708433729.2316918,-2.1428229808807373,-1.333323524599411,-2.52531606355776,6.111255037575521,1.0151220560073853,-3.080573622380392
1708433729.2337537,-2.1428239345550537,-1.333307297234871,-2.5253565947162073,6.111272799759664,1.015146017074585,-3.0806351343738
1708433729.235681,-2.1427383422851562,-1.3333688837340851,-2.5253730455981653,6.111170160561361,1.0151950120925903,-3.0806546846972864
1708433729.237708,-2.1427886486053467,-1.333311603670456,-2.5253880659686487,6.111244427948751,1.0151777267456055,-3.0807374159442347
1708433729.239672,-2.142747163772583,-1.3332950633815308,-2.5253716150866907,6.1111594317253015,1.0151896476745605,-3.080707375203268
1708433729.2416787,-2.1427197456359863,-1.3333440583995362,-2.5253475348102015,6.11117576339797,1.0151927471160889,-3.0807133356677454
1708433729.2436736,-2.14274001121521,-1.333332137470581,-2.525362555180685,6.11117576339797,1.0152792930603027,-3.0808003584491175
1708433729.2456956,-2.142733097076416,-1.333274857406952,-2.525428597127096,6.111130821495809,1.0152541399002075,-3.0807986895190638
1708433729.2476833,-2.1426517963409424,-1.3333080571940918,-2.525407616292135,6.111123430519857,1.0152859687805176,-3.080834452305929
1708433729.2496924,-2.1426517963409424,-1.333328829412796,-2.5254178682910364,6.111069905548849,1.015293836593628,-3.080838743840353
1708433729.251685,-2.1426517963409424,-1.3333767813495179,-2.5254059473620813,6.1111042378242395,1.0153144598007202,-3.0809271971331995
1708433729.2536752,-2.142660617828369,-1.333261863594391,-2.5254059473620813,6.111108767777242,1.0153995752334595,-3.0808900038348597
1708433729.2556684,-2.142656087875366,-1.333315910106041,-2.5254479090320032,6.111088979035177,1.0153733491897583,-3.08098012605776
1708433729.2576983,-2.142627000808716,-1.333320216541626,-2.5254603067981165,6.111044156342306,1.015398621559143,-3.080912176762716
1708433729.2596827,-2.142604112625122,-1.3332950633815308,-2.5255215803729456,6.111036646157064,1.0154674053192139,-3.0809529463397425
1708433729.2616756,-2.1426403522491455,-1.3333246123841782,-2.525507990513937,6.1109845516975305,1.0154467821121216,-3.0809932390796106
1708433729.2636912,-2.1425960063934326,-1.333332137470581,-2.525507990513937,6.111003982811727,1.0154542922973633,-3.0810652414904993
1708433729.2657037,-2.1425678730010986,-1.3333811473897477,-2.525506321583883,6.11092637756423,1.0154380798339844,-3.081074301396505
1708433729.2676888,-2.1425724029541016,-1.3333725345185776,-2.525494400654928,6.110932218819418,1.0155143737792969,-3.0810802618609827
1708433729.269683,-2.142542839050293,-1.333323524599411,-2.52552301088442,6.110859381943502,1.015486240386963,-3.081132952366964
1708433729.2716746,-2.1425766944885254,-1.3333973598531266,-2.52550179163088,6.110900628357687,1.0155471563339233,-3.081170145665304
1708433729.2737374,-2.142531633377075,-1.3333602857640763,-2.5255845228778284,6.110832202225485,1.015592098236084,-3.081165615712301
1708433729.275663,-2.142512083053589,-1.3333898347667237,-2.5255799929248255,6.110873687058248,1.0155746936798096,-3.0812042395221155
1708433729.2776923,-2.1425492763519287,-1.3333818030408402,-2.5255709330188196,6.11084400394515,1.0155866146087646,-3.0812795797931116
1708433729.2796905,-2.142498731613159,-1.3333202463439484,-2.5255754629718226,6.1108213541801355,1.0156432390213013,-3.0813315550433558
1708433729.2816913,-2.14245343208313,-1.3333397519639512,-2.525595013295309,6.110805022507467,1.0156182050704956,-3.0813635031329554
1708433729.283673,-2.142483949661255,-1.3333036613515397,-2.525585953389303,6.11078559139327,1.0156750679016113,-3.081315580998556
1708433729.2856987,-2.142463445663452,-1.333323524599411,-2.525656525288717,6.110757338791647,1.015715479850769,-3.081369225178854
1708433729.287695,-2.1424429416656494,-1.3333681386760254,-2.525677506123678,6.110700595169821,1.0157111883163452,-3.081501547490255
1708433729.2897284,-2.142489194869995,-1.3332950633815308,-2.5256593863116663,6.110697495728292,1.0157146453857422,-3.0814862887011927
1708433729.2916646,-2.142456531524658,-1.3333440882018586,-2.5256429354297083,6.110712396889486,1.0157593488693237,-3.081489388142721
1708433729.293695,-2.142411470413208,-1.3333158803037186,-2.5256956259356897,6.110705005913534,1.015795350074768,-3.081489388142721
1708433729.2956626,-2.142437219619751,-1.3333645325950165,-2.5257001558886927,6.1106570837791345,1.0158030986785889,-3.0816002527820032
1708433729.2976806,-2.142400026321411,-1.3332950633815308,-2.525703016911642,6.1106124995048425,1.0158226490020752,-3.0815659205066126
1708433729.2996778,-2.1423399448394775,-1.333311603670456,-2.525691095982687,6.1106910584266565,1.0158344507217407,-3.081606690083639
1708433729.3016715,-2.1423611640930176,-1.3333080869964142,-2.525752369557516,6.110621320992269,1.0159165859222412,-3.081658665333883
1708433729.303683,-2.1423306465148926,-1.3333483648351212,-2.525759998952047,6.11056004741744,1.0158991813659668,-3.0816126505481165
1708433729.305692,-2.1423532962799072,-1.3332993698171158,-2.525726858769552,6.1106018898780725,1.015906810760498,-3.081702534352438
1708433729.3077004,-2.142336368560791,-1.3333645474961777,-2.525806728993551,6.110544788628378,1.0159648656845093,-3.0817247072802942
1708433729.3096814,-2.1423206329345703,-1.333327831034996,-2.525705877934591,6.110619890480795,1.0159754753112793,-3.081761900578634
1708433729.311709,-2.1422841548919678,-1.3333526712707062,-2.5258260408984583,6.110562431603231,1.0160161256790161,-3.0817773977862757
1708433729.3136775,-2.142261505126953,-1.3333363694003602,-2.5257840792285364,6.110562431603231,1.016035795211792,-3.0817728678332728
1708433729.3156667,-2.142322540283203,-1.333327831034996,-2.5257869402514856,6.110492694168844,1.016019344329834,-3.081820551549093
1708433729.3176665,-2.142272710800171,-1.3333202016404648,-2.525832001362936,6.110498535424032,1.016063928604126,-3.0818660894977015
1708433729.3196824,-2.14227294921875,-1.3333731901696702,-2.525832001362936,6.110510456352987,1.0160958766937256,-3.0819061438189905
1708433729.3216944,-2.1422364711761475,-1.3333526712707062,-2.52582294145693,6.110449182778158,1.016050934791565,-3.0819626490222376
1708433729.323656,-2.1422834396362305,-1.3333208870938797,-2.525877062474386,6.110421287804403,1.016115665435791,-3.081935707722799
1708433729.32567,-2.142191171646118,-1.3333364439061661,-2.5258470217334192,6.110434520035543,1.0161113739013672,-3.0819690863238733
1708433729.3277268,-2.1421797275543213,-1.3333397668651124,-2.525884453450338,6.110450494080343,1.0161900520324707,-3.0820375124560755
1708433729.3297093,-2.1421797275543213,-1.3333364439061661,-2.5258708635913294,6.110414850502767,1.0161306858062744,-3.082073752080099
1708433729.331676,-2.1421775817871094,-1.3333483648351212,-2.5258799234973353,6.110377776413717,1.0161800384521484,-3.082073752080099
1708433729.3336825,-2.142165184020996,-1.3333526712707062,-2.5258947054492396,6.1103447554405115,1.0161951780319214,-3.0820961634265345
1708433729.3356683,-2.14219331741333,-1.3333116483739396,-2.5258708635913294,6.110383617668905,1.0161908864974976,-3.082132403050558
1708433729.337696,-2.1421616077423096,-1.3333116483739396,-2.5258708635913294,6.11039553859786,1.0162489414215088,-3.082193438206808
1708433729.3396695,-2.142160654067993,-1.3333483648351212,-2.5259116331683558,6.1103625176246545,1.0162568092346191,-3.082217280064718
1708433729.3416753,-2.142141103744507,-1.3333645921996613,-2.525940004979269,6.110338675766744,1.0162568092346191,-3.0822535196887415
1708433729.3437119,-2.142112970352173,-1.3333397519639512,-2.525972906743185,6.110317575722494,1.0162394046783447,-3.0822818914996546
1708433729.345669,-2.142117500305176,-1.3333774966052552,-2.525905434285299,6.1103060124214075,1.0162793397903442,-3.082308832799093
1708433729.3477108,-2.1421172618865967,-1.333327831034996,-2.525980297719137,6.110397922783651,1.0163089036941528,-3.0823541323291224
1708433729.34968,-2.1420767307281494,-1.3333973598531266,-2.5260043779956263,6.110305893212118,1.0163168907165527,-3.0823777357684534
1708433729.3517191,-2.1421048641204834,-1.3333483648351212,-2.52602988878359,6.110295522003927,1.0162914991378784,-3.0824080149279993
1708433729.3537133,-2.1420323848724365,-1.3333688241294404,-2.5259667078601282,6.11029993274764,1.0162959098815918,-3.08240515390505
1708433729.355683,-2.142064332962036,-1.3333440583995362,-2.5260210672961634,6.110283362656393,1.016319990158081,-3.0824363867389124
1708433729.357723,-2.142050266265869,-1.3332993698171158,-2.5260165373431605,6.1103176949317834,1.0163037776947021,-3.0824602285968226
1708433729.3597023,-2.142098903656006,-1.3333080571940918,-2.5259698073016565,6.110287773400106,1.0162994861602783,-3.082508389149801
1708433729.3616946,-2.142077684402466,-1.3333732795766373,-2.5260074774371546,6.110271322518148,1.0163646936416626,-3.0825441519366663
1708433729.3636978,-2.142066240310669,-1.3333733093789597,-2.526068989430563,6.110221969872274,1.0163887739181519,-3.0826132933246058
1708433729.3657131,-2.1420955657958984,-1.3333036613515397,-2.5260403792010706,6.110238659172811,1.0163559913635254,-3.0826042334186
1708433729.3676784,-2.1420140266418457,-1.3333235544017334,-2.526010338460104,6.110194074898519,1.0163354873657227,-3.0826683680163782
1708433729.3696992,-2.1420342922210693,-1.333332137470581,-2.5260148684131067,6.110268342285909,1.0163428783416748,-3.0826717058764856
1708433729.3717012,-2.141984701156616,-1.333332137470581,-2.526048008595602,6.110220777779379,1.016384482383728,-3.0827491919146937
1708433729.3737361,-2.1420140266418457,-1.333311603670456,-2.526022259389059,6.110182153969564,1.0163922309875488,-3.082702938710348
1708433729.3756886,-2.1419777870178223,-1.333368868832924,-2.526055399571554,6.110198485642233,1.01639986038208,-3.082769219075338
1708433729.3776646,-2.142019510269165,-1.3333278161338349,-2.526097599660055,6.110227811127462,1.0164203643798828,-3.0828092733966272
1708433729.3796852,-2.141984701156616,-1.3333080571940918,-2.526025358830587,6.110235321312704,1.016404151916504,-3.082834545766012
1708433729.3817077,-2.141982316970825,-1.3333331507495423,-2.526034418736593,6.110190975456991,1.0164401531219482,-3.08289343515505
1708433729.3837154,-2.1419575214385986,-1.33331914365802,-2.526072088872091,6.1101876375968835,1.016444444656372,-3.082954231892721
1708433729.3856792,-2.141941547393799,-1.3333364439061661,-2.526076618825094,6.1101965782936,1.016431450843811,-3.0828784147845667
1708433729.3877065,-2.141958475112915,-1.3332993698171158,-2.5260871092425745,6.1101757166679285,1.0164401531219482,-3.082960907612936
1708433729.3897,-2.141941547393799,-1.3333353710225602,-2.5260749498950403,6.110163914948263,1.0164480209350586,-3.082947317753927
1708433729.3917177,-2.141925573348999,-1.3333080571940918,-2.5260704199420374,6.110105502396383,1.016480803489685,-3.083032194768087
1708433729.3937125,-2.141925573348999,-1.333336429005005,-2.5261078516589563,6.110147225647726,1.0164598226547241,-3.083032194768087
1708433729.3956914,-2.141930103302002,-1.3333166104606171,-2.5260749498950403,6.110205518990316,1.0164598226547241,-3.0830765406238
1708433729.39768,-2.1418917179107666,-1.3333570075086136,-2.5260165373431605,6.110130893975057,1.0164926052093506,-3.0831287542926233
1708433729.3997087,-2.1419131755828857,-1.3333116632751008,-2.5260823408709925,6.110113012581625,1.0165045261383057,-3.0831077734576624
1708433729.4017057,-2.1419177055358887,-1.3333570522120972,-2.5261316935168665,6.110151636391439,1.0165289640426636,-3.083172384892599
1708433729.4037082,-2.1419506072998047,-1.333311603670456,-2.5261197725879114,6.110130893975057,1.0164709091186523,-3.083155934010641
1708433729.4056883,-2.1418874263763428,-1.3333036613515397,-2.5261078516589563,6.110086309700765,1.0165290832519531,-3.0832324663745325
1708433729.4077137,-2.1419434547424316,-1.3333073121360322,-2.5261362234698694,6.110178220063009,1.016507625579834,-3.0832324663745325
1708433729.4096904,-2.141914129257202,-1.3332878065160294,-2.5260987917529505,6.110121953278341,1.0165033340454102,-3.0833008925067347
1708433729.411677,-2.1418938636779785,-1.333323524599411,-2.5260897318469446,6.110114443093099,1.016495943069458,-3.08329946199526
1708433729.4137309,-2.1418938636779785,-1.3333080869964142,-2.5261531511889856,6.110118973046102,1.0164828300476074,-3.083365503941671
1708433729.4156804,-2.1418893337249756,-1.3333645176938553,-2.5261078516589563,6.110107052117147,1.0165657997131348,-3.0833311716662806
1708433729.4177177,-2.1419007778167725,-1.3333036613515397,-2.5260613600360315,6.110115873604574,1.0165364742279053,-3.0833311716662806
1708433729.4196994,-2.1419177055358887,-1.333320216541626,-2.5261033217059534,6.110120284348287,1.0165290832519531,-3.083421293889181
1708433729.421667,-2.1418893337249756,-1.333320216541626,-2.5261316935168665,6.110156047135153,1.0165646076202393,-3.083433214818136
1708433729.4237034,-2.141862392425537,-1.333328829412796,-2.5261078516589563,6.110120284348287,1.016540765762329,-3.083473269139425
1708433729.4256682,-2.141862154006958,-1.3333440583995362,-2.5261316935168665,6.110111462860861,1.0165278911590576,-3.0834642092334192
1708433729.4277055,-2.1418867111206055,-1.3333732795766373,-2.5261316935168665,6.110127913742819,1.0165646076202393,-3.083491627370016
1708433729.4296772,-2.1419053077697754,-1.3333116334727784,-2.5261316935168665,6.1100995419319055,1.0165159702301025,-3.083561722432272
1708433729.431721,-2.1418709754943848,-1.3333159250072022,-2.5261271635638636,6.1100817797477625,1.0165777206420898,-3.083531920109884
1708433729.433716,-2.1418938636779785,-1.3333037060550232,-2.5261061827289026,6.1100491164024255,1.0165234804153442,-3.083576504384176
1708433729.435712,-2.1418631076812744,-1.3333397519639512,-2.5260852018939417,6.1100371954734705,1.016556978225708,-3.0835800806628626
1708433729.4377158,-2.1418778896331787,-1.333381102686264,-2.5261181036578577,6.1101441262061975,1.0165321826934814,-3.0835755507098597
1708433729.4396808,-2.1418416500091553,-1.3333116334727784,-2.5261650721179407,6.1100995419319055,1.016573190689087,-3.0836201349841517
1708433729.4417212,-2.1418328285217285,-1.3333570224097748,-2.5260942617999476,6.110102641373434,1.0165646076202393,-3.08362323442568
1708433729.443683,-2.1419003009796143,-1.3333036613515397,-2.5261650721179407,6.110115873604574,1.0165245532989502,-3.08362323442568
1708433729.4457047,-2.1418709754943848,-1.3333287996104737,-2.5261016527758997,6.110078799515524,1.0165245532989502,-3.083618704472677
1708433729.4476795,-2.1418845653533936,-1.3332993698171158,-2.5261061827289026,6.110108363419332,1.0165321826934814,-3.083626095448629
1708433729.4496946,-2.1418585777282715,-1.3333732795766373,-2.5261181036578577,6.110095131188192,1.0165441036224365,-3.083663527165548
1708433729.451694,-2.1418910026550293,-1.3333397519639512,-2.5261693636523646,6.11008762100295,1.0165657997131348,-3.0836804548846644
1708433729.4536839,-2.1418912410736084,-1.3333235544017334,-2.5261650721179407,6.110066878586569,1.0165526866912842,-3.083676878605978
1708433729.4556906,-2.1418957710266113,-1.333320216541626,-2.5261316935168665,6.110108363419332,1.0165278911590576,-3.0836263338672083
1708433729.457728,-2.1418867111206055,-1.33335596442733,-2.5260987917529505,6.110038387566366,1.0165278911590576,-3.083651606236593
1708433729.459683,-2.1418256759643555,-1.33330291629348,-2.5260852018939417,6.110062348633566,1.0165451765060425,-3.0836997667895716
1708433729.4616787,-2.1418755054473877,-1.3333036762527009,-2.5261061827289026,6.1100505469139,1.0165483951568604,-3.0836499373065394
1708433729.4637127,-2.1418910026550293,-1.3334016662887116,-2.5261226336108606,6.110026228218832,1.0165396928787231,-3.0836713949786585
1708433729.4656792,-2.1418371200561523,-1.3333080571940918,-2.5260987917529505,6.110066878586569,1.016568899154663,-3.0836334864245813
1708433729.4677386,-2.1418585777282715,-1.333311603670456,-2.5261316935168665,6.110009896546163,1.0165202617645264,-3.0836878458606165
1708433729.4696853,-2.1418845653533936,-1.333352656369545,-2.5261288324939173,6.11007713058547,1.0165245532989502,-3.0836380163775843
1708433729.471681,-2.141850709915161,-1.333361269240715,-2.5260852018939417,6.1100114462669275,1.0165321826934814,-3.083663527165548
1708433729.473703,-2.1418302059173584,-1.3333687794259568,-2.5261316935168665,6.10999475696639,1.0165526866912842,-3.083642546330587
1708433729.475669,-2.1418302059173584,-1.3333450120738526,-2.5261061827289026,6.109958994179525,1.0165290832519531,-3.0836544672595423
1708433729.477703,-2.1418211460113525,-1.3333080571940918,-2.5261226336108606,6.109944093018331,1.0165207386016846,-3.0836499373065394
1708433729.4796822,-2.141843557357788,-1.3332964044860383,-2.5261197725879114,6.109939682274618,1.0165116786956787,-3.08364707628359
1708433729.481698,-2.141859531402588,-1.3333246123841782,-2.5261152426349085,6.1100337384040735,1.0165202617645264,-3.0836380163775843
1708433729.48371,-2.1418585777282715,-1.3332950633815308,-2.5261486212359827,6.109885799675741,1.0165483951568604,-3.083630625401632
1708433729.4856794,-2.1418211460113525,-1.3333080571940918,-2.5261061827289026,6.109956013947286,1.0165245532989502,-3.0836263338672083
1708433729.4876926,-2.1418845653533936,-1.3333602261594315,-2.5261407534228724,6.109942662506857,1.0164666175842285,-3.083663527165548
1708433729.489689,-2.141850709915161,-1.333324597483017,-2.5261362234698694,6.109869587212362,1.0165332555770874,-3.0836499373065394
1708433729.4916847,-2.1418328285217285,-1.333311603670456,-2.5261226336108606,6.109911072045126,1.0165245532989502,-3.083672348652975
1708433729.4936903,-2.1418933868408203,-1.333315910106041,-2.5261316935168665,6.109936702042379,1.0165581703186035,-3.0835934321032923
1708433729.4956737,-2.1418676376342773,-1.3332921278527756,-2.5261197725879114,6.109981167107382,1.016512155532837,-3.083618704472677
1708433729.497704,-2.1418302059173584,-1.3332950931838532,-2.5261316935168665,6.1098859188850305,1.0165164470672607,-3.083574120198385
1708433729.4996839,-2.141850709915161,-1.3332801771214982,-2.5261107126819056,6.109932172089376,1.016479730606079,-3.083557669316427
1708433729.5017045,-2.141817808151245,-1.3333408546498795,-2.5261288324939173,6.109903681069174,1.0165290832519531,-3.0835347811328333
1708433729.5036862,-2.141817808151245,-1.3332834404757996,-2.5261359850512903,6.109911072045126,1.0165002346038818,-3.0835021177874964
1708433729.5057106,-2.1418888568878174,-1.3333080571940918,-2.5260987917529505,6.109920012741842,1.016495943069458,-3.083482805882589
1708433729.5077407,-2.141850709915161,-1.3333440285972138,-2.5260959307300013,6.109908091812887,1.0165045261383057,-3.083519999180929
1708433729.5096893,-2.141822338104248,-1.3332993698171158,-2.5260372797595423,6.109900581627645,1.0165045261383057,-3.0834465662585657
1708433729.5116978,-2.141846179962158,-1.3333122444203873,-2.5261197725879114,6.109884249954977,1.0164721012115479,-3.0834673086749476
1708433729.5137155,-2.141785144805908,-1.3332801473191758,-2.5260778109179896,6.109863507538595,1.0164850950241089,-3.0834360758410853
1708433729.515693,-2.1418135166168213,-1.333303691153862,-2.5261197725879114,6.109857427864828,1.0164721012115479,-3.0834031740771692
1708433729.517689,-2.141855001449585,-1.3333007109216233,-2.5260914007769983,6.109848487168112,1.0164763927459717,-3.083391253148214
1708433729.5196872,-2.141801118850708,-1.3333036017468949,-2.5260704199420374,6.109857427864828,1.016480803489685,-3.0833759943591517
1708433729.5217068,-2.141831159591675,-1.3333202016404648,-2.5260749498950403,6.109791743546285,1.0164850950241089,-3.0833430925952356
1708433729.5236852,-2.141801118850708,-1.3333364439061661,-2.5260868708239954,6.109800565033712,1.0164357423782349,-3.0832858721362513
1708433729.525676,-2.1418099403381348,-1.333324597483017,-2.5261107126819056,6.109808075218954,1.0164436101913452,-3.083294932042257
1708433729.5277166,-2.141831159591675,-1.333303691153862,-2.5261107126819056,6.1098214266593835,1.0164488554000854,-3.083271090184347
1708433729.5296822,-2.1417958736419678,-1.3333612841418763,-2.5261407534228724,6.109818208008566,1.0164326429367065,-3.083247248326437
1708433729.5316913,-2.141791582107544,-1.3333122742227097,-2.5260704199420374,6.109760510712423,1.016457438468933,-3.0831990877734583
1708433729.5336883,-2.141798496246338,-1.333283470278122,-2.5260584990130823,6.109733211785116,1.016387939453125,-3.083144013081686
1708433729.5356727,-2.1417462825775146,-1.3332877916148682,-2.5260794798480433,6.109745132714071,1.0163713693618774,-3.0830944220172327
1708433729.5376968,-2.1417622566223145,-1.333303691153862,-2.5260823408709925,6.10963915565566,1.016387939453125,-3.08303410211672
1708433729.5396805,-2.1417667865753174,-1.333290771847107,-2.5260868708239954,6.10965262630538,1.0164203643798828,-3.0829830805407923
1708433729.541682,-2.141726016998291,-1.3333655011704941,-2.5260542074786585,6.109637605934896,1.0163547992706299,-3.082963768635885
1708433729.5436988,-2.141719102859497,-1.333292157655098,-2.5260780493365687,6.109592664032736,1.0164128541946411,-3.0828784147845667
1708433729.545689,-2.1416773796081543,-1.3333373975804825,-2.526116911564962,6.1095942137535,1.0164010524749756,-3.0828092733966272
1708433729.547729,-2.1417086124420166,-1.3333036613515397,-2.526133124028341,6.109476315766134,1.016363501548767,-3.0827632586108606
1708433729.5496874,-2.1416172981262207,-1.3333080273917695,-2.5260959307300013,6.109482276230612,1.0163516998291016,-3.082740370427267
1708433729.5516813,-2.1416332721710205,-1.3332964193871994,-2.5260704199420374,6.109444725304403,1.0163966417312622,-3.0826264063464563
1708433729.5537431,-2.141535758972168,-1.3333165508559723,-2.5260914007769983,6.1094257710273645,1.0163187980651855,-3.082562510167257
1708433729.5556793,-2.141566038131714,-1.3333408248475571,-2.5261405150042933,6.109335768013754,1.0164010524749756,-3.0824950377093714
1708433729.5577135,-2.141530752182007,-1.333361194734909,-2.5260704199420374,6.10934470871047,1.0163602828979492,-3.0824437777148646
1708433729.5596821,-2.1414902210235596,-1.333324597483017,-2.5260615984546106,6.109308707505026,1.0163440704345703,-3.08232289949526
1708433729.561681,-2.1414902210235596,-1.3333408248475571,-2.5261123816119593,6.109269964485922,1.0163440704345703,-3.082275931035177
1708433729.56368,-2.1414008140563965,-1.3333397519639512,-2.5261197725879114,6.109223949700155,1.0163484811782837,-3.0821800867663782
1708433729.5656934,-2.141390323638916,-1.3332963746837159,-2.5261078516589563,6.1092461226280115,1.0163440704345703,-3.0820825735675257
1708433729.5677073,-2.1413655281066895,-1.3333246123841782,-2.5261452833758753,6.109198200493612,1.0163527727127075,-3.081961695347921
1708433729.5696926,-2.1413538455963135,-1.3333036762527009,-2.5261243025409144,6.109223353653707,1.0163319110870361,-3.081931177769796
1708433729.571678,-2.141310930252075,-1.3332749468139191,-2.5260914007769983,6.109154689102926,1.0163156986236572,-3.0817773977862757
1708433729.5736983,-2.1412789821624756,-1.3333079826882859,-2.5260539690600794,6.109135257988729,1.0163484811782837,-3.0817275683032435
1708433729.5756965,-2.1412065029144287,-1.333373249774315,-2.5261078516589563,6.1090338108833215,1.0163809061050415,-3.0816481749164026
1708433729.5776763,-2.1411385536193848,-1.3332748723081131,-2.5261622110949915,6.109035241394796,1.0163851976394653,-3.081473414097921
1708433729.5796976,-2.1411430835723877,-1.333332137470581,-2.5261452833758753,6.10895465591506,1.016323208808899,-3.081432882939474
1708433729.581677,-2.1410715579986572,-1.3333116334727784,-2.5261033217059534,6.108939635544576,1.0163319110870361,-3.0813289324389856
1708433729.5836966,-2.14103627204895,-1.3333689135364075,-2.5261078516589563,6.108842599182882,1.0163112878799438,-3.081158224736349
1708433729.5856931,-2.1410043239593506,-1.333292157655098,-2.5261316935168665,6.108777987747946,1.0163559913635254,-3.0810709635363978
1708433729.587678,-2.140944242477417,-1.333283470278122,-2.5261152426349085,6.108719932823934,1.016319990158081,-3.080942455922262
1708433729.589679,-2.1408727169036865,-1.3333122593215485,-2.526139561329977,6.108656751900472,1.0163354873657227,-3.080869261418478
1708433729.591673,-2.140795946121216,-1.333292157655098,-2.5261061827289026,6.108580815583029,1.0163559913635254,-3.080747429524557
1708433729.5937011,-2.140773057937622,-1.3332629066756745,-2.526172463093893,6.108410346298971,1.0163484811782837,-3.080583159123556
1708433729.595708,-2.140659809112549,-1.3332921427539368,-2.526135031376974,6.108331310539999,1.0163887739181519,-3.080466334019796
1708433729.5976775,-2.1406052112579346,-1.3333278459361573,-2.5261271635638636,6.108231413155355,1.0163319110870361,-3.080387894307272
1708433729.59968,-2.1405282020568848,-1.3332671833089371,-2.52614409128298,6.108111727028646,1.0163689851760864,-3.080254856740133
1708433729.601685,-2.140493869781494,-1.33334934831176,-2.526200834904806,6.108021604805746,1.0163722038269043,-3.0801783243762415
1708433729.6036804,-2.140393018722534,-1.3332993698171158,-2.5261917749988,6.107897746353903,1.0163887739181519,-3.080078188573019
1708433729.6056798,-2.140260696411133,-1.3333397519639512,-2.5261691252337855,6.1077661392982385,1.0164084434509277,-3.0799012819873255
1708433729.607686,-2.1402218341827393,-1.3333278161338349,-2.5262442270862024,6.107621180802145,1.0164618492126465,-3.0798054377185267
1708433729.6096888,-2.140104055404663,-1.3333440583995362,-2.5262354055987757,6.107449400215902,1.0164084434509277,-3.079623524342672
1708433729.611674,-2.1399972438812256,-1.3333602857640763,-2.526313368474142,6.107329952507772,1.0164282321929932,-3.079562250767843
1708433729.6136782,-2.139885187149048,-1.3333516132882615,-2.526300017033712,6.107162582665243,1.016431450843811,-3.07941705385317
1708433729.6156943,-2.139768362045288,-1.3333397519639512,-2.52631646791567,6.107030975609579,1.0164721012115479,-3.0792818705188196
1708433729.6176863,-2.1397385597229004,-1.3333429855159302,-2.5263357798205774,6.106917130738058,1.0164555311203003,-3.079148832951681
1708433729.6196702,-2.139577865600586,-1.333323524599411,-2.5263553301440638,6.106687533646383,1.0165581703186035,-3.079054657612936
1708433729.6216757,-2.1395249366760254,-1.3333073568395157,-2.526449982319967,6.106561291008749,1.016540765762329,-3.0788851420031946
1708433729.62367,-2.139362096786499,-1.3333725047162552,-2.5263851324664515,6.106397139817037,1.0165483951568604,-3.078766409550802
1708433729.6256788,-2.139251947402954,-1.3333551746657868,-2.5264559427844446,6.106184828072347,1.016576886177063,-3.07864219347109
1708433729.6276855,-2.13909912109375,-1.3333811473897477,-2.5264468828784388,6.106054889946737,1.0165886878967285,-3.0784974733935755
1708433729.6297228,-2.138939142227173,-1.3333887469819565,-2.5265398661242884,6.105827677040853,1.0166293382644653,-3.078341547642843
1708433729.6316674,-2.1387860774993896,-1.3333551746657868,-2.5265308062182825,6.105633127480306,1.0166163444519043,-3.0782137552844446
1708433729.633682,-2.138573408126831,-1.3333385449698945,-2.5265801588641565,6.105334746628561,1.016640067100525,-3.0780771414386194
1708433729.6356728,-2.1384637355804443,-1.3333559793284913,-2.526599947606222,6.1051297066505334,1.016685128211975,-3.0779622236834925
1708433729.6376917,-2.138357162475586,-1.3333602857640763,-2.526635710393087,6.104918944626608,1.0167210102081299,-3.077850882207052
1708433729.639668,-2.13809871673584,-1.333342970614769,-2.5266552607165735,6.104703533440389,1.0167737007141113,-3.077693764363424
1708433729.641689,-2.1379470825195312,-1.333339811568596,-2.526703182850973,6.104394423752584,1.01681387424469,-3.0775817076312464
1708433729.6436744,-2.1378304958343506,-1.3333515983871003,-2.526752773915426,6.104180443077841,1.0168577432632446,-3.0774675051318567
1708433729.6456888,-2.137601613998413,-1.3333887469819565,-2.5267677942859095,6.103892195015707,1.0169178247451782,-3.0773070494281214
1708433729.6476846,-2.137390613555908,-1.3333757531693955,-2.5267871061908167,6.103569495468893,1.0170236825942993,-3.0771799723254603
1708433729.649686,-2.137141704559326,-1.3333385300687333,-2.526811424885885,6.103297459870138,1.0170707702636719,-3.0770602861987513
1708433729.651678,-2.136909008026123,-1.3334128719619294,-2.5269041697131556,6.10297857502059,1.0170655250549316,-3.076895300542013
1708433729.6537101,-2.1366825103759766,-1.3334041398814698,-2.526902739201681,6.102678167610922,1.0171788930892944,-3.07677132288088
1708433729.6556942,-2.1365139484405518,-1.3333790761283417,-2.5269551912890833,6.1024255631263635,1.0172184705734253,-3.0766361395465296
1708433729.6577077,-2.136274576187134,-1.3334200245193024,-2.527052942906515,6.102053391724386,1.0172336101531982,-3.076454464589254
1708433729.6596732,-2.1359822750091553,-1.3334972125342865,-2.527072254811422,6.101754414826193,1.0173263549804688,-3.076327387486593
1708433729.6617053,-2.1357340812683105,-1.3334637594274064,-2.5271247068988245,6.101329791336813,1.01740300655365,-3.0762324968921106
1708433729.663709,-2.135504722595215,-1.333459423189499,-2.5272088686572474,6.100951778679647,1.0174793004989624,-3.0761008898364466
1708433729.6656756,-2.135199546813965,-1.3334875863841553,-2.527289930974142,6.100512492447653,1.0175187587738037,-3.0759738127337855
1708433729.6676955,-2.1349658966064453,-1.3335234236768265,-2.5273121039019983,6.100136983185568,1.0176194906234741,-3.0757880846606653
1708433729.6696815,-2.134690046310425,-1.3335395616343995,-2.527367655430929,6.099781381874838,1.017672061920166,-3.0757339636432093
1708433729.6717417,-2.134415864944458,-1.3335352850011368,-2.5274606386767786,6.0994030115898035,1.0177559852600098,-3.075540844594137
1708433729.6737177,-2.1340949535369873,-1.3335276556066056,-2.527520720158712,6.0989261744316,1.0178444385528564,-3.075387779866354
1708433729.6757164,-2.133852958679199,-1.3335680079511185,-2.527571503316061,6.09845398643569,1.017891764640808,-3.0753379503833216
1708433729.6776915,-2.1334428787231445,-1.3335388463786622,-2.5276315847979944,6.097959744721212,1.0179669857025146,-3.0752065817462366
1708433729.6796944,-2.133173704147339,-1.3336040091565629,-2.5277321974383753,6.097481238632955,1.018097162246704,-3.0750296751605433
1708433729.6816695,-2.1328060626983643,-1.3335550439408799,-2.527807060872213,6.097028124123373,1.0181846618652344,-3.0748775641070765
1708433729.6836836,-2.132458209991455,-1.333595336680748,-2.5279462973224085,6.096513616829672,1.01828932762146,-3.074724022542135
1708433729.685699,-2.132108688354492,-1.333618940120079,-2.527926746998922,6.096016514092245,1.0183770656585693,-3.074648920689718
1708433729.6877005,-2.1317684650421143,-1.3336354953101655,-2.528065029774801,6.095448124199667,1.0184730291366577,-3.074538294469015
1708433729.6896956,-2.1314175128936768,-1.333699644809105,-2.528144423161642,6.094900953560629,1.018588900566101,-3.074454371129171
1708433729.691692,-2.130981206893921,-1.333650605087616,-2.5282581488238733,6.094404685288229,1.0187385082244873,-3.0743427912341517
1708433729.6937127,-2.130618095397949,-1.3336747151664277,-2.5283289591418665,6.09376476982192,1.0188227891921997,-3.074242655430929
1708433729.695721,-2.13012957572937,-1.3337224286845704,-2.5284295717822474,6.093161332398214,1.0189385414123535,-3.074106518422262
1708433729.6976812,-2.1297266483306885,-1.33379618943248,-2.528558079396383,6.092494952469625,1.0191360712051392,-3.073994223271505
1708433729.6996937,-2.129288673400879,-1.3337713789990921,-2.5286455790149134,6.091890561371603,1.0191779136657715,-3.0739076773272913
1708433729.7016773,-2.1288249492645264,-1.3337865632823487,-2.5287488142596644,6.091244685440817,1.0193595886230469,-3.073782745991842
1708433729.7036967,-2.128328561782837,-1.3338193011334916,-2.528849188481466,6.090589749604025,1.0194544792175293,-3.0737033526050013
1708433729.7057128,-2.1279075145721436,-1.3338513684323807,-2.5289483706103724,6.089939820557394,1.01962411403656,-3.073620859776632
1708433729.7077127,-2.1274805068969727,-1.3337693077376862,-2.5291221777545374,6.089303242951193,1.0198051929473877,-3.0734387079821985
1708433729.7096856,-2.12703537940979,-1.3338096600821991,-2.5292001406299036,6.0885881064231775,1.019924283027649,-3.0734038988696497
1708433729.7116866,-2.126461982727051,-1.333838478927948,-2.5293293634997767,6.087861883431234,1.0200985670089722,-3.073287312184469
1708433729.7137232,-2.1259424686431885,-1.33394409835849,-2.529547993336813,6.087044942169943,1.0202414989471436,-3.0732041041003626
1708433729.7156892,-2.125424861907959,-1.33388967931781,-2.5296664873706263,6.08628402927474,1.0203684568405151,-3.073139731084005
1708433729.7177172,-2.1248703002929688,-1.3339224767735978,-2.529788080845968,6.085494982987203,1.0205912590026855,-3.073057238255636
1708433729.7196882,-2.1243276596069336,-1.3339787286571045,-2.5299649874316614,6.084725844651022,1.0207343101501465,-3.0729153792010706
1708433729.7216823,-2.1237668991088867,-1.3339701157859345,-2.5301342646228235,6.083916413574972,1.0209072828292847,-3.0728448073016565
1708433729.723694,-2.1232755184173584,-1.3339820367148896,-2.530262056981222,6.08311008194045,1.0210471153259277,-3.072789255772726
1708433729.7256792,-2.1226463317871094,-1.3340256971171875,-2.5304015318499964,6.082146632462301,1.0212479829788208,-3.0727081934558313
1708433729.7276793,-2.122065305709839,-1.3340257120183487,-2.530557457600729,6.081286060601034,1.02139151096344,-3.0726664702044886
1708433729.7296937,-2.1214942932128906,-1.3341069829515,-2.530746046696798,6.080419766693868,1.021637201309204,-3.07261830965151
1708433729.7316837,-2.120837688446045,-1.3340855103782197,-2.530905310307638,6.079467522888937,1.0218619108200073,-3.0725541750537317
1708433729.7336764,-2.1201865673065186,-1.3341462773135682,-2.5310969988452356,6.07857512214736,1.0220580101013184,-3.0724526087390345
1708433729.7356863,-2.1195852756500244,-1.3341008138707657,-2.5312984625445765,6.077608692436971,1.0223026275634766,-3.072479311619894
1708433729.7377148,-2.1189184188842773,-1.334201605325081,-2.5314493815051478,6.0767544386680505,1.0224865674972534,-3.072390858327047
1708433729.7396882,-2.1183114051818848,-1.3342214834741135,-2.5316086451159876,6.075777160912313,1.0227105617523193,-3.072305504475729
1708433729.7416804,-2.1176748275756836,-1.334273324613907,-2.531825844441549,6.074774133950033,1.0229564905166626,-3.0722363630877894
1708433729.743706,-2.1169488430023193,-1.3342682731202622,-2.532018009816305,6.073872077256002,1.0231684446334839,-3.072238032017843
1708433729.7456734,-2.1163318157196045,-1.3343006086400528,-2.5321977774249476,6.07281659820632,1.023432970046997,-3.0722110907184046
1708433729.7476764,-2.1156115531921387,-1.3343659353307267,-2.5324061552630823,6.071899640351095,1.023637294769287,-3.0721257368670862
1708433729.7496786,-2.114954948425293,-1.3343238693526764,-2.532619301472799,6.070882785111227,1.0239194631576538,-3.0720773378955286
1708433729.7516847,-2.114194631576538,-1.334399865274765,-2.5327826181994837,6.069836604386129,1.0240901708602905,-3.0720582644092005
1708433729.753687,-2.1134936809539795,-1.3344235581210633,-2.5329821745501917,6.068744408875265,1.0243719816207886,-3.07204777399172
1708433729.755676,-2.1126978397369385,-1.3344882887652894,-2.533166472111837,6.067675816803732,1.0246485471725464,-3.072038714085714
1708433729.7577176,-2.111987352371216,-1.3345689934543152,-2.5333779493915003,6.0665732500846765,1.0248873233795166,-3.072068516408102
1708433729.759672,-2.111220598220825,-1.3346045923284073,-2.5336015860186976,6.065504300385275,1.0251491069793701,-3.0719950834857386
1708433729.7616706,-2.1105048656463623,-1.3346157383969803,-2.5337980429278772,6.064517247467794,1.0254286527633667,-3.0720024744616907
1708433729.763691,-2.1097614765167236,-1.3346801412156601,-2.5340543429004114,6.063469517021932,1.0256770849227905,-3.072024647389547
1708433729.7656956,-2.1089704036712646,-1.3346790087274094,-2.53422981897463,6.0623676655586145,1.0259417295455933,-3.0719996134387415
1708433729.7677126,-2.1082401275634766,-1.3347387623837967,-2.5344939867602747,6.061242449074545,1.0261937379837036,-3.0719743410693567
1708433729.769686,-2.1074516773223877,-1.334790752535202,-2.5347426573382776,6.0600284216697595,1.0265260934829712,-3.0719905535327356
1708433729.771708,-2.1066336631774902,-1.3348343682340165,-2.534977976475851,6.058922040253439,1.0267678499221802,-3.072040383015768
1708433729.773711,-2.1057844161987305,-1.33489944160495,-2.5352466742144983,6.057647692948141,1.027060627937317,-3.072056833897726
1708433729.7756736,-2.1049697399139404,-1.3350081008723755,-2.535456720982687,6.056496727257528,1.0273569822311401,-3.0720670858966272
1708433729.7777002,-2.1041665077209473,-1.3350144785693665,-2.535717550908224,6.055263864784994,1.0275962352752686,-3.0720418135272425
1708433729.7796779,-2.1032919883728027,-1.335095227961876,-2.535974089299337,6.0540655730064294,1.0279430150985718,-3.0721123854266565
1708433729.7816887,-2.102440118789673,-1.3351095777801056,-2.5362380186664026,6.052838551789083,1.0282154083251953,-3.0721805731402796
1708433729.7837389,-2.101569414138794,-1.3351504367640992,-2.536494318638937,6.051622974663534,1.0285154581069946,-3.0722134749041956
1708433729.7856905,-2.1007089614868164,-1.3352706295302887,-2.5367208162890833,6.050324189453878,1.0288399457931519,-3.0722363630877894
1708433729.7876954,-2.0997843742370605,-1.335282103424408,-2.5370386282550257,6.049004065781393,1.0292290449142456,-3.0722721258746546
1708433729.7896888,-2.0988667011260986,-1.3353742820075531,-2.5373099485980433,6.047679531365194,1.0295896530151367,-3.0722904841052454
1708433729.7916784,-2.097994327545166,-1.3354613047889252,-2.537574354802267,6.046485769539633,1.0299296379089355,-3.0723350683795374
1708433729.793712,-2.0971128940582275,-1.3355092865279694,-2.5378287474261683,6.045205461769857,1.0302294492721558,-3.0723353067981165
1708433729.795679,-2.0962235927581787,-1.3356295836022873,-2.5381420294391077,6.0438891527946375,1.0306147336959839,-3.072411600743429
1708433729.7977042,-2.095355272293091,-1.3357407611659546,-2.5383971373187464,6.04261206367568,1.0309431552886963,-3.0724192301379603
1708433729.7996833,-2.0944173336029053,-1.3357756000808259,-2.538715187703268,6.0412306664283655,1.031279444694519,-3.0724592844592493
1708433729.8016775,-2.0934090614318848,-1.335879774098732,-2.5389910379992884,6.039904224663534,1.0316402912139893,-3.0725401083575647
1708433729.8037302,-2.0924601554870605,-1.3359752607396622,-2.5392983595477503,6.03855453708724,1.031997799873352,-3.0725913683520716
1708433729.8056948,-2.0915050506591797,-1.3360992682031174,-2.5396433512317103,6.037178027420797,1.0324105024337769,-3.0726681391345423
1708433729.8077128,-2.090536117553711,-1.336194933657982,-2.539935890828268,6.035786497383871,1.0327950716018677,-3.072730604802267
1708433729.8096745,-2.089517831802368,-1.3363554638675232,-2.540168110524313,6.034423935204305,1.0332046747207642,-3.0728233496295374
1708433729.81168,-2.0886054039001465,-1.3364263635924836,-2.5404980818377894,6.033034550934591,1.0336179733276367,-3.072904411946432
1708433729.8137007,-2.087567090988159,-1.336611108188965,-2.5408058802234095,6.031711327820577,1.0340111255645752,-3.0729392210589808
1708433729.8156788,-2.086627721786499,-1.3366896373084565,-2.541105333958761,6.030315387039938,1.0343708992004395,-3.0730765501605433
1708433729.8177006,-2.085576295852661,-1.3367885810187836,-2.541417423878805,6.028919684677877,1.0348256826400757,-3.0731681028949183
1708433729.8197052,-2.0846056938171387,-1.336940736775734,-2.541762415562765,6.027484643250265,1.0351853370666504,-3.0732510725604456
1708433729.8216822,-2.0835251808166504,-1.3370438826135178,-2.5421510378467005,6.025995361595907,1.0356148481369019,-3.0734263102160853
1708433729.8237445,-2.0824813842773438,-1.337212012415268,-2.5424819628344935,6.024501549988546,1.0360386371612549,-3.07349664369692
1708433729.8256965,-2.0814247131347656,-1.337335394029953,-2.5428269545184534,6.023032414704122,1.0364999771118164,-3.073653523121969
1708433729.8277116,-2.0803680419921875,-1.3375316721251984,-2.5431512037860315,6.021593677788534,1.036884069442749,-3.0737813154803675
1708433729.8297515,-2.0792973041534424,-1.3376916360906144,-2.543485466633932,6.020109998970785,1.037289023399353,-3.0738170782672327
1708433729.8316948,-2.0782506465911865,-1.3377500486424942,-2.543825928364889,6.018599140435018,1.0377018451690674,-3.0740161577807825
1708433729.8337023,-2.07717227935791,-1.3378739219954987,-2.544173781071798,6.017162191658773,1.0381715297698975,-3.0740984121905726
1708433729.8359783,-2.0761098861694336,-1.338045523767807,-2.5445550123797815,6.0156569359596155,1.0386450290679932,-3.074254337941305
1708433729.8376896,-2.0749878883361816,-1.3382411164096375,-2.544898335133688,6.014217722206869,1.039122462272644,-3.074407402669088
1708433729.839695,-2.0739078521728516,-1.3383433532765885,-2.5452867189990442,6.012720453530111,1.0396230220794678,-3.0745344797717493
1708433729.8421333,-2.0727951526641846,-1.3385273826173325,-2.545698944722311,6.011153447418966,1.0401161909103394,-3.0747128168689173
1708433729.8436842,-2.0716819763183594,-1.338706613784172,-2.546079460774557,6.009633767395773,1.0406049489974976,-3.07485539117922
1708433729.84574,-2.070549249649048,-1.3389032495072861,-2.546421829854147,6.008163320809164,1.0410407781600952,-3.074992005025045
1708433729.8476932,-2.0693867206573486,-1.339005635385849,-2.546781603490011,6.006646621018209,1.0415273904800415,-3.0751715342151087
1708433729.8497293,-2.068225383758545,-1.339197890167572,-2.547189537678854,6.0051050064857385,1.0419831275939941,-3.075357262288229
1708433729.851703,-2.0671167373657227,-1.339405359034874,-2.5475686232196253,6.003572571068563,1.042457103729248,-3.0754531065570276
1708433729.8537035,-2.06600284576416,-1.339622051720955,-2.547993246709005,6.002091276436605,1.0429747104644775,-3.07560903230776
1708433729.8557072,-2.064840793609619,-1.339784787302353,-2.548426691685812,6.000525939255514,1.0434911251068115,-3.0757935682879847
1708433729.8576913,-2.063598871231079,-1.3399676841548462,-2.5488510767566126,5.998948561936178,1.0440410375595093,-3.075962845479147
1708433729.8596916,-2.06250262260437,-1.3401869547418137,-2.5492993036853235,5.997361528664388,1.0445080995559692,-3.0761619249926966
1708433729.8617187,-2.061368465423584,-1.3404033345035096,-2.549706999455587,5.995718705445089,1.0450338125228882,-3.076366964970724
1708433729.8636997,-2.0601651668548584,-1.340553642516472,-2.550098244343893,5.994226205139913,1.0455278158187866,-3.076516930256979
1708433729.8657258,-2.0589892864227295,-1.34074059248481,-2.550504748021261,5.992716777115621,1.0459585189819336,-3.0766733328448694
1708433729.8676925,-2.057793378829956,-1.3409196895411988,-2.5508795420276087,5.991068827896871,1.046424150466919,-3.0768945852862757
1708433729.8696866,-2.0566227436065674,-1.3411837828210373,-2.5513487497912806,5.9895585654075525,1.046905279159546,-3.0770538488971155
1708433729.8716757,-2.055473566055298,-1.3413774085095902,-2.5517357031451624,5.988026606827535,1.0474143028259277,-3.0772483984576624
1708433729.8736963,-2.054302453994751,-1.341651351456978,-2.5521963278399866,5.986399161606588,1.047916054725647,-3.077416483555929
1708433729.8756924,-2.053098201751709,-1.3417971295169373,-2.5526564756976526,5.9848612425620935,1.0484610795974731,-3.0775886217700403
1708433729.8776789,-2.0519299507141113,-1.3421263855746766,-2.5531097094165247,5.983350026398458,1.0489859580993652,-3.077796761189596
1708433729.8797004,-2.050665855407715,-1.342290238743164,-2.5535274187671106,5.981841194420614,1.0495113134384155,-3.0779882113086146
1708433729.8816798,-2.0495052337646484,-1.3426003021052857,-2.5539637247668665,5.98027657249526,1.0500555038452148,-3.078196112309591
1708433729.8836877,-2.0482850074768066,-1.3427927207997818,-2.5544708410846155,5.978763329773702,1.0506014823913574,-3.0783801714526575
1708433729.8857093,-2.0470941066741943,-1.3430524480393906,-2.55485183397402,5.9771238444145105,1.0511261224746704,-3.078649107609884
1708433729.887694,-2.0459330081939697,-1.3433612448028107,-2.5552881399737757,5.975655662804403,1.0517040491104126,-3.078841511403219
1708433729.889692,-2.0447049140930176,-1.3435633939555665,-2.555722777043478,5.974071371346273,1.0522208213806152,-3.079007689152853
1708433729.8916795,-2.043489694595337,-1.3438843202641984,-2.556187693272726,5.9725921032722376,1.0528180599212646,-3.079235378895895
1708433729.8936856,-2.0423121452331543,-1.3440655928901215,-2.556647841130392,5.971076357155599,1.053435206413269,-3.0794387499438685
1708433729.8957026,-2.0410804748535156,-1.3443396252444764,-2.5571489969836634,5.969520318299093,1.054077386856079,-3.0796831289874476
1708433729.8976758,-2.0398623943328857,-1.3446438026479264,-2.557599131261007,5.967997658043661,1.0546663999557495,-3.0798679033862513
1708433729.899697,-2.038696527481079,-1.344943256383278,-2.5580387751208704,5.966472494393148,1.0552341938018799,-3.0800700823413294
1708433729.9016848,-2.0374348163604736,-1.3452017468265076,-2.5585230032550257,5.964971649437704,1.0557878017425537,-3.0802696386920374
1708433729.9036791,-2.0361900329589844,-1.3454485100558777,-2.558941666279928,5.963427769928732,1.0562959909439087,-3.0804598967181605
1708433729.9056988,-2.034968137741089,-1.3457724314979096,-2.559422556553976,5.961913215904989,1.0568772554397583,-3.080738369618551
1708433729.9076931,-2.033691644668579,-1.3460234266570588,-2.5599103609668177,5.960419285088339,1.0574138164520264,-3.0809300581561487
1708433729.9096942,-2.0324840545654297,-1.3463578832200547,-2.5603869597064417,5.958846914559164,1.0579957962036133,-3.081219259892599
1708433729.9116776,-2.031245470046997,-1.3466661435416718,-2.5608368555652063,5.957322585373678,1.0585204362869263,-3.0814181009875696
1708433729.9137151,-2.029928207397461,-1.3469494444182892,-2.5613396803485315,5.955813991814413,1.0591052770614624,-3.081588093434469
1708433729.9156806,-2.0287153720855713,-1.3472310465625306,-2.561812225972311,5.954161870270529,1.0597481727600098,-3.0818443934070032
1708433729.917703,-2.0274646282196045,-1.3475868564895173,-2.5623562971698206,5.9526710388954065,1.0603113174438477,-3.082109276448385
1708433729.9196787,-2.026207447052002,-1.347881020312645,-2.562831703816549,5.951242911606588,1.0609544515609741,-3.08235747018923
1708433729.9217124,-2.0249738693237305,-1.3482082200101395,-2.5632789770709437,5.94970856884078,1.0614733695983887,-3.082604710255758
1708433729.923722,-2.0237109661102295,-1.348437563782074,-2.563815418873922,5.9482120154197595,1.062080979347229,-3.0828238169299524
1708433729.9257164,-2.022420644760132,-1.3488215965083619,-2.564340416585104,5.946693646698751,1.062630534172058,-3.0831339995013636
1708433729.9277244,-2.0211660861968994,-1.3491857212832947,-2.5648325125323694,5.945232736855306,1.0632177591323853,-3.083311144505636
1708433729.9297202,-2.0198113918304443,-1.3495196116021653,-2.5653274695025843,5.943658935814657,1.0638561248779297,-3.083564345036642
1708433729.9316888,-2.018559217453003,-1.349849985246994,-2.565932575856344,5.942103969841757,1.0644443035125732,-3.0837863127337855
1708433729.9337068,-2.0171878337860107,-1.3501931589892884,-2.566437069569723,5.940573322563925,1.0650949478149414,-3.0840464274035853
1708433729.9356995,-2.015878200531006,-1.350531594162323,-2.566967789326803,5.9390790341194055,1.0656627416610718,-3.0843103567706507
1708433729.937696,-2.014549493789673,-1.3509358924678345,-2.567474667225973,5.937659609108724,1.0662684440612793,-3.0845945517169397
1708433729.9396725,-2.01326847076416,-1.3512976181558152,-2.568018976842062,5.936264383583822,1.0668532848358154,-3.084769312535421
1708433729.9416773,-2.011974334716797,-1.3516493153623124,-2.568634096776144,5.93471251705245,1.0674443244934082,-3.085025135670797
1708433729.9436734,-2.0106470584869385,-1.3520641338876267,-2.569143835698263,5.93321584442214,1.0680583715438843,-3.085335079823629
1708433729.9456673,-2.0092883110046387,-1.3524589401534577,-2.5696755091296595,5.9317500469978235,1.068630337715149,-3.0855940024005335
1708433729.9476943,-2.0079150199890137,-1.352825329904892,-2.570247236882345,5.9301761267478845,1.0693074464797974,-3.0858386198626917
1708433729.9496946,-2.0065979957580566,-1.3532108825496216,-2.570836369191305,5.928642737656393,1.0699067115783691,-3.086130444203512
1708433729.9516764,-2.0052497386932373,-1.3535947811654587,-2.5713797251330774,5.927126991539755,1.0705281496047974,-3.0863822142230433
1708433729.9536843,-2.0038864612579346,-1.3540299397758027,-2.5719388167010706,5.925519454270162,1.0711283683776855,-3.0866079966174524
1708433729.955673,-2.0025265216827393,-1.3544162225774308,-2.5724414030658167,5.924036133080282,1.0716724395751953,-3.086893860493795
1708433729.9576957,-2.0011913776397705,-1.354785830979683,-2.572993580495016,5.9226417420204065,1.0723050832748413,-3.0870991388904017
1708433729.9596868,-1.9998823404312134,-1.3551754665425797,-2.573578659688131,5.9211169359977625,1.0728766918182373,-3.0873759428607386
1708433729.96169,-1.9985793828964233,-1.3555939954570313,-2.5741542021380823,5.91963957527236,1.0735431909561157,-3.087672297154562
1708433729.9636831,-1.9971758127212524,-1.3560342353633423,-2.5747342745410364,5.918215501099386,1.0742089748382568,-3.087940518056051
1708433729.9656854,-1.9957919120788574,-1.3565044862082978,-2.575348440800802,5.916664469033041,1.0748374462127686,-3.088156048451559
1708433729.9676955,-1.9943782091140747,-1.356976405983307,-2.575885836278097,5.915179598122396,1.0755301713943481,-3.088476006184713
1708433729.969713,-1.993006944656372,-1.357402355676033,-2.5764907042132776,5.913691389351644,1.076177716255188,-3.0887232462512415
1708433729.9716969,-1.9916123151779175,-1.3577992928079148,-2.577066246663229,5.91213487365798,1.0768144130706787,-3.0889528433429163
1708433729.9736927,-1.990155577659607,-1.3582462978414078,-2.5776999632464808,5.910740363388815,1.077410340309143,-3.0892344156848353
1708433729.9756863,-1.9888041019439697,-1.3587212723544617,-2.578258816395895,5.909218537598409,1.0780519247055054,-3.089555803929464
1708433729.977685,-1.9873878955841064,-1.3591468048146744,-2.5788210074054163,5.907770621567526,1.0786070823669434,-3.089761797581808
1708433729.9796836,-1.9859881401062012,-1.359589697127678,-2.579437319432394,5.906360614090719,1.0791912078857422,-3.0899675528155726
1708433729.9817033,-1.9846490621566772,-1.3600558203509827,-2.5800536314593714,5.904971825867452,1.0797839164733887,-3.0902443567859095
1708433729.9837096,-1.9833000898361206,-1.3604982209256669,-2.580658260975973,5.903543698578634,1.0804662704467773,-3.0904510656939905
1708433729.9857051,-1.981850504875183,-1.3609603357366105,-2.58122426668276,5.902114140778341,1.0810177326202393,-3.0907819906817835
1708433729.9876823,-1.9804106950759888,-1.3614445638707657,-2.581862274800436,5.900538670807638,1.0815987586975098,-3.09098726907839
1708433729.989678,-1.9789788722991943,-1.3618887525847931,-2.582435909901754,5.899101722031393,1.0820894241333008,-3.091239039097921
1708433729.9916928,-1.977559208869934,-1.362367959027626,-2.5830557982074183,5.897630202561178,1.0827237367630005,-3.0914672056781214
1708433729.993689,-1.9761707782745361,-1.362789661889412,-2.583674494420187,5.896180975228109,1.0833444595336914,-3.0917144457446497
1708433729.9956806,-1.974758505821228,-1.3632431787303467,-2.584273163472311,5.894677507668295,1.0839204788208008,-3.091986958180563
1708433729.997686,-1.9733515977859497,-1.363698811536171,-2.5849342981921595,5.89330421665267,1.0845128297805786,-3.0922520796405237
1708433729.9996886,-1.9719586372375488,-1.3642145109227677,-2.585517470036642,5.891842114716329,1.0851047039031982,-3.09251577058901
1708433730.0017476,-1.9705312252044678,-1.3646357518485566,-2.5861194769488733,5.890440451889791,1.0857179164886475,-3.092733923588888
1708433730.0037277,-1.9691351652145386,-1.365102396612503,-2.5867918173419397,5.889021861344137,1.0863029956817627,-3.0929866472827356
1708433730.0057256,-1.9676826000213623,-1.365677074795105,-2.5874221960650843,5.8875746605689905,1.086898922920227,-3.093189303074972
1708433730.0077207,-1.9662266969680786,-1.366103248005249,-2.5880983511554163,5.8861063597495935,1.0875242948532104,-3.093470636998312
1708433730.0097065,-1.964821219444275,-1.366631032233574,-2.5886998812304896,5.884707915573873,1.0880908966064453,-3.093665663396017
1708433730.011751,-1.963365077972412,-1.3670393240502854,-2.589344326649801,5.883206355362692,1.0886112451553345,-3.093949858342306
1708433730.0137222,-1.961905598640442,-1.3675619822791596,-2.589970652257101,5.881754386215963,1.0891354084014893,-3.0940867106067103
1708433730.0156946,-1.9604531526565552,-1.3679571759751816,-2.590626064931051,5.880249130516805,1.0897209644317627,-3.0943229834186
1708433730.0177255,-1.959022045135498,-1.3685246121934433,-2.5913077036487024,5.878880727082052,1.090232491493225,-3.094628636037008
1708433730.019713,-1.9575365781784058,-1.3689320546439667,-2.5918992201434534,5.8773934719856165,1.0907776355743408,-3.0948358217822474
1708433730.021703,-1.9560372829437256,-1.3694959741881867,-2.592541519795553,5.875980126648702,1.0913605690002441,-3.095055643712179
1708433730.0237153,-1.9545211791992188,-1.370026872759201,-2.593235794697897,5.874591338425436,1.0918880701065063,-3.0952957312213343
1708433730.0256824,-1.9529838562011719,-1.3705483388951798,-2.5938740412341517,5.8731374619300745,1.0924818515777588,-3.0955475012408655
1708433730.027725,-1.9514933824539185,-1.3709691029838105,-2.5945420900927942,5.8717031357581995,1.093005895614624,-3.0957658926593226
1708433730.029691,-1.9500154256820679,-1.3715081375888367,-2.595208708439962,5.870211946755209,1.0934488773345947,-3.0960071722613733
1708433730.0316865,-1.9485360383987427,-1.37199421346698,-2.5958314577685755,5.868878590851583,1.094010353088379,-3.0962351004229944
1708433730.0337057,-1.947006106376648,-1.372484253054001,-2.596457544957296,5.8674601195152185,1.094546914100647,-3.0964179674731653
1708433730.0356696,-1.9454134702682495,-1.3730202180198212,-2.5971866289721888,5.865954386978903,1.0950230360031128,-3.0966458956347864
1708433730.037703,-1.9438751935958862,-1.3735540074161072,-2.5978944937335413,5.864494550019064,1.0955085754394531,-3.0968788305865687
1708433730.039672,-1.9423514604568481,-1.374002219443657,-2.598549191151754,5.862980711251058,1.0960533618927002,-3.097004000340597
1708433730.0416996,-1.9408055543899536,-1.3745675396970292,-2.599203650151388,5.861509787827291,1.0965250730514526,-3.0973063150988978
1708433730.0437021,-1.939220666885376,-1.3750856679729004,-2.5998650232898157,5.860015618592062,1.0970786809921265,-3.0974443594561976
1708433730.0456905,-1.9377330541610718,-1.375604973440506,-2.6005688349353235,5.858567940979757,1.0974974632263184,-3.0976524988757532
1708433730.047712,-1.9361658096313477,-1.376135603790619,-2.6012027899371546,5.857175576477804,1.0979864597320557,-3.0978391806231897
1708433730.0496855,-1.9346867799758911,-1.3767202955535431,-2.6018901507007044,5.855763423233785,1.0984385013580322,-3.0980263392077845
1708433730.0516968,-1.9332163333892822,-1.3771665853312989,-2.602570358906881,5.854387390404501,1.0989223718643188,-3.098238770161764
1708433730.0536978,-1.9316329956054688,-1.3777547490647812,-2.6031797567950647,5.852902757912435,1.0993508100509644,-3.0983768145190638
1708433730.055722,-1.930022954940796,-1.3783056151917954,-2.6038506666766565,5.851334082871237,1.0998071432113647,-3.098593775426046
1708433730.0577178,-1.9284579753875732,-1.37883676708255,-2.6045218149768274,5.849905836373129,1.100313425064087,-3.098769013081686
1708433730.0596945,-1.9268478155136108,-1.3793181639960785,-2.605169121419088,5.848383414536276,1.1007822751998901,-3.0989163557635706
1708433730.0616899,-1.9253441095352173,-1.3798619520715256,-2.605851952229635,5.846926200180807,1.1012012958526611,-3.0990830103503626
1708433730.063716,-1.9237339496612549,-1.3804496240666886,-2.6065011660205286,5.845495331078329,1.101641297340393,-3.0993216673480433
1708433730.065727,-1.9222148656845093,-1.3809596312097092,-2.60712701479067,5.8441576836402795,1.1019799709320068,-3.099459950123922
1708433730.0677047,-1.920626163482666,-1.3814417731812973,-2.6077688376056116,5.842771994858541,1.1023772954940796,-3.0996857325183313
1708433730.0696814,-1.9191088676452637,-1.3820627939752121,-2.6084662119494837,5.841320144921102,1.1027616262435913,-3.0998001734363
1708433730.0717099,-1.9174171686172485,-1.3825247597745438,-2.6091399828540247,5.83982394912795,1.1032116413116455,-3.0999725500689905
1708433730.0737097,-1.9158021211624146,-1.383202077155449,-2.609786574040548,5.8382922289665125,1.103590488433838,-3.1000776926623743
1708433730.0756912,-1.914201021194458,-1.3836942923120041,-2.610483709965841,5.8368492005165,1.1039550304412842,-3.100308958684103
1708433730.0777037,-1.9126166105270386,-1.3842939001372834,-2.611166540776388,5.835400569229879,1.104323148727417,-3.1004279295550745
1708433730.079727,-1.910939335823059,-1.3848463606885453,-2.611811939870016,5.833919274597921,1.1046674251556396,-3.1005430857287806
1708433730.0816803,-1.9093812704086304,-1.3853755754283448,-2.6125085989581507,5.8324739811714075,1.1050240993499756,-3.1006627718554896
1708433730.0837016,-1.9077903032302856,-1.3859480333379288,-2.6131556669818323,5.830945002823629,1.105276107788086,-3.100830618535177
1708433730.0856884,-1.9061672687530518,-1.3864538979581376,-2.61383563676943,5.829494583397665,1.1055716276168823,-3.100929323826925
1708433730.0877013,-1.9045695066452026,-1.386989341383316,-2.614403311406271,5.828042733460226,1.105798602104187,-3.101063076649801
1708433730.0896926,-1.902942180633545,-1.3875572097352524,-2.6151238123523157,5.826622593193807,1.106107473373413,-3.1011531988727015
1708433730.0917046,-1.9013339281082153,-1.3881717336228867,-2.6157925764666956,5.825177418976583,1.1063916683197021,-3.101293388997213
1708433730.0937252,-1.8997197151184082,-1.3886693877032776,-2.6164725462542933,5.823727237969198,1.1066880226135254,-3.101361099873678
1708433730.0956924,-1.8980942964553833,-1.389240877037384,-2.617159668599264,5.822229254036703,1.1069159507751465,-3.101513926182882
1708433730.0977447,-1.8964546918869019,-1.3898124706796189,-2.617810074483053,5.820732223778524,1.1071796417236328,-3.101585928593771
1708433730.099714,-1.8948557376861572,-1.3903518331101914,-2.618460480366842,5.819270121842184,1.1074405908584595,-3.1016607920276087
1708433730.101679,-1.893241286277771,-1.390865908270218,-2.6190996805774134,5.81782232502059,1.1076154708862305,-3.101736370717184
1708433730.1037457,-1.8916641473770142,-1.3914253425649186,-2.6197851339923304,5.816305863648214,1.1078360080718994,-3.101783816014425
1708433730.1056788,-1.8900463581085205,-1.3919347089580079,-2.620457951222555,5.814935672074117,1.1080479621887207,-3.1018837133990687
1708433730.1077023,-1.88844633102417,-1.392559365635254,-2.6211209932910364,5.813428032189169,1.1082239151000977,-3.1019397417651575
1708433730.1097333,-1.8868095874786377,-1.393028886323311,-2.621758762990133,5.812038290291586,1.108367919921875,-3.1019299666034144
1708433730.1117573,-1.8852441310882568,-1.393547387128212,-2.622406307850973,5.810554015427389,1.1085524559020996,-3.1020591894732874
1708433730.1137278,-1.8835718631744385,-1.3940948855927964,-2.6229966322528284,5.809148895531454,1.1086716651916504,-3.102070156727926
1708433730.1156871,-1.8819512128829956,-1.3946591180614014,-2.6236303488360804,5.807704913407125,1.1088778972625732,-3.1021550337420862
1708433730.1177108,-1.8804093599319458,-1.3951978993466874,-2.6242199579821985,5.806317198067465,1.1089717149734497,-3.102178398762838
1708433730.1197238,-1.8787657022476196,-1.3956807267716904,-2.624807898198263,5.804932582169332,1.109104871749878,-3.102234665547506
1708433730.121699,-1.877171277999878,-1.3961956811002274,-2.6254568735705774,5.803468811302938,1.1091793775558472,-3.1022542158709925
1708433730.123703,-1.8756659030914307,-1.3966894310763855,-2.6260557810412806,5.802121507912435,1.1092641353607178,-3.102328364049093
1708433730.1257217,-1.8741296529769897,-1.3972175133279343,-2.626650635396139,5.800743448525228,1.1093517541885376,-3.102334801350729
1708433730.1277068,-1.872541069984436,-1.3976753515056153,-2.627237145100729,5.799281704216757,1.1094435453414917,-3.102354351674215
1708433730.129736,-1.8709616661071777,-1.398238868718483,-2.627819601689474,5.79794334152297,1.1095644235610962,-3.1023176352130335
1708433730.1316812,-1.869416356086731,-1.3987260174802323,-2.628411833439962,5.796484100609579,1.1096044778823853,-3.1022895018206995
1708433730.1337214,-1.8678785562515259,-1.3992990416339417,-2.6290369669543665,5.795224296837606,1.1096640825271606,-3.1022444407092493
1708433730.135712,-1.8663984537124634,-1.3997807216695328,-2.6295862833606165,5.79386721828536,1.1097079515457153,-3.1022618452655237
1708433730.1376965,-1.8648351430892944,-1.4001958531192322,-2.6301661173449915,5.792540657311239,1.109727382659912,-3.102185074483053
1708433730.139699,-1.8632842302322388,-1.4007613968900223,-2.6306663195239466,5.791113006859579,1.1097428798675537,-3.102161232625143
1708433730.1416814,-1.8617817163467407,-1.4012020093253632,-2.631258789693014,5.789727675705709,1.1096657514572144,-3.102178398762838
1708433730.143737,-1.8602889776229858,-1.4017429661801835,-2.631786648427145,5.788464653282919,1.1096009016036987,-3.1021302382098597
1708433730.1456795,-1.8588179349899292,-1.4022101324847718,-2.6323419252978724,5.787143933563986,1.1095538139343262,-3.1020095984088343
1708433730.1477282,-1.8573110103607178,-1.4026683282903214,-2.632815424595968,5.785746085434713,1.1094337701797485,-3.1020193735705774
1708433730.1497123,-1.855818510055542,-1.4031758171371003,-2.633345905934469,5.784415828972616,1.1093170642852783,-3.1019330660449427
1708433730.1516826,-1.854381799697876,-1.4036391091397782,-2.6339028517352503,5.783236133843221,1.1092451810836792,-3.1019018332110804
1708433730.1537068,-1.8528273105621338,-1.4041392815164109,-2.6343851725207728,5.781905758171835,1.10914146900177,-3.101849142705099
1708433730.1556754,-1.851436972618103,-1.404618264441826,-2.634867254887716,5.780743944435873,1.10907781124115,-3.1018059889422815
1708433730.1576834,-1.8499641418457031,-1.405051277284958,-2.635340754185812,5.77946554401473,1.108964443206787,-3.1017532984363
1708433730.1596775,-1.8485872745513916,-1.4055351328900834,-2.635906998311178,5.778267252236166,1.1088727712631226,-3.101723019276754
1708433730.161699,-1.8471020460128784,-1.405986727481224,-2.636332098637716,5.776956307678976,1.1087449789047241,-3.1016629377948206
1708433730.1636884,-1.8456696271896362,-1.406474308376648,-2.6368489901172083,5.775722372322836,1.1085847616195679,-3.101590935383932
1708433730.1656883,-1.8442206382751465,-1.406900168662407,-2.637275997792379,5.774463999062338,1.1084282398223877,-3.1014774481402796
1708433730.1677032,-1.8428047895431519,-1.4073602867177506,-2.637698475514547,5.773220050125875,1.1082146167755127,-3.1013334433185022
1708433730.169702,-1.8414169549942017,-1.4078157258084794,-2.638120714818136,5.772032248764791,1.1080877780914307,-3.1012664476977747
1708433730.1716743,-1.8400380611419678,-1.4082292777350922,-2.638648335133688,5.7708319304283044,1.1078554391860962,-3.101140562688009
1708433730.1736996,-1.8386342525482178,-1.408712701206543,-2.6389909426318567,5.7696523545081995,1.1077075004577637,-3.1010223070727747
1708433730.1756992,-1.8373154401779175,-1.4091570240310212,-2.6394837538348597,5.7684271214301965,1.10736882686615,-3.1008856932269495
1708433730.177665,-1.8359407186508179,-1.409583569770195,-2.6399007479297083,5.767238724022665,1.1072218418121338,-3.100745503102438
1708433730.1797245,-1.8345834016799927,-1.4100105476430436,-2.640331808720724,5.766036379128256,1.106925129890442,-3.1006508509265345
1708433730.1816766,-1.8332514762878418,-1.410490871672966,-2.6407225767718714,5.7648517964179895,1.1066523790359497,-3.100457731877462
1708433730.1837277,-1.8319580554962158,-1.4108939629844208,-2.6411662737475794,5.763709294586935,1.1063508987426758,-3.100351397191183
1708433730.18568,-1.830617904663086,-1.4113414597562333,-2.641552750264303,5.762583362847128,1.106034517288208,-3.100182120000021
1708433730.1876898,-1.8293769359588623,-1.411726788883545,-2.6419933477984827,5.761437761574545,1.1057472229003906,-3.100063149129049
1708433730.1896813,-1.8280901908874512,-1.4121434104493638,-2.642463032399313,5.760432827263632,1.105483889579773,-3.0998953024493616
1708433730.191672,-1.8267395496368408,-1.412549377684929,-2.6427953878985804,5.759253132134237,1.1050649881362915,-3.0997400919543665
1708433730.19369,-1.8255417346954346,-1.4129859519055863,-2.643182341252462,5.758093941002645,1.1047332286834717,-3.0995383898364466
1708433730.1956837,-1.8242312669754028,-1.413363755946495,-2.6435492674456995,5.757009017258444,1.1043486595153809,-3.0993717352496546
1708433730.197705,-1.8229742050170898,-1.4138003599694748,-2.6439343134509485,5.756009208946981,1.1039807796478271,-3.0991392771350306
1708433730.1997106,-1.8217500448226929,-1.4141303461841126,-2.6442485491382044,5.754816520005026,1.1035399436950684,-3.098943297063009
