Eg3-git/Classifiers/Data Collection/u1/u1www2_ur3e_joint_states.csv
time,elbow_joint,shoulder_lift_joint,shoulder_pan_joint,wrist_1_joint,wrist_2_joint,wrist_3_joint
1708433649.0609848,-2.141303777694702,-1.3335996133140107,-2.5272026697741907,6.1096852896507166,1.0181353092193604,-2.37254506746401
1708433649.0630026,-2.1412508487701416,-1.3336082112840195,-2.5272489229785364,6.1096123335655115,1.018151879310608,-2.37257963815798
1708433649.064964,-2.1412789821624756,-1.3335877668908616,-2.5271998087512415,6.109645116120138,1.0181264877319336,-2.372563187276022
1708433649.0670297,-2.141303777694702,-1.3335096401027222,-2.5271876494037073,6.109636175423422,1.018130898475647,-2.3725510279284876
1708433649.068992,-2.1412835121154785,-1.3335303229144593,-2.5271528402911585,6.109645116120138,1.018164038658142,-2.3726382891284388
1708433649.070974,-2.1412792205810547,-1.3335877519897004,-2.5272162596331995,6.109654056816854,1.0181387662887573,-2.372596089039938
1708433649.0729904,-2.141242742538452,-1.333550752406456,-2.5272191206561487,6.109686839371481,1.0181715488433838,-2.372575108204977
1708433649.074955,-2.1412339210510254,-1.3335834306529541,-2.5272026697741907,6.109588134079733,1.0180984735488892,-2.372558657323019
1708433649.0769775,-2.141303777694702,-1.3335422438434144,-2.5272207895862024,6.109550940781393,1.0181553363800049,-2.372558657323019
1708433649.078986,-2.141258716583252,-1.33360310018573,-2.5271862188922327,6.109576213150778,1.0181715488433838,-2.3726263681994837
1708433649.080955,-2.141296863555908,-1.3335389357856293,-2.5271952787982386,6.109634744911947,1.0181715488433838,-2.3725841681109827
1708433649.0830004,-2.141242742538452,-1.33357127130542,-2.5271785894977015,6.109571683197775,1.0182043313980103,-2.3726096788989466
1708433649.0849724,-2.141251802444458,-1.3335707497647782,-2.5271907488452356,6.109588134079733,1.0181715488433838,-2.3725886980639856
1708433649.087029,-2.1412765979766846,-1.3335303229144593,-2.5272401014911097,6.109588134079733,1.0181715488433838,-2.372558657323019
1708433649.0889862,-2.1412923336029053,-1.3336039197495957,-2.5272446314441126,6.1095242379005334,1.0181715488433838,-2.37257963815798
1708433649.0909612,-2.1412596702575684,-1.333615781073906,-2.5272191206561487,6.109531271248617,1.0181585550308228,-2.3725841681109827
1708433649.0929797,-2.1412224769592285,-1.3335877519897004,-2.5272071997271937,6.109542119293966,1.018180251121521,-2.3725677172290247
1708433649.094962,-2.1412765979766846,-1.333579183822014,-2.5272236506091517,6.109565722733297,1.0181715488433838,-2.3725841681109827
1708433649.096976,-2.141242742538452,-1.3335877668908616,-2.5272236506091517,6.109495508461752,1.0181790590286255,-2.3726006189929407
1708433649.0989935,-2.1412270069122314,-1.3335841310075303,-2.5272191206561487,6.1095303175743005,1.01816725730896,-2.3725391069995325
1708433649.1009681,-2.141251802444458,-1.3335996133140107,-2.527160708104269,6.1095536825950525,1.0181466341018677,-2.3725813070880335
1708433649.1029797,-2.141188621520996,-1.3335953515819092,-2.5271862188922327,6.109558212548055,1.0181790590286255,-2.3725841681109827
1708433649.1049864,-2.1412808895111084,-1.3335749220899125,-2.5271862188922327,6.109500038414755,1.0182446241378784,-2.372582499180929
1708433649.1069868,-2.1412596702575684,-1.3335834306529541,-2.5272446314441126,6.109464394837179,1.0181747674942017,-2.3725138346301478
1708433649.1089945,-2.141193151473999,-1.3335834306529541,-2.5272281805621546,6.109480726509847,1.018195629119873,-2.3725722471820276
1708433649.1109746,-2.141256093978882,-1.3335389208844681,-2.5272327105151575,6.109489667206564,1.0182284116744995,-2.37257963815798
1708433649.1130023,-2.141244888305664,-1.3335834306529541,-2.5272071997271937,6.109555589943685,1.0182446241378784,-2.3725841681109827
1708433649.114972,-2.1412289142608643,-1.3336039197495957,-2.5271998087512415,6.109473216324606,1.018227219581604,-2.3725886980639856
1708433649.117005,-2.141190528869629,-1.3336124581149598,-2.5271907488452356,6.1095032570655725,1.0182197093963623,-2.372591559086935
1708433649.1190217,-2.1412065029144287,-1.3335962456515809,-2.5272026697741907,6.109435665398397,1.0182154178619385,-2.372558657323019
1708433649.1209593,-2.141247272491455,-1.333579183822014,-2.5272026697741907,6.109483468323507,1.0182437896728516,-2.3725464979754847
1708433649.1229956,-2.1412110328674316,-1.3335962903550644,-2.5272191206561487,6.109428274422445,1.018182635307312,-2.3725555578814905
1708433649.1249707,-2.141244888305664,-1.333603949551918,-2.5272281805621546,6.1094655869300745,1.0182031393051147,-2.372617308293478
1708433649.1270292,-2.1412243843078613,-1.3335877668908616,-2.5271740595446985,6.109467136650839,1.0182197093963623,-2.3725300470935267
1708433649.1289928,-2.1411702632904053,-1.3336082112840195,-2.5272281805621546,6.109408962517538,1.0182644128799438,-2.3725464979754847
1708433649.1309652,-2.1412038803100586,-1.3335465353778382,-2.527247492467062,6.109471547394552,1.0182316303253174,-2.3725932280169886
1708433649.1330242,-2.1412198543548584,-1.3335953515819092,-2.5272401014911097,6.109413373261251,1.0182229280471802,-2.3725646177874964
1708433649.1349697,-2.141162395477295,-1.333559350376465,-2.5272117296801966,6.109404432564535,1.0182316303253174,-2.372591559086935
1708433649.137023,-2.141174554824829,-1.333603949551918,-2.5271907488452356,6.109421241074362,1.018248200416565,-2.372575108204977
1708433649.1389956,-2.141183614730835,-1.333615781073906,-2.5272236506091517,6.109446155815878,1.0182437896728516,-2.3725677172290247
1708433649.1410227,-2.1411757469177246,-1.3336286407760163,-2.5271907488452356,6.109399902611532,1.0182557106018066,-2.372575108204977
1708433649.1429884,-2.1412041187286377,-1.3335679781487961,-2.527242962514059,6.109430062561788,1.018227219581604,-2.372533146535055
1708433649.144962,-2.141122817993164,-1.3335422438434144,-2.527254883443014,6.109459626465597,1.0182676315307617,-2.3725510279284876
1708433649.1469913,-2.1412084102630615,-1.3335584116033097,-2.5272520224200647,6.109421241074362,1.0182557106018066,-2.3726142088519495
1708433649.1489916,-2.141188144683838,-1.3335626733354111,-2.5272281805621546,6.109439003258505,1.018288254737854,-2.3725510279284876
1708433649.150989,-2.141171455383301,-1.3335797798684617,-2.5272071997271937,6.109389531403341,1.018258810043335,-2.3725932280169886
1708433649.1530473,-2.141188144683838,-1.3335626733354111,-2.527214590703146,6.10934458950118,1.0182514190673828,-2.372591559086935
1708433649.155003,-2.1411995887756348,-1.3335669499686738,-2.527214590703146,6.109344470291891,1.0182795524597168,-2.3726006189929407
1708433649.1570091,-2.1411802768707275,-1.3335953515819092,-2.527193609868185,6.109377372055807,1.0182881355285645,-2.3725464979754847
1708433649.1589913,-2.141188144683838,-1.3335431677154084,-2.527231041585104,6.109390842705526,1.0182307958602905,-2.3725510279284876
1708433649.1609864,-2.141195058822632,-1.3335636121085663,-2.527198139821188,6.1093249199684045,1.0183169841766357,-2.37257963815798
1708433649.1630378,-2.1411802768707275,-1.33357127130542,-2.5272162596331995,6.109376060753622,1.01827073097229,-2.3725555578814905
1708433649.164973,-2.1411678791046143,-1.333550752406456,-2.5272401014911097,6.109416711121359,1.0182795524597168,-2.37257963815798
1708433649.166988,-2.1411757469177246,-1.3336201322129746,-2.5272236506091517,6.109325039177694,1.018242597579956,-2.3725841681109827
1708433649.1690094,-2.1411712169647217,-1.3335755330375214,-2.527214590703146,6.109335529595175,1.018324375152588,-2.3726096788989466
1708433649.170968,-2.1411473751068115,-1.3336273741773148,-2.5272191206561487,6.109359609871664,1.018312692642212,-2.3725932280169886
1708433649.173007,-2.1411845684051514,-1.3335345697453995,-2.5272565523730677,6.109341609268942,1.0183331966400146,-2.3725646177874964
1708433649.1749682,-2.1411845684051514,-1.333559350376465,-2.5271862188922327,6.109404432564535,1.018312692642212,-2.3726308981524866
1708433649.1770227,-2.141202449798584,-1.333603949551918,-2.5272162596331995,6.10934733131484,1.01827073097229,-2.3725677172290247
1708433649.1790202,-2.141172170639038,-1.3335507971099396,-2.5271952787982386,6.109359609871664,1.018296480178833,-2.3725932280169886
1708433649.1809807,-2.1411359310150146,-1.3336124581149598,-2.527198139821188,6.109330880432882,1.0182664394378662,-2.372596089039938
1708433649.1830664,-2.1411092281341553,-1.3335636121085663,-2.5271907488452356,6.109342801361837,1.018324375152588,-2.3725886980639856
1708433649.184978,-2.1411538124084473,-1.3334976148656388,-2.527177158986227,6.109359609871664,1.01829195022583,-2.3725677172290247
1708433649.1870296,-2.1411519050598145,-1.333550752406456,-2.5272446314441126,6.109342801361837,1.018312692642212,-2.3725183645831507
1708433649.1890297,-2.141172170639038,-1.3335593354753037,-2.5271998087512415,6.109305965691366,1.018320083618164,-2.3725646177874964
1708433649.190991,-2.1411609649658203,-1.33357127130542,-2.5272355715381067,6.109323847084799,1.0182621479034424,-2.3725510279284876
1708433649.193007,-2.1410953998565674,-1.3335550886443635,-2.5272026697741907,6.109338509827413,1.0183115005493164,-2.3725932280169886
1708433649.194963,-2.141127109527588,-1.3336316359094162,-2.5271907488452356,6.109314906388082,1.018324375152588,-2.3725646177874964
1708433649.1969948,-2.1411564350128174,-1.333603949551918,-2.5272355715381067,6.109310376435079,1.018320083618164,-2.3726139704333704
1708433649.199042,-2.141104221343994,-1.3335883182338257,-2.5272191206561487,6.109265315323629,1.0183528661727905,-2.3725722471820276
1708433649.2009826,-2.1411609649658203,-1.3335464906743546,-2.5272281805621546,6.109256493836202,1.0182995796203613,-2.372563187276022
1708433649.2029824,-2.141181230545044,-1.3335877817920228,-2.5271740595446985,6.109314906388082,1.0182952880859375,-2.3725345770465296
1708433649.2049766,-2.141106605529785,-1.3335180145553132,-2.5271649996386927,6.109277236252584,1.018312692642212,-2.3726218382464808
1708433649.2069917,-2.1411495208740234,-1.3335669499686738,-2.5272327105151575,6.109322058945455,1.0183115005493164,-2.3725391069995325
1708433649.208986,-2.141131639480591,-1.333640233879425,-2.527198139821188,6.109281766205587,1.0183451175689697,-2.3725813070880335
1708433649.2109816,-2.1410953998565674,-1.3336444956115265,-2.5271862188922327,6.109272825508871,1.018320083618164,-2.3725438753711146
1708433649.2129805,-2.1411404609680176,-1.3336082112840195,-2.5272565523730677,6.109322058945455,1.018324375152588,-2.372519556676046
1708433649.2149591,-2.141127109527588,-1.3335962903550644,-2.527214590703146,6.109272825508871,1.018308162689209,-2.3726020495044153
1708433649.2169929,-2.1410927772521973,-1.3335352700999756,-2.527181927357809,6.109298455506124,1.018324375152588,-2.3725481669055384
1708433649.2190027,-2.141131639480591,-1.3335679483464737,-2.5272026697741907,6.109269845276632,1.018336296081543,-2.3725691477404993
1708433649.2209983,-2.1410796642303467,-1.3334900599769135,-2.5272355715381067,6.10929690578536,1.0183038711547852,-2.3725813070880335
1708433649.223012,-2.1410841941833496,-1.3335422438434144,-2.5271952787982386,6.1092907069023035,1.018308162689209,-2.3725510279284876
1708433649.2249734,-2.141099691390991,-1.3335755330375214,-2.5271695295916956,6.109319436341085,1.0183320045471191,-2.3725555578814905
1708433649.2270179,-2.141111135482788,-1.3335507077029725,-2.5272026697741907,6.109302985459127,1.0182876586914062,-2.372573439274923
1708433649.2290213,-2.141106605529785,-1.3335550886443635,-2.5271907488452356,6.109272825508871,1.0182995796203613,-2.3725932280169886
1708433649.2309692,-2.141120195388794,-1.3335962903550644,-2.5272236506091517,6.109298455506124,1.0182952880859375,-2.3725510279284876
1708433649.233009,-2.1410999298095703,-1.3335626733354111,-2.5271907488452356,6.109360921173849,1.0182952880859375,-2.3725646177874964
1708433649.2349777,-2.141111135482788,-1.3335388612798234,-2.527198139821188,6.109281646996298,1.0183320045471191,-2.372545305882589
1708433649.2369976,-2.1410884857177734,-1.3335389208844681,-2.5272520224200647,6.109298455506124,1.0182995796203613,-2.3725391069995325
1708433649.2389932,-2.1411359310150146,-1.3335919988206406,-2.5272355715381067,6.109298455506124,1.018336296081543,-2.3725526968585413
1708433649.2409923,-2.1410839557647705,-1.3335962307504197,-2.5271907488452356,6.109302985459127,1.018320083618164,-2.3726022879229944
1708433649.243015,-2.1410672664642334,-1.3335755330375214,-2.527214590703146,6.109298455506124,1.0183320045471191,-2.3725362459765833
1708433649.2450914,-2.141108512878418,-1.3335755330375214,-2.5272236506091517,6.109256493836202,1.0182995796203613,-2.3725271860705774
1708433649.2469819,-2.141115665435791,-1.3335764569095154,-2.5272026697741907,6.109298455506124,1.018336296081543,-2.3725150267230433
1708433649.2489927,-2.141127109527588,-1.3335019660047074,-2.5272071997271937,6.10928629615859,1.0182995796203613,-2.3725481669055384
1708433649.2509882,-2.1411495208740234,-1.3335267466357728,-2.527242962514059,6.10928629615859,1.0182876586914062,-2.372503105794088
1708433649.253019,-2.1411242485046387,-1.3336124581149598,-2.527214590703146,6.109293925553121,1.0182995796203613,-2.3725271860705774
1708433649.2549744,-2.141115665435791,-1.3335224103978653,-2.527247492467062,6.109274375229635,1.018336296081543,-2.3725317160235804
1708433649.2569914,-2.1410717964172363,-1.3336168241551896,-2.5272117296801966,6.109319436341085,1.018324375152588,-2.3725362459765833
1708433649.259002,-2.1411242485046387,-1.3335550886443635,-2.527210060750143,6.109302985459127,1.018336296081543,-2.3725362459765833
1708433649.260999,-2.1410627365112305,-1.3335474592498322,-2.5271363894092005,6.109344470291891,1.0183320045471191,-2.3725481669055384
1708433649.2629952,-2.141131639480591,-1.333575503235199,-2.52718168893923,6.109278905182638,1.018320083618164,-2.3725362459765833
1708433649.264968,-2.141115665435791,-1.3335550886443635,-2.5272026697741907,6.109277236252584,1.0182952880859375,-2.3725407759295862
1708433649.2669828,-2.141120195388794,-1.3335550886443635,-2.5271998087512415,6.109260785370626,1.0183038711547852,-2.3725855986224573
1708433649.2689717,-2.141106128692627,-1.3335507375052948,-2.527226511632101,6.109330999642172,1.0182952880859375,-2.37248665491213
1708433649.2709744,-2.1410884857177734,-1.3335748624852677,-2.52717096010317,6.109260785370626,1.018307089805603,-2.372545305882589
1708433649.2730234,-2.141080379486084,-1.3335550886443635,-2.5272026697741907,6.109310376435079,1.018307089805603,-2.372528616582052
1708433649.2749836,-2.1410973072052,-1.3335669499686738,-2.5272565523730677,6.109274375229635,1.0182995796203613,-2.3725526968585413
1708433649.277011,-2.1410839557647705,-1.3335309338620682,-2.5272565523730677,6.109248864441671,1.0183157920837402,-2.372503105794088
1708433649.2789881,-2.141080379486084,-1.3335636121085663,-2.5271695295916956,6.109314787178793,1.0183157920837402,-2.3725526968585413
1708433649.2809832,-2.141108512878418,-1.33350624263797,-2.527226511632101,6.1092415926750085,1.0182995796203613,-2.372519556676046
1708433649.282997,-2.1410884857177734,-1.3335797798684617,-2.5272355715381067,6.109253513603964,1.018336296081543,-2.372512165700094
1708433649.284986,-2.141108512878418,-1.3335266721299668,-2.5272401014911097,6.109293925553121,1.0183277130126953,-2.372516695653097
1708433649.2870035,-2.1410841941833496,-1.3335841310075303,-2.5272191206561487,6.109289514809408,1.018336296081543,-2.3725407759295862
1708433649.2889807,-2.141099691390991,-1.3335593801787873,-2.5272026697741907,6.109244453697958,1.0183038711547852,-2.37248665491213
1708433649.2909877,-2.141112804412842,-1.3335517656854172,-2.5271907488452356,6.1092896340186975,1.0182876586914062,-2.3725407759295862
1708433649.292983,-2.1410715579986572,-1.3335345399430771,-2.5272191206561487,6.109299766808309,1.0183038711547852,-2.37250000635256
1708433649.2949743,-2.1410841941833496,-1.3335841310075303,-2.5272236506091517,6.10930751541213,1.0182746648788452,-2.372488085423605
1708433649.2970016,-2.1410927772521973,-1.3335266721299668,-2.5271649996386927,6.10929964759902,1.0183038711547852,-2.372558657323019
1708433649.2990026,-2.1410717964172363,-1.3335797798684617,-2.5271907488452356,6.10929964759902,1.0182995796203613,-2.3725090662585657
1708433649.3009927,-2.1410927772521973,-1.3335679036429902,-2.5272117296801966,6.109257924347677,1.0182876586914062,-2.372537438069479
1708433649.3030038,-2.1411287784576416,-1.3335389208844681,-2.5272236506091517,6.109277236252584,1.0182995796203613,-2.372519556676046
1708433649.3049726,-2.1410725116729736,-1.3335224849036713,-2.5272162596331995,6.1093283770378015,1.018278956413269,-2.372524086629049
1708433649.3070107,-2.1410717964172363,-1.3335309487632294,-2.5272191206561487,6.109228122025289,1.018324375152588,-2.372479025517599
1708433649.3089988,-2.14115834236145,-1.3335431826165696,-2.5271695295916956,6.109314906388082,1.0183157920837402,-2.37244159380068
1708433649.3109689,-2.1410927772521973,-1.3334858131459733,-2.52726394334902,6.109281766205587,1.0183157920837402,-2.372528616582052
1708433649.3129916,-2.141106128692627,-1.3335755330375214,-2.5271876494037073,6.109351861267843,1.0183169841766357,-2.37250000635256
1708433649.3149602,-2.1410973072052,-1.3335517656854172,-2.5271862188922327,6.109323966294088,1.0182952880859375,-2.372483555470602
1708433649.316977,-2.141113042831421,-1.3335636121085663,-2.5272327105151575,6.109338509827413,1.0183320045471191,-2.372488085423605
1708433649.319,-2.1410391330718994,-1.3335303229144593,-2.5272162596331995,6.109335529595175,1.0182833671569824,-2.372507635747091
1708433649.3209639,-2.1410679817199707,-1.3335389506867905,-2.5271998087512415,6.109290826111593,1.0182833671569824,-2.372474733983175
1708433649.322999,-2.1411333084106445,-1.3335797500661393,-2.5271952787982386,6.109314906388082,1.0183115005493164,-2.3724549452411097
1708433649.3249593,-2.1410634517669678,-1.3335309487632294,-2.5272446314441126,6.109265315323629,1.0183038711547852,-2.3724926153766077
1708433649.3269942,-2.1410634517669678,-1.3335431677154084,-2.5272071997271937,6.109356272011556,1.01827073097229,-2.372471634541647
1708433649.3289762,-2.14105486869812,-1.3335345697453995,-2.5271785894977015,6.109265315323629,1.018324375152588,-2.3724640051471155
1708433649.3309848,-2.1411375999450684,-1.3335317981294175,-2.5271998087512415,6.10930751541213,1.018258810043335,-2.372467104588644
1708433649.3329813,-2.141084909439087,-1.33350624263797,-2.5271454493152063,6.109277236252584,1.0183125734329224,-2.372520987187521
1708433649.3349767,-2.141113042831421,-1.3335507673076172,-2.5272043387042444,6.109314906388082,1.0183331966400146,-2.372471634541647
1708433649.3369918,-2.141115665435791,-1.3335517656854172,-2.5271619001971644,6.109265315323629,1.0182664394378662,-2.3724475542651575
1708433649.3390028,-2.141111373901367,-1.33350624263797,-2.5272327105151575,6.109301554947653,1.018263339996338,-2.3724761644946497
1708433649.340963,-2.1410717964172363,-1.3335431975177308,-2.5272327105151575,6.109351861267843,1.018320083618164,-2.3724806944476526
1708433649.3430102,-2.141099691390991,-1.3335791689208527,-2.5272281805621546,6.109323966294088,1.0183449983596802,-2.3724640051471155
1708433649.3449724,-2.141059160232544,-1.3335345548442383,-2.5272117296801966,6.109295236855306,1.0183038711547852,-2.3724475542651575
1708433649.3469734,-2.141059160232544,-1.3335104894689103,-2.5272372404681605,6.109342801361837,1.01827073097229,-2.3724640051471155
1708433649.3490293,-2.1410841941833496,-1.3335352551988144,-2.5272162596331995,6.1092896340186975,1.018296480178833,-2.3724761644946497
1708433649.3509688,-2.14107608795166,-1.3335550886443635,-2.527198139821188,6.109290826111593,1.01829195022583,-2.3724685351001185
1708433649.353011,-2.1410634517669678,-1.3335104894689103,-2.5271454493152063,6.109322058945455,1.0182881355285645,-2.3724611441241663
1708433649.354988,-2.1410841941833496,-1.333575503235199,-2.5272117296801966,6.109295236855306,1.018312692642212,-2.3724640051471155
1708433649.3569818,-2.141099691390991,-1.3335679334453125,-2.5272071997271937,6.109323966294088,1.0182795524597168,-2.372434202824728
1708433649.3590155,-2.141075849533081,-1.3335267019322892,-2.5271952787982386,6.109281766205587,1.0182795524597168,-2.3724611441241663
1708433649.3609602,-2.141075849533081,-1.3336005222848435,-2.5271831194507044,6.109335529595175,1.0182795524597168,-2.3724268118487757
1708433649.3629992,-2.141108512878418,-1.3335755330375214,-2.5271952787982386,6.109356391220846,1.0182719230651855,-2.3724475542651575
1708433649.3649693,-2.141101598739624,-1.3335755479386826,-2.52718168893923,6.109255063324728,1.0182881355285645,-2.3724146525012415
1708433649.3669825,-2.1410717964172363,-1.3335517656854172,-2.5272026697741907,6.109319436341085,1.018263339996338,-2.3724806944476526
1708433649.3690424,-2.141084909439087,-1.3335309487632294,-2.5272071997271937,6.109269845276632,1.0182557106018066,-2.3724475542651575
1708433649.3710008,-2.141101598739624,-1.3335669350675126,-2.5271740595446985,6.109260785370626,1.0182881355285645,-2.3724234739886683
1708433649.3730052,-2.1410634517669678,-1.3335679334453125,-2.5272117296801966,6.10930751541213,1.0182394981384277,-2.372428003941671
1708433649.374965,-2.1410927772521973,-1.3335352850011368,-2.5272026697741907,6.10930751541213,1.0183050632476807,-2.3724520842181605
1708433649.3770027,-2.1410717964172363,-1.3335764569095154,-2.5272026697741907,6.109265315323629,1.0182600021362305,-2.3725178877459925
1708433649.3790207,-2.141080379486084,-1.3335233491710206,-2.5271952787982386,6.109294044762411,1.0182557106018066,-2.3724640051471155
1708433649.3809779,-2.141080379486084,-1.3335147959044953,-2.5271952787982386,6.109228002816,1.0182557106018066,-2.3724387327777308
1708433649.3830044,-2.1410841941833496,-1.333563582306244,-2.5272117296801966,6.109274375229635,1.018227219581604,-2.3724189440356653
1708433649.3849854,-2.1411173343658447,-1.3335431677154084,-2.5271831194507044,6.109248983650961,1.0182394981384277,-2.3724761644946497
1708433649.3870075,-2.141043186187744,-1.3335474145463486,-2.5271876494037073,6.109293925553121,1.0182600021362305,-2.3724234739886683
1708433649.3890252,-2.14105486869812,-1.333556057219841,-2.5271876494037073,6.109332787781515,1.0182644128799438,-2.3724520842181605
1708433649.3909621,-2.1410505771636963,-1.3335593354753037,-2.5272117296801966,6.109283315926351,1.0181901454925537,-2.3724806944476526
1708433649.3929996,-2.141052007675171,-1.3335517209819336,-2.5272117296801966,6.109298455506124,1.0182600021362305,-2.3724430243121546
1708433649.3949702,-2.141104221343994,-1.3335669052651902,-2.5272117296801966,6.109269964485922,1.018248200416565,-2.3724430243121546
1708433649.3970184,-2.1410884857177734,-1.3335722100785752,-2.527214590703146,6.109319436341085,1.0182316303253174,-2.37246543565859
1708433649.3989987,-2.141059160232544,-1.3335437637618561,-2.5271831194507044,6.1093283770378015,1.0182316303253174,-2.3724146525012415
1708433649.4009933,-2.1410634517669678,-1.3335636121085663,-2.5272162596331995,6.109298455506124,1.0182316303253174,-2.3724356333362024
1708433649.4030197,-2.141101598739624,-1.3335550886443635,-2.5272043387042444,6.109274375229635,1.0182359218597412,-2.3724475542651575
1708433649.4049942,-2.1410717964172363,-1.3335722100785752,-2.5271876494037073,6.109281766205587,1.0182154178619385,-2.3724852244006556
1708433649.4070127,-2.14105486869812,-1.333551750784256,-2.5271831194507044,6.109294044762411,1.0181747674942017,-2.3724806944476526
1708433649.4090052,-2.141080379486084,-1.3335266721299668,-2.5272117296801966,6.109344470291891,1.018182635307312,-2.372428003941671
1708433649.4109614,-2.141108512878418,-1.3335156005671998,-2.5272207895862024,6.109272825508871,1.018211841583252,-2.3724566141711634
1708433649.4129963,-2.1410884857177734,-1.3335517209819336,-2.5271831194507044,6.109256493836202,1.0182359218597412,-2.3724146525012415
1708433649.4149852,-2.141084671020508,-1.3335352850011368,-2.5271619001971644,6.109310376435079,1.0182446241378784,-2.372428003941671
1708433649.4169807,-2.141059160232544,-1.3335105341723938,-2.5272043387042444,6.109266984253683,1.018195629119873,-2.3724430243121546
1708433649.418993,-2.141112804412842,-1.333491401081421,-2.5272117296801966,6.109305965691366,1.0182000398635864,-2.3724430243121546
1708433649.4209902,-2.141115665435791,-1.333539531832077,-2.5271831194507044,6.109310376435079,1.0182000398635864,-2.3723772207843226
1708433649.422985,-2.141112804412842,-1.333555058842041,-2.5271952787982386,6.10928629615859,1.0181790590286255,-2.3725059668170374
1708433649.4249625,-2.1410999298095703,-1.333575503235199,-2.5271952787982386,6.109344351082601,1.018211841583252,-2.372432533894674
1708433649.4269874,-2.141080379486084,-1.3335104894689103,-2.5271785894977015,6.109281766205587,1.0181747674942017,-2.3724101225482386
1708433649.4289792,-2.1411330699920654,-1.3335593354753037,-2.5272043387042444,6.109280574112692,1.018211841583252,-2.3724446932422083
1708433649.431001,-2.1411402225494385,-1.3335679185441514,-2.5272043387042444,6.109335410385885,1.0182000398635864,-2.372460905705587
1708433649.433001,-2.1410841941833496,-1.3335474592498322,-2.5271454493152063,6.109252083092489,1.0181541442871094,-2.3724475542651575
1708433649.4349983,-2.1410717964172363,-1.3335104894689103,-2.5271907488452356,6.109314906388082,1.0181869268417358,-2.3724356333362024
1708433649.436999,-2.141059160232544,-1.3335395467332383,-2.5271952787982386,6.109323966294088,1.018211841583252,-2.3724356333362024
1708433649.4389808,-2.141104221343994,-1.3335266721299668,-2.5271921793567103,6.10928629615859,1.0182162523269653,-2.3724313418017786
1708433649.4409995,-2.141104221343994,-1.3335517656854172,-2.5272236506091517,6.109298455506124,1.0182000398635864,-2.3724520842181605
1708433649.4430299,-2.141099691390991,-1.33356028914962,-2.5272162596331995,6.109293925553121,1.0182043313980103,-2.3724234739886683
1708433649.444965,-2.1410841941833496,-1.3335309338620682,-2.5271998087512415,6.109344470291891,1.0182043313980103,-2.3724566141711634
1708433649.4470081,-2.1410679817199707,-1.3335395467332383,-2.5272117296801966,6.109314906388082,1.0181869268417358,-2.3724401632892054
1708433649.4489717,-2.141075849533081,-1.3335560274175187,-2.5271573702441614,6.109256493836202,1.0181758403778076,-2.3724401632892054
1708433649.4509838,-2.141059160232544,-1.3335474294475098,-2.5272207895862024,6.10928629615859,1.0182162523269653,-2.3724895159350794
1708433649.453007,-2.1411447525024414,-1.3335352850011368,-2.5271907488452356,6.109342801361837,1.0182043313980103,-2.3724356333362024
1708433649.455006,-2.1410884857177734,-1.3335352551988144,-2.5271921793567103,6.109272825508871,1.018182635307312,-2.3724027315722864
1708433649.4569867,-2.141059160232544,-1.333481566315033,-2.5271573702441614,6.10935519912795,1.0181758403778076,-2.3724566141711634
1708433649.4589794,-2.1410927772521973,-1.3335352850011368,-2.5272236506091517,6.109326469689169,1.0181834697723389,-2.3724806944476526
1708433649.4609902,-2.14107608795166,-1.3335352700999756,-2.5271907488452356,6.109322058945455,1.0181541442871094,-2.3724806944476526
1708433649.462981,-2.141075849533081,-1.3335679185441514,-2.5271619001971644,6.109256493836202,1.0181715488433838,-2.3724566141711634
1708433649.4649856,-2.141099691390991,-1.3335635674050828,-2.5271876494037073,6.10935519912795,1.0182043313980103,-2.3724520842181605
1708433649.4670005,-2.1410927772521973,-1.3335309040597458,-2.527196709309713,6.109289514809408,1.0181715488433838,-2.3724895159350794
1708433649.4690154,-2.1410999298095703,-1.333494321709015,-2.5271876494037073,6.10930751541213,1.0181715488433838,-2.3724356333362024
1708433649.4709961,-2.141108512878418,-1.3335180443576355,-2.5271831194507044,6.109305965691366,1.01824152469635,-2.3724313418017786
1708433649.473007,-2.1410927772521973,-1.3335517805865784,-2.5271876494037073,6.1092684147651575,1.0181877613067627,-2.372462574635641
1708433649.4749799,-2.1410927772521973,-1.3335883778384705,-2.527175490056173,6.109364020615377,1.0181628465652466,-2.3724446932422083
1708433649.4770014,-2.1410953998565674,-1.3335712564042588,-2.5272207895862024,6.109294044762411,1.0181877613067627,-2.372469965611593
1708433649.4789963,-2.1410884857177734,-1.3335431975177308,-2.527180020009176,6.109322058945455,1.0181628465652466,-2.372460905705587
1708433649.4810069,-2.1410884857177734,-1.3335138273290177,-2.5271876494037073,6.10935519912795,1.0181834697723389,-2.3724191824542444
1708433649.483005,-2.1410672664642334,-1.3335389208844681,-2.5271921793567103,6.109351861267843,1.018195629119873,-2.372460905705587
1708433649.485001,-2.141059160232544,-1.3335431677154084,-2.527154509221212,6.109326469689169,1.0181790590286255,-2.3724313418017786
1708433649.4870071,-2.1410717964172363,-1.3335352850011368,-2.527180020009176,6.109338390618124,1.0181877613067627,-2.3724566141711634
1708433649.4890149,-2.1410973072052,-1.3335062128356476,-2.527142588292257,6.109292495041647,1.018208622932434,-2.372448984776632
1708433649.490999,-2.141059160232544,-1.3336123538068314,-2.5271619001971644,6.1093084690864465,1.0181846618652344,-2.3724313418017786
1708433649.493016,-2.141080379486084,-1.333503009085991,-2.5271952787982386,6.109378921776571,1.0181834697723389,-2.3724146525012415
1708433649.4949765,-2.1411359310150146,-1.3334743243506928,-2.5272071997271937,6.109362590103903,1.0181747674942017,-2.372477356587545
1708433649.4970272,-2.1410841941833496,-1.33350624263797,-2.5272088686572474,6.109395372658529,1.0181790590286255,-2.3724640051471155
1708433649.4989955,-2.141108512878418,-1.3335474294475098,-2.5271785894977015,6.109287965088644,1.0182000398635864,-2.3724728266345423
1708433649.5009792,-2.1410927772521973,-1.3335309338620682,-2.527201239262716,6.109350788384237,1.0181553363800049,-2.372448984776632
1708433649.5030174,-2.141080379486084,-1.333547906284668,-2.5271831194507044,6.1093129990394495,1.0181628465652466,-2.3724566141711634
1708433649.5049715,-2.1410634517669678,-1.3335474145463486,-2.5271499792682093,6.1093294499214075,1.0182043313980103,-2.3724432627307337
1708433649.5069933,-2.141115665435791,-1.3335147959044953,-2.5271695295916956,6.109294044762411,1.0181628465652466,-2.3724313418017786
1708433649.5090065,-2.1411287784576416,-1.3335517656854172,-2.5272133986102503,6.109346139221945,1.0181790590286255,-2.3724401632892054
1708433649.5109696,-2.141108512878418,-1.3335114282420655,-2.52717096010317,6.109322058945455,1.0181596279144287,-2.3724356333362024
1708433649.5129986,-2.1411287784576416,-1.3335474145463486,-2.527196709309713,6.109338390618124,1.0181877613067627,-2.3724191824542444
1708433649.514978,-2.1410715579986572,-1.3335233491710206,-2.5272162596331995,6.1093506691749475,1.0181715488433838,-2.3724072615252894
1708433649.5169783,-2.1410927772521973,-1.3335395169309159,-2.5271921793567103,6.10933397987441,1.01816725730896,-2.3724566141711634
1708433649.5190227,-2.141120195388794,-1.3335517656854172,-2.5271499792682093,6.109362590103903,1.0181758403778076,-2.3724730650531214
1708433649.5209608,-2.141108512878418,-1.3335266721299668,-2.5271499792682093,6.109395372658529,1.0181344747543335,-2.3724849859820765
1708433649.5229886,-2.141104221343994,-1.3335474294475098,-2.5272207895862024,6.109341609268942,1.0181628465652466,-2.3724611441241663
1708433649.5249753,-2.1410841941833496,-1.3335275960019608,-2.5271499792682093,6.109390842705526,1.0182043313980103,-2.3724356333362024
1708433649.526972,-2.1410953998565674,-1.3335550886443635,-2.5271664301501673,6.1093236086662195,1.0181553363800049,-2.3724940458880823
1708433649.529001,-2.1410796642303467,-1.3335224103978653,-2.527154509221212,6.109410512238302,1.0181596279144287,-2.3725104967700403
1708433649.53097,-2.1410884857177734,-1.333526687031128,-2.5271831194507044,6.109431373863973,1.0181758403778076,-2.372477356587545
1708433649.5329702,-2.1410927772521973,-1.3335431677154084,-2.5271499792682093,6.109405982285299,1.0181715488433838,-2.3724520842181605
1708433649.5349567,-2.1410796642303467,-1.3335352700999756,-2.5272162596331995,6.109480607300558,1.0181596279144287,-2.3724566141711634
1708433649.5370278,-2.1410953998565674,-1.3335722100785752,-2.5272088686572474,6.109453666001119,1.0181553363800049,-2.3724685351001185
1708433649.539013,-2.1411359310150146,-1.3335266721299668,-2.5272162596331995,6.109503137856283,1.0182205438613892,-2.3724640051471155
1708433649.5409775,-2.141108512878418,-1.333555982714035,-2.527154509221212,6.109460937767782,1.0181387662887573,-2.3724191824542444
1708433649.5430143,-2.141108512878418,-1.3335233491710206,-2.5271335283862513,6.109482276230612,1.0181790590286255,-2.3724311033831995
1708433649.544995,-2.1411359310150146,-1.333539531832077,-2.5271664301501673,6.109477746277609,1.018180251121521,-2.3724222818957728
1708433649.547021,-2.1411359310150146,-1.333560274248459,-2.5271831194507044,6.109473335533895,1.0181387662887573,-2.372460905705587
1708433649.5489893,-2.1410841941833496,-1.3335560274175187,-2.5271785894977015,6.109515058785238,1.01816725730896,-2.3724728266345423
1708433649.550958,-2.1411445140838623,-1.3335593205741425,-2.5271619001971644,6.109473216324606,1.0181758403778076,-2.3724566141711634
1708433649.5530014,-2.1411359310150146,-1.3335506928018113,-2.527159039174215,6.109485137253561,1.0181715488433838,-2.3724640051471155
1708433649.5549822,-2.141169786453247,-1.3335517656854172,-2.5272417704211634,6.109497058182516,1.0181553363800049,-2.3724685351001185
1708433649.5569885,-2.1410908699035645,-1.3335233491710206,-2.527138058339254,6.109510528832235,1.0181715488433838,-2.3725133577929896
1708433649.558972,-2.141104221343994,-1.3334942919066926,-2.5271998087512415,6.109513628273763,1.0181834697723389,-2.3725133577929896
1708433649.5609674,-2.1411402225494385,-1.3335474294475098,-2.5271785894977015,6.109539139061727,1.0181553363800049,-2.3725267092334192
1708433649.5629954,-2.1410884857177734,-1.333575503235199,-2.5271454493152063,6.109526979714193,1.0181834697723389,-2.3724551836596888
1708433649.5649993,-2.141111135482788,-1.3335233491710206,-2.5271125475512903,6.10954366901473,1.0181466341018677,-2.3724387327777308
1708433649.566985,-2.1410796642303467,-1.3335721355727692,-2.52717096010317,6.109483587532797,1.0181553363800049,-2.3724640051471155
1708433649.5689857,-2.1410908699035645,-1.3335233491710206,-2.52714711824526,6.109506118088522,1.0182000398635864,-2.3724594751941126
1708433649.5709715,-2.1410796642303467,-1.3335233491710206,-2.5271244684802454,6.109537589340963,1.01816725730896,-2.3724969069110315
1708433649.5730035,-2.1410953998565674,-1.3335764569095154,-2.5272088686572474,6.1095924256141565,1.0181758403778076,-2.3724685351001185
1708433649.5749779,-2.141115665435791,-1.3335474294475098,-2.5271619001971644,6.109506118088522,1.0181715488433838,-2.3724969069110315
1708433649.5769825,-2.141115665435791,-1.3335560274175187,-2.527175490056173,6.1094597456748865,1.018151044845581,-2.3724058310138147
1708433649.5789714,-2.1410999298095703,-1.3335190874389191,-2.527196709309713,6.109497058182516,1.01816725730896,-2.3724520842181605
1708433649.5809789,-2.1410796642303467,-1.333604873423912,-2.527151648198263,6.109530198365011,1.0182075500488281,-2.3724640051471155
1708433649.5829875,-2.141165256500244,-1.3335352700999756,-2.5271664301501673,6.109508979111471,1.0181878805160522,-2.372450653706686
1708433649.5849845,-2.141070604324341,-1.3335550737432023,-2.527180020009176,6.109576213150778,1.0182162523269653,-2.3724430243121546
1708433649.5870008,-2.141181230545044,-1.3334900599769135,-2.5271247068988245,6.109562742501058,1.01816725730896,-2.3724475542651575
1708433649.5889869,-2.1411495208740234,-1.3335712415030976,-2.5271876494037073,6.109483706742086,1.01816725730896,-2.3724969069110315
1708433649.5909927,-2.1411538124084473,-1.3335345548442383,-2.527168099080221,6.109555589943685,1.0181758403778076,-2.3724520842181605
1708433649.5930176,-2.1410908699035645,-1.3335395169309159,-2.527175490056173,6.109558093338766,1.0181300640106201,-2.3724356333362024
1708433649.594969,-2.1410953998565674,-1.3335318130305787,-2.5271499792682093,6.109500157624044,1.0181715488433838,-2.3724594751941126
1708433649.5969825,-2.1411495208740234,-1.3335395020297547,-2.5271499792682093,6.109544741898336,1.0181553363800049,-2.3724849859820765
1708433649.598998,-2.1411564350128174,-1.3335636121085663,-2.5271876494037073,6.109513509064474,1.0182000398635864,-2.3724685351001185
1708433649.60097,-2.1410906314849854,-1.3335233491710206,-2.5271921793567103,6.109492528229513,1.0181758403778076,-2.3724387327777308
1708433649.6030085,-2.141158103942871,-1.3335394871285935,-2.527130667363302,6.109540211945333,1.018180251121521,-2.3724594751941126
1708433649.6049676,-2.1411519050598145,-1.3335431677154084,-2.5271664301501673,6.109492528229513,1.0181715488433838,-2.3724358717547815
1708433649.606992,-2.141118049621582,-1.3335352700999756,-2.5271998087512415,6.10953317859725,1.0181715488433838,-2.3724432627307337
1708433649.6089818,-2.1411359310150146,-1.3335147512010117,-2.527154509221212,6.109549271851339,1.0181344747543335,-2.3724358717547815
1708433649.6109676,-2.1410908699035645,-1.3335474294475098,-2.5271499792682093,6.109556662827291,1.0181920528411865,-2.3724761644946497
1708433649.6129804,-2.141104221343994,-1.333523378973343,-2.527196709309713,6.109508979111471,1.0181553363800049,-2.3724969069110315
1708433649.615006,-2.1411361694335938,-1.3335722249797364,-2.527138058339254,6.109508979111471,1.018151044845581,-2.3724222818957728
1708433649.616989,-2.141106605529785,-1.3335841310075303,-2.5271454493152063,6.109500038414755,1.0181134939193726,-2.3724191824542444
1708433649.6190279,-2.141131639480591,-1.3335883778384705,-2.527163569127218,6.1094881174858,1.0181920528411865,-2.3724685351001185
1708433649.6209822,-2.1411540508270264,-1.3334986728480835,-2.52714711824526,6.109534728318014,1.0181102752685547,-2.3724387327777308
1708433649.6229882,-2.1411404609680176,-1.3335105341723938,-2.527163569127218,6.109504449158468,1.018164038658142,-2.372471634541647
1708433649.6249774,-2.1411404609680176,-1.3335352850011368,-2.527135197316305,6.109483706742086,1.0181920528411865,-2.3724926153766077
1708433649.6269853,-2.141127109527588,-1.333575503235199,-2.527180020009176,6.109530198365011,1.0181758403778076,-2.3725014368640345
1708433649.6290245,-2.141118049621582,-1.3335345399430771,-2.52717096010317,6.109544741898336,1.0181596279144287,-2.3724640051471155
1708433649.6309695,-2.1410953998565674,-1.3335345846465607,-2.527196709309713,6.109500038414755,1.0181387662887573,-2.3725088278399866
1708433649.6330078,-2.141106605529785,-1.3335233640721817,-2.527130667363302,6.109504449158468,1.018180251121521,-2.3724551836596888
1708433649.6349745,-2.1410751342773438,-1.333567963247635,-2.527142588292257,6.109553801804342,1.0181553363800049,-2.372488085423605
1708433649.636997,-2.141115665435791,-1.3336091351560135,-2.5272088686572474,6.109516846924581,1.0181474685668945,-2.3724806944476526
1708433649.6390228,-2.1411564350128174,-1.3335353148034592,-2.527142588292257,6.10945080497817,1.0181553363800049,-2.3724849859820765
1708433649.6409698,-2.141131639480591,-1.3335603040507813,-2.527109448109762,6.109497058182516,1.0181474685668945,-2.3724969069110315
1708433649.6430542,-2.1411359310150146,-1.3335474294475098,-2.527156178151266,6.109516846924581,1.0181628465652466,-2.3724926153766077
1708433649.6450024,-2.1411359310150146,-1.333567963247635,-2.527130667363302,6.1095958826835535,1.018130898475647,-2.3724268118487757
1708433649.64701,-2.1411609649658203,-1.3335389655879517,-2.527184549962179,6.109542119293966,1.018164038658142,-2.3724551836596888
1708433649.6489837,-2.1411359310150146,-1.3335309487632294,-2.527142588292257,6.109574544220724,1.018180251121521,-2.3725088278399866
1708433649.650981,-2.1410908699035645,-1.3335395467332383,-2.527168099080221,6.109537589340963,1.0181553363800049,-2.3724551836596888
1708433649.653008,-2.1411564350128174,-1.3335389357856293,-2.527142588292257,6.109507787018575,1.0181059837341309,-2.3724475542651575
1708433649.654974,-2.1411564350128174,-1.3335593354753037,-2.527126137410299,6.109586822777548,1.018164038658142,-2.3724761644946497
1708433649.6570199,-2.141106605529785,-1.3335352850011368,-2.527142588292257,6.109508979111471,1.0181387662887573,-2.3724640051471155
1708433649.659032,-2.1411404609680176,-1.3335635972074051,-2.527159039174215,6.109542119293966,1.0181430578231812,-2.372450653706686
1708433649.660998,-2.141113758087158,-1.3335105341723938,-2.527151648198263,6.109507787018575,1.018180251121521,-2.3724685351001185
1708433649.6630137,-2.1411449909210205,-1.3335841310075303,-2.527163569127218,6.10953317859725,1.0181387662887573,-2.3724594751941126
1708433649.6649826,-2.1411564350128174,-1.3335431677154084,-2.527083937321798,6.109574544220724,1.018151044845581,-2.3724761644946497
1708433649.6670008,-2.141131639480591,-1.3335763824037095,-2.527130667363302,6.1095958826835535,1.018130898475647,-2.3724222818957728
1708433649.6689966,-2.141122579574585,-1.3335559976151963,-2.52717096010317,6.109582412033834,1.0181102752685547,-2.372488085423605
1708433649.670995,-2.1411609649658203,-1.3335840863040467,-2.527172629033224,6.109513509064474,1.0181387662887573,-2.3724640051471155
1708433649.673014,-2.1410863399505615,-1.3335755181363602,-2.52717096010317,6.109558093338766,1.0181430578231812,-2.3724268118487757
1708433649.674967,-2.141165256500244,-1.333514781003334,-2.527151648198263,6.109549271851339,1.0181344747543335,-2.3724551836596888
1708433649.6770048,-2.1411404609680176,-1.3335395467332383,-2.527123037968771,6.109521138459005,1.0181058645248413,-2.3724806944476526
1708433649.6790226,-2.1411359310150146,-1.3335309636643906,-2.527113978062765,6.109568822174825,1.0181758403778076,-2.3724761644946497
1708433649.6809883,-2.1411404609680176,-1.333559275870659,-2.527196709309713,6.109516846924581,1.0181387662887573,-2.3724940458880823
1708433649.6829937,-2.141122579574585,-1.333588333134987,-2.527163569127218,6.109525668412008,1.0181430578231812,-2.3724761644946497
1708433649.685002,-2.141115665435791,-1.3335395020297547,-2.527113978062765,6.109490978508749,1.0181474685668945,-2.372488085423605
1708433649.686987,-2.141127109527588,-1.3336048138192673,-2.527135197316305,6.109518039017477,1.0181396007537842,-2.3725088278399866
1708433649.6889894,-2.1411361694335938,-1.3335517656854172,-2.527130667363302,6.109530198365011,1.0181889533996582,-2.3724685351001185
1708433649.6909528,-2.1411092281341553,-1.3335474145463486,-2.527189079915182,6.109534728318014,1.01816725730896,-2.372477356587545
1708433649.692978,-2.1410863399505615,-1.3335841310075303,-2.527163569127218,6.109508979111471,1.0181553363800049,-2.3724926153766077
1708433649.6949754,-2.141118049621582,-1.3335072112134476,-2.527097765599386,6.109516846924581,1.018164038658142,-2.3724594751941126
1708433649.6969886,-2.1411404609680176,-1.3335635227015992,-2.527168099080221,6.109537589340963,1.018151044845581,-2.3724640051471155
1708433649.6989877,-2.141127109527588,-1.3335105043700715,-2.527113978062765,6.109504449158468,1.018180251121521,-2.3724430243121546
1708433649.700979,-2.1411449909210205,-1.3335224402001877,-2.527113978062765,6.109551179199972,1.0181715488433838,-2.3724446932422083
1708433649.7030063,-2.141106605529785,-1.3335797798684617,-2.527123037968771,6.1094881174858,1.0181596279144287,-2.3724520842181605
1708433649.7049863,-2.141127109527588,-1.333526687031128,-2.527144257222311,6.109513509064474,1.0181715488433838,-2.3724728266345423
1708433649.7069726,-2.141131639480591,-1.333563582306244,-2.527126137410299,6.109561192780294,1.0181596279144287,-2.3724191824542444
1708433649.708981,-2.141111135482788,-1.333579735164978,-2.527151648198263,6.109512436180868,1.0181430578231812,-2.372432533894674
1708433649.7110019,-2.1411449909210205,-1.333559350376465,-2.527163569127218,6.109483587532797,1.0181758403778076,-2.372432533894674
1708433649.7129867,-2.141176700592041,-1.3335431826165696,-2.527139727269308,6.109500038414755,1.018151879310608,-2.372428003941671
1708433649.7149818,-2.1411020755767822,-1.3335559976151963,-2.527138058339254,6.109495627671041,1.0181387662887573,-2.372404162083761
1708433649.7169852,-2.141206741333008,-1.3335063022426148,-2.527130667363302,6.109500157624044,1.018151879310608,-2.3723953405963343
1708433649.719007,-2.141127109527588,-1.333576427107193,-2.527130667363302,6.109525668412008,1.0181474685668945,-2.3723188082324427
1708433649.7209752,-2.141111135482788,-1.3335233342698594,-2.527123037968771,6.109571683197775,1.0181474685668945,-2.3723514715777796
1708433649.7229931,-2.1411609649658203,-1.333560274248459,-2.527113978062765,6.10958360412673,1.0181553363800049,-2.3723111788379114
1708433649.724978,-2.1411519050598145,-1.3335352700999756,-2.527138058339254,6.109513509064474,1.0181474685668945,-2.3723486105548304
1708433649.7269728,-2.1411242485046387,-1.333482788210251,-2.527154509221212,6.109546649246969,1.0181553363800049,-2.372288529072897
1708433649.7290082,-2.141106605529785,-1.3336005222848435,-2.527168099080221,6.109510528832235,1.0181877613067627,-2.3722479979144495
1708433649.730985,-2.141115665435791,-1.333567963247635,-2.527144257222311,6.109546649246969,1.018151879310608,-2.3722360769854944
1708433649.733022,-2.141111135482788,-1.3335233491710206,-2.527118508015768,6.109497058182516,1.0181758403778076,-2.3721912542926233
1708433649.734967,-2.141122579574585,-1.3335395169309159,-2.527126137410299,6.109508979111471,1.0181715488433838,-2.372166935597555
1708433649.7370129,-2.141122579574585,-1.3335233640721817,-2.527142588292257,6.109497177391805,1.0181596279144287,-2.3720906416522425
1708433649.739035,-2.1411495208740234,-1.333530918960907,-2.527151648198263,6.109468805580892,1.0181221961975098,-2.372071091328756
1708433649.7410257,-2.141113758087158,-1.333567888741829,-2.527121607457296,6.109521138459005,1.0181387662887573,-2.372002188359396
1708433649.7430441,-2.1410796642303467,-1.3335635674050828,-2.52717096010317,6.109501588135519,1.0181430578231812,-2.3719707171069544
1708433649.7450283,-2.141122579574585,-1.333514781003334,-2.527163569127218,6.109513509064474,1.018164038658142,-2.371967379246847
1708433649.7470436,-2.141169786453247,-1.3335191023400803,-2.527168099080221,6.109546649246969,1.018164038658142,-2.371927086506979
1708433649.749038,-2.1411404609680176,-1.333563582306244,-2.527142588292257,6.109464275627889,1.0181596279144287,-2.3718746344195765
1708433649.750989,-2.141120195388794,-1.3335883778384705,-2.5272133986102503,6.109485137253561,1.018180251121521,-2.37185508409609
1708433649.7530215,-2.1411609649658203,-1.333551750784256,-2.527159039174215,6.109468805580892,1.0181628465652466,-2.371798340474264
1708433649.7549644,-2.1411359310150146,-1.333559350376465,-2.527142588292257,6.109536039620199,1.0181684494018555,-2.3717291990863245
1708433649.7570062,-2.141118049621582,-1.3335721653750916,-2.527142588292257,6.109485137253561,1.0181877613067627,-2.371768061314718
1708433649.7589843,-2.1411564350128174,-1.3335352700999756,-2.527135197316305,6.1094610569770715,1.0181758403778076,-2.37170654932131
1708433649.7609708,-2.1411609649658203,-1.3335309487632294,-2.527138058339254,6.109468805580892,1.0181553363800049,-2.371655289326803
1708433649.7629762,-2.141131639480591,-1.3335635972074051,-2.5272133986102503,6.1094446060951135,1.0181628465652466,-2.37168533006777
1708433649.7649975,-2.141115665435791,-1.333551750784256,-2.5271619001971644,6.109423744469442,1.018195629119873,-2.371549193059103
1708433649.7670028,-2.1411609649658203,-1.333560274248459,-2.5271454493152063,6.109515058785238,1.0181596279144287,-2.371535364781515
1708433649.7689707,-2.141127109527588,-1.3335062873414536,-2.527180020009176,6.109474527626791,1.01816725730896,-2.3714831511126917
1708433649.7709823,-2.141099691390991,-1.333547444348671,-2.527159039174215,6.109437334328451,1.0181790590286255,-2.371455971394674
1708433649.7730043,-2.141122579574585,-1.333551750784256,-2.527175490056173,6.1094655869300745,1.0181747674942017,-2.3713751474963587
1708433649.774974,-2.141118049621582,-1.3335191172412415,-2.5271499792682093,6.109432804375448,1.0182284116744995,-2.371293846760885
1708433649.7769978,-2.1411359310150146,-1.3335679185441514,-2.52717096010317,6.109437215119161,1.018195629119873,-2.3712413946734827
1708433649.7790117,-2.1411404609680176,-1.3336090010455628,-2.5271573702441614,6.109391081124105,1.0182284116744995,-2.371173922215597
1708433649.7809768,-2.1410672664642334,-1.3335474145463486,-2.5271831194507044,6.109482276230612,1.018211841583252,-2.3711183706866663
1708433649.7830582,-2.1411402225494385,-1.3335721653750916,-2.5271664301501673,6.109446155815878,1.0182154178619385,-2.3710344473468226
1708433649.7849994,-2.141158103942871,-1.3335353446057816,-2.5271876494037073,6.109467136650839,1.018248200416565,-2.370950524006979
1708433649.7870145,-2.1411402225494385,-1.333531768327095,-2.527184549962179,6.109421241074362,1.0182241201400757,-2.370849911366598
1708433649.7889886,-2.1411287784576416,-1.3335431826165696,-2.5272088686572474,6.109437334328451,1.018248200416565,-2.370836321507589
1708433649.790991,-2.1411449909210205,-1.3335919988206406,-2.527159039174215,6.109405982285299,1.0182154178619385,-2.3706775347339075
1708433649.792993,-2.1411495208740234,-1.3335395169309159,-2.5272207895862024,6.109380590706625,1.0182394981384277,-2.370601002370016
1708433649.7949727,-2.1411359310150146,-1.3335114431432267,-2.527175490056173,6.109394061356344,1.0182394981384277,-2.3705347220050257
1708433649.797009,-2.1411242485046387,-1.3335840863040467,-2.5271785894977015,6.109398591309347,1.0182470083236694,-2.370359484349386
1708433649.7990324,-2.1410884857177734,-1.3335191172412415,-2.5271952787982386,6.109386431961813,1.0182676315307617,-2.37030536333193
1708433649.8010113,-2.141120195388794,-1.3335721653750916,-2.5271907488452356,6.1093939421470544,1.0183289051055908,-2.370168987904684
1708433649.8029892,-2.1410927772521973,-1.3335474294475098,-2.5272117296801966,6.10938190200881,1.0182876586914062,-2.3701310793506067
1708433649.804976,-2.1410717964172363,-1.3335517358830948,-2.527181927357809,6.1093580601509,1.0183442831039429,-2.369943920766012
1708433649.807017,-2.141099691390991,-1.3334943813136597,-2.52717096010317,6.109338509827413,1.0183485746383667,-2.369852606450216
1708433649.8090315,-2.1410973072052,-1.3335679036429902,-2.5271619001971644,6.1093129990394495,1.018393635749817,-2.3697696367846888
1708433649.8109918,-2.141084671020508,-1.3335755181363602,-2.5271740595446985,6.109356272011556,1.0183442831039429,-2.3696749846087855
1708433649.8130226,-2.141080379486084,-1.333551750784256,-2.5271952787982386,6.109326469689169,1.0183849334716797,-2.369462553654806
1708433649.8149953,-2.1410672664642334,-1.3335722398808976,-2.5272071997271937,6.109319436341085,1.0183837413787842,-2.3693605105029505
1708433649.8170474,-2.1410927772521973,-1.333526687031128,-2.5272026697741907,6.109301554947653,1.018399953842163,-2.3692284266101282
1708433649.8189838,-2.1410629749298096,-1.3336005818894883,-2.527226511632101,6.109281766205587,1.0183956623077393,-2.3690183798419397
1708433649.8209932,-2.1410672664642334,-1.3335191172412415,-2.527198139821188,6.109280574112692,1.0184359550476074,-2.3689399401294153
1708433649.8230252,-2.1410884857177734,-1.3335517954877396,-2.5271862188922327,6.109260785370626,1.0184481143951416,-2.3687973658191126
1708433649.8250005,-2.141112804412842,-1.3335147512010117,-2.527210060750143,6.109290826111593,1.0184351205825806,-2.368645970021383
1708433649.8270001,-2.1410927772521973,-1.333579735164978,-2.527247492467062,6.109257924347677,1.0184513330459595,-2.368398729954855
1708433649.8289874,-2.141104221343994,-1.333575503235199,-2.5272191206561487,6.109293925553121,1.0185160636901855,-2.368263546620504
1708433649.8309848,-2.1410634517669678,-1.333514781003334,-2.527217451726095,6.109293925553121,1.0184829235076904,-2.3680177370654505
1708433649.8329751,-2.141043186187744,-1.3335517656854172,-2.527241293584005,6.109253513603964,1.0185801982879639,-2.3678961435901087
1708433649.8349879,-2.141080379486084,-1.3335797798684617,-2.52722937265505,6.109246003418722,1.0186097621917725,-2.3676918188678187
1708433649.836981,-2.1410634517669678,-1.3335797649673005,-2.527259413396017,6.109323847084799,1.018592357635498,-2.367499891911642
1708433649.838976,-2.1410317420959473,-1.3335309040597458,-2.5272672812091272,6.1092309830482385,1.0186078548431396,-2.367254082356588
1708433649.8410025,-2.14103627204895,-1.3335389357856293,-2.5273075739489954,6.109222042351522,1.0186734199523926,-2.367075268422262
1708433649.8430066,-2.141040563583374,-1.3335147512010117,-2.5272792021380823,6.109242903977194,1.0186896324157715,-2.366896692906515
1708433649.8450072,-2.1410815715789795,-1.3336048287204285,-2.5272865931140345,6.109255063324728,1.0187050104141235,-2.3666539827929896
1708433649.8470073,-2.141040563583374,-1.3335764122060318,-2.5272985140429896,6.10921739318923,1.0187418460845947,-2.36641508737673
1708433649.8489892,-2.141040563583374,-1.3335352402976532,-2.5273359457599085,6.109238374024191,1.018720030784607,-2.3661914507495325
1708433649.850993,-2.1410272121429443,-1.3335309487632294,-2.5273600260363978,6.109250533371725,1.0187618732452393,-2.3658812681781214
1708433649.8529837,-2.14103627204895,-1.3335148108056565,-2.527372185383932,6.109226453095236,1.018797755241394,-2.365645710621969
1708433649.8549914,-2.1410088539123535,-1.333530918960907,-2.527329985295431,6.109235393791952,1.0187804698944092,-2.3654070536242884
1708433649.8569713,-2.1410043239593506,-1.3335797947696229,-2.5274246374713343,6.1092145321662805,1.018837332725525,-2.3651142756091517
1708433649.8590016,-2.14103364944458,-1.3335233342698594,-2.527379576359884,6.109226453095236,1.018850326538086,-2.3648083845721644
1708433649.8609867,-2.141026496887207,-1.333543212418892,-2.5274155775653284,6.109165298729696,1.0188686847686768,-2.3645206133471888
1708433649.8630133,-2.1409478187561035,-1.3335191172412415,-2.5274322668658655,6.109202611237325,1.0188767910003662,-2.3642683664904993
1708433649.8649862,-2.1409478187561035,-1.3335309338620682,-2.527463499699728,6.109198200493612,1.0189223289489746,-2.3639519850360315
1708433649.8670037,-2.14100980758667,-1.3335395169309159,-2.5274396578418177,6.1091322777564905,1.0189135074615479,-2.3636441866504114
1708433649.8689904,-2.1409964561462402,-1.3335464757731934,-2.527487341557638,6.109187829285421,1.0189539194107056,-2.3633280436145228
1708433649.8709924,-2.1409523487091064,-1.3335551035455246,-2.52747089067568,6.109159219055929,1.0189571380615234,-2.3629706541644495
1708433649.8729734,-2.140911340713501,-1.333534614448883,-2.5275116602527063,6.109183299332418,1.018965244293213,-2.3626840750323694
1708433649.874974,-2.140965461730957,-1.3335635972074051,-2.5275684038745325,6.109112846642294,1.0189933776855469,-2.362352434788839
1708433649.876975,-2.14094877243042,-1.3335551035455246,-2.5275428930865687,6.109147298126974,1.0189803838729858,-2.362032715474264
1708433649.8789892,-2.1409409046173096,-1.333551750784256,-2.527583662663595,6.109142768173971,1.0190131664276123,-2.361642901097433
1708433649.8809836,-2.1408867835998535,-1.3335233938745041,-2.527579132710592,6.109142768173971,1.0190534591674805,-2.3613274733172815
1708433649.882984,-2.1408956050872803,-1.3335191023400803,-2.527628485356466,6.109130847245016,1.0191057920455933,-2.3610287348376673
1708433649.8849752,-2.1408841609954834,-1.333592028622963,-2.5276315847979944,6.109041201859274,1.0191013813018799,-2.3606181780444544
1708433649.8869972,-2.1408560276031494,-1.3335352551988144,-2.5276675860034388,6.1091322777564905,1.01914644241333,-2.36025053659548
1708433649.8889875,-2.1408603191375732,-1.3335389208844681,-2.52771240869631,6.109104025154867,1.019149899482727,-2.3598416487323206
1708433649.8909717,-2.140869379043579,-1.3335309487632294,-2.527703348790304,6.109078633576193,1.0192067623138428,-2.359469238911764
1708433649.8930225,-2.14082407951355,-1.3336039346507569,-2.527728859578268,6.109133708267965,1.0192055702209473,-2.3591793219195765
1708433649.8949847,-2.140815258026123,-1.3335797649673005,-2.5277350584613245,6.1090500233467,1.0192055702209473,-2.358746115361349
1708433649.8969755,-2.140758752822876,-1.3335309487632294,-2.5277696291552942,6.109006631165304,1.0192537307739258,-2.3584232966052454
1708433649.8990128,-2.1408462524414062,-1.3335474294475098,-2.5277560392962855,6.109033691674032,1.019249439239502,-2.358013931904928
1708433649.9009967,-2.1407551765441895,-1.3335352700999756,-2.5277753512011927,6.109080302506246,1.019351840019226,-2.357659403477804
1708433649.90299,-2.1407525539398193,-1.3335551035455246,-2.527841631566183,6.108957516938009,1.0193378925323486,-2.357239309941427
1708433649.9049785,-2.140744686126709,-1.333559350376465,-2.527787510548727,6.109039771347799,1.0193783044815063,-2.356781307850973
1708433649.9070144,-2.140768527984619,-1.3335877519897004,-2.527839962636129,6.1089738486106775,1.0194228887557983,-2.3563695589648646
1708433649.9089882,-2.1407322883605957,-1.3335840565017243,-2.5278549830066126,6.108984339028158,1.0194339752197266,-2.3559747377978724
1708433649.9109786,-2.140700578689575,-1.3335560274175187,-2.5278428236590784,6.108984339028158,1.0194339752197266,-2.35549766222109
1708433649.912972,-2.140713691711426,-1.3335309487632294,-2.5278337637530726,6.108958947449484,1.0194659233093262,-2.355114523564474
1708433649.914971,-2.140672445297241,-1.3335722100785752,-2.527877394353048,6.108918535500326,1.019514560699463,-2.354595724736349
1708433649.9169714,-2.140676975250244,-1.3335431677154084,-2.527935806904928,6.108956086426534,1.0195631980895996,-2.354187313710348
1708433649.918978,-2.1406447887420654,-1.3335474294475098,-2.52791935602297,6.108947026520529,1.0195631980895996,-2.353701655064718
1708433649.9209814,-2.1406493186950684,-1.3335181188634415,-2.527952019368307,6.108911144524374,1.019590139389038,-2.353340450917379
1708433649.9230306,-2.1406166553497314,-1.33357127130542,-2.5279465357409876,6.108873712807455,1.019609808921814,-2.3528159300433558
1708433649.9249759,-2.140645742416382,-1.3335636121085663,-2.5279913584338587,6.10889624336318,1.0196338891983032,-2.3523476759540003
1708433649.9269965,-2.1406095027923584,-1.3335309338620682,-2.528015438710348,6.108882772713461,1.0196905136108398,-2.351842705403463
1708433649.9289885,-2.140622854232788,-1.3336082112840195,-2.527965847645895,6.10887240150527,1.0197433233261108,-2.3513909021960657
1708433649.9309897,-2.140552043914795,-1.3335635972074051,-2.5280514399157923,6.108793008118429,1.019770622253418,-2.3509190718280237
1708433649.9330006,-2.1405911445617676,-1.33357127130542,-2.5280228296863,6.108818399697103,1.0197947025299072,-2.350443665181295
1708433649.9349792,-2.1405484676361084,-1.3336524826339264,-2.5280678907977503,6.108815538674154,1.0198472738265991,-2.3500083128558558
1708433649.9370005,-2.1405088901519775,-1.3335627031377335,-2.5280707518206995,6.108819949417867,1.0198341608047485,-2.3494654337512415
1708433649.938989,-2.1405131816864014,-1.3335627031377335,-2.5280707518206995,6.108800399094381,1.019906997680664,-2.349001948033468
1708433649.9409773,-2.140472412109375,-1.3335791689208527,-2.528064791356222,6.108772027283468,1.019943356513977,-2.348501984273092
1708433649.942978,-2.140460252761841,-1.333592028622963,-2.528109852467672,6.108703481941976,1.0199464559555054,-2.347877804433004
1708433649.9449978,-2.140476942062378,-1.333559350376465,-2.528163735066549,6.108743536263265,1.0200164318084717,-2.3474770228015345
1708433649.946978,-2.140424966812134,-1.3336316359094162,-2.5281744639026087,6.1087002632911584,1.020003318786621,-2.346987549458639
1708433649.9490335,-2.1404080390930176,-1.3335381311229249,-2.5282328764544886,6.10865997055129,1.0200724601745605,-2.346417252217428
1708433649.9509926,-2.1404099464416504,-1.333518074159958,-2.528256956730978,6.108652341156759,1.02005934715271,-2.3459375540362757
1708433649.952981,-2.140376091003418,-1.3336157661727448,-2.528198305760519,6.108676421433248,1.02012038230896,-2.34542686143984
1708433649.9550078,-2.140385150909424,-1.3335834306529541,-2.528222147618429,6.108685481339254,1.0201642513275146,-2.3448312918292444
1708433649.9569845,-2.1403534412384033,-1.333586947326996,-2.5282583872424524,6.108612048416891,1.0202009677886963,-2.344290558491842
1708433649.9590268,-2.140305757522583,-1.3335791540196915,-2.5282674471484583,6.108606326370992,1.0202163457870483,-2.3437944094287317
1708433649.9609864,-2.1403145790100098,-1.33360310018573,-2.528364960347311,6.108568656235494,1.0202689170837402,-2.3431876341449183
1708433649.9629776,-2.1402668952941895,-1.3336189550212403,-2.528327290211813,6.108533131867208,1.0202796459197998,-2.3426154295550745
1708433649.965016,-2.1402714252471924,-1.3335834306529541,-2.528360430394308,6.108533131867208,1.02032470703125,-2.342058245335714
1708433649.96697,-2.140235185623169,-1.3335911196521302,-2.528396193181173,6.108492600708761,1.020328164100647,-2.3416009585009974
1708433649.969003,-2.1401944160461426,-1.3335877519897004,-2.5283706823932093,6.108513462334432,1.0203269720077515,-2.34098989168276
1708433649.970977,-2.1401379108428955,-1.3335869324258347,-2.5284233728991907,6.108472931175985,1.0203925371170044,-2.340473715459005
1708433649.973003,-2.1400928497314453,-1.333586947326996,-2.528447214757101,6.108420955925741,1.0204198360443115,-2.339985195790426
1708433649.9749851,-2.140073537826538,-1.3336103570512314,-2.528438154851095,6.108380305558004,1.020468831062317,-2.3394461313830774
1708433649.9769866,-2.1400673389434814,-1.3335987639478226,-2.5285237471209925,6.1083730337913416,1.0205249786376953,-2.338846985493795
1708433649.9789884,-2.140022039413452,-1.3336030852845688,-2.5285237471209925,6.1083611128623865,1.0205366611480713,-2.3382955233203333
1708433649.9809706,-2.139998435974121,-1.3336018484881897,-2.5285101572619837,6.108370053559103,1.0205849409103394,-2.3377535978900355
1708433649.9829752,-2.1400070190429688,-1.3336463433555146,-2.528555456792013,6.108336794167318,1.0206003189086914,-2.3372095266925257
1708433649.9850004,-2.139906644821167,-1.3336625558188935,-2.5285866896258753,6.108292567520895,1.0206490755081177,-2.3366897741900843
1708433649.98698,-2.139911651611328,-1.3336996150067826,-2.52857476869692,6.108216035157003,1.0206528902053833,-2.3361786047564905
1708433649.989038,-2.139817953109741,-1.3336952191642304,-2.5285940806018274,6.1082085249717615,1.020676612854004,-2.335534636174337
1708433649.9910073,-2.139835834503174,-1.3336909425309678,-2.528618399296896,6.1082098362739465,1.0207781791687012,-2.3349817434894007
1708433649.9929793,-2.139765739440918,-1.3336781871369858,-2.528651301060812,6.10817431190566,1.0207240581512451,-2.33435565630068
1708433649.9949672,-2.139774799346924,-1.333702878361084,-2.528649632130758,6.1080607054527185,1.0207924842834473,-2.3337908426867884
1708433649.9969642,-2.1396830081939697,-1.3338037741235276,-2.528678003941671,6.108057486801901,1.0208580493927002,-2.3331976572619837
1708433649.9989984,-2.1396210193634033,-1.3337548238090058,-2.5287683645831507,6.108021485596456,1.0208406448364258,-2.3326504866229456
1708433650.00104,-2.139590263366699,-1.3337627214244385,-2.528766695653097,6.107954609185018,1.020958423614502,-2.332090441380636
1708433650.0030012,-2.1395955085754395,-1.333787502055504,-2.528754774724142,6.107943880348959,1.020961880683899,-2.3315210978137415
1708433650.0049806,-2.1394824981689453,-1.3337548238090058,-2.528799835835592,6.107854592591085,1.0210011005401611,-2.3309322039233606
1708433650.0069773,-2.1394505500793457,-1.3338354241899033,-2.5288310686694544,6.107798802643575,1.0210176706314087,-2.330371920262472
1708433650.0090349,-2.1394119262695312,-1.3338149797967453,-2.5288339296924036,6.107766020088949,1.0210777521133423,-2.329815928136007
1708433650.0109704,-2.139327049255371,-1.3338426661542435,-2.52885085741152,6.107658612519064,1.0211141109466553,-2.3292184511767786
1708433650.0129755,-2.1393003463745117,-1.33385822296653,-2.528903071080343,6.107589590340414,1.0211575031280518,-2.3286076227771204
1708433650.015007,-2.1391501426696777,-1.3338418316892167,-2.5289512316333216,6.107514965325155,1.0212100744247437,-2.3280802408801478
1708433650.0169663,-2.139116048812866,-1.3338626635125657,-2.5289750734912317,6.107426512032308,1.021233320236206,-2.327559296284811
1708433650.0189872,-2.139028310775757,-1.3339386147311707,-2.528949562703268,6.1073341248329065,1.0212942361831665,-2.327068869267599
1708433650.0210004,-2.138956069946289,-1.3338693541339417,-2.529053274785177,6.107311594277181,1.0213425159454346,-2.3265894095050257
1708433650.0229652,-2.138838291168213,-1.3339501929334183,-2.5290544668780726,6.107326495438375,1.0213541984558105,-2.3260725180255335
1708433650.025,-2.1388378143310547,-1.3339582842639466,-2.5290618578540247,6.107130634575643,1.0214275121688843,-2.3254690806018274
1708433650.0269744,-2.138742446899414,-1.3339658242515107,-2.529123608266012,6.107047068863668,1.0214459896087646,-2.3249271551715296
1708433650.0289876,-2.138624668121338,-1.3340351444533844,-2.5291476885425013,6.106967556267538,1.0215226411819458,-2.324423853551046
1708433650.0309846,-2.1385295391082764,-1.3340145659497757,-2.5292120615588587,6.10690056064681,1.0215424299240112,-2.3238704840289515
1708433650.0329983,-2.138425350189209,-1.3340298992446442,-2.5292392412768763,6.106834876328268,1.0215771198272705,-2.323317829762594
1708433650.034975,-2.1383094787597656,-1.3340579581311722,-2.5292914549456995,6.10669885852889,1.0216962099075317,-2.3227806727038782
1708433650.03699,-2.138188362121582,-1.3341059547713776,-2.529335085545675,6.106579053192892,1.0217032432556152,-2.322247568761007
1708433650.03903,-2.138087034225464,-1.3340932440808793,-2.529372278844015,6.106420624047079,1.0217806100845337,-2.3217113653766077
1708433650.0410378,-2.1379711627960205,-1.3341461730054398,-2.529430929814474,6.10636996009902,1.0218099355697632,-2.321202818547384
1708433650.0429664,-2.1378376483917236,-1.3341369789889832,-2.529426399861471,6.106242882996359,1.0218309164047241,-2.320691172276632
1708433650.045035,-2.13771390914917,-1.334209905271866,-2.5294655005084437,6.10609923580245,1.0218908786773682,-2.320244375859396
1708433650.0469701,-2.1375699043273926,-1.3342332702926178,-2.5295868555652063,6.105955707817831,1.021979570388794,-2.319681469594137
1708433650.0489995,-2.1374552249908447,-1.3342655313066025,-2.5296366850482386,6.105820047646322,1.0220232009887695,-2.31918174425234
1708433650.0509737,-2.137274980545044,-1.334285171037056,-2.5297041575061243,6.105701792031088,1.022120475769043,-2.318644110356466
1708433650.0529685,-2.137108087539673,-1.3343047958663483,-2.5297098795520228,6.105468499451437,1.0222046375274658,-2.318143908177511
1708433650.0549676,-2.1369729042053223,-1.3343407970717927,-2.529816452656881,6.105252134590902,1.02223539352417,-2.3176632563220423
1708433650.0569842,-2.136756658554077,-1.3344251972487946,-2.5298646132098597,6.105102288513937,1.0223487615585327,-2.3171539942370813
1708433650.0592449,-2.1365604400634766,-1.3344125759652634,-2.529886786137716,6.104905235558309,1.0224002599716187,-2.3166404406176966
1708433650.0609655,-2.1363658905029297,-1.3344279092601319,-2.529954258595602,6.104750859528341,1.022460699081421,-2.3161686102496546
1708433650.0629566,-2.1361887454986572,-1.3344766211560746,-2.5301013628589075,6.104548918991842,1.0225532054901123,-2.315728251134054
1708433650.0650039,-2.1359665393829346,-1.334536538725235,-2.5301690737353724,6.104342925339498,1.0226123332977295,-2.3151639143573206
1708433650.0669808,-2.1358275413513184,-1.334592567091324,-2.530278269444601,6.104160415917196,1.0227469205856323,-2.3146992365466517
1708433650.0689957,-2.135542869567871,-1.3346524846604844,-2.530304018651144,6.103896128922262,1.0228549242019653,-2.3142228762256067
1708433650.0710003,-2.135274887084961,-1.334651694898941,-2.5303924719439905,6.1036568758781335,1.0229305028915405,-2.3137381712542933
1708433650.072977,-2.1350388526916504,-1.3347034764340897,-2.5304599444018763,6.1034148810203455,1.023022174835205,-2.3132410685168665
1708433650.074975,-2.1347849369049072,-1.3347595495036622,-2.530552689229147,6.103208291321554,1.0230979919433594,-2.3127852121936243
1708433650.0769744,-2.134568929672241,-1.3348155629685898,-2.530663553868429,6.1029841778571985,1.023186206817627,-2.3123558203326624
1708433650.0790174,-2.1342742443084717,-1.3348225814155121,-2.530759874974386,6.102646219521322,1.023261547088623,-2.3119083086596888
1708433650.0810173,-2.1340155601501465,-1.3349070113948365,-2.5308764616595667,6.102387296944418,1.0234355926513672,-2.311432425175802
1708433650.082989,-2.133666515350342,-1.3349829626134415,-2.5309816042529505,6.1021097777183435,1.0235928297042847,-2.3109756151782435
1708433650.0849955,-2.1333558559417725,-1.3350305420211335,-2.531100098286764,6.101766097336569,1.0237369537353516,-2.310575548802511
1708433650.087029,-2.1329705715179443,-1.3350823682597657,-2.531191651021139,6.101425039559164,1.0238854885101318,-2.310117785130636
1708433650.0890038,-2.1326563358306885,-1.3351461005261918,-2.531337086354391,6.101144063263693,1.024042010307312,-2.309648338948385
1708433650.0910115,-2.1323583126068115,-1.3352862012437363,-2.5314555803882044,6.10077594497756,1.0241533517837524,-2.3092973867999476
1708433650.093008,-2.1319987773895264,-1.3353095811656495,-2.5315678755389612,6.100462066918173,1.0242736339569092,-2.3088563124286097
1708433650.0949874,-2.131535530090332,-1.3354577881148835,-2.5316908995257776,6.100108015328207,1.0243971347808838,-2.308467451726095
1708433650.0970018,-2.1311891078948975,-1.3355057102492829,-2.531889025365011,6.099719273834982,1.0245413780212402,-2.3080511728869837
1708433650.0990522,-2.1307990550994873,-1.3355977994254609,-2.5320690313922327,6.099303829460897,1.0247547626495361,-2.3076887766467493
1708433650.1009908,-2.1303598880767822,-1.3356926304152985,-2.532266918812887,6.098871338158407,1.0249065160751343,-2.3072801272021692
1708433650.1030037,-2.129871129989624,-1.3358127784780045,-2.5324061552630823,6.09846197345809,1.0251033306121826,-2.306849543248312
1708433650.1049845,-2.1293821334838867,-1.33587962508712,-2.5325892607318323,6.0979655859764,1.025328278541565,-2.306505266820089
1708433650.1070104,-2.1288812160491943,-1.3359790605357666,-2.532764736806051,6.097589123039999,1.0254762172698975,-2.306138579045431
1708433650.1089976,-2.128418207168579,-1.3361843091300507,-2.5329204241382044,6.097103345185079,1.0257011651992798,-2.3057406584369105
1708433650.110991,-2.127932548522949,-1.3362349432757874,-2.533138100300924,6.096663701325216,1.0259053707122803,-2.3054056803332728
1708433650.112979,-2.12740421295166,-1.336329848771431,-2.5333333651172083,6.096150982170858,1.0261021852493286,-2.3050363699542444
1708433650.1149967,-2.126884698867798,-1.3365269911340256,-2.5334799925433558,6.09574722030715,1.0263187885284424,-2.3046634832965296
1708433650.1169837,-2.1263554096221924,-1.336654157643654,-2.5337634722339075,6.095195996552267,1.0265384912490845,-2.304300133381979
1708433650.11903,-2.1257660388946533,-1.336797685628273,-2.534001890813009,6.094650614052572,1.0267592668533325,-2.303966824208395
1708433650.121003,-2.1251401901245117,-1.3368970316699524,-2.53420597711672,6.094046580582418,1.0270652770996094,-2.303586546574728
1708433650.1229842,-2.1245455741882324,-1.3370890331319352,-2.5345149675952356,6.0933947441871545,1.0273219347000122,-2.3033161799060267
1708433650.125013,-2.1239612102508545,-1.3372118187001725,-2.5347142855273646,6.092843162804403,1.0275527238845825,-2.3029051462756556
1708433650.127002,-2.1233043670654297,-1.337415264253952,-2.534964386616842,6.092235553055563,1.027854561805725,-2.3026142756091517
1708433650.1289756,-2.1225967407226562,-1.3375426691821595,-2.5352256933795374,6.091589677124777,1.0281141996383667,-2.30229360262026
1708433650.130993,-2.1219794750213623,-1.3376977902701874,-2.535539213811056,6.090992319374838,1.028407335281372,-2.3019731680499476
1708433650.1329792,-2.121276378631592,-1.3378342402032395,-2.5358603636371058,6.0903992531593225,1.0286881923675537,-2.3016279379474085
1708433650.1350043,-2.120577812194824,-1.338050739174225,-2.536107603703634,6.089684116631307,1.0290523767471313,-2.3013737837420862
1708433650.1369689,-2.119823694229126,-1.3382005256465455,-2.536403004323141,6.0889861462409876,1.0293489694595337,-2.30106765428652
1708433650.1389954,-2.1190345287323,-1.3384170246175309,-2.5367074648486536,6.088264333992758,1.02970552444458,-2.300713364277975
1708433650.1409802,-2.118272304534912,-1.3386248511127015,-2.5369861761676233,6.087494718819418,1.0300581455230713,-2.300466839467184
1708433650.1429732,-2.1174330711364746,-1.3388819110444565,-2.5373807589160364,6.086720573693075,1.0303503274917603,-2.300248448048727
1708433650.1450589,-2.1166372299194336,-1.3390432757190247,-2.5376670996295374,6.085933911591329,1.0307636260986328,-2.299939219151632
1708433650.1470323,-2.1158316135406494,-1.3392466467669983,-2.5380407015429896,6.085193979531088,1.031136155128479,-2.299666229878561
1708433650.1490119,-2.1149306297302246,-1.3394750815681,-2.53835374513735,6.08445297458724,1.0314927101135254,-2.2993479410754603
1708433650.1510084,-2.114149808883667,-1.33969338357959,-2.538710657750265,6.083647119789877,1.0319106578826904,-2.2991910616504114
1708433650.1529899,-2.113264799118042,-1.3399175864509125,-2.539088551198141,6.0828484175498865,1.03228759765625,-2.298917833958761
1708433650.154995,-2.1123993396759033,-1.3401239675334473,-2.539386812840597,6.081988560944357,1.0326850414276123,-2.2986717859851282
1708433650.156994,-2.1114420890808105,-1.340376229291298,-2.539844338093893,6.081153380661764,1.0330122709274292,-2.2984734217273157
1708433650.1589837,-2.1104798316955566,-1.3406603795341034,-2.5402372519122522,6.080370175629415,1.0334992408752441,-2.2983062903033655
1708433650.160988,-2.109550952911377,-1.340866745715477,-2.540624205266134,6.07948516586379,1.033960223197937,-2.2980902830706995
1708433650.1630018,-2.1085550785064697,-1.3411493462375184,-2.5410199801074427,6.078558671265402,1.0344499349594116,-2.297849718724386
1708433650.1649864,-2.107578754425049,-1.3414257031730195,-2.5414097944842737,6.077644455223837,1.0348608493804932,-2.2976439634906214
1708433650.1669934,-2.1066508293151855,-1.3416677427342911,-2.5418852011310022,6.07676779010848,1.035318374633789,-2.2974727789508265
1708433650.168984,-2.10556960105896,-1.341902421121933,-2.5423200766192835,6.0757567761238,1.0358117818832397,-2.2972398439990442
1708433650.1709704,-2.1045565605163574,-1.3422103089145203,-2.542748037968771,6.074879395752706,1.0362803936004639,-2.297075096760885
1708433650.1729865,-2.103471040725708,-1.3424810779145737,-2.54323655763735,6.073923575669088,1.0367621183395386,-2.296994749699728
1708433650.1749766,-2.102388858795166,-1.3427679550698777,-2.54370886484255,6.0728927729423425,1.0372991561889648,-2.296744410191671
1708433650.1770103,-2.1013200283050537,-1.3430876743844529,-2.5442052523242396,6.071900355606832,1.037796974182129,-2.2965765635119837
1708433650.1790268,-2.100236177444458,-1.3433956068805237,-2.544697348271505,6.070897567063131,1.038334608078003,-2.2964847723590296
1708433650.1809735,-2.0990898609161377,-1.3436883997968216,-2.545208517705099,6.069811451226034,1.0388506650924683,-2.2963536421405237
1708433650.1829917,-2.0978901386260986,-1.3440203976682206,-2.5457549730883997,6.068782079010763,1.039427638053894,-2.2961929480182093
1708433650.1849992,-2.096721887588501,-1.344310702090599,-2.5463109652148646,6.067687380104818,1.04007089138031,-2.296101156865255
1708433650.1870027,-2.0954740047454834,-1.3446826499751587,-2.5467966238604944,6.066569435387411,1.0406233072280884,-2.295980993901388
1708433650.188983,-2.0943052768707275,-1.3450248700431366,-2.547421995793478,6.065502631455221,1.0411758422851562,-2.2958315054522913
1708433650.1909754,-2.0930848121643066,-1.345356599693634,-2.5480108896838587,6.064426290779867,1.0417931079864502,-2.295727793370382
1708433650.192969,-2.0918591022491455,-1.34572126091037,-2.548528258000509,6.0632715103919885,1.0423943996429443,-2.29561955133547
1708433650.1949887,-2.090585470199585,-1.3459965598634263,-2.5491419474231165,6.062221157341757,1.043015718460083,-2.2956138292895716
1708433650.1970012,-2.089247703552246,-1.3463652294925232,-2.549753729497091,6.061029422074117,1.0437105894088745,-2.2954567114459437
1708433650.199002,-2.087956666946411,-1.3467412155917664,-2.5504100958453577,6.059903847962179,1.0443432331085205,-2.295380417500631
1708433650.200984,-2.0866219997406006,-1.347080649142601,-2.5509920755969446,6.058747398644247,1.04496431350708,-2.295307222996847
1708433650.2029786,-2.0852739810943604,-1.347446696167328,-2.5516744295703333,6.057547318726339,1.045609951019287,-2.2952850500689905
1708433650.2050064,-2.08392596244812,-1.347813220029213,-2.5523765722857874,6.056327092438497,1.046250820159912,-2.295171562825338
1708433650.2069857,-2.082507610321045,-1.3482217204621811,-2.553027931843893,6.0550973294074915,1.0470625162124634,-2.2951975504504603
1708433650.2090042,-2.0810585021972656,-1.3485794973424454,-2.5537131468402308,6.053841459542074,1.0477757453918457,-2.295063320790426
1708433650.2109973,-2.0796430110931396,-1.3490065050176163,-2.5544021765338343,6.052529084473409,1.0485252141952515,-2.2951298395739954
1708433650.2129986,-2.078191041946411,-1.3493564289859314,-2.5550809542285364,6.05123912075118,1.049228549003601,-2.2950807253467005
1708433650.2149827,-2.076662063598633,-1.349741981630661,-2.5558083693133753,6.049895632057943,1.0499169826507568,-2.2950850168811243
1708433650.2169874,-2.0751841068267822,-1.350153000359871,-2.5565817991839808,6.048634159355917,1.0506842136383057,-2.2950688044177454
1708433650.2190342,-2.073686361312866,-1.3505772066167374,-2.5573464075671595,6.047283637314596,1.051389455795288,-2.2950568834887903
1708433650.221017,-2.0721864700317383,-1.3510118436864396,-2.5580461660968226,6.046002733498373,1.052164077758789,-2.2951133886920374
1708433650.2229693,-2.070643424987793,-1.3513762217811127,-2.5588839689837855,6.044612633972921,1.0529346466064453,-2.2951703707324427
1708433650.224971,-2.0690135955810547,-1.351872057919838,-2.559659544621603,6.043230521469869,1.0537885427474976,-2.2951822916613978
1708433650.226966,-2.0674500465393066,-1.3523480308106919,-2.5604875723468226,6.041909444123068,1.0546293258666992,-2.2952423731433313
1708433650.2289932,-2.0657894611358643,-1.3528011751225968,-2.561319891606466,6.040541279106893,1.0555232763290405,-2.295359198247091
1708433650.230985,-2.0642032623291016,-1.3532006305507203,-2.562164847050802,6.039177882462301,1.0564218759536743,-2.295316759740011
1708433650.232976,-2.0625102519989014,-1.3537014585784455,-2.5629714171039026,6.037679660111227,1.0573158264160156,-2.29543120065798
1708433650.234975,-2.06085205078125,-1.3541841816953202,-2.56382400194277,6.036308872490682,1.0582138299942017,-2.2955196539508265
1708433650.2369792,-2.059108018875122,-1.354637400513031,-2.5646706263171595,6.034803855210104,1.0591604709625244,-2.2955382505999964
1708433650.2390292,-2.057429552078247,-1.3551389586976548,-2.5656097571002405,6.03343819358901,1.060113787651062,-2.295582119618551
1708433650.2410145,-2.05570125579834,-1.355669693355896,-2.5665000120746058,6.0319756148155115,1.0610144138336182,-2.295673910771505
1708433650.2429922,-2.0539021492004395,-1.3562262964299698,-2.567416493092672,6.030505525856771,1.0620179176330566,-2.295762364064352
1708433650.2450094,-2.0521764755249023,-1.3567773711732407,-2.568352286015646,6.02903031089858,1.0629469156265259,-2.295842234288351
1708433650.2469864,-2.0504040718078613,-1.3572579336217423,-2.569275681172506,6.027450310974874,1.0639384984970093,-2.295938316975729
1708433650.2490044,-2.0485899448394775,-1.357881100182869,-2.570197645817892,6.0258511183555505,1.064941167831421,-2.296091143284933
1708433650.2510211,-2.046804428100586,-1.3583616775325318,-2.5712254683123987,6.024343716889181,1.065901279449463,-2.2962113062488
1708433650.2529924,-2.0450098514556885,-1.3589447748712082,-2.572195355092184,6.022823679238119,1.0668996572494507,-2.2963925043689173
1708433650.2549868,-2.043130397796631,-1.3594902765801926,-2.573167387639181,6.0212453482444666,1.0679478645324707,-2.296523634587423
1708433650.2569728,-2.0412392616271973,-1.3600325894406815,-2.574142042790548,6.019545423775472,1.0689477920532227,-2.296729628239767
1708433650.2590148,-2.0393226146698,-1.3605981481126328,-2.5752421061145228,6.01792727687911,1.0700212717056274,-2.2969232241259974
1708433650.26098,-2.037459135055542,-1.3611482691815873,-2.5762041250811976,6.016300427704611,1.0711390972137451,-2.2971769014941614
1708433650.263008,-2.035501003265381,-1.3617101174644013,-2.577264372502462,6.014667737274923,1.0722707509994507,-2.2973228136645716
1708433650.2650473,-2.0336127281188965,-1.362341732983925,-2.578353230153219,6.013077366143026,1.073391318321228,-2.2975719610797327
1708433650.2670298,-2.031611204147339,-1.362944559460022,-2.5794547239886683,6.011459100037374,1.0745890140533447,-2.2978244463550013
1708433650.2690547,-2.029592990875244,-1.3635425430587311,-2.5805800596820276,6.009811866074362,1.0756980180740356,-2.298028532658712
1708433650.2709768,-2.0275795459747314,-1.364114837055542,-2.581718985234396,6.008125889092245,1.0768296718597412,-2.2983062903033655
1708433650.2730079,-2.025608539581299,-1.364764930014946,-2.5827904383288782,6.0064605353172205,1.078012228012085,-2.298574988042013
1708433650.274984,-2.0235226154327393,-1.3653375965407868,-2.5839620272265833,6.004716741829672,1.0790684223175049,-2.29883057275881
1708433650.276984,-2.021451234817505,-1.3659832042506714,-2.585175100957052,6.002952205925741,1.0802090167999268,-2.299138609563009
1708433650.278994,-2.0193822383880615,-1.366696522837021,-2.5863724390613,6.001243102341451,1.0813623666763306,-2.29946738878359
1708433650.2809966,-2.0173137187957764,-1.3672833305648346,-2.5875635782824915,5.999490487366476,1.0826046466827393,-2.2998366991626185
1708433650.2830057,-2.015129327774048,-1.3679337364486237,-2.588748280202047,5.997854459076681,1.0838099718093872,-2.3001297155963343
1708433650.2850032,-2.013014793395996,-1.3685420912555237,-2.5900326410876673,5.996028530388632,1.0850064754486084,-2.3004735151873987
1708433650.2869828,-2.01078200340271,-1.3692581516555329,-2.591245237980978,5.9943299172218225,1.086179256439209,-2.300822083150045
1708433650.2890022,-2.008580207824707,-1.3699036699584504,-2.5924928824054163,5.992499100952902,1.0874401330947876,-2.301223103200094
1708433650.29099,-2.0063412189483643,-1.370624066596367,-2.593832794819967,5.990672218590536,1.0887264013290405,-2.301640574132101
1708433650.2930052,-2.0040884017944336,-1.3711892676404496,-2.5951500574695032,5.9888765690620325,1.0900031328201294,-2.3020458857165735
1708433650.2950099,-2.0017855167388916,-1.3718992632678528,-2.5964232126819056,5.987028467446127,1.0913140773773193,-2.3024335543261927
1708433650.296973,-1.999626874923706,-1.372528464799263,-2.597721878682272,5.985219347267904,1.092552661895752,-2.3028062025653284
1708433650.2989972,-1.9974710941314697,-1.3731620919755478,-2.599016014729635,5.983477222710409,1.0938187837600708,-2.3033085505114954
1708433650.3010068,-1.9952679872512817,-1.3739302617362519,-2.600318257008688,5.981792437821188,1.0950596332550049,-2.303741518651144
1708433650.302987,-1.9930006265640259,-1.3745653492263337,-2.601640049611227,5.980053412705221,1.0962419509887695,-2.304185930882589
1708433650.3049724,-1.9908469915390015,-1.3752273333123703,-2.6029580275165003,5.978325950890341,1.0975315570831299,-2.304624621068136
1708433650.307006,-1.988569736480713,-1.3759265554002305,-2.6043267885791224,5.976571666985311,1.0987969636917114,-2.3051424662219446
1708433650.3090158,-1.9863648414611816,-1.3766049158624192,-2.6056562105761927,5.974744307785787,1.1000759601593018,-2.3056142965899866
1708433650.3110168,-1.984183430671692,-1.3772457104972382,-2.6069207827197474,5.972929465561666,1.1013325452804565,-2.306070868168966
1708433650.3130271,-1.9819761514663696,-1.377904788856842,-2.6082027594195765,5.971222388535299,1.102598786354065,-2.3065887133227747
1708433650.3149898,-1.9798097610473633,-1.3786077809384842,-2.609493080769674,5.9695825455482385,1.1038563251495361,-2.3070128599749964
1708433650.3169858,-1.97762131690979,-1.3792710465243836,-2.6107829252826136,5.9677926180656335,1.1051093339920044,-2.30743652979006
1708433650.3189902,-1.9754047393798828,-1.3799953323653718,-2.612112347279684,5.966080772667684,1.1063786745071411,-2.307908360158102
1708433650.3209822,-1.973180890083313,-1.3806933921626587,-2.6134098211871546,5.964281904488363,1.1076923608779907,-2.308382813130514
1708433650.3230617,-1.9709837436676025,-1.3814013463309784,-2.61474854150881,5.962591397553243,1.1090632677078247,-2.3088398615466517
1708433650.324973,-1.9688578844070435,-1.3819647145322342,-2.6160741488086146,5.960804927140035,1.1102975606918335,-2.309259001408712
1708433650.3270025,-1.966689944267273,-1.3827465039542695,-2.617371384297506,5.959000575333395,1.1115866899490356,-2.309688393269674
1708433650.3290384,-1.9644794464111328,-1.3834042114070435,-2.6186822096454065,5.95719729641036,1.112807273864746,-2.3101688067065638
1708433650.3309894,-1.9622435569763184,-1.3841017347625275,-2.620028797780172,5.955407607346334,1.1140286922454834,-2.3106465975390833
1708433650.3330076,-1.9600584506988525,-1.3848019701293488,-2.621338669453756,5.953610288887777,1.1152253150939941,-2.3111019770251673
1708433650.334978,-1.957890272140503,-1.38558682919059,-2.6226728598224085,5.951854336052694,1.1165562868118286,-2.3115256468402308
1708433650.3370447,-1.9556999206542969,-1.3862848442843934,-2.624017302189962,5.950129020005026,1.1178535223007202,-2.3120434919940394
1708433650.339021,-1.953501582145691,-1.387047902946808,-2.6253443400012415,5.948409426003256,1.1191684007644653,-2.3124149481402796
1708433650.3409915,-1.9513057470321655,-1.387676180606224,-2.6267059485064905,5.946602570801534,1.1204259395599365,-2.3128636519061487
1708433650.3430095,-1.9490946531295776,-1.3884164851954957,-2.627986494694845,5.9448304055030725,1.1217275857925415,-2.3133543173419397
1708433650.3449917,-1.9468650817871094,-1.3891243946603318,-2.629324261342184,5.943122851639547,1.1229851245880127,-2.3137946764575403
1708433650.3470323,-1.9446706771850586,-1.3897941571525116,-2.6307035128222864,5.9413819191749475,1.124286413192749,-2.3142438570605677
1708433650.349,-1.9424949884414673,-1.3904877615026017,-2.631972853337423,5.939594733506002,1.1255381107330322,-2.3147695700274866
1708433650.3510113,-1.9402985572814941,-1.3911739599755784,-2.633336130772726,5.9378853915031335,1.1268765926361084,-2.3151918093310755
1708433650.3530283,-1.9380459785461426,-1.3919274818948288,-2.6346784273730677,5.936207401543417,1.1281334161758423,-2.3156002203570765
1708433650.3549743,-1.935886263847351,-1.392587499027588,-2.635986868535177,5.934413897782125,1.1294232606887817,-2.316036049519674
1708433650.3569875,-1.9336836338043213,-1.3932945740273972,-2.637233082448141,5.932674395829,1.1306672096252441,-2.316514317189352
1708433650.3590035,-1.9315346479415894,-1.3939774495414277,-2.63849121729006,5.930910813599386,1.1319165229797363,-2.316941563283102
1708433650.3609905,-1.929314136505127,-1.394664229159691,-2.639827076588766,5.929121720581808,1.1331974267959595,-2.3174026648150843
1708433650.3630183,-1.9271677732467651,-1.3953464192203064,-2.6411123911487024,5.927317130356588,1.1344349384307861,-2.3178680578814905
1708433650.3649774,-1.925011157989502,-1.396066115503647,-2.642435137425558,5.925478088646688,1.135766625404358,-2.318279806767599
1708433650.3669915,-1.9227350950241089,-1.396657795911171,-2.643736187611715,5.923745381623068,1.1370551586151123,-2.318676296864645
1708433650.3690138,-1.9205588102340698,-1.397405208354332,-2.6449766794787806,5.921890842705526,1.1384092569351196,-2.3191450277911585
1708433650.371005,-1.918365716934204,-1.398072676067688,-2.6463874022113245,5.920259701996603,1.139739990234375,-2.319617811833517
1708433650.373033,-1.9161525964736938,-1.3987140369466324,-2.6476150194751185,5.918525683670797,1.141042709350586,-2.3200462500201624
1708433650.3749883,-1.9139550924301147,-1.399434210067131,-2.648937527333395,5.916785347252645,1.14229154586792,-2.3205090204821985
1708433650.377033,-1.9117352962493896,-1.400202826862671,-2.6502774397479456,5.915025579720297,1.1435571908950806,-2.3209238688098353
1708433650.378988,-1.909491777420044,-1.4008386892131348,-2.651583258305685,5.913334119110861,1.144805669784546,-2.321364943181173
1708433650.380998,-1.9073216915130615,-1.4015008819154282,-2.652877394353048,5.911522376328268,1.1460636854171753,-2.321812931691305
1708433650.3830338,-1.9051668643951416,-1.4022335720113297,-2.6541999022113245,5.909803736000814,1.1473054885864258,-2.3222618738757532
1708433650.3850548,-1.9029585123062134,-1.4028955560973664,-2.6555164496051233,5.9080556509788416,1.1485671997070312,-2.3227601687060755
1708433650.3869946,-1.9007341861724854,-1.4035570633462449,-2.6568196455584925,5.906419503479757,1.1497799158096313,-2.323195521031515
1708433650.3889916,-1.8985332250595093,-1.4042527389577408,-2.658182922993795,5.904672252922811,1.1510192155838013,-2.3236199061023157
1708433650.390986,-1.8963149785995483,-1.4049303394607087,-2.659565512334005,5.902891504555502,1.1522835493087769,-2.324031416569845
1708433650.3930213,-1.8940831422805786,-1.4056545209935685,-2.6608641783343714,5.90115903595046,1.1535383462905884,-2.324534002934591
1708433650.3949924,-1.8918864727020264,-1.4063076984933396,-2.662171188985006,5.89932273605422,1.1547406911849976,-2.324965302144186
1708433650.397005,-1.8896243572235107,-1.4069951337626954,-2.663499180470602,5.897577988892355,1.1560306549072266,-2.325397555028097
1708433650.399006,-1.887467861175537,-1.4077200603536149,-2.6648276487933558,5.895845281868734,1.1572251319885254,-2.325857941304342
1708433650.4010055,-1.885259985923767,-1.408410833483078,-2.666128937398092,5.894065487175741,1.158445954322815,-2.3263025919543665
1708433650.403035,-1.883056879043579,-1.4090513747981568,-2.6674070994006556,5.89230631568984,1.1597485542297363,-2.32676345506777
1708433650.4049823,-1.8808001279830933,-1.4097625029138108,-2.6687708536731165,5.890430438309469,1.161009669303894,-2.3272035757647913
1708433650.4070067,-1.8786473274230957,-1.4103554350188752,-2.670093361531393,5.88883267620162,1.1622724533081055,-2.327672306691305
1708433650.4090278,-1.876478672027588,-1.4110639554313202,-2.6713619867907923,5.887061583786764,1.1635905504226685,-2.328085247670309
1708433650.4109805,-1.8742773532867432,-1.411783681516983,-2.6727221647845667,5.885306465416708,1.1648271083831787,-2.3285091559039515
1708433650.41301,-1.8721078634262085,-1.412400559788086,-2.6740530172931116,5.883568393975057,1.1661421060562134,-2.329010550175802
1708433650.4150245,-1.8699263334274292,-1.413182408814766,-2.6753488222705286,5.881693351059713,1.1674071550369263,-2.3294711748706263
1708433650.4170156,-1.8676809072494507,-1.4137662065080185,-2.676584068928854,5.879976498871603,1.1687893867492676,-2.329932514821188
1708433650.4189804,-1.8654789924621582,-1.4145150196603318,-2.6779261271106165,5.878260004311361,1.1700615882873535,-2.3303144613849085
1708433650.4209917,-1.8632919788360596,-1.4152261477759858,-2.679265562688009,5.876431333809652,1.171269416809082,-2.330834452305929
1708433650.4230053,-1.8610424995422363,-1.4159647536328812,-2.68061334291567,5.874734270363607,1.1725187301635742,-2.331212822590963
1708433650.4249825,-1.8588320016860962,-1.4165697407773514,-2.681908909474508,5.872981893807211,1.1738002300262451,-2.3317154089557093
1708433650.4270017,-1.8566523790359497,-1.417328567509987,-2.6832013765918177,5.87129174449996,1.1750211715698242,-2.3321381250964563
1708433650.4291284,-1.854474425315857,-1.4180207711509247,-2.6844916979419153,5.869563329010763,1.1762909889221191,-2.3326242605792444
1708433650.4309902,-1.8522908687591553,-1.4187361609986802,-2.6858306566821497,5.867715227394857,1.1775364875793457,-2.333092991505758
1708433650.433007,-1.8500839471817017,-1.4193934512189408,-2.687127653752462,5.865997302323141,1.1788392066955566,-2.3335464636432093
1708433650.4350133,-1.8478989601135254,-1.4200591158917923,-2.688448969517843,5.86419557312087,1.1801084280014038,-2.333928648625509
1708433650.4370012,-1.8456840515136719,-1.4208001059344788,-2.689774815236227,5.862379300385275,1.1814477443695068,-2.334447685872213
1708433650.4389856,-1.8434243202209473,-1.4214529556087037,-2.691117588673727,5.860694277077474,1.1826789379119873,-2.3348503748523157
1708433650.4409928,-1.8412926197052002,-1.4221316587975998,-2.692429844533102,5.8589573977287195,1.1840006113052368,-2.3353188673602503
1708433650.4429898,-1.839097499847412,-1.4228305530599137,-2.6936844030963343,5.857134449272909,1.185289740562439,-2.33577543893923
1708433650.445008,-1.8369380235671997,-1.4235378515771409,-2.695061985646383,5.855409848480978,1.1865427494049072,-2.3362696806537073
1708433650.4470394,-1.8346729278564453,-1.4241799873164673,-2.6963260809527796,5.853674995690145,1.18778657913208,-2.3367095629321497
1708433650.4490254,-1.8324168920516968,-1.424851269727089,-2.6976659933673304,5.8519149897392175,1.189061164855957,-2.3371737639056605
1708433650.4510722,-1.8302861452102661,-1.4255717557719727,-2.699005190526144,5.850086915283956,1.1903222799301147,-2.337658707295553
1708433650.4529936,-1.8280789852142334,-1.426273525958397,-2.700348679219381,5.84829996803359,1.1915795803070068,-2.338109795247213
1708433650.4549928,-1.8258538246154785,-1.4269187164357682,-2.701609198247091,5.846644508629598,1.1928678750991821,-2.3385961691485804
1708433650.4569778,-1.8236709833145142,-1.4276434940150757,-2.702987019215719,5.84494839885787,1.1940301656723022,-2.339081112538473
1708433650.4589722,-1.8214482069015503,-1.4283579748919983,-2.7042914072619837,5.843268739968099,1.1953297853469849,-2.339606825505392
1708433650.4609692,-1.819307804107666,-1.429092989569046,-2.7056449095355433,5.841690408974447,1.1965569257736206,-2.3401146570788782
1708433650.4629858,-1.8170983791351318,-1.4298567485860367,-2.707003180180685,5.840003835945883,1.197886347770691,-2.3405333201037806
1708433650.4649715,-1.8149261474609375,-1.4304739248803635,-2.7082682291613978,5.838393199234762,1.1991994380950928,-2.341071669255392
1708433650.4669826,-1.812699794769287,-1.431154803638794,-2.709590737019674,5.836572754174032,1.2004081010818481,-2.341564480458395
1708433650.4689686,-1.8104828596115112,-1.4318874341300507,-2.710907045994894,5.8349084732826135,1.2015513181686401,-2.3420658747302454
1708433650.4709888,-1.8082982301712036,-1.4326699537089844,-2.7123034636126917,5.833206522255697,1.2028093338012695,-2.3425779978381556
1708433650.4729774,-1.8061058521270752,-1.4334007662585755,-2.7137649695025843,5.831694352417745,1.2040210962295532,-2.3432000319110315
1708433650.4749734,-1.8039577007293701,-1.4341810059598465,-2.7151528040515345,5.830167877465048,1.2051680088043213,-2.343842331563131
1708433650.476971,-1.801729440689087,-1.435042680507042,-2.7166267077075403,5.828677403717794,1.206235408782959,-2.344410244618551
1708433650.4789996,-1.799524188041687,-1.4357584875873108,-2.718036476765768,5.827215301781454,1.2073274850845337,-2.345032040272848
1708433650.4809706,-1.7972623109817505,-1.4365655046752472,-2.719403330479757,5.825798737793722,1.2082860469818115,-2.345664087926046
1708433650.4830093,-1.7951141595840454,-1.43736885607753,-2.7210100332843226,5.824413525849142,1.209335207939148,-2.346276346837179
1708433650.48497,-1.7929073572158813,-1.4382040214589615,-2.722473923360006,5.823200571327963,1.2103394269943237,-2.3469701449023646
1708433650.4869778,-1.7906935214996338,-1.4390029323152085,-2.723950211201803,5.821869838028707,1.211359977722168,-2.3476510683642786
1708433650.4890504,-1.7884560823440552,-1.439820335512497,-2.725417200719015,5.820589411049642,1.2122896909713745,-2.348299805318014
1708433650.490986,-1.7862850427627563,-1.4406266075423737,-2.7269659678088587,5.819309103279867,1.2133150100708008,-2.3490174452411097
1708433650.492986,-1.7840757369995117,-1.441484810119011,-2.7284520308123987,5.818024623184957,1.214280366897583,-2.349689308797018
1708433650.4949677,-1.7818949222564697,-1.442256585960724,-2.7299721876727503,5.816830861359396,1.2151955366134644,-2.3504141012774866
1708433650.497,-1.7797229290008545,-1.4431398969939728,-2.73154861131777,5.815692412644186,1.2160991430282593,-2.3511295954333704
1708433650.4990096,-1.7775882482528687,-1.4439581495574494,-2.7330151239978235,5.814503538399496,1.217015027999878,-2.3519025484668177
1708433650.5009983,-1.775394082069397,-1.4448373478702088,-2.734656635914938,5.813487159996786,1.2178796529769897,-2.3527079264270228
1708433650.5030005,-1.7731961011886597,-1.4456473004869004,-2.736164633427755,5.812373029976644,1.218759536743164,-2.353387180958883
1708433650.504984,-1.7709792852401733,-1.4465922948769112,-2.73785907426943,5.811428057938375,1.2195963859558105,-2.3542071024524134
1708433650.5069993,-1.7688103914260864,-1.4474822592786332,-2.739415470753805,5.810360181122579,1.220472812652588,-2.3549702803241175
1708433650.508988,-1.7665612697601318,-1.4483842638185997,-2.7410131136523646,5.809389698296346,1.221248745918274,-2.3558345476733606
1708433650.5109792,-1.7643072605133057,-1.4493414026549836,-2.7427106539355677,5.808455931931295,1.222020149230957,-2.3565779368029993
1708433650.513028,-1.7621493339538574,-1.45020945489917,-2.744319025670187,5.807517039566793,1.2227970361709595,-2.357471291218893
1708433650.5149877,-1.7600178718566895,-1.4511022803238411,-2.745866600667135,5.806655633240499,1.2235814332962036,-2.3582549730883997
1708433650.5170205,-1.7578996419906616,-1.4520457473448296,-2.7475038210498255,5.805916893273153,1.2243287563323975,-2.358980719243185
1708433650.519024,-1.7557367086410522,-1.4529606786421319,-2.7490723768817347,5.805169689446249,1.2251265048980713,-2.359859291707174
1708433650.520975,-1.7536207437515259,-1.4538795960000535,-2.7507477442370813,5.8044118759925745,1.2258212566375732,-2.360731903706686
1708433650.5230331,-1.7514848709106445,-1.454749309723713,-2.752320114766256,5.803677665978231,1.226513147354126,-2.3615189234363
1708433650.5249813,-1.7494913339614868,-1.4557214391282578,-2.753854576741354,5.8029929278190515,1.227221131324768,-2.3623388449298304
1708433650.5270073,-1.7473422288894653,-1.4566160899451752,-2.755533997212545,5.802432405739584,1.227966547012329,-2.363195244465963
1708433650.529015,-1.7453196048736572,-1.457514115875103,-2.7571585814105433,5.801820623665609,1.2285361289978027,-2.363995377217428
1708433650.530998,-1.7432729005813599,-1.4584320497563859,-2.758700434361593,5.801302301674642,1.2291812896728516,-2.3647952715503138
1708433650.5329976,-1.7412991523742676,-1.459411473279335,-2.760369125996725,5.800820934563436,1.2296710014343262,-2.3655570189105433
1708433650.5349941,-1.739250659942627,-1.4602933314493676,-2.7619531790362757,5.800295936852255,1.2301307916641235,-2.366455856953756
1708433650.5369892,-1.7372485399246216,-1.4612609458020707,-2.7635775248156946,5.799828874855795,1.2306512594223022,-2.3673089186297815
1708433650.5389934,-1.7352876663208008,-1.4622401383570214,-2.7651549021350306,5.799517500191488,1.2311071157455444,-2.3681519667254847
1708433650.5410297,-1.7333184480667114,-1.463099093442299,-2.7668240706073206,5.7991957543189905,1.2315948009490967,-2.368992630635397
1708433650.5430138,-1.7314174175262451,-1.4640711408904572,-2.7683633009540003,5.7988308546836755,1.232038974761963,-2.3697598616229456
1708433650.544987,-1.7295141220092773,-1.464985878472664,-2.7699502150165003,5.798543560295858,1.2324341535568237,-2.370624844227926
1708433650.5470514,-1.727616786956787,-1.4658791583827515,-2.771527353917257,5.798321831017294,1.2328543663024902,-2.3714328447925013
1708433650.549029,-1.7257294654846191,-1.4668060106090088,-2.773120943699972,5.798115598946371,1.2332783937454224,-2.372211758290426
1708433650.5510066,-1.7238467931747437,-1.467774325316288,-2.7747660318957728,5.797888028412618,1.2337392568588257,-2.373009745274679
