Eg3-git/Classifiers/Data Collection/u1/u1www1_ur3e_joint_states.csv
time,elbow_joint,shoulder_lift_joint,shoulder_pan_joint,wrist_1_joint,wrist_2_joint,wrist_3_joint
1708433635.0288982,-2.1451475620269775,-1.3347602647593995,-2.5273705164538782,6.1196244833763025,1.0187606811523438,-2.838903252278463
1708433635.0308304,-2.1451213359832764,-1.3347150099328537,-2.527320925389425,6.119512545853414,1.0187411308288574,-2.8385189215289515
1708433635.0328727,-2.145106554031372,-1.3346631240895768,-2.527341906224386,6.119347679405966,1.0186793804168701,-2.838123146687643
1708433635.0348406,-2.1450135707855225,-1.3346703809550782,-2.527346436177389,6.119295823365011,1.0186511278152466,-2.8377471605883997
1708433635.0368707,-2.1449198722839355,-1.3346594137004395,-2.52733022371401,6.119141685753622,1.0186736583709717,-2.8373239676104944
1708433635.0388482,-2.1448967456817627,-1.3346023720553895,-2.527346436177389,6.118981826096334,1.0186524391174316,-2.8369484583484095
1708433635.0408235,-2.144836902618408,-1.3346193444779892,-2.5273481051074427,6.118892299919882,1.0186492204666138,-2.836508814488546
1708433635.042851,-2.1447958946228027,-1.3346193742803116,-2.5273063818561,6.11870967128829,1.0186045169830322,-2.8360844294177454
1708433635.044834,-2.1447787284851074,-1.334632233982422,-2.5272985140429896,6.118620025902548,1.0185470581054688,-2.8356924692737024
1708433635.0468638,-2.144709587097168,-1.3345791709474106,-2.5272792021380823,6.118479358940878,1.0185070037841797,-2.8353386561023157
1708433635.048823,-2.144646167755127,-1.3345595461181183,-2.5273073355304163,6.1183838722999475,1.0185487270355225,-2.8349457422839563
1708433635.050816,-2.1445860862731934,-1.3345723462155838,-2.5273001829730433,6.118285286217489,1.018515944480896,-2.8344815413104456
1708433635.0528839,-2.1445462703704834,-1.3345723313144227,-2.5272792021380823,6.118150460511007,1.0184824466705322,-2.8340945879565638
1708433635.0548372,-2.1445233821868896,-1.334511549477913,-2.5272911230670374,6.1180250523384,1.0184885263442993,-2.833629910145895
1708433635.0568492,-2.144441843032837,-1.3345039647868653,-2.527250353490011,6.117869603424825,1.0184301137924194,-2.833165947590963
1708433635.0588243,-2.1443986892700195,-1.3344712865403672,-2.5272627512561243,6.1177711365516565,1.0184481143951416,-2.832738224660055
1708433635.060863,-2.1443464756011963,-1.3344187599471589,-2.527226511632101,6.117643940239706,1.0184149742126465,-2.8322952429400843
1708433635.0628607,-2.1442697048187256,-1.3345005971244355,-2.527259413396017,6.117494451790609,1.0183836221694946,-2.8318756262408655
1708433635.0648644,-2.144233226776123,-1.334444375043251,-2.527193609868185,6.117367136269369,1.0183504819869995,-2.8314228693591517
1708433635.0668478,-2.144174337387085,-1.3344572198442002,-2.5272558371173304,6.11720751503066,1.0183806419372559,-2.8309550921069544
1708433635.0688372,-2.1441311836242676,-1.3343799871257325,-2.5271998087512415,6.117111551552572,1.0183398723602295,-2.8304956595050257
1708433635.0708427,-2.1441376209259033,-1.3344202947667618,-2.5271998087512415,6.11696075180129,1.0183517932891846,-2.830008093510763
1708433635.0728593,-2.1440799236297607,-1.3342989844134827,-2.5272071997271937,6.116812813072958,1.0183231830596924,-2.829494301472799
1708433635.074849,-2.143954277038574,-1.3343842786601563,-2.5272207895862024,6.116718637734213,1.0182949304580688,-2.82898193994631
1708433635.0768955,-2.14393949508667,-1.334315226679184,-2.527138058339254,6.116603362351217,1.0182749032974243,-2.8285513559924524
1708433635.0788698,-2.1439528465270996,-1.3343735349229355,-2.527138058339254,6.116394269257345,1.018254041671753,-2.8280227820025843
1708433635.080862,-2.1438722610473633,-1.3342919659665604,-2.527135197316305,6.116288053780355,1.018272042274475,-2.827554766331808
1708433635.0828962,-2.143836259841919,-1.3342671704343338,-2.527172629033224,6.1161643145378015,1.0182348489761353,-2.8270815054522913
1708433635.0848868,-2.1437478065490723,-1.3342919659665604,-2.527113978062765,6.116032469063558,1.0182406902313232,-2.8265610376941126
1708433635.0868502,-2.143693447113037,-1.3342844110778351,-2.527123037968771,6.115912782936849,1.018195629119873,-2.8260887304889124
1708433635.0888581,-2.1437249183654785,-1.3342844110778351,-2.5271201769458216,6.115781295090475,1.0182119607925415,-2.825630013142721
1708433635.090896,-2.1436455249786377,-1.3342971813729783,-2.527139727269308,6.115658867150106,1.0181834697723389,-2.8250814119922083
1708433635.0928752,-2.143587589263916,-1.334304855470993,-2.5270944277392786,6.115485536843099,1.0181474685668945,-2.824589792882101
1708433635.094843,-2.1435818672180176,-1.334232510333397,-2.5271080175982874,6.115364300995626,1.0181324481964111,-2.8241027037249964
1708433635.0968685,-2.143480062484741,-1.3342562925866623,-2.5270751158343714,6.115247595101156,1.018097996711731,-2.8235326449023646
1708433635.0988688,-2.143481969833374,-1.334293783908226,-2.527121369038717,6.115107047348776,1.018087387084961,-2.823059145604269
1708433635.1008756,-2.1433777809143066,-1.334225745206215,-2.5271080175982874,6.115001427918234,1.0180917978286743,-2.8225181738482874
1708433635.1028671,-2.143407106399536,-1.3342367273620148,-2.527076784764425,6.114844071656027,1.0180420875549316,-2.822002951298849
1708433635.1048512,-2.1433255672454834,-1.334184468989708,-2.526968781148092,6.11466001251296,1.018006443977356,-2.821451250706808
1708433635.106841,-2.143277883529663,-1.3341484677842637,-2.526989523564474,6.114601957588949,1.018022894859314,-2.8209150473224085
1708433635.108833,-2.1432552337646484,-1.3342220944217225,-2.5269702116595667,6.11448227146224,1.0180153846740723,-2.820327107106344
1708433635.1108763,-2.1431398391723633,-1.334173561339714,-2.5269401709186,6.114371526032247,1.0180199146270752,-2.819775406514303
1708433635.1128428,-2.143101215362549,-1.3341240298799057,-2.52696139017214,6.114273059159078,1.017986536026001,-2.8192482630359095
1708433635.114853,-2.143026351928711,-1.3341368746808548,-2.526986900960104,6.114090907364645,1.0179836750030518,-2.8186729590045374
1708433635.1169136,-2.1429941654205322,-1.334141196017601,-2.526992384587423,6.11399661281661,1.0179387331008911,-2.818153444920675
1708433635.1188436,-2.142962694168091,-1.3341540110162278,-2.5268967787372034,6.113859283715048,1.0179188251495361,-2.8175018469439905
1708433635.1209083,-2.1428990364074707,-1.3340802949718018,-2.5269883314715784,6.113708007126608,1.0178978443145752,-2.8170388380633753
1708433635.122863,-2.142801523208618,-1.3341505390456696,-2.5269973913775843,6.113562929421224,1.017883062362671,-2.8164265791522425
1708433635.124871,-2.1427876949310303,-1.334158183341362,-2.526984993611471,6.113473284035482,1.0178589820861816,-2.8158090750323694
1708433635.1268685,-2.1426825523376465,-1.3340442490628739,-2.526922051106588,6.11331187465743,1.017830491065979,-2.8152292410479944
1708433635.128849,-2.142643690109253,-1.3340409708074112,-2.526898209248678,6.113210069924154,1.0178017616271973,-2.814678732548849
1708433635.130852,-2.1425418853759766,-1.3340571236661454,-2.526956621800558,6.113062369614401,1.0178316831588745,-2.8140257040606897
1708433635.1328583,-2.142486333847046,-1.3340614599040528,-2.5268777052508753,6.112941014557638,1.0177536010742188,-2.8134706656085413
1708433635.1348517,-2.142463445663452,-1.3340689551881333,-2.5268967787372034,6.1128272888954065,1.0177507400512695,-2.812875811253683
1708433635.136893,-2.142415761947632,-1.3340571534684678,-2.526844088231222,6.112683760910787,1.017722249031067,-2.812239472066061
1708433635.1388443,-2.1422743797302246,-1.3340292882970353,-2.5268831888781946,6.112551080971517,1.0176724195480347,-2.8117218653308313
1708433635.1408942,-2.14225697517395,-1.3340689849904557,-2.5268786589251917,6.112485158234396,1.0176984071731567,-2.8111260573016565
1708433635.14286,-2.1421866416931152,-1.3340495389750977,-2.5268831888781946,6.112287986069479,1.0176784992218018,-2.8105292955981653
1708433635.144874,-2.142099380493164,-1.3340336394361039,-2.5268786589251917,6.112233984261312,1.017641305923462,-2.8098722139941614
1708433635.1468766,-2.1421093940734863,-1.3340830367854615,-2.526911799107687,6.112097847252645,1.0176184177398682,-2.8092814127551478
1708433635.1488428,-2.14194393157959,-1.3340170693448563,-2.5268874804126185,6.111883985787191,1.0175598859786987,-2.8086727301227015
1708433635.1508641,-2.141878366470337,-1.334058166747429,-2.5268710295306605,6.111839520722189,1.0175689458847046,-2.8080900351153772
1708433635.152869,-2.141836404800415,-1.3340336245349427,-2.5268591086017054,6.111665832787313,1.0175492763519287,-2.8074830214129847
1708433635.1548495,-2.1417737007141113,-1.334065781240799,-2.5268545786487024,6.111595856934347,1.0175162553787231,-2.806859318410055
1708433635.1568542,-2.1417384147644043,-1.334025041466095,-2.5269013086902063,6.111489522248068,1.0175251960754395,-2.806244198475973
1708433635.1588593,-2.1416239738464355,-1.33401711404834,-2.5268381277667444,6.111353742867269,1.0175342559814453,-2.8056283632861536
1708433635.1608403,-2.1415696144104004,-1.3340256971171875,-2.526818815861837,6.111209976464071,1.0174773931503296,-2.8050134817706507
1708433635.1628582,-2.1415228843688965,-1.334065781240799,-2.526835266743795,6.111065017967977,1.0174320936203003,-2.804293457661764
1708433635.1648576,-2.141385793685913,-1.3340170693448563,-2.5268142859088343,6.110947358399191,1.0174620151519775,-2.8036888281451624
1708433635.1668568,-2.1413087844848633,-1.3340495389750977,-2.5268147627459925,6.110776412277975,1.0174472332000732,-2.8031352202044886
1708433635.1688647,-2.1412508487701416,-1.3340899360230942,-2.526832405720846,6.110684025078573,1.0173507928848267,-2.802469555531637
1708433635.1708465,-2.141124963760376,-1.3340452176383515,-2.526794497166769,6.1105642197425745,1.017427682876587,-2.8018410841571253
1708433635.1728318,-2.1410388946533203,-1.3340452176383515,-2.526773754750387,6.1104047177131555,1.0174063444137573,-2.801217857991354
1708433635.174842,-2.1409876346588135,-1.3340985786965867,-2.526827875767843,6.110310423165121,1.017391324043274,-2.8005831877337855
1708433635.17688,-2.1408469676971436,-1.3340657663396378,-2.5267296473132532,6.110075342446127,1.0173704624176025,-2.7999382654773157
1708433635.1788337,-2.140754222869873,-1.3340495389750977,-2.526827637349264,6.109922754555502,1.0173132419586182,-2.7992668787585657
1708433635.1808627,-2.140659809112549,-1.3340537709048768,-2.5268200079547327,6.109805094986715,1.0172683000564575,-2.7986531893359583
1708433635.1828728,-2.140564203262329,-1.3340819639018555,-2.526782814656393,6.109616386681356,1.0172518491744995,-2.7979605833636683
1708433635.184842,-2.1404645442962646,-1.334098533993103,-2.526799027119772,6.109481918602743,1.0172698497772217,-2.797349278126852
1708433635.186841,-2.1403489112854004,-1.3340657365373154,-2.52677828470339,6.109306919365682,1.0172336101531982,-2.7966609636889856
1708433635.1888623,-2.140259027481079,-1.3340324324420472,-2.526860062276022,6.109159219055929,1.0171750783920288,-2.7960472742663782
1708433635.1908295,-2.14009952545166,-1.3340776425651093,-2.5268364588366907,6.108976828842916,1.017197608947754,-2.795333449040548
1708433635.1928298,-2.139922857284546,-1.3340898913196106,-2.5267871061908167,6.1087883589561365,1.0171403884887695,-2.7946811358081263
1708433635.1948264,-2.1398091316223145,-1.3340899062207718,-2.5268200079547327,6.108613598137655,1.0171329975128174,-2.7941022554980677
1708433635.1968377,-2.1396729946136475,-1.3340812784484406,-2.5268364588366907,6.108453738480367,1.0171464681625366,-2.7933574358569544
1708433635.1988406,-2.13956880569458,-1.3341007840684433,-2.5268080870257776,6.108314382820883,1.017087697982788,-2.792717758809225
1708433635.200836,-2.1394505500793457,-1.3341412109187623,-2.526843849812643,6.108036625176229,1.0171183347702026,-2.7920175234424036
1708433635.2028434,-2.1393117904663086,-1.3341570657542725,-2.526832405720846,6.1079574702079675,1.0170685052871704,-2.7913506666766565
1708433635.2048638,-2.1390981674194336,-1.334190548663475,-2.526811424885885,6.1078377840812585,1.017006754875183,-2.7906623522387903
1708433635.206856,-2.1389989852905273,-1.3342092496207734,-2.52682334581484,6.107552397042074,1.0170202255249023,-2.789992634450094
1708433635.2088587,-2.138869524002075,-1.3342495274594803,-2.526856247578756,6.107421982079305,1.0170292854309082,-2.7893219629870813
1708433635.2108698,-2.1387131214141846,-1.3342050027898331,-2.5268471876727503,6.107248890190878,1.0169557332992554,-2.7886796633349817
1708433635.2128382,-2.1385247707366943,-1.3342690926841279,-2.526867691670553,6.106978285103597,1.0169769525527954,-2.7879720369922083
1708433635.2148845,-2.13830304145813,-1.33427249014888,-2.526876989995138,6.106839048653402,1.0169165134429932,-2.787215773259298
1708433635.2168424,-2.138148546218872,-1.3343170893243332,-2.5268922487842005,6.10659550407485,1.0169541835784912,-2.7864869276629847
1708433635.2188504,-2.1379354000091553,-1.3343659502318879,-2.5268505255328577,6.106413113861837,1.0169000625610352,-2.78579551378359
1708433635.2209208,-2.1377756595611572,-1.334389404659607,-2.5268545786487024,6.106197583466329,1.0168715715408325,-2.785044256840841
1708433635.2228737,-2.1376287937164307,-1.3343885403922577,-2.5268500486956995,6.105976807862081,1.0168637037277222,-2.784302536641256
1708433635.2248676,-2.137446165084839,-1.3344082844308396,-2.5268664995776575,6.105765926628866,1.0168895721435547,-2.783590857182638
1708433635.2268732,-2.137263298034668,-1.3344202798656006,-2.5268786589251917,6.105522262841024,1.0168683528900146,-2.7828450838672083
1708433635.2288494,-2.1370015144348145,-1.3344443154386063,-2.526902739201681,6.105270850449362,1.0168490409851074,-2.7820876280414026
1708433635.2308338,-2.1368303298950195,-1.334500552420952,-2.526956621800558,6.1050768969352625,1.016832709312439,-2.7813120524035853
1708433635.232849,-2.1366078853607178,-1.3345201027444382,-2.5269716421710413,6.104677545815267,1.0168818235397339,-2.7805777231799524
1708433635.2348351,-2.136381149291992,-1.334601343875267,-2.5269911924945276,6.1045100567634485,1.0168490409851074,-2.779854122792379
1708433635.2368436,-2.1361498832702637,-1.3346200001290818,-2.5270121733294886,6.1042470810706995,1.0168581008911133,-2.7791393438922327
1708433635.2388792,-2.135917901992798,-1.3346689653447648,-2.527026955281393,6.104012715607443,1.0168204307556152,-2.778364960347311
1708433635.2408624,-2.135674476623535,-1.3346432161382218,-2.527055803929464,6.103794324188986,1.016812801361084,-2.7776499430285853
1708433635.2428324,-2.13541316986084,-1.3346917641213913,-2.527093235646383,6.103468048363485,1.016791820526123,-2.7768684069262903
1708433635.2448797,-2.1352081298828125,-1.3347681772759934,-2.5271409193622034,6.103193151741781,1.0167768001556396,-2.776163880025045
1708433635.2468526,-2.13495135307312,-1.3347552877715607,-2.5271437803851526,6.102947938233175,1.0167315006256104,-2.7754181067096155
1708433635.2488506,-2.134705066680908,-1.3348481369069596,-2.527188841496603,6.102708804398336,1.0167529582977295,-2.7746737639056605
1708433635.2508445,-2.134457588195801,-1.3348472130349656,-2.527175490056173,6.102391707688131,1.0167359113693237,-2.773953978215353
1708433635.2528443,-2.1341640949249268,-1.3348789674094697,-2.5271831194507044,6.102081167488851,1.0167405605316162,-2.773226324711935
1708433635.2548537,-2.1338932514190674,-1.3349223744920273,-2.5272071997271937,6.101770269661703,1.0166791677474976,-2.772466246281759
1708433635.256863,-2.1336140632629395,-1.335031585102417,-2.527280871068136,6.101457345276632,1.0167286396026611,-2.7717118898974817
1708433635.2588444,-2.1333348751068115,-1.335046337251999,-2.527241293584005,6.101146447449484,1.0167529582977295,-2.771003071461813
1708433635.2608595,-2.13301944732666,-1.3350780767253418,-2.5273075739489954,6.100828158646383,1.0167121887207031,-2.7702587286578577
1708433635.2628977,-2.132732391357422,-1.3351580810597916,-2.5274019877063196,6.100562083512106,1.0166747570037842,-2.7694724241839808
1708433635.2648363,-2.1324691772460938,-1.3352060329965134,-2.527412716542379,6.100253927498617,1.016753911972046,-2.7687788645373743
1708433635.2668574,-2.132106304168701,-1.3353016537478943,-2.5273900667773646,6.099989878922262,1.016716718673706,-2.7679761091815394
1708433635.268842,-2.131816864013672,-1.335353822713234,-2.5274723211871546,6.09959493854598,1.0167330503463745,-2.7672842184649866
1708433635.2708569,-2.131443977355957,-1.3354051572135468,-2.5275161902057093,6.099198686867513,1.0167241096496582,-2.766543690358297
1708433635.2728586,-2.131112575531006,-1.3354485642961045,-2.5275593439685267,6.098997580796041,1.0166913270950317,-2.765848700200216
1708433635.2748435,-2.13077449798584,-1.3355940145305176,-2.527604405079977,6.098605620651998,1.0167620182037354,-2.7650919596301478
1708433635.2768877,-2.130479574203491,-1.3356125366738816,-2.527668539677755,6.098214018135824,1.0167665481567383,-2.7643232981311243
1708433635.278859,-2.130154609680176,-1.3356961917928238,-2.5277047793017786,6.0978044150169275,1.0167739391326904,-2.7636070887195032
1708433635.28088,-2.129798650741577,-1.335759477024414,-2.527698818837301,6.097454535752096,1.0167529582977295,-2.76288348833193
1708433635.2829726,-2.129410743713379,-1.3358440113118668,-2.5277965704547327,6.097122537880697,1.0167286396026611,-2.762085024510519
1708433635.2848275,-2.129026412963867,-1.3359689724496384,-2.527828041707174,6.0967105505760095,1.0167829990386963,-2.7614219824420374
1708433635.286852,-2.128602981567383,-1.3360276383212586,-2.5279536882983606,6.09632300117568,1.0167994499206543,-2.760620180760519
1708433635.28884,-2.1282265186309814,-1.3361063760570069,-2.5279646555529993,6.095945107727804,1.016733169555664,-2.759876076375143
1708433635.2908804,-2.127840757369995,-1.3362591576627274,-2.5280619303332728,6.095545756607809,1.0167665481567383,-2.7591219584094446
1708433635.2929187,-2.1274540424346924,-1.3363753867200394,-2.5281055609332483,6.095134842186727,1.0167529582977295,-2.758397881184713
1708433635.2948315,-2.1270217895507812,-1.3364221018603821,-2.528144423161642,6.094728338509359,1.01677405834198,-2.7576542536364954
1708433635.2968554,-2.1266846656799316,-1.3365299713662644,-2.5282161871539515,6.0942795155342,1.0167604684829712,-2.756885830556051
1708433635.2988782,-2.126220941543579,-1.3366417598775406,-2.528264109288351,6.093882071762838,1.016797661781311,-2.756054226552145
1708433635.3008509,-2.1257457733154297,-1.336753563289978,-2.52834397951235,6.0934157250221155,1.0167813301086426,-2.7552955786334437
1708433635.3028626,-2.125351905822754,-1.336849184041359,-2.5284250418292444,6.092976081162252,1.0168054103851318,-2.7544944922076624
1708433635.3048422,-2.1248960494995117,-1.3369407218745728,-2.528480354939596,6.092551815300741,1.016812801361084,-2.753733221684591
1708433635.3068662,-2.1243648529052734,-1.337092788224556,-2.5285807291613978,6.092019545822897,1.0168325901031494,-2.7529125849353235
1708433635.308895,-2.123917579650879,-1.3372208637050171,-2.5286737124072474,6.091505276947775,1.0168805122375488,-2.7521727720843714
1708433635.3108466,-2.1234307289123535,-1.3373276156238099,-2.5287323633777063,6.091043102532186,1.0169017314910889,-2.7513354460345667
1708433635.312898,-2.1229515075683594,-1.3373781454614182,-2.528827969227926,6.090588676720419,1.016925573348999,-2.75057560602297
1708433635.3148296,-2.122448205947876,-1.3375549775413056,-2.5289209524737757,6.090197193413534,1.0169377326965332,-2.7497430483447474
1708433635.3168616,-2.1219444274902344,-1.3376660507968445,-2.5289722124682825,6.089698183327474,1.0169659852981567,-2.7489784399615687
1708433635.318828,-2.1214091777801514,-1.3378435683301468,-2.5290797392474573,6.0891867754753015,1.0169646739959717,-2.7481780687915247
1708433635.3208213,-2.120943546295166,-1.3378976446441193,-2.52918512025942,6.088610756188192,1.016984224319458,-2.747397009526388
1708433635.322872,-2.1203761100769043,-1.3380663257888337,-2.5292838255511683,6.088083731919088,1.0170097351074219,-2.746624533330099
1708433635.3248312,-2.119879722595215,-1.3381728839925309,-2.529400889073507,6.087514030724325,1.017038345336914,-2.7458036581622522
1708433635.3268275,-2.119264841079712,-1.338325322871544,-2.529496971760885,6.086998569756307,1.0170624256134033,-2.7449913660632532
1708433635.3288276,-2.1186656951904297,-1.3385058057359238,-2.5296242872821253,6.086451518326559,1.017098307609558,-2.744197670613424
1708433635.3308277,-2.1181318759918213,-1.3386154484799881,-2.5297279993640345,6.085892188339987,1.0171136856079102,-2.7434218565570276
1708433635.332829,-2.1176347732543945,-1.3387110394290467,-2.5298734346972864,6.085309374123373,1.0171750783920288,-2.7426868120776575
1708433635.33485,-2.117014169692993,-1.3388902109912415,-2.5299485365497034,6.084706771164694,1.0171494483947754,-2.7418392340289515
1708433635.3368409,-2.1164448261260986,-1.338980348115303,-2.5301132837878626,6.08410011509017,1.0171688795089722,-2.741072479878561
1708433635.338836,-2.115797519683838,-1.3392293018153687,-2.53023344675173,6.083551275521078,1.0172892808914185,-2.740272585545675
1708433635.3408303,-2.1151742935180664,-1.33939382553611,-2.530348602925436,6.08286606052474,1.0172863006591797,-2.7395032087909144
1708433635.342863,-2.114579677581787,-1.3395401698401947,-2.5304763952838343,6.082331287651815,1.0172861814498901,-2.738694731389181
1708433635.3448584,-2.113924264907837,-1.3396719110063096,-2.5306292215930384,6.0817142603691,1.017370343208313,-2.7379136721240442
1708433635.3468304,-2.113361358642578,-1.3398437213948746,-2.5307114760028284,6.081033575325765,1.0174109935760498,-2.7371533552752894
1708433635.3488274,-2.1126928329467773,-1.3400274527123948,-2.530905071889059,6.080435740738668,1.0174140930175781,-2.736354176198141
1708433635.3508446,-2.1120386123657227,-1.3402187091163178,-2.531017605458395,6.079872357636251,1.0174620151519775,-2.7355404535876673
1708433635.3528504,-2.1113879680633545,-1.3403241497329255,-2.53117806116213,6.07924638965682,1.0175342559814453,-2.734795395527975
1708433635.3548326,-2.110776424407959,-1.3405580830625077,-2.5312965551959437,6.078745233803549,1.0175750255584717,-2.7340193430529993
1708433635.356853,-2.110196828842163,-1.340744898920395,-2.5314539114581507,6.078054296761312,1.017606496810913,-2.7333031336413782
1708433635.3588824,-2.1094672679901123,-1.3409329813769837,-2.531564776097433,6.0774505017097376,1.0176546573638916,-2.732469622288839
1708433635.36084,-2.108804702758789,-1.3411286038211365,-2.5317209402667444,6.07678376415328,1.0177102088928223,-2.7317732016192835
1708433635.3628564,-2.10811710357666,-1.3412980747273942,-2.531910006199972,6.076172697335043,1.0177761316299438,-2.731053177510397
1708433635.3648593,-2.1074352264404297,-1.3415381771377106,-2.5320585409747522,6.075440752297201,1.0178108215332031,-2.7302590052234095
1708433635.3668551,-2.106745719909668,-1.3417351257852097,-2.532229248677389,6.074760544091024,1.0178934335708618,-2.7294982115374964
1708433635.368839,-2.1060993671417236,-1.3418795627406617,-2.532382313405172,6.074147808342733,1.017906904220581,-2.7287662664996546
1708433635.3708503,-2.1054182052612305,-1.342116729622223,-2.5325337092029017,6.073466169625082,1.0179882049560547,-2.728065315877096
1708433635.372867,-2.104769229888916,-1.3422546845725556,-2.532682243977682,6.072806465416708,1.0180813074111938,-2.72733980814089
1708433635.3748422,-2.1040661334991455,-1.3424787533334275,-2.5327959696399134,6.072153436928549,1.0180964469909668,-2.7265659014331263
1708433635.3768814,-2.103304862976074,-1.3427273345044632,-2.5329399744616907,6.0714725134666345,1.0182149410247803,-2.725853983555929
1708433635.378885,-2.1026108264923096,-1.3429136735251923,-2.5331319014178675,6.070855724602499,1.0182406902313232,-2.7251389662372034
1708433635.3809037,-2.1018545627593994,-1.343035028581955,-2.5333059469806116,6.070087778359213,1.0183742046356201,-2.72440749803652
1708433635.3828695,-2.1011576652526855,-1.3433202070048829,-2.533407990132467,6.069349872856893,1.0184252262115479,-2.7236083189593714
1708433635.3848438,-2.1004769802093506,-1.3435069781592865,-2.5335877577411097,6.068637120514669,1.0184767246246338,-2.7228427569018763
1708433635.386886,-2.0997650623321533,-1.3437961500934144,-2.53378135362734,6.0679757473762415,1.018581748008728,-2.7220845858203333
1708433635.3888352,-2.0990407466888428,-1.3439079982093354,-2.5339494387256067,6.0672998307044885,1.0187197923660278,-2.7213433424579065
1708433635.390883,-2.098292112350464,-1.3441406947425385,-2.534105364476339,6.066690194397726,1.0187667608261108,-2.72062594095339
1708433635.3928761,-2.0975863933563232,-1.3444084090045472,-2.5343015829669397,6.066012847214498,1.0188432931900024,-2.71981388727297
1708433635.3948464,-2.0968616008758545,-1.3445907694152375,-2.5344982782946985,6.065245258599081,1.0189560651779175,-2.719105068837301
1708433635.3968682,-2.096048355102539,-1.3448755008033295,-2.5347068945514124,6.064621317177572,1.0189952850341797,-2.718329970036642
1708433635.3988492,-2.0953447818756104,-1.3450419318727036,-2.534844700490133,6.063865291863241,1.019107699394226,-2.7175584475146692
1708433635.4008536,-2.0945587158203125,-1.3452486556819458,-2.5350244680987757,6.063227164536276,1.0191737413406372,-2.7168076674090784
1708433635.4028876,-2.093770742416382,-1.3454961639693757,-2.5352512041675013,6.062532055168905,1.019283652305603,-2.7161851564990442
1708433635.4049208,-2.09306263923645,-1.3456908625415345,-2.53540546098818,6.0618804571922205,1.0193347930908203,-2.715433899556295
1708433635.4068522,-2.0922391414642334,-1.3459637326053162,-2.5355854670154017,6.061135756760397,1.0194939374923706,-2.7146909872638147
1708433635.4088564,-2.0914769172668457,-1.3461864006570359,-2.5357399622546595,6.060509669571676,1.019519329071045,-2.7139974276172083
1708433635.4108555,-2.090682029724121,-1.3463604164174576,-2.535961929951803,6.0597784397895715,1.0196034908294678,-2.713264052067892
1708433635.4128706,-2.0899336338043213,-1.3466007870486756,-2.536185089741842,6.059035169869222,1.0197240114212036,-2.712579313908712
1708433635.4148512,-2.089073896408081,-1.3468634945205231,-2.536431137715475,6.058305847435751,1.0198291540145874,-2.711888138447897
1708433635.4169073,-2.0883119106292725,-1.3471267980388184,-2.536614243184225,6.0576456663902185,1.019941806793213,-2.7111530939685267
1708433635.4188907,-2.087494134902954,-1.3473345798305054,-2.53684646288027,6.056869256287374,1.020078420639038,-2.7104924360858362
1708433635.4208357,-2.0866799354553223,-1.3476140958121796,-2.5370445887195032,6.0561561463172815,1.0201326608657837,-2.709789816533224
1708433635.422862,-2.085820436477661,-1.3478364956429978,-2.537255827580587,6.055456387787618,1.0202380418777466,-2.7090588251696985
1708433635.4248264,-2.0850024223327637,-1.3481072944453736,-2.537485186253683,6.0547135947044275,1.0203328132629395,-2.7084339300738733
1708433635.426832,-2.084230422973633,-1.3483475309661408,-2.5377419630633753,6.054032313614645,1.0204529762268066,-2.7077882925616663
1708433635.4288535,-2.0833678245544434,-1.3485814046910782,-2.5379443804370325,6.0532652018363855,1.0205819606781006,-2.7070654074298304
1708433635.4308398,-2.082488536834717,-1.3489152652076264,-2.538187090550558,6.05248652675704,1.0207760334014893,-2.706412140523092
1708433635.4328737,-2.0816304683685303,-1.3491203051856537,-2.5384400526629847,6.0517159579093835,1.0209131240844727,-2.7057679335223597
1708433635.434827,-2.080777168273926,-1.3493793916753312,-2.5387118498431605,6.050904500275411,1.0210617780685425,-2.705059591923849
1708433635.4368222,-2.079890251159668,-1.349670649772026,-2.5389722029315394,6.050197112351217,1.021207571029663,-2.7044463793383997
1708433635.4388626,-2.079077959060669,-1.3499577802470704,-2.539203707371847,6.049535262375631,1.0213533639907837,-2.703796927128927
1708433635.4408693,-2.0782482624053955,-1.3502164048007508,-2.5394426027881067,6.048787581711569,1.021459698677063,-2.7032111326800745
1708433635.442868,-2.0774266719818115,-1.3504795593074341,-2.5397020022021692,6.048057901650228,1.0216491222381592,-2.702568594609396
1708433635.444827,-2.0765116214752197,-1.3507948976806183,-2.540060583745138,6.047339427262106,1.021748423576355,-2.701935593281881
1708433635.4468505,-2.0756752490997314,-1.351126418714859,-2.5403364340411585,6.046555745392599,1.0219544172286987,-2.7012725512133997
1708433635.4488587,-2.074756622314453,-1.3514404457858582,-2.5406363646136683,6.045835006027975,1.022150993347168,-2.700705114995138
1708433635.4508505,-2.0738484859466553,-1.3517315548709412,-2.540940586720602,6.044985759049215,1.02236008644104,-2.7001145521747034
1708433635.4528692,-2.0729129314422607,-1.3520948749831696,-2.541154686604635,6.04427586772994,1.022573471069336,-2.6995044390307825
1708433635.4548528,-2.0720407962799072,-1.352352188234665,-2.541499201451437,6.043505179672994,1.022692322731018,-2.69890004793276
1708433635.4568539,-2.071113109588623,-1.3527166706374665,-2.5417338053332728,6.042730319290914,1.022868037223816,-2.698279921208517
1708433635.458839,-2.0702059268951416,-1.3529532563737412,-2.5420804659472864,6.04200957992629,1.0230485200881958,-2.6977112928973597
1708433635.4608703,-2.06931471824646,-1.3533382278731843,-2.542440716420309,6.041314589768209,1.0232903957366943,-2.6971331278430384
1708433635.4628682,-2.068429708480835,-1.353673205976822,-2.542767588292257,6.040452706604757,1.0234644412994385,-2.6965354124652308
1708433635.4648428,-2.067474842071533,-1.3540521276048203,-2.5431035200702112,6.039740550308981,1.0237019062042236,-2.6959829966174524
1708433635.4668517,-2.066499948501587,-1.3543667209199448,-2.5434230009662073,6.038918840676107,1.0240010023117065,-2.695392433797018
1708433635.468844,-2.065538167953491,-1.3547014159015198,-2.5437970797168177,6.038165795594015,1.0241966247558594,-2.694794480000631
1708433635.4708488,-2.0646159648895264,-1.3551413428834458,-2.5441842714892786,6.037330496102133,1.0244323015213013,-2.694265667592184
1708433635.4728336,-2.0636470317840576,-1.3554391723922272,-2.5445051828967493,6.03655885437087,1.0247105360031128,-2.693711582814352
1708433635.474838,-2.0627236366271973,-1.3558590573123475,-2.5449162165271204,6.035857426911154,1.0248973369598389,-2.6931331793414515
1708433635.476867,-2.061811685562134,-1.3561481845429917,-2.5452588240252894,6.0351531384284876,1.0251420736312866,-2.6925645510302942
1708433635.4788523,-2.060856342315674,-1.3565441829017182,-2.5456674734698694,6.034381615906515,1.0253585577011108,-2.6919947306262415
1708433635.4808404,-2.0598819255828857,-1.3568939727595826,-2.5460317770587366,6.033609139710226,1.025622844696045,-2.6914904753314417
1708433635.4828615,-2.058933973312378,-1.357240454559662,-2.5464440027820032,6.032843935280599,1.0258886814117432,-2.6909356752978724
1708433635.4848444,-2.057969570159912,-1.3576483589461823,-2.5468042532550257,6.0321844694908044,1.0261564254760742,-2.6904431025134485
1708433635.4868562,-2.056999444961548,-1.3579657089761277,-2.547248188649313,6.031397807389059,1.026416301727295,-2.6899271647082728
1708433635.4888563,-2.0559842586517334,-1.3583895427039643,-2.547727648411886,6.030590164452352,1.026718258857727,-2.6893678347217005
1708433635.4908469,-2.054967164993286,-1.3587667805007477,-2.5481277147876185,6.029837953835287,1.0270353555679321,-2.688861672078268
1708433635.4928885,-2.053917169570923,-1.3592191350511094,-2.5486210028277796,6.029055821686544,1.027348279953003,-2.688347403203146
1708433635.494842,-2.0529234409332275,-1.3595678967288514,-2.549051586781637,6.0282901404197595,1.02764892578125,-2.6878345648394983
1708433635.4968843,-2.051896810531616,-1.3599385780147095,-2.549499813710348,6.027492749481954,1.0278620719909668,-2.68736178079714
1708433635.498852,-2.0509352684020996,-1.3603623521379014,-2.550004545842306,6.026746856957235,1.02823805809021,-2.6869054476367396
1708433635.5008557,-2.049909830093384,-1.3606801492026825,-2.550399367009298,6.025981056481161,1.0284557342529297,-2.6864283720599573
1708433635.5028949,-2.0488877296447754,-1.3611232203296204,-2.5509162584887903,6.025234448700704,1.0287818908691406,-2.685956064854757
1708433635.5048618,-2.0478081703186035,-1.3614901316216965,-2.551379982625143,6.024416911392965,1.029118537902832,-2.685507599507467
1708433635.5068774,-2.046665668487549,-1.3619456601193924,-2.551882568989889,6.0235421536262415,1.0294955968856812,-2.6850112120257776
1708433635.508863,-2.0456175804138184,-1.362331138258316,-2.5524235407458704,6.022734749108114,1.0299044847488403,-2.6845629850970667
1708433635.510845,-2.0446207523345947,-1.3627499800971528,-2.5529595057116907,6.021983492165365,1.030264973640442,-2.684162441884176
1708433635.5128715,-2.043515920639038,-1.3631390047124405,-2.5535150210009974,6.021119463234701,1.0306696891784668,-2.6837244669543665
1708433635.5148692,-2.0423831939697266,-1.363575131898262,-2.554051224385397,6.02035020568923,1.0310136079788208,-2.6832905451404017
1708433635.51689,-2.0413339138031006,-1.363944412474968,-2.554558340703146,6.019493806153097,1.031325101852417,-2.6828740278827112
1708433635.5188637,-2.040174722671509,-1.364391641025879,-2.5551145712481897,6.018677818566122,1.0316945314407349,-2.6824405829059046
1708433635.5208538,-2.0389976501464844,-1.3648917090943833,-2.5557315985309046,6.017907488137045,1.0321208238601685,-2.682023350392477
1708433635.5228734,-2.0378804206848145,-1.3653282684138794,-2.556315008793966,6.017018902092733,1.0325539112091064,-2.6816354433642786
1708433635.5248828,-2.036735773086548,-1.3657544714263459,-2.5570083300219935,6.016185986786642,1.0329875946044922,-2.6811533609973353
1708433635.5269003,-2.035564422607422,-1.3662385952523728,-2.557533566151754,6.015327918320455,1.0334281921386719,-2.6808047930346888
1708433635.528889,-2.034388542175293,-1.366724671130516,-2.5581985155688685,6.014495360642233,1.0338493585586548,-2.6803825537311
1708433635.5308611,-2.0332531929016113,-1.3671545845321198,-2.558768335972921,6.013697492867269,1.0342910289764404,-2.6800344626056116
1708433635.5328758,-2.0320656299591064,-1.3676509422114869,-2.559384886418478,6.012761819153585,1.0347403287887573,-2.6796494166003626
1708433635.5348513,-2.0308845043182373,-1.3680307430079957,-2.5600534121142786,6.01189016082839,1.0351474285125732,-2.679227654133932
1708433635.5369039,-2.029627799987793,-1.3685671848109742,-2.560709063206808,6.010992753296652,1.035717248916626,-2.678916041051046
1708433635.538865,-2.0284507274627686,-1.3690404903939744,-2.5613639990436,6.010010468750753,1.0361396074295044,-2.6784854570971888
1708433635.540889,-2.027195453643799,-1.369535670881607,-2.562050167714254,6.009008037834921,1.0366276502609253,-2.6781047026263636
1708433635.542903,-2.025998115539551,-1.3700712335160752,-2.562742058430807,6.008076417237081,1.0371977090835571,-2.677821461354391
1708433635.5448618,-2.0246644020080566,-1.370555819278099,-2.5635045210467737,6.007151710778036,1.0377073287963867,-2.67747670808901
1708433635.546876,-2.023463726043701,-1.3710751843503495,-2.5641914049731653,6.0061532137687585,1.0381956100463867,-2.677086893712179
1708433635.54886,-2.022148609161377,-1.3715072137168427,-2.564915482197897,6.0051307556922815,1.0386723279953003,-2.6767335573779505
1708433635.5508637,-2.020841121673584,-1.3720462930253525,-2.5656853357898157,6.004169213562765,1.0391863584518433,-2.6763551870929163
1708433635.55289,-2.019596576690674,-1.3725697112134476,-2.5664029757129114,6.003280627518453,1.0397526025772095,-2.67603570619692
1708433635.5548708,-2.0181939601898193,-1.3730835777572175,-2.5672417322741907,6.002324807434835,1.0402967929840088,-2.6756745020495813
1708433635.5568902,-2.016873836517334,-1.37367037058387,-2.568007294331686,6.001264440804281,1.0408711433410645,-2.6753576437579554
1708433635.558848,-2.0154833793640137,-1.3742412340692063,-2.568795982991354,6.000272977143087,1.0414358377456665,-2.6750040690051478
1708433635.5608692,-2.014065742492676,-1.3747680348208924,-2.569620672856466,5.999284493714132,1.0420464277267456,-2.674699608479635
1708433635.562862,-2.012665271759033,-1.3753145647099991,-2.5704315344439905,5.9982231734092615,1.0425771474838257,-2.6743629614459437
1708433635.5648553,-2.011298179626465,-1.3758503508618851,-2.5712137858020228,5.9971667406852625,1.043170690536499,-2.6739724318133753
1708433635.5668926,-2.0098607540130615,-1.3763718766025086,-2.572087351475851,5.9961761114890955,1.0437569618225098,-2.6736725012408655
1708433635.5688596,-2.008448362350464,-1.376876876955368,-2.5729227701770228,5.995144712715902,1.0442676544189453,-2.6733463446246546
1708433635.5708742,-2.0069620609283447,-1.3774864238551636,-2.5737972895251673,5.994089352875509,1.0449150800704956,-2.673070017491476
1708433635.572877,-2.005486249923706,-1.3780784618905564,-2.574660364781515,5.992956149369039,1.045545220375061,-2.6727989355670374
1708433635.574852,-2.0039873123168945,-1.3786485654166718,-2.575602118168966,5.991775977402487,1.0461750030517578,-2.672502581273214
1708433635.5769196,-2.002450466156006,-1.3792162996581574,-2.576452080403463,5.990593063622274,1.046899437904358,-2.6721978823291224
1708433635.5789087,-2.000913381576538,-1.3797002744725724,-2.577388111745016,5.989440429001608,1.0475019216537476,-2.67190391222109
1708433635.5808954,-1.999430775642395,-1.3803093296340485,-2.578280750905172,5.988344657212057,1.0481945276260376,-2.6716280619250696
1708433635.5829043,-1.9979690313339233,-1.3808852446130295,-2.5792115370379847,5.987148511200704,1.0488648414611816,-2.671335283909933
1708433635.5848906,-1.9963732957839966,-1.3815134179643174,-2.5801520983325403,5.986002671509542,1.0494115352630615,-2.6709843317614954
1708433635.5870261,-1.9948173761367798,-1.3820432734540482,-2.5811622778521937,5.984772312432089,1.0500942468643188,-2.670757834111349
1708433635.5889072,-1.993228554725647,-1.3826677811196824,-2.582102362309591,5.9835442183311365,1.050771951675415,-2.670410935078756
1708433635.5908937,-1.9915850162506104,-1.3832134020379563,-2.5831292311297815,5.982308137207784,1.0514930486679077,-2.6702008883105677
1708433635.5928817,-1.989919900894165,-1.383868933921196,-2.584168020878927,5.980988609581747,1.0522040128707886,-2.669903818761007
1708433635.5948741,-1.9883123636245728,-1.3845042896321793,-2.5852187315570276,5.979657757073202,1.0529752969741821,-2.6695900599109095
1708433635.5968697,-1.9866517782211304,-1.3850562882474442,-2.586193625126974,5.978380191117086,1.0536624193191528,-2.6693339983569544
1708433635.5988488,-1.984962821006775,-1.3856927764466782,-2.5872700850116175,5.977058279305258,1.054362416267395,-2.6690409819232386
1708433635.600874,-1.983312726020813,-1.3862826389125367,-2.588266197835104,5.97575472572402,1.0550163984298706,-2.668760124837057
1708433635.6028607,-1.9815820455551147,-1.386932374244072,-2.5893150011645716,5.974429476052084,1.0556252002716064,-2.6685479323016565
1708433635.6048281,-1.9799808263778687,-1.3875505489161988,-2.5903788248645228,5.973131167679586,1.0563074350357056,-2.668271605168478
1708433635.6068938,-1.9782843589782715,-1.388107807641365,-2.5914137999164026,5.971955406456747,1.0570212602615356,-2.6679936091052454
1708433635.6088562,-1.976649284362793,-1.3887187850526352,-2.592480246220724,5.970592605858602,1.0577744245529175,-2.6676963011371058
1708433635.6108444,-1.9749503135681152,-1.38937100887809,-2.593593422566549,5.969248878746786,1.0585378408432007,-2.667469088231222
1708433635.6128752,-1.9732118844985962,-1.3899687838605423,-2.594670120869772,5.967946517258444,1.0593070983886719,-2.6671515146838587
1708433635.6148605,-1.9715160131454468,-1.3906528812697907,-2.5957801977740687,5.966596233635702,1.0600388050079346,-2.6669111887561243
1708433635.6168802,-1.9697680473327637,-1.3912267696908494,-2.596886936818258,5.965167271881857,1.0608174800872803,-2.666581455861227
1708433635.6188269,-1.9679919481277466,-1.3918982458165665,-2.597992483769552,5.963784086495199,1.061586856842041,-2.6663742701159876
1708433635.620908,-1.9662604331970215,-1.3925073754838486,-2.5990827719317835,5.962405311852255,1.0624135732650757,-2.666149679814474
1708433635.6228566,-1.9645192623138428,-1.3931476336768647,-2.6001883188830774,5.960981714516439,1.0631122589111328,-2.6658716837512415
1708433635.6248286,-1.9627379179000854,-1.393802137379982,-2.601327721272604,5.959644543915548,1.0639203786849976,-2.6656435171710413
1708433635.6268625,-1.96097731590271,-1.3944253039411088,-2.6024025122271937,5.958091008454122,1.064598560333252,-2.665349785481588
1708433635.6288555,-1.9590983390808105,-1.3950482916883011,-2.6035776774035853,5.956569897919454,1.0653743743896484,-2.6651127974139612
1708433635.630838,-1.9572937488555908,-1.3956547242454072,-2.6047397295581263,5.955033767014303,1.0662099123001099,-2.664795223866598
1708433635.632883,-1.9554437398910522,-1.396253080373146,-2.6058500448810022,5.953485238343038,1.0670254230499268,-2.6645637194262903
1708433635.6348264,-1.9536375999450684,-1.39695559561763,-2.6070125738727015,5.952029454499044,1.0679149627685547,-2.66429049173464
1708433635.6369238,-1.9518507719039917,-1.397553489809372,-2.6082163492785853,5.9505618689353845,1.0687516927719116,-2.6640053431140345
1708433635.638833,-1.9499439001083374,-1.398192824130394,-2.60935885110964,5.949048268585958,1.0695279836654663,-2.6637397448169153
1708433635.640822,-1.948129415512085,-1.3988327843001862,-2.6104798952685755,5.947478997498312,1.0702183246612549,-2.663447443638937
1708433635.642896,-1.9461867809295654,-1.3994425994208832,-2.6116791407214563,5.945913302689352,1.071004033088684,-2.663247887288229
1708433635.6448317,-1.9442901611328125,-1.4000378114036103,-2.6128931681262415,5.944330084114828,1.0717984437942505,-2.6629789511310022
1708433635.6468508,-1.9423317909240723,-1.4006541681340714,-2.6141119639026087,5.9426989434059045,1.0726358890533447,-2.6626771132098597
1708433635.64885,-1.9403769969940186,-1.4012935173562546,-2.6153507868396204,5.941111790924825,1.0734243392944336,-2.6624253431903284
1708433635.650828,-1.9384685754776,-1.4019065213254471,-2.6165507475482386,5.939448106079855,1.074236512184143,-2.6621394793139856
1708433635.652897,-1.9364488124847412,-1.4025831532529374,-2.6177921930896204,5.937854754715719,1.0750010013580322,-2.661898676549093
1708433635.654844,-1.9344732761383057,-1.4031847578338166,-2.6191087404834192,5.936292755394735,1.0757477283477783,-2.661696259175436
1708433635.6568663,-1.9325940608978271,-1.4037796568921586,-2.6202948729144495,5.934678184777059,1.0765005350112915,-2.6613686720477503
1708433635.6588504,-1.930638313293457,-1.4044561994126816,-2.6214893499957483,5.933090197830953,1.0772491693496704,-2.6610761324511927
1708433635.6608574,-1.9286547899246216,-1.4051161122373124,-2.6227994600879114,5.931450354843893,1.0780187845230103,-2.6607988516436976
1708433635.6628747,-1.9266653060913086,-1.4058010143092652,-2.6240654627429407,5.929710614472189,1.0788325071334839,-2.6605635325061243
1708433635.6648412,-1.9245948791503906,-1.4063641738942643,-2.6253932158099573,5.927938926010885,1.0796277523040771,-2.660217825566427
1708433635.666854,-1.9225425720214844,-1.4070312094739457,-2.626744810734884,5.926230537682333,1.0804895162582397,-2.660023037587301
1708433635.6688552,-1.9204612970352173,-1.4077034306577225,-2.6280301252948206,5.924482810288229,1.0812746286392212,-2.6597233454333704
1708433635.6708286,-1.9184277057647705,-1.4082817298224946,-2.629336420689718,5.922712194710531,1.0819940567016602,-2.6594584623919886
1708433635.6728408,-1.9163957834243774,-1.4090098154595871,-2.63062554994692,5.9210030911262415,1.0827745199203491,-2.6591292063342493
1708433635.6748538,-1.9143433570861816,-1.409606249337532,-2.6319404284106653,5.919308888703146,1.0836049318313599,-2.658902947102682
1708433635.676894,-1.9123042821884155,-1.4102058720639725,-2.6333003679858606,5.917572486191549,1.0843396186828613,-2.6585565249072474
1708433635.6789176,-1.910264253616333,-1.4108911764672776,-2.6345670858966272,5.915654766350546,1.0851047039031982,-2.6582520643817347
1708433635.680883,-1.9081311225891113,-1.411505566244461,-2.6359015146838587,5.913883793144979,1.0859063863754272,-2.657964293156759
1708433635.6828594,-1.906018614768982,-1.4121259462884446,-2.6372090021716517,5.91205786445693,1.0867323875427246,-2.6576712767230433
1708433635.6848662,-1.9039490222930908,-1.4127503496459504,-2.6384862104998987,5.910160767823019,1.0875651836395264,-2.6573620478259485
1708433635.686887,-1.9018535614013672,-1.4133925300887604,-2.6398213545428675,5.908362257271566,1.0883532762527466,-2.6570923964129847
1708433635.688879,-1.899750828742981,-1.413987473850586,-2.6411269346820276,5.90659915187911,1.0892198085784912,-2.656743113194601
1708433635.690843,-1.897627353668213,-1.414626420741417,-2.6424651781665247,5.904839145928182,1.0899734497070312,-2.65648323694338
1708433635.692849,-1.895450472831726,-1.4153546404889603,-2.6437953154193323,5.9030141709144495,1.0907515287399292,-2.656179491673605
1708433635.694842,-1.8933277130126953,-1.4160299909165879,-2.645073477421896,5.9011772749717615,1.0915567874908447,-2.655814234410421
1708433635.6968372,-1.8911582231521606,-1.4166516673615952,-2.6464560667621058,5.899407851486959,1.092360496520996,-2.655530039464132
1708433635.6988642,-1.8888847827911377,-1.4173065286925812,-2.647782627736227,5.897546040802755,1.09312903881073,-2.6551907698260706
1708433635.7008564,-1.8867007493972778,-1.4179444772056122,-2.649170462285177,5.895581471710958,1.0939596891403198,-2.6548169294940394
1708433635.7028847,-1.8845022916793823,-1.4186734122088929,-2.650517288838522,5.893733250885763,1.0947108268737793,-2.6545584837542933
1708433635.7048464,-1.8822537660598755,-1.4192505192807694,-2.651870075856344,5.891798245697775,1.0954865217208862,-2.654180351887838
1708433635.7068658,-1.8801275491714478,-1.4198756080916901,-2.6532285849200647,5.889892565995016,1.0962417125701904,-2.6538894812213343
1708433635.708847,-1.8779903650283813,-1.420507789855339,-2.6545241514789026,5.8880547163780115,1.0970224142074585,-2.6534913221942347
1708433635.7108417,-1.8758199214935303,-1.421162487273552,-2.655855957661764,5.886142599373617,1.097745656967163,-2.653167788182394
1708433635.7128592,-1.8736741542816162,-1.4217978578856965,-2.657231156026022,5.884271967201986,1.0985233783721924,-2.6528483072863978
1708433635.7148447,-1.8715335130691528,-1.4224368792823334,-2.658573929463522,5.882363545685568,1.099245548248291,-2.6525352636920374
1708433635.7168517,-1.8693428039550781,-1.4230065506747742,-2.6598742643939417,5.8804417727287195,1.1000421047210693,-2.652231280003683
1708433635.7190192,-1.8671337366104126,-1.423597441320755,-2.661307160054342,5.87848840931014,1.1007944345474243,-2.6518669764148157
1708433635.7208374,-1.8649802207946777,-1.4241958719543,-2.66262656847109,5.8765954850013635,1.10152268409729,-2.6514976660357874
1708433635.7228475,-1.8627467155456543,-1.4248885971358796,-2.664008680974142,5.8747057793434045,1.1022981405258179,-2.6511252562152308
1708433635.7249064,-1.860568881034851,-1.4255478990129014,-2.6653292814837855,5.872852313309469,1.103011965751648,-2.6507440249072474
1708433635.726861,-1.8584280014038086,-1.4261292082122345,-2.666701857243673,5.8709696409995935,1.103721022605896,-2.6503682772265833
1708433635.7288725,-1.8563005924224854,-1.4267656964114686,-2.667957131062643,5.869147646218099,1.1043227910995483,-2.650041166936056
1708433635.730859,-1.8541074991226196,-1.4273627114347,-2.6693084875689905,5.8672711727912805,1.1050000190734863,-2.6496856848346155
1708433635.7328706,-1.8519171476364136,-1.4280106288245697,-2.6705921331988733,5.865430819779196,1.1056039333343506,-2.6492958704577845
1708433635.734893,-1.8498436212539673,-1.4285850089839478,-2.6718929449664515,5.863596188813009,1.1063152551651,-2.6488950888263147
1708433635.736866,-1.8476085662841797,-1.429228813653328,-2.673206631337301,5.861641752510824,1.1070117950439453,-2.648567024861471
1708433635.738872,-1.845438838005066,-1.4298188400319596,-2.6746071020709437,5.8597320196922205,1.107782244682312,-2.6481831709491175
1708433635.7408705,-1.8432859182357788,-1.4304295790246506,-2.6759958902942103,5.8578539965446375,1.1086318492889404,-2.647773567830221
1708433635.742893,-1.841024398803711,-1.4310451459935685,-2.677347723637716,5.856046902924337,1.109513521194458,-2.6474152247058313
1708433635.744882,-1.8389577865600586,-1.4316971612027665,-2.678613249455587,5.854131567269125,1.1102381944656372,-2.6469813028918665
1708433635.7468438,-1.8367453813552856,-1.4322294306806107,-2.6800406614886683,5.852142321854391,1.1109346151351929,-2.6465323607074183
1708433635.7488425,-1.8345943689346313,-1.4328452360681077,-2.681370798741476,5.850251781731405,1.111566185951233,-2.64610726038088
1708433635.7508466,-1.8324140310287476,-1.433415563111641,-2.6826255957232874,5.84841679313735,1.112083911895752,-2.645805899296896
1708433635.7528555,-1.8302425146102905,-1.434064121251442,-2.6840248743640345,5.846602070122518,1.1127468347549438,-2.6452952067004603
1708433635.7548556,-1.828081727027893,-1.4346180868199845,-2.685333553944723,5.844715463906088,1.1133842468261719,-2.64490777650942
1708433635.7568946,-1.8258548974990845,-1.4352777016213913,-2.6866892019854944,5.842933523445883,1.1139748096466064,-2.6443851629840296
1708433635.758834,-1.8236364126205444,-1.4358606052449723,-2.6880977789508265,5.8411775706108,1.1146478652954102,-2.6440232435809534
1708433635.7608724,-1.8214678764343262,-1.4365311425975342,-2.689430538808004,5.839346754341879,1.1153454780578613,-2.643545929585592
1708433635.7628493,-1.8192808628082275,-1.4371589136174698,-2.6907270590411585,5.837577092438497,1.1160187721252441,-2.643108908330099
1708433635.7648418,-1.817081093788147,-1.4377509218505402,-2.6921895186053675,5.835774051934042,1.1166788339614868,-2.642655674611227
1708433635.766859,-1.814969778060913,-1.4383305621198197,-2.6934762636767786,5.834016668587484,1.1173142194747925,-2.64224082628359
1708433635.7689548,-1.8128533363342285,-1.4388394069722672,-2.694711748753683,5.832240092545309,1.1180139780044556,-2.641747776662008
1708433635.7708354,-1.8106697797775269,-1.4394586396268387,-2.6961401144610804,5.830388295441427,1.1186366081237793,-2.6413562933551233
1708433635.7728453,-1.8085358142852783,-1.4400264483741303,-2.6974666754352015,5.8285971758659265,1.119325876235962,-2.640867535267965
1708433635.7748246,-1.8064236640930176,-1.4406466049006958,-2.69879657426943,5.82673608043746,1.1199984550476074,-2.6404274145709437
1708433635.7768328,-1.804230809211731,-1.4412007641843338,-2.700172726308004,5.824930774956503,1.1205716133117676,-2.6399267355548304
1708433635.7788692,-1.8021376132965088,-1.4418042612126847,-2.701428238545553,5.823145973473348,1.1212536096572876,-2.6394134203540247
1708433635.780868,-1.7999800443649292,-1.4423233431628724,-2.702797238026754,5.82135950306014,1.1218615770339966,-2.6389134565936487
1708433635.782858,-1.7977999448776245,-1.442938582306244,-2.704068962727682,5.819615351944723,1.1224424839019775,-2.6384485403644007
1708433635.7849133,-1.7956585884094238,-1.4435185504010697,-2.705388132725851,5.817828881531515,1.1230312585830688,-2.6379361788379114
1708433635.7868552,-1.7934902906417847,-1.4441133749536057,-2.7067139784442347,5.81605480888442,1.1236844062805176,-2.6374221483813685
1708433635.7888412,-1.79135000705719,-1.4446680557778855,-2.7079554239856165,5.81435917594985,1.1243586540222168,-2.6369598547564905
1708433635.7908442,-1.789175271987915,-1.445271448498108,-2.709280792866842,5.81272183635787,1.1249810457229614,-2.6364551226245325
1708433635.792874,-1.7870166301727295,-1.4459078174880524,-2.710668150578634,5.81102870681838,1.1256269216537476,-2.635852638875143
1708433635.794839,-1.7848929166793823,-1.4464653742364426,-2.711919371281759,5.809310781746664,1.12627112865448,-2.6353774706469935
1708433635.7968862,-1.782804250717163,-1.4470770445517083,-2.7132418791400355,5.807683455735006,1.126919150352478,-2.634775702153341
1708433635.7988808,-1.7806974649429321,-1.447750599389412,-2.714564625416891,5.806090819626608,1.1275140047073364,-2.6343281904803675
1708433635.800859,-1.778619647026062,-1.4483453345349808,-2.715834919606344,5.804450380593099,1.1281235218048096,-2.6337392965899866
1708433635.8028517,-1.7765439748764038,-1.448865906601288,-2.717191282902853,5.80273603180007,1.1286629438400269,-2.633230749760763
1708433635.8048546,-1.7744669914245605,-1.449506440465786,-2.7184343973742884,5.801053273468771,1.12924063205719,-2.6326337496386927
1708433635.806866,-1.7722965478897095,-1.45008638620887,-2.7198146025287073,5.799379336624899,1.1298129558563232,-2.632134977971212
1708433635.808859,-1.7702088356018066,-1.4507298854044457,-2.7211840788470667,5.797785389214315,1.1304702758789062,-2.6314762274371546
1708433635.8108516,-1.7680846452713013,-1.4512915399721642,-2.7225285212146204,5.796162235527792,1.1310590505599976,-2.6308720747577112
1708433635.812906,-1.7659879922866821,-1.4519640889814873,-2.7238901297198694,5.794593202858724,1.1317074298858643,-2.630381170903341
1708433635.814849,-1.7639131546020508,-1.452506848876812,-2.7251575628863733,5.793051349907675,1.132336974143982,-2.6297388712512415
1708433635.8168585,-1.7618333101272583,-1.4530933213284989,-2.726494614277975,5.791509854584493,1.1328758001327515,-2.62913948694338
1708433635.8188343,-1.7597453594207764,-1.4537662056139489,-2.727783743535177,5.789956557541647,1.1333274841308594,-2.6285026709186
1708433635.8208604,-1.7577177286148071,-1.4543287468007584,-2.729081694279806,5.788422453194418,1.1339010000228882,-2.6278987566577356
1708433635.8228574,-1.7557095289230347,-1.454836682682373,-2.730435911809103,5.786798107414999,1.1344375610351562,-2.6273050943957728
1708433635.8248346,-1.7536144256591797,-1.455514447098114,-2.7317565123187464,5.785337793618002,1.1350517272949219,-2.6266313234912317
1708433635.8268416,-1.751566767692566,-1.456137740319111,-2.7330663839923304,5.783814060478964,1.1356596946716309,-2.6259833017932337
1708433635.8288517,-1.7495489120483398,-1.4567574349096795,-2.734384361897604,5.78240596035079,1.136278510093689,-2.625371758137838
1708433635.8308387,-1.7475649118423462,-1.4573319566300889,-2.7357574144946497,5.780891763954916,1.1368540525436401,-2.624702755604879
1708433635.832844,-1.745544195175171,-1.4579475757530709,-2.7370756308185022,5.77960633018569,1.13737154006958,-2.62398869196047
1708433635.834841,-1.7435842752456665,-1.4585213598660012,-2.7383394877063196,5.778229343682089,1.1379891633987427,-2.6233578364001673
1708433635.8369095,-1.741546869277954,-1.4591198575547715,-2.739579741154806,5.77684377410964,1.1385369300842285,-2.622671667729513
1708433635.8388996,-1.7395615577697754,-1.4597632375410576,-2.7408984343158167,5.775481450348654,1.1391270160675049,-2.6220482031451624
1708433635.840871,-1.7376117706298828,-1.4603789013675232,-2.7421427408801478,5.774137246399679,1.1396870613098145,-2.6214147249804896
1708433635.842901,-1.7356114387512207,-1.4609334480813523,-2.74343187013735,5.77277551868514,1.1402636766433716,-2.620819870625631
1708433635.8448474,-1.7336294651031494,-1.4615576055696984,-2.7447355429278772,5.7714987871940515,1.1409001350402832,-2.6200972239123743
1708433635.8468587,-1.7317230701446533,-1.4621075329235573,-2.7460089365588587,5.770243155747213,1.1414964199066162,-2.619403902684347
1708433635.8488603,-1.7298017740249634,-1.462774859075882,-2.7473302523242396,5.768942820816793,1.1420854330062866,-2.6187413374530237
1708433635.8508468,-1.7278316020965576,-1.463373066192009,-2.748591725026266,5.767653214722433,1.142698884010315,-2.6180153528796595
1708433635.8528519,-1.7258977890014648,-1.4639722120812912,-2.749873463307516,5.766404974251547,1.1432592868804932,-2.617305342351095
1708433635.854863,-1.7240240573883057,-1.4646010932377358,-2.751138989125387,5.765150892525472,1.1437580585479736,-2.61662203470339
1708433635.8568778,-1.7221025228500366,-1.4651510131410141,-2.75248366991152,5.763980376511373,1.1442818641662598,-2.6159616152392786
1708433635.8588753,-1.720306158065796,-1.46578303099189,-2.753704611455099,5.762822973519125,1.1448512077331543,-2.615305487309591
1708433635.8608954,-1.7184196710586548,-1.466394418185093,-2.7549615542041224,5.761764991074362,1.1454006433486938,-2.6145878473864954
1708433635.8628705,-1.7165391445159912,-1.4669043135694046,-2.7562835852252405,5.7604373572166345,1.1459263563156128,-2.613842789326803
1708433635.864868,-1.714677333831787,-1.467515529399254,-2.7575557867633265,5.759284961014547,1.146445631980896,-2.6131299177752894
1708433635.8668625,-1.7128124237060547,-1.4682086047581215,-2.758873526250021,5.7581766722495935,1.1470551490783691,-2.612418238316671
1708433635.868864,-1.7109794616699219,-1.4687946152738114,-2.76017934480776,5.757050025254049,1.1476937532424927,-2.611698929463522
1708433635.8708642,-1.709149956703186,-1.4693699193051835,-2.761432472859518,5.755957472115316,1.148252248764038,-2.610936466847555
1708433635.8728902,-1.7072926759719849,-1.469993145470955,-2.7626612822162073,5.754847037583151,1.148801565170288,-2.61023980775942
1708433635.874862,-1.7055094242095947,-1.4705552396229287,-2.7638543287860315,5.753876554756918,1.1493170261383057,-2.609504524861471
1708433635.8768883,-1.70371675491333,-1.471231461768486,-2.76513916650881,5.752851474076071,1.1498128175735474,-2.6087661425219935
1708433635.8788745,-1.701951503753662,-1.471810260122158,-2.7663007418261927,5.751790511399069,1.1503616571426392,-2.608030382786886
1708433635.8808444,-1.7001757621765137,-1.4724093166044732,-2.7676199118243616,5.750871407776632,1.1510086059570312,-2.607312027608053
1708433635.8828704,-1.6983914375305176,-1.473131113951542,-2.7689090410815638,5.749945986061849,1.1516337394714355,-2.6065879503833216
1708433635.8848765,-1.6965807676315308,-1.4737013962915917,-2.770175043736593,5.749052393227377,1.1522358655929565,-2.6058340708362024
1708433635.886857,-1.6948083639144897,-1.4743042078665276,-2.771499220524923,5.748178946762838,1.1529186964035034,-2.6050971190081995
1708433635.888872,-1.6930475234985352,-1.4749426034143944,-2.772677723561422,5.747253882675924,1.153419017791748,-2.6043978373156946
1708433635.8908513,-1.6913630962371826,-1.4755702924779435,-2.7738810221301478,5.7463639853294275,1.153922200202942,-2.6035953203784388
1708433635.8928835,-1.6896693706512451,-1.4761939507773896,-2.7750940958606165,5.745493280678549,1.1545077562332153,-2.6028550306903284
1708433635.8948753,-1.687915563583374,-1.476830118601658,-2.7763975302325647,5.744711148529806,1.1551039218902588,-2.6020646731006067
1708433635.8968565,-1.6862512826919556,-1.4774165165475388,-2.7776549498187464,5.7439037440116785,1.1557331085205078,-2.601272169743673
1708433635.8988657,-1.6845736503601074,-1.4780762505582352,-2.7789483706103724,5.743075001030721,1.1563750505447388,-2.600503746663229
1708433635.9008725,-1.6828594207763672,-1.4787393447807808,-2.7801929155932825,5.74228452423171,1.1569874286651611,-2.5997799078570765
1708433635.9028797,-1.6812002658843994,-1.4793862265399476,-2.781421724949972,5.741492974549093,1.1575278043746948,-2.598929468785421
1708433635.9048932,-1.6795574426651,-1.479988769893982,-2.782658402119772,5.7407628176505945,1.1581826210021973,-2.598161760960714
1708433635.9068723,-1.6778289079666138,-1.4806843784502526,-2.783912245427267,5.740008461266317,1.158799409866333,-2.5973528067218226
1708433635.9088595,-1.6762794256210327,-1.4812962052277108,-2.7851150671588343,5.739286052971639,1.159375786781311,-2.5965715090381067
1708433635.9108605,-1.674605131149292,-1.4819209811142464,-2.786459509526388,5.738564717560568,1.1599317789077759,-2.5956390539752405
1708433635.9128668,-1.6730024814605713,-1.4825985965183754,-2.7877159754382532,5.737880933075704,1.1605653762817383,-2.5948594252215784
1708433635.9148622,-1.6713515520095825,-1.4831792649677773,-2.7889276186572474,5.73733018615798,1.1611374616622925,-2.594037119542257
1708433635.9168603,-1.6697828769683838,-1.4838886347464104,-2.7901926676379603,5.736703502922811,1.1617295742034912,-2.593198601399557
1708433635.9188476,-1.668210744857788,-1.4845181715539475,-2.7914534250842493,5.736065971642294,1.1623047590255737,-2.5923624674426478
1708433635.9208918,-1.6665892601013184,-1.4852440369180222,-2.792718235646383,5.735462653427877,1.1629236936569214,-2.5914927164660853
1708433635.9228923,-1.6650598049163818,-1.4858160626939316,-2.7939603964435022,5.734849083214559,1.163537621498108,-2.5906196276294153
1708433635.9248831,-1.6635186672210693,-1.4865465995720406,-2.795222584401266,5.73427568653182,1.164137840270996,-2.5897398630725306
1708433635.9268525,-1.6620131731033325,-1.4871106755784531,-2.7964511553393763,5.733757126122274,1.1646308898925781,-2.588965717946188
1708433635.9288394,-1.6604479551315308,-1.4877562907389184,-2.797603432332174,5.733340489655294,1.1651839017868042,-2.58806282678713
1708433635.9308445,-1.6589435338974,-1.4884388980320473,-2.798891846333639,5.732842910080709,1.165809988975525,-2.587238136922018
1708433635.9329164,-1.6574310064315796,-1.4891020146063347,-2.8001909891711634,5.732404219895162,1.1664451360702515,-2.586327854787008
1708433635.9348655,-1.6559683084487915,-1.4897689533284684,-2.801403586064474,5.731996524124899,1.1671583652496338,-2.585433308278219
1708433635.9368718,-1.6544138193130493,-1.490390957599022,-2.8025947252856653,5.731591689377584,1.167864203453064,-2.5845966974841517
1708433635.9388504,-1.6529133319854736,-1.4910955366543313,-2.8038721720324915,5.731108772545614,1.1685220003128052,-2.583722178136007
1708433635.940887,-1.6514685153961182,-1.491791420882084,-2.805077139531271,5.730684745102682,1.1691954135894775,-2.5828521887408655
1708433635.942866,-1.6500654220581055,-1.492499091928341,-2.806211535130636,5.73039864280776,1.1697214841842651,-2.581942383443014
1708433635.9448607,-1.6485800743103027,-1.493137614136078,-2.8075056711779993,5.7299609062965295,1.170347809791565,-2.5810731093036097
1708433635.9468641,-1.6472233533859253,-1.493812435572483,-2.808633629475729,5.729678976326742,1.1709647178649902,-2.5801683107959192
1708433635.9488494,-1.6457901000976562,-1.4945074257305642,-2.809842650090353,5.729301559716024,1.1716583967208862,-2.579303566609518
1708433635.9508536,-1.6443417072296143,-1.4951955688050766,-2.8110857645617884,5.728994357376852,1.172354817390442,-2.578437391911642
1708433635.9528382,-1.6429167985916138,-1.4958412584713479,-2.8123040835009974,5.728708016663351,1.1731008291244507,-2.5775468985186976
1708433635.9548566,-1.641557216644287,-1.4965574157289048,-2.8135398069964808,5.728402244835653,1.173741102218628,-2.5766857306109827
1708433635.9568758,-1.6402177810668945,-1.4972239223173638,-2.81474215189089,5.72820149639205,1.174428939819336,-2.5758078734027308
1708433635.958856,-1.6388808488845825,-1.4978815925172348,-2.8159318606006067,5.727997648506918,1.174999475479126,-2.57495624223818
1708433635.9608479,-1.6375833749771118,-1.4986249890974541,-2.817068163548605,5.727723228722372,1.1756207942962646,-2.5740488211261194
1708433635.9628572,-1.6362690925598145,-1.4992993933013459,-2.8182440439807337,5.727561580925741,1.176242470741272,-2.5731833616839808
1708433635.9648547,-1.6349725723266602,-1.5000368815711518,-2.8194413820849817,5.727353322296896,1.1768510341644287,-2.5723429361926478
1708433635.9668806,-1.6336936950683594,-1.5006764990142365,-2.82059890428652,5.727235066681661,1.1774426698684692,-2.571470324193136
1708433635.968851,-1.6324639320373535,-1.5013475281051178,-2.8218005339251917,5.727103101998129,1.1780811548233032,-2.5705958048449915
1708433635.970855,-1.6312229633331299,-1.5020276245525856,-2.822986904774801,5.727049219399252,1.1787296533584595,-2.5696945826159876
1708433635.9728549,-1.6299852132797241,-1.502658338551857,-2.824132506047384,5.7268797037895105,1.1793408393859863,-2.5688052813159388
1708433635.9748461,-1.6288152933120728,-1.50338218480859,-2.8252630869494837,5.726759779244222,1.1800072193145752,-2.567910973225729
1708433635.9769032,-1.6276272535324097,-1.5040859964540978,-2.8264499346362513,5.72668348529891,1.1806682348251343,-2.5669522921191614
1708433635.9788635,-1.626455545425415,-1.5047422137907525,-2.8275590578662317,5.726677405625143,1.1812723875045776,-2.566052500401632
1708433635.9808648,-1.6253198385238647,-1.50537525237117,-2.82866341272463,5.726617562561788,1.18186354637146,-2.5651589075671595
1708433635.9828546,-1.6241910457611084,-1.506116436128952,-2.829757277165548,5.726676213532247,1.1825045347213745,-2.564195219670431
1708433635.9848504,-1.623068928718567,-1.506754921083786,-2.8309267202960413,5.7265487788017175,1.1831411123275757,-2.5633235613452356
1708433635.986831,-1.621960163116455,-1.507381723528244,-2.8319669405566614,5.726586091309347,1.1838061809539795,-2.562368694935934
1708433635.988892,-1.620897889137268,-1.5080585566214104,-2.833115879689352,5.726650464325704,1.1844758987426758,-2.561472479497091
1708433635.9908636,-1.6197973489761353,-1.5087823432734986,-2.8342412153827112,5.726838099747457,1.1850992441177368,-2.5605464617358606
1708433635.992838,-1.618743658065796,-1.5093934957734128,-2.8353243509875696,5.7269654152686975,1.1857283115386963,-2.55959660211672
1708433635.994837,-1.6177476644515991,-1.5101257276586075,-2.836367432271139,5.727092849999227,1.1863858699798584,-2.558641497288839
1708433635.9968429,-1.6166960000991821,-1.5107601445964356,-2.8375256697284144,5.72721420505599,1.1870090961456299,-2.5578020254718226
1708433635.9988468,-1.6156686544418335,-1.5114561480334778,-2.838529173527853,5.72729645946578,1.187638282775879,-2.556891981755392
1708433636.0008454,-1.6146255731582642,-1.512112659668066,-2.8396204153644007,5.727343070297994,1.1881970167160034,-2.5559750239001673
1708433636.0028343,-1.6136659383773804,-1.5128169816783448,-2.8406387011157435,5.727525818138876,1.18883216381073,-2.555020872746603
1708433636.0048506,-1.612661600112915,-1.513461609636881,-2.841734234486715,5.727710234909811,1.1894358396530151,-2.5541184584247034
1708433636.0068533,-1.6117334365844727,-1.5141495887986203,-2.842793051396505,5.727878200798788,1.1900527477264404,-2.553152624760763
1708433636.0088685,-1.6108053922653198,-1.514814158236124,-2.8438106218921106,5.728041159897604,1.190618634223938,-2.5522614161120813
1708433636.0108392,-1.609858512878418,-1.5154767718962212,-2.8449259440051478,5.728311288147726,1.1912813186645508,-2.5513718763934534
1708433636.0128407,-1.6089932918548584,-1.5161247339895745,-2.8459861914264124,5.728527176171102,1.1919220685958862,-2.5503562132464808
1708433636.0148401,-1.608082890510559,-1.5167179864696045,-2.846994940434591,5.728790986328878,1.1924718618392944,-2.5494232813464563
1708433636.0168636,-1.6072133779525757,-1.5174393703094502,-2.8480692545520228,5.729102480202474,1.1930525302886963,-2.548431936894552
1708433636.0188515,-1.6063936948776245,-1.518087976878025,-2.849081818257467,5.729368197708883,1.193588137626648,-2.5475428740130823
1708433636.0208514,-1.6055724620819092,-1.518739466821291,-2.8500662485705774,5.729670274048605,1.1942061185836792,-2.546654287968771
1708433636.022842,-1.6047369241714478,-1.5194238287261506,-2.851135317479269,5.729974734574117,1.1947660446166992,-2.54573637643923
1708433636.0248744,-1.6039546728134155,-1.5200799641064187,-2.8521109263049524,5.730322110443868,1.1953657865524292,-2.544770065938131
1708433636.0268385,-1.6031630039215088,-1.5207021434656163,-2.853114191685812,5.7307283757026575,1.1958997249603271,-2.5438531080829065
1708433636.0288405,-1.6024348735809326,-1.5213784028640767,-2.854138199483053,5.73108862617568,1.1964855194091797,-2.5428734461413782
1708433636.0308602,-1.6017330884933472,-1.5220342811993142,-2.8550570646869105,5.731474983483114,1.1970900297164917,-2.5419605414019983
1708433636.032837,-1.601014256477356,-1.5227270175567647,-2.8560386339770716,5.731915581017294,1.1976375579833984,-2.5409963766681116
1708433636.0348618,-1.6002955436706543,-1.5232809980264683,-2.8569777647601526,5.732397663384237,1.1982052326202393,-2.5400641600238245
1708433636.0368323,-1.5996514558792114,-1.5239777129939576,-2.8578477541552942,5.732766854553976,1.1987823247909546,-2.5391886870013636
1708433636.038844,-1.5989590883255005,-1.5246740405312558,-2.858790699635641,5.733201730042257,1.1993379592895508,-2.5381644407855433
1708433636.0408745,-1.5983127355575562,-1.5252799813500424,-2.8597686926471155,5.7336087105567834,1.199918270111084,-2.5372136274920862
1708433636.042835,-1.5977028608322144,-1.5259363141706963,-2.8606722990619105,5.734165417938986,1.2004494667053223,-2.53620416322817
1708433636.0448537,-1.5971097946166992,-1.5266407293132325,-2.8616002241717737,5.734708773880758,1.2010838985443115,-2.5352054278003138
1708433636.0468488,-1.5964826345443726,-1.527268425827362,-2.862507168446676,5.735166537552633,1.2017079591751099,-2.534203116093771
1708433636.048853,-1.5959277153015137,-1.5279115860215207,-2.8634310404406946,5.735734092980184,1.202324628829956,-2.533156935368673
1708433636.0508444,-1.5953893661499023,-1.5286057417145749,-2.8643274942981165,5.736343371659078,1.2029156684875488,-2.532189909611837
1708433636.0528471,-1.5948317050933838,-1.5292334382287045,-2.865211550389425,5.736832725792684,1.2033807039260864,-2.5311966578113
1708433636.0548525,-1.5942929983139038,-1.529840749954321,-2.8661192099200647,5.737396108895101,1.2039107084274292,-2.5301159063922327
1708433636.0568502,-1.5937902927398682,-1.5304847185364743,-2.866934601460592,5.73806785324172,1.204431176185608,-2.5291345755206507
1708433636.058856,-1.593346118927002,-1.5311688010445614,-2.8678844610797327,5.73865698555068,1.20493483543396,-2.528080765401022
1708433636.0608585,-1.5928525924682617,-1.5318051141551514,-2.868729893361227,5.739314067154684,1.2055162191390991,-2.527010504399435
1708433636.0628402,-1.5924184322357178,-1.532436029320099,-2.8696590105639856,5.73990689495162,1.206003189086914,-2.5260441938983362
1708433636.0648792,-1.5920134782791138,-1.5330919449082394,-2.870526138936178,5.74068163612441,1.2064459323883057,-2.5249694029437464
1708433636.0668488,-1.5916062593460083,-1.5337820474854489,-2.871394459401266,5.741376745491781,1.2068979740142822,-2.5239034334765833
1708433636.0688975,-1.5912041664123535,-1.5343318668058892,-2.8722549120532435,5.74207221248702,1.2073132991790771,-2.522799793873922
1708433636.070849,-1.590775489807129,-1.5350124065629025,-2.873082224522726,5.742772328644552,1.207716941833496,-2.5217581431018274
1708433636.0728765,-1.5904372930526733,-1.5355959360352536,-2.873944346104757,5.743459450989523,1.2081246376037598,-2.520783011113302
1708433636.0748904,-1.590075135231018,-1.536200837498047,-2.874714199696676,5.7441372750099084,1.2085987329483032,-2.519694153462545
1708433636.0768702,-1.5897111892700195,-1.5368904893151303,-2.8755436579333704,5.74489842632369,1.209062099456787,-2.518653933201925
1708433636.078879,-1.5894075632095337,-1.537457601433136,-2.876366678868429,5.745533334999838,1.2094944715499878,-2.517559830342428
1708433636.0808644,-1.589138150215149,-1.538053886299469,-2.877209726964132,5.746235120087423,1.2100075483322144,-2.5165136496173304
1708433636.0828526,-1.5888252258300781,-1.5386740130237122,-2.8779259363757532,5.747013199120321,1.2104504108428955,-2.515491787587301
1708433636.0848722,-1.5885913372039795,-1.5393184025636693,-2.8787058035479944,5.747856128006735,1.2109466791152954,-2.514409605656759
1708433636.0868335,-1.5883451700210571,-1.539956883793213,-2.8794990221606653,5.748633849411764,1.211390733718872,-2.5133653322802942
1708433636.0888484,-1.5880725383758545,-1.5405107897571106,-2.8802855650531214,5.7493640063102625,1.211747646331787,-2.5123119989978235
1708433636.090849,-1.5878536701202393,-1.541143075828888,-2.881033484135763,5.7501340983207605,1.2121983766555786,-2.5112531820880335
1708433636.0928516,-1.5876682996749878,-1.5417448443225403,-2.8817985693561,5.7509721396263025,1.2125669717788696,-2.5102532545672815
1708433636.0948427,-1.587436556816101,-1.5423855942538758,-2.882481638585226,5.751710045128622,1.2129554748535156,-2.5090883413897913
1708433636.096836,-1.587186574935913,-1.5429235634258767,-2.883238140736715,5.752548682480612,1.2133772373199463,-2.5080187956439417
1708433636.098879,-1.5870411396026611,-1.5434915584376832,-2.883962694798605,5.753354775696554,1.2137372493743896,-2.506913963948385
1708433636.1008656,-1.5868768692016602,-1.5441049386611958,-2.884631935750143,5.754262792855062,1.214080810546875,-2.5058849493609827
1708433636.1028495,-1.5867468118667603,-1.5446878441474219,-2.8852983156787317,5.755155908852377,1.21449613571167,-2.5047643820392054
1708433636.1048908,-1.5865741968154907,-1.5452773471227665,-2.885974947606222,5.75609182098464,1.214917778968811,-2.5035555998431605
1708433636.106857,-1.5864756107330322,-1.545891200458147,-2.8866711298571985,5.75697814205245,1.2152527570724487,-2.5024128595935267
1708433636.10885,-1.5863319635391235,-1.5464381252280255,-2.887359921132223,5.7579126236732385,1.215498685836792,-2.5012338797198694
1708433636.1108718,-1.5862479209899902,-1.5470262237689276,-2.887998882924215,5.75878523567275,1.2158541679382324,-2.5001090208636683
1708433636.1128435,-1.586107611656189,-1.5475837432644148,-2.888651196156637,5.759647476464071,1.2161500453948975,-2.4988985697375696
1708433636.114882,-1.5860490798950195,-1.548187569980957,-2.8893163839923304,5.760651933937826,1.2164545059204102,-2.4977298418628138
1708433636.1168725,-1.5859814882278442,-1.548748418023326,-2.8899269739734095,5.761524188309469,1.2167631387710571,-2.4965434710132044
1708433636.118861,-1.5859711170196533,-1.5492763084224244,-2.8905134836779993,5.762523877411642,1.2170213460922241,-2.4952877203570765
1708433636.1208963,-1.5858699083328247,-1.5499096021852274,-2.8912037054644983,5.763457524567404,1.2173142433166504,-2.4941278139697474
1708433636.122884,-1.5859020948410034,-1.5504703366062422,-2.8918352762805384,5.76441107967452,1.217578411102295,-2.4929593245135706
1708433636.1248527,-1.5858639478683472,-1.5509896122715254,-2.892402474080221,5.765314566880026,1.2178664207458496,-2.4917147795306605
1708433636.1268632,-1.5858049392700195,-1.551575108697154,-2.893010203038351,5.7662192461784265,1.2181421518325806,-2.490516726170675
1708433636.1288605,-1.5858469009399414,-1.552058295612671,-2.8935895601855677,5.7671453831489465,1.2183246612548828,-2.489319149647848
1708433636.130866,-1.5858592987060547,-1.5526246347329398,-2.8941825071917933,5.76809989193038,1.2185612916946411,-2.488100830708639
1708433636.1328578,-1.5859092473983765,-1.5532540076277037,-2.8947415987597864,5.769069778710165,1.2188962697982788,-2.4868224302874964
1708433636.134851,-1.5859874486923218,-1.5537296377918501,-2.895275894795553,5.770055877953329,1.2190815210342407,-2.4855125586139124
1708433636.1368625,-1.5860612392425537,-1.554290159871318,-2.8958478609668177,5.771029937058248,1.219293475151062,-2.4842656294452112
1708433636.13887,-1.586038589477539,-1.5548387610218306,-2.8963637987719935,5.772034394532003,1.2194931507110596,-2.48307711282839
1708433636.1408713,-1.586150884628296,-1.5554230634919186,-2.8969321886645716,5.773002016335287,1.2197109460830688,-2.481839958821432
1708433636.1428664,-1.5862104892730713,-1.555971356374659,-2.8974478880511683,5.773939478188314,1.2198413610458374,-2.480569664631979
1708433636.144849,-1.586294412612915,-1.556427283478417,-2.8979066053973597,5.774945723801412,1.219991683959961,-2.479398552571432
1708433636.1468463,-1.58637535572052,-1.557001974699535,-2.898398224507467,5.7759485123451135,1.2202378511428833,-2.4780738989459437
1708433636.1488523,-1.5864603519439697,-1.5575183111107727,-2.898848358784811,5.77698706367568,1.220381498336792,-2.476837698613302
1708433636.150893,-1.5865399837493896,-1.5580133956721802,-2.899332348500387,5.777909266739645,1.2205287218093872,-2.475564781819479
1708433636.1528943,-1.586659550666809,-1.558588516233005,-2.899783198033468,5.779014813690939,1.2206695079803467,-2.4742260614978235
1708433636.1548307,-1.5867104530334473,-1.5590600914186616,-2.9002440611468714,5.780038583069601,1.2207523584365845,-2.472961727772848
1708433636.1569118,-1.5868347883224487,-1.5595757526210328,-2.900675360356466,5.781020152359762,1.2208361625671387,-2.471623484288351
1708433636.1588676,-1.5869380235671997,-1.5601226894981046,-2.901119057332174,5.782058822899618,1.2209563255310059,-2.4702563921557825
1708433636.160856,-1.5870333909988403,-1.5605997511050482,-2.9015541712390345,5.783044922142782,1.2210404872894287,-2.4689672628985804
1708433636.1628609,-1.5872118473052979,-1.5610733416727562,-2.90196663538088,5.7841282961662195,1.2211154699325562,-2.467583481465475
1708433636.1648622,-1.58730149269104,-1.561593286027648,-2.902369801198141,5.785054671555319,1.2212086915969849,-2.466156784688131
1708433636.16685,-1.5874621868133545,-1.5621560283801337,-2.9027701059924524,5.786063182144918,1.221221923828125,-2.464738670979635
1708433636.1688616,-1.5876085758209229,-1.5625277145630498,-2.903149191533224,5.787065613060751,1.2212308645248413,-2.4633355776416224
1708433636.1708705,-1.5877689123153687,-1.5630751827596505,-2.9035378138171595,5.788107383042135,1.2212773561477661,-2.4619627634631556
1708433636.17286,-1.5880025625228882,-1.5635494424826284,-2.903806273137228,5.7891344902809045,1.2212624549865723,-2.4605115095721644
1708433636.1748538,-1.5881904363632202,-1.5640151047012587,-2.9042065779315394,5.790175783425131,1.2212746143341064,-2.4590616861926478
1708433636.1768425,-1.5883285999298096,-1.5644075551866372,-2.904519859944479,5.79116581657485,1.2212746143341064,-2.4576507250415247
1708433636.1788495,-1.588521957397461,-1.5649309184267004,-2.90487510362734,5.792186605721273,1.2212549448013306,-2.456261698399679
1708433636.1808498,-1.5886849164962769,-1.5653695518015702,-2.905174795781271,5.793159234314718,1.221226453781128,-2.454808298741476
1708433636.182871,-1.5888959169387817,-1.5658396615511556,-2.9054909388171595,5.794166433602133,1.2211666107177734,-2.4533138910876673
1708433636.184846,-1.58912193775177,-1.5662659190459927,-2.9057446161853235,5.795076000481405,1.221069097518921,-2.4519498983966272
1708433636.18685,-1.5893572568893433,-1.5666503825089713,-2.906050507222311,5.796062814980306,1.2209506034851074,-2.4505303541766565
1708433636.1888587,-1.5895843505859375,-1.5671384441996743,-2.9062963167773646,5.797046172409811,1.2209012508392334,-2.449123207722799
1708433636.1908543,-1.589733362197876,-1.5675333529109885,-2.906606737767355,5.797970163613119,1.2208712100982666,-2.447721306477682
1708433636.1928582,-1.5899659395217896,-1.567941943216585,-2.9068120161639612,5.798892724304952,1.2207450866699219,-2.446284834538595
1708433636.1948452,-1.5902223587036133,-1.5684102380513032,-2.9070895353900355,5.799901473313131,1.2206807136535645,-2.444857184086935
1708433636.1968575,-1.5903836488723755,-1.5687589932097872,-2.9072259108172815,5.800792085915365,1.2205965518951416,-2.4434614817248743
1708433636.1988728,-1.5906484127044678,-1.5691820769901206,-2.90745979944338,5.801701295166769,1.2205007076263428,-2.442007366810934
1708433636.2008774,-1.5909174680709839,-1.5695927165546273,-2.9077044169055384,5.802671658783712,1.2204300165176392,-2.440523926411764
1708433636.2028809,-1.591107726097107,-1.5700157076101569,-2.907879654561178,5.803625452309408,1.2202621698379517,-2.4390586058246058
1708433636.2048883,-1.5913208723068237,-1.570356806540378,-2.908050600682394,5.804530727654257,1.2202168703079224,-2.4376378695117396
1708433636.2068598,-1.5915180444717407,-1.5707347480823337,-2.9081526438342493,5.8054754612739465,1.2200312614440918,-2.43614107767214
1708433636.2088568,-1.5917595624923706,-1.5712033710875453,-2.9083998839007776,5.806357729225912,1.2198617458343506,-2.434584681187765
1708433636.2108727,-1.591974139213562,-1.571508070031637,-2.9084492365466517,5.807202565460958,1.2197400331497192,-2.4330692926989954
1708433636.2128596,-1.5921807289123535,-1.5719238720335902,-2.908609692250387,5.80811773517684,1.2194738388061523,-2.431622091923849
1708433636.214863,-1.5923805236816406,-1.5723134479918421,-2.9087536970721644,5.809028851776876,1.2192620038986206,-2.4300957361804407
1708433636.2168503,-1.5926446914672852,-1.572672029534811,-2.9088359514819544,5.809832560807028,1.2190088033676147,-2.4286447207080286
1708433636.2188535,-1.5928860902786255,-1.5730215511717738,-2.9089112917529505,5.810666072159567,1.2188429832458496,-2.4271228949176233
1708433636.2208433,-1.5931041240692139,-1.5733944378294886,-2.909081999455587,5.811520921974935,1.2185781002044678,-2.4256911913501185
1708433636.2228432,-1.593364953994751,-1.5736953220763148,-2.909124199544088,5.8123371479804895,1.2183094024658203,-2.4241116682635706
1708433636.224851,-1.5935816764831543,-1.5740844211974085,-2.9091630617724817,5.81310127952651,1.2180452346801758,-2.4226484934436243
1708433636.2268596,-1.593801736831665,-1.5744224987425746,-2.9092183748828333,5.813952076226034,1.21774423122406,-2.421095911656515
1708433636.228883,-1.5940297842025757,-1.5747291050352992,-2.9092677275287073,5.814708936005392,1.2174813747406006,-2.4196422735797327
1708433636.2308462,-1.594286561012268,-1.5750299892821253,-2.909278456364767,5.815510499268331,1.2171798944473267,-2.4181845823871058
1708433636.2328634,-1.594484567642212,-1.575331827203268,-2.909285847340719,5.81620882728652,1.2169907093048096,-2.4167702833758753
1708433636.2348557,-1.594687819480896,-1.5756646595396937,-2.909360710774557,5.817036497383871,1.2166701555252075,-2.4152830282794397
1708433636.2368915,-1.5948941707611084,-1.5759340725340785,-2.9093473593341272,5.817773806839742,1.2163455486297607,-2.413859192525045
1708433636.2389395,-1.5950984954833984,-1.5762163601317347,-2.909252945576803,5.818558203964987,1.2159878015518188,-2.4124446550952356
1708433636.2408686,-1.5953342914581299,-1.576498647729391,-2.9092095533954065,5.819329726486959,1.2156330347061157,-2.4109824339496058
1708433636.2428637,-1.5954887866973877,-1.5768395862975062,-2.909128729497091,5.820058810501852,1.2152163982391357,-2.4094365278827112
1708433636.2448535,-1.595725178718567,-1.577125688592428,-2.9090281168567103,5.8207671521003626,1.2148411273956299,-2.407997194920675
1708433636.2468424,-1.595933437347412,-1.5773536167540492,-2.9089892546283167,5.821437942772665,1.2144694328308105,-2.4064765612231653
1708433636.2488494,-1.5961698293685913,-1.577590127984518,-2.90890080133547,5.822193729668417,1.2141093015670776,-2.404978100453512
1708433636.2508478,-1.5963280200958252,-1.5779148540892542,-2.9088452498065394,5.82284568527297,1.2137539386749268,-2.4034467379199427
1708433636.2528596,-1.5964961051940918,-1.5781570873656214,-2.908725086842672,5.823552834778585,1.2133468389511108,-2.4019394556628626
1708433636.2548413,-1.5966368913650513,-1.5783878765501917,-2.9086456934558313,5.824229824333944,1.2129267454147339,-2.4004786650287073
1708433636.256865,-1.59684157371521,-1.5787207088866175,-2.908464256917135,5.824858891754904,1.2125324010849,-2.398905340825216
1708433636.2588542,-1.597009539604187,-1.5789233646788539,-2.9083250204669397,5.825495588570394,1.2120864391326904,-2.3973847071277063
1708433636.2608774,-1.597267508506775,-1.5791388950743617,-2.9082213083850306,5.826071250229635,1.2116589546203613,-2.3959015051471155
1708433636.2629025,-1.597396969795227,-1.5793072185912074,-2.9080236593829554,5.826697218209066,1.2111942768096924,-2.394336764012472
1708433636.2648494,-1.597593069076538,-1.5795680485167445,-2.907837692891256,5.827259528427877,1.2107352018356323,-2.3928049246417444
1708433636.266864,-1.5977940559387207,-1.579761644402975,-2.9076831976519983,5.827831494599142,1.2102203369140625,-2.391284767781393
1708433636.2688649,-1.59787917137146,-1.579977651635641,-2.90755278268923,5.8283904669578455,1.2098066806793213,-2.389799181615011
1708433636.270845,-1.5980589389801025,-1.5801111660399378,-2.9073038736926478,5.828915464669027,1.2093383073806763,-2.3883541266070765
1708433636.2728894,-1.5982431173324585,-1.5804091892638148,-2.907119337712423,5.829565274506368,1.2088128328323364,-2.3868826071368616
1708433636.2748747,-1.598405361175537,-1.580545564691061,-2.9068947474109095,5.830106007843771,1.2083046436309814,-2.3853896299945276
1708433636.2768776,-1.5986140966415405,-1.5807677708067835,-2.9067028204547327,5.830573785095968,1.2077887058258057,-2.383932415639059
1708433636.2788618,-1.5988073348999023,-1.580921312371725,-2.9064555803882044,5.831125485688009,1.207257628440857,-2.3825092951404017
1708433636.2808864,-1.5989173650741577,-1.5811048946776332,-2.9061573187457483,5.831597316056051,1.2067131996154785,-2.3810909430133265
1708433636.2828767,-1.5990616083145142,-1.5812484226622523,-2.905921522771017,5.832111584931173,1.206131935119629,-2.3795812765704554
1708433636.2848608,-1.599212408065796,-1.5814067325987757,-2.9056578318225306,5.832597243576803,1.2056177854537964,-2.3781617323504847
1708433636.2868495,-1.5993640422821045,-1.5815497837462367,-2.905448023472921,5.833124744683065,1.205052137374878,-2.3766630331622522
1708433636.2888582,-1.5995358228683472,-1.5817176304259242,-2.9050851503955286,5.833586442261495,1.2044626474380493,-2.3751514593707483
1708433636.290875,-1.5996582508087158,-1.5818129978575648,-2.9047942797290247,5.834056961327352,1.2039612531661987,-2.373702589665548
1708433636.2928677,-1.5997860431671143,-1.5820309124388636,-2.904494349156515,5.83454846122817,1.203364372253418,-2.3721516768084925
1708433636.294844,-1.5999375581741333,-1.5820876560606898,-2.904121224080221,5.834956395417013,1.2027626037597656,-2.370711151753561
1708433636.2968771,-1.600117802619934,-1.5821625194945277,-2.9037986437426966,5.835349428444662,1.2021386623382568,-2.3691912333117884
1708433636.298849,-1.600233554840088,-1.5823832950987757,-2.9034629503833216,5.8357887146766565,1.2015260457992554,-2.367707077656881
1708433636.3008363,-1.6003786325454712,-1.5824586353697718,-2.903048817311422,5.836222398072042,1.2009294033050537,-2.3662458101855677
1708433636.302853,-1.6005338430404663,-1.582569261590475,-2.9026921431170862,5.8365973112876794,1.200333595275879,-2.364751402531759
1708433636.3048372,-1.600616455078125,-1.5826574764647425,-2.902350727711813,5.8370083449180505,1.19970703125,-2.363288704548971
1708433636.306866,-1.6007376909255981,-1.5827356777586878,-2.9019277731524866,5.8374308226402185,1.1990565061569214,-2.3617988268481653
1708433636.3088512,-1.6008273363113403,-1.5828358135619105,-2.9015875498401087,5.8378121731574915,1.1984370946884155,-2.3603208700763147
1708433636.3108437,-1.6010103225708008,-1.5829607448973597,-2.901120964680807,5.83817087390975,1.1977940797805786,-2.3587990442859095
1708433636.3128462,-1.6010621786117554,-1.583029409448141,-2.90070611635317,5.838529813080587,1.1970791816711426,-2.3574753443347376
1708433636.3148334,-1.601203441619873,-1.5830708942809046,-2.900217358266012,5.838900315552511,1.1964540481567383,-2.3560217062579554
1708433636.316834,-1.601327657699585,-1.5830708942809046,-2.899813954030172,5.83923493602828,1.195736050605774,-2.354640070592062
1708433636.318851,-1.6014635562896729,-1.5831667385497035,-2.899410072957174,5.839483248978414,1.1950732469558716,-2.3532188574420374
1708433636.3208714,-1.6015594005584717,-1.5832716427245082,-2.898921314870016,5.839805829315939,1.1944741010665894,-2.351825777684347
1708433636.322858,-1.60161292552948,-1.5832740269102992,-2.898507897053854,5.8401211378868005,1.1937296390533447,-2.3504706064807337
1708433636.3248634,-1.6017706394195557,-1.583367486993307,-2.898047749196188,5.840406405716696,1.1930547952651978,-2.349112097417013
1708433636.3268554,-1.6018527746200562,-1.5834118328490199,-2.8975334803210657,5.840672361641683,1.192349910736084,-2.347697083150045
1708433636.3288658,-1.6019624471664429,-1.583426137963766,-2.8970611731158655,5.841001260071554,1.191620111465454,-2.3463602701770228
1708433636.3308446,-1.6021429300308228,-1.5834423504271449,-2.8966100851642054,5.841268646508016,1.1909222602844238,-2.3449652830706995
1708433636.3328774,-1.6022151708602905,-1.58347811321401,-2.8961151281939905,5.841585624008932,1.1901353597640991,-2.3435960451709192
1708433636.3348398,-1.6022684574127197,-1.583477636376852,-2.8956149260150355,5.841891991883077,1.189407229423523,-2.342177693043844
1708433636.3368602,-1.602388858795166,-1.5834647617735804,-2.895074192677633,5.842157947808065,1.188707947731018,-2.340792242680685
1708433636.338871,-1.6024757623672485,-1.5835339031615199,-2.8946030775653284,5.8423746702964685,1.187962532043457,-2.3394110838519495
1708433636.3408506,-1.6025760173797607,-1.583541055718893,-2.8940826098071497,5.842687117844381,1.187290072441101,-2.3380399386035364
1708433636.3428998,-1.6027040481567383,-1.5835215053954066,-2.893555227910177,5.842962014466085,1.1866216659545898,-2.3367047945605677
1708433636.3448582,-1.6027971506118774,-1.5835453472533167,-2.893031899129049,5.843160617142477,1.1859867572784424,-2.3353782335864466
1708433636.3468661,-1.6028822660446167,-1.5835772953429164,-2.8925069014178675,5.843465554505148,1.1853258609771729,-2.33407169977297
1708433636.348907,-1.6029752492904663,-1.5835052929320277,-2.891951386128561,5.843676197319784,1.1845825910568237,-2.332705799733297
1708433636.3508806,-1.603111982345581,-1.583508630792135,-2.8913655916797083,5.843909251480856,1.1838781833648682,-2.331303421651022
1708433636.3528638,-1.6032146215438843,-1.5834652386107386,-2.8907702604876917,5.844120132714071,1.1831128597259521,-2.3299859205829065
1708433636.354847,-1.6033341884613037,-1.5834361515440882,-2.8902552763568323,5.844395029335775,1.1824489831924438,-2.328672711049215
1708433636.3568742,-1.6034539937973022,-1.5834089718260707,-2.8896167914019983,5.844647276192465,1.1817941665649414,-2.3274193445788782
1708433636.3588634,-1.603574275970459,-1.5833965740599574,-2.8890164534198206,5.844883429795065,1.1810389757156372,-2.326162640248434
1708433636.3608701,-1.603689193725586,-1.5833574734129847,-2.8884900251971644,5.845021235733785,1.1803271770477295,-2.3249130884753626
1708433636.3628852,-1.6038219928741455,-1.5833617649474085,-2.887937609349386,5.845314252167501,1.1795071363449097,-2.323634211217062
1708433636.3648593,-1.6039988994598389,-1.5832940540709437,-2.8873496691333216,5.845499264984884,1.1787971258163452,-2.3223968187915247
1708433636.3668733,-1.604081153869629,-1.5832654438414515,-2.886724058781759,5.845751869469442,1.1779953241348267,-2.3211596647845667
1708433636.3689165,-1.6041761636734009,-1.5832792721190394,-2.886087719594137,5.8458759663398645,1.1771498918533325,-2.319889847432272
1708433636.370847,-1.6043651103973389,-1.5831905804076136,-2.8854606787311,5.846090900688925,1.176324486732483,-2.318644110356466
1708433636.3728824,-1.6044602394104004,-1.583186765710348,-2.88485294977297,5.846339094429769,1.1755375862121582,-2.317369047795431
1708433636.374876,-1.6046080589294434,-1.5830403767027796,-2.8841941992389124,5.846563446312704,1.174707055091858,-2.316181723271505
1708433636.3768668,-1.6047731637954712,-1.5830589733519496,-2.8835869471179407,5.846868145256796,1.1739234924316406,-2.3148825804339808
1708433636.3788779,-1.6048829555511475,-1.5830184421935023,-2.883007589970724,5.8470650790031335,1.1731051206588745,-2.313657585774557
1708433636.3808458,-1.6049909591674805,-1.582998891870016,-2.8824289480792444,5.847292411118307,1.1723026037216187,-2.312349859868185
1708433636.3828707,-1.6051723957061768,-1.5828820667662562,-2.881763521824972,5.84753309467391,1.1715017557144165,-2.3110747973071497
1708433636.3848517,-1.6053074598312378,-1.5829035244383753,-2.881094996129171,5.847737657814779,1.1706621646881104,-2.3098486105548304
1708433636.3868976,-1.6054294109344482,-1.5828262768187464,-2.8804505507098597,5.847969400673666,1.1698254346847534,-2.308582131062643
1708433636.3888903,-1.605627417564392,-1.5828081570067347,-2.8797243277179163,5.848319041519918,1.1689938306808472,-2.307335917149679
1708433636.3908508,-1.60579514503479,-1.5826789341368617,-2.8790765444384974,5.848577487259664,1.1681647300720215,-2.306188408528463
1708433636.3928578,-1.605960726737976,-1.582667966882223,-2.878437105809347,5.848803508072653,1.167273998260498,-2.3049595991717737
1708433636.394874,-1.6061216592788696,-1.582644601861471,-2.8777764479266565,5.84908293464736,1.1665157079696655,-2.3037641684161585
1708433636.3968718,-1.606326699256897,-1.5825559101500453,-2.8771587053882044,5.849350440293112,1.1657475233078003,-2.3025458494769495
1708433636.398901,-1.6064878702163696,-1.582529684106344,-2.876444641743795,5.849596607476034,1.164918303489685,-2.3013442198382776
1708433636.4008436,-1.606726050376892,-1.5825101337828578,-2.8757815996753138,5.849882471352377,1.1640832424163818,-2.300190035496847
1708433636.4029005,-1.6069227457046509,-1.5823642216124476,-2.875003163014547,5.850191342621603,1.1632664203643799,-2.298925224934713
1708433636.404896,-1.607145071029663,-1.5823208294310511,-2.8743370215045374,5.850430714875021,1.1624258756637573,-2.297791067753927
1708433636.406886,-1.6073352098464966,-1.5822535953917445,-2.873559061680929,5.850710499077596,1.1616179943084717,-2.2965660730945032
1708433636.4088802,-1.6075594425201416,-1.582193513909811,-2.872854534779684,5.851028787880697,1.160818338394165,-2.295434300099508
1708433636.410884,-1.607816219329834,-1.5820843182005824,-2.8721864859210413,5.851353156357565,1.160009503364563,-2.29431659380068
1708433636.4129035,-1.6080478429794312,-1.5820442638792933,-2.871453587208883,5.8515816805656335,1.1592038869857788,-2.293187204991476
1708433636.4148643,-1.6083199977874756,-1.5819984875121058,-2.8708234469043177,5.851873266487875,1.1583954095840454,-2.2920737902270716
1708433636.416916,-1.6085057258605957,-1.5818778477110804,-2.870042149220602,5.852212178498068,1.1575825214385986,-2.290957514439718
1708433636.4188616,-1.6087524890899658,-1.5818458996214808,-2.8692522684680384,5.852518546372213,1.1567431688308716,-2.2898553053485315
1708433636.420853,-1.6090729236602783,-1.5817867718138636,-2.8685949484454554,5.852809774666586,1.1559065580368042,-2.2887051741229456
1708433636.422882,-1.6093859672546387,-1.5817352734007777,-2.8678165117846888,5.853156792908468,1.1550408601760864,-2.287652317677633
1708433636.42489,-1.6096407175064087,-1.5816880665221156,-2.867007080708639,5.8534748432929895,1.1542030572891235,-2.286563221608297
1708433636.426869,-1.6099319458007812,-1.581517835656637,-2.866323773060934,5.853855955391683,1.1533629894256592,-2.285401169453756
1708433636.4288795,-1.6101752519607544,-1.581447263757223,-2.865591589604513,5.854205238610067,1.152527093887329,-2.2843547503100794
1708433636.4308379,-1.6104501485824585,-1.5813876591124476,-2.864896361027853,5.854523885041036,1.1517027616500854,-2.2831657568561
1708433636.4328759,-1.6107866764068604,-1.5813037357726039,-2.8640983740436,5.854858386307516,1.150795340538025,-2.2821314970599573
1708433636.4348512,-1.6110894680023193,-1.5812732181944789,-2.8634379545794886,5.855196344643392,1.1499900817871094,-2.2810357252704065
1708433636.4368768,-1.6113923788070679,-1.581200738946432,-2.8626890818225306,5.85558961608962,1.1492133140563965,-2.2799399534808558
1708433636.4388552,-1.6117000579833984,-1.5811459026732386,-2.8620072046863,5.8559220907981775,1.1483790874481201,-2.2788851896869105
1708433636.4408593,-1.612056851387024,-1.5810171566405238,-2.8611984888659876,5.8563421843345544,1.1474336385726929,-2.2778289953814905
1708433636.4428835,-1.6123838424682617,-1.580966135064596,-2.8604677359210413,5.856741893082418,1.1465908288955688,-2.276771847401754
1708433636.4448762,-1.6127146482467651,-1.580930849114889,-2.859666172658102,5.857130038529196,1.1457113027572632,-2.275666062031881
1708433636.446857,-1.6130661964416504,-1.5808178387083949,-2.858966652547018,5.85758255699233,1.1448585987091064,-2.274623219166891
1708433636.4488513,-1.6134130954742432,-1.5807343922057093,-2.8582025210009974,5.857996928482809,1.1440136432647705,-2.273598019276754
1708433636.4508758,-1.6137651205062866,-1.5806714497008265,-2.8574956099139612,5.858457314759054,1.1432344913482666,-2.2725613752948206
1708433636.4528832,-1.6140867471694946,-1.5806361637511195,-2.8567948977099817,5.858751404076376,1.1424245834350586,-2.271524254475729
1708433636.4548633,-1.6144999265670776,-1.580515523950094,-2.8560763041125696,5.859204399376669,1.141567349433899,-2.270529095326559
1708433636.4568827,-1.614909052848816,-1.5804115734496058,-2.8552899996386927,5.859638917237081,1.1407214403152466,-2.2694829146014612
1708433636.4588616,-1.6152781248092651,-1.5803443394102992,-2.8545549551593226,5.860031831055441,1.1399253606796265,-2.268433396016256
1708433636.4608564,-1.6156736612319946,-1.5802151165404261,-2.8537560145007532,5.860507356911459,1.1390609741210938,-2.267371956502096
1708433636.4628723,-1.6160571575164795,-1.5802089176573695,-2.85299259821047,5.86102448680953,1.138160228729248,-2.2664006392108362
1708433636.4648387,-1.6164724826812744,-1.5801331005492152,-2.8522098700152796,5.861443984299459,1.1372530460357666,-2.2654460112201136
1708433636.4668603,-1.6168628931045532,-1.5800324879088343,-2.8515012899981897,5.861948358803549,1.1364400386810303,-2.2645023504840296
1708433636.4688468,-1.617315411567688,-1.5800062618651332,-2.8507702986346644,5.862354266434469,1.1356173753738403,-2.263515297566549
1708433636.470867,-1.6177092790603638,-1.579874654809469,-2.850034777318136,5.862907039910116,1.1348042488098145,-2.2626078764544886
1708433636.4728818,-1.6182011365890503,-1.5797983608641566,-2.8491929213153284,5.863352763443746,1.1340210437774658,-2.261631790791647
1708433636.4748583,-1.6186280250549316,-1.579710145989889,-2.8484321276294153,5.863920318871298,1.1331874132156372,-2.2607248465167444
1708433636.4769034,-1.6191110610961914,-1.5796624622740687,-2.8476532141314905,5.864467489510336,1.1323179006576538,-2.259782616292135
1708433636.47888,-1.6196339130401611,-1.5795990429320277,-2.8468266169177454,5.865036475449362,1.1313793659210205,-2.258829418812887
1708433636.4808931,-1.6200498342514038,-1.57948698619985,-2.846112314854757,5.865599739342489,1.1305444240570068,-2.2579544226275843
1708433636.482896,-1.620529294013977,-1.5794102154173792,-2.8453245798694056,5.866067874222555,1.1297160387039185,-2.2569544951068323
1708433636.4848328,-1.620963215827942,-1.579318185845846,-2.8445594946490687,5.866678702622213,1.1289159059524536,-2.2561047712909144
1708433636.4868765,-1.6214627027511597,-1.579324861566061,-2.8437703291522425,5.867232072144308,1.1281028985977173,-2.2551615873919886
1708433636.4889014,-1.62193763256073,-1.5792814693846644,-2.8429654280291956,5.867790448456564,1.1272852420806885,-2.254220787678854
1708433636.4908702,-1.6224417686462402,-1.5791846714415492,-2.8421741167651575,5.868385660439291,1.1264930963516235,-2.2533190886126917
1708433636.4928787,-1.6229894161224365,-1.5791498623290003,-2.841464344655172,5.868960606842794,1.1255837678909302,-2.2524030844317835
1708433636.4948416,-1.6235191822052002,-1.5791007481017054,-2.8405848185168665,5.869557368546285,1.1247062683105469,-2.2514880339251917
1708433636.496865,-1.6240416765213013,-1.5789686642088832,-2.8397703806506556,5.8700610277946375,1.1238369941711426,-2.2505090872394007
1708433636.498867,-1.624604344367981,-1.578949590722555,-2.8390231768237513,5.870750891953268,1.122951626777649,-2.2496007124530237
1708433636.5008357,-1.6251847743988037,-1.578897615472311,-2.838172737752096,5.871276008873739,1.1222429275512695,-2.248646084462301
1708433636.5028586,-1.6257394552230835,-1.5788008175291957,-2.8374298254596155,5.871962892800131,1.1214213371276855,-2.2477806250201624
1708433636.5048802,-1.6262325048446655,-1.5788194141783656,-2.8366339842425745,5.87261055687026,1.1205742359161377,-2.2468388716327112
1708433636.5068734,-1.6268118619918823,-1.5786978207030238,-2.8358333746539515,5.873206484108724,1.1198194026947021,-2.2459853331195276
1708433636.5088968,-1.6274288892745972,-1.5786510906615199,-2.834991995488302,5.873898136406698,1.118942141532898,-2.2450273672686976
1708433636.5108526,-1.6280323266983032,-1.5785991154112757,-2.834168259297506,5.874527323036947,1.1180633306503296,-2.2441332975970667
1708433636.512865,-1.6286524534225464,-1.5785390339293421,-2.833350960408346,5.875230538636007,1.1171903610229492,-2.2432711760150355
1708433636.5148365,-1.6292169094085693,-1.5785161457457484,-2.8324533144580286,5.875875580101766,1.116299033164978,-2.2423532644854944
1708433636.516877,-1.629812240600586,-1.57849182705068,-2.831637207661764,5.876559722214498,1.115429162979126,-2.2414758841144007
