Eg3-git/Classifiers/Data Collection/u1/u1www4_ur3e_joint_states.csv
time,elbow_joint,shoulder_lift_joint,shoulder_pan_joint,wrist_1_joint,wrist_2_joint,wrist_3_joint
1708433688.8793304,-2.1493613719940186,-1.3357229393771668,-2.5261946360217493,6.1290767071540735,1.016501784324646,-2.1789382139789026
1708433688.8813221,-2.149270534515381,-1.335739092235901,-2.5262609163867396,6.129010426789083,1.0164839029312134,-2.178861443196432
1708433688.8833315,-2.149216890335083,-1.3357722473195572,-2.52622634569277,6.1287672398384,1.0164927244186401,-2.1788914839373987
1708433688.885334,-2.149142026901245,-1.3357237142375489,-2.5262144247638147,6.128678190499105,1.0165455341339111,-2.178760830556051
1708433688.8873327,-2.1491360664367676,-1.3356877130321045,-2.5262609163867396,6.1285016415412805,1.0165292024612427,-2.1787036100970667
1708433688.8893378,-2.149033308029175,-1.3356554371169587,-2.5262818972217005,6.128334152489462,1.0165603160858154,-2.1786559263812464
1708433688.891304,-2.1490073204040527,-1.3356765669635315,-2.5262518564807337,6.128173696785726,1.0165934562683105,-2.178633515034811
1708433688.8933237,-2.1489601135253906,-1.335616187458374,-2.5262518564807337,6.128013717919149,1.0165770053863525,-2.1785643736468714
1708433688.8953085,-2.148867130279541,-1.335558996801712,-2.526287857686178,6.12789939621047,1.0165680646896362,-2.178577725087301
1708433688.8973675,-2.1488122940063477,-1.3355878752521058,-2.526278797780172,6.127727377205648,1.016603946685791,-2.1785414854632776
1708433688.8993545,-2.148690700531006,-1.3355801862529297,-2.5262697378741663,6.127559292107382,1.016641616821289,-2.178472344075338
1708433688.9013548,-2.148651361465454,-1.3355040860227128,-2.5263493696795862,6.127386081009664,1.0166325569152832,-2.1784256140338343
1708433688.9033186,-2.1486124992370605,-1.3355163794806977,-2.5263283888446253,6.127206551819601,1.0166820287704468,-2.178361241017477
1708433688.9053364,-2.148528575897217,-1.3355163496783753,-2.5262983481036585,6.127006041794576,1.0166776180267334,-2.178267304097311
1708433688.907333,-2.1483991146087646,-1.3354357790998002,-2.5263357798205774,6.126857626229086,1.0166807174682617,-2.178265396748678
1708433688.9093208,-2.148376703262329,-1.3354357940009614,-2.5263386408435267,6.126711952477255,1.0167016983032227,-2.1782453695880335
1708433688.911319,-2.148284912109375,-1.3354605001262208,-2.526350800191061,6.126539814263143,1.0167211294174194,-2.1781981627093714
1708433688.9133189,-2.1482582092285156,-1.3354162734797974,-2.526393000279562,6.126351225167074,1.016716718673706,-2.178140942250387
1708433688.9153407,-2.1481118202209473,-1.3354331713965912,-2.526391331349508,6.126208770066061,1.0167286396026611,-2.1780269781695765
1708433688.9173937,-2.148090362548828,-1.3354374331286927,-2.526358429585592,6.1260530827339075,1.0167829990386963,-2.178027931843893
1708433688.9193227,-2.148038387298584,-1.3354094487479706,-2.526346270238058,6.1259087202842615,1.0167529582977295,-2.177944008504049
1708433688.921343,-2.147937536239624,-1.3353203696063538,-2.526424233113424,6.125707971840658,1.0167796611785889,-2.177903477345602
1708433688.9233177,-2.147890090942383,-1.335308776502945,-2.526367489491598,6.1255684969718835,1.0168143510818481,-2.1778720060931605
1708433688.9253561,-2.147806167602539,-1.3353368204883118,-2.526391331349508,6.125417220383444,1.0167796611785889,-2.177856747304098
1708433688.9274485,-2.147714614868164,-1.335297317509987,-2.526386801396505,6.125210392266073,1.0168699026107788,-2.177771870289938
1708433688.9294174,-2.147639274597168,-1.3353052896312256,-2.5264106432544153,6.125069725304403,1.0168581008911133,-2.1777189413653772
1708433688.9313507,-2.1476027965545654,-1.3352769774249573,-2.5264151732074183,6.124922978668966,1.0168862342834473,-2.177708450947897
1708433688.9333067,-2.1474626064300537,-1.3352778416923066,-2.5264604727374476,6.124746429711141,1.0168609619140625,-2.1776469389544886
1708433688.9353049,-2.1474266052246094,-1.3352012497237702,-2.5264392534839075,6.124595272331991,1.0169017314910889,-2.1775720755206507
1708433688.9373353,-2.1473538875579834,-1.335171939139702,-2.5264182726489466,6.124373423844137,1.0168715715408325,-2.177544895802633
1708433688.9393337,-2.147332191467285,-1.3351483058980484,-2.5264604727374476,6.12427173832015,1.016921043395996,-2.1774800459491175
1708433688.9413326,-2.1472220420837402,-1.3352017563632508,-2.5264678637133997,6.124066102295675,1.016909122467041,-2.1773975531207483
1708433688.9433348,-2.1471519470214844,-1.3351940375617524,-2.526463333760397,6.123992907791891,1.0169826745986938,-2.1773765722857874
1708433688.9453304,-2.147124767303467,-1.3351898354342957,-2.5264843145953577,6.123804080277242,1.0169570446014404,-2.177343193684713
1708433688.9473197,-2.1470847129821777,-1.3351617616466065,-2.526470724736349,6.123643862992086,1.0169615745544434,-2.177340809498922
1708433688.949329,-2.1469926834106445,-1.3351532977870484,-2.52649170557131,6.123480784683981,1.0170023441314697,-2.1772764364825647
1708433688.9513626,-2.146915912628174,-1.335093454723694,-2.526470724736349,6.123344409256735,1.0170097351074219,-2.177216355000631
1708433688.9533093,-2.146848678588867,-1.335089997654297,-2.526499334965841,6.123161780625143,1.0169976949691772,-2.177192036305563
1708433688.9553125,-2.146796941757202,-1.3350738447955628,-2.526494805012838,6.122996914177694,1.0169677734375,-2.177094284688131
1708433688.9573355,-2.1466758251190186,-1.3350615960410614,-2.5265398661242884,6.122857558518209,1.0170459747314453,-2.1770389715777796
1708433688.959312,-2.146665573120117,-1.335078091626503,-2.5264857451068323,6.122706401139059,1.0170505046844482,-2.177016560231344
1708433688.9613552,-2.1466264724731445,-1.3350786131671448,-2.5265353361712855,6.122562634735861,1.017037034034729,-2.1769712607013147
1708433688.9633367,-2.1465423107147217,-1.3350420755198975,-2.5265262762652796,6.122383105545797,1.0170701742172241,-2.176924530659811
1708433688.9653144,-2.146470546722412,-1.3349860322526474,-2.5265563170062464,6.122242200165548,1.0171318054199219,-2.1768797079669397
1708433688.9673312,-2.14644718170166,-1.3349741113236924,-2.5265308062182825,6.122082221298971,1.0171146392822266,-2.1768644491778772
1708433688.969324,-2.1463418006896973,-1.3349413734725495,-2.5265546480761927,6.121950614243307,1.0170938968658447,-2.176781956349508
1708433688.9713106,-2.1462771892547607,-1.3349414628795166,-2.5265710989581507,6.121860968857565,1.0171300172805786,-2.17680007616152
1708433688.973316,-2.1462581157684326,-1.334978238945343,-2.526599947606222,6.121700632363119,1.0171003341674805,-2.1767099539386194
1708433688.9753096,-2.146223545074463,-1.3349464696696778,-2.5265923182116907,6.121545660286703,1.0171210765838623,-2.176694695149557
1708433688.9773448,-2.1461758613586426,-1.3349583905986329,-2.5265546480761927,6.12140046337203,1.0171375274658203,-2.176636521016256
1708433688.9793303,-2.1460421085357666,-1.334935114984848,-2.526628319417135,6.121273386269369,1.0171570777893066,-2.1765945593463343
1708433688.9813228,-2.145998954772949,-1.3349350851825257,-2.5265982786761683,6.121118294983663,1.017133116722107,-2.1765506903277796
1708433688.9833205,-2.1459343433380127,-1.334882379775383,-2.5265665690051478,6.120998489647665,1.0171434879302979,-2.176519219075338
1708433688.985323,-2.145850419998169,-1.3348866266063233,-2.5265756289111536,6.120851981430807,1.0171644687652588,-2.176424805318014
1708433688.9873486,-2.145815372467041,-1.3348704737475892,-2.526595417653219,6.120706903725424,1.017218828201294,-2.176422897969381
1708433688.9893274,-2.145787477493286,-1.334814043050148,-2.5266147295581263,6.120563018112936,1.0171722173690796,-2.176382843648092
1708433688.9913065,-2.145719289779663,-1.3348670464805146,-2.526602808629171,6.12045572975234,1.0172336101531982,-2.1763394514666956
1708433688.9933288,-2.1456589698791504,-1.334842936401703,-2.5266056696521204,6.120354163437643,1.0172592401504517,-2.176302735005514
1708433688.995321,-2.145615339279175,-1.3347949248603364,-2.5266431013690394,6.120119440346517,1.0172172784805298,-2.176236931477682
1708433688.9973414,-2.145535469055176,-1.3347790998271485,-2.5266552607165735,6.120066988259115,1.0172667503356934,-2.1762478987323206
1708433688.9993885,-2.145508289337158,-1.3347706359675904,-2.5266385714160364,6.119964110642233,1.017241358757019,-2.1761983076678675
1708433689.0013745,-2.145473003387451,-1.3348156374743958,-2.5266311804400843,6.119802582054891,1.0172576904296875,-2.176129166279928
1708433689.0033264,-2.14538836479187,-1.3347833317569275,-2.5266476313220423,6.119689333229818,1.0172789096832275,-2.1760762373553675
1708433689.0053318,-2.1453044414520264,-1.3347107929042359,-2.5266597906695765,6.119583952217855,1.017241358757019,-2.1761277357684534
1708433689.0073292,-2.145293712615967,-1.3347430986217041,-2.5266431013690394,6.119417059212484,1.0173029899597168,-2.176029984151022
1708433689.0093384,-2.145237922668457,-1.3347226244262238,-2.5266462008105677,6.119363176613607,1.017317771911621,-2.1760686079608362
1708433689.011364,-2.1452019214630127,-1.3347226244262238,-2.5266581217395228,6.119241940766134,1.017346739768982,-2.175974194203512
1708433689.0133295,-2.1451339721679688,-1.3346873980811615,-2.5267213026629847,6.11904917934493,1.0173296928405762,-2.175999466572897
1708433689.0153244,-2.145068407058716,-1.3347439628890534,-2.5266671816455286,6.118958222657003,1.0173341035842896,-2.1759775320636194
1708433689.0173461,-2.14500093460083,-1.3346389395049592,-2.5267048517810267,6.118883359223165,1.0173659324645996,-2.1758659521686
1708433689.019329,-2.1449942588806152,-1.334667445426323,-2.5266884008990687,6.118739831238546,1.0173614025115967,-2.1758092085467737
1708433689.0213702,-2.144892692565918,-1.3346559566310425,-2.526665751134054,6.118649947434225,1.0173659324645996,-2.1757853666888636
1708433689.0233305,-2.144819736480713,-1.3346271079829712,-2.526703182850973,6.1184661267097376,1.0173778533935547,-2.1758034865008753
1708433689.0253756,-2.1448793411254883,-1.33461149156604,-2.526719633732931,6.118428933411398,1.0174154043197632,-2.1757763067828577
1708433689.027351,-2.144761323928833,-1.3346071702292939,-2.526682202016012,6.11834071853713,1.017423152923584,-2.1756938139544886
1708433689.0293238,-2.144730567932129,-1.3346364361098786,-2.526695791875021,6.118249404221334,1.0173900127410889,-2.175640885029928
1708433689.0313742,-2.1447055339813232,-1.3345791858485718,-2.5266686121570032,6.118191110878744,1.0174063444137573,-2.17564565340151
1708433689.0333583,-2.1446990966796875,-1.3346398037723084,-2.526686731969015,6.118041503220358,1.017401933670044,-2.1755927244769495
1708433689.0353186,-2.144605875015259,-1.3345229637673874,-2.526752773915426,6.1179295656974695,1.0174095630645752,-2.175561253224508
1708433689.0373793,-2.1445670127868652,-1.334571511750557,-2.5267227331744593,6.117904412537374,1.0174262523651123,-2.175558869038717
1708433689.0393372,-2.144517660140991,-1.334571511750557,-2.5267558733569544,6.117734062462606,1.017421841621399,-2.1755150000201624
1708433689.0413306,-2.1444859504699707,-1.3345518869212647,-2.52674371400942,6.117663728981771,1.0174353122711182,-2.1754987875567835
1708433689.0433211,-2.144495964050293,-1.3345518869212647,-2.5267604033099573,6.117555963784017,1.0174381732940674,-2.175445858632223
1708433689.045313,-2.1444149017333984,-1.3345201176455994,-2.5267632643329065,6.117452847748556,1.0173962116241455,-2.1754172484027308
1708433689.0473497,-2.144362688064575,-1.3345365983298798,-2.5267677942859095,6.117368805199423,1.017487645149231,-2.1753976980792444
1708433689.0493429,-2.144334554672241,-1.33449541152034,-2.5267632643329065,6.117276179581442,1.0174500942230225,-2.1753695646869105
1708433689.0513184,-2.144299268722534,-1.3345005077174683,-2.5267182032214563,6.117156851082601,1.0174247026443481,-2.175370518361227
1708433689.0533404,-2.144258737564087,-1.3344920438579102,-2.5267542044269007,6.117073285370626,1.0174620151519775,-2.17535907426943
1708433689.055356,-2.144247055053711,-1.3344670993140717,-2.5267391840564173,6.117038595467367,1.0174083709716797,-2.1753390471087855
1708433689.0573633,-2.1442413330078125,-1.3345208925059815,-2.5267797152148646,6.1169564602668665,1.0174620151519775,-2.1752446333514612
1708433689.059364,-2.144134283065796,-1.334452049141266,-2.5267677942859095,6.1167724011238,1.0174620151519775,-2.175238911305563
1708433689.0613234,-2.1441850662231445,-1.33444436014209,-2.5267587343799036,6.116721737175741,1.0174999237060547,-2.1751893202411097
1708433689.0633185,-2.144103527069092,-1.3344648343375702,-2.5267677942859095,6.116682755738058,1.0175073146820068,-2.1752145926104944
1708433689.0653172,-2.144054651260376,-1.3344358962825318,-2.526794497166769,6.1165915606315515,1.0174953937530518,-2.1751607100116175
1708433689.0673232,-2.1440930366516113,-1.3343998950770875,-2.5267587343799036,6.116470324784078,1.0175073146820068,-2.175162140523092
1708433689.0693605,-2.1440324783325195,-1.3344364178231736,-2.5267825762378138,6.116415488510885,1.0174938440322876,-2.175175491963522
1708433689.071324,-2.14402437210083,-1.3344364327243348,-2.5267842451678675,6.116401660233297,1.0174938440322876,-2.1750972906695765
1708433689.0733175,-2.143968105316162,-1.3344245117953797,-2.5267422834979456,6.116288172989645,1.0175145864486694,-2.1750763098346155
1708433689.0753167,-2.1439809799194336,-1.334363804464676,-2.5267797152148646,6.116237270623007,1.017564058303833,-2.1750944296466272
1708433689.0773156,-2.1439290046691895,-1.334375725393631,-2.5267751852618616,6.116160976677694,1.0175011157989502,-2.175107781087057
1708433689.0793095,-2.1439208984375,-1.3343723577312012,-2.5267797152148646,6.116107451706686,1.0175297260284424,-2.175115410481588
1708433689.0813138,-2.14389705657959,-1.3343403798392792,-2.526827875767843,6.116008507996359,1.0175178050994873,-2.1750453154193323
1708433689.0833197,-2.1438493728637695,-1.334376500254013,-2.5267661253558558,6.115983235626974,1.0175672769546509,-2.175054375325338
1708433689.085311,-2.143829345703125,-1.334376500254013,-2.526811424885885,6.115832316666403,1.017513394355774,-2.175041977559225
1708433689.0873325,-2.1438255310058594,-1.3343565326980134,-2.526841465626852,6.11579321601943,1.017513394355774,-2.1750505606280726
1708433689.0893292,-2.1437735557556152,-1.3343807321837922,-2.526806894932882,6.115709531098165,1.0175416469573975,-2.1750133673297327
1708433689.0914023,-2.143777847290039,-1.3343445223620911,-2.526832405720846,6.115654575615682,1.017529845237732,-2.175062958394186
1708433689.0933323,-2.143756866455078,-1.3343493801406403,-2.526806894932882,6.11561547496871,1.0175583362579346,-2.174997154866354
1708433689.095376,-2.143754243850708,-1.334336594944336,-2.52686053911318,6.115527379303732,1.0175251960754395,-2.1750343481646937
1708433689.0973628,-2.143709182739258,-1.3343332272819062,-2.526785437260763,6.115467417031088,1.0175960063934326,-2.1750553289996546
1708433689.099371,-2.1436729431152344,-1.334317074423172,-2.526773516331808,6.115383732109823,1.0175824165344238,-2.1750105063067835
1708433689.1013641,-2.143627882003784,-1.3342844408801575,-2.526856247578756,6.115336167603292,1.0175371170043945,-2.1750767866717737
1708433689.103358,-2.1436338424682617,-1.33432890594516,-2.526806894932882,6.115246283798971,1.0175824165344238,-2.17503005663027
1708433689.1053479,-2.143601417541504,-1.3343005937388916,-2.526844326649801,6.115252125054159,1.0176031589508057,-2.175079647694723
1708433689.107374,-2.1435890197753906,-1.3342486780932923,-2.52682334581484,6.115184891014852,1.0175913572311401,-2.175082508717672
1708433689.1093266,-2.1435933113098145,-1.3342529100230713,-2.526844326649801,6.115123498230734,1.017577886581421,-2.1751392523394983
1708433689.111338,-2.143552541732788,-1.3342971366694947,-2.526818815861837,6.115090715676107,1.017594337463379,-2.1751278082477015
1708433689.1133728,-2.1435413360595703,-1.3342205745032807,-2.52682334581484,6.115041363030233,1.017606496810913,-2.175114456807272
1708433689.1153188,-2.143538475036621,-1.3342452210238953,-2.52682334581484,6.114986288338461,1.017606496810913,-2.1751425901996058
1708433689.11734,-2.14346981048584,-1.3342402142337342,-2.52682334581484,6.11491750457839,1.0175780057907104,-2.175141159688131
1708433689.119313,-2.143465518951416,-1.33420021951709,-2.52682334581484,6.1149353859718225,1.017594337463379,-2.17519456544985
1708433689.1213632,-2.1434502601623535,-1.3342613738826294,-2.5268517176257532,6.114883172302999,1.0176020860671997,-2.1751983801471155
1708433689.1233435,-2.143392562866211,-1.3341718179038544,-2.5268097559558313,6.11482189872817,1.0176228284835815,-2.1752265135394495
1708433689.1253438,-2.143378257751465,-1.3342418533614655,-2.5268142859088343,6.114733683853903,1.0176318883895874,-2.1752522627459925
1708433689.1273704,-2.143362045288086,-1.3342299324325104,-2.526820484791891,6.114700662880697,1.017585277557373,-2.175262753163473
1708433689.129365,-2.143362045288086,-1.3341853779605408,-2.526835266743795,6.114661919861593,1.017622947692871,-2.175357166920797
1708433689.1313443,-2.1433258056640625,-1.3342494529536744,-2.526835266743795,6.114651548653402,1.0176514387130737,-2.175368134175436
1708433689.1333508,-2.143301486968994,-1.3341853779605408,-2.5269013086902063,6.1145914671714685,1.0176184177398682,-2.175366226826803
1708433689.1353254,-2.143277645111084,-1.3341692251018067,-2.5268545786487024,6.114525902062216,1.0176184177398682,-2.1754429976092737
1708433689.1373482,-2.143320322036743,-1.334112749700882,-2.5268171469317835,6.1145973084266565,1.0176305770874023,-2.175561253224508
1708433689.1392968,-2.143303632736206,-1.3341527444175263,-2.5268591086017054,6.114488351136007,1.0176469087600708,-2.1755812803851526
1708433689.141317,-2.143254280090332,-1.3341527593186875,-2.5268471876727503,6.1144165871436975,1.0176546573638916,-2.1756604353534144
1708433689.1433375,-2.1432433128356934,-1.3341165345958252,-2.5268922487842005,6.114383804589071,1.0176048278808594,-2.1757705847369593
1708433689.1453073,-2.143226146697998,-1.3341250878623505,-2.5268755594836634,6.11433624008254,1.0176379680633545,-2.175816837941305
1708433689.1473238,-2.1432108879089355,-1.3341570657542725,-2.5268529097186487,6.114341842919149,1.0176334381103516,-2.1759055296527308
1708433689.149338,-2.1432154178619385,-1.334112749700882,-2.5269251505481165,6.114273059159078,1.0176830291748047,-2.1760056654559534
1708433689.1513205,-2.143195629119873,-1.3340804439834137,-2.5268710295306605,6.114196765213766,1.01767098903656,-2.1761258284198206
1708433689.153346,-2.1431350708007812,-1.3341051650098343,-2.5269041697131556,6.114163982659139,1.0176739692687988,-2.1762216726886194
1708433689.1553373,-2.143118381500244,-1.3340719801238556,-2.5268381277667444,6.1140832779701135,1.0176457166671753,-2.176408116017477
1708433689.157356,-2.143143653869629,-1.3341339987567444,-2.5269253889666956,6.114089357643881,1.0177037715911865,-2.176512066517965
1708433689.1593184,-2.1430652141571045,-1.334088997249939,-2.5268741289721888,6.1140503762061975,1.017723798751831,-2.1766393820392054
1708433689.1613126,-2.1430864334106445,-1.334094063644745,-2.526820246373312,6.114010083466329,1.0176904201507568,-2.176779095326559
1708433689.1633368,-2.143078327178955,-1.3340564233115693,-2.5268996397601526,6.113978493004598,1.017740249633789,-2.1769798437701624
1708433689.1653068,-2.1430399417877197,-1.3340529066375275,-2.5268996397601526,6.113905298500814,1.0177102088928223,-2.177119557057516
1708433689.1673248,-2.1430232524871826,-1.3340690594962616,-2.5268786589251917,6.113911258965292,1.0177103281021118,-2.177349869404928
1708433689.1693122,-2.1429989337921143,-1.3341221672347565,-2.5269537607776087,6.113847005158224,1.0177385807037354,-2.1774633566485804
1708433689.1712997,-2.1429543495178223,-1.3340733808330079,-2.526902739201681,6.113790023117819,1.0177385807037354,-2.177685562764303
1708433689.1733167,-2.1430234909057617,-1.3340280515006562,-2.5269492308246058,6.113733398705282,1.0177642107009888,-2.177852455769674
1708433689.175324,-2.1429872512817383,-1.3340776425651093,-2.5268786589251917,6.113760220795431,1.0177266597747803,-2.17804462114443
1708433689.1773496,-2.142951488494873,-1.3340422225049515,-2.526865069066183,6.11369143703536,1.0177340507507324,-2.178236786519186
1708433689.179324,-2.142977476119995,-1.3340336692384263,-2.526928249989645,6.113594281464376,1.0177597999572754,-2.178469483052389
1708433689.181318,-2.1429643630981445,-1.3340378564647217,-2.5269325415240687,6.113598930626669,1.017783761024475,-2.178702179585592
1708433689.18337,-2.1429483890533447,-1.3340336692384263,-2.526935640965597,6.113574969559469,1.0177748203277588,-2.1789353529559534
1708433689.1853209,-2.1428990364074707,-1.3340537262013932,-2.526926581059591,6.113482343941488,1.0177793502807617,-2.1791661421405237
1708433689.1873395,-2.142894744873047,-1.3340336692384263,-2.526931111012594,6.1134328720863245,1.017786979675293,-2.179441277180807
1708433689.1893418,-2.1429004669189453,-1.3340464991382142,-2.52698523203005,6.113464224129476,1.0177613496780396,-2.1796796957599085
1708433689.191306,-2.142876148223877,-1.3340422225049515,-2.526964251195089,6.113416659622946,1.0177736282348633,-2.1800149122821253
1708433689.1933484,-2.1428768634796143,-1.3340095442584534,-2.526947561894552,6.113392579346456,1.0178064107894897,-2.180182758961813
1708433689.195327,-2.142810821533203,-1.3340094995549698,-2.5269597212420862,6.113282310753622,1.0177944898605347,-2.1805055777179163
1708433689.1973703,-2.1427905559539795,-1.3339605641416092,-2.526938501988546,6.113258111267843,1.0178483724594116,-2.180788818989889
1708433689.1993356,-2.14280366897583,-1.3340795797160645,-2.526980463658468,6.113276111870565,1.0178394317626953,-2.181093994771139
1708433689.2013326,-2.142819404602051,-1.333952934747078,-2.5269597212420862,6.113248932152548,1.0178136825561523,-2.181410614644186
1708433689.2033596,-2.1427605152130127,-1.3339734089425583,-2.5269792715655726,6.113220917969503,1.0178754329681396,-2.181718651448385
1708433689.2053344,-2.1427180767059326,-1.333994300370552,-2.5269461313830774,6.113172995835104,1.0178422927856445,-2.182025734578268
1708433689.2073393,-2.1427197456359863,-1.334023417239525,-2.5269580523120325,6.113165247231283,1.01787531375885,-2.1824076811419886
1708433689.2093172,-2.142728328704834,-1.333945409660675,-2.5269580523120325,6.1131101725395105,1.0178619623184204,-2.182814900075094
1708433689.2113204,-2.142704486846924,-1.333994300370552,-2.5270121733294886,6.113036978035726,1.017911434173584,-2.1832082907306116
1708433689.2133832,-2.1426477432250977,-1.3339459610036393,-2.5269747416125696,6.112996566086569,1.017906904220581,-2.183525864277975
1708433689.2153223,-2.142672061920166,-1.3339181703380127,-2.526973072682516,6.112939822464742,1.0179277658462524,-2.1839216391192835
1708433689.2173548,-2.1426401138305664,-1.3339588952115555,-2.52702242532839,6.113027679711141,1.0179431438446045,-2.184347454701559
1708433689.2193594,-2.1425962448120117,-1.3339139086059113,-2.5270031134234827,6.112896430283346,1.0179312229156494,-2.18476373354067
1708433689.2213454,-2.142570972442627,-1.3339417737773438,-2.526994053517477,6.112869608193197,1.017959475517273,-2.1852458159076136
1708433689.2233748,-2.1425881385803223,-1.3339097213796158,-2.527057472859518,6.112857687264242,1.017926812171936,-2.1857031027423304
1708433689.2253146,-2.1425247192382812,-1.3339459610036393,-2.527055803929464,6.112817156105795,1.0180168151855469,-2.1861594359027308
1708433689.2273371,-2.142547607421875,-1.3338976961425324,-2.5270960966693323,6.112823235779562,1.0180001258850098,-2.1866191069232386
1708433689.2293153,-2.1425490379333496,-1.3339259040406723,-2.5270660559283655,6.112779962807455,1.0179669857025146,-2.187070671712057
1708433689.231308,-2.142508029937744,-1.333889127974846,-2.5270870367633265,6.112647878914633,1.0180199146270752,-2.1875770727740687
1708433689.233374,-2.142533302307129,-1.3338779223016282,-2.5271034876452845,6.112576591759481,1.0180153846740723,-2.1881635824786585
1708433689.2353408,-2.1424434185028076,-1.3339343529990693,-2.5270825068103235,6.112589943199911,1.0180362462997437,-2.1886747519122522
1708433689.2373283,-2.1424636840820312,-1.333898351793625,-2.5270496050464075,6.112570273667135,1.0180600881576538,-2.1892240683185022
1708433689.239331,-2.142472267150879,-1.3339224469712754,-2.5270825068103235,6.112552749901571,1.0180587768554688,-2.189735714589254
1708433689.2413425,-2.1424241065979004,-1.3338745099357148,-2.5271156469928187,6.112528669625082,1.0180754661560059,-2.1902554670916956
1708433689.243329,-2.1423959732055664,-1.3338864308646698,-2.527165238057272,6.112446534424581,1.0180665254592896,-2.190857712422506
1708433689.2453365,-2.142404556274414,-1.3338821691325684,-2.527106587086813,6.112365591316976,1.018082857131958,-2.1914294401751917
1708433689.2473917,-2.1423726081848145,-1.33391489208255,-2.527135197316305,6.112334120064535,1.0181353092193604,-2.1920116583453577
1708433689.2493186,-2.1423752307891846,-1.333861694937088,-2.527144257222311,6.112307655602255,1.0181565284729004,-2.1925628821002405
1708433689.2513213,-2.1423401832580566,-1.333846167927124,-2.527126137410299,6.112299906998434,1.0181715488433838,-2.1931751410113733
1708433689.2533317,-2.1423401832580566,-1.333894060259201,-2.527135197316305,6.112210142403402,1.0181910991668701,-2.1938088575946253
1708433689.255322,-2.1423163414001465,-1.3338583272746583,-2.527184549962179,6.112211692124166,1.018195629119873,-2.1944168249713343
1708433689.257376,-2.142305612564087,-1.3338583272746583,-2.52714711824526,6.112187969475546,1.018195629119873,-2.194989029561178
1708433689.2593453,-2.1422841548919678,-1.3338299852660676,-2.527138058339254,6.1121489880378626,1.0182316303253174,-2.1956141630755823
1708433689.261335,-2.1422619819641113,-1.3338821691325684,-2.5271998087512415,6.112057673722067,1.01826012134552,-2.1962907950030726
1708433689.2633684,-2.1422338485717773,-1.3338864308646698,-2.5272117296801966,6.112002360611715,1.018272042274475,-2.196969811116354
1708433689.2653708,-2.1421873569488525,-1.3339113009027024,-2.5272520224200647,6.112069833069601,1.0182676315307617,-2.1976001898394983
1708433689.2673273,-2.142204761505127,-1.3338299703649064,-2.5272610823260706,6.111959206848898,1.0183082818984985,-2.1983254591571253
1708433689.269347,-2.1421775817871094,-1.3339069497636338,-2.5272684733020228,6.111974227219381,1.0183202028274536,-2.199047867451803
1708433689.2713504,-2.1421570777893066,-1.333871142273285,-2.527238432561056,6.111875164299764,1.0183608531951904,-2.199808422719137
1708433689.2733734,-2.1421499252319336,-1.3338906478932877,-2.527259413396017,6.111872660904684,1.0183231830596924,-2.2005608717547815
1708433689.275335,-2.1420602798461914,-1.333834246998169,-2.527280871068136,6.111824619560995,1.0183969736099243,-2.201245133076803
1708433689.277338,-2.1420600414276123,-1.333846167927124,-2.527238432561056,6.111800420075216,1.018354892730713,-2.2020185629474085
1708433689.279358,-2.1420531272888184,-1.333833248620369,-2.5272701422320765,6.111793029099264,1.018376111984253,-2.202771011983053
1708433689.281322,-2.142054557800293,-1.333834246998169,-2.5272701422320765,6.111740815430441,1.018399953842163,-2.2035239378558558
1708433689.283336,-2.1420748233795166,-1.3338183772614975,-2.5272865931140345,6.111709344177999,1.0183982849121094,-2.204341236745016
1708433689.2853196,-2.142042398452759,-1.3338268113187333,-2.5273030439959925,6.1116524813468835,1.0184857845306396,-2.2051342169391077
1708433689.287345,-2.141993522644043,-1.3338106137565156,-2.5273075739489954,6.111572134285726,1.018496036529541,-2.2059629599200647
1708433689.2893302,-2.141953945159912,-1.3338150095990677,-2.5273435751544397,6.111577737122335,1.0184824466705322,-2.2068403402911585
1708433689.29132,-2.141908884048462,-1.333810643558838,-2.5273600260363978,6.11151813247756,1.0185322761535645,-2.207726780568258
1708433689.2933846,-2.1419262886047363,-1.333770365720131,-2.527363125477926,6.111494052201071,1.018622636795044,-2.2085493246661585
1708433689.29531,-2.1418867111206055,-1.3338027161410828,-2.527372185383932,6.111432659416952,1.018537998199463,-2.2094276587115687
1708433689.2973464,-2.141878128051758,-1.333786593084671,-2.527375046406881,6.1113730547721765,1.0186090469360352,-2.210304562245504
1708433689.2993157,-2.141871690750122,-1.333786593084671,-2.5274081865893763,6.111356723099508,1.0186164379119873,-2.2111204306231897
1708433689.3013473,-2.141818046569824,-1.3337499809316178,-2.5273614565478724,6.111319291382589,1.0186402797698975,-2.2119811216937464
1708433689.3033535,-2.141798496246338,-1.3337215644172211,-2.5274396578418177,6.111270177155294,1.0186357498168945,-2.212874237691061
1708433689.3053188,-2.1417789459228516,-1.3337984842113038,-2.527430597935812,6.111275779991903,1.0186645984649658,-2.213722530995504
1708433689.3073611,-2.1417462825775146,-1.3337343794158478,-2.527421538029806,6.111145841866293,1.0186692476272583,-2.214656654988424
1708433689.3093178,-2.1417295932769775,-1.3337746423533936,-2.527454439793722,6.111201393395223,1.0186928510665894,-2.2155287901507776
1708433689.311337,-2.1417031288146973,-1.333734394317009,-2.527500931416647,6.111081826477804,1.018705129623413,-2.216508690510885
1708433689.313341,-2.1416537761688232,-1.3337951016477128,-2.527479950581686,6.111034023552694,1.0187275409698486,-2.2174037138568323
1708433689.3153353,-2.1416501998901367,-1.3337627363255997,-2.527491871510641,6.111039626389303,1.0187652111053467,-2.2183459440814417
1708433689.3173578,-2.1416828632354736,-1.3338079762509842,-2.527546230946676,6.110971200257101,1.0187982320785522,-2.2192614714251917
1708433689.319323,-2.141610622406006,-1.3337104183486481,-2.5274952093707483,6.110845792084493,1.0187726020812988,-2.2202962080584925
1708433689.3213363,-2.141566038131714,-1.333754838710167,-2.5275326410876673,6.110912549286642,1.0188251733779907,-2.2211626211749476
1708433689.3233285,-2.141545057296753,-1.3337062460235138,-2.5275774637805384,6.110848533898153,1.018865704536438,-2.222128693257467
1708433689.3253422,-2.141566753387451,-1.3337756109288712,-2.5275474230395716,6.110816943436422,1.0189093351364136,-2.223092857991354
1708433689.3273785,-2.141493082046509,-1.333714799290039,-2.5275054613696497,6.110757338791647,1.018918514251709,-2.224038902913229
1708433689.3293324,-2.1414453983306885,-1.3336986017278214,-2.5275638739215296,6.11075113990859,1.0189470052719116,-2.2249382177936
1708433689.3313303,-2.14141845703125,-1.3336975884488602,-2.5275548140155237,6.11066900470809,1.0189213752746582,-2.2258790175067347
1708433689.3333528,-2.1414146423339844,-1.3337343645146866,-2.5275383631335657,6.110564338951864,1.0189815759658813,-2.226840321217672
1708433689.3353405,-2.141399383544922,-1.333706260924675,-2.5275819937335413,6.110568749695577,1.0190099477767944,-2.227741543446676
1708433689.3373995,-2.1413867473602295,-1.3336857569268723,-2.5276029745685022,6.110473263054647,1.0190294981002808,-2.2286885420428675
1708433689.339336,-2.1413140296936035,-1.333715797667839,-2.5276270548449915,6.110461342125692,1.0190372467041016,-2.2296465078936976
1708433689.3413484,-2.1413516998291016,-1.3337105375579377,-2.5276406447040003,6.110427129059591,1.0190658569335938,-2.23066217104067
1708433689.3433564,-2.141281843185425,-1.3336858016303559,-2.527623955403463,6.110357987671652,1.0190807580947876,-2.2316420714007776
1708433689.3453212,-2.14123797416687,-1.3336661917022248,-2.5276480356799524,6.110305893212118,1.0191469192504883,-2.2326253096209925
1708433689.3473365,-2.1412553787231445,-1.333702878361084,-2.527625385914938,6.1101806042488,1.0191259384155273,-2.233619515095846
1708433689.349338,-2.1412200927734375,-1.333690033560135,-2.527700487767355,6.110162246018209,1.0191333293914795,-2.234600845967428
1708433689.3513262,-2.1411924362182617,-1.3337386411479493,-2.527703348790304,6.11013816574172,1.0191618204116821,-2.2356274763690394
1708433689.3533525,-2.141167640686035,-1.3337071549943467,-2.527703348790304,6.1101159928138635,1.019211769104004,-2.236605469380514
1708433689.3553336,-2.1410911083221436,-1.3337275993875046,-2.5277367273913782,6.110035168915548,1.0192099809646606,-2.237647835408346
1708433689.3573816,-2.1411240100860596,-1.333702878361084,-2.5276852289782923,6.1099469540412805,1.0192673206329346,-2.238692108784811
1708433689.3593183,-2.141063690185547,-1.3336704981378098,-2.5276852289782923,6.109854447632589,1.019283652305603,-2.239770237599508
1708433689.36133,-2.140995740890503,-1.3336866807988663,-2.5277724901782435,6.109810936241903,1.0192821025848389,-2.2408021132098597
1708433689.363335,-2.140961170196533,-1.333618314271309,-2.5277798811541956,6.1097261784370325,1.0193347930908203,-2.2418716589557093
1708433689.3653178,-2.140895128250122,-1.333708108668663,-2.5277889410602015,6.10968707779006,1.0193045139312744,-2.2429469267474573
1708433689.3673441,-2.140900135040283,-1.3336711537889023,-2.52779204050173,6.109643685608663,1.0193873643875122,-2.2439430395709437
1708433689.3693056,-2.1408321857452393,-1.3336996001056214,-2.527766291295187,6.109510767250814,1.0193902254104614,-2.2449916044818323
1708433689.3713326,-2.1408162117004395,-1.3337114316276093,-2.527816120778219,6.109492528229513,1.0194220542907715,-2.2460816542254847
1708433689.3733459,-2.1408019065856934,-1.3337071549943467,-2.527785841618673,6.109421241074362,1.019466757774353,-2.247072998677389
1708433689.3753204,-2.1407482624053955,-1.333670513038971,-2.527823511754171,6.109314667969503,1.01947021484375,-2.2481516043292444
1708433689.3773296,-2.140676975250244,-1.3336995852044602,-2.5278518835650843,6.109277236252584,1.0194865465164185,-2.2492507139789026
1708433689.3793273,-2.1406211853027344,-1.3336824190667649,-2.527883593236105,6.109159457474508,1.019498586654663,-2.250305477772848
1708433689.3813286,-2.1406097412109375,-1.3336420369199296,-2.527881924306051,6.109093296318807,1.0195014476776123,-2.251465145741598
1708433689.3833354,-2.140517234802246,-1.333703876738884,-2.527907435094015,6.108996379166403,1.0195509195327759,-2.2524831930743616
1708433689.3853161,-2.140493869781494,-1.3336430352977295,-2.527874533330099,6.108933794289388,1.019578218460083,-2.253535572682516
1708433689.3873518,-2.140375852584839,-1.3336704981378098,-2.527881924306051,6.108817326813497,1.0195978879928589,-2.2546003500567835
1708433689.3893285,-2.1403720378875732,-1.3336840283921738,-2.527926746998922,6.108777868538656,1.0196563005447388,-2.255632225667135
1708433689.3913457,-2.140313148498535,-1.33366251111541,-2.5279296080218714,6.108649599343099,1.0196292400360107,-2.256678883229391
1708433689.393395,-2.1402697563171387,-1.3336377453855057,-2.5279884974109095,6.108549582749166,1.0196698904037476,-2.2576573530780237
1708433689.3953295,-2.1401615142822266,-1.3336463135531922,-2.528031889592306,6.108544814377584,1.0197105407714844,-2.2586825529681605
1708433689.3973389,-2.1401255130767822,-1.3336995852044602,-2.527982298527853,6.108366834908285,1.0197374820709229,-2.259798828755514
1708433689.3993387,-2.1400299072265625,-1.3336952191642304,-2.528010908757345,6.108274566918173,1.0197628736495972,-2.2608211676227015
1708433689.4013307,-2.1399731636047363,-1.333650679593422,-2.5280469099627894,6.1081594107444666,1.019831895828247,-2.2618420759784144
1708433689.4033697,-2.139907121658325,-1.333720089202263,-2.5280633608447474,6.1080888388450525,1.0198519229888916,-2.262939755116598
1708433689.4053745,-2.139915943145752,-1.3336344969323655,-2.5280707518206995,6.10803376415328,1.0198094844818115,-2.2639806906329554
1708433689.407368,-2.1397995948791504,-1.3336225611022492,-2.5280993620501917,6.107890236168661,1.0198547840118408,-2.2650063673602503
1708433689.4093072,-2.1396985054016113,-1.333647297029831,-2.528123442326681,6.1077273962791345,1.0199161767959595,-2.266008202229635
1708433689.4113805,-2.1396470069885254,-1.3336833876422425,-2.528139893208639,6.107632863312521,1.0199360847473145,-2.2670376936541956
1708433689.4133368,-2.1395418643951416,-1.333703876738884,-2.5281806627856653,6.107510554581442,1.0199345350265503,-2.2680705229388636
1708433689.4153235,-2.139484405517578,-1.33366251111541,-2.5281880537616175,6.107360946923055,1.0199463367462158,-2.2691968123065394
1708433689.417367,-2.1393916606903076,-1.3336790067008515,-2.5281534830676478,6.1072744009788416,1.0200412273406982,-2.270191017781393
1708433689.419311,-2.1392910480499268,-1.333690957432129,-2.5282447973834437,6.107154953270712,1.020039439201355,-2.271275822316305
1708433689.4213228,-2.139146566390991,-1.33368335783992,-2.528202835713522,6.106954204827108,1.0200378894805908,-2.2723916212665003
1708433689.4233265,-2.139108180999756,-1.3336668771556397,-2.52826434770693,6.106827485352316,1.0200668573379517,-2.273477379475729
1708433689.425341,-2.1390039920806885,-1.3336790365031739,-2.528234306965963,6.106796014099874,1.020102858543396,-2.274471108113424
1708433689.4273949,-2.138915777206421,-1.3336952191642304,-2.5283003489123743,6.106637346535482,1.0201311111450195,-2.2754743734942835
1708433689.4293249,-2.1387510299682617,-1.3336539578488846,-2.5283153692828577,6.1064162133033655,1.0202454328536987,-2.276487652455465
1708433689.431379,-2.1386735439300537,-1.333703876738884,-2.528360430394308,6.106329548149862,1.0202274322509766,-2.277546230946676
1708433689.4333818,-2.1385886669158936,-1.3337081682733078,-2.528400723134176,6.106176006584921,1.0202183723449707,-2.2785270849811
1708433689.4353042,-2.138460874557495,-1.333662526016571,-2.5283780733691614,6.1059321043785,1.0202707052230835,-2.27958327928652
1708433689.4373465,-2.138326406478882,-1.3336995852044602,-2.5284324328051966,6.1058480618293665,1.0203418731689453,-2.280645195637838
1708433689.4393198,-2.1382594108581543,-1.333653987651207,-2.528451744710104,6.105655419617452,1.0202981233596802,-2.28172475496401
1708433689.441326,-2.1380972862243652,-1.3336790216020127,-2.528496805821554,6.105431544571676,1.0204092264175415,-2.282731358204977
1708433689.4433298,-2.137965679168701,-1.3336747300675889,-2.528487745915548,6.1052801487739465,1.0204001665115356,-2.283738676701681
1708433689.4453232,-2.137834072113037,-1.3336704832366486,-2.5285118261920374,6.105064856797018,1.0204031467437744,-2.2847355047809046
1708433689.4473326,-2.137747287750244,-1.3336747747710724,-2.5285356680499476,6.104852783470907,1.0204275846481323,-2.2857263723956507
1708433689.4493248,-2.137559175491333,-1.3337319654277344,-2.5286076704608362,6.10464500167922,1.0205143690109253,-2.2867475191699427
1708433689.4513316,-2.137427806854248,-1.3337028634599228,-2.5285657087909144,6.1044925329978845,1.020520567893982,-2.2876551787005823
1708433689.4533296,-2.137284278869629,-1.3336781126311799,-2.5286319891559046,6.104259359627523,1.0205986499786377,-2.288654629384176
1708433689.4553094,-2.1371004581451416,-1.3336943548968812,-2.528646771107809,6.104067909508505,1.0206421613693237,-2.289557997380392
1708433689.4573362,-2.13698148727417,-1.333722473388054,-2.528687063847677,6.103840696602621,1.0206584930419922,-2.290565315877096
1708433689.4593453,-2.136801242828369,-1.3337267351201554,-2.5287488142596644,6.103646623879232,1.0206648111343384,-2.2914848963366907
1708433689.461356,-2.1366047859191895,-1.3337105077556153,-2.5287066141711634,6.1034432528312585,1.02067232131958,-2.2923315207110804
1708433689.463331,-2.136425733566284,-1.3337181967547913,-2.52879244485964,6.103166568070211,1.0207417011260986,-2.2933695952044886
1708433689.4653096,-2.1362578868865967,-1.3338080656579514,-2.528741184865133,6.1030006287391565,1.0207985639572144,-2.294339720402853
1708433689.4673793,-2.136098623275757,-1.3337832999280472,-2.5287981669055384,6.102691399842062,1.02082097530365,-2.2953012625323694
1708433689.469317,-2.135923385620117,-1.333749921326973,-2.52885085741152,6.102419006615438,1.020890474319458,-2.2962504068957728
1708433689.471317,-2.1357357501983643,-1.3337985140136261,-2.52889854112734,6.10217713096694,1.020950198173523,-2.297152821217672
1708433689.4733362,-2.1355535984039307,-1.3338149946979065,-2.5289257208453577,6.101913916855612,1.0210148096084595,-2.298116985951559
1708433689.475314,-2.135267972946167,-1.3338268411210557,-2.528945032750265,6.101683962136068,1.0210180282592773,-2.299033228551046
1708433689.4773607,-2.1350607872009277,-1.333822564487793,-2.529044214879171,6.101417290955343,1.0210421085357666,-2.2999406496631067
1708433689.4793196,-2.1348860263824463,-1.3338831973126908,-2.529072348271505,6.101052987366476,1.0211114883422852,-2.3009348551379603
1708433689.48135,-2.1346747875213623,-1.3339234006455918,-2.529074255620138,6.100769269257345,1.0211666822433472,-2.3019264380084437
1708433689.483348,-2.134390354156494,-1.3339558404735108,-2.529119078313009,6.100469577103414,1.0211985111236572,-2.302825991307394
1708433689.4853287,-2.1342029571533203,-1.333958850508072,-2.5291717688189905,6.100154626160421,1.0212631225585938,-2.303696934376852
1708433689.4873624,-2.1339597702026367,-1.3339459610036393,-2.52921969095339,6.099861490517416,1.0213139057159424,-2.3046844641314905
1708433689.4893162,-2.1337242126464844,-1.3339863580516358,-2.5292869249926966,6.09955512264327,1.0213996171951294,-2.305620257054464
1708433689.4913325,-2.133416175842285,-1.3339933168939133,-2.529351536427633,6.0991248963172815,1.0214314460754395,-2.3065620104419153
1708433689.4933481,-2.133230209350586,-1.3340464544347306,-2.5294161478625696,6.098850953369894,1.0215394496917725,-2.3074379603015345
1708433689.495315,-2.132892608642578,-1.3340579879334946,-2.529468599949972,6.098538625031271,1.0215710401535034,-2.308312002812521
1708433689.4973834,-2.1326584815979004,-1.3340506267598649,-2.5294790903674524,6.098187434464254,1.021626591682434,-2.309171740208761
1708433689.4993272,-2.132399082183838,-1.3340453219464798,-2.529563013707296,6.097817766457357,1.0217199325561523,-2.3100901285754603
1708433689.501358,-2.132103443145752,-1.3341496300748368,-2.5296769777881067,6.09741889217452,1.021763563156128,-2.3110948244677942
1708433689.5033693,-2.131795644760132,-1.3341453832438965,-2.529675547276632,6.097036587982931,1.0219017267227173,-2.311929527913229
1708433689.5053282,-2.131427526473999,-1.3342426282218476,-2.529780689870016,6.096625196724691,1.0218701362609863,-2.312793795262472
1708433689.5074012,-2.131136894226074,-1.334217132335045,-2.5298283735858362,6.096288907318868,1.0220251083374023,-2.3137574831592005
1708433689.5093236,-2.130805730819702,-1.3343098622611542,-2.5299156347857874,6.095877754479208,1.0220715999603271,-2.3146331946002405
1708433689.5113413,-2.1304712295532227,-1.3343254935792466,-2.5299678484546106,6.0954370377357385,1.0221737623214722,-2.3154805342303675
1708433689.5133836,-2.1301052570343018,-1.3343254786780854,-2.5300639311419886,6.0950976488883875,1.0221993923187256,-2.316378180180685
1708433689.5153124,-2.129783868789673,-1.334380717282631,-2.5301149527179163,6.094628560334005,1.0223586559295654,-2.3172112146960657
1708433689.517371,-2.129406452178955,-1.3344049614718934,-2.530241076146261,6.094124662667074,1.022425889968872,-2.3180483023272913
1708433689.5193114,-2.129000663757324,-1.3344698709300538,-2.530294958745138,6.093686687737264,1.02252995967865,-2.3188777605639856
1708433689.5213373,-2.1286463737487793,-1.3344766360572358,-2.5304134527789515,6.093174087792196,1.0226424932479858,-2.319686476384298
1708433689.5233731,-2.128241777420044,-1.3345125031522294,-2.5304957071887415,6.092762577324667,1.022760033607483,-2.3204918543445032
1708433689.5253434,-2.1278727054595947,-1.3345484596541901,-2.5306459108935755,6.0922560570533655,1.0228471755981445,-2.321240011845724
1708433689.5273893,-2.127394437789917,-1.3345960986665268,-2.5307088533984583,6.091789352684774,1.0229177474975586,-2.3220213095294397
1708433689.5293422,-2.1270298957824707,-1.3346806329539795,-2.530783716832296,6.091221320420065,1.0230439901351929,-2.3228707949267786
1708433689.5313463,-2.1265857219696045,-1.334695891743042,-2.530900780354635,6.090796935349264,1.0231596231460571,-2.3236594835864466
1708433689.5333295,-2.126162528991699,-1.3347070825150986,-2.5310326258288782,6.090313780098715,1.0232815742492676,-2.324432675038473
1708433689.5353086,-2.125744342803955,-1.3348199141076584,-2.5311408678637903,6.089766728668966,1.0233925580978394,-2.325233284627096
1708433689.5373564,-2.1252806186676025,-1.3348309856704255,-2.5312441031085413,6.089310991555013,1.023529291152954,-2.32600981393923
1708433689.5393448,-2.1248581409454346,-1.3349035841277619,-2.531386915837423,6.088685261994161,1.0236073732376099,-2.3267744223224085
1708433689.5413496,-2.1244077682495117,-1.334971160893776,-2.5314481894122522,6.088191735535421,1.02375328540802,-2.327552382146017
1708433689.5433402,-2.1238842010498047,-1.3350187701037903,-2.5316532293902796,6.087601291924276,1.023902177810669,-2.3283215204821985
1708433689.545302,-2.1234378814697266,-1.335046337251999,-2.531710449849264,6.0869871256645105,1.0240087509155273,-2.329066340123312
1708433689.547355,-2.1228859424591064,-1.3351580214551468,-2.5319176355945032,6.08642207363204,1.0241994857788086,-2.329883639012472
1708433689.549323,-2.1223630905151367,-1.3352424514344712,-2.532038990651266,6.08593915680007,1.0243183374404907,-2.3306480089770716
1708433689.551309,-2.121920347213745,-1.335301623945572,-2.532205406819479,6.085306632309713,1.024470329284668,-2.331359926854269
1708433689.5533462,-2.1213438510894775,-1.335345358853676,-2.5322952906238,6.08472632148818,1.024599313735962,-2.3321831862079065
1708433689.5553238,-2.1208722591400146,-1.335465447311737,-2.5324888865100306,6.084092843323507,1.0247223377227783,-2.3329508940326136
1708433689.5573635,-2.1203365325927734,-1.335500718360283,-2.5326688925372522,6.083462345391073,1.0249329805374146,-2.333684031163351
1708433689.5593176,-2.119744300842285,-1.3356492680362244,-2.5328381697284144,6.082792746811666,1.0250804424285889,-2.3344813028918665
1708433689.5613098,-2.119121789932251,-1.3357618612102051,-2.532959763203756,6.082110988884725,1.0252816677093506,-2.335213009511129
1708433689.5633585,-2.118563175201416,-1.335873232488968,-2.5331605116473597,6.0814260123069666,1.0254909992218018,-2.3359952608691614
1708433689.5653222,-2.1179721355438232,-1.3359559637359162,-2.5333662668811243,6.080690729409017,1.0256738662719727,-2.336752239857809
1708433689.5673697,-2.1173787117004395,-1.3360803437284012,-2.533525053654806,6.0801031468208215,1.0259087085723877,-2.3374808470355433
1708433689.569334,-2.116795778274536,-1.3361960363439103,-2.533728901539938,6.079406726151266,1.0260710716247559,-2.3382063547717493
1708433689.571327,-2.1161203384399414,-1.3363069605878373,-2.5338731447802942,6.078757869988241,1.026251196861267,-2.3388899008380335
1708433689.573346,-2.1155145168304443,-1.336426169877388,-2.534088913594381,6.078027474671163,1.0264390707015991,-2.339651648198263
1708433689.5753179,-2.1147894859313965,-1.3365176034024735,-2.534292523060934,6.077371108322897,1.0266674757003784,-2.3404343763934534
1708433689.577334,-2.114135980606079,-1.3366620403579255,-2.5345705191241663,6.076608407288351,1.0269469022750854,-2.34117299715151
1708433689.5793097,-2.1134116649627686,-1.3368093532374878,-2.5347774664508265,6.075840103417196,1.027136206626892,-2.341912094746725
1708433689.581338,-2.112675428390503,-1.3369082671454926,-2.5349722544299524,6.074966895371237,1.0274441242218018,-2.3425868193255823
1708433689.5833845,-2.1119790077209473,-1.3371037405780335,-2.5352333227740687,6.074231970101156,1.0276472568511963,-2.343398396168844
1708433689.5853198,-2.111229181289673,-1.3372360330871125,-2.5354822317706507,6.073511588364401,1.0279072523117065,-2.3440845648394983
1708433689.5873477,-2.110504627227783,-1.3373592358878632,-2.535717550908224,6.072664248734274,1.028126835823059,-2.344826046620504
1708433689.5893567,-2.109783411026001,-1.3374982190183182,-2.5360026995288294,6.071880447655477,1.0283793210983276,-2.3456340471850794
1708433689.5913453,-2.1089670658111572,-1.3376339983991166,-2.5362876097308558,6.071067917137899,1.0286650657653809,-2.346275870000021
1708433689.5933473,-2.1081433296203613,-1.337818206553795,-2.53654390970339,6.070275890618124,1.0290275812149048,-2.3470502535449427
1708433689.595361,-2.107330322265625,-1.3379859042218705,-2.5367522875415247,6.069336044579305,1.029261827468872,-2.347844902669088
1708433689.597353,-2.106504440307617,-1.3382063669017334,-2.5371485392199915,6.068477380066671,1.029614806175232,-2.3485000769244593
1708433689.599335,-2.105639696121216,-1.3383725595525284,-2.537410561238424,6.067655312805929,1.029964804649353,-2.349248711262838
1708433689.6013324,-2.104741334915161,-1.3385487508824845,-2.537743870412008,6.066751348763265,1.03024423122406,-2.3499284426318567
1708433689.6033487,-2.1038572788238525,-1.3387649667314072,-2.538043800984518,6.065905916481771,1.03053617477417,-2.3506158033954065
1708433689.605343,-2.1029794216156006,-1.338878260259964,-2.5383670965777796,6.065015899925985,1.0308818817138672,-2.3512876669513147
1708433689.6073477,-2.1020262241363525,-1.3390650761178513,-2.5386293570147913,6.064114439278402,1.0312107801437378,-2.3519910017596644
1708433689.6093287,-2.1010916233062744,-1.339293436413147,-2.5390613714801233,6.0632914183433435,1.0315792560577393,-2.3527243773089808
1708433689.6113307,-2.1001667976379395,-1.33950528622184,-2.539321009312765,6.062279689102926,1.0320221185684204,-2.3534162680255335
1708433689.6134121,-2.0991721153259277,-1.3397485476783295,-2.5397451559649866,6.061239945679464,1.032360553741455,-2.3542259375201624
1708433689.6153176,-2.09820294380188,-1.3399151277593155,-2.5401621500598353,6.060294616013326,1.0327662229537964,-2.3549252192126673
1708433689.6173522,-2.097181558609009,-1.340150610809662,-2.540459458027975,6.0593628762061975,1.0331635475158691,-2.3556187788592737
1708433689.6193414,-2.096156120300293,-1.3403782111457367,-2.5408430735217493,6.058389055519857,1.033515453338623,-2.3563149611102503
1708433689.6213288,-2.0951130390167236,-1.3406468045762558,-2.5411909262286585,6.057389485626974,1.0339735746383667,-2.3571487108813685
1708433689.6233382,-2.0940840244293213,-1.3408532452634354,-2.5416317621814173,6.056330668717184,1.034308910369873,-2.3578763643847864
1708433689.6253448,-2.093047857284546,-1.3411369335702439,-2.542053524647848,6.0553109524543665,1.0347838401794434,-2.3585966269122522
1708433689.6273832,-2.09185528755188,-1.34138377130542,-2.542455498372213,6.05420337894515,1.0352329015731812,-2.3593838850604456
1708433689.6293254,-2.090761661529541,-1.3416261833957215,-2.5429039637195032,6.053143965988912,1.0357319116592407,-2.3600881735431116
1708433689.6313252,-2.0896363258361816,-1.3419011247209092,-2.5433643499957483,6.052030908852377,1.036224603652954,-2.360913340245382
1708433689.6333349,-2.088494300842285,-1.342192293410637,-2.543800417576925,6.0508930561836145,1.0366895198822021,-2.361619297658102
1708433689.6353328,-2.0873734951019287,-1.3425000470927735,-2.5442686716662806,6.049751984864034,1.0371568202972412,-2.3623955885516565
1708433689.6373458,-2.086200475692749,-1.342758671646454,-2.5447662512408655,6.048611509590902,1.0376096963882446,-2.3632381598102015
1708433689.6393268,-2.0849783420562744,-1.343057782655098,-2.545258347188131,6.047458398133077,1.038172721862793,-2.3640382925616663
1708433689.6413524,-2.08382511138916,-1.3432958585074921,-2.5456929842578333,6.046341049462118,1.0386873483657837,-2.364826265965597
1708433689.6433442,-2.0825958251953125,-1.3437054616263886,-2.546225372944967,6.04520212390975,1.039285659790039,-2.3656187693225306
1708433689.645367,-2.0813260078430176,-1.3440034103444596,-2.5466960112201136,6.043922650605001,1.0397510528564453,-2.366431538258688
1708433689.6473567,-2.080045700073242,-1.3443380755237122,-2.5472853819476526,6.042771684914388,1.0403326749801636,-2.3672218958484095
1708433689.649339,-2.0788042545318604,-1.3446577948382874,-2.547882382069723,6.041532623558798,1.040898323059082,-2.3680949846850794
1708433689.6513095,-2.077467441558838,-1.344921962623932,-2.5483649412738245,6.040257918625631,1.041505217552185,-2.3689642588244837
1708433689.6533422,-2.0762014389038086,-1.3453274679235,-2.548945490513937,6.039070474892416,1.0420762300491333,-2.3697601000415247
1708433689.655309,-2.074859142303467,-1.3456456673196335,-2.5495453516589563,6.0378702757652185,1.0426335334777832,-2.3705509344684046
1708433689.6573372,-2.0735483169555664,-1.3459874105504532,-2.5501087347613733,6.036603915482321,1.043246865272522,-2.3713465372668665
1708433689.6593122,-2.0721843242645264,-1.3463596415570755,-2.5507009665118616,6.035426842957296,1.0438213348388672,-2.3721535841571253
1708433689.6613364,-2.0708723068237305,-1.3466817301562806,-2.55121094385256,6.034188139229574,1.044398546218872,-2.3730486075030726
1708433689.6633523,-2.0695207118988037,-1.3469724518111725,-2.5518813768969935,6.0330132124717615,1.0450040102005005,-2.373864237462179
1708433689.665345,-2.0681262016296387,-1.3473316592029114,-2.55251390138735,6.0317656872566126,1.0456621646881104,-2.374716583882467
1708433689.667366,-2.0666706562042236,-1.3476818662932892,-2.5531321207629603,6.030530440598287,1.046328067779541,-2.3756170908557337
1708433689.6693485,-2.065217971801758,-1.348061056142189,-2.553837601338522,6.029261576920309,1.0469924211502075,-2.3765092531787317
1708433689.6713343,-2.0637664794921875,-1.3484108609012146,-2.554448191319601,6.027956235199728,1.0476899147033691,-2.377406422291891
1708433689.6733568,-2.062288999557495,-1.3488231164268036,-2.555124346409933,6.026586520462789,1.0484216213226318,-2.378286902104513
1708433689.6753263,-2.060786247253418,-1.3491895210793992,-2.5557718912707728,6.025319683342733,1.0490268468856812,-2.3791707197772425
1708433689.6773596,-2.059314250946045,-1.3495765191367646,-2.556497637425558,6.023947942047872,1.0496524572372437,-2.3800302187549036
1708433689.679326,-2.057854652404785,-1.3499398243478318,-2.5570979754077356,6.0226948139961145,1.0503015518188477,-2.3808332125293177
1708433689.6813445,-2.056352138519287,-1.3503093284419556,-2.5578349272357386,6.0212920782859705,1.0509757995605469,-2.3818047682391565
1708433689.6833305,-2.0548205375671387,-1.3506878924420853,-2.5585501829730433,6.019964325218954,1.0516583919525146,-2.382646624241964
1708433689.6853163,-2.053203821182251,-1.3510779005340119,-2.5593000094043177,6.018507468491354,1.0524423122406006,-2.3834996859179896
1708433689.6873724,-2.051589250564575,-1.3515244883349915,-2.56008226076235,6.017133223801412,1.0532515048980713,-2.38440448442568
1708433689.6893272,-2.0500376224517822,-1.3519838911345978,-2.5607808271991175,6.015754449158468,1.0541362762451172,-2.3853493372546595
1708433689.691323,-2.048405885696411,-1.3524670761874695,-2.561621967946188,6.0143247721488855,1.0549683570861816,-2.3862977663623255
1708433689.69335,-2.0468239784240723,-1.3528445673039933,-2.56238824525942,6.012969124108114,1.0557245016098022,-2.387158457432882
1708433689.6953442,-2.0451927185058594,-1.3533235353282471,-2.563140932713644,6.011564481049337,1.056423544883728,-2.3881493250476282
1708433689.6973307,-2.0435791015625,-1.3537507516196747,-2.563953701649801,6.010087239533224,1.0572848320007324,-2.3890391031848353
1708433689.6993232,-2.041916608810425,-1.354209230547287,-2.5647223631488245,6.008699404984274,1.0580475330352783,-2.39007813135256
1708433689.7013402,-2.0401599407196045,-1.3546271932176133,-2.565589729939596,6.007333147316732,1.0589072704315186,-2.391043249760763
1708433689.7033944,-2.038451671600342,-1.3551217031529923,-2.5665248076068323,6.005753028183737,1.0598154067993164,-2.3920145670520228
1708433689.7053301,-2.036717176437378,-1.3556357336095353,-2.56737190881838,6.004257190018453,1.0607128143310547,-2.393040482197897
1708433689.7073443,-2.0349907875061035,-1.3561795067838212,-2.5682554880725306,6.002768981247701,1.0615649223327637,-2.3940349260913294
1708433689.7093277,-2.0333006381988525,-1.3566642713597794,-2.569090191517965,6.00133894661025,1.0624299049377441,-2.3950637022601526
1708433689.711342,-2.031550407409668,-1.3571783018163224,-2.570024077092306,5.999881493836202,1.0633004903793335,-2.396101776753561
1708433689.713322,-2.029858112335205,-1.3576765370419999,-2.570874039326803,5.998422372132101,1.0641953945159912,-2.3970964590655726
1708433689.715335,-2.0281362533569336,-1.3582394880107422,-2.5718279520617884,5.996905910759725,1.0650360584259033,-2.398144070302145
1708433689.7173467,-2.026336193084717,-1.3587293338826676,-2.5727232138263147,5.995354759484091,1.0659425258636475,-2.399273697529928
1708433689.7193415,-2.024517297744751,-1.3592717957547684,-2.573659960423605,5.9938169596488855,1.0669176578521729,-2.400346819554464
1708433689.7213326,-2.022717237472534,-1.3597975683263321,-2.574557606373922,5.992195355683126,1.0678684711456299,-2.4014342466937464
1708433689.7233572,-2.0208523273468018,-1.3603837204030533,-2.575500551854269,5.990621793061056,1.0688831806182861,-2.402503315602438
1708433689.7253497,-2.0189998149871826,-1.360886113052704,-2.5764694849597376,5.989066588669576,1.0698877573013306,-2.40361196199526
1708433689.7273715,-2.0171430110931396,-1.3614894908717652,-2.577503029500143,5.987522589951315,1.070901870727539,-2.404731575642721
1708433689.729368,-2.0152499675750732,-1.3619980078986664,-2.5784650484668177,5.985839354782858,1.071934461593628,-2.405872646962301
1708433689.7313309,-2.013392925262451,-1.362527997498848,-2.579404894505636,5.984314548760214,1.0728775262832642,-2.40704590479006
1708433689.7333734,-2.0114328861236572,-1.3630628001740952,-2.580479447041647,5.982712375908651,1.073923945426941,-2.4082258383380335
1708433689.7353773,-2.009528875350952,-1.3636896175197144,-2.5814946333514612,5.981164324074545,1.074967384338379,-2.409424130116598
1708433689.7373505,-2.0074970722198486,-1.3642504078200837,-2.5825801531421106,5.979512560158529,1.0760395526885986,-2.4105876127826136
1708433689.739335,-2.0055320262908936,-1.3648900997689744,-2.583620850239889,5.977832782059469,1.077052116394043,-2.411722008381979
1708433689.7413402,-2.003535509109497,-1.3654139202884217,-2.5846949259387415,5.976256000786581,1.0780750513076782,-2.4129446188556116
1708433689.74338,-2.0015738010406494,-1.3660112035325547,-2.5857837835894983,5.97459505775527,1.0791362524032593,-2.4141090551959437
1708433689.7453275,-1.9995934963226318,-1.3665979516557236,-2.5868893305407923,5.973030912667074,1.080121636390686,-2.4152045885669153
1708433689.7473373,-1.9975374937057495,-1.367180199628212,-2.587954346333639,5.971480357437887,1.0811712741851807,-2.4164307753192347
1708433689.749362,-1.9955891370773315,-1.367761881356575,-2.5891268889056605,5.969872224121847,1.0821584463119507,-2.417593065892355
1708433689.751325,-1.993512511253357,-1.3683603715947648,-2.590213123952047,5.968326318054952,1.0832417011260986,-2.4188194910632532
1708433689.75338,-1.991431474685669,-1.3689909887364884,-2.5913925806628626,5.966633546143331,1.0843029022216797,-2.42011005083193
1708433689.755325,-1.9892222881317139,-1.3696042907289048,-2.5926080385791224,5.964988934784689,1.0854130983352661,-2.4213393370257776
1708433689.757351,-1.9871349334716797,-1.3702382159284134,-2.593764368687765,5.963283526688375,1.0865999460220337,-2.4226089159594935
1708433689.7593253,-1.9849867820739746,-1.3709002000144501,-2.594947878514425,5.961670386582174,1.0877282619476318,-2.423887077962057
1708433689.7613218,-1.982852816581726,-1.3714084190181275,-2.596147362385885,5.959959614067831,1.0887820720672607,-2.425154511128561
1708433689.7633183,-1.9808144569396973,-1.3720217806151886,-2.5973578135119837,5.958316075592794,1.089911699295044,-2.426481072102682
1708433689.765311,-1.9786696434020996,-1.3726573151401062,-2.598564926777975,5.956662642746725,1.0909898281097412,-2.4277902285205286
1708433689.7673383,-1.9765450954437256,-1.373278708463051,-2.599734369908468,5.954949128418722,1.0921061038970947,-2.42912727991213
1708433689.7693412,-1.9744665622711182,-1.3739133489182969,-2.600968662892477,5.953302371292867,1.0932199954986572,-2.430431906376974
1708433689.7713187,-1.972401738166809,-1.374551610355713,-2.6021533648120325,5.95164571979598,1.0943243503570557,-2.4317572752581995
1708433689.7733815,-1.970231533050537,-1.375162662272789,-2.6033952871905726,5.949976312905111,1.0954232215881348,-2.4330509344684046
1708433689.7753723,-1.9681328535079956,-1.3758226198009034,-2.604647938405172,5.948379862099447,1.0965635776519775,-2.4344168345080774
1708433689.7773252,-1.9660439491271973,-1.3765179526856919,-2.6058691183673304,5.946596729546346,1.097751498222351,-2.4358044306384485
1708433689.779328,-1.9639039039611816,-1.3771513414433976,-2.607086722050802,5.944865333824911,1.0988835096359253,-2.437230888997213
1708433689.7813213,-1.9617396593093872,-1.3778231602958222,-2.6083832422839563,5.94314585903243,1.100095510482788,-2.438638512288229
1708433689.7833517,-1.959579586982727,-1.3784000438502808,-2.6095622221576136,5.941459166794576,1.101235032081604,-2.440007273350851
1708433689.785335,-1.957383632659912,-1.3790345054915925,-2.6108623186694544,5.939820277481832,1.1023789644241333,-2.441380325947897
1708433689.7873507,-1.9552549123764038,-1.379718617802002,-2.612136427556173,5.938152658730306,1.1035752296447754,-2.44275671640505
1708433689.7893567,-1.9530999660491943,-1.3804722440293808,-2.613312307988302,5.936525690346517,1.1047166585922241,-2.4441350142108362
1708433689.7913227,-1.9509327411651611,-1.3810444933227082,-2.614574972783224,5.93489550331191,1.1058722734451294,-2.445448939000265
1708433689.7933326,-1.948798656463623,-1.3817313623479386,-2.615912739430563,5.933219301491537,1.1069834232330322,-2.4467864672290247
1708433689.7953143,-1.9465819597244263,-1.3824706238559266,-2.61719257036318,5.931473243027487,1.1081573963165283,-2.4482184092151087
1708433689.7973282,-1.9443827867507935,-1.3831865054420014,-2.6185575167285364,5.929739939957418,1.109408974647522,-2.449625794087545
1708433689.7993402,-1.94217050075531,-1.3839135330966492,-2.619892422352926,5.9280437109764,1.1106257438659668,-2.45099121729006
1708433689.8013535,-1.93999183177948,-1.3845788550427933,-2.621248785649435,5.92628179767684,1.111681342124939,-2.452366892491476
1708433689.8033257,-1.9378143548965454,-1.3852335226586838,-2.6225419680224817,5.924590217858114,1.112841248512268,-2.4537323156939905
1708433689.8053303,-1.9356310367584229,-1.3859892350486298,-2.623910967503683,5.922881471901693,1.113843321800232,-2.455216948186056
1708433689.8073533,-1.9334527254104614,-1.3866765660098572,-2.6252201239215296,5.921213495522299,1.1148866415023804,-2.4566271940814417
1708433689.8093462,-1.9312853813171387,-1.3873822850039979,-2.6265409628497522,5.919545876770773,1.1160459518432617,-2.4581270853625696
1708433689.8113348,-1.9290775060653687,-1.3881140065244217,-2.627920691167013,5.917915570526876,1.117246389389038,-2.459632221852438
1708433689.8133721,-1.926916480064392,-1.3887378883412858,-2.6293819586383265,5.916218149452963,1.1184550523757935,-2.461099688206808
1708433689.815322,-1.9246090650558472,-1.3894815158895035,-2.6307366530047815,5.914511787682333,1.1197184324264526,-2.4625867048846644
1708433689.8173177,-1.9224010705947876,-1.3901728701642533,-2.6320913473712366,5.912855970650472,1.1208738088607788,-2.4640758673297327
1708433689.8193321,-1.9202661514282227,-1.3909368974021454,-2.6334245840655726,5.911216127663412,1.121989130973816,-2.4655993620501917
1708433689.8213706,-1.9180727005004883,-1.3915590953877945,-2.6347649733172815,5.9096059677894495,1.1231557130813599,-2.4669862429248255
1708433689.823349,-1.9159061908721924,-1.392302544122078,-2.636143986378805,5.908017384796896,1.124308466911316,-2.468586508427755
1708433689.8253343,-1.913714051246643,-1.3929754358581086,-2.6374343077289026,5.906360852509298,1.1254571676254272,-2.4701364676104944
1708433689.827337,-1.9114714860916138,-1.3936130416444321,-2.638829771672384,5.9047701237495325,1.126584768295288,-2.471598450337545
1708433689.8293853,-1.9093279838562012,-1.3943445545485993,-2.6401448885547083,5.903089749604025,1.127720832824707,-2.4731269518481653
1708433689.83135,-1.9071623086929321,-1.3950072538903733,-2.6415110270129603,5.901420819550314,1.1288502216339111,-2.474663798009054
1708433689.8333638,-1.9048877954483032,-1.3957134944251557,-2.6428800264941614,5.899785625725546,1.1300331354141235,-2.4760738054858606
1708433689.8353546,-1.9027427434921265,-1.396464766269066,-2.644222084675924,5.898210632592001,1.1311157941818237,-2.4775453249560755
1708433689.8373356,-1.9005451202392578,-1.397133470778801,-2.6455875078784388,5.896609890251913,1.1323435306549072,-2.479069534932272
1708433689.8393228,-1.8983110189437866,-1.397805170421936,-2.646966282521383,5.894903290062704,1.1334189176559448,-2.4805248419391077
1708433689.841331,-1.8960729837417603,-1.3985564869693299,-2.6483715216266077,5.893245327263632,1.1345818042755127,-2.4819985071765345
1708433689.843345,-1.8938671350479126,-1.3992514324239274,-2.6497390905963343,5.891538846283712,1.1356871128082275,-2.483471457158224
1708433689.8453422,-1.8916090726852417,-1.3999459457448502,-2.6511290709124964,5.889920937805929,1.136788010597229,-2.4849825541125696
1708433689.8473563,-1.8894352912902832,-1.4006999296000977,-2.6524909178363245,5.888398039131918,1.1379499435424805,-2.486438814793722
1708433689.849355,-1.8872454166412354,-1.4014319044402619,-2.653895680104391,5.8867519972618005,1.1390414237976074,-2.4880154768573206
1708433689.8513267,-1.8850256204605103,-1.4020973455956955,-2.655337158833639,5.88504587390975,1.1400483846664429,-2.4895668665515345
1708433689.8533509,-1.882784366607666,-1.4027998459390183,-2.6566594282733362,5.883420336037435,1.1411389112472534,-2.4911461512195032
1708433689.8553305,-1.8805510997772217,-1.403487117295601,-2.6581154505359095,5.881835686951437,1.1421880722045898,-2.492711607609884
1708433689.8573215,-1.878397822380066,-1.4041815114072342,-2.6594937483416956,5.880254614144125,1.143203616142273,-2.494265858327047
1708433689.8593285,-1.8761738538742065,-1.4048880499652405,-2.6609390417682093,5.8787282584007166,1.1442240476608276,-2.495819632207052
1708433689.861311,-1.8740335702896118,-1.4056770515492936,-2.662332836781637,5.877123820572653,1.1453044414520264,-2.4974239508258265
1708433689.863339,-1.8718442916870117,-1.4062804144671937,-2.66384464899172,5.875466453820028,1.146340250968933,-2.4989739100085657
1708433689.8653564,-1.8696736097335815,-1.407064900999405,-2.6651762167560022,5.873934018402853,1.1473329067230225,-2.5005632082568567
1708433689.86736,-1.8674565553665161,-1.4077830177596589,-2.6666081587420862,5.872376191407003,1.1483047008514404,-2.5022318998919886
1708433689.8693643,-1.8652480840682983,-1.4084209364703675,-2.6680424849139612,5.870781886368551,1.149289846420288,-2.503845278416769
1708433689.871319,-1.8630459308624268,-1.4091849041036149,-2.669476334248678,5.869171964913168,1.1502387523651123,-2.5053942839251917
1708433689.873334,-1.8608269691467285,-1.4098996830037613,-2.6709209124194544,5.867615806847372,1.1513216495513916,-2.506965939198629
1708433689.8753192,-1.8586795330047607,-1.4105374974063416,-2.672258440648214,5.866042482643881,1.1522760391235352,-2.508554283772604
1708433689.8773484,-1.8564563989639282,-1.4112528276494523,-2.6736889521228235,5.864493119507589,1.1533234119415283,-2.5100465456592005
1708433689.8793266,-1.8542861938476562,-1.4119348239949723,-2.675142828618185,5.862879979401388,1.154335379600525,-2.5116055647479456
1708433689.8813188,-1.8520584106445312,-1.4127182525447388,-2.676495615636007,5.861232030182638,1.1554057598114014,-2.5131800810443323
1708433689.8833601,-1.8498386144638062,-1.4133482587388535,-2.677958313618795,5.8597073433692834,1.1564266681671143,-2.5147016684161585
1708433689.885319,-1.8476780652999878,-1.4140844506076355,-2.6793418566333216,5.858162629395284,1.1574302911758423,-2.5162606875049036
1708433689.8873754,-1.8454885482788086,-1.4148236227086564,-2.680800739918844,5.856659757881918,1.158376693725586,-2.517789904271261
1708433689.8893244,-1.8432377576828003,-1.4155699920705338,-2.682281557713644,5.855144250183859,1.1593551635742188,-2.51943546930422
1708433689.891314,-1.8410581350326538,-1.4163088363460083,-2.6836331526385706,5.853614914208212,1.1603572368621826,-2.521071497594015
1708433689.893323,-1.8388419151306152,-1.416990415459015,-2.685136858616964,5.852021562844076,1.161309003829956,-2.5226908365832728
1708433689.8953123,-1.836633324623108,-1.4177700293115159,-2.6865602175342005,5.850540625839987,1.1622636318206787,-2.5242324511157435
1708433689.8973215,-1.834412932395935,-1.4184191685966034,-2.6879997889148157,5.849065053253927,1.1632022857666016,-2.5259137789355677
1708433689.899338,-1.8322389125823975,-1.4191797983697434,-2.6894362608539026,5.847516643791952,1.1640751361846924,-2.5275333563434046
1708433689.9013326,-1.8300042152404785,-1.4199419480613251,-2.6909611860858362,5.8459569094474695,1.1650313138961792,-2.529158417378561
1708433689.9033344,-1.8277997970581055,-1.4206039172462006,-2.6923847834216517,5.844548809319296,1.1659492254257202,-2.530903402959005
1708433689.9053473,-1.825656771659851,-1.421366961007454,-2.6938095728503626,5.8431200859840295,1.1668933629989624,-2.532536570225851
1708433689.9076154,-1.8234446048736572,-1.4220569890788575,-2.6953135172473353,5.841659533768453,1.1678050756454468,-2.5341983477221888
1708433689.9093413,-1.821250319480896,-1.4227585208467026,-2.6966856161700647,5.840139138489523,1.1685727834701538,-2.535862747822897
1708433689.91133,-1.819047451019287,-1.4235189420035859,-2.698134724293844,5.838768708496847,1.1694459915161133,-2.537443224583761
1708433689.9133263,-1.8168987035751343,-1.4242223364165802,-2.6996496359454554,5.837293731957235,1.170239806175232,-2.5390294233905237
1708433689.915355,-1.8147859573364258,-1.4248676163009186,-2.7010124365436,5.835877525597372,1.1710304021835327,-2.5405944029437464
1708433689.917366,-1.8126192092895508,-1.4256078463843842,-2.702423159276144,5.834419476776876,1.1717844009399414,-2.542121235524313
1708433689.9193716,-1.8104395866394043,-1.4262566727450867,-2.703895394002096,5.83300946930007,1.1725534200668335,-2.5437126795398157
1708433689.9213312,-1.808341145515442,-1.4269838792136689,-2.705327812825338,5.831491219788351,1.173378825187683,-2.54527193704714
1708433689.9233384,-1.806204080581665,-1.4277448815158387,-2.7067232767688196,5.830056655197897,1.1742295026779175,-2.5468571821795862
1708433689.9253411,-1.8041263818740845,-1.4284017247012635,-2.7081335226642054,5.828686225205221,1.17500638961792,-2.5483251253711146
1708433689.92737,-1.802002191543579,-1.4291195583394547,-2.709625546132223,5.827284204750814,1.175901174545288,-2.5498538653003138
1708433689.9293501,-1.799838900566101,-1.4297689360431214,-2.7109816710101526,5.825974690705099,1.1766377687454224,-2.5514076391803187
1708433689.9313376,-1.7978473901748657,-1.4305059027722855,-2.712337080632345,5.824600088387289,1.1775012016296387,-2.553002659474508
1708433689.933351,-1.795822262763977,-1.4311235410026093,-2.71366531053652,5.823297130852499,1.178266167640686,-2.554516140614645
1708433689.9353185,-1.7937461137771606,-1.4319083553603669,-2.715104881917135,5.821937310486593,1.1790705919265747,-2.5560386816607874
1708433689.9373078,-1.791677713394165,-1.4325994712165375,-2.7164767424212855,5.820626961975851,1.1797672510147095,-2.5576356093036097
1708433689.9393356,-1.7895973920822144,-1.4333219987205048,-2.7178834120379847,5.819311368256368,1.1806318759918213,-2.5591874758349817
1708433689.941314,-1.7875466346740723,-1.4340297293714066,-2.719259564076559,5.818057524948873,1.1813637018203735,-2.560739819203512
1708433689.9433143,-1.7856123447418213,-1.4345940214446564,-2.720696751271383,5.816701042443075,1.1820238828659058,-2.5622575918780726
1708433689.9453344,-1.7836718559265137,-1.4353258323720475,-2.7219978014575403,5.815523135453024,1.182762622833252,-2.5638261477099817
1708433689.9473088,-1.7816792726516724,-1.4360248756459733,-2.723342005406515,5.814312445908346,1.1834145784378052,-2.5653942267047327
1708433689.9493175,-1.7797132730484009,-1.4367080193809052,-2.7247448603259485,5.81313835361556,1.184074878692627,-2.566915814076559
1708433689.9513042,-1.77780020236969,-1.43740667522464,-2.7261276880847376,5.811950194626608,1.1847268342971802,-2.5683262983905237
1708433689.9533253,-1.7758733034133911,-1.43808168292556,-2.7274604479419153,5.810731875687399,1.1853885650634766,-2.5697322527514856
1708433689.955325,-1.7738873958587646,-1.4387661081603547,-2.7288149038897913,5.809567081719198,1.1860047578811646,-2.571188990269796
1708433689.9573321,-1.772012710571289,-1.4394368839314957,-2.7301018873797815,5.808312165528097,1.1866474151611328,-2.572604481373922
1708433689.9593246,-1.7700278759002686,-1.4399981808713456,-2.731448475514547,5.807124364167013,1.1872328519821167,-2.573991362248556
1708433689.9613667,-1.768142819404602,-1.4407432538321991,-2.7327967325793665,5.805985080986776,1.1878951787948608,-2.575352732335226
1708433689.9633317,-1.7662023305892944,-1.4413120162538071,-2.734110657368795,5.804847824364462,1.1884347200393677,-2.5767198244677942
1708433689.9653335,-1.7643404006958008,-1.4419841927341004,-2.735408369694845,5.803821074753561,1.188989520072937,-2.578101460133688
1708433689.9673378,-1.7624224424362183,-1.4425866913846512,-2.736716334019796,5.802755582123556,1.1895949840545654,-2.579419199620382
1708433689.9693246,-1.760594367980957,-1.4432748568109055,-2.7380011717425745,5.801622855454244,1.1901954412460327,-2.5808871428119105
1708433689.971326,-1.758695125579834,-1.443890081053116,-2.7393019835101526,5.800529110222616,1.1907856464385986,-2.5822728315936487
1708433689.9733286,-1.756872534751892,-1.4445895564607163,-2.7406070868121546,5.799519884377279,1.1913020610809326,-2.5836549440967005
1708433689.9753125,-1.7550113201141357,-1.4451770794442673,-2.741993014012472,5.798452126770773,1.1919128894805908,-2.5850980917560022
1708433689.9773157,-1.7531801462173462,-1.4457415503314515,-2.7432499567614954,5.797413933068075,1.1924721002578735,-2.586398426686422
1708433689.9793103,-1.7513689994812012,-1.446446568971016,-2.7445440928088587,5.796459066658773,1.1930238008499146,-2.587764088307516
1708433689.9813168,-1.7495704889297485,-1.447093353872635,-2.745810333882467,5.795505630760946,1.1935657262802124,-2.589144293461935
1708433689.9833407,-1.7477623224258423,-1.4477331426790734,-2.7470744291888636,5.794566738396444,1.1941299438476562,-2.590499226246969
1708433689.9853141,-1.746000051498413,-1.4483523306301613,-2.7483702341662806,5.793582188874044,1.194612979888916,-2.5918098131762903
1708433689.987343,-1.744219183921814,-1.4489751917174836,-2.7496894041644495,5.792690503388204,1.1951172351837158,-2.593095604573385
1708433689.9893227,-1.7424862384796143,-1.449557365184166,-2.75090200105776,5.791755068093099,1.1955959796905518,-2.594487015401022
1708433689.9913645,-1.7406569719314575,-1.4501978766969223,-2.7522035280810755,5.7908493159110925,1.1960850954055786,-2.5957868734942835
1708433689.993356,-1.7388509511947632,-1.4508323979428788,-2.7535133997546595,5.790002095490255,1.1966325044631958,-2.5971017519580286
1708433689.9953182,-1.7371025085449219,-1.4514853370240708,-2.754803244267599,5.789126741677084,1.1972148418426514,-2.5983172098742884
1708433689.997341,-1.7353885173797607,-1.4520428490689774,-2.7560723463641565,5.788297760277548,1.1976631879806519,-2.599574867879049
1708433689.9993093,-1.733680248260498,-1.452642322783806,-2.7573545614825647,5.7875332711036584,1.1981271505355835,-2.600769821797506
1708433690.0013523,-1.731990098953247,-1.4532816869071503,-2.758603874837057,5.786684262543478,1.1984944343566895,-2.6019907633410853
1708433690.003332,-1.7302757501602173,-1.4538516116193314,-2.759808127080099,5.785854327469625,1.1988695859909058,-2.6031020323382776
1708433690.005329,-1.7286182641983032,-1.454430067246296,-2.761020008717672,5.78509687164382,1.1992478370666504,-2.6043058077441614
1708433690.0073438,-1.726910948753357,-1.4550779995373269,-2.7623234430896204,5.784316050797262,1.1995657682418823,-2.6054750124560755
1708433690.0093458,-1.7252649068832397,-1.4557256561568757,-2.763571802769796,5.783602344780721,1.2001012563705444,-2.606640640889303
1708433690.0113614,-1.7235819101333618,-1.4563169044307251,-2.764850441609518,5.782887923508444,1.2004882097244263,-2.6077783743487757
1708433690.0133274,-1.7219514846801758,-1.4569399294308205,-2.766064230595724,5.782193887024679,1.2008947134017944,-2.608872715626852
1708433690.0153015,-1.7203277349472046,-1.4574777048877259,-2.767329994832174,5.781491744309225,1.2012908458709717,-2.6100061575519007
1708433690.0173342,-1.7186580896377563,-1.4581353303841134,-2.7686167399035853,5.7808349011238,1.2015910148620605,-2.6110859552966517
1708433690.019315,-1.717038869857788,-1.4587404143861313,-2.7698081175433558,5.780175792961874,1.2020156383514404,-2.6121891180621546
1708433690.021341,-1.715436339378357,-1.4593074855259438,-2.771036688481466,5.779610979347982,1.2024160623550415,-2.613317076359884
1708433690.0233574,-1.7138333320617676,-1.4599552315524598,-2.7722917238818567,5.778983461647787,1.2028002738952637,-2.614411179219381
1708433690.0253358,-1.7122398614883423,-1.460587003534176,-2.7735865751849573,5.778304087906637,1.203251838684082,-2.6154733339892786
1708433690.0273364,-1.710615634918213,-1.4612144616297265,-2.7748897711383265,5.777748095780172,1.203769326210022,-2.616563145314352
1708433690.0293427,-1.7090378999710083,-1.4617923882654686,-2.7760945002185267,5.777201759606161,1.2041351795196533,-2.6175995508777063
1708433690.0313556,-1.7075138092041016,-1.4623822209290047,-2.7773073355304163,5.776558625489034,1.2044939994812012,-2.618696991597311
1708433690.033352,-1.7059309482574463,-1.4630422753146668,-2.778494898472921,5.776028263359823,1.2049198150634766,-2.6197097937213343
1708433690.0353124,-1.7044401168823242,-1.463625819688179,-2.7797232309924524,5.775520193367758,1.2051899433135986,-2.6207831541644495
1708433690.0373538,-1.702934741973877,-1.464174674158432,-2.780923668538229,5.775017010956564,1.2055188417434692,-2.6218205134021204
1708433690.0393138,-1.7014045715332031,-1.4648556497744103,-2.7821932474719446,5.774505245476522,1.2059129476547241,-2.6228118578540247
1708433690.0413363,-1.6998804807662964,-1.4654798594168206,-2.783361021672384,5.774047720223226,1.206239104270935,-2.623772446309225
1708433690.0433526,-1.698320746421814,-1.4660820749453087,-2.784642283116476,5.773538577347555,1.2066514492034912,-2.6248436609851282
1708433690.0453632,-1.696836233139038,-1.4666482594660302,-2.785790983830587,5.77314184883193,1.2070189714431763,-2.6257646719561976
1708433690.0473688,-1.6953399181365967,-1.4673046854189415,-2.7870329062091272,5.772731888085165,1.2073142528533936,-2.6266987959491175
1708433690.049359,-1.693834662437439,-1.467814178471901,-2.788213316594259,5.7723368284995935,1.2076761722564697,-2.6276264826404017
1708433690.0513432,-1.692376971244812,-1.468469613497593,-2.7893856207477015,5.771962868958273,1.2079581022262573,-2.6285820643054407
1708433690.053328,-1.6909351348876953,-1.4690612715533753,-2.790553871785299,5.771603452950277,1.2083075046539307,-2.6293814818011683
1708433690.0553472,-1.6894762516021729,-1.469655619268753,-2.7918148676501673,5.771341788559713,1.2085610628128052,-2.630202833806173
1708433690.0573423,-1.6880404949188232,-1.4703038048795243,-2.792913023625509,5.770944940834799,1.2088464498519897,-2.63100773492922
1708433690.0593758,-1.6866075992584229,-1.4708462742022057,-2.794102732335226,5.770678865700521,1.2091583013534546,-2.631799284611837
1708433690.0613246,-1.6851884126663208,-1.4714252066663285,-2.7952855269061487,5.770346629410543,1.2094510793685913,-2.632582728062765
1708433690.0633461,-1.6837960481643677,-1.4720422637513657,-2.7965202967273157,5.770055877953329,1.2097420692443848,-2.6333921591388147
1708433690.0653517,-1.6824495792388916,-1.4726406571320076,-2.797652069722311,5.769748198776998,1.2101277112960815,-2.634296957646505
1708433690.0673757,-1.6810396909713745,-1.4731706020287056,-2.7988691965686243,5.769537198334493,1.2104755640029907,-2.6349898020373743
1708433690.0693624,-1.6796951293945312,-1.4737988349846383,-2.80005652109255,5.769285547524252,1.210823655128479,-2.63577109972109
1708433690.071357,-1.6783391237258911,-1.474444144671299,-2.80125338235964,5.769140231400289,1.2111549377441406,-2.6365392843829554
1708433690.073325,-1.6769832372665405,-1.4750268471292038,-2.8023904005633753,5.768915879517355,1.2114269733428955,-2.637287680302755
1708433690.0753608,-1.6756749153137207,-1.4756706294468422,-2.8035150210009974,5.768748152046957,1.2117267847061157,-2.638019625340597
1708433690.0773382,-1.674398422241211,-1.4761308592608948,-2.8047450224505823,5.768655168801107,1.2119983434677124,-2.6386545340167444
1708433690.0793312,-1.6731055974960327,-1.4768254098347207,-2.805857245122091,5.768499600678243,1.2123149633407593,-2.6393712202655237
1708433690.0813534,-1.67176353931427,-1.4773791891387482,-2.8070769945727747,5.768350231438436,1.2126479148864746,-2.6400845686541956
1708433690.0833273,-1.6704462766647339,-1.4779818666032334,-2.808258597050802,5.7683318732078455,1.2130292654037476,-2.6407316366778772
1708433690.085329,-1.669187068939209,-1.4785971653512497,-2.8094237486468714,5.768246757775106,1.2134101390838623,-2.64138371149172
1708433690.0873406,-1.667898416519165,-1.479250856941082,-2.8106098810779017,5.7681405422981165,1.2137131690979004,-2.6420326868640345
1708433690.0893626,-1.666609525680542,-1.4797542628696938,-2.8117645422564905,5.768139111786642,1.2139875888824463,-2.642695967351095
1708433690.0913231,-1.6653292179107666,-1.4803750750473519,-2.812880341206686,5.768094169884481,1.2141647338867188,-2.6433399359332483
1708433690.0933685,-1.664063572883606,-1.4809912157109757,-2.8140586058246058,5.76808642128066,1.2144708633422852,-2.643881384526388
1708433690.0953572,-1.6628196239471436,-1.481573925619461,-2.815252129231588,5.768119442253866,1.214836597442627,-2.6445511023150843
1708433690.0973783,-1.6615794897079468,-1.4821597647717972,-2.8163719812976282,5.768221366196432,1.2151085138320923,-2.645123545323507
1708433690.099346,-1.6602938175201416,-1.4828208175352593,-2.817601982747213,5.768254267960348,1.2153546810150146,-2.6456876436816614
1708433690.101333,-1.6590818166732788,-1.4833787989667435,-2.8188322226153772,5.768412697106161,1.2157033681869507,-2.6462116877185267
1708433690.1033387,-1.6578747034072876,-1.4840345841697236,-2.820042912160055,5.7685115216071985,1.2159909009933472,-2.646775786076681
1708433690.1053936,-1.6566004753112793,-1.48464588940654,-2.821178738270895,5.768623816757955,1.2162660360336304,-2.647273127232687
1708433690.1073334,-1.6554239988327026,-1.485220120554306,-2.8223026434527796,5.768783676415243,1.216604471206665,-2.6477847735034388
1708433690.1093624,-1.654207706451416,-1.4858274844339867,-2.8235343138324183,5.768928873329916,1.2168015241622925,-2.648235861455099
1708433690.1113496,-1.6530227661132812,-1.4864105445197602,-2.8246262709247034,5.768960463791647,1.2171268463134766,-2.6487377325641077
1708433690.113353,-1.6518456935882568,-1.4870319974473496,-2.825770441685812,5.769164192467489,1.217422366142273,-2.649233881627218
1708433690.1153526,-1.6506857872009277,-1.487605632548668,-2.8269370237933558,5.769376385002889,1.2177882194519043,-2.649621550236837
1708433690.1173403,-1.6495534181594849,-1.488257312481739,-2.8281238714801233,5.769597875862875,1.218103289604187,-2.6501134077655237
1708433690.1193254,-1.6484014987945557,-1.4888732594302674,-2.829278294240133,5.769750582962789,1.2185051441192627,-2.6504722277270716
1708433690.1213448,-1.6472227573394775,-1.4894796025804062,-2.8304370085345667,5.769967424660482,1.218853235244751,-2.6509476343738
1708433690.1233304,-1.6461039781570435,-1.490086668436863,-2.8315773645984095,5.7702098963554285,1.2192085981369019,-2.651355806981222
1708433690.1253262,-1.6450122594833374,-1.4906813961318512,-2.8327916304217737,5.770423996239462,1.2195366621017456,-2.651722017918722
1708433690.127338,-1.643855333328247,-1.491370179956295,-2.8338516394244593,5.7707711336906335,1.2198400497436523,-2.652085606251852
1708433690.129331,-1.642791748046875,-1.4920749750784417,-2.835033957158224,5.771046149521627,1.22014319896698,-2.652397696171896
1708433690.1313677,-1.6416230201721191,-1.4926076766899605,-2.836229387913839,5.771357524185934,1.220495343208313,-2.6527000109301966
1708433690.133351,-1.6404931545257568,-1.4933208313635369,-2.837318245564596,5.771695720940389,1.220845103263855,-2.6531041304217737
1708433690.1353188,-1.6394375562667847,-1.4939218697002907,-2.838491503392355,5.772096740990438,1.2212622165679932,-2.653369728718893
1708433690.1373613,-1.6383192539215088,-1.4945570167950173,-2.839651409779684,5.772493111878195,1.2216222286224365,-2.653722588215963
1708433690.1393337,-1.6372517347335815,-1.4952371281436463,-2.8407920042621058,5.772928583412924,1.2219610214233398,-2.6540196577655237
1708433690.1413598,-1.636186957359314,-1.4959331911853333,-2.8419440428363245,5.773307072907247,1.2222641706466675,-2.654306236897604
1708433690.1434596,-1.6351786851882935,-1.4965477672270318,-2.8430138270007532,5.773771035462179,1.2226499319076538,-2.654552761708395
1708433690.1453624,-1.6341017484664917,-1.4972026509097596,-2.8441882769214075,5.774172174721517,1.2229524850845337,-2.6548307577716272
1708433690.1473386,-1.6330293416976929,-1.497825564151146,-2.8453813234912317,5.774685489922323,1.2233383655548096,-2.6550334135638636
1708433690.1493165,-1.632041573524475,-1.4985358279994507,-2.8465281168567103,5.775164234429159,1.2237063646316528,-2.6552544275866907
1708433690.151336,-1.631008505821228,-1.499251441364624,-2.84768516222109,5.775605785637655,1.2241325378417969,-2.655531708394186
1708433690.153339,-1.6299999952316284,-1.499927097266056,-2.8488577047931116,5.776146280556478,1.2244294881820679,-2.655677382146017
1708433690.1553552,-1.6289795637130737,-1.5005833071521302,-2.850037161503927,5.7767056105430505,1.2247850894927979,-2.6558497587787073
1708433690.157354,-1.6280598640441895,-1.501283959751465,-2.8511651198016565,5.777227747231283,1.2251583337783813,-2.656046215687887
1708433690.1593397,-1.6270650625228882,-1.5020029333284874,-2.8522594610797327,5.777753102570333,1.2255021333694458,-2.656091038380758
1708433690.1613412,-1.6261327266693115,-1.502637543981411,-2.8534098307238978,5.778317439347067,1.225842833518982,-2.656301561986105
1708433690.1633599,-1.6251899003982544,-1.5033467796495934,-2.8545575777636927,5.778866994171896,1.226141095161438,-2.6564493815051478
1708433690.1653428,-1.624285101890564,-1.504022405748703,-2.855628315602438,5.779554950981893,1.2265268564224243,-2.656569306050436
1708433690.167368,-1.6233752965927124,-1.5046859321049233,-2.856842343007223,5.7801586268241785,1.226945400238037,-2.656628195439474
1708433690.1693344,-1.6224521398544312,-1.5054319587400933,-2.8579121271716517,5.780788528710165,1.2273610830307007,-2.6567087809192103
1708433690.171342,-1.621579647064209,-1.5060416397503396,-2.859070603047506,5.781435477524557,1.2277915477752686,-2.6567888895617884
1708433690.1733832,-1.62071692943573,-1.5066953909448166,-2.860215727482931,5.782170283585348,1.2281802892684937,-2.656861130391256
1708433690.1753395,-1.6198508739471436,-1.5074414175799866,-2.86125356355776,5.782807695656576,1.2285720109939575,-2.656987015401022
1708433690.1773756,-1.618981957435608,-1.5081744131496926,-2.8624067942248743,5.7835309384162805,1.2289828062057495,-2.6570091883288782
1708433690.1793299,-1.6180917024612427,-1.5087967191687603,-2.863457266484396,5.784287678986349,1.2293306589126587,-2.6570125261889856
1708433690.1813328,-1.6172527074813843,-1.5094813790968438,-2.8645578066455286,5.784936296730795,1.2297433614730835,-2.6570680777179163
1708433690.1833591,-1.6164193153381348,-1.510187954907753,-2.865617338811056,5.785651194840231,1.2301604747772217,-2.6570964495288294
1708433690.1853318,-1.6156102418899536,-1.5108796072057267,-2.866734806691305,5.786363827973165,1.230515956878662,-2.6570549646960657
1708433690.187346,-1.6147524118423462,-1.5115724366954346,-2.867797915135519,5.787212836533346,1.2308791875839233,-2.6570919195758265
1708433690.189345,-1.6139371395111084,-1.5122836169651528,-2.868866030369894,5.787944900780477,1.2313127517700195,-2.6570430437671106
1708433690.1913555,-1.6131521463394165,-1.5130120006254693,-2.8699615637408655,5.788810121804037,1.23178231716156,-2.65698749223818
1708433690.1933827,-1.612381935119629,-1.5137488108924408,-2.8710835615741175,5.789531457215109,1.23223078250885,-2.6568449179278772
1708433690.1953285,-1.6115670204162598,-1.5143869344941159,-2.872166697178976,5.790409910469808,1.2326583862304688,-2.656818453465597
1708433690.1974132,-1.6107467412948608,-1.5150954213789483,-2.873214308415548,5.791253673821249,1.2330292463302612,-2.656731192265646
1708433690.1993337,-1.610082745552063,-1.5157455590418358,-2.874310557042257,5.792037713318624,1.233351707458496,-2.6566572825061243
1708433690.2013588,-1.609336018562317,-1.5164836582592507,-2.875303332005636,5.7927812216575525,1.2337654829025269,-2.6565986315356653
1708433690.2033772,-1.6086386442184448,-1.517121822839119,-2.8763566652881067,5.793674218445577,1.234137773513794,-2.656550947819845
1708433690.205351,-1.607935905456543,-1.5178091947785397,-2.8775089422809046,5.794581997185507,1.2345786094665527,-2.65641695657839
1708433690.2073922,-1.6071932315826416,-1.5184686829200764,-2.8785017172442835,5.795429813652792,1.2349969148635864,-2.6563125292407435
1708433690.2093596,-1.6065678596496582,-1.5191767749241372,-2.8795653025256556,5.796378361969747,1.2354835271835327,-2.6562486330615442
1708433690.2113335,-1.6059136390686035,-1.5198436689427872,-2.880618158970968,5.7973166582878015,1.2358660697937012,-2.6561439673053187
1708433690.2133808,-1.6052346229553223,-1.5205815371922036,-2.8816619555102747,5.7981780646140955,1.236253023147583,-2.656036917363302
1708433690.2153194,-1.6046524047851562,-1.5212105934372921,-2.8826850096331995,5.799042808800497,1.236602544784546,-2.6558969656573694
1708433690.2173386,-1.6040376424789429,-1.5218548004380246,-2.8837226072894495,5.800080048828878,1.2370961904525757,-2.655719582234518
1708433690.2193282,-1.6035007238388062,-1.5225139533034344,-2.8846727053271692,5.8009551642234705,1.2374786138534546,-2.655505959187643
1708433690.2213316,-1.6029131412506104,-1.5232507151416321,-2.8856735865222376,5.801942097931661,1.2378689050674438,-2.6554129759417933
1708433690.223331,-1.6023259162902832,-1.5238738481751462,-2.8866916338550013,5.802952754288473,1.238295078277588,-2.6551764647113245
1708433690.2253146,-1.6018078327178955,-1.5245962862721463,-2.8876453081714075,5.803928124695577,1.2387754917144775,-2.6549628416644495
1708433690.2273319,-1.6012651920318604,-1.5252197806588192,-2.888641420994894,5.804978477745809,1.239243507385254,-2.6546929518329065
1708433690.2293355,-1.6007471084594727,-1.5259409223547955,-2.889606777821676,5.805971133499899,1.2397081851959229,-2.6545022169696253
1708433690.231363,-1.6002070903778076,-1.5266253811172028,-2.8905583063708704,5.8071035025413416,1.2401119470596313,-2.6542168299304407
1708433690.2333574,-1.5997462272644043,-1.5273241189173241,-2.891493622456686,5.808114635735311,1.2405143976211548,-2.6539977232562464
1708433690.2353132,-1.5992189645767212,-1.5279922571829339,-2.8924835363971155,5.809064376145162,1.2409836053848267,-2.65373665491213
1708433690.2373433,-1.5987188816070557,-1.5286147718182583,-2.8934131304370325,5.810150730400839,1.2414319515228271,-2.653475586568014
1708433690.2393627,-1.5983257293701172,-1.5293606121889134,-2.8943939844714563,5.811238753586569,1.2419121265411377,-2.653200928364889
1708433690.2413123,-1.597898006439209,-1.5299713772586365,-2.8953729311572474,5.812361585884847,1.2423560619354248,-2.652900520955221
1708433690.243342,-1.5974786281585693,-1.530686755930521,-2.896247688923971,5.813514816551962,1.2427630424499512,-2.652534786854879
1708433690.245313,-1.5970852375030518,-1.5313667257181187,-2.897184197102682,5.814522492676534,1.2432401180267334,-2.6522701422320765
1708433690.2473452,-1.5966973304748535,-1.5320551109365006,-2.8981474081622522,5.815665113716879,1.2435940504074097,-2.651921812688009
1708433690.2493553,-1.5963796377182007,-1.5327627708068867,-2.8990986982928675,5.816897737770834,1.2440115213394165,-2.6516059080706995
1708433690.2513344,-1.5960413217544556,-1.5334383186749,-2.900057617818014,5.818038213043966,1.2444881200790405,-2.6512165705310267
1708433690.2533524,-1.5956437587738037,-1.534131323253252,-2.9009390513049524,5.819226372032919,1.2448915243148804,-2.650872294102804
1708433690.2553236,-1.5953816175460815,-1.534766574656107,-2.901895586644308,5.820339071541586,1.2452833652496338,-2.6504998842822474
1708433690.2573645,-1.5951223373413086,-1.5354419027319928,-2.9027321974383753,5.8214865801628015,1.2457364797592163,-2.65009051958193
1708433690.2593262,-1.5948472023010254,-1.5360981163433571,-2.9036932627307337,5.822744118958273,1.246127724647522,-2.649707857762472
1708433690.2613208,-1.5946115255355835,-1.5367697489312668,-2.904588047658102,5.82401059845046,1.2465121746063232,-2.6493034998523157
1708433690.263334,-1.5944181680679321,-1.5375022117844601,-2.905499045048849,5.825277912407675,1.2469607591629028,-2.648849074040548
1708433690.2653265,-1.5941611528396606,-1.5381302920034905,-2.906346861516134,5.826427209168234,1.247351050376892,-2.648417297993795
1708433690.2673504,-1.593985676765442,-1.5387684863856812,-2.907206360493795,5.827686893730917,1.2477601766586304,-2.6479759852038782
1708433690.2693288,-1.5938225984573364,-1.5394409385374566,-2.9080806414233606,5.828972565918722,1.2481426000595093,-2.6475685278521937
1708433690.271335,-1.593654751777649,-1.5401179504445572,-2.9089375177966517,5.830149638443746,1.2485955953598022,-2.6470959822284144
1708433690.2733495,-1.5934993028640747,-1.540773506542184,-2.909837786351339,5.831404912262716,1.2490204572677612,-2.646615807210104
1708433690.2753718,-1.5933730602264404,-1.5414852269789954,-2.9106810728656214,5.832752692490377,1.2494242191314697,-2.6460886637317103
1708433690.2773957,-1.5933384895324707,-1.5421941199204703,-2.9114657084094446,5.834173786431112,1.2498856782913208,-2.6456249395953577
1708433690.279355,-1.5931845903396606,-1.5428622563234349,-2.912359062825338,5.835559117584982,1.250318169593811,-2.6451121012317103
1708433690.2813358,-1.593161940574646,-1.5435008381358166,-2.9132068792926233,5.8368651745613,1.2507007122039795,-2.644592825566427
1708433690.2833664,-1.5930125713348389,-1.5441228815219183,-2.9139631430255335,5.838220703392782,1.2511659860610962,-2.6440802256213587
1708433690.285352,-1.5929286479949951,-1.5448688466897984,-2.9148252646075647,5.839630114823141,1.2515275478363037,-2.643585507069723
1708433690.287381,-1.5929546356201172,-1.5454478685608883,-2.915563408528463,5.840934145241537,1.2519444227218628,-2.643059794102804
1708433690.2893279,-1.592911720275879,-1.5461653278074046,-2.9163313547717493,5.842347013741293,1.252324104309082,-2.6424902121173304
1708433690.2913225,-1.5928878784179688,-1.5468297780356188,-2.9171441237079065,5.843741643219747,1.2526991367340088,-2.641932551060812
1708433690.293348,-1.5928997993469238,-1.5474256698838253,-2.9179165999041956,5.845103490143575,1.2531538009643555,-2.6414251963244837
1708433690.2953582,-1.592918872833252,-1.5480771579644461,-2.9186816851245325,5.846524822502889,1.2535614967346191,-2.6408799330340784
1708433690.2973452,-1.5929512977600098,-1.5487088163248082,-2.91941744485964,5.847910511284628,1.2539002895355225,-2.640320603047506
1708433690.2993608,-1.5930233001708984,-1.549373274003603,-2.920159880314962,5.849446999817648,1.2543413639068604,-2.639747206364767
1708433690.301346,-1.5931397676467896,-1.5499760911664744,-2.9209490458117884,5.850817549019613,1.254671573638916,-2.639073197041647
1708433690.3033764,-1.593244194984436,-1.5506376934102555,-2.921671454106466,5.852278578072347,1.2550745010375977,-2.638481680546896
1708433690.305313,-1.59337317943573,-1.5512696553817769,-2.922389809285299,5.853709447174825,1.2554796934127808,-2.637876574193136
1708433690.3073494,-1.5934484004974365,-1.551917215143778,-2.9231870810138147,5.855161773949423,1.25579035282135,-2.6372605005847376
1708433690.3093247,-1.5935676097869873,-1.5524636928788205,-2.923868719731466,5.856590378075399,1.2561135292053223,-2.6366727987872522
1708433690.311383,-1.5937517881393433,-1.5531292979470273,-2.9246378580676478,5.857995617180624,1.256485939025879,-2.635970417653219
1708433690.313349,-1.5938950777053833,-1.55371684328232,-2.9253247419940394,5.859503733902731,1.2568269968032837,-2.6352980772601526
1708433690.3153205,-1.5940592288970947,-1.5543697898140927,-2.926035229359762,5.860928761750021,1.2572416067123413,-2.6346240679370325
1708433690.3173466,-1.5942672491073608,-1.55500207588587,-2.926776949559347,5.862539160042562,1.2576009035110474,-2.633939568196432
1708433690.3193357,-1.5944470167160034,-1.5556308583221217,-2.927422825490133,5.864084946900167,1.2579716444015503,-2.633292261754171
1708433690.3213322,-1.5946743488311768,-1.5561982377297063,-2.9280603567706507,5.865582930832662,1.2582732439041138,-2.632554594670431
1708433690.3233423,-1.5949881076812744,-1.556786842910089,-2.9287577311145228,5.867188322335043,1.2585471868515015,-2.6318698565112513
1708433690.3253276,-1.5951693058013916,-1.557430724879243,-2.9294257799731653,5.868718373566427,1.2589300870895386,-2.631104056035177
1708433690.327387,-1.5954537391662598,-1.558019502354302,-2.9301262537585657,5.870248186379232,1.2592334747314453,-2.630465809498922
1708433690.3293328,-1.595672369003296,-1.5586113736829539,-2.930742088948385,5.871747600823202,1.2596402168273926,-2.629727903996603
1708433690.3313384,-1.596053957939148,-1.5592000645450135,-2.931446377431051,5.873291718750753,1.2599152326583862,-2.6289878527270716
1708433690.3333468,-1.596343994140625,-1.5597673573395987,-2.932065550480978,5.874923574715414,1.2602112293243408,-2.6281774679767054
1708433690.3353274,-1.5966755151748657,-1.5603491051918645,-2.932697121297018,5.876509177475729,1.260471224784851,-2.627343479787008
1708433690.3373678,-1.597071647644043,-1.5609318067184468,-2.933312002812521,5.8780685541923425,1.2607715129852295,-2.626596275960104
1708433690.3393342,-1.5974586009979248,-1.5615584266236802,-2.9339073340045374,5.879706728249349,1.2611660957336426,-2.6257861296283167
1708433690.3413265,-1.5978481769561768,-1.5620629799417038,-2.9345625082599085,5.881251442223348,1.261417031288147,-2.6249783674823206
1708433690.343339,-1.5982049703598022,-1.5626891900650044,-2.9351096788989466,5.882913577347555,1.2616980075836182,-2.6241450945483606
1708433690.3453467,-1.5986127853393555,-1.5632227349891146,-2.935722891484396,5.884537565499105,1.2619532346725464,-2.6233132521258753
1708433690.3473644,-1.5991181135177612,-1.5637470365366717,-2.9363136927234095,5.886158215790548,1.2622251510620117,-2.62250000635256
1708433690.3493502,-1.5995148420333862,-1.564385807407536,-2.936896626149313,5.887739884644308,1.262485146522522,-2.621671501790182
1708433690.3513465,-1.6000028848648071,-1.564956367281713,-2.937448326741354,5.889471280365743,1.2627615928649902,-2.620781962071554
1708433690.353364,-1.600506067276001,-1.5655382552980264,-2.9380269686328333,5.891103255539694,1.2630666494369507,-2.619906489049093
1708433690.3553371,-1.6010254621505737,-1.5660879619284351,-2.938615862523214,5.8927345154579065,1.2632977962493896,-2.6190910975085657
1708433690.357458,-1.601556658744812,-1.5666164167090137,-2.9391618410693567,5.894367444306173,1.2635502815246582,-2.618129078541891
1708433690.3593261,-1.6020785570144653,-1.5671748903444787,-2.9397226015674036,5.896045195847311,1.263779640197754,-2.617258612309591
1708433690.361341,-1.6026431322097778,-1.5677281625433643,-2.9402576128589075,5.8976801512535,1.264032006263733,-2.616236750279562
1708433690.3633487,-1.6031601428985596,-1.5683150685257097,-2.9408543745623987,5.8994130966956995,1.2642273902893066,-2.6153598467456263
1708433690.3653204,-1.6037596464157104,-1.5688490525684138,-2.9413166681872767,5.90110336521224,1.2644556760787964,-2.614505116139547
1708433690.367354,-1.6043673753738403,-1.5694260276253154,-2.9418411890613,5.902741300850668,1.2646572589874268,-2.6135082880603235
1708433690.3693812,-1.6049823760986328,-1.5700496352840965,-2.942390028630392,5.90453993061141,1.2648357152938843,-2.612527672444479
