Eg3-git/Classifiers/Data Collection/u1/u1www3_ur3e_joint_states.csv
time,elbow_joint,shoulder_lift_joint,shoulder_pan_joint,wrist_1_joint,wrist_2_joint,wrist_3_joint
1708433675.4572453,-2.141997814178467,-1.3336865913918992,-2.526863400136129,6.111335623055258,1.0177913904190063,-2.5130417982684534
1708433675.4592092,-2.1420023441314697,-1.3337223094752808,-2.5268753210650843,6.111294019013204,1.0177913904190063,-2.5131242910968226
1708433675.4612741,-2.141989231109619,-1.3337561947158356,-2.5268548170672815,6.111331212311544,1.017757534980774,-2.5130956808673304
1708433675.4632418,-2.1419734954833984,-1.333698497419693,-2.5268428961383265,6.111376273422994,1.0177792310714722,-2.5130794684039515
1708433675.4653852,-2.1419408321380615,-1.3337235760739823,-2.526863400136129,6.111334073334493,1.017786979675293,-2.5130632559405726
1708433675.4672942,-2.1419408321380615,-1.3337517988732834,-2.5268591086017054,6.111331212311544,1.0177748203277588,-2.513153616582052
1708433675.4692461,-2.1419577598571777,-1.3337474179318924,-2.526851479207174,6.111376273422994,1.0177826881408691,-2.513141695653097
1708433675.4712107,-2.1420059204101562,-1.3337759536555787,-2.526900593434469,6.111343133240499,1.0178238153457642,-2.5130794684039515
1708433675.4732754,-2.1420059204101562,-1.3337191951325913,-2.5268428961383265,6.111380684166708,1.0177748203277588,-2.5130632559405726
1708433675.4751978,-2.14194917678833,-1.3336702597192307,-2.5268667379962366,6.1113881943519495,1.0177826881408691,-2.513076368962423
1708433675.4772303,-2.141982078552246,-1.3336897206357499,-2.5268591086017054,6.111331212311544,1.017798900604248,-2.51307183900942
1708433675.479225,-2.1419577598571777,-1.333668978219368,-2.5268591086017054,6.111343133240499,1.0177913904190063,-2.51307183900942
1708433675.4816797,-2.1419734954833984,-1.3336536300233384,-2.5268548170672815,6.111331212311544,1.0177661180496216,-2.513043228779928
1708433675.4832346,-2.1419577598571777,-1.333686576490738,-2.5268548170672815,6.111326801567831,1.0178238153457642,-2.5130680243121546
1708433675.4852135,-2.1420066356658936,-1.333702878361084,-2.526863400136129,6.111314880638876,1.017736554145813,-2.5130181948291224
1708433675.4872518,-2.141993522644043,-1.333707259302475,-2.5268753210650843,6.111347543984213,1.0178282260894775,-2.513059441243307
1708433675.4892142,-2.141932249069214,-1.333706022506096,-2.526862446461813,6.111385094910421,1.0177782773971558,-2.513019386922018
1708433675.4912188,-2.1419734954833984,-1.333702878361084,-2.5268753210650843,6.1113401530082605,1.0178076028823853,-2.513015095387594
1708433675.4932275,-2.142014503479004,-1.333683506851532,-2.5268548170672815,6.111343133240499,1.0177946090698242,-2.513022486363546
1708433675.4952183,-2.142014503479004,-1.333686576490738,-2.5268710295306605,6.111286508827963,1.0178076028823853,-2.513054911290304
1708433675.4972508,-2.1419577598571777,-1.3337474179318924,-2.5268874804126185,6.111298429756918,1.017798900604248,-2.5130561033831995
1708433675.499235,-2.1419241428375244,-1.33371918023143,-2.526862446461813,6.111298429756918,1.0178238153457642,-2.513084952031271
1708433675.5012393,-2.141982078552246,-1.3336734038642426,-2.5268994013415735,6.111298429756918,1.0178194046020508,-2.5130561033831995
1708433675.5032492,-2.142014741897583,-1.3336909723332901,-2.526845995579855,6.111344563751974,1.0177913904190063,-2.513038698826925
1708433675.5052047,-2.141936779022217,-1.333714799290039,-2.5268710295306605,6.111317741661825,1.017815113067627,-2.513059441243307
1708433675.5072408,-2.141997814178467,-1.333702878361084,-2.5268667379962366,6.111355054169454,1.0177661180496216,-2.513076368962423
1708433675.5092332,-2.1419620513916016,-1.3336689931205292,-2.5268831888781946,6.111291038780966,1.017786979675293,-2.513038698826925
1708433675.511217,-2.1419777870178223,-1.3337116551450272,-2.5268994013415735,6.111343133240499,1.0178521871566772,-2.513047520314352
1708433675.513249,-2.141958236694336,-1.3337637198022385,-2.5269277731524866,6.111305939942159,1.017798900604248,-2.5130892435656946
1708433675.5152304,-2.1419663429260254,-1.3337028932622452,-2.526939932500021,6.1113401530082605,1.0177826881408691,-2.513027016316549
1708433675.5172317,-2.1419577598571777,-1.3337442737868805,-2.526886526738302,6.111282098084249,1.0177903175354004,-2.513043228779928
1708433675.5192146,-2.1419734954833984,-1.333686576490738,-2.526898447667257,6.111314880638876,1.017798900604248,-2.513015095387594
1708433675.5212543,-2.141997814178467,-1.333714784388878,-2.526919190083639,6.111322271614828,1.0177946090698242,-2.513015095387594
1708433675.5233433,-2.1419849395751953,-1.3337474179318924,-2.526963774357931,6.111350524216451,1.0178065299987793,-2.513059441243307
1708433675.5252688,-2.1419806480407715,-1.3337103885463257,-2.5269387404071253,6.111338722496786,1.017815113067627,-2.513027016316549
1708433675.527258,-2.1420016288757324,-1.3336985123208542,-2.526935640965597,6.111355054169454,1.0178436040878296,-2.51305061975588
1708433675.529246,-2.142019033432007,-1.3337430220893403,-2.526959482823507,6.111343133240499,1.0178065299987793,-2.513076368962423
1708433675.5312152,-2.1419620513916016,-1.333698497419693,-2.5269792715655726,6.111298429756918,1.0178065299987793,-2.513015095387594
1708433675.5332391,-2.14198637008667,-1.3337104481509705,-2.5269835630999964,6.111376273422994,1.0178393125534058,-2.513084952031271
1708433675.5352101,-2.141993522644043,-1.3337235313704987,-2.5269835630999964,6.111331212311544,1.0178468227386475,-2.513092581425802
1708433675.5372813,-2.1420059204101562,-1.3337549728206177,-2.5269749800311487,6.111322271614828,1.017802119255066,-2.513059441243307
1708433675.5392253,-2.1419453620910645,-1.333677889113762,-2.5270524660693567,6.111305939942159,1.0178065299987793,-2.513080660496847
1708433675.5412383,-2.142019033432007,-1.3336822104505082,-2.5269792715655726,6.111359464913168,1.0177783966064453,-2.513059441243307
1708433675.5432491,-2.1420271396636963,-1.3336866360953827,-2.5269954840289515,6.1113401530082605,1.017876386642456,-2.513047520314352
1708433675.5457318,-2.1419777870178223,-1.333714799290039,-2.5269792715655726,6.111335623055258,1.0178521871566772,-2.5130680243121546
1708433675.5472581,-2.1419734954833984,-1.333686576490738,-2.526970688496725,6.111343133240499,1.0178555250167847,-2.513031307850973
1708433675.5492187,-2.141989231109619,-1.333719165330269,-2.526953999196188,6.111305939942159,1.0178227424621582,-2.5130561033831995
1708433675.5512073,-2.1419663429260254,-1.3336941462806244,-2.5270031134234827,6.111314880638876,1.0178349018096924,-2.5130518118487757
1708433675.553244,-2.141989231109619,-1.3336984825185318,-2.526986900960104,6.111322271614828,1.0178642272949219,-2.513076368962423
1708433675.5552268,-2.14203143119812,-1.333689810042717,-2.5270443598376673,6.111310350685873,1.0178393125534058,-2.513054911290304
1708433675.5572386,-2.1419806480407715,-1.333743007188179,-2.526986900960104,6.111331212311544,1.0177816152572632,-2.513076368962423
1708433675.5592213,-2.1419777870178223,-1.3337191355279465,-2.5270162264453333,6.111277568131246,1.0177903175354004,-2.513031307850973
1708433675.5612125,-2.141997814178467,-1.3336778742126008,-2.5270074049579065,6.111322271614828,1.0178511142730713,-2.5130398909198206
1708433675.5632534,-2.141982078552246,-1.3336822253516694,-2.5269954840289515,6.111352073937216,1.0178306102752686,-2.513031307850973
1708433675.5653,-2.1419577598571777,-1.333682195549347,-2.5270031134234827,6.111305939942159,1.0178546905517578,-2.513015095387594
1708433675.5673118,-2.1420023441314697,-1.3336897653392334,-2.526986900960104,6.111326801567831,1.017842411994934,-2.513027016316549
1708433675.5692573,-2.1419734954833984,-1.3336778742126008,-2.5270031134234827,6.111355054169454,1.0178546905517578,-2.5130117575274866
1708433675.5713592,-2.1419663429260254,-1.333714784388878,-2.5270074049579065,6.111363994866171,1.017883062362671,-2.5129945913897913
1708433675.573214,-2.1420226097106934,-1.3337398034385224,-2.5269737879382532,6.111289489060201,1.0178546905517578,-2.513059441243307
1708433675.5752118,-2.1419734954833984,-1.3336778742126008,-2.5269792715655726,6.111307370453634,1.0178622007369995,-2.513043228779928
1708433675.5772758,-2.1419734954833984,-1.3336941313794632,-2.5269954840289515,6.111307370453634,1.0178874731063843,-2.513047520314352
1708433675.5792203,-2.1420021057128906,-1.3337310266545792,-2.5270031134234827,6.111359464913168,1.0178709030151367,-2.5130398909198206
1708433675.581213,-2.1419453620910645,-1.3336910468390961,-2.5269954840289515,6.111331212311544,1.0178874731063843,-2.513031307850973
1708433675.5832937,-2.141989231109619,-1.3337311011603852,-2.526994530354635,6.111335623055258,1.0178502798080444,-2.5130181948291224
1708433675.5852332,-2.1419620513916016,-1.3337517243674775,-2.527043883000509,6.111331212311544,1.0178874731063843,-2.5130518118487757
1708433675.587235,-2.1419806480407715,-1.333726705317833,-2.5270400683032435,6.111380684166708,1.0178622007369995,-2.513007465993063
1708433675.5892172,-2.142019033432007,-1.333714799290039,-2.526986900960104,6.111289489060201,1.0179154872894287,-2.513047520314352
1708433675.59122,-2.1420016288757324,-1.3337235313704987,-2.5270355383502405,6.111310350685873,1.0179404020309448,-2.5130561033831995
1708433675.5932713,-2.1419777870178223,-1.3337192249349137,-2.5270524660693567,6.111331212311544,1.017891764640808,-2.513015095387594
1708433675.5952373,-2.1419620513916016,-1.3337223392776032,-2.526986900960104,6.111355054169454,1.017906904220581,-2.513031307850973
1708433675.5972595,-2.141974925994873,-1.3337060672095795,-2.527026955281393,6.111338722496786,1.0179026126861572,-2.5130279699908655
1708433675.5992205,-2.142019033432007,-1.3336822104505082,-2.5269954840289515,6.111338722496786,1.01792311668396,-2.5130723158465784
1708433675.6012266,-2.1419453620910645,-1.3336941462806244,-2.5270116964923304,6.111343133240499,1.0179681777954102,-2.5130892435656946
1708433675.603236,-2.1419577598571777,-1.3337104481509705,-2.5270031134234827,6.111385094910421,1.0179100036621094,-2.513076368962423
1708433675.6052444,-2.1419620513916016,-1.333714799290039,-2.527026955281393,6.1113237021263025,1.0179474353790283,-2.513088051472799
1708433675.6072273,-2.141982078552246,-1.3337636452964325,-2.5270116964923304,6.111343133240499,1.0179269313812256,-2.5130518118487757
1708433675.6092064,-2.1420016288757324,-1.3336865913918992,-2.5270031134234827,6.111326801567831,1.0179269313812256,-2.5130680243121546
1708433675.6112254,-2.14201021194458,-1.333677814607956,-2.5270116964923304,6.111335623055258,1.0179312229156494,-2.513059441243307
1708433675.6132355,-2.1419496536254883,-1.3336985123208542,-2.527043883000509,6.111313330918112,1.0179345607757568,-2.5131011644946497
1708433675.6152346,-2.142014741897583,-1.333698497419693,-2.5270031134234827,6.111331212311544,1.0179388523101807,-2.5130344072925013
1708433675.6172507,-2.1420059204101562,-1.3337442141822358,-2.5270074049579065,6.1113459942634485,1.0179388523101807,-2.513080660496847
1708433675.6192396,-2.141993522644043,-1.333710403447487,-2.5270138422595423,6.111355054169454,1.0179798603057861,-2.5130837599383753
1708433675.6212075,-2.142014741897583,-1.3337267202189942,-2.5270355383502405,6.111363994866171,1.0179182291030884,-2.5130518118487757
1708433675.623254,-2.1419734954833984,-1.3337473732284089,-2.527026955281393,6.111308800965109,1.0179474353790283,-2.513054911290304
1708433675.6252406,-2.1419734954833984,-1.3336941313794632,-2.527076307927267,6.111355054169454,1.0179669857025146,-2.513059441243307
1708433675.627266,-2.1419734954833984,-1.3336985272220154,-2.526994530354635,6.1113014099891565,1.0179301500320435,-2.51307183900942
1708433675.6292496,-2.1419284343719482,-1.333689810042717,-2.5270138422595423,6.111338722496786,1.0179507732391357,-2.513035599385397
1708433675.631213,-2.141989231109619,-1.3336822104505082,-2.5270031134234827,6.111350524216451,1.0179835557937622,-2.5130344072925013
1708433675.6332297,-2.1419849395751953,-1.3337442439845582,-2.527043883000509,6.111363994866171,1.0179636478424072,-2.5130675474749964
1708433675.635222,-2.1419973373413086,-1.333694116478302,-2.527018133793966,6.111313330918112,1.0179420709609985,-2.5130463282214563
1708433675.6372597,-2.1419692039489746,-1.3336941313794632,-2.527018133793966,6.111338722496786,1.017987847328186,-2.513076368962423
1708433675.6392355,-2.1420187950134277,-1.3337267202189942,-2.5270031134234827,6.111331212311544,1.0179835557937622,-2.513088051472799
1708433675.641235,-2.1419777870178223,-1.3337104332498093,-2.527026955281393,6.111310350685873,1.0179953575134277,-2.513088051472799
1708433675.6432302,-2.141997814178467,-1.3337235164693375,-2.527026955281393,6.111383545189657,1.0179921388626099,-2.513080660496847
1708433675.6452346,-2.1419777870178223,-1.3337104332498093,-2.527018133793966,6.1113459942634485,1.017953872680664,-2.5130632559405726
1708433675.6472294,-2.141997814178467,-1.333735467200615,-2.5270031134234827,6.111380803375997,1.0180284976959229,-2.513108793889181
1708433675.6492596,-2.1419577598571777,-1.3337267202189942,-2.5270567576037806,6.111392605095663,1.018003225326538,-2.513113085423605
1708433675.6512377,-2.14192795753479,-1.3336941313794632,-2.5269857088672083,6.111359464913168,1.0180284976959229,-2.5130344072925013
1708433675.6532328,-2.1419365406036377,-1.3336897504380723,-2.5270524660693567,6.111322271614828,1.0179945230484009,-2.513043228779928
1708433675.6552322,-2.14201021194458,-1.3337148141912003,-2.526990000401632,6.111326801567831,1.018003225326538,-2.5130675474749964
1708433675.6572323,-2.142014741897583,-1.3336985123208542,-2.526994530354635,6.111334073334493,1.0179866552352905,-2.513108793889181
1708433675.6592405,-2.1419577598571777,-1.3337342751077195,-2.5270524660693567,6.111363994866171,1.0180110931396484,-2.5130956808673304
1708433675.6612585,-2.1419734954833984,-1.3337311160615464,-2.5270848909961146,6.111334073334493,1.0180076360702515,-2.513104263936178
1708433675.6632614,-2.1420400142669678,-1.33366912723098,-2.527018133793966,6.111310469895162,1.0180360078811646,-2.513104263936178
1708433675.6652527,-2.1420400142669678,-1.333767221575119,-2.526978079472677,6.111362802773275,1.0179822444915771,-2.5130675474749964
1708433675.6673274,-2.1419734954833984,-1.3337354522994538,-2.5270400683032435,6.1114163277442834,1.0179911851882935,-2.513104263936178
1708433675.6692834,-2.141964912414551,-1.333714799290039,-2.526986900960104,6.111376273422994,1.018003225326538,-2.51307183900942
1708433675.671241,-2.1419734954833984,-1.333714799290039,-2.526990000401632,6.111316072731771,1.0180566310882568,-2.513092581425802
1708433675.67325,-2.141982078552246,-1.3337028634599228,-2.5270355383502405,6.1113459942634485,1.018003225326538,-2.513099972401754
1708433675.6752071,-2.1419777870178223,-1.3337430220893403,-2.526994530354635,6.111280309944906,1.0179988145828247,-2.5130675474749964
1708433675.677205,-2.141993522644043,-1.333726705317833,-2.5270031134234827,6.111347543984213,1.018040418624878,-2.5130837599383753
1708433675.6792092,-2.141982078552246,-1.333731086259224,-2.527039353047506,6.1113459942634485,1.018003225326538,-2.513054911290304
1708433675.6812122,-2.141953468322754,-1.333710403447487,-2.5270937124835413,6.11132966259078,1.0179779529571533,-2.513108793889181
1708433675.6832452,-2.1419620513916016,-1.333707259302475,-2.526986900960104,6.111359464913168,1.018040418624878,-2.5130794684039515
1708433675.685243,-2.141964912414551,-1.3336853843978425,-2.5270355383502405,6.111355054169454,1.017974853515625,-2.5130837599383753
1708433675.6872263,-2.141960620880127,-1.333714784388878,-2.5270355383502405,6.1113881943519495,1.017990231513977,-2.5130837599383753
1708433675.6892326,-2.1419734954833984,-1.3337386411479493,-2.5270469824420374,6.111338722496786,1.0180230140686035,-2.513099972401754
1708433675.6912456,-2.142014741897583,-1.3337311011603852,-2.5270524660693567,6.111392605095663,1.0180435180664062,-2.513099972401754
1708433675.6932414,-2.141997814178467,-1.3337311011603852,-2.526990000401632,6.1113717434699915,1.0180597305297852,-2.5131126085864466
1708433675.6952074,-2.141997814178467,-1.3337059927037735,-2.526994530354635,6.111350524216451,1.01804780960083,-2.513099972401754
1708433675.6972625,-2.1419663429260254,-1.3337593388608475,-2.526994530354635,6.111401545792379,1.0180315971374512,-2.513066355382101
1708433675.699234,-2.141982078552246,-1.3337430369905015,-2.526994530354635,6.111343133240499,1.018024206161499,-2.5130837599383753
1708433675.7012236,-2.1419849395751953,-1.3337636452964325,-2.526990000401632,6.111362802773275,1.0180153846740723,-2.5130911509143274
1708433675.703238,-2.1420233249664307,-1.3337267202189942,-2.5270355383502405,6.111362802773275,1.0179822444915771,-2.5131211916552942
1708433675.7052088,-2.141997814178467,-1.3337104332498093,-2.527039353047506,6.111399996071615,1.0180511474609375,-2.513099972401754
1708433675.7072635,-2.1419663429260254,-1.3337104332498093,-2.527043883000509,6.1113717434699915,1.0180522203445435,-2.513099972401754
1708433675.7092543,-2.142019033432007,-1.3337637198022385,-2.527018133793966,6.111392605095663,1.018003225326538,-2.5131211916552942
1708433675.7112308,-2.141993522644043,-1.333670274620392,-2.527043883000509,6.111362683563986,1.0179487466812134,-2.5131080786334437
1708433675.7132516,-2.141982078552246,-1.3336777997067948,-2.526990000401632,6.111395466118612,1.0180435180664062,-2.5131126085864466
1708433675.7151978,-2.1419777870178223,-1.3336777699044724,-2.527018133793966,6.111325251847067,1.01804780960083,-2.513099972401754
1708433675.7172139,-2.1419620513916016,-1.3337517541697999,-2.5269814173327845,6.111383545189657,1.0180273056030273,-2.51305061975588
1708433675.7192154,-2.141997814178467,-1.3337060672095795,-2.527092520390646,6.111337053566732,1.0180153846740723,-2.513099972401754
1708433675.7212138,-2.1420021057128906,-1.333686576490738,-2.526994530354635,6.1113672135169885,1.0180110931396484,-2.5131331125842493
1708433675.7232363,-2.1419577598571777,-1.3337517988732834,-2.5270524660693567,6.111347543984213,1.0179945230484009,-2.5130675474749964
1708433675.7252083,-2.1419777870178223,-1.3337223094752808,-2.526994530354635,6.111317741661825,1.018003225326538,-2.5130463282214563
1708433675.7272077,-2.141989231109619,-1.3336853843978425,-2.526994530354635,6.111334192543783,1.0180360078811646,-2.513104263936178
1708433675.729225,-2.1419777870178223,-1.3336735528758545,-2.527026955281393,6.111334073334493,1.0180197954177856,-2.5130794684039515
1708433675.7312026,-2.1419575214385986,-1.3337593090585251,-2.5270512739764612,6.111350524216451,1.0180273056030273,-2.5130749384509485
1708433675.7332492,-2.141982078552246,-1.3337430220893403,-2.5270031134234827,6.11137472370223,1.0180392265319824,-2.5130675474749964
1708433675.7352166,-2.1419451236724854,-1.3337135475924988,-2.5270305315600794,6.111353862076559,1.0180153846740723,-2.5130956808673304
1708433675.737243,-2.141982078552246,-1.3336985272220154,-2.5270512739764612,6.111404526024618,1.0180110931396484,-2.513108793889181
1708433675.739199,-2.1419453620910645,-1.3337354522994538,-2.526978079472677,6.111383545189657,1.01804780960083,-2.5130956808673304
1708433675.741214,-2.1419410705566406,-1.333731086259224,-2.527026955281393,6.111363994866171,1.0180435180664062,-2.5131169001208704
1708433675.7432761,-2.141970634460449,-1.3337593090585251,-2.5270848909961146,6.1113881943519495,1.0180315971374512,-2.5130794684039515
1708433675.7452333,-2.141997814178467,-1.3336941462806244,-2.5270350615130823,6.111326682358541,1.0180392265319824,-2.5130587259875696
1708433675.747276,-2.142010450363159,-1.3337846559337159,-2.5270031134234827,6.111317741661825,1.0179945230484009,-2.5130463282214563
1708433675.749239,-2.1420021057128906,-1.333743007188179,-2.527026955281393,6.111376273422994,1.0180068016052246,-2.5130794684039515
1708433675.7512338,-2.1419198513031006,-1.3337072444013138,-2.5270031134234827,6.111343133240499,1.0180153846740723,-2.5130587259875696
1708433675.753244,-2.1419973373413086,-1.3337386411479493,-2.526990000401632,6.111362802773275,1.0179779529571533,-2.5130837599383753
1708433675.7552066,-2.1420066356658936,-1.3336985123208542,-2.526994530354635,6.1113459942634485,1.0180110931396484,-2.5130675474749964
1708433675.757269,-2.14198637008667,-1.3337430220893403,-2.5270686785327356,6.11132966259078,1.0180076360702515,-2.51307183900942
1708433675.7592063,-2.1420016288757324,-1.3337016713670273,-2.526994530354635,6.111408936768331,1.0180197954177856,-2.5130212942706507
1708433675.7612064,-2.141993522644043,-1.3337311011603852,-2.527043883000509,6.111338722496786,1.0180153846740723,-2.513076368962423
1708433675.7632406,-2.1419692039489746,-1.3337191504291077,-2.5270567576037806,6.111317741661825,1.017991065979004,-2.51307183900942
1708433675.7652156,-2.141989231109619,-1.3336897951415558,-2.5269737879382532,6.111392605095663,1.017991065979004,-2.513092581425802
1708433675.7673948,-2.141982078552246,-1.3336897951415558,-2.527026955281393,6.11132966259078,1.0179660320281982,-2.513027016316549
1708433675.7692704,-2.141993522644043,-1.3337223541787644,-2.5270524660693567,6.111320721894064,1.0179988145828247,-2.513015095387594
1708433675.7712312,-2.1419777870178223,-1.333702878361084,-2.5269911924945276,6.1113459942634485,1.017974853515625,-2.513031307850973
1708433675.7732499,-2.1419734954833984,-1.3337311011603852,-2.5270775000201624,6.111362802773275,1.0179791450500488,-2.513035599385397
1708433675.7753086,-2.1419365406036377,-1.3337104332498093,-2.526994530354635,6.111334192543783,1.0179582834243774,-2.5130160490619105
1708433675.777319,-2.141953229904175,-1.3336985123208542,-2.526994530354635,6.11141191700057,1.0179835557937622,-2.513043228779928
1708433675.779264,-2.1419734954833984,-1.3336822253516694,-2.5270350615130823,6.1113940356071375,1.0179463624954224,-2.5130236784564417
1708433675.7812085,-2.1419849395751953,-1.3336941015771409,-2.526986900960104,6.11141191700057,1.0179507732391357,-2.5130279699908655
1708433675.7832713,-2.1419692039489746,-1.333628625874855,-2.526994530354635,6.1113836643989465,1.0179388523101807,-2.5130203405963343
1708433675.7852645,-2.14198637008667,-1.333735467200615,-2.5270450750934046,6.111313211708822,1.0179345607757568,-2.5129666964160364
1708433675.7872767,-2.142035722732544,-1.333719165330269,-2.526978079472677,6.111334073334493,1.0179593563079834,-2.5130041281329554
1708433675.7892337,-2.14201021194458,-1.3337517243674775,-2.5270162264453333,6.1113401530082605,1.0179463624954224,-2.5129709879504603
1708433675.791229,-2.1419692039489746,-1.3337235313704987,-2.526986900960104,6.111317741661825,1.0179182291030884,-2.5129547754870813
1708433675.7932496,-2.141989231109619,-1.3337148141912003,-2.526986900960104,6.111368405609884,1.0179431438446045,-2.512947384511129
1708433675.7952356,-2.1420230865478516,-1.3337235313704987,-2.5269866625415247,6.111363994866171,1.0178980827331543,-2.512984100972311
1708433675.7972522,-2.1419777870178223,-1.333743007188179,-2.5269582907306116,6.111298429756918,1.0178894996643066,-2.512944285069601
1708433675.7992318,-2.141997814178467,-1.333719165330269,-2.5269749800311487,6.111326682358541,1.0179036855697632,-2.5129154364215296
1708433675.8012116,-2.1419663429260254,-1.333771528010704,-2.5269792715655726,6.111284839897909,1.0178864002227783,-2.5128992239581507
1708433675.8032782,-2.141953945159912,-1.33371918023143,-2.526970688496725,6.111352073937216,1.0178906917572021,-2.5129316488849085
1708433675.8052335,-2.141953945159912,-1.3337429773858567,-2.5269911924945276,6.111328232079305,1.017883062362671,-2.5129035154925745
1708433675.8072584,-2.14194917678833,-1.3337072742036362,-2.526953999196188,6.111283528595724,1.0178381204605103,-2.5129078070269983
1708433675.8092375,-2.1420111656188965,-1.333723561172821,-2.526986900960104,6.111320841103353,1.0178053379058838,-2.51288348833193
1708433675.811253,-2.141982078552246,-1.333702878361084,-2.5269466082202356,6.111274587899008,1.017876386642456,-2.5128584543811243
1708433675.8132594,-2.1420021057128906,-1.3337517392686387,-2.5270121733294886,6.111222255020895,1.0178065299987793,-2.512843434010641
1708433675.8152325,-2.1419777870178223,-1.333719165330269,-2.5270209948169153,6.11127136924819,1.0177618265151978,-2.512839142476217
1708433675.8176951,-2.141970634460449,-1.3337028932622452,-2.526971403752462,6.111202823906698,1.0177946090698242,-2.5128758589373987
1708433675.8192408,-2.1419620513916016,-1.3337279123118897,-2.5269792715655726,6.111187922745504,1.0177582502365112,-2.512803379689352
1708433675.8212795,-2.141979455947876,-1.3337148141912003,-2.526992384587423,6.111187922745504,1.0177420377731323,-2.5128076712237757
1708433675.8232708,-2.1419169902801514,-1.333735467200615,-2.526943031941549,6.111184704094686,1.017734169960022,-2.5128489176379603
1708433675.825222,-2.141997814178467,-1.3336702597192307,-2.526952091847555,6.111147510796346,1.0177147388458252,-2.5127702395068567
1708433675.8272583,-2.1419734954833984,-1.3336941015771409,-2.526964251195089,6.1110819456870935,1.0176860094070435,-2.5128238836871546
1708433675.8292518,-2.141995429992676,-1.3336953234723588,-2.526943031941549,6.111129271775045,1.0176459550857544,-2.5127576033221644
1708433675.8312235,-2.141997814178467,-1.333690957432129,-2.526919190083639,6.111030685692587,1.017659068107605,-2.5128122011767786
1708433675.8332546,-2.141970634460449,-1.3336746257594605,-2.526907269154684,6.111039507180013,1.0176546573638916,-2.5127907435046595
1708433675.835237,-2.141932725906372,-1.33366151273761,-2.5268877188311976,6.111036765366354,1.017609715461731,-2.5127790609942835
1708433675.8372102,-2.141932964324951,-1.3336878728917618,-2.5268922487842005,6.110995042115011,1.0175824165344238,-2.5127995649920862
1708433675.8392313,-2.141990900039673,-1.3336908978274842,-2.5268755594836634,6.111003863602438,1.017578125,-2.5127459208117884
1708433675.8412566,-2.141932964324951,-1.333649293785431,-2.5268428961383265,6.110882627754965,1.0175373554229736,-2.512770954762594
1708433675.8432643,-2.141979455947876,-1.3336254519275208,-2.526844326649801,6.110920297890463,1.0175093412399292,-2.512775246297018
1708433675.8452249,-2.141958236694336,-1.3336580407670517,-2.5268681685077112,6.1108871577079675,1.0175144672393799,-2.512792174016134
1708433675.8472846,-2.141921281814575,-1.3336790365031739,-2.526802364979879,6.110877024918356,1.0174939632415771,-2.512792174016134
1708433675.8492694,-2.1419169902801514,-1.3336756241372605,-2.526836935673849,6.110841023712911,1.017448902130127,-2.5127833525287073
1708433675.8512409,-2.141958236694336,-1.3336461198380967,-2.5267751852618616,6.110838162689962,1.0174707174301147,-2.5127995649920862
1708433675.85324,-2.141887664794922,-1.333604784016945,-2.526766602193014,6.110755789070883,1.0174185037612915,-2.512766424809591
1708433675.8552275,-2.141934394836426,-1.3336580407670517,-2.5267468134509485,6.110737669258871,1.0173768997192383,-2.5128076712237757
1708433675.857234,-2.141930103302002,-1.3336311143687745,-2.5267422834979456,6.110641944199362,1.0173290967941284,-2.5128195921527308
1708433675.8592281,-2.141892194747925,-1.3335925352624436,-2.5267842451678675,6.1106688854988,1.0173122882843018,-2.512811009083883
1708433675.861287,-2.141883373260498,-1.3336398613503953,-2.5267468134509485,6.110616671829977,1.0173134803771973,-2.512855354939596
1708433675.8632576,-2.141892194747925,-1.3336398613503953,-2.526727263127462,6.110571849137106,1.0172817707061768,-2.5128467718707483
1708433675.8652434,-2.141925573348999,-1.3336072725108643,-2.526748243962423,6.110540258675375,1.0172576904296875,-2.512883011494772
1708433675.8673542,-2.1419429779052734,-1.3336398613503953,-2.5267282168017786,6.110582339554586,1.0171923637390137,-2.5128746668445032
1708433675.8693228,-2.1419053077697754,-1.333623246555664,-2.5266626516925257,6.110546457558431,1.0172054767608643,-2.5129485766040247
1708433675.871256,-2.141934394836426,-1.3336452108672638,-2.5266552607165735,6.110496985703268,1.0172216892242432,-2.512939755116598
1708433675.873328,-2.1418650150299072,-1.3335703921369095,-2.5266266504870813,6.1104702828224084,1.0171778202056885,-2.512951676045553
1708433675.8752532,-2.1418824195861816,-1.333612934952118,-2.5265966097461146,6.1104211685951135,1.0171494483947754,-2.5129967371570032
1708433675.8772583,-2.1418895721435547,-1.3336204898408432,-2.5266149679767054,6.110368597298422,1.0171494483947754,-2.5129879156695765
1708433675.879221,-2.141913890838623,-1.3335800182870408,-2.526586357747213,6.110402929573812,1.0171055793762207,-2.5130322615252894
1708433675.8812456,-2.141841411590576,-1.3335386675647278,-2.526557509099142,6.1103505966956995,1.0170568227767944,-2.5130484739886683
1708433675.883254,-2.14186692237854,-1.3335386675647278,-2.526550594960348,6.110305893212118,1.0170414447784424,-2.5130637327777308
1708433675.8852348,-2.1418585777282715,-1.3335386675647278,-2.5265262762652796,6.110356557160177,1.0170118808746338,-2.51310378709902
1708433675.8872287,-2.1418585777282715,-1.3335233491710206,-2.5264931360827845,6.110259401589193,1.0169683694839478,-2.5131362120257776
1708433675.8891997,-2.1418910026550293,-1.3334982556155701,-2.526469055806295,6.110160696297445,1.0169726610183716,-2.513184372578756
1708433675.8912032,-2.141850471496582,-1.333482251768448,-2.526499334965841,6.110166775971212,1.0169482231140137,-2.513235394154684
1708433675.8932614,-2.141871690750122,-1.3335320067456742,-2.5265067259417933,6.1101921675498865,1.016909122467041,-2.5133164564715784
1708433675.8951986,-2.1418137550354004,-1.3334831309369584,-2.526524845753805,6.110147225647726,1.0169016122817993,-2.5134015719043177
1708433675.8972156,-2.141794204711914,-1.3335070473006745,-2.526508394871847,6.110062229424276,1.0168075561523438,-2.5134742895709437
1708433675.8992221,-2.141826629638672,-1.3334744584611435,-2.526442352925436,6.110047089844503,1.0168533325195312,-2.5135162512408655
1708433675.9011967,-2.1418099403381348,-1.3334997457316895,-2.5264182726489466,6.110003697663107,1.0167843103408813,-2.5136879126178187
1708433675.9032407,-2.1418142318725586,-1.3334963780692597,-2.5264228026019495,6.109933602600851,1.0167442560195923,-2.51372200647463
1708433675.9052074,-2.1417529582977295,-1.3334831309369584,-2.5264650026904505,6.109927761345663,1.0167112350463867,-2.5138583819018763
1708433675.9072483,-2.1418099403381348,-1.3334756654552002,-2.526403252278463,6.109887230187216,1.01669180393219,-2.5139415899859827
1708433675.9092114,-2.1418397426605225,-1.3334342402270813,-2.5263987223254603,6.109855997353353,1.0167254209518433,-2.5140908400165003
1708433675.911234,-2.141787052154541,-1.3334888827851792,-2.526329580937521,6.109848487168112,1.0166313648223877,-2.514285151158468
1708433675.9132485,-2.1418027877807617,-1.333484412436821,-2.526341740285055,6.109791624336996,1.016623854637146,-2.514395777379171
1708433675.915213,-2.1417789459228516,-1.333509550695755,-2.5263553301440638,6.109767424851217,1.0166127681732178,-2.514526669179098
1708433675.9172435,-2.1417789459228516,-1.333426446919777,-2.5263221899615687,6.109703409462728,1.0165550708770752,-2.514700476323263
1708433675.91921,-2.1417579650878906,-1.333407075410225,-2.526346270238058,6.1097242710884,1.016576886177063,-2.5148807207690638
1708433675.9212399,-2.1417253017425537,-1.333398239021637,-2.5262983481036585,6.1096465466316126,1.0165364742279053,-2.5150373617755335
1708433675.9232266,-2.1417129039764404,-1.3334200990251084,-2.5262578169452112,6.109640705376425,1.0164796113967896,-2.5152130762683313
1708433675.9252129,-2.141771078109741,-1.3333875250867386,-2.5262742678271692,6.109633195191183,1.0164796113967896,-2.515381638203756
1708433675.927252,-2.1417295932769775,-1.3334158223918458,-2.52627140680422,6.109559881478109,1.0164480209350586,-2.515566651021139
1708433675.929212,-2.1417384147644043,-1.3333875250867386,-2.526233736668722,6.109549271851339,1.0164436101913452,-2.515786949788229
1708433675.9312227,-2.141730308532715,-1.333395467405655,-2.5262308756457728,6.109516846924581,1.0164239406585693,-2.515958611165182
1708433675.9332852,-2.141714572906494,-1.3334245693734665,-2.5262308756457728,6.109562742501058,1.0164369344711304,-2.5161786715136927
1708433675.9352129,-2.141714572906494,-1.3334201139262696,-2.5262308756457728,6.109435665398397,1.016387939453125,-2.5163713137256067
1708433675.9372396,-2.1417346000671387,-1.3334041398814698,-2.526209894810812,6.109350549965658,1.0163922309875488,-2.5166905562030237
1708433675.9392312,-2.141711711883545,-1.3333264601281662,-2.5261946360217493,6.109417903214254,1.0163722038269043,-2.516881291066305
1708433675.9412403,-2.1417365074157715,-1.3333233755877991,-2.5261662642108362,6.10934745052413,1.0163484811782837,-2.5171712080584925
1708433675.9432633,-2.14164137840271,-1.3333396774581452,-2.526163403187887,6.109361040383138,1.0163037776947021,-2.517412249241964
1708433675.9452298,-2.141695022583008,-1.3333889257958909,-2.526229445134298,6.10933397987441,1.0163037776947021,-2.5177255312549036
1708433675.9472327,-2.141597270965576,-1.3334173125079651,-2.526191536580221,6.1092519638831995,1.0162924528121948,-2.517956082020895
1708433675.9492528,-2.1416306495666504,-1.3333800596049805,-2.526137892399923,6.10930751541213,1.0162675380706787,-2.5182045141803187
1708433675.951262,-2.1416149139404297,-1.3333559793284913,-2.5261061827289026,6.109229314118185,1.0162523984909058,-2.5185208956347864
1708433675.9532456,-2.1416914463043213,-1.3333233904889603,-2.5261486212359827,6.109246003418722,1.0162030458450317,-2.518820826207296
1708433675.955212,-2.141639232635498,-1.3333471429399033,-2.5260947386371058,6.109177338867941,1.0162279605865479,-2.519134823475973
1708433675.9572601,-2.1415936946868896,-1.333315835600235,-2.5260914007769983,6.109144437104025,1.0161627531051636,-2.519442860280172
1708433675.9592087,-2.1415812969207764,-1.3332991761020203,-2.5260749498950403,6.109154689102926,1.016162633895874,-2.5197795073138636
1708433675.9612012,-2.1416234970092773,-1.3333080571940918,-2.5260584990130823,6.109142768173971,1.0161876678466797,-2.5201292673694056
1708433675.9632475,-2.141634941101074,-1.3333289635232468,-2.5260959307300013,6.109086143761434,1.0161468982696533,-2.5204814116107386
1708433675.9652066,-2.1416025161743164,-1.3333036017468949,-2.526088062916891,6.109041201859274,1.0161638259887695,-2.520874563847677
1708433675.9673126,-2.141566038131714,-1.33333212256942,-2.5260539690600794,6.109042632370748,1.0161306858062744,-2.521233860646383
1708433675.969331,-2.141619920730591,-1.333336518411972,-2.526043478642599,6.1090561030204675,1.0161769390106201,-2.521634880696432
1708433675.9712462,-2.14158296585083,-1.3333114695600052,-2.526104990636007,6.109014379769125,1.016127586364746,-2.5220845381366175
1708433675.973229,-2.14158296585083,-1.333315835600235,-2.52605110803713,6.1089738486106775,1.0160623788833618,-2.52248198190798
1708433675.9752593,-2.141615390777588,-1.3333278161338349,-2.5260468165027063,6.108996259957113,1.0160622596740723,-2.5228944460498255
1708433675.977235,-2.1416032314300537,-1.3332963746837159,-2.526055399571554,6.108966457634725,1.0161069631576538,-2.5233481566058558
1708433675.979235,-2.141526699066162,-1.3333158057979126,-2.5260260740863245,6.1089515564735315,1.0160796642303467,-2.523742977772848
1708433675.981219,-2.1415581703186035,-1.3333167147687455,-2.526113812123434,6.108939635544576,1.016050934791565,-2.5242109934436243
1708433675.9832497,-2.141526699066162,-1.3332757961801072,-2.526010338460104,6.108927476197042,1.0160630941390991,-2.524639908467428
1708433675.9852383,-2.1415467262268066,-1.3332844537547608,-2.526015106831686,6.108915555268087,1.0160762071609497,-2.525137726460592
1708433675.9872563,-2.1415352821350098,-1.3332769882730027,-2.5260193983661097,6.108890163689413,1.0160762071609497,-2.5255749861346644
1708433675.9892457,-2.1415352821350098,-1.3332757961801072,-2.5260313192950647,6.108887183457174,1.016034722328186,-2.5260282198535364
1708433675.9912095,-2.141514301300049,-1.3333540123752137,-2.5260120073901575,6.108900654106893,1.0160596370697021,-2.526529375706808
1708433675.9932258,-2.141510486602783,-1.3332506579211731,-2.5260120073901575,6.108929025917806,1.0159987211227417,-2.5269809404956263
1708433675.99523,-2.141470432281494,-1.333259494309761,-2.5260236899005335,6.108912694245138,1.0160762071609497,-2.5274811426745813
1708433675.9972548,-2.1415228843688965,-1.3333051216653367,-2.5260029474841517,6.108851420670309,1.0160565376281738,-2.527994457875387
1708433675.9992733,-2.141477346420288,-1.333263785844185,-2.5259669462787073,6.10887240150527,1.0160359144210815,-2.52852446237673
1708433676.0012348,-2.141510486602783,-1.3332471561482926,-2.5260074774371546,6.108847129135885,1.016047716140747,-2.529013697301046
1708433676.003218,-2.1414904594421387,-1.3332189482501526,-2.5260074774371546,6.108822810440817,1.0159987211227417,-2.5295143763171595
1708433676.0052176,-2.1414904594421387,-1.3332769882730027,-2.5259817282306116,6.1088589308555505,1.0160402059555054,-2.5300875345813196
1708433676.0072474,-2.1414990425109863,-1.3332471561482926,-2.5259996096240442,6.108844029694357,1.0159821510314941,-2.5306533018695276
1708433676.0092294,-2.1414833068847656,-1.3332813692143937,-2.5260325113879603,6.108818399697103,1.0160315036773682,-2.5311766306506556
1708433676.0112216,-2.1414623260498047,-1.3332603734782715,-2.526020590459005,6.10879002788619,1.0160118341445923,-2.5317910353290003
1708433676.0132527,-2.1414875984191895,-1.3332559180310746,-2.5259748140918177,6.108851539879598,1.016047716140747,-2.5323928038226526
1708433676.015217,-2.1414918899536133,-1.3332888346961518,-2.526003901158468,6.108811008721151,1.016019344329834,-2.5329485575305384
1708433676.0172644,-2.1414542198181152,-1.33324287951503,-2.5259953180896204,6.108820068627157,1.0160434246063232,-2.53347617784609
1708433676.0192392,-2.14145565032959,-1.3333299320987244,-2.5259702841388147,6.108869540482321,1.0160565376281738,-2.5341063181506556
1708433676.0212276,-2.1415092945098877,-1.3332396161607285,-2.5259953180896204,6.108794557839193,1.016019344329834,-2.5347231070147913
1708433676.0233283,-2.1414453983306885,-1.3332725328258057,-2.5259910265551966,6.108803617745199,1.0160446166992188,-2.5353484789477747
1708433676.0252752,-2.1414670944213867,-1.3332932901433487,-2.52598220506777,6.108870970993795,1.0160565376281738,-2.5359330813037317
1708433676.0273015,-2.141458511352539,-1.3332769882730027,-2.526036802922384,6.1088318703468225,1.016019344329834,-2.536558453236715
1708433676.0292263,-2.14145565032959,-1.3333095920136948,-2.5259953180896204,6.108803617745199,1.0160149335861206,-2.5372164885150355
1708433676.0312257,-2.141447067260742,-1.3332352352193375,-2.5259833971606653,6.108795869141378,1.0160149335861206,-2.5377870241748255
1708433676.033288,-2.1414313316345215,-1.3332888346961518,-2.525987688695089,6.108803617745199,1.0160315036773682,-2.538489643727438
1708433676.0353231,-2.141462802886963,-1.3332647544196625,-2.5259833971606653,6.108812558441915,1.016006350517273,-2.539179865513937
1708433676.0372825,-2.141423225402832,-1.3332352352193375,-2.5260193983661097,6.108821499138632,1.0160315036773682,-2.5398080984698694
1708433676.0392776,-2.141418695449829,-1.3332559180310746,-2.5259531180011194,6.108869421273031,1.0160521268844604,-2.540485922490255
1708433676.0412412,-2.1414802074432373,-1.3333007556251069,-2.5260329882251185,6.108812558441915,1.0160270929336548,-2.5411885420428675
1708433676.0432482,-2.141439914703369,-1.3332550388625641,-2.526020590459005,6.108878481179037,1.0160927772521973,-2.541818443928854
1708433676.0452461,-2.141444206237793,-1.3332800728133698,-2.5260193983661097,6.10884855964736,1.0160391330718994,-2.542560402547018
1708433676.0472717,-2.141451358795166,-1.3332681518844147,-2.5260239283191126,6.108808028488912,1.016019344329834,-2.543215815220968
1708433676.0492697,-2.14145565032959,-1.3332932901433487,-2.5260584990130823,6.108815538674154,1.0160391330718994,-2.5439582506762903
1708433676.0512612,-2.141439914703369,-1.3332603734782715,-2.5260029474841517,6.108862149506368,1.0160927772521973,-2.544619385396139
1708433676.0532904,-2.1414756774902344,-1.3332233142903824,-2.5259702841388147,6.10877953746871,1.0160804986953735,-2.5453529993640345
1708433676.0552387,-2.1414599418640137,-1.3332769882730027,-2.5260239283191126,6.108812558441915,1.016100287437439,-2.546105448399679
1708433676.0572748,-2.141444206237793,-1.3332559180310746,-2.5259791056262415,6.108829009323873,1.0160828828811646,-2.546825949345724
1708433676.0592716,-2.141444206237793,-1.3332800728133698,-2.5260193983661097,6.108845340996542,1.016066551208496,-2.547584358845846
1708433676.0612314,-2.1414527893066406,-1.3332769882730027,-2.5260193983661097,6.10884855964736,1.0161395072937012,-2.5483415762530726
1708433676.0632453,-2.1414599418640137,-1.3332603734782715,-2.526043478642599,6.108815538674154,1.0161726474761963,-2.5490592161761683
1708433676.065217,-2.1414036750793457,-1.3332888346961518,-2.5260313192950647,6.108806478768148,1.016160011291504,-2.5498128573047083
1708433676.0672386,-2.141423225402832,-1.3332888346961518,-2.5260313192950647,6.108836400299825,1.0161601305007935,-2.55056602159609
1708433676.0693007,-2.141406536102295,-1.3332189482501526,-2.526043478642599,6.10882734039382,1.0161683559417725,-2.5513058344470423
1708433676.0712633,-2.141395092010498,-1.3332844537547608,-2.526027027760641,6.108839499741354,1.0161714553833008,-2.5521202723132532
1708433676.0732424,-2.141444206237793,-1.3332681518844147,-2.5260074774371546,6.108840811043539,1.0161595344543457,-2.5529914538012903
1708433676.0752528,-2.141399383544922,-1.3333095920136948,-2.5260301272021692,6.108773338585653,1.0161919593811035,-2.5537145773517054
1708433676.0772316,-2.141390800476074,-1.3332945865443726,-2.526043478642599,6.1089141247566126,1.0161962509155273,-2.5545805136310022
1708433676.0792518,-2.141428232192993,-1.3332725328258057,-2.526043478642599,6.10883508899764,1.0162358283996582,-2.5553818384753626
1708433676.0812166,-2.1414151191711426,-1.3332603734782715,-2.5260849634753626,6.108806478768148,1.0162804126739502,-2.556272570286886
1708433676.083244,-2.1414616107940674,-1.3332769882730027,-2.5260260740863245,6.108806478768148,1.0162479877471924,-2.5571304003344935
1708433676.0852604,-2.1414151191711426,-1.333239645963051,-2.526043478642599,6.108923065453329,1.0162923336029053,-2.5579381624804896
1708433676.0872626,-2.1414318084716797,-1.333268166785576,-2.526067558919088,6.108830678253927,1.0163286924362183,-2.5587242285357874
1708433676.0892324,-2.1414151191711426,-1.3333671253970643,-2.526038948689596,6.10881398895339,1.0163331031799316,-2.5595174471484583
1708433676.0912557,-2.1413867473602295,-1.3332515370896836,-2.526059929524557,6.10888837555007,1.0163602828979492,-2.5604446570025843
1708433676.09325,-2.1414194107055664,-1.3333007407239457,-2.526050869618551,6.10889624336318,1.0163397789001465,-2.5612450281726282
1708433676.095252,-2.1414194107055664,-1.333268166785576,-2.5260959307300013,6.108912694245138,1.0163722038269043,-2.5621426741229456
1708433676.0972722,-2.1414318084716797,-1.3333289635232468,-2.5261288324939173,6.108929025917806,1.0163547992706299,-2.563040796910421
1708433676.099255,-2.141390800476074,-1.3333095920136948,-2.5260658899890345,6.108891713410177,1.0164326429367065,-2.5638445059405726
1708433676.1012602,-2.1414151191711426,-1.3333007407239457,-2.5261152426349085,6.10892008522109,1.0163626670837402,-2.564648691807882
1708433676.1032531,-2.1413912773132324,-1.33324287951503,-2.5261486212359827,6.10893069484786,1.0164239406585693,-2.565488640462057
1708433676.1052186,-2.1414194107055664,-1.3333167147687455,-2.52614409128298,6.108985888748922,1.0164763927459717,-2.5663307348834437
1708433676.1072533,-2.1414194107055664,-1.3332681518844147,-2.526156012211935,6.108960616379537,1.016467809677124,-2.567073647175924
1708433676.109264,-2.1414036750793457,-1.3333020371249695,-2.5261917749988,6.108966457634725,1.0164598226547241,-2.567895237599508
1708433676.1112504,-2.141399383544922,-1.3332725328258057,-2.5261710325824183,6.108938205033102,1.0165376663208008,-2.5686681906329554
1708433676.1132572,-2.141418933868408,-1.3332963746837159,-2.5262203852282923,6.109024631768026,1.0165245532989502,-2.5694950262652796
1708433676.115242,-2.141423225402832,-1.3332384091666718,-2.526208225880758,6.108947145729818,1.0165278911590576,-2.57033354440798
1708433676.1172185,-2.1414194107055664,-1.3332352352193375,-2.5261948744403284,6.10901569107131,1.016593098640442,-2.571157757435934
1708433676.1192226,-2.141395092010498,-1.333292083149292,-2.5261572043048304,6.1090770838554285,1.016608476638794,-2.5720036665545862
1708433676.121233,-2.141399383544922,-1.3333123487285157,-2.5261901060687464,6.1090770838554285,1.0166163444519043,-2.572834316884176
1708433676.1232252,-2.141399383544922,-1.3332757961801072,-2.5262308756457728,6.109030830651083,1.016653060913086,-2.573674980794088
1708433676.125227,-2.141399383544922,-1.3332844537547608,-2.5262144247638147,6.109042751580038,1.016689419746399,-2.574503723775045
1708433676.127223,-2.1414151191711426,-1.3333051216653367,-2.5262399355517786,6.109097707062521,1.0166436433792114,-2.575292412434713
1708433676.1292348,-2.1414573192596436,-1.3332725328258057,-2.526275936757223,6.109136807709493,1.0166882276535034,-2.5761354605304163
1708433676.1312711,-2.1414530277252197,-1.3333255511573334,-2.526280466710226,6.1091803191001794,1.0167243480682373,-2.576886240636007
1708433676.133273,-2.141427516937256,-1.3333007258227845,-2.526275936757223,6.109130847245016,1.0167360305786133,-2.577740732823507
1708433676.1352055,-2.141399383544922,-1.3332844537547608,-2.526278797780172,6.1091757891471765,1.0167648792266846,-2.5785980860339563
1708433676.1372218,-2.141484498977661,-1.3332637709430237,-2.526300017033712,6.1091922400291345,1.0167973041534424,-2.5794580618487757
1708433676.139235,-2.1414239406585693,-1.3332963597825547,-2.526304546986715,6.109218942909994,1.016796588897705,-2.5802298227893274
1708433676.1412437,-2.1414642333984375,-1.3333333444646378,-2.5263074080096644,6.109218942909994,1.0167996883392334,-2.581092182789938
1708433676.1433566,-2.1414730548858643,-1.3332963746837159,-2.5263357798205774,6.109218942909994,1.0168577432632446,-2.581827942525045
1708433676.1452315,-2.141399383544922,-1.333259494309761,-2.5263522307025355,6.109259593277731,1.0168609619140625,-2.5826454798327845
1708433676.1472347,-2.1414449214935303,-1.3332681518844147,-2.5263567606555384,6.109271514206686,1.0169103145599365,-2.5835331122027796
1708433676.1492538,-2.1414318084716797,-1.3333007556251069,-2.5263267199145716,6.109292375832357,1.016892910003662,-2.584367815648214
1708433676.151228,-2.1413867473602295,-1.3332757961801072,-2.526358429585592,6.10928629615859,1.016921043395996,-2.5851603190051478
1708433676.1532216,-2.141395092010498,-1.3333123487285157,-2.5263386408435267,6.109290826111593,1.0169408321380615,-2.586043898259298
1708433676.1552553,-2.1413614749908447,-1.3333615523627778,-2.5263925234424036,6.109342801361837,1.0169901847839355,-2.586925808583395
1708433676.1572046,-2.141390800476074,-1.3332844537547608,-2.526350800191061,6.109371530800619,1.0169932842254639,-2.587775532399313
1708433676.1592598,-2.141448497772217,-1.3332550388625641,-2.526404921208517,6.109383451729574,1.0170588493347168,-2.5885759035693567
1708433676.1612077,-2.141357183456421,-1.3333123487285157,-2.526403252278463,6.10938190200881,1.0170292854309082,-2.589449469243185
1708433676.1632245,-2.141395092010498,-1.3332800728133698,-2.526424233113424,6.1093952534492395,1.0170007944107056,-2.590227190648214
1708433676.1652348,-2.141406536102295,-1.3333036017468949,-2.5264106432544153,6.109407532006063,1.0170533657073975,-2.591088835393087
1708433676.1672366,-2.141395092010498,-1.3332550388625641,-2.5263941923724573,6.109405982285299,1.0170904397964478,-2.591821257268087
1708433676.169337,-2.1414108276367188,-1.3333409440568467,-2.5264559427844446,6.109417903214254,1.0171267986297607,-2.592593495045797
1708433676.1712632,-2.1414361000061035,-1.333340973859169,-2.5264514128314417,6.109507667809286,1.0171012878417969,-2.593440596257345
1708433676.1732109,-2.1414108276367188,-1.333294839864113,-2.5264182726489466,6.109478819161215,1.0171170234680176,-2.5942052046405237
1708433676.1752405,-2.1414108276367188,-1.3332963746837159,-2.5264301935779017,6.109428274422445,1.0171616077423096,-2.5950263182269495
1708433676.1772175,-2.1414151191711426,-1.333340973859169,-2.526458803807394,6.109413492470541,1.0171822309494019,-2.595800224934713
1708433676.1792116,-2.1414318084716797,-1.333315835600235,-2.5264678637133997,6.109495627671041,1.017210602760315,-2.5965212027179163
1708433676.181215,-2.1414194107055664,-1.333336518411972,-2.5264678637133997,6.109526860504904,1.017225980758667,-2.597248140965597
1708433676.1832104,-2.1414318084716797,-1.3333484393409272,-2.526499334965841,6.109517919808187,1.0172544717788696,-2.59806734720339
1708433676.1852129,-2.1414239406585693,-1.3333080571940918,-2.526499334965841,6.109600293427267,1.0172619819641113,-2.5988405386554163
1708433676.18723,-2.141448497772217,-1.333283246760704,-2.526499334965841,6.109574544220724,1.0172457695007324,-2.5995972792254847
1708433676.189202,-2.1414318084716797,-1.333283246760704,-2.526520315800802,6.109591233521261,1.0172860622406006,-2.600271526967184
1708433676.1912746,-2.141427516937256,-1.333324671988823,-2.5264857451068323,6.109636294632711,1.017317771911621,-2.6010077635394495
1708433676.1932378,-2.141444206237793,-1.3332788807204743,-2.5265517870532435,6.1095852730567834,1.017259955406189,-2.601776663457052
1708433676.1952143,-2.141432523727417,-1.333315835600235,-2.5265279451953333,6.109555351525106,1.0173420906066895,-2.602497164403097
1708433676.19724,-2.141423225402832,-1.3332669597915192,-2.5265563170062464,6.109600412636556,1.017333984375,-2.6031773726092737
1708433676.1992564,-2.1414151191711426,-1.3333409440568467,-2.5265756289111536,6.109616863518514,1.0173628330230713,-2.603856388722555
1708433676.2012172,-2.1413867473602295,-1.333271325831749,-2.5265710989581507,6.109654056816854,1.0173497200012207,-2.6046224276172083
1708433676.2032266,-2.1413867473602295,-1.333292083149292,-2.526562039052145,6.10966311672286,1.0174031257629395,-2.6053136030780237
1708433676.2052052,-2.1414239406585693,-1.3333735626987,-2.526595417653219,6.1096733687217615,1.0173900127410889,-2.606018606816427
1708433676.207265,-2.141448497772217,-1.3333277565291901,-2.526611868535177,6.109661447792806,1.017401933670044,-2.6066508928882044
1708433676.2092328,-2.1414239406585693,-1.3333615523627778,-2.526632849370138,6.109664547234335,1.0174185037612915,-2.6073229948626917
1708433676.2112315,-2.1414406299591064,-1.333283246760704,-2.526586357747213,6.109636175423422,1.0174227952957153,-2.6080151239978235
1708433676.2132425,-2.141418933868408,-1.333348424439766,-2.52661639848818,6.109709489136495,1.0174338817596436,-2.6087284723864954
1708433676.2152038,-2.1414194107055664,-1.333315835600235,-2.5266605059253138,6.109697329788961,1.0174500942230225,-2.6093109289752405
1708433676.2172613,-2.1414730548858643,-1.3333484393409272,-2.526619259511129,6.109709489136495,1.0174338817596436,-2.610008780156271
1708433676.2192254,-2.1414108276367188,-1.3333396774581452,-2.526619259511129,6.1097168801124475,1.0174951553344727,-2.610574785863058
1708433676.2212327,-2.141399383544922,-1.333294839864113,-2.5266805330859583,6.109724390297689,1.017478585243225,-2.6112330595599573
1708433676.2232559,-2.141406536102295,-1.333360345368721,-2.5266643206225794,6.109770881920614,1.0175232887268066,-2.611824337636129
1708433676.225204,-2.1414151191711426,-1.3333440583995362,-2.5266552607165735,6.109780776291647,1.0174733400344849,-2.6124661604510706
1708433676.227243,-2.1414599418640137,-1.3334085953286667,-2.5266838709460657,6.10977195480422,1.0175223350524902,-2.613013807927267
1708433676.2292175,-2.1414527893066406,-1.3333888363889237,-2.5266462008105677,6.109767424851217,1.0175299644470215,-2.613561216984884
1708433676.231227,-2.141369342803955,-1.3333888810924073,-2.5266671816455286,6.109792935639181,1.0175591707229614,-2.6142154375659388
1708433676.2332914,-2.141399383544922,-1.3333382916501542,-2.526679340993063,6.109751450806417,1.0175299644470215,-2.6148160139666956
1708433676.2352312,-2.1413862705230713,-1.3334007275155564,-2.5267003218280237,6.109779345780172,1.0175461769104004,-2.6153951326953333
1708433676.237245,-2.1413955688476562,-1.3334051978639145,-2.526703182850973,6.109783875733175,1.0175496339797974,-2.615903917943136
1708433676.2392282,-2.1413867473602295,-1.333424599175789,-2.526679340993063,6.109816896706381,1.0175824165344238,-2.6164522806750696
1708433676.2412179,-2.141444206237793,-1.3333919656327744,-2.526698891316549,6.109850036888876,1.017566204071045,-2.6169737021075647
1708433676.2432394,-2.141448497772217,-1.3334277433208008,-2.526761833821432,6.109845626145162,1.0175496339797974,-2.617460076008932
1708433676.2452102,-2.1414527893066406,-1.333456279044487,-2.526703182850973,6.109823095589437,1.0176271200180054,-2.6180267969714563
1708433676.247222,-2.1414361000061035,-1.3334320497563859,-2.526703182850973,6.109867918282308,1.0175977945327759,-2.6184983889209192
1708433676.2492406,-2.141418933868408,-1.3334071052125473,-2.526719633732931,6.109860408097067,1.0176349878311157,-2.6189444700824183
1708433676.2512171,-2.141444206237793,-1.33345182359729,-2.526715103779928,6.109852897911825,1.0176184177398682,-2.619490448628561
1708433676.2532728,-2.141402006149292,-1.333407075410225,-2.526748243962423,6.109872329026022,1.017659068107605,-2.6199713389026087
1708433676.2552435,-2.1414318084716797,-1.333456279044487,-2.526727263127462,6.109897720604696,1.0176546573638916,-2.620439354573385
1708433676.2572346,-2.141444206237793,-1.333430827861168,-2.526706043873922,6.10985146740035,1.0176503658294678,-2.6208012739764612
1708433676.2592475,-2.1414644718170166,-1.333456279044487,-2.5267391840564173,6.109854447632589,1.0176206827163696,-2.6211493651019495
1708433676.2612255,-2.141451358795166,-1.333430827861168,-2.5267391840564173,6.109899031906881,1.0176503658294678,-2.6215038935290735
1708433676.26321,-2.141462802886963,-1.3334800463965912,-2.526771847401754,6.109894621163168,1.0176947116851807,-2.621932331715719
1708433676.2652583,-2.141423225402832,-1.3334637445262452,-2.526748243962423,6.10988877990798,1.0176827907562256,-2.6222696940051478
1708433676.267232,-2.141439914703369,-1.3334681254676362,-2.5267837683307093,6.1098917601402185,1.017674207687378,-2.6225951353656214
1708433676.2693207,-2.141397714614868,-1.3334342402270813,-2.5267513434039515,6.109910952835836,1.0176904201507568,-2.6229551474200647
1708433676.2712736,-2.1414151191711426,-1.3333894920400162,-2.5267916361438196,6.109927761345663,1.0176904201507568,-2.6231942812549036
1708433676.2733498,-2.141406536102295,-1.3334756654552002,-2.5267794767962855,6.109932172089376,1.0177116394042969,-2.6235035101519983
1708433676.275302,-2.141439914703369,-1.33345182359729,-2.5268035570727747,6.109944093018331,1.0177104473114014,-2.623758856450216
1708433676.2772589,-2.1414146423339844,-1.3334712845138093,-2.5267797152148646,6.109976875572958,1.0177147388458252,-2.624064270650045
1708433676.2792413,-2.1414756774902344,-1.3334637445262452,-2.5267706553088587,6.109964954644003,1.0177514553070068,-2.624291483555929
1708433676.2812169,-2.1414108276367188,-1.3334800463965912,-2.5268550554858606,6.109984624176779,1.0177515745162964,-2.6245530287372034
1708433676.2832272,-2.141406536102295,-1.3334919673255463,-2.5267916361438196,6.109954583435812,1.0177353620529175,-2.6247358957873743
1708433676.2852776,-2.1414687633514404,-1.3334637445262452,-2.526841465626852,6.109938132553854,1.0177223682403564,-2.6249309221850794
1708433676.2872398,-2.1414599418640137,-1.333456279044487,-2.526815954838888,6.1099891541297815,1.0177756547927856,-2.6250653902636927
1708433676.2892125,-2.141448497772217,-1.3334668290666123,-2.5268033186541956,6.110005128174581,1.017717957496643,-2.625296179448263
1708433676.2912395,-2.1414361000061035,-1.3334919673255463,-2.52682334581484,6.109980094223776,1.0177626609802246,-2.625374142323629
1708433676.293228,-2.1414108276367188,-1.3334637445262452,-2.52677828470339,6.110003697663107,1.0177713632583618,-2.6254566351519983
1708433676.2952397,-2.141406536102295,-1.3334386956742783,-2.526790205632345,6.110057699471273,1.0177669525146484,-2.6255996862994593
1708433676.297236,-2.141427516937256,-1.3334712845138093,-2.526827637349264,6.109990107804098,1.0177879333496094,-2.625629488621847
1708433676.2992191,-2.141418933868408,-1.3334593635848542,-2.52682334581484,6.110020386963644,1.017798900604248,-2.6256964842425745
1708433676.3012059,-2.1414318084716797,-1.3334888827851792,-2.5268054644214075,6.110032307892599,1.0177748203277588,-2.625756804143087
1708433676.3032277,-2.1413776874542236,-1.3334321242621918,-2.5268471876727503,6.110002386360922,1.0177748203277588,-2.6257601420031946
1708433676.3052146,-2.141402006149292,-1.333430827861168,-2.5268309752093714,6.110038149147787,1.0177748203277588,-2.6258659998523157
1708433676.307228,-2.1414318084716797,-1.3334505271962662,-2.5268059412585657,6.110047089844503,1.0177946090698242,-2.6258042494403284
1708433676.3092244,-2.141444206237793,-1.3334756654552002,-2.526867691670553,6.11006377914504,1.0177913904190063,-2.6258140246020716
1708433676.311201,-2.141447067260742,-1.3334800463965912,-2.526839796696798,6.11006377914504,1.0177946090698242,-2.625667158757345
1708433676.313219,-2.1414599418640137,-1.3334725809148331,-2.5268262068377894,6.110068309098043,1.0178031921386719,-2.6255701223956507
1708433676.3152354,-2.141418933868408,-1.3334919673255463,-2.526867691670553,6.11006377914504,1.0177826881408691,-2.6254056135760706
1708433676.3172343,-2.141462802886963,-1.3334919673255463,-2.526818815861837,6.110068309098043,1.0178401470184326,-2.6253555456744593
1708433676.319232,-2.1414313316345215,-1.3334800463965912,-2.5268381277667444,6.110054838448324,1.0177618265151978,-2.625230375920431
1708433676.3212354,-2.1414384841918945,-1.3334756654552002,-2.5268428961383265,6.1100995419319055,1.0178436040878296,-2.625098768864767
1708433676.3232222,-2.141458511352539,-1.3335085374167939,-2.5268681685077112,6.110078680306234,1.0178227424621582,-2.624916378651754
1708433676.3252735,-2.141444206237793,-1.3334919673255463,-2.5268800894366663,6.11008762100295,1.0178511142730713,-2.6247807184802454
1708433676.3272598,-2.141483783721924,-1.3335320067456742,-2.5268500486956995,6.110075700073995,1.0178468227386475,-2.6246092955218714
1708433676.329236,-2.1414146423339844,-1.3334594082883378,-2.5268500486956995,6.110095131188192,1.0178381204605103,-2.6243677775012415
1708433676.3311913,-2.14150071144104,-1.3335157197764893,-2.526923720036642,6.110108482628622,1.017879605293274,-2.6241517702685755
1708433676.3332205,-2.1414144039154053,-1.3334910881570359,-2.5269365946399134,6.110078680306234,1.017879605293274,-2.6238744894610804
1708433676.3352058,-2.1414599418640137,-1.3335042011788865,-2.5268619696246546,6.110107052117147,1.0178468227386475,-2.623610321675436
1708433676.3372328,-2.141451358795166,-1.3334668290666123,-2.5268741289721888,6.110075700073995,1.0178664922714233,-2.623387638722555
1708433676.3392112,-2.1413862705230713,-1.3334744584611435,-2.5268951098071497,6.11012493351058,1.0178622007369995,-2.6230741182910364
1708433676.341229,-2.1414883136749268,-1.3335129630616684,-2.5268741289721888,6.110074269562521,1.0178622007369995,-2.622786347066061
1708433676.3432205,-2.1414356231689453,-1.3335042011788865,-2.526935640965597,6.110123383789816,1.0178709030151367,-2.622453276311056
1708433676.3452268,-2.1414670944213867,-1.3334997457316895,-2.526902739201681,6.110095011978903,1.0178664922714233,-2.6221450010882776
1708433676.3472373,-2.141475200653076,-1.3334919226220627,-2.526910130177633,6.110153186112203,1.0179036855697632,-2.6217027346240442
1708433676.3492234,-2.1414880752563477,-1.3334910881570359,-2.52698523203005,6.110072600632467,1.0178709030151367,-2.6213515440570276
1708433676.3512032,-2.1414356231689453,-1.3334875863841553,-2.526980702077047,6.110163914948263,1.0178874731063843,-2.6209057013141077
1708433676.3532205,-2.141397714614868,-1.3335157197764893,-2.526943031941549,6.1101486561592,1.0178744792938232,-2.620525900517599
1708433676.3552146,-2.141505002975464,-1.333496333365776,-2.5269344488727015,6.110102641373434,1.0178862810134888,-2.620049063359396
1708433676.3572526,-2.1414599418640137,-1.3335157346776505,-2.5269294420825403,6.110111462860861,1.0179154872894287,-2.619572464619772
1708433676.3592548,-2.141439914703369,-1.3334910881570359,-2.5269716421710413,6.1101486561592,1.017883062362671,-2.6190951506244105
1708433676.3611922,-2.141439914703369,-1.3334954541972657,-2.526943031941549,6.110189306526937,1.0179111957550049,-2.618704144154684
1708433676.3632307,-2.1414146423339844,-1.3335173291018982,-2.5269506613360804,6.110172855644979,1.0178992748260498,-2.618195120488302
1708433676.3652186,-2.1414270401000977,-1.3334997606328507,-2.5269671122180384,6.110114443093099,1.0179275274276733,-2.617622200642721
1708433676.367236,-2.1414713859558105,-1.3334744584611435,-2.5269299189196985,6.1101757166679285,1.0178744792938232,-2.6171308199511927
1708433676.3693676,-2.141418933868408,-1.3335364770940323,-2.52698785463442,6.1101218340690515,1.0179275274276733,-2.6164751688586634
1708433676.3713205,-2.1414318084716797,-1.3335396361402054,-2.5269671122180384,6.110133754998007,1.0178864002227783,-2.6159570852862757
1708433676.373401,-2.1414270401000977,-1.3334831458381196,-2.5270212332354944,6.1101053831870935,1.0179431438446045,-2.615408484135763
1708433676.375244,-2.141475200653076,-1.3334954392961045,-2.5269792715655726,6.110163914948263,1.0179312229156494,-2.614762846623556
1708433676.3772316,-2.1414313316345215,-1.3335189682296296,-2.5270043055163782,6.110163914948263,1.0179755687713623,-2.6141825358020228
1708433676.3792248,-2.141451358795166,-1.3335562658360978,-2.5270031134234827,6.11013816574172,1.0179388523101807,-2.613525454198019
1708433676.3812099,-2.1414599418640137,-1.3334625375321885,-2.5270209948169153,6.110117423325338,1.0179301500320435,-2.612840000783102
1708433676.3832726,-2.1414670944213867,-1.3335026812604447,-2.5269749800311487,6.110147225647726,1.0179463624954224,-2.612182680760519
1708433676.3852305,-2.1414313316345215,-1.333527685408928,-2.5269749800311487,6.110145914345541,1.0179997682571411,-2.611494843159811
1708433676.3872452,-2.1414384841918945,-1.3335440021804352,-2.5270031134234827,6.110177266388693,1.017953872680664,-2.6108136812793177
1708433676.389231,-2.141444206237793,-1.3335070323995133,-2.526986900960104,6.110180365830221,1.0179704427719116,-2.610084597264425
1708433676.391205,-2.141451358795166,-1.33352646351371,-2.5270398298846644,6.110154974251547,1.0179988145828247,-2.6093927065478724
1708433676.3932168,-2.1414709091186523,-1.3335145127824326,-2.526994530354635,6.110175835877218,1.0180197954177856,-2.60868746439089
1708433676.3951952,-2.141447067260742,-1.3335233491710206,-2.5269911924945276,6.1102133868034265,1.0179988145828247,-2.6079583803759974
1708433676.3972187,-2.1414794921875,-1.3335352700999756,-2.5269911924945276,6.110109913140096,1.01804780960083,-2.607277218495504
1708433676.3992207,-2.1414313316345215,-1.3335189682296296,-2.5269911924945276,6.110193717270651,1.0180153846740723,-2.6064513365374964
1708433676.4011927,-2.1414670944213867,-1.3335430485061188,-2.5269957224475306,6.110126244812765,1.0180110931396484,-2.605738703404562
1708433676.4032562,-2.14150071144104,-1.3335342121175309,-2.526977602635519,6.110130893975057,1.0180763006210327,-2.6049473921405237
1708433676.405241,-2.141447067260742,-1.333505780701973,-2.5270074049579065,6.110205638199606,1.0180511474609375,-2.604129139577047
1708433676.4072459,-2.1414427757263184,-1.3334938448718567,-2.5270121733294886,6.110142695694723,1.0180633068084717,-2.6033220926867884
1708433676.40925,-2.1414313316345215,-1.333605484371521,-2.5270031134234827,6.110144245415487,1.018087387084961,-2.6025424639331263
1708433676.4111977,-2.141406536102295,-1.3335352700999756,-2.5270348230945032,6.110201227455892,1.018021821975708,-2.6017730871783655
1708433676.4132328,-2.1414356231689453,-1.3335220527699967,-2.527060333882467,6.110132324486532,1.018087387084961,-2.6009042898761194
1708433676.415223,-2.141397714614868,-1.3335593205741425,-2.5270841757403772,6.110177266388693,1.0181396007537842,-2.600067202244894
1708433676.4172442,-2.141418933868408,-1.3335712564042588,-2.5270586649524134,6.110118973046102,1.0181233882904053,-2.599193874989645
1708433676.4192336,-2.1414756774902344,-1.3335264337113877,-2.5270705858813685,6.110118973046102,1.0181561708450317,-2.5982804934131067
1708433676.421213,-2.141444206237793,-1.333554969435074,-2.5271034876452845,6.110111462860861,1.018151879310608,-2.597379748021261
1708433676.423226,-2.141444206237793,-1.3335461777499695,-2.5270825068103235,6.110050308495321,1.018151879310608,-2.596501413975851
1708433676.425236,-2.141484498977661,-1.3335756224444886,-2.527144257222311,6.110123383789816,1.0181387662887573,-2.595478598271505
1708433676.4272327,-2.1414759159088135,-1.3335342121175309,-2.527156178151266,6.110062229424276,1.018180251121521,-2.5946219603167933
1708433676.4292438,-2.1414644718170166,-1.3335790497115632,-2.5271499792682093,6.110095131188192,1.0181877613067627,-2.5936840216266077
1708433676.4312031,-2.1414108276367188,-1.3335012954524537,-2.527180020009176,6.11008762100295,1.018211841583252,-2.592727009450094
1708433676.4332497,-2.1414108276367188,-1.333554969435074,-2.5271876494037073,6.110113012581625,1.0181703567504883,-2.5917285124408167
1708433676.4352205,-2.1414361000061035,-1.3335264337113877,-2.5272372404681605,6.110005247383871,1.0182075500488281,-2.5907419363604944
1708433676.4372334,-2.1414194107055664,-1.3336248707822342,-2.5272207895862024,6.11001883724288,1.0182241201400757,-2.589776341115133
1708433676.4392529,-2.141378879547119,-1.3336010438254853,-2.5271907488452356,6.110024916916647,1.0182359218597412,-2.588867966328756
1708433676.4412103,-2.1413631439208984,-1.3335746836713334,-2.5272191206561487,6.110005128174581,1.0182524919509888,-2.5878990332232874
1708433676.4432614,-2.1413631439208984,-1.333587886100151,-2.5272517840014856,6.109944093018331,1.018227219581604,-2.5868950525866907
1708433676.445207,-2.1413261890411377,-1.3336085391095658,-2.527242962514059,6.109976875572958,1.0183138847351074,-2.5859668890582483
1708433676.447239,-2.1413307189941406,-1.3335790497115632,-2.527250353490011,6.109870898514547,1.0183007717132568,-2.5848916212665003
1708433676.449223,-2.141343593597412,-1.3335922968438645,-2.52727181116213,6.109887230187216,1.0182876586914062,-2.583947483693258
1708433676.451244,-2.141315460205078,-1.3336116534522553,-2.5272956530200403,6.109896170883932,1.0183115005493164,-2.582867209111349
1708433676.4532335,-2.141274929046631,-1.3335879159024735,-2.5273075739489954,6.109881269722738,1.018369197845459,-2.5818377176867884
1708433676.4552333,-2.1412720680236816,-1.333611638551094,-2.5272939840899866,6.109800565033712,1.0183552503585815,-2.580808941517965
1708433676.4572413,-2.1412112712860107,-1.3335867089084168,-2.5273359457599085,6.109762894898214,1.018388032913208,-2.579779926930563
1708433676.4592364,-2.1412065029144287,-1.333644152884819,-2.5273268858539026,6.109739529877462,1.0184370279312134,-2.578728739415304
1708433676.4612353,-2.14113450050354,-1.3336275827935715,-2.5273435751544397,6.109719741135397,1.018452525138855,-2.5777886549579065
1708433676.463241,-2.141160726547241,-1.3336441975883027,-2.527329985295431,6.109683739929952,1.0184481143951416,-2.576770607625143
1708433676.4652543,-2.1410999298095703,-1.3336189550212403,-2.527346436177389,6.109661567002096,1.0184884071350098,-2.5758047739612024
1708433676.4672215,-2.1411125659942627,-1.3336605292609711,-2.527367655430929,6.109645116120138,1.018484115600586,-2.574775044118063
1708433676.4692183,-2.141059398651123,-1.3336072576097031,-2.527375046406881,6.109583723336019,1.0185203552246094,-2.573845688496725
1708433676.4712174,-2.1410202980041504,-1.3336844158223649,-2.527375046406881,6.109529602318563,1.0185484886169434,-2.5727956930743616
1708433676.4732604,-2.1410045623779297,-1.3335942041924973,-2.5273855368243616,6.1095032570655725,1.0185801982879639,-2.5718146006213587
1708433676.4752126,-2.1409358978271484,-1.3336343330195923,-2.5274232069598597,6.109403240471639,1.0185757875442505,-2.5707314650165003
1708433676.4772382,-2.1408872604370117,-1.333705262546875,-2.527463499699728,6.109392630844869,1.018669843673706,-2.5697386900531214
1708433676.4792004,-2.1408321857452393,-1.3336145889810105,-2.5274515787707728,6.1093941805656335,1.0186402797698975,-2.5686913172351282
1708433676.481219,-2.140836715698242,-1.3336101186326523,-2.527479950581686,6.109337198525228,1.0186655521392822,-2.567690674458639
1708433676.483229,-2.140824794769287,-1.3337084960988541,-2.527482811604635,6.109301554947653,1.018656849861145,-2.5667012373553675
1708433676.4852154,-2.140723705291748,-1.3336790365031739,-2.5274861494647425,6.109250533371725,1.018660306930542,-2.5656350294696253
1708433676.487246,-2.1406357288360596,-1.3336668771556397,-2.5275145212756556,6.109148967057028,1.0186927318572998,-2.564507309590475
1708433676.4892094,-2.1406617164611816,-1.333658055668213,-2.5275355021106165,6.109130847245016,1.0187410116195679,-2.5634833017932337
1708433676.4912033,-2.1405394077301025,-1.3337116253427048,-2.527571503316061,6.109021770745077,1.0187987089157104,-2.562387768422262
1708433676.493227,-2.140516996383667,-1.3336703342250367,-2.527562443410055,6.109002220421591,1.0187726020812988,-2.5613680521594446
1708433676.4952106,-2.140477180480957,-1.3336528551629563,-2.5275939146624964,6.1088693020637415,1.0188219547271729,-2.5602696577655237
1708433676.4972458,-2.1404128074645996,-1.3336865913918992,-2.5276525656329554,6.108826148300924,1.0188416242599487,-2.5592888037311
1708433676.4992638,-2.1403720378875732,-1.3336984825185318,-2.5277002493487757,6.1087777493293665,1.0188860893249512,-2.5582459608661097
1708433676.5012343,-2.1402974128723145,-1.333739848142006,-2.527682606373922,6.108658420830526,1.0188729763031006,-2.557272736226217
1708433676.5032506,-2.1402409076690674,-1.3337148290923615,-2.527698818837301,6.1085373041923425,1.0189168453216553,-2.5561772028552454
1708433676.505208,-2.1401970386505127,-1.3337310713580628,-2.527715269719259,6.108533131867208,1.018921136856079,-2.5551932493792933
1708433676.5072358,-2.140134334564209,-1.333743007188179,-2.5277724901782435,6.108370172768392,1.0189740657806396,-2.554171387349264
1708433676.509251,-2.140078067779541,-1.3337386113456269,-2.5278056303607386,6.108290660172262,1.0190010070800781,-2.5531187693225306
1708433676.511199,-2.139986038208008,-1.3337671917727967,-2.527820650731222,6.108180272370138,1.0189878940582275,-2.5520663897143763
1708433676.5132291,-2.139890432357788,-1.333694190984108,-2.527828041707174,6.108088719635763,1.019081950187683,-2.5510571638690394
1708433676.515225,-2.139782428741455,-1.3337715578130265,-2.5278685728656214,6.107972371369161,1.019068956375122,-2.5500128904925745
1708433676.5172665,-2.139730930328369,-1.3337834787419816,-2.5278337637530726,6.107876765518942,1.0191302299499512,-2.549002710972921
1708433676.5192404,-2.1396548748016357,-1.3337583553842087,-2.527916495000021,6.107764470368185,1.0191748142242432,-2.5479400793658655
1708433676.521242,-2.139526128768921,-1.3337091666511078,-2.527947727833883,6.107616293221273,1.0191901922225952,-2.5469802061664026
1708433676.523269,-2.139446496963501,-1.3337626916221161,-2.5279584566699427,6.107529866486349,1.0192502737045288,-2.5459569136248987
1708433676.525224,-2.1392860412597656,-1.333795280461647,-2.528036419545309,6.107452142029562,1.019323468208313,-2.544929329548971
1708433676.5272732,-2.1391985416412354,-1.3337671917727967,-2.52804404893984,6.1072414992149255,1.019317865371704,-2.5440250078784388
1708433676.529283,-2.1390793323516846,-1.3337865781835099,-2.5280633608447474,6.107139813690939,1.0193541049957275,-2.543116633092062
1708433676.5312145,-2.1390013694763184,-1.3338139367154618,-2.5280993620501917,6.107008087425985,1.0194470882415771,-2.542032066975729
1708433676.5332606,-2.1388347148895264,-1.3338428896716614,-2.528127972279684,6.106818187027731,1.0194833278656006,-2.5411255995379847
1708433676.5352159,-2.1387083530426025,-1.3338757765344162,-2.528147284184591,6.106676447182455,1.0195268392562866,-2.5401068369494837
1708433676.537234,-2.138575792312622,-1.333890901213028,-2.5282073656665247,6.106573331146993,1.0195837020874023,-2.539190117512838
1708433676.5392118,-2.138448476791382,-1.3339237880757828,-2.528231207524435,6.106401312142172,1.0196110010147095,-2.538252655659811
1708433676.5411952,-2.1382968425750732,-1.333911584024765,-2.5283122698413294,6.106269943505087,1.0196828842163086,-2.5372992197619837
1708433676.5432048,-2.1381289958953857,-1.3338984710029145,-2.5283077398883265,6.106004106789388,1.0197521448135376,-2.536243502293722
1708433676.5452201,-2.138010263442993,-1.3339388382485886,-2.528358761464254,6.105915653496542,1.0198646783828735,-2.53536826768984
1708433676.5472474,-2.137822389602661,-1.333958388572075,-2.5283661524402063,6.105641948967733,1.0198832750320435,-2.5343757311450403
1708433676.5492542,-2.1376793384552,-1.3339745712331315,-2.528484884892599,6.105425464897909,1.0199346542358398,-2.5334115664111536
1708433676.5512025,-2.137528896331787,-1.3340105724385758,-2.52855354944338,6.105239856034078,1.0200611352920532,-2.532437864934103
1708433676.5532515,-2.1373116970062256,-1.3339777451804657,-2.528543297444479,6.105094897537985,1.0201036930084229,-2.531436268483297
1708433676.5552254,-2.1370792388916016,-1.3340465736440201,-2.528604809437887,6.10480962970809,1.0201847553253174,-2.530475680028097
1708433676.5572402,-2.1369361877441406,-1.3340537709048768,-2.5286558310138147,6.104540335922994,1.0202614068984985,-2.5295682589160364
1708433676.559224,-2.1366968154907227,-1.3340571385673066,-2.5286992231952112,6.104355203896322,1.0203412771224976,-2.5285900274859827
1708433676.5612245,-2.1365740299224854,-1.3341224205544968,-2.5287638346301478,6.10404251792983,1.0203925371170044,-2.5277350584613245
1708433676.5632486,-2.1363232135772705,-1.334186540251114,-2.5288072268115442,6.103885519295492,1.0204724073410034,-2.5267558733569544
1708433676.56523,-2.136106014251709,-1.3341736060431977,-2.528891150151388,6.103593933373251,1.020577073097229,-2.5258763472186487
1708433676.5672417,-2.135910749435425,-1.3341811311296006,-2.5289767424212855,6.103293645172872,1.0206615924835205,-2.5249210039721888
1708433676.5692513,-2.135707378387451,-1.3342421364835282,-2.529027763997213,6.102993356972494,1.020766258239746,-2.5240328947650355
1708433676.5712419,-2.1354312896728516,-1.3342853647521515,-2.5291088263141077,6.102792966156759,1.0208872556686401,-2.523209873829977
1708433676.5732498,-2.135268211364746,-1.334285394554474,-2.5291476885425013,6.102501380234518,1.0209181308746338,-2.5222855249988
1708433676.5752275,-2.1349964141845703,-1.3343084764531632,-2.529269043599264,6.102136480599203,1.020977258682251,-2.521362368260519
1708433676.5772257,-2.1347293853759766,-1.334349588756897,-2.529327694569723,6.10180019119338,1.0211269855499268,-2.5204792658435267
1708433676.5792434,-2.1344854831695557,-1.3343852919391175,-2.529419008885519,6.1014864323432825,1.0212681293487549,-2.519514862691061
1708433676.581212,-2.134218454360962,-1.3344126802733918,-2.5295451323138636,6.101109730988302,1.0213267803192139,-2.51864201227297
1708433676.5832384,-2.1338987350463867,-1.3344278049520035,-2.5296035448657435,6.100746500283041,1.0215009450912476,-2.5177372137652796
1708433676.5852046,-2.133676052093506,-1.334448755984642,-2.5296996275531214,6.100486027985372,1.021579623222351,-2.516921106969015
1708433676.5872216,-2.133356809616089,-1.3345049929669877,-2.529792610798971,6.100113498955526,1.0217087268829346,-2.5160346666919153
1708433676.5892172,-2.1330857276916504,-1.3345331412604828,-2.529904905949728,6.09978352764205,1.0217751264572144,-2.515250269566671
1708433676.5912035,-2.1327130794525146,-1.3345649254373093,-2.530029598866598,6.099432217865743,1.021928310394287,-2.51445442834963
1708433676.5932345,-2.1324214935302734,-1.334580050115921,-2.530104462300436,6.09910665729598,1.0220601558685303,-2.513628069554464
1708433676.5952616,-2.1321535110473633,-1.3345908683589478,-2.5302048365222376,6.098761188774862,1.022238850593567,-2.512789312993185
1708433676.5972738,-2.1318230628967285,-1.334669144158699,-2.5303176085101526,6.098369347840109,1.0223010778427124,-2.5120185057269495
1708433676.5992436,-2.1314544677734375,-1.334696204667427,-2.5303998629199427,6.097958552628317,1.0224417448043823,-2.5112152735339563
1708433676.601251,-2.13105845451355,-1.3347408932498475,-2.530531946812765,6.097510444908895,1.0225412845611572,-2.5104227701770228
1708433676.6032531,-2.1306796073913574,-1.3347199720195313,-2.5306769053088587,6.097085821419515,1.0227184295654297,-2.509662453328268
1708433676.6052856,-2.130378246307373,-1.334815890794136,-2.530850950871603,6.096681940346517,1.0229161977767944,-2.5088935534106653
1708433676.6072588,-2.130000352859497,-1.3348036867431183,-2.5309293905841272,6.096287238388815,1.0229535102844238,-2.508082691823141
1708433676.6092541,-2.12961483001709,-1.3348148477128525,-2.5310867468463343,6.095854151039877,1.0231677293777466,-2.507376257573263
1708433676.6112459,-2.129199981689453,-1.3348422211459656,-2.5311272780047815,6.095364677696981,1.0232824087142944,-2.5065415541278284
1708433676.6132307,-2.1287474632263184,-1.3348952543786545,-2.5313132444964808,6.094909059792318,1.023468017578125,-2.50580865541567
1708433676.6152294,-2.1283857822418213,-1.3350042563727875,-2.5314164797412317,6.094444381981649,1.0236200094223022,-2.505043331776754
1708433676.617248,-2.1279587745666504,-1.3349789542010804,-2.531619135533468,6.093968617707052,1.0238254070281982,-2.5043144861804407
1708433676.6192117,-2.1275277137756348,-1.3351005029729386,-2.5317254702197474,6.093360411911764,1.0239973068237305,-2.503530565892355
1708433676.6212063,-2.1270029544830322,-1.3351430904916306,-2.531910244618551,6.092834222107687,1.0241656303405762,-2.502801243458883
1708433676.6232638,-2.1265974044799805,-1.335179181104042,-2.5320406595813196,6.09235309341506,1.0243381261825562,-2.501969639454977
1708433676.6252449,-2.126142978668213,-1.3351986718228837,-2.532238308583395,6.091823923378744,1.0245106220245361,-2.5012291113482874
1708433676.6272233,-2.125703811645508,-1.3352538359216233,-2.5323897043811243,6.091269361763754,1.0246663093566895,-2.500537697468893
1708433676.629228,-2.1251938343048096,-1.3353271198323746,-2.5325620810138147,6.090697872429647,1.0248552560806274,-2.499730412160055
1708433676.6312027,-2.124685525894165,-1.3353779327920456,-2.5327134768115442,6.090096103935995,1.0250717401504517,-2.499030653630392
1708433676.633227,-2.1241421699523926,-1.3354615283063431,-2.532882038746969,6.0895142433936975,1.0252772569656372,-2.4983375708209437
1708433676.6352186,-2.1236424446105957,-1.3355214607766648,-2.5330751577960413,6.088883626251974,1.0254650115966797,-2.497601095830099
1708433676.6372364,-2.123093605041504,-1.3355811548284073,-2.53325063387026,6.08822118022994,1.0256932973861694,-2.4969118277179163
1708433676.6392074,-2.122551202774048,-1.335704968576767,-2.5334201494800013,6.087556230812826,1.0259053707122803,-2.4962216059314173
1708433676.64122,-2.121999502182007,-1.3357518774322052,-2.533637348805563,6.086840736656942,1.0261634588241577,-2.4954963366137903
1708433676.6432173,-2.1214044094085693,-1.3358073693564911,-2.5337801615344446,6.086174952774801,1.0263251066207886,-2.494847838078634
1708433676.6452239,-2.1208298206329346,-1.3359841865352173,-2.5340259710894983,6.085526573448934,1.0265997648239136,-2.494196955357687
1708433676.6472104,-2.1202173233032227,-1.336056263451912,-2.53425103822817,6.084827410965719,1.0267995595932007,-2.493545118962423
1708433676.6492312,-2.1196560859680176,-1.3360942167094727,-2.53442889848818,6.084154355316915,1.0270358324050903,-2.4927941004382532
1708433676.65119,-2.119020938873291,-1.3362192970565339,-2.534645144139425,6.083336341172018,1.0273176431655884,-2.492120091115133
1708433676.6532443,-2.1183907985687256,-1.3363430512002488,-2.5349484125720423,6.082657921105184,1.0275648832321167,-2.491422478352682
1708433676.655204,-2.1176955699920654,-1.3364213568023224,-2.5351298491107386,6.081848728447714,1.0278420448303223,-2.490807120000021
1708433676.6572146,-2.1170082092285156,-1.3365335178426285,-2.535365168248312,6.0810595629508875,1.0280698537826538,-2.4901674429522913
1708433676.6592367,-2.116337537765503,-1.3366485697082062,-2.5356064478503626,6.080270159035482,1.0283626317977905,-2.4894021193133753
1708433676.6612275,-2.115704298019409,-1.336760775451996,-2.535886828099386,6.079431879311361,1.0286314487457275,-2.488779369984762
1708433676.66322,-2.114990234375,-1.336905376320221,-2.536077324544088,6.078708278923788,1.0289242267608643,-2.488133494053976
1708433676.6652272,-2.1142632961273193,-1.3370042455247422,-2.5363336245166224,6.0780056593711755,1.0291632413864136,-2.4874025026904505
1708433676.6672053,-2.1135153770446777,-1.3370834451964875,-2.536576573048727,6.0770925162132166,1.0294718742370605,-2.486746374760763
1708433676.6692533,-2.1127219200134277,-1.3372876209071656,-2.5368781725512903,6.076185214310446,1.0298138856887817,-2.4861765543567103
1708433676.671209,-2.1119282245635986,-1.3373987686685105,-2.537170712147848,6.075285661011495,1.0300936698913574,-2.485476318989889
1708433676.6732445,-2.111088514328003,-1.3375061613372345,-2.5375002066241663,6.074392068177023,1.0304019451141357,-2.484899107609884
1708433676.675206,-2.110274314880371,-1.3376662892154236,-2.5377209822284144,6.073578464775839,1.0307961702346802,-2.4842782656299036
1708433676.677191,-2.109509229660034,-1.3378276091865082,-2.538067404423849,6.0726427910621545,1.0310596227645874,-2.483605686818258
1708433676.6792223,-2.1086788177490234,-1.337954805498459,-2.5382841269122522,6.07175503948287,1.031360387802124,-2.483048979436056
1708433676.681188,-2.1078600883483887,-1.338077725177147,-2.538583819066183,6.070768463402548,1.0316689014434814,-2.48246413866152
1708433676.6832232,-2.106956958770752,-1.3382776242545624,-2.538916889821188,6.069807636528768,1.0320053100585938,-2.4818764368640345
1708433676.6852322,-2.106117010116577,-1.3383885783008118,-2.539215628300802,6.068770277291097,1.0324071645736694,-2.481241766606466
1708433676.6872132,-2.1051321029663086,-1.338558868770935,-2.5395517984973353,6.067807900696554,1.0327428579330444,-2.4806938807116907
1708433676.6892285,-2.1042771339416504,-1.3387768131545563,-2.5399091879474085,6.066759931832113,1.033182144165039,-2.4800520578967493
1708433676.691218,-2.103309392929077,-1.338918761616089,-2.540244166051046,6.065740334778585,1.033583164215088,-2.479478184376852
1708433676.69324,-2.1023640632629395,-1.3390743148377915,-2.5405800978290003,6.06469093540267,1.033911108970642,-2.4788854757892054
1708433676.6952202,-2.10137677192688,-1.3392539036324997,-2.5409002939807337,6.063621747284689,1.0343480110168457,-2.4782360235797327
1708433676.6971943,-2.1004440784454346,-1.3394781363061448,-2.541204039250509,6.0626739142234705,1.034651279449463,-2.477647129689352
1708433676.6992075,-2.0994865894317627,-1.3396008175662537,-2.541572395955221,6.061592089920797,1.035072684288025,-2.477102581654684
1708433676.701224,-2.0984878540039062,-1.33982469261203,-2.5419653097735804,6.060532200127401,1.0355063676834106,-2.476496998463766
1708433676.7031932,-2.097513437271118,-1.3400412660888215,-2.5422900358783167,6.059450614243307,1.0358752012252808,-2.475919787083761
1708433676.705207,-2.0965657234191895,-1.340235487823822,-2.542619768773214,6.058375823288717,1.03621506690979,-2.4753103891955774
1708433676.7072136,-2.0955424308776855,-1.3403984767249604,-2.5430286566363733,6.057187664299764,1.0366644859313965,-2.4747164885150355
1708433676.7092214,-2.0944607257843018,-1.3406049025109787,-2.5434253851519983,6.05599986293868,1.0370854139328003,-2.47416598001589
1708433676.711238,-2.093400239944458,-1.3408246499351044,-2.54379111925234,6.054831850319662,1.0375388860702515,-2.473595921193258
1708433676.713207,-2.0924081802368164,-1.3410770458034058,-2.544171396886007,6.053595173149862,1.038000226020813,-2.4730144182788294
1708433676.7152228,-2.0913283824920654,-1.3412999671748658,-2.5446043650256556,6.052406298905172,1.0384279489517212,-2.472449843083517
1708433676.7172842,-2.090285301208496,-1.341542975311615,-2.5449982325183313,6.051288234978475,1.038873553276062,-2.471870724354879
1708433676.719226,-2.089198589324951,-1.3417424124530335,-2.5453720728503626,6.049991118698873,1.039294719696045,-2.4712393919574183
1708433676.7212198,-2.0881543159484863,-1.3419857186130066,-2.5457661787616175,6.048812734871664,1.0397024154663086,-2.470729176198141
1708433676.7232215,-2.0870015621185303,-1.342241422539093,-2.546220604573385,6.04756377914504,1.0401923656463623,-2.4701855818377894
1708433676.7252324,-2.0858538150787354,-1.3424968880466004,-2.546636168156759,6.0462872860725305,1.0406770706176758,-2.469567839299337
1708433676.7272418,-2.0846686363220215,-1.3427477937987824,-2.547096316014425,6.04503761509017,1.0412282943725586,-2.468994681035177
1708433676.7292254,-2.083486557006836,-1.343006746178009,-2.5475762526141565,6.043782937317648,1.0417152643203735,-2.468450371419088
1708433676.7312138,-2.0823206901550293,-1.3433143955520173,-2.5480364004718226,6.042441594391622,1.042211651802063,-2.4679110685931605
1708433676.7332082,-2.081103801727295,-1.3436132383397599,-2.548495594655172,6.041158306389608,1.042787790298462,-2.4673669973956507
1708433676.7352047,-2.0799221992492676,-1.343869076376297,-2.549021307622091,6.039916264801779,1.0431898832321167,-2.466764513646261
1708433676.737225,-2.0787487030029297,-1.344102070932724,-2.5494683424579065,6.0385615704353235,1.0436949729919434,-2.466219965611593
1708433676.739197,-2.0775415897369385,-1.3444024485400696,-2.5499239603625696,6.037260401039877,1.0442041158676147,-2.4656720797168177
1708433676.7412148,-2.0763065814971924,-1.3446608644774933,-2.5504072348224085,6.035907375603475,1.0447019338607788,-2.4652095476733606
1708433676.743263,-2.0750553607940674,-1.3449361485293885,-2.55092436472048,6.03455530384139,1.0452152490615845,-2.4646688143359583
1708433676.745211,-2.073732614517212,-1.3452425611070176,-2.5514355341540735,6.033212411194601,1.0457724332809448,-2.4641287962542933
1708433676.7472322,-2.0724143981933594,-1.3455997568419953,-2.5519920031176966,6.031826841622152,1.04634690284729,-2.46361214319338
1708433676.749224,-2.071106433868408,-1.3458237808993836,-2.55257755914797,6.030496585160055,1.0469026565551758,-2.463050429021017
1708433676.7512796,-2.069777011871338,-1.3461795163205643,-2.553067986165182,6.029151189118185,1.0474146604537964,-2.46250564256777
1708433676.7532706,-2.0684468746185303,-1.346487582927086,-2.553603235875265,6.0277689574058435,1.0480008125305176,-2.4619532267199915
1708433676.7552094,-2.06709623336792,-1.3467419755509873,-2.55415922800173,6.026354300766744,1.048508644104004,-2.4614747206317347
1708433676.7572458,-2.0657739639282227,-1.347052590256073,-2.554650370274679,6.024946796685018,1.049033284187317,-2.4609811941729944
1708433676.759208,-2.06431245803833,-1.3473799538663407,-2.555251423512594,6.023464071541586,1.0495878458023071,-2.4603708426104944
1708433676.7612493,-2.0628674030303955,-1.3477680844119568,-2.5558107534991663,6.021996724396505,1.0501819849014282,-2.4598971048938196
1708433676.7632258,-2.0614430904388428,-1.3480357688716431,-2.556429926549093,6.020451295166769,1.0508310794830322,-2.4594438711749476
1708433676.7652113,-2.059981107711792,-1.3483961534551163,-2.5570996443377894,6.0189483044441126,1.0515162944793701,-2.458956305180685
1708433676.7672644,-2.0585906505584717,-1.3487596076777955,-2.5576980749713343,6.017530429154196,1.0522193908691406,-2.458385769520895
1708433676.7692125,-2.057161331176758,-1.3490899515203019,-2.5582523981677454,6.015994536667623,1.0528188943862915,-2.4578567186938685
1708433676.7712471,-2.0556931495666504,-1.349490152006485,-2.5589008967029017,6.014508473664083,1.05342435836792,-2.4574230352984827
1708433676.7732744,-2.054255723953247,-1.3498388242772599,-2.559488836918966,6.013074505120077,1.0541032552719116,-2.4568522612201136
1708433676.7752388,-2.0527453422546387,-1.3502465647510071,-2.5601044336902063,6.011554944306173,1.0547595024108887,-2.4563685099231165
1708433676.7772696,-2.051205635070801,-1.3505919587663193,-2.560821596776144,6.009945857315817,1.0554852485656738,-2.455914084111349
1708433676.7792196,-2.0496883392333984,-1.3510936361602326,-2.5614832083331507,6.008321630745687,1.0562477111816406,-2.455400053654806
1708433676.781225,-2.0480728149414062,-1.3515035522035141,-2.5621545950519007,6.00674449184493,1.0570306777954102,-2.4549813906299036
1708433676.7832644,-2.046560049057007,-1.3519012343934556,-2.562803570424215,6.0051331398780725,1.0576655864715576,-2.454496208821432
1708433676.785242,-2.044997215270996,-1.352368490105011,-2.5634990374194544,6.003569113999166,1.0582741498947144,-2.4540727774249476
1708433676.7872632,-2.0433735847473145,-1.3527634900859375,-2.5641427675830286,6.002014028816976,1.0590171813964844,-2.453578297291891
1708433676.7892168,-2.0418639183044434,-1.3532043260386963,-2.564894978200094,6.000473367958822,1.0597020387649536,-2.4531505743609827
1708433676.7912295,-2.0402565002441406,-1.3537138265422364,-2.5655906836139124,5.998877870827474,1.060465693473816,-2.4526808897601526
1708433676.793253,-2.0386016368865967,-1.3542249661735077,-2.566359583531515,5.997252690583029,1.061127781867981,-2.4522534052478235
1708433676.7952304,-2.0369482040405273,-1.354619712834694,-2.5671239534961146,5.9955153343971155,1.0619555711746216,-2.451822106038229
1708433676.7972386,-2.0352978706359863,-1.3551231783679505,-2.5678795019732874,5.993804681092062,1.0627000331878662,-2.4513736406909388
1708433676.7992547,-2.033672571182251,-1.3556122493794938,-2.568618361149923,5.992073404579916,1.063485860824585,-2.4509738127337855
1708433676.8012202,-2.0319807529449463,-1.356115998034813,-2.569455925618307,5.990428674011984,1.0642480850219727,-2.4505580107318323
1708433676.8032458,-2.030360460281372,-1.3566475969604035,-2.570223633443014,5.988746511727133,1.0649759769439697,-2.4501124064074915
1708433676.8052223,-2.028672456741333,-1.3571082067540665,-2.5709427038775843,5.987052190094747,1.0657215118408203,-2.4496870676623743
1708433676.8072574,-2.0269908905029297,-1.3576399248889466,-2.5717433134662073,5.9853930352027795,1.066499948501587,-2.449304167424337
1708433676.8092375,-2.0253102779388428,-1.3581648778966446,-2.5725377241717737,5.983690488129415,1.0673621892929077,-2.4489155451404017
1708433676.8112087,-2.023607015609741,-1.3586879533580323,-2.5733869711505335,5.982017981797018,1.068202257156372,-2.4485111872302454
1708433676.8132427,-2.0218491554260254,-1.3592530202916642,-2.5742748419391077,5.980339038162985,1.0690804719924927,-2.4480727354632776
1708433676.8152058,-2.0200934410095215,-1.3597756934216996,-2.5750890413867396,5.97857819774703,1.0699851512908936,-2.4477434794055384
1708433676.817217,-2.018277645111084,-1.3603305679610749,-2.5758987108813685,5.976780283242025,1.0708459615707397,-2.447305742894308
1708433676.8192112,-2.016451597213745,-1.360929475431778,-2.5767436663257044,5.975066530495443,1.0715879201889038,-2.44694954553713
1708433676.8212013,-2.0147359371185303,-1.3613687318614502,-2.577571694050924,5.97338222244338,1.0724328756332397,-2.4465482870685022
1708433676.8232129,-2.012918710708618,-1.3619778466275712,-2.5784011522876185,5.971686112671652,1.0732499361038208,-2.4461610952960413
1708433676.8252332,-2.0111160278320312,-1.3624939185431977,-2.5792630354510706,5.9700589058692834,1.07411527633667,-2.4458447138415735
1708433676.827217,-2.0093579292297363,-1.3630661529353638,-2.5801873842822474,5.968428599625387,1.0749444961547852,-2.445409123097555
1708433676.8292003,-2.007554292678833,-1.3636472982219239,-2.5810487906085413,5.966768967896261,1.0758906602859497,-2.4451165835009974
1708433676.8312118,-2.0057127475738525,-1.364179865722992,-2.581932608281271,5.965121495514669,1.0767751932144165,-2.4447923342334192
1708433676.8332186,-2.0038936138153076,-1.364808813934662,-2.5829055945025843,5.963396894722738,1.0776268243789673,-2.4445140997516077
1708433676.835219,-2.0020155906677246,-1.3653560739806672,-2.583766285573141,5.961704957276144,1.0784425735473633,-2.44409948984255
1708433676.8372388,-2.000166177749634,-1.3659758132747193,-2.5847578684436243,5.959898578911581,1.0793377161026,-2.443796698247091
1708433676.8392076,-1.9982830286026,-1.3665504616549988,-2.585715357457296,5.958190548210897,1.0802136659622192,-2.44344669977297
1708433676.8412194,-1.9964170455932617,-1.3672011506608506,-2.58667761484255,5.956499922066488,1.0810784101486206,-2.443164650593893
1708433676.8432274,-1.9945517778396606,-1.3676640552333375,-2.587646547948019,5.954754817276754,1.0819391012191772,-2.442893091832296
1708433676.8452382,-1.992664098739624,-1.36822863042865,-2.5885234514819544,5.95303093174056,1.0827386379241943,-2.442591969166891
1708433676.8472407,-1.9908499717712402,-1.36887280762706,-2.589515034352438,5.95141218879775,1.0836126804351807,-2.442258898411886
1708433676.8492541,-1.9889353513717651,-1.36951997995887,-2.5904443899737757,5.949720966606893,1.0844718217849731,-2.4419947306262415
1708433676.8512387,-1.9870526790618896,-1.3701165479472657,-2.5915361086474817,5.947989213257589,1.085427165031433,-2.441695038472311
1708433676.8532515,-1.9851003885269165,-1.3707222503474732,-2.592527214680807,5.946226703911581,1.0863804817199707,-2.441413227711813
1708433676.855227,-1.983223557472229,-1.3713676196387787,-2.5935547987567347,5.9444806454475305,1.087382435798645,-2.4412108103381556
1708433676.8572397,-1.9812908172607422,-1.3720593762448807,-2.5945690313922327,5.942771184235372,1.0883064270019531,-2.440885368977682
1708433676.8592057,-1.9793782234191895,-1.3726981443217774,-2.5955708662616175,5.941008913307943,1.089202880859375,-2.440679375325338
1708433676.861204,-1.9773880243301392,-1.3733225178769608,-2.5965917746173304,5.939330327301779,1.0900707244873047,-2.440425697957174
1708433676.8632107,-1.9755258560180664,-1.373959244494774,-2.597664181386129,5.937702166825094,1.0909216403961182,-2.4401970545398157
1708433676.865213,-1.9736299514770508,-1.3746926051429291,-2.5986910502063196,5.935987579613485,1.0918805599212646,-2.4399357477771204
1708433676.8672152,-1.9716848134994507,-1.375308485036232,-2.5997594038592737,5.934258091240682,1.0928831100463867,-2.439754072819845
1708433676.869219,-1.9697248935699463,-1.3760826301625748,-2.6009143034564417,5.932537185936727,1.093847632408142,-2.439549986516134
1708433676.8712668,-1.9677480459213257,-1.3767731052688141,-2.60195500055422,5.930721151619711,1.094796061515808,-2.439317051564352
1708433676.873273,-1.965816855430603,-1.3774135273746033,-2.603014055882589,5.928975569992819,1.095701813697815,-2.439162317906515
1708433676.8752272,-1.963847279548645,-1.378106952910759,-2.6041441599475306,5.9273297665412805,1.0966843366622925,-2.4389403502093714
1708433676.877232,-1.9619168043136597,-1.378838227396347,-2.6051822344409388,5.925567137985983,1.097649097442627,-2.438809935246603
1708433676.8792424,-1.9598959684371948,-1.3795677882483979,-2.6062617937671106,5.923809277802267,1.0985649824142456,-2.438576046620504
1708433676.8812227,-1.9579463005065918,-1.3802369993976136,-2.6073065439807337,5.922097313195028,1.0994665622711182,-2.4384663740741175
1708433676.8832614,-1.95590078830719,-1.3809231680682679,-2.6084638277636927,5.920393931656637,1.1004527807235718,-2.438329044972555
1708433676.8852224,-1.9539293050765991,-1.3817196202329178,-2.609525505696432,5.918746697693624,1.101519227027893,-2.43815523782839
1708433676.8872294,-1.951910376548767,-1.382417456512787,-2.6107073465930384,5.917072045594015,1.102481722831726,-2.4380486647235315
1708433676.8892303,-1.9499139785766602,-1.383189634685852,-2.611922566090719,5.915299641876974,1.103551983833313,-2.437920872365133
1708433676.8912165,-1.9478838443756104,-1.3839994829944153,-2.613028113042013,5.913581239968099,1.104561686515808,-2.4378343264209192
1708433676.8932686,-1.9457687139511108,-1.384663776760437,-2.614166561757223,5.911891448288717,1.1054261922836304,-2.437687937413351
1708433676.8952134,-1.9437685012817383,-1.3854822677424927,-2.6153691450702112,5.910161006241598,1.1063369512557983,-2.437596861516134
1708433676.8972397,-1.9417803287506104,-1.3862487238696595,-2.6165719668017786,5.908585536270895,1.1073071956634521,-2.437469545994894
1708433676.8992236,-1.9397426843643188,-1.3870155674270173,-2.617741648350851,5.906974422722616,1.1081997156143188,-2.437331263219015
1708433676.90122,-1.9377856254577637,-1.3878312420896073,-2.6189757029162806,5.9053488848503015,1.1091443300247192,-2.437333647404806
1708433676.9032793,-1.9356260299682617,-1.3885799509337922,-2.6202033201800745,5.903624164849081,1.110121488571167,-2.4372172991382044
1708433676.905222,-1.9335730075836182,-1.3893342328122635,-2.6214714686023157,5.901934253960409,1.111137866973877,-2.4372032324420374
1708433676.907249,-1.9315240383148193,-1.3900955480388184,-2.6226804892169397,5.900268184929647,1.1120977401733398,-2.437138621007101
1708433676.9092345,-1.929445505142212,-1.3909564328244706,-2.6239238421069544,5.898552286415853,1.1130826473236084,-2.4370413462268274
1708433676.9113035,-1.927361011505127,-1.3917318147471924,-2.6251378695117396,5.896965968399801,1.1140035390853882,-2.4370139280902308
1708433676.9132252,-1.925284743309021,-1.392475650911667,-2.62636381784548,5.895235287934103,1.1149005889892578,-2.436924759541647
1708433676.915248,-1.923211693763733,-1.393235133295395,-2.627577845250265,5.893586742668905,1.11577570438385,-2.436972681676046
1708433676.9172437,-1.9211273193359375,-1.3940460246852417,-2.6288273970233362,5.891951072006979,1.116729974746704,-2.4368775526629847
1708433676.919243,-1.9190374612808228,-1.3948243719390412,-2.6301706472979944,5.8903270838554285,1.1177072525024414,-2.4368789831744593
1708433676.9212177,-1.9169679880142212,-1.3956720244935532,-2.631444279347555,5.888673889427938,1.1187455654144287,-2.436817232762472
1708433676.9232504,-1.9148489236831665,-1.3964480620673676,-2.632796112691061,5.887041079788961,1.1197372674942017,-2.4368472735034388
1708433676.9252448,-1.9127511978149414,-1.3972784143737336,-2.6340609232531946,5.885426032334127,1.1206971406936646,-2.4368069807635706
1708433676.927283,-1.9106645584106445,-1.398096815948822,-2.6353467146502894,5.8838140843208215,1.1216142177581787,-2.4368472735034388
1708433676.929279,-1.9085873365402222,-1.398915172820427,-2.6366103331195276,5.882101642876425,1.1225683689117432,-2.436873261128561
1708433676.9312196,-1.9064862728118896,-1.3996970516494294,-2.637839142476217,5.880517351418295,1.1234768629074097,-2.4368472735034388
1708433676.933236,-1.904438853263855,-1.400536597972252,-2.6390848795520228,5.878877031594076,1.1243767738342285,-2.436892573033468
1708433676.9352264,-1.9023807048797607,-1.40132691085849,-2.640416208897726,5.877320515900411,1.125375509262085,-2.4369786421405237
1708433676.9372644,-1.9002463817596436,-1.4021517944386979,-2.6416950861560267,5.875701892166891,1.126283049583435,-2.4369476477252405
1708433676.9392173,-1.898138403892517,-1.403065712457039,-2.643043820058004,5.874106395035543,1.127227544784546,-2.4369872252093714
1708433676.941226,-1.896030306816101,-1.4039161515286942,-2.6443355719195765,5.872466790467062,1.1282047033309937,-2.4370980898486536
1708433676.943231,-1.8938950300216675,-1.404663861995079,-2.6456127802478235,5.870872127800741,1.1291208267211914,-2.4370816389666956
1708433676.9452243,-1.8917498588562012,-1.4055877935937424,-2.6469646135913294,5.869336712151327,1.1299885511398315,-2.4371655623065394
1708433676.9472473,-1.889662265777588,-1.4064708066037674,-2.648259941731588,5.867746698647299,1.1308215856552124,-2.437127653752462
