Eg3-git/Classifiers/Data Collection/u1/u1xyz1_ur3e_joint_states.csv
time,elbow_joint,shoulder_lift_joint,shoulder_pan_joint,wrist_1_joint,wrist_2_joint,wrist_3_joint
1708433760.983971,-2.139556407928467,-1.3321861189654847,-2.524838987980978,6.103104936867513,1.0143226385116577,-3.5621662775622767
1708433760.9859924,-2.139512538909912,-1.3322113019279023,-2.524867836629049,6.102987277298727,1.0143122673034668,-3.5634146372424524
1708433760.9879801,-2.1394717693328857,-1.332212657933571,-2.524860207234518,6.102826106339254,1.0143001079559326,-3.564579788838522
1708433760.9899843,-2.1394479274749756,-1.332200826411583,-2.52482253709902,6.102730142861166,1.0142744779586792,-3.5657413641559046
1708433760.9919884,-2.139346122741699,-1.332184152012207,-2.5247705618487757,6.102737533837118,1.0141857862472534,-3.5669341723071497
1708433760.9939618,-2.139322280883789,-1.3321796369603653,-2.5247824827777308,6.102595793991842,1.0141992568969727,-3.568101946507589
1708433760.9959965,-2.1392905712127686,-1.3322141629508515,-2.5247884432422083,6.102528440743246,1.014159083366394,-3.569320027028219
1708433760.9979863,-2.139300584793091,-1.3321885776570817,-2.5247884432422083,6.102408635407247,1.0141600370407104,-3.570463005696432
1708433760.9999917,-2.139273166656494,-1.332157240515091,-2.5247297922717493,6.102353560715475,1.0141407251358032,-3.571714703236715
1708433761.0019715,-2.1392030715942383,-1.3321273189834137,-2.524747673665182,6.102175700455465,1.0141048431396484,-3.5729218165027063
1708433761.0039842,-2.139198064804077,-1.332140566115715,-2.524714771901266,6.102121937065878,1.0140595436096191,-3.5741363207446497
1708433761.0059807,-2.139103412628174,-1.332177997832634,-2.5247328917132776,6.1020545838172815,1.0140595436096191,-3.5753124395953577
1708433761.0080006,-2.139150381088257,-1.3321317297271271,-2.5246787706958216,6.101921546250143,1.0139994621276855,-3.5765543619738978
1708433761.010031,-2.139068126678467,-1.332157240515091,-2.5246711413012903,6.10185860374526,1.01396644115448,-3.577733341847555
1708433761.0119934,-2.139045238494873,-1.3320885312608262,-2.5246382395373743,6.101795780449667,1.0139590501785278,-3.5788005034076136
1708433761.0139453,-2.139014482498169,-1.3320751947215577,-2.524668280278341,6.101679432183065,1.0139483213424683,-3.580026690159933
1708433761.0159664,-2.1389806270599365,-1.3320557934096833,-2.52460223833193,6.101614820748129,1.013870358467102,-3.5811505953418177
1708433761.0179749,-2.138887882232666,-1.332064689402916,-2.524627749119894,6.1014760611350916,1.0138341188430786,-3.5823169390307825
1708433761.020001,-2.138918161392212,-1.3321259778789063,-2.524590317402975,6.101331102638998,1.0138176679611206,-3.5835183302508753
1708433761.0219624,-2.1388285160064697,-1.3320885461619874,-2.5245872179614466,6.1012964127357385,1.013789415359497,-3.5846765677081507
1708433761.0239546,-2.1387882232666016,-1.3320647043040772,-2.524605099354879,6.1012141583259485,1.0137948989868164,-3.585841242467062
1708433761.0259645,-2.1387898921966553,-1.3320527833751221,-2.5245679060565394,6.101134884148397,1.0137501955032349,-3.5870466868029993
1708433761.02796,-2.1387581825256348,-1.3320691299489518,-2.5245559851275843,6.100963580399313,1.0137141942977905,-3.588180128728048
1708433761.029955,-2.1387643814086914,-1.332090051179268,-2.5244913736926478,6.100942003517904,1.0136525630950928,-3.589330259953634
1708433761.031973,-2.138678789138794,-1.3320037734559556,-2.5245288054095667,6.10083173492507,1.013666033744812,-3.590536657963888
1708433761.0339603,-2.138606309890747,-1.332058311705925,-2.524470631276266,6.100730049401083,1.0136011838912964,-3.5918148199664515
1708433761.0359557,-2.138597249984741,-1.33199596524749,-2.5244627634631556,6.100601541786947,1.0136477947235107,-3.592999045048849
1708433761.037988,-2.1385135650634766,-1.3319839996150513,-2.5244506041156214,6.100576030998983,1.0135788917541504,-3.594124142323629
1708433761.0399644,-2.1384904384613037,-1.3319960099509736,-2.524431292210714,6.100464093476095,1.0135589838027954,-3.5952354113208216
1708433761.041949,-2.1384384632110596,-1.3319884997657319,-2.5244386831866663,6.100344288140096,1.0135382413864136,-3.596320454274313
1708433761.0439868,-2.138415575027466,-1.3319765341332932,-2.524431292210714,6.100276696472921,1.0135185718536377,-3.597456757222311
1708433761.0459754,-2.138327121734619,-1.3319854450276871,-2.524435822163717,6.100127923279562,1.0134687423706055,-3.5985427538501185
1708433761.0479918,-2.1382863521575928,-1.3319765788367768,-2.524431292210714,6.100052940636434,1.0134912729263306,-3.5996232668506067
1708433761.050037,-2.1382555961608887,-1.3320062768510361,-2.524428431187765,6.099943983345785,1.0134344100952148,-3.600778404866354
1708433761.0519822,-2.138184070587158,-1.3319810044816514,-2.5244208017932337,6.099861371308126,1.0134073495864868,-3.6019020716296595
1708433761.054,-2.1381006240844727,-1.3319479835084458,-2.524369780217306,6.099737512856283,1.0133743286132812,-3.603095356618063
1708433761.0559814,-2.138062000274658,-1.3319809597781678,-2.5244088808642786,6.099605905800619,1.013345718383789,-3.604218308125631
1708433761.0579836,-2.1379904747009277,-1.331991286282875,-2.5243757406817835,6.099531042366781,1.0133217573165894,-3.605338160191671
1708433761.0599713,-2.1379013061523438,-1.3319524240544816,-2.5243802706347864,6.099414813309469,1.0133098363876343,-3.6063810030566614
1708433761.0619798,-2.1379129886627197,-1.3319361221841355,-2.5243473688708704,6.099245774536886,1.0132901668548584,-3.6074214617358606
1708433761.0639553,-2.1378157138824463,-1.3319524091533204,-2.5243518988238733,6.099183070450582,1.013249397277832,-3.608516279851095
1708433761.0659587,-2.137800693511963,-1.3319602322629471,-2.5243309179889124,6.099042761116781,1.0132375955581665,-3.6095827261554163
1708433761.067975,-2.137669563293457,-1.3319360476783295,-2.524344507847921,6.098981129914083,1.0132014751434326,-3.610628906880514
1708433761.0699549,-2.1376264095306396,-1.3319613945535203,-2.524306599293844,6.09888111332015,1.0131683349609375,-3.6116820017444056
1708433761.0719516,-2.1376125812530518,-1.331928701405861,-2.524287287388937,6.0987539170081995,1.013161063194275,-3.6127479712115687
1708433761.0739605,-2.137544631958008,-1.3319286567023774,-2.524299208317892,6.098637211113729,1.01316237449646,-3.6137400309192103
1708433761.0759966,-2.1374471187591553,-1.3319360476783295,-2.524266544972555,6.098517882614889,1.0131504535675049,-3.614863697682516
1708433761.077961,-2.137392282485962,-1.331909255390503,-2.524299208317892,6.098389255791464,1.0131096839904785,-3.615884606038229
1708433761.0799506,-2.137320041656494,-1.3319286567023774,-2.524270836506979,6.098298179894247,1.0130977630615234,-3.6169264952289026
1708433761.081954,-2.1372902393341064,-1.3319003891995926,-2.52431565919985,6.098170864373007,1.0130903720855713,-3.6179824511157435
1708433761.0839565,-2.1371817588806152,-1.3319167506745835,-2.52431565919985,6.098085629730978,1.0130119323730469,-3.6189964453326624
1708433761.0859444,-2.1370797157287598,-1.3319003891995926,-2.5243127981769007,6.097931849747457,1.013049602508545,-3.62008244196047
1708433761.0879526,-2.137040853500366,-1.3318915230086823,-2.5243170897113245,6.097812163620748,1.0130540132522583,-3.6211238543139856
1708433761.0899816,-2.136927604675293,-1.3319957715323945,-2.5242753664599817,6.097668874054708,1.0130255222320557,-3.622201744710104
1708433761.091951,-2.1368846893310547,-1.3319242310575028,-2.5242558161364954,6.0975578902061365,1.0130090713500977,-3.6233328024493616
1708433761.093972,-2.1368253231048584,-1.3319450181773682,-2.5242798964129847,6.097413050919332,1.0129474401474,-3.6242955366717737
1708433761.0959594,-2.1367413997650146,-1.3319538843682786,-2.5242558161364954,6.097265112191,1.0129897594451904,-3.625359598790304
1708433761.0979729,-2.136646032333374,-1.3319003891995926,-2.5242183844195765,6.097175347595968,1.0129445791244507,-3.626321856175558
1708433761.0999572,-2.1366143226623535,-1.3319958013347168,-2.5242679754840296,6.097034919052877,1.0129327774047852,-3.6273730436908167
1708433761.101994,-2.1365303993225098,-1.3319835525802155,-2.5242512861834925,6.096830594330587,1.0129698514938354,-3.628317896519796
1708433761.103963,-2.136462450027466,-1.33191233993087,-2.5242558161364954,6.096719610482015,1.0129159688949585,-3.6292899290667933
1708433761.10596,-2.136392116546631,-1.3319048148444672,-2.5242272059070032,6.096599805146017,1.012953519821167,-3.630237404500143
1708433761.107953,-2.136286497116089,-1.332007647757866,-2.524269167576925,6.096426951676168,1.012953519821167,-3.63114577928652
1708433761.1099467,-2.136235237121582,-1.3319657903960724,-2.5242438952075403,6.096287953644552,1.0129131078720093,-3.632216993962423
1708433761.1119504,-2.1360905170440674,-1.331949458723404,-2.5242484251605433,6.096206533699789,1.0129294395446777,-3.6332019011126917
1708433761.1139581,-2.1360270977020264,-1.331978054051735,-2.524236265813009,6.096051203995504,1.012879729270935,-3.6342244783984583
1708433761.1159742,-2.1358909606933594,-1.3319242757609864,-2.5242272059070032,6.095824348717489,1.01286780834198,-3.6352153460132044
1708433761.1179702,-2.1358230113983154,-1.3319123101285477,-2.524207894002096,6.095686542778768,1.012855887413025,-3.6362701098071497
1708433761.1199818,-2.1357476711273193,-1.3319242161563416,-2.5242484251605433,6.095519292145529,1.0129021406173706,-3.637197558079855
1708433761.1219587,-2.135652542114258,-1.3319701862386246,-2.524231735860006,6.095354902535238,1.0129008293151855,-3.6382365862475794
1708433761.1239946,-2.1355323791503906,-1.3319824498942872,-2.5242438952075403,6.095227706223287,1.012905240058899,-3.639188591633932
1708433761.1259878,-2.135387659072876,-1.331907869582512,-2.5242348353015345,6.095032202988424,1.0128841400146484,-3.640120808278219
1708433761.1279714,-2.1352927684783936,-1.3319152754596253,-2.5242813269244593,6.0948898670967,1.012857437133789,-3.641050402318136
1708433761.1299562,-2.135172128677368,-1.3319691133550187,-2.524252955113546,6.09471486785964,1.0128484964370728,-3.642087761555807
1708433761.1320276,-2.135096788406372,-1.3319690984538575,-2.5242725054370325,6.09451042392806,1.0128273963928223,-3.643050495778219
1708433761.1339579,-2.1349565982818604,-1.3319479388049622,-2.5242770353900355,6.094350564270773,1.0128737688064575,-3.643996302281515
1708433761.135955,-2.134861946105957,-1.331964672808983,-2.5242889563189905,6.094155895500936,1.0128498077392578,-3.645017925892965
1708433761.1379726,-2.134709358215332,-1.331997351055481,-2.5242467562304896,6.093996155052938,1.012861967086792,-3.6459837595569056
1708433761.1399488,-2.134665012359619,-1.3320137125304718,-2.5242753664599817,6.093808042794027,1.012840747833252,-3.6469507853137415
1708433761.1419997,-2.1345067024230957,-1.3319676679423829,-2.5242589155780237,6.0936553356941126,1.0128452777862549,-3.6478708426104944
1708433761.14396,-2.134347915649414,-1.332008258705475,-2.5242753664599817,6.09337745884017,1.0128318071365356,-3.6489084402667444
1708433761.1459765,-2.1341421604156494,-1.3320450645736237,-2.5242889563189905,6.093136894493856,1.0128498077392578,-3.649874750767843
1708433761.1479526,-2.134035110473633,-1.332037554388382,-2.5242844263659876,6.093004691391744,1.012861967086792,-3.65082818666567
1708433761.1499972,-2.1339237689971924,-1.3320215356400986,-2.5243008772479456,6.092767464905538,1.0128077268600464,-3.6518309752093714
1708433761.151987,-2.1337337493896484,-1.332089976673462,-2.5243335405932825,6.092548000603475,1.012819528579712,-3.6528425852404993
1708433761.153988,-2.1335928440093994,-1.3320602935603638,-2.524332586918966,6.092340099602499,1.0128530263900757,-3.6538432280169886
1708433761.1559644,-2.1334638595581055,-1.3320647043040772,-2.524320189152853,6.092121708184042,1.0128363370895386,-3.654839340840475
1708433761.1579816,-2.133300304412842,-1.3321052205613633,-2.524311129246847,6.091914164810934,1.0128693580627441,-3.655853811894552
1708433761.159969,-2.1331775188446045,-1.3321289730123063,-2.5243354479419153,6.091674315720358,1.0128452777862549,-3.656766478215353
1708433761.1619754,-2.132976770401001,-1.3321112853339692,-2.524393622075216,6.0914190886314294,1.012866497039795,-3.6577349344836634
1708433761.1639757,-2.132812261581421,-1.3321735721877594,-2.5243921915637415,6.091257560044088,1.0129356384277344,-3.6587286631213587
1708433761.1659853,-2.132606029510498,-1.332184152012207,-2.5243712107287806,6.090948450356283,1.0128693580627441,-3.659701649342672
1708433761.1679711,-2.132455348968506,-1.332250179057457,-2.5243831316577356,6.090738999634542,1.0129144191741943,-3.66063100496401
1708433761.1699762,-2.132274866104126,-1.3322456640056153,-2.524461332951681,6.090471374779501,1.0128962993621826,-3.661471668873922
1708433761.171974,-2.1321163177490234,-1.332281009559967,-2.5244596640216272,6.090223300247946,1.0129551887512207,-3.662391964589254
1708433761.1739907,-2.131911039352417,-1.3322559160045166,-2.524485174809591,6.09000180938796,1.0129220485687256,-3.6633859316455286
1708433761.1759982,-2.1316750049591064,-1.332275540833809,-2.5244885126696985,6.089621054917135,1.0129669904708862,-3.664387051259176
1708433761.177989,-2.131500244140625,-1.3323572886041184,-2.5245242754565638,6.089395391732015,1.012953519821167,-3.665400807057516
1708433761.1799722,-2.1312758922576904,-1.3323484671166916,-2.5245495478259485,6.089051472931661,1.0129445791244507,-3.666405979787008
1708433761.1819625,-2.1310672760009766,-1.332367868428566,-2.5245559851275843,6.088734733849325,1.013022541999817,-3.6673248449908655
1708433761.1840048,-2.130896806716919,-1.332386092548706,-2.5245962778674524,6.08846544006423,1.0130136013031006,-3.6682825724231165
1708433761.1860197,-2.1306698322296143,-1.33241160333667,-2.5246289412127894,6.088162410050192,1.013051152229309,-3.669225279484884
1708433761.1879764,-2.1305131912231445,-1.3324978363564988,-2.5246201197253626,6.087830173760214,1.0130242109298706,-3.6700907389270228
1708433761.1900415,-2.1302592754364014,-1.3324756187251587,-2.524665180836813,6.087519156723776,1.01308274269104,-3.671053711568014
1708433761.19205,-2.1300482749938965,-1.3324460101178666,-2.5246923605548304,6.087193357735433,1.0131068229675293,-3.671990458165304
1708433761.1939979,-2.1297738552093506,-1.332551823263504,-2.5246952215777796,6.086815583496847,1.01313054561615,-3.672967259083883
1708433761.1960063,-2.129551410675049,-1.3325517785600205,-2.524731222783224,6.086561310082235,1.0131834745407104,-3.6738901774035853
1708433761.1979825,-2.129300832748413,-1.3325875860503693,-2.524797264729635,6.086212026863851,1.0132060050964355,-3.6748648325549524
1708433761.19998,-2.1290316581726074,-1.332616166477539,-2.5248213450061243,6.085885751038351,1.0132137537002563,-3.675756279622213
1708433761.2019677,-2.12886381149292,-1.3326433312943955,-2.524794403706686,6.085534441262045,1.0132628679275513,-3.6767094771014612
1708433761.2039804,-2.1285746097564697,-1.3326343905976792,-2.524909798298971,6.085224854737081,1.0132946968078613,-3.677635733281271
1708433761.2059565,-2.1282830238342285,-1.3327028316310425,-2.5249410311328333,6.0848814127738855,1.0133486986160278,-3.678547445927755
1708433761.2079895,-2.1280314922332764,-1.3326997619918366,-2.5249696413623255,6.08447145202712,1.013375997543335,-3.6794496218310755
1708433761.209969,-2.127784013748169,-1.332741917376854,-2.524996582661764,6.08415042141036,1.01338791847229,-3.680370871220724
1708433761.2119706,-2.127516269683838,-1.3327984672835846,-2.5250163714038294,6.0837511894996545,1.0134148597717285,-3.681289021168844
1708433761.2139804,-2.127241611480713,-1.3327582639506836,-2.5250640551196497,6.083364593773641,1.0134086608886719,-3.6822951475726526
1708433761.2159781,-2.1269547939300537,-1.3328883212855835,-2.5251241366015833,6.08296965339736,1.0134823322296143,-3.6831916014300745
1708433761.2180576,-2.126676559448242,-1.3328940582326432,-2.5252020994769495,6.082583534508505,1.0135396718978882,-3.6841123739825647
1708433761.2200024,-2.126358985900879,-1.3329059791615983,-2.525200668965475,6.082221853524008,1.0135589838027954,-3.6851099173175257
1708433761.2219744,-2.1260969638824463,-1.332966150050499,-2.5252488295184534,6.081720936089315,1.013656735420227,-3.68605620065798
1708433761.2239635,-2.1257848739624023,-1.3329735559276124,-2.5252965132342737,6.081368195801534,1.013688564300537,-3.6869798342334192
1708433761.2259889,-2.125480890274048,-1.3330542606166382,-2.5253024736987513,6.080988991051473,1.0137289762496948,-3.68783408800234
1708433761.2279975,-2.125173330307007,-1.3330498349717637,-2.5253880659686487,6.080573427468099,1.013768196105957,-3.688718382512228
1708433761.229959,-2.1249003410339355,-1.3330899339965363,-2.525452438985006,6.080130922585287,1.0137829780578613,-3.6895862261401575
1708433761.2319536,-2.1245317459106445,-1.3331454408219834,-2.5255213419543665,6.079699146538534,1.013855218887329,-3.6905601660357874
1708433761.2340233,-2.12420392036438,-1.3331845116666337,-2.525593344365255,6.079262482910909,1.0139665603637695,-3.6914330164538782
1708433761.2359748,-2.1238927841186523,-1.333281473522522,-2.525599543248312,6.078831898957052,1.0140173435211182,-3.6922360102282923
1708433761.237963,-2.1235368251800537,-1.333305225973465,-2.525689188634054,6.078412163048544,1.0140938758850098,-3.693056885396139
1708433761.2399478,-2.1232054233551025,-1.3333617460778733,-2.5256956259356897,6.077933537750997,1.0141571760177612,-3.693963591252462
1708433761.2419415,-2.1228630542755127,-1.3333726537278672,-2.525780741368429,6.077504622727194,1.0141962766647339,-3.6948021093951624
1708433761.2439845,-2.1225192546844482,-1.3334528368762513,-2.525893274937765,6.0770290968711755,1.0142804384231567,-3.6956544558154505
1708433761.2459497,-2.122098684310913,-1.3335498881391068,-2.5258918444262903,6.076558458596029,1.0143495798110962,-3.69657808939089
1708433761.247988,-2.1218011379241943,-1.3335904043963929,-2.525984589253561,6.076050627022543,1.0144546031951904,-3.6975000540362757
1708433761.2500424,-2.1214334964752197,-1.3336232912591477,-2.5260687510119837,6.075580942421713,1.014517903327942,-3.6983841101275843
1708433761.2520878,-2.121005058288574,-1.3337176752141495,-2.526149574910299,6.0751123307044885,1.0145689249038696,-3.699261490498678
1708433761.254028,-2.12066650390625,-1.3337192249349137,-2.526221577321188,6.0745617029960535,1.0146739482879639,-3.7001078764544886
1708433761.2559576,-2.1203036308288574,-1.3337909889272233,-2.526284996663229,6.074083196907797,1.0147961378097534,-3.7010038534747522
1708433761.2579894,-2.119913101196289,-1.333826945429184,-2.526344601308004,6.073472368508138,1.0148050785064697,-3.701820198689596
1708433761.2599504,-2.119509696960449,-1.3339073967984696,-2.526419703160421,6.073018777161398,1.0149341821670532,-3.7026920954333704
1708433761.261964,-2.11906099319458,-1.3339225959828873,-2.526503864918844,6.0724819777305505,1.015060544013977,-3.7035658995257776
1708433761.2639735,-2.1186962127685547,-1.3340357404998322,-2.5266135374652308,6.071914422302999,1.015102505683899,-3.7043684164630335
1708433761.265948,-2.118265390396118,-1.3340714138797303,-2.5266762415515345,6.0714300749595544,1.0152199268341064,-3.705203358327047
1708433761.2679641,-2.117780923843384,-1.3341344606927414,-2.5267887751208704,6.070797192841329,1.0152664184570312,-3.706045691167013
1708433761.2699664,-2.1173317432403564,-1.3342434775880356,-2.526872698460714,6.070288407593527,1.0154333114624023,-3.706869427357809
1708433761.2719712,-2.116954803466797,-1.334225983624794,-2.526989523564474,6.069718587189474,1.0155130624771118,-3.7077482382403772
1708433761.2739503,-2.1165122985839844,-1.334318072800972,-2.52710205713381,6.069046962052145,1.015580177307129,-3.7085889021502894
1708433761.2759483,-2.115996837615967,-1.3344017726233979,-2.52714711824526,6.068485367089071,1.0157052278518677,-3.709419552479879
1708433761.2779496,-2.1154873371124268,-1.3344782453826447,-2.52726394334902,6.067920076638021,1.0158178806304932,-3.7102742830859583
1708433761.279958,-2.115065574645996,-1.3344841760447999,-2.527355496083395,6.067322838097372,1.0159262418746948,-3.710972611104147
1708433761.2819676,-2.114595651626587,-1.334572584634163,-2.5275431315051478,6.066765057831564,1.0160222053527832,-3.7118728796588343
1708433761.283979,-2.1140475273132324,-1.3346431118300934,-2.52760893503298,6.066154587059774,1.0161545276641846,-3.7127061525927942
1708433761.2859726,-2.1135475635528564,-1.3347641390613099,-2.5277167002307337,6.0655284998710535,1.016250729560852,-3.7135635058032435
1708433761.2879622,-2.1130542755126953,-1.3348474961570282,-2.527841393147604,6.064886319428243,1.0163785219192505,-3.714316431676046
1708433761.2899666,-2.112532377243042,-1.3349442344954987,-2.52795654932131,6.064288246422567,1.0164943933486938,-3.715109888707296
1708433761.2919934,-2.112027406692505,-1.3350076091340561,-2.528076950703756,6.063609230309286,1.0166101455688477,-3.716012779866354
1708433761.293954,-2.111469268798828,-1.3350878816894074,-2.5282133261310022,6.062980878144064,1.0167392492294312,-3.716850821171896
1708433761.295953,-2.110938787460327,-1.335134507422783,-2.528358761464254,6.062371241837301,1.0168473720550537,-3.7177162806140345
1708433761.29797,-2.110391616821289,-1.3351930689862748,-2.5284815470324915,6.0617339489753626,1.0169929265975952,-3.7184975782977503
1708433761.2999668,-2.109863042831421,-1.3353331846049805,-2.5286181608783167,6.061049687653341,1.0171208381652832,-3.7192168871508997
1708433761.3019848,-2.1092617511749268,-1.3354097318700333,-2.528757635747091,6.060342776566305,1.0172531604766846,-3.720043961201803
1708433761.3039975,-2.108642339706421,-1.335563303237297,-2.5289180914508265,6.059583294182577,1.0174455642700195,-3.720835034047262
1708433761.305986,-2.108048915863037,-1.335661993627884,-2.529020373021261,6.0589191792304895,1.0175431966781616,-3.7215495745288294
1708433761.307996,-2.1074578762054443,-1.3357620400241395,-2.529189650212423,6.058188783913412,1.0177654027938843,-3.7223358790027063
1708433761.3099868,-2.1068475246429443,-1.3358443689397355,-2.5293501059161585,6.057514774590292,1.0178813934326172,-3.723107401524679
1708433761.3119793,-2.106255531311035,-1.3359685105136414,-2.529567543660299,6.056798207550802,1.0180104970932007,-3.7237816492663782
1708433761.3140202,-2.105649709701538,-1.336072863345482,-2.5296903292285364,6.056011903076925,1.0181294679641724,-3.7245190779315394
1708433761.3159626,-2.105032444000244,-1.3362086129239579,-2.529841725026266,6.055260050087728,1.0183063745498657,-3.7252567450152796
1708433761.3180094,-2.104405403137207,-1.3363163781217118,-2.529990259801046,6.0545315621192834,1.0184553861618042,-3.7260566393481653
1708433761.3199635,-2.103817939758301,-1.3363706481507798,-2.530182425175802,6.053790795594015,1.0186270475387573,-3.726745907460348
1708433761.3219671,-2.1032140254974365,-1.3365093779614945,-2.5303128401385706,6.053032862931051,1.018778681755066,-3.727516237889425
1708433761.3239586,-2.1025006771087646,-1.3366542023471375,-2.530506197606222,6.052212345391073,1.0190056562423706,-3.7283270994769495
1708433761.3260105,-2.101870059967041,-1.3367978197387238,-2.5306859652148646,6.051419245987692,1.0191527605056763,-3.7290356794940394
1708433761.327969,-2.101104736328125,-1.3368682873300095,-2.530842129384176,6.050593483238973,1.0193828344345093,-3.7297826449023646
1708433761.3302834,-2.1004316806793213,-1.3370739233544846,-2.5310266653644007,6.049767839699545,1.0195462703704834,-3.7304702440844935
1708433761.3319685,-2.099743366241455,-1.337199942474701,-2.5312185923205774,6.0488977310951135,1.0197101831436157,-3.7312584559070032
1708433761.333966,-2.0990147590637207,-1.337322713141777,-2.531377617512838,6.048114168434896,1.0199474096298218,-3.731938902531759
1708433761.3359587,-2.098345994949341,-1.3374913793853302,-2.531611506138937,6.047233807831564,1.020102620124817,-3.7326286474811
1708433761.33796,-2.0975794792175293,-1.3376872849515458,-2.531806294118063,6.046450245171346,1.0203850269317627,-3.7333505789386194
1708433761.3399713,-2.096773147583008,-1.3378656667521973,-2.5320268313037317,6.045445072441854,1.0205668210983276,-3.7340360323535364
1708433761.3419776,-2.0959434509277344,-1.3379868429950257,-2.532233778630392,6.044610011368551,1.0208373069763184,-3.73470646539797
1708433761.34399,-2.0951833724975586,-1.3381001514247437,-2.532454315816061,6.043677675514974,1.0210371017456055,-3.7353575865374964
1708433761.3459978,-2.0943987369537354,-1.338328705435135,-2.5326371828662317,6.04281626918868,1.0212417840957642,-3.7361014525042933
1708433761.3480043,-2.0935914516448975,-1.3384813976338883,-2.532890860234396,6.0419514057929895,1.0214506387710571,-3.736774508153097
1708433761.3500419,-2.0927975177764893,-1.3386533123305817,-2.533118549977438,6.04102514961318,1.021674633026123,-3.737445894871847
1708433761.3519928,-2.0919806957244873,-1.3388206374696274,-2.533362929021017,6.040122496872701,1.0218623876571655,-3.7380874792682093
1708433761.3539975,-2.091120719909668,-1.338922457104065,-2.533579174672262,6.039197790413656,1.0221195220947266,-3.7388182322131556
1708433761.3559551,-2.0903031826019287,-1.3390972328237076,-2.533851687108175,6.038247453957357,1.0224590301513672,-3.739481512700216
1708433761.3579683,-2.089341640472412,-1.339310811167099,-2.5340662638293665,6.03727017620162,1.0226484537124634,-3.7401867548571985
1708433761.359991,-2.0884692668914795,-1.3395066869309922,-2.534321371709005,6.036297666817465,1.0229475498199463,-3.7408044973956507
1708433761.3619597,-2.0874931812286377,-1.3396771860173722,-2.5345640818225306,6.035254585533895,1.02324378490448,-3.741490904484884
1708433761.3639538,-2.086573839187622,-1.3398563873818894,-2.534873072301046,6.034237491875448,1.0234631299972534,-3.7421208063708704
1708433761.3659897,-2.085634231567383,-1.3400656443885346,-2.5351865927325647,6.033309447556295,1.0237605571746826,-3.7427173296557825
1708433761.3679767,-2.08467698097229,-1.340243862276413,-2.53545052209963,6.03235279300765,1.0240039825439453,-3.7433798948871058
1708433761.3699775,-2.0836737155914307,-1.3404141676476975,-2.5357306639300745,6.031386005669393,1.024269938468933,-3.7440171877490442
1708433761.3719597,-2.0827293395996094,-1.3406233948520203,-2.5360024611102503,6.030400860100546,1.024513602256775,-3.7447577158557337
1708433761.3739636,-2.081740617752075,-1.3408128780177613,-2.536306444798605,6.029392826348104,1.0247284173965454,-3.7453694979297083
1708433761.376001,-2.080620288848877,-1.3410702508739014,-2.5365901629077356,6.028291332512655,1.0250515937805176,-3.746005121861593
1708433761.377978,-2.0795912742614746,-1.3412809383920212,-2.5368691126452845,6.02713297584609,1.0253883600234985,-3.7466021219836634
1708433761.379988,-2.078566551208496,-1.3415005964091797,-2.5372586886035364,6.026064622193136,1.0257176160812378,-3.7471962610827845
1708433761.3819573,-2.0774433612823486,-1.3417023879340668,-2.5376039187060755,6.025013315468588,1.0259760618209839,-3.7478891054736536
1708433761.3839805,-2.0763964653015137,-1.3419789385846634,-2.537959162388937,6.023963439255514,1.0262434482574463,-3.7485063711749476
1708433761.3859618,-2.0752487182617188,-1.3422268492034455,-2.538262192402975,6.022793161659994,1.0265623331069946,-3.7491002718554896
1708433761.3879757,-2.0741631984710693,-1.3424212795547028,-2.5385900179492396,6.021569955139913,1.0268296003341675,-3.7496328989612024
1708433761.3899834,-2.072976589202881,-1.3426396411708375,-2.53892165819277,6.020432936936178,1.0271841287612915,-3.7502570788012903
1708433761.391957,-2.071824550628662,-1.342874215250351,-2.53931171098818,6.019302236824789,1.0275087356567383,-3.750821653996603
1708433761.3939712,-2.0706260204315186,-1.3431625229171296,-2.5397287050830286,6.018012988358297,1.0278428792953491,-3.7513895670520228
1708433761.3959444,-2.0693869590759277,-1.3434750002673645,-2.54004675546755,6.016773807793417,1.0281537771224976,-3.7519593874560755
1708433761.3979669,-2.0681538581848145,-1.3436798614314576,-2.5403974691974085,6.015574323921957,1.0284854173660278,-3.75252873102297
1708433761.3999727,-2.0669093132019043,-1.3440458935550232,-2.540811363850729,6.014456736832418,1.0289006233215332,-3.753108803425924
1708433761.4019475,-2.065669298171997,-1.3443120878985901,-2.541138474141256,6.013181912689962,1.0292079448699951,-3.753684107457296
1708433761.403953,-2.0644397735595703,-1.3446081739715119,-2.541600290928976,6.011939155846395,1.0295730829238892,-3.7541428248034876
1708433761.4059527,-2.0631494522094727,-1.3448814016631623,-2.5420199076281946,6.010613071709432,1.029921531677246,-3.754716698323385
1708433761.4079738,-2.06183123588562,-1.345189408665039,-2.542337958012716,6.00933467128829,1.0302737951278687,-3.7552409807788294
1708433761.4099596,-2.060511350631714,-1.3454347264817734,-2.542795483266012,6.007876384049215,1.030663251876831,-3.7557218710528772
1708433761.4119675,-2.059119701385498,-1.3457756501487275,-2.5432851950274866,6.006572592049398,1.031019926071167,-3.7563071886645716
1708433761.4139543,-2.0577478408813477,-1.3460650903037568,-2.5436561743365687,6.005174147873678,1.0314006805419922,-3.756784264241354
1708433761.4159677,-2.056385040283203,-1.3464047622731705,-2.544058148060934,6.003771173744955,1.0317412614822388,-3.757294480000631
1708433761.4179845,-2.0550034046173096,-1.3467066597989579,-2.544572178517477,6.002404558449545,1.0321303606033325,-3.7578049341784876
1708433761.4200184,-2.053605556488037,-1.3469859522632142,-2.54502517381777,6.001003014832296,1.0325225591659546,-3.75831109682192
1708433761.4220357,-2.052145481109619,-1.3473163408092041,-2.5454722086535853,5.999609815865316,1.0329389572143555,-3.75881010690798
1708433761.4239883,-2.0507123470306396,-1.3476957988790055,-2.5458858648883265,5.998177754669943,1.0332863330841064,-3.7593374888049524
1708433761.4259982,-2.049206256866455,-1.348006860618927,-2.546408001576559,5.996813046723165,1.0336593389511108,-3.7598519960986536
1708433761.4280005,-2.0477237701416016,-1.3483537894538422,-2.5468714872943323,5.995339739113607,1.034069538116455,-3.7602861563311976
1708433761.4299572,-2.046154499053955,-1.3486843270114441,-2.547342125569479,5.993875372200765,1.0345067977905273,-3.760812584553854
1708433761.431955,-2.0446462631225586,-1.3491132271340867,-2.547830645238058,5.99243043640212,1.0348871946334839,-3.7613075415240687
1708433761.433963,-2.0430991649627686,-1.3494274479201813,-2.548375431691305,5.9908660528953455,1.0352720022201538,-3.7617326418506067
1708433761.4360068,-2.041429281234741,-1.349800483589508,-2.5488832632647913,5.98938404300765,1.035656213760376,-3.7621849218951624
1708433761.437969,-2.0398683547973633,-1.3501593482545395,-2.549415890370504,5.987807619362631,1.0360816717147827,-3.762662951146261
1708433761.439987,-2.0382497310638428,-1.3505298805287858,-2.549893919621603,5.986249315529623,1.0364694595336914,-3.763113323842184
1708433761.441986,-2.0365874767303467,-1.3508796852878113,-2.5504520575152796,5.9846898196037195,1.0368714332580566,-3.763519827519552
1708433761.4439752,-2.0349814891815186,-1.3512310546687623,-2.5509842077838343,5.983141171723165,1.037203311920166,-3.763972345982687
1708433761.4460251,-2.0333023071289062,-1.3516495835832139,-2.5514939467059534,5.981584059983053,1.0376200675964355,-3.764423433934347
1708433761.4479759,-2.0316388607025146,-1.3520953220180054,-2.5520475546466272,5.979969846993246,1.0380256175994873,-3.7647646109210413
1708433761.4500225,-2.0299556255340576,-1.352473334675171,-2.5526652971850794,5.978354084282675,1.0384716987609863,-3.7651308218585413
1708433761.4520526,-2.028114080429077,-1.3528472793153306,-2.553199354802267,5.976647722512045,1.0389093160629272,-3.7654886881457728
1708433761.4540107,-2.026397705078125,-1.3532491636327286,-2.5537381807910364,5.975006091385641,1.0393285751342773,-3.7659392992602747
1708433761.4560363,-2.0246574878692627,-1.3536315274289628,-2.554389540349142,5.9733327505882166,1.0396878719329834,-3.7662559191333216
1708433761.4579494,-2.0228822231292725,-1.3540832263282319,-2.5549028555499476,5.971599447518148,1.0400489568710327,-3.7666173616992396
1708433761.4599671,-2.0210559368133545,-1.3545584094575425,-2.555478874837057,5.969920503884115,1.040405035018921,-3.7669313589679163
1708433761.4619853,-2.0192317962646484,-1.354958937769272,-2.556075398121969,5.968332993775167,1.0408676862716675,-3.7672858873950403
1708433761.4639573,-2.0173850059509277,-1.35547191024337,-2.556610170994894,5.966611850052633,1.0412689447402954,-3.7677000204669397
1708433761.4659567,-2.015566349029541,-1.3558738243630906,-2.557241980229513,5.964925157814779,1.0416687726974487,-3.768009964619772
1708433761.4680393,-2.0137202739715576,-1.356307016020157,-2.5578606764422815,5.96315489986495,1.042052149772644,-3.7682836691485804
1708433761.4699779,-2.0117766857147217,-1.3567868185094376,-2.558429543172018,5.96137951591567,1.0424292087554932,-3.768561665211813
1708433761.4720042,-2.009852170944214,-1.3572649520686646,-2.559011761342184,5.9595916149909876,1.0428545475006104,-3.7688656489001673
1708433761.473962,-2.007868528366089,-1.3577342194369812,-2.559664551411764,5.957748520165243,1.0432720184326172,-3.7691622416125696
1708433761.4760187,-2.005915641784668,-1.3581901800683518,-2.560284439717428,5.95588098743514,1.0436855554580688,-3.769404951726095
1708433761.47805,-2.0039446353912354,-1.3586472880891343,-2.5608962217914026,5.954013097077169,1.044077754020691,-3.769667927418844
1708433761.4800029,-2.0019264221191406,-1.3591377151063462,-2.5615885893451136,5.952262270241537,1.0444086790084839,-3.7698844114886683
1708433761.4819913,-1.99994695186615,-1.3596070569804688,-2.5622111002551478,5.9503164170081995,1.0448143482208252,-3.770148817692892
1708433761.4839664,-1.9979708194732666,-1.3601343792727967,-2.56279427209963,5.948481786042013,1.0452066659927368,-3.770364824925558
1708433761.486,-1.9958763122558594,-1.3606248956969758,-2.563474957142965,5.946593391686239,1.0455431938171387,-3.7705534140216272
1708433761.4879785,-1.9938063621520996,-1.3610853266767045,-2.564082686101095,5.944633114128866,1.045894980430603,-3.770763699208395
1708433761.4899688,-1.991658091545105,-1.3616172981313248,-2.564786736165182,5.942691671639242,1.0462976694107056,-3.7709854284869593
1708433761.4919884,-1.9896024465560913,-1.362140641813614,-2.565390412007467,5.9406964657600305,1.04667067527771,-3.771193329487936
1708433761.4939647,-1.9874919652938843,-1.3625981372645875,-2.566120211278097,5.938667046814718,1.0470143556594849,-3.7712834517108362
1708433761.4959917,-1.9853081703186035,-1.363110439186432,-2.56681472459902,5.936795222550192,1.0473694801330566,-3.7714596430407923
1708433761.4979744,-1.983169674873352,-1.363624857073166,-2.567432467137472,5.934836494713583,1.0477796792984009,-3.7716077009784144
1708433761.4999797,-1.981034517288208,-1.3641361457160492,-2.5680890719043177,5.932847249298849,1.0481284856796265,-3.7716527620898646
1708433761.5020227,-1.9787930250167847,-1.364683286552765,-2.568777386342184,5.930908190995016,1.0484349727630615,-3.771785322819845
1708433761.5039663,-1.9765844345092773,-1.3652348083308716,-2.569425169621603,5.928783046990194,1.0488423109054565,-3.771902624760763
1708433761.5060153,-1.9743481874465942,-1.3657189470580597,-2.5701094309436243,5.926743733673849,1.0491124391555786,-3.7719278971301478
1708433761.5079756,-1.9721450805664062,-1.3662165862372895,-2.5707765261279505,5.924728858261862,1.04948091506958,-3.772029701863424
1708433761.5099745,-1.9699863195419312,-1.3667774212411423,-2.5714858214007776,5.922660934716024,1.0497363805770874,-3.771998469029562
1708433761.5119832,-1.9678033590316772,-1.3672942978194733,-2.5721004644977015,5.920738804131307,1.0499515533447266,-3.772127930318014
1708433761.5140264,-1.965576171875,-1.3677427631667634,-2.5727604071246546,5.9188153622444055,1.0502173900604248,-3.772090737019674
1708433761.515963,-1.9633920192718506,-1.3682868492654343,-2.5733888784991663,5.916761624604025,1.0503813028335571,-3.7720654646502894
1708433761.5179899,-1.9611899852752686,-1.3687755328467865,-2.5740204493152063,5.914765345841207,1.0506062507629395,-3.7720699946032923
1708433761.519969,-1.9589091539382935,-1.3693348330310364,-2.574672524129049,5.912655222206869,1.0508500337600708,-3.7720370928393763
1708433761.5219948,-1.9567469358444214,-1.3698859375766297,-2.575308863316671,5.91065942028121,1.0511596202850342,-3.772017780934469
1708433761.5239944,-1.9544835090637207,-1.3703225714019318,-2.575930897389547,5.908641445427694,1.0514646768569946,-3.7720072905169886
1708433761.5259745,-1.952303409576416,-1.3708446037820359,-2.576644484196798,5.906643497734823,1.051780104637146,-3.7719627062426966
1708433761.5280058,-1.9501135349273682,-1.37136726201091,-2.5773208777057093,5.904694306641378,1.0520435571670532,-3.771980587636129
1708433761.5300488,-1.9479483366012573,-1.371823326950409,-2.5779598394977015,5.90284417846755,1.0523306131362915,-3.7719581762896937
1708433761.5320008,-1.9456803798675537,-1.3723746997169037,-2.5786073843585413,5.900827157288351,1.0526103973388672,-3.7719746271716517
1708433761.533979,-1.9434770345687866,-1.3729455930045624,-2.5792837778674524,5.898807394295492,1.0529721975326538,-3.7719953695880335
1708433761.5359735,-1.941227912902832,-1.3734673124602814,-2.5799225012408655,5.896778332978048,1.0533090829849243,-3.7719879786120813
1708433761.537977,-1.9390841722488403,-1.3739983898452302,-2.5805991331683558,5.894736635475912,1.0536139011383057,-3.7719627062426966
1708433761.5399897,-1.9368597269058228,-1.3745133739760895,-2.5812419096576136,5.892709362297811,1.05393385887146,-3.772041622792379
1708433761.5419717,-1.934678316116333,-1.3750524383834382,-2.581876579915182,5.890709149628439,1.0541821718215942,-3.7720118204699915
1708433761.54401,-1.932517647743225,-1.3755542498878022,-2.5825400988208216,5.888765918999471,1.05436110496521,-3.7719908396350306
1708433761.5459812,-1.9303749799728394,-1.3761322361281891,-2.583262030278341,5.886720049172201,1.0546226501464844,-3.7719834486590784
1708433761.5479994,-1.9281721115112305,-1.3766715836576005,-2.583869759236471,5.884665119438925,1.0548508167266846,-3.7719789187060755
1708433761.549991,-1.9259819984436035,-1.3772219133428116,-2.584562126790182,5.8826589463050745,1.0551886558532715,-3.771938149129049
1708433761.5520196,-1.9237948656082153,-1.377743051653244,-2.585259262715475,5.880536901741781,1.055460810661316,-3.7719879786120813
1708433761.5540862,-1.921559453010559,-1.3782791954329987,-2.585930411015646,5.878560530930319,1.0556834936141968,-3.7719760576831263
1708433761.556017,-1.9194152355194092,-1.378776268368103,-2.5865560213672083,5.876511204033651,1.0559478998184204,-3.7719760576831263
1708433761.5579917,-1.917229175567627,-1.379370467071869,-2.587198321019308,5.874606954842367,1.0562258958816528,-3.7719462553607386
1708433761.5599713,-1.9150491952896118,-1.379834772353508,-2.58785063425173,5.87265037277297,1.0564409494400024,-3.771938149129049
1708433761.5619822,-1.9128016233444214,-1.380399451856949,-2.5884855429278772,5.870595085411825,1.0567760467529297,-3.771951738988058
1708433761.5639868,-1.910608172416687,-1.380931095486023,-2.589148823414938,5.868700253754415,1.0570614337921143,-3.771902624760763
1708433761.5659745,-1.9084486961364746,-1.38147787869487,-2.5897870699511927,5.8666220782096765,1.0573577880859375,-3.771914307271139
1708433761.5680046,-1.906245470046997,-1.3819675159505387,-2.5904417673694056,5.8646020767982385,1.0575873851776123,-3.771923367177145
1708433761.5699832,-1.9040839672088623,-1.382548214202263,-2.591064755116598,5.862572896271505,1.0578898191452026,-3.771902386342184
1708433761.5719872,-1.9018491506576538,-1.3831006300500412,-2.5916908423053187,5.860575425415792,1.05816650390625,-3.7719278971301478
1708433761.574015,-1.8997169733047485,-1.3836296808770676,-2.5923717657672327,5.858561146050253,1.0583945512771606,-3.7719159762011927
1708433761.5759726,-1.897544026374817,-1.384198711519577,-2.5930643717395228,5.856558787613668,1.0587208271026611,-3.771906916295187
1708433761.57799,-1.8952999114990234,-1.3847423207810898,-2.593705479298727,5.85452817657546,1.058935523033142,-3.7718668619738978
1708433761.5799842,-1.8930885791778564,-1.3852106046727677,-2.59432822862734,5.8525428650672815,1.0592529773712158,-3.771872107182638
1708433761.5819736,-1.890803575515747,-1.3857330989888688,-2.594966713582174,5.8505416987235925,1.0594515800476074,-3.7718966642962855
1708433761.5840144,-1.888625144958496,-1.3863095802119751,-2.5956509749041956,5.8485238430793665,1.0597745180130005,-3.7718632856952112
1708433761.5860415,-1.8863961696624756,-1.386807070379593,-2.596241299306051,5.846492755204,1.0599924325942993,-3.771839443837301
1708433761.588037,-1.8841445446014404,-1.3873922538808365,-2.596908156071798,5.844554054528036,1.060289978981018,-3.7718892733203333
1708433761.5899694,-1.8820070028305054,-1.3878988337567826,-2.5975762049304407,5.842681634217062,1.0605919361114502,-3.7718632856952112
1708433761.5919662,-1.8797547817230225,-1.3883974266103287,-2.5982142130481165,5.840666401177206,1.0608638525009155,-3.7717857996570032
1708433761.5939982,-1.8776025772094727,-1.3889358651689072,-2.598882261906759,5.838723885803976,1.061120867729187,-3.771815601979391
1708433761.5960186,-1.8753728866577148,-1.3894327890923996,-2.5995500723468226,5.836742269783773,1.0613722801208496,-3.771815601979391
1708433761.5980399,-1.8731842041015625,-1.389989734893181,-2.6001766363727015,5.834792959481039,1.06162428855896,-3.7718082110034388
1708433761.599998,-1.8709163665771484,-1.3905095022967835,-2.600846830998556,5.8327534077461145,1.0618648529052734,-3.7717583815204065
1708433761.6019895,-1.8686946630477905,-1.3910649579814454,-2.6015170256244105,5.830729234009542,1.0620843172073364,-3.771782700215475
1708433761.6040382,-1.8665063381195068,-1.3915381741574784,-2.602184836064474,5.828732478409567,1.0623489618301392,-3.771815601979391
1708433761.6059904,-1.8642961978912354,-1.3920576137355347,-2.6028478781329554,5.826721179276266,1.0626300573349,-3.7718008200274866
1708433761.6079867,-1.8620872497558594,-1.3926470589688797,-2.603532616292135,5.824755179672994,1.0628703832626343,-3.7717464605914515
1708433761.609977,-1.8598613739013672,-1.3931114238551636,-2.604175392781393,5.82276879528121,1.0631587505340576,-3.771785322819845
1708433761.6120212,-1.8576738834381104,-1.3936803203872223,-2.6047733465777796,5.8207260248954675,1.0634275674819946,-3.7717509905444544
1708433761.6140199,-1.8555068969726562,-1.3942071360400696,-2.605448309575216,5.818710434227743,1.0636996030807495,-3.771748129521505
1708433761.6159842,-1.853287696838379,-1.3947146397880097,-2.606062714253561,5.816677439003744,1.06394362449646,-3.7716830412494105
1708433761.6180189,-1.8510743379592896,-1.3952585619739075,-2.6066771189319056,5.814637172013082,1.0642623901367188,-3.771651093159811
1708433761.6200027,-1.8489118814468384,-1.3957359802773972,-2.607358757649557,5.812604534416952,1.0644845962524414,-3.771618429814474
1708433761.622023,-1.8467628955841064,-1.3962933731130143,-2.6079350153552454,5.810759174614706,1.0647293329238892,-3.771515194569723
1708433761.6240082,-1.844586730003357,-1.3968575608781357,-2.6085971037494105,5.808721411019125,1.0648901462554932,-3.771350685750143
1708433761.625994,-1.842444896697998,-1.397306503062584,-2.609211031590597,5.806797969132223,1.0650255680084229,-3.771238390599386
1708433761.628002,-1.840203046798706,-1.3978670996478577,-2.6098032633410853,5.804829942971029,1.0651895999908447,-3.7711380163775843
1708433761.6300147,-1.8380212783813477,-1.3984105002931138,-2.610466782246725,5.802843081742086,1.0654253959655762,-3.7710467020617884
1708433761.6319702,-1.835791826248169,-1.398924396639206,-2.6111303011523646,5.800787079125204,1.065605640411377,-3.7709587256061
1708433761.6340332,-1.8335591554641724,-1.399557576780655,-2.611697498952047,5.798930036812582,1.0657862424850464,-3.770805899296896
1708433761.6359735,-1.8314024209976196,-1.4000878644040604,-2.612296168004171,5.7969561693962,1.065819263458252,-3.77055794397463
1708433761.6379948,-1.8292137384414673,-1.4006365698627015,-2.612793747578756,5.795022117882528,1.0658389329910278,-3.770282570515768
1708433761.6399806,-1.827051043510437,-1.4012251806310196,-2.6133225599872034,5.793165075569906,1.0658071041107178,-3.7699788252459925
1708433761.6419988,-1.8248510360717773,-1.4017180067351838,-2.61387807527651,5.7912670252616785,1.0657168626785278,-3.7696080843554896
1708433761.6440046,-1.822641134262085,-1.4022897344878693,-2.614417854939596,5.789446818619528,1.0656028985977173,-3.769193712865011
1708433761.6459918,-1.820440411567688,-1.4028362792781373,-2.6149731318103235,5.7875592587287805,1.0656507015228271,-3.7687953154193323
1708433761.6479845,-1.8182495832443237,-1.4034113448909302,-2.6155079046832483,5.785726535111227,1.0655726194381714,-3.7683520952807825
1708433761.649991,-1.8160123825073242,-1.4039882135442276,-2.616018835698263,5.783898699074545,1.0654433965682983,-3.767844025288717
1708433761.651972,-1.813811182975769,-1.4045686733773728,-2.6165130774127405,5.78209279754714,1.0652047395706177,-3.767280880604879
1708433761.6540568,-1.8116031885147095,-1.4051363927176972,-2.6169641653644007,5.780376183777609,1.0649856328964233,-3.766721312199728
1708433761.6560028,-1.8094761371612549,-1.4057442557862778,-2.617472235356466,5.778677928238668,1.0646874904632568,-3.7661100069629114
1708433761.6579845,-1.8072484731674194,-1.40629397452388,-2.617938820515768,5.776988971024313,1.0643811225891113,-3.765496794377462
1708433761.6600022,-1.8050553798675537,-1.406898633842804,-2.6183982531176966,5.775226342469015,1.0640273094177246,-3.7647958437549036
1708433761.6619978,-1.8028196096420288,-1.4075544339469452,-2.6189351717578333,5.773548590927877,1.0636591911315918,-3.764090124760763
1708433761.6640084,-1.800604224205017,-1.4081800741008301,-2.61929160753359,5.771888482361593,1.0632452964782715,-3.7632880846606653
1708433761.6659937,-1.7984123229980469,-1.4087596100619812,-2.619699303303854,5.770197021752157,1.062831997871399,-3.762446943913595
1708433761.6680171,-1.7961698770523071,-1.4093913000873108,-2.620110336934225,5.768552291184225,1.0623536109924316,-3.7616263071643274
1708433761.6699643,-1.7939749956130981,-1.4099247318557282,-2.6204498449908655,5.766879546433248,1.0618287324905396,-3.760735098515646
1708433761.6719613,-1.7918157577514648,-1.4104982179454346,-2.620866123829977,5.765281307488241,1.0612620115280151,-3.7597087065326136
1708433761.6739993,-1.7896946668624878,-1.4111388486674805,-2.6212497393237513,5.763804662018575,1.0607212781906128,-3.7588494459735315
1708433761.675967,-1.787487268447876,-1.4117618066123505,-2.6215360800372522,5.762372004776754,1.0600855350494385,-3.7577698866473597
1708433761.677994,-1.7854293584823608,-1.4123490911773224,-2.621854845677511,5.7609057305152795,1.0594393014907837,-3.756735388432638
1708433761.6799753,-1.7833455801010132,-1.4129416805556794,-2.6221991221057337,5.759478199272909,1.0587142705917358,-3.7556827704059046
1708433761.6820292,-1.7813169956207275,-1.4136109513095398,-2.6225183645831507,5.758048522263326,1.0580328702926636,-3.754605833684103
1708433761.6840189,-1.779232144355774,-1.414209858780243,-2.622805897389547,5.756632554322042,1.0573326349258423,-3.7534518877612513
1708433761.6859853,-1.7772165536880493,-1.4147923749736329,-2.6231098810779017,5.7551472065742395,1.0565943717956543,-3.752245012913839
1708433761.688016,-1.775202751159668,-1.4154243928245087,-2.6233812014209192,5.7538161156471155,1.055816650390625,-3.75108510652651
1708433761.6899824,-1.7732480764389038,-1.4160920840552826,-2.623651091252462,5.752568113594808,1.0550419092178345,-3.74986440340151
1708433761.6919744,-1.7712643146514893,-1.416715071802475,-2.6238818804370325,5.751339900284567,1.0541943311691284,-3.7486591974841517
1708433761.6940236,-1.7692980766296387,-1.4173303705504914,-2.6241796652423304,5.7500518439109705,1.0534063577651978,-3.7474070231067103
1708433761.69601,-1.7673966884613037,-1.4179443281940003,-2.6243534723864954,5.748876797943868,1.0524994134902954,-3.7461090723620813
1708433761.697985,-1.7654303312301636,-1.4185000222972413,-2.6245244185077112,5.747782575875082,1.0516314506530762,-3.744788710271017
1708433761.7000132,-1.7635349035263062,-1.419193373327591,-2.62472373643984,5.746677267342367,1.05068039894104,-3.743406359349386
1708433761.701969,-1.7616915702819824,-1.419820175772049,-2.6249735991107386,5.7455623028571985,1.049778699874878,-3.7420571486102503
1708433761.7040253,-1.7597914934158325,-1.4204017084888,-2.6250949541675013,5.744509088784017,1.0488122701644897,-3.740716520939962
1708433761.705977,-1.7579602003097534,-1.4210260075381775,-2.6252177397357386,5.743518221169271,1.0478521585464478,-3.7394185701953333
1708433761.7080002,-1.7561672925949097,-1.42166060328994,-2.625397507344381,5.742479550629415,1.046924352645874,-3.738032404576437
1708433761.709985,-1.7543680667877197,-1.4222914439490815,-2.6256116072284144,5.741432058602133,1.0459331274032593,-3.7366936842547815
1708433761.7119784,-1.7525995969772339,-1.4229081285050889,-2.625754181538717,5.740452754288473,1.044938564300537,-3.7353645006762903
1708433761.7140248,-1.750836968421936,-1.423549012546875,-2.625836435948507,5.739485251694479,1.0439521074295044,-3.7340076605426233
1708433761.7160113,-1.7491090297698975,-1.424173579817154,-2.6259756723987024,5.738571870117941,1.042907953262329,-3.7326043287860315
1708433761.7180562,-1.7474114894866943,-1.424799532895424,-2.6260955969439905,5.737676369934835,1.041839599609375,-3.73116118112673
1708433761.719986,-1.7457349300384521,-1.4254312378219147,-2.626221481953756,5.736796963005819,1.0407897233963013,-3.729713265095846
1708433761.7219858,-1.7440896034240723,-1.4260136646083375,-2.626279894505636,5.73598729351119,1.0397288799285889,-3.7282491366015833
1708433761.7239842,-1.742382287979126,-1.4265980881503602,-2.6263261477099817,5.7351592657859705,1.038727879524231,-3.7268088499652308
1708433761.7259943,-1.7407389879226685,-1.4272478979877015,-2.6263981501208704,5.734438168793478,1.0376389026641846,-3.7253454367267054
1708433761.728028,-1.739142656326294,-1.4278811824372788,-2.626486603413717,5.7337157604988,1.036577820777893,-3.7238743940936487
1708433761.7300212,-1.7375009059906006,-1.4285549980453034,-2.6264639536487024,5.7330593941505334,1.0354840755462646,-3.722320858632223
1708433761.732005,-1.7359495162963867,-1.4290997993997117,-2.626565996800558,5.732337701111593,1.0344182252883911,-3.7208014170276087
1708433761.7339785,-1.7343565225601196,-1.4296945494464417,-2.62661058107485,5.7317566750343225,1.0333738327026367,-3.719311062489645
1708433761.7360075,-1.7328569889068604,-1.4303295475295563,-2.626606289540426,5.731149184494772,1.0321835279464722,-3.7177377382861536
1708433761.7379792,-1.7313305139541626,-1.4309399735978623,-2.6266961733447474,5.730542766838827,1.0311098098754883,-3.7162519137011927
1708433761.739991,-1.7297968864440918,-1.4314826440862198,-2.6266782919513147,5.729906904488363,1.02997887134552,-3.71466309229006
1708433761.7419727,-1.7283556461334229,-1.4321233195117493,-2.626676623021261,5.729322778969564,1.0288845300674438,-3.7131715456592005
1708433761.7439787,-1.7269155979156494,-1.4327054929784317,-2.6267219225512903,5.728718626290121,1.0277374982833862,-3.711545530949728
1708433761.7459786,-1.7254546880722046,-1.4332190913013,-2.62669021288027,5.728273260384359,1.0266642570495605,-3.7101383844958704
1708433761.7479854,-1.7240476608276367,-1.4338302475265046,-2.626664702092306,5.727716076164999,1.025514841079712,-3.7086499373065394
1708433761.75,-1.7226237058639526,-1.434402124290802,-2.62663180032839,5.727200495987692,1.024391770362854,-3.7071338335620325
1708433761.7520134,-1.7212119102478027,-1.4349935960820694,-2.6265464464770716,5.726770150452413,1.0232255458831787,-3.705597702656881
1708433761.7540195,-1.7198725938796997,-1.435593770151474,-2.626556936894552,5.726366865425863,1.022020936012268,-3.7041218916522425
1708433761.7560132,-1.7184545993804932,-1.4361135524562378,-2.626545015965597,5.725980508118429,1.0209136009216309,-3.7025535742389124
1708433761.7579982,-1.7171663045883179,-1.4367381793311615,-2.6264730135547083,5.725612985878744,1.0196888446807861,-3.701073948537008
1708433761.7599788,-1.7158324718475342,-1.4372237634709855,-2.626441542302267,5.725299107819357,1.0185372829437256,-3.699528757725851
1708433761.761974,-1.7145183086395264,-1.437808023100235,-2.6263890902148646,5.724946009903707,1.0173277854919434,-3.697937790547506
1708433761.7639716,-1.7131845951080322,-1.438343123798706,-2.626366917287008,5.724619376450338,1.0161423683166504,-3.6963608900653284
1708433761.7659836,-1.7119582891464233,-1.4389511954835434,-2.6262977758990687,5.724323856621542,1.0150021314620972,-3.6948590914355677
1708433761.7679896,-1.7107101678848267,-1.439488635664322,-2.6262500921832483,5.72401653507308,1.01386559009552,-3.693336550389425
1708433761.7699857,-1.7095037698745728,-1.4400729697993775,-2.6261571089373987,5.72372459152297,1.0126113891601562,-3.6917269865619105
1708433761.7719784,-1.7082107067108154,-1.4406614613584061,-2.626113478337423,5.723550069123068,1.0114384889602661,-3.690151039754049
1708433761.77399,-1.7071292400360107,-1.441224606042244,-2.6260088125811976,5.723245012551107,1.0103263854980469,-3.6885717550860804
1708433761.775991,-1.7059338092803955,-1.4417266857675095,-2.625887457524435,5.723095881729879,1.0091317892074585,-3.6871030966388147
1708433761.7780244,-1.7048667669296265,-1.4422611159137269,-2.625878397618429,5.722880112915792,1.0079988241195679,-3.6854525248156946
1708433761.779994,-1.7037105560302734,-1.442826436167099,-2.6257811228381556,5.722728836327352,1.0068609714508057,-3.683873240147726
1708433761.7819798,-1.7026127576828003,-1.4432743352702637,-2.6256941000567835,5.722551810532369,1.0056880712509155,-3.6823516527758997
1708433761.7839985,-1.7015360593795776,-1.443884090786316,-2.6255608240710657,5.722445237427511,1.0045537948608398,-3.6807616392718714
1708433761.785981,-1.7004790306091309,-1.4444159430316468,-2.625489060078756,5.722337472229757,1.003355622291565,-3.6792576948748987
1708433761.7879725,-1.6994134187698364,-1.444877640610077,-2.6253109614001673,5.722257959633627,1.0021865367889404,-3.6776960531817835
1708433761.789984,-1.6983541250228882,-1.445466549401619,-2.625265900288717,5.72219072559432,1.0009781122207642,-3.67621356645693
1708433761.7920048,-1.6974012851715088,-1.4460053008845826,-2.625096384678976,5.7221261141593835,0.9998015761375427,-3.6746326128589075
1708433761.7939687,-1.6963900327682495,-1.4465478223613282,-2.6250084082232874,5.722082364350118,0.9985841512680054,-3.67320686975588
1708433761.7959685,-1.6954319477081299,-1.4471008715084572,-2.624873463307516,5.722112405091085,0.9973999261856079,-3.6716375986682337
1708433761.7979715,-1.694528341293335,-1.447578178053238,-2.6247521082507532,5.722151624947347,0.9962307214736938,-3.670169178639547
1708433761.7999766,-1.693568468093872,-1.4481177192977448,-2.624612633381979,5.722123133927145,0.9950538873672485,-3.66860014597048
1708433761.8019702,-1.69264554977417,-1.4486496609500428,-2.6245136896716517,5.722172486573019,0.9938727617263794,-3.6670730749713343
1708433761.8039918,-1.6918078660964966,-1.449125961666443,-2.6243208090411585,5.722290503769674,0.9927653074264526,-3.665567461644308
1708433761.8059907,-1.691033124923706,-1.4497017797878762,-2.624206844960348,5.7223819372947595,0.9916202425956726,-3.663964811955587
1708433761.8080075,-1.690118432044983,-1.4502045077136536,-2.6240301767932337,5.7224405882652185,0.9904401898384094,-3.6624417940722864
1708433761.8099678,-1.6893397569656372,-1.450722688143589,-2.623805348073141,5.722520100861349,0.9892654418945312,-3.6608415285693567
1708433761.8119657,-1.6884948015213013,-1.4512190756252785,-2.6236286799060267,5.722626435547628,0.9881457090377808,-3.6593549887286585
1708433761.813981,-1.6877076625823975,-1.4517173704556008,-2.623472038899557,5.722846376686849,0.986936092376709,-3.6577778498279017
1708433761.8159664,-1.6869404315948486,-1.4521997433951874,-2.623251978551046,5.722896086960592,0.9857935309410095,-3.656339470540182
1708433761.817979,-1.6862330436706543,-1.4527242121151467,-2.6230765024768274,5.723105537682333,0.9845954179763794,-3.6547701994525355
1708433761.8199737,-1.6854517459869385,-1.453227424328663,-2.622852389012472,5.723307597428121,0.9834960103034973,-3.653163019810812
1708433761.821982,-1.684766411781311,-1.4537236255458375,-2.6226723829852503,5.723486053734579,0.9823063611984253,-3.651619259511129
1708433761.8239894,-1.6841039657592773,-1.4542418134263535,-2.6224406401263636,5.7237093327339075,0.9811130166053772,-3.6501017252551478
1708433761.825972,-1.683451771736145,-1.454716333453991,-2.6222294012652796,5.723941910057821,0.9799655675888062,-3.648627821599142
1708433761.8279953,-1.682873010635376,-1.4551706549576302,-2.622049872075216,5.724206673889913,0.9787675142288208,-3.6471100489245813
1708433761.8299966,-1.6822248697280884,-1.4557028722814103,-2.621737066899435,5.724548208504476,0.9775972366333008,-3.645655934010641
1708433761.8319888,-1.6816778182983398,-1.456188679938652,-2.621513907109396,5.724752652436056,0.9764368534088135,-3.6441116968738
1708433761.8339875,-1.6810519695281982,-1.4566362661174317,-2.6212826410876673,5.725065696030416,0.9753220081329346,-3.6427269617663782
1708433761.835968,-1.680521011352539,-1.457193875019886,-2.6210017840014856,5.725426900177755,0.9741864800453186,-3.641218964253561
1708433761.8380206,-1.6799447536468506,-1.4576207560351868,-2.620807472859518,5.725775468140402,0.9730117917060852,-3.6398001352893274
1708433761.839993,-1.6793904304504395,-1.458083913927414,-2.6205557028399866,5.726007210999288,0.9718679785728455,-3.638331715260641
1708433761.8419821,-1.6789253950119019,-1.4585947033813973,-2.6202715078936976,5.726465332299032,0.9707093834877014,-3.636822287236349
1708433761.8439815,-1.6783866882324219,-1.459025317137577,-2.6199961344348353,5.726902711182394,0.9695453643798828,-3.63537842432131
1708433761.845979,-1.677940845489502,-1.4594973188689728,-2.619711939488546,5.727286565094747,0.9683302044868469,-3.6338534990893763
1708433761.8479908,-1.6775180101394653,-1.4599357855371018,-2.619439188634054,5.72773443439559,0.9672547578811646,-3.6323729197131556
1708433761.8499749,-1.6770482063293457,-1.460338094537594,-2.6192124525653284,5.728149640351095,0.9661555290222168,-3.6308556238757532
1708433761.8519952,-1.6766536235809326,-1.4608532947352906,-2.6189456621753138,5.728567826538839,0.9649817943572998,-3.6293824354754847
1708433761.8539884,-1.676281213760376,-1.4613382008722802,-2.618640724812643,5.7290652869041345,0.9638433456420898,-3.627904240285055
1708433761.856018,-1.6758971214294434,-1.4617594194463273,-2.6183255354510706,5.7295535681541345,0.9627485275268555,-3.6263707319842737
1708433761.8580387,-1.6755832433700562,-1.4622091588428994,-2.61800986925234,5.7300230143363855,0.9616572260856628,-3.6248701254474085
1708433761.8599854,-1.6752126216888428,-1.4626778450659295,-2.6176818052874964,5.730544435768881,0.9604896306991577,-3.6233587900744837
1708433761.8619723,-1.674908995628357,-1.4631334778717537,-2.617338005696432,5.7310863611991785,0.9593864679336548,-3.6218462626086634
1708433761.8639836,-1.674639105796814,-1.463599832063057,-2.6170671621905726,5.731612670212545,0.9582661986351013,-3.6203647295581263
1708433761.8659995,-1.674325704574585,-1.4639677119306107,-2.6167030970202845,5.732220876007833,0.9571002721786499,-3.6188622156726282
1708433761.867982,-1.6741037368774414,-1.4643826198628922,-2.616432491933004,5.732706653862753,0.9559869766235352,-3.617340628300802
1708433761.8699956,-1.6738485097885132,-1.464833454494812,-2.616032425557272,5.733346688538351,0.9548583030700684,-3.615939203892843
1708433761.8719685,-1.673580527305603,-1.4652575564435502,-2.615747038518087,5.733919250756063,0.9537128806114197,-3.614446465169088
1708433761.8741271,-1.6734155416488647,-1.4656559538892289,-2.6153460184680384,5.734514105110922,0.9525931477546692,-3.6130088011371058
1708433761.8759809,-1.6732524633407593,-1.4661457625082512,-2.6149895826922815,5.735141980438986,0.9514612555503845,-3.61159331003298
1708433761.877989,-1.673087477684021,-1.4665773895433922,-2.614602867756979,5.735847580223837,0.9502964615821838,-3.6101890246020716
1708433761.8799798,-1.6729729175567627,-1.4670092549971123,-2.614283863698141,5.736481773644247,0.949134886264801,-3.6087616125689905
1708433761.883973,-1.6727205514907837,-1.4678649318269272,-2.6135006586657923,5.737803685456075,0.9468677043914795,-3.6058173815356653
1708433761.885955,-1.6726174354553223,-1.4682556179216881,-2.61318284669985,5.738525497704305,0.9457583427429199,-3.6043618361102503
1708433761.8879712,-1.6725624799728394,-1.4686345619014283,-2.612715546284811,5.739294755249777,0.9446837902069092,-3.6029186884509485
1708433761.8899682,-1.6725096702575684,-1.4690509301475068,-2.612373654042379,5.740013825684347,0.9435625076293945,-3.601417605076925
1708433761.8919613,-1.672500729560852,-1.4693969276598473,-2.612011734639303,5.740743624954977,0.9424891471862793,-3.6000033060656946
1708433761.8940148,-1.6724960803985596,-1.4698253658464928,-2.6116068998919886,5.741510855942526,0.9414083957672119,-3.598541561757223
1708433761.8959584,-1.67249596118927,-1.4702162605575104,-2.6112144629107874,5.742324816971578,0.9402979612350464,-3.597016159688131
1708433761.8979874,-1.6725380420684814,-1.470648655002453,-2.6108043829547327,5.74306212642745,0.9391425848007202,-3.595621411000387
1708433761.8999736,-1.672565221786499,-1.4710308623364945,-2.610389296208517,5.743906724243917,0.9380449652671814,-3.5941155592547815
1708433761.9019802,-1.6726281642913818,-1.471405790453293,-2.6099205652820032,5.744685160904684,0.9368879795074463,-3.592665974293844
1708433761.9039726,-1.6727567911148071,-1.4717639845660706,-2.6095054785357874,5.745497333794393,0.9357609152793884,-3.591142479573385
1708433761.9059649,-1.6728492975234985,-1.4721848529628296,-2.6090784708606165,5.746305811196127,0.9346569776535034,-3.58967096010317
1708433761.9079618,-1.6729189157485962,-1.472572700386383,-2.608633581792013,5.7471667406852625,0.9336115717887878,-3.5882232824908655
1708433761.9099677,-1.6731353998184204,-1.4729473751834412,-2.608145538960592,5.747970568924703,0.9326052665710449,-3.5867648760425013
1708433761.9119673,-1.6732913255691528,-1.4733188313296814,-2.607784096394674,5.748782503395834,0.9315894842147827,-3.585322920476095
1708433761.913967,-1.673492431640625,-1.4737098974040528,-2.6072753111468714,5.749696957855978,0.9305269718170166,-3.5839501062976282
1708433761.915967,-1.67366361618042,-1.474130780701973,-2.606767002736227,5.7505448935325525,0.9294357299804688,-3.582520071660177
1708433761.9179964,-1.6739059686660767,-1.4744274255684395,-2.606324021016256,5.75141869762496,0.9283397197723389,-3.581102434788839
1708433761.9199717,-1.6741024255752563,-1.474857286815979,-2.605778757725851,5.752313601761617,0.92721027135849,-3.5797062555896204
1708433761.9219766,-1.6743205785751343,-1.475249932413437,-2.6053457895862024,5.75325237491683,0.9261452555656433,-3.578332249318258
1708433761.923977,-1.6746608018875122,-1.475640670662262,-2.604845110570089,5.754145014076986,0.9251425266265869,-3.576904598866598
1708433761.9259753,-1.6749485731124878,-1.4760079842856904,-2.604403559361593,5.755086648255148,0.9240041375160217,-3.5755081812488
1708433761.9279993,-1.6752564907073975,-1.4763462406447907,-2.603846851979391,5.756060468941488,0.9229077100753784,-3.5740624109851282
1708433761.9300115,-1.6755919456481934,-1.4767168176225205,-2.603323761616842,5.757169711380758,0.9217932224273682,-3.572604242955343
1708433761.9319797,-1.6760069131851196,-1.477109157746174,-2.6027546564685267,5.758101331978597,0.9206762909889221,-3.5711150805102747
1708433761.9339883,-1.6763739585876465,-1.4775344294360657,-2.6022935549365442,5.759143817215719,0.9195904731750488,-3.5696614424334925
1708433761.9360006,-1.6767957210540771,-1.47783566386018,-2.6017540136920374,5.7601507780845544,0.9184587001800537,-3.5682128111468714
1708433761.9380004,-1.677183747291565,-1.4782625299743195,-2.601210657750265,5.7611440298850916,0.9174229502677917,-3.566683594380514
1708433761.9399776,-1.6776487827301025,-1.4785880383900185,-2.6006503740893763,5.762183177262106,0.916390061378479,-3.565246884022848
1708433761.9419873,-1.678076148033142,-1.4789354887655755,-2.6000869909869593,5.763204443245687,0.9153468012809753,-3.56380278268923
1708433761.943972,-1.6785852909088135,-1.4793113780072709,-2.599532667790548,5.764275538712301,0.9142799377441406,-3.5623632113086146
1708433761.94599,-1.6791272163391113,-1.4796500739506264,-2.598978344594137,5.765280711441793,0.9132601022720337,-3.5608885923968714
1708433761.947973,-1.6796585321426392,-1.4800467056087037,-2.598377291356222,5.76629792430953,0.9122602343559265,-3.559377733861105
1708433761.950049,-1.6802000999450684,-1.4804062408259888,-2.5977488199817103,5.767298209458151,0.9111729264259338,-3.55788237253298
1708433761.9519873,-1.6807719469070435,-1.4807734054378052,-2.597207848225729,5.768302547722616,0.9101360440254211,-3.5563793818103235
1708433761.9539714,-1.681351661682129,-1.4811451000026246,-2.596560780202047,5.769512045174398,0.9090402126312256,-3.5548561255084437
1708433761.9559937,-1.6820765733718872,-1.4815135982683678,-2.5959234873401087,5.770534860878744,0.9079530239105225,-3.553420368825094
1708433761.9579694,-1.6826707124710083,-1.4818805170110245,-2.595341507588522,5.771726715355673,0.9069163799285889,-3.551950518284933
1708433761.9599733,-1.6833595037460327,-1.4821878534606476,-2.594689909611837,5.772752153664388,0.9059285521507263,-3.550480906163351
1708433761.9619749,-1.683991551399231,-1.482623578315117,-2.5940924326526087,5.77393530586318,0.9049103856086731,-3.5490930716144007
1708433761.9639742,-1.684697151184082,-1.4829187554172059,-2.5934107939349573,5.775034177094259,0.9039196968078613,-3.547682587300436
1708433761.9659762,-1.6854230165481567,-1.4832693499377747,-2.592783276234762,5.776192772179403,0.9029837846755981,-3.5462122599231165
1708433761.9679968,-1.6861603260040283,-1.483707734649517,-2.592095677052633,5.77729748466567,0.9019677042961121,-3.544779364262716
1708433761.9699793,-1.686877727508545,-1.4840375942042847,-2.5914695898639124,5.778389203339376,0.9009677767753601,-3.5433617273913782
1708433761.971991,-1.6876270771026611,-1.4843972039273758,-2.5907369295703333,5.77952669838027,0.8999575972557068,-3.541860644017355
1708433761.9739916,-1.6884455680847168,-1.484768771832325,-2.5900705496417444,5.780693995743551,0.8989848494529724,-3.540431324635641
1708433761.9759872,-1.6891921758651733,-1.4851237547448655,-2.5894086996661585,5.781799542694845,0.8979992270469666,-3.538900677357809
1708433761.9780169,-1.6900221109390259,-1.4854635384729882,-2.5887015501605433,5.782902705460348,0.8970093727111816,-3.537433926259176
1708433761.9800196,-1.6908445358276367,-1.4858190652779122,-2.587989870701925,5.784069287567892,0.8960453867912292,-3.5359225908862513
1708433761.9820802,-1.691679835319519,-1.4861968246153374,-2.5873263517962855,5.785166013031759,0.8950468301773071,-3.53443414369692
1708433761.9839926,-1.6925231218338013,-1.48650977135215,-2.586611811314718,5.786327588349142,0.8940789103507996,-3.5329936186419886
1708433761.9860148,-1.6933833360671997,-1.4868123468807717,-2.58596116701235,5.78745053985671,0.8931295275688171,-3.5315571467029017
1708433761.9879827,-1.6942129135131836,-1.487173506324627,-2.585208241139547,5.788547026901998,0.8920864462852478,-3.5300772825824183
1708433761.9899747,-1.6950653791427612,-1.4875330787948151,-2.58449894586672,5.789687979012289,0.8910754919052124,-3.528477732335226
1708433761.9919686,-1.6959635019302368,-1.4878356990269204,-2.5837634245501917,5.7907683728034876,0.8900988101959229,-3.5269771257983606
1708433761.9940088,-1.6968387365341187,-1.4882250812700768,-2.583045784627096,5.791915404587545,0.8891599178314209,-3.5254510084735315
1708433761.9959881,-1.6976690292358398,-1.4885216367295762,-2.582306210194723,5.7930229780967615,0.8881654143333435,-3.523931328450338
1708433761.9980154,-1.6985652446746826,-1.4888917294195672,-2.581604305897848,5.794107901840963,0.8871755599975586,-3.5224016348468226
1708433761.9999921,-1.6993625164031982,-1.489218146806099,-2.5808756987201136,5.795158016472616,0.8862716555595398,-3.52099854150881
1708433762.001998,-1.700249433517456,-1.4895464864424248,-2.5801644960986536,5.796173798828878,0.8853791952133179,-3.519531551991598
1708433762.0039985,-1.7011061906814575,-1.4898099091700097,-2.579416815434591,5.797203290253439,0.8844172954559326,-3.518045488988058
1708433762.0059817,-1.7019591331481934,-1.4902459693006058,-2.5786381403552454,5.798254835396566,0.8834919929504395,-3.516529385243551
1708433762.0079894,-1.7028111219406128,-1.4905634012869378,-2.577895466481344,5.7992403385932825,0.8824973106384277,-3.5150044600116175
1708433762.009996,-1.7036834955215454,-1.4908964720419426,-2.5771308580981653,5.80025731304244,0.8815687298774719,-3.5135653654681605
1708433762.0119722,-1.7044278383255005,-1.4912483257106324,-2.5763748327838343,5.801330077439108,0.8806253671646118,-3.511981789265768
1708433762.0139856,-1.7052724361419678,-1.4915959698012848,-2.5756028334247034,5.8022711155708215,0.879697322845459,-3.510494057332174
1708433762.0159757,-1.706099033355713,-1.4919059363058587,-2.5748453775988978,5.803310024529257,0.8787389397621155,-3.5089734236346644
1708433762.0179849,-1.7069226503372192,-1.4922909301570435,-2.574127260838644,5.8042417643363855,0.8778467178344727,-3.5074577967273157
1708433762.0199716,-1.7076475620269775,-1.492622086112835,-2.5734084288226526,5.805186259537496,0.8769454956054688,-3.505915705357687
1708433762.0219927,-1.7084752321243286,-1.4929530260017891,-2.5726774374591272,5.806132066040792,0.8760458827018738,-3.5043779055224817
1708433762.0239828,-1.7092620134353638,-1.4933501792005082,-2.57190972963442,5.807091104775228,0.8750628232955933,-3.502782408391134
1708433762.0259805,-1.7099965810775757,-1.4936315950802346,-2.571148697529928,5.807977664261617,0.8741168975830078,-3.501232449208395
1708433762.027985,-1.710766077041626,-1.4939792689732094,-2.570369307194845,5.808781254082479,0.8732055425643921,-3.4996658007251185
1708433762.029994,-1.7115252017974854,-1.494347759788372,-2.5695963541613978,5.809692370682516,0.8722509741783142,-3.498079840336935
1708433762.0319803,-1.7122328281402588,-1.4947761607221146,-2.568845335637228,5.810505139618673,0.871324896812439,-3.4964917341815394
1708433762.033983,-1.7129307985305786,-1.4951089856079598,-2.568085018788473,5.811361062317648,0.8705137372016907,-3.494934622441427
1708433762.0359762,-1.7136900424957275,-1.4954219323447724,-2.5673611799823206,5.812104332237997,0.8696006536483765,-3.4933088461505335
1708433762.0380104,-1.7143709659576416,-1.4957743448070069,-2.5666185061084192,5.812776195793905,0.8687071204185486,-3.4918246904956263
1708433762.039974,-1.7150375843048096,-1.4961965543082734,-2.56584602991213,5.81349145153121,0.8678557872772217,-3.490213934575216
1708433762.0419846,-1.7156974077224731,-1.4965503600290795,-2.564975086842672,5.814241635590353,0.8669033050537109,-3.4886534849749964
1708433762.04403,-1.7163249254226685,-1.4969216895154496,-2.564298693333761,5.814833867340841,0.8660200834274292,-3.4870217482196253
1708433762.0459754,-1.716916799545288,-1.4972511690906067,-2.563460652028219,5.815541851311483,0.8651155829429626,-3.4855423609363
1708433762.047977,-1.7175575494766235,-1.497655527000763,-2.5627508799182337,5.816215503006735,0.8642594814300537,-3.4840391317950647
1708433762.0499747,-1.7181209325790405,-1.498057284658291,-2.562002960835592,5.8168325302894495,0.8633269667625427,-3.4824474493609827
1708433762.0519817,-1.718732476234436,-1.498377041225769,-2.5612781683551233,5.817400562554159,0.8625099658966064,-3.4809451738940638
1708433762.0539813,-1.719249963760376,-1.4988119390657921,-2.560498301182882,5.818091618805685,0.8616177439689636,-3.4793716112719935
1708433762.0559974,-1.7197691202163696,-1.4992088985494156,-2.5597382227527063,5.818628775864401,0.8608310222625732,-3.477844778691427
1708433762.0579977,-1.7202345132827759,-1.4995830741575737,-2.5590439478503626,5.819207775383749,0.8599287271499634,-3.476297918950216
1708433762.0599802,-1.7207788228988647,-1.4999335420182724,-2.558183018361227,5.819687950402059,0.8590275645256042,-3.4746647516833704
1708433762.0619757,-1.7212175130844116,-1.5004181948355217,-2.557486359273092,5.82010434845046,0.8581451773643494,-3.4731536547290247
1708433762.0639844,-1.7216683626174927,-1.500800998216011,-2.556763235722677,5.82056604602889,0.857297420501709,-3.4715212027179163
1708433762.0659735,-1.7221041917800903,-1.5011946645430108,-2.555977169667379,5.821119773178854,0.8564521670341492,-3.469970766698019
1708433762.0679765,-1.7224533557891846,-1.501541757290699,-2.55526310602297,5.821496474533834,0.8556523323059082,-3.468449656163351
1708433762.07002,-1.722893476486206,-1.5019489613226433,-2.5545104185687464,5.821870791703024,0.8547977209091187,-3.466809336339132
1708433762.071973,-1.7232519388198853,-1.5023842614940186,-2.5537784735309046,5.822300898819723,0.8539741039276123,-3.465271774922506
1708433762.0740144,-1.723574161529541,-1.5026943919113656,-2.5530055204974573,5.822667705803671,0.8531615138053894,-3.4636037985431116
1708433762.075983,-1.7239346504211426,-1.503204033975937,-2.552302662526266,5.823005187302389,0.8522799015045166,-3.4620309511767786
1708433762.0779824,-1.724220871925354,-1.5035757657936593,-2.5515299479113978,5.823332416802206,0.8514587879180908,-3.460429016743795
1708433762.0799615,-1.7245407104492188,-1.5038750779679795,-2.550814692174093,5.823646294861593,0.8506053686141968,-3.4589372316943567
1708433762.081973,-1.7248151302337646,-1.5042732518962403,-2.5501020590411585,5.823904979019918,0.8498381972312927,-3.4574604670154017
1708433762.083963,-1.725050926208496,-1.5046638709357758,-2.549366060887472,5.824203836708822,0.8489593863487244,-3.455949846898214
1708433762.085968,-1.7253459692001343,-1.5050943803838273,-2.548682991658346,5.824393856316366,0.8481638431549072,-3.454397265111105
1708433762.088021,-1.7254869937896729,-1.50551279753957,-2.547999445592062,5.8246581433113,0.8473875522613525,-3.4529572168933313
1708433762.0900185,-1.7257248163223267,-1.5059059125236054,-2.5472827593432825,5.824828731804647,0.8465445041656494,-3.451456371937887
1708433762.0919602,-1.7259414196014404,-1.5062396091273804,-2.5465343634234827,5.8250112412269495,0.8457337617874146,-3.449838701878683
1708433762.0939624,-1.726008653640747,-1.5066693288138886,-2.545868460332052,5.825163471489706,0.8449298739433289,-3.448373858128683
1708433762.0959702,-1.7261854410171509,-1.506992594604828,-2.5451682249652308,5.825260865479269,0.8440971970558167,-3.446829382573263
1708433762.0979667,-1.7263305187225342,-1.5073938158205529,-2.5444629828082483,5.825337040215292,0.8433331847190857,-3.4452908674823206
1708433762.0999854,-1.726416826248169,-1.5078337428024788,-2.543772045766012,5.825464236527242,0.8424774408340454,-3.443760697041647
1708433762.1019785,-1.7265279293060303,-1.508206532602646,-2.543142382298605,5.825527179032125,0.8417428731918335,-3.442228142415182
1708433762.1039891,-1.7265372276306152,-1.5086207029274483,-2.54244047800173,5.825570809632101,0.8409630656242371,-3.4406657854663294
1708433762.105964,-1.7265280485153198,-1.5090440113893528,-2.5418182055102747,5.82567177990035,0.840213418006897,-3.4391663710223597
1708433762.1079729,-1.726609706878662,-1.5094005402973671,-2.5410853067981165,5.825637805252828,0.8394405245780945,-3.4376378695117396
1708433762.1099956,-1.7265349626541138,-1.5098274995437642,-2.540429178868429,5.825694191246786,0.8387008309364319,-3.4361491839038294
1708433762.1119735,-1.7265269756317139,-1.5101622504046937,-2.539807383214132,5.825666415482321,0.8379302024841309,-3.4346006552325647
1708433762.1139731,-1.7265031337738037,-1.510577031677105,-2.539114538823263,5.825625884323873,0.8371813893318176,-3.4331024328814905
1708433762.1159627,-1.7264418601989746,-1.5109987531653424,-2.538426224385397,5.8254562495048425,0.8363741636276245,-3.431589190159933
1708433762.1179912,-1.726353406906128,-1.5113924008658906,-2.537823502217428,5.825335132866659,0.8356094360351562,-3.4301283995257776
1708433762.1199913,-1.726252555847168,-1.5118423265269776,-2.5371182600604456,5.82528983333663,0.8348525166511536,-3.428685490285055
1708433762.1220543,-1.7261900901794434,-1.5121798676303406,-2.5363896528827112,5.825198757439413,0.8341377377510071,-3.427201811467306
1708433762.123981,-1.7261106967926025,-1.5124985960176964,-2.5357328096972864,5.825106131821432,0.8334122896194458,-3.4257846514331263
1708433762.12599,-1.7259113788604736,-1.5129803393832226,-2.535140339528219,5.825031268387594,0.8327218294143677,-3.4244003931628626
1708433762.1279871,-1.725813627243042,-1.513310783808567,-2.534504238759176,5.824850666313925,0.8319496512413025,-3.423056666051046
1708433762.1300225,-1.7256368398666382,-1.5137223166278382,-2.53379732767214,5.824662673264303,0.8312548398971558,-3.421669069920675
1708433762.131986,-1.7254531383514404,-1.5140502837351342,-2.53318959871401,5.824519145279684,0.8305118083953857,-3.4202457110034388
1708433762.1340315,-1.7252603769302368,-1.5144800928286095,-2.532496754323141,5.824295031815328,0.8297625780105591,-3.4188104311572474
1708433762.1360102,-1.7250539064407349,-1.5148537841490288,-2.531848732625143,5.824072468071737,0.8291173577308655,-3.4174655119525355
1708433762.1379857,-1.7247523069381714,-1.5152923625758667,-2.531234089528219,5.823812591820516,0.8283460736274719,-3.4161389509784144
1708433762.1399684,-1.7244676351547241,-1.5156724911979218,-2.5305843989001673,5.823545205384054,0.8277382254600525,-3.4147427717791956
1708433762.1419704,-1.7241467237472534,-1.5160542887500306,-2.5300028959857386,5.823179709702291,0.8270453214645386,-3.4134021441089075
1708433762.1439643,-1.7238719463348389,-1.5164688688567658,-2.529353443776266,5.822908866196432,0.8264017701148987,-3.4119747320758265
1708433762.146019,-1.7234877347946167,-1.5168619391373177,-2.5287473837481897,5.822599875717916,0.825695276260376,-3.410654131566183
1708433762.1479661,-1.7231284379959106,-1.5172837165049096,-2.528069559727804,5.82227252700881,0.8250315189361572,-3.4092851320849817
1708433762.149976,-1.722760796546936,-1.5176610064557572,-2.5274904409991663,5.821861851006307,0.8243629336357117,-3.4078972975360315
1708433762.1519759,-1.722353219985962,-1.5180133518627663,-2.5268247763263147,5.821485864907064,0.8236963152885437,-3.406548086796896
1708433762.1540205,-1.7218613624572754,-1.5184687797776242,-2.526242796574728,5.821137177735128,0.8230447173118591,-3.405246082936422
1708433762.1559649,-1.7214157581329346,-1.5188136038235207,-2.525668207799093,5.820652115135946,0.8224695324897766,-3.4038730303393763
1708433762.1579642,-1.7209652662277222,-1.5192639094642182,-2.525080982838766,5.820340263634481,0.8218129873275757,-3.402574602757589
1708433762.1599743,-1.7204697132110596,-1.5195768934539338,-2.5243731180774134,5.8198609230811975,0.8211437463760376,-3.401256863270895
1708433762.1619856,-1.719970941543579,-1.5199508306435128,-2.523834768925802,5.8194631216819666,0.8205397129058838,-3.399919096623556
1708433762.1639776,-1.719406008720398,-1.520307482486107,-2.5232561270343226,5.818971621781149,0.8198848962783813,-3.3986788431750696
1708433762.1660206,-1.718871831893921,-1.520715945666172,-2.522644344960348,5.81850694397048,0.8192716240882874,-3.3974278608905237
1708433762.1679718,-1.7183079719543457,-1.5210729886642476,-2.5221133867846888,5.8180404780204675,0.8186467885971069,-3.3960633913623255
1708433762.1699727,-1.7176845073699951,-1.5215124760619183,-2.5215333143817347,5.817489015847006,0.8181164860725403,-3.3948946634875696
1708433762.1719613,-1.717051386833191,-1.5219019700637837,-2.5209856669055384,5.81698619106368,0.8174612522125244,-3.3936927954303187
1708433762.173978,-1.7164101600646973,-1.5222562600723286,-2.520426336918966,5.816525566368856,0.8168851733207703,-3.3924782911883753
1708433762.1759655,-1.7158392667770386,-1.5226010096124192,-2.519862476979391,5.8160064099128626,0.816280722618103,-3.3914058844195765
1708433762.1779802,-1.715158224105835,-1.5229499016753216,-2.519256893788473,5.815525400429525,0.8157121539115906,-3.3902371565448206
1708433762.1799638,-1.7144635915756226,-1.5233362068286915,-2.5187955538379114,5.814930188446798,0.8151143193244934,-3.3890565077411097
1708433762.1819797,-1.713710069656372,-1.5236811202815552,-2.518294874821798,5.814373242646017,0.8145747184753418,-3.3878865877734583
1708433762.1839752,-1.712937831878662,-1.5241287995925923,-2.5177045504199427,5.813814866333761,0.8139958381652832,-3.3867419401751917
1708433762.1859837,-1.7122077941894531,-1.5244660575738926,-2.51717192331423,5.813322412758627,0.8134067058563232,-3.385564629231588
1708433762.1879656,-1.711467981338501,-1.5247958053699513,-2.5166285673724573,5.812740194588461,0.8128371238708496,-3.384454313908712
1708433762.1899729,-1.7106999158859253,-1.5251205053976555,-2.5161295572863978,5.81216179111556,0.8123289942741394,-3.3833962122546595
1708433762.191967,-1.7098872661590576,-1.525553261195757,-2.515655819569723,5.811548697739401,0.8117520809173584,-3.3822882811175745
1708433762.1940315,-1.7090123891830444,-1.5259107996574421,-2.5151317755328577,5.810936438828268,0.8112398386001587,-3.3812461535083216
1708433762.195971,-1.7081727981567383,-1.5263046000948925,-2.514628235493795,5.810253250389852,0.8107389807701111,-3.380214516316549
1708433762.1979678,-1.7072376012802124,-1.5265846599689503,-2.5141940752612513,5.809659230500021,0.8102716207504272,-3.3791070620166224
1708433762.1999855,-1.706362247467041,-1.5270334531417866,-2.5136786142932337,5.809066283493795,0.809790313243866,-3.3781150023089808
1708433762.2019782,-1.7054067850112915,-1.527309027766325,-2.5131824652301233,5.808419334679403,0.8092601299285889,-3.3770888487445276
1708433762.2039888,-1.7045226097106934,-1.5276714128306885,-2.5127480665790003,5.807726728707113,0.8088403940200806,-3.376105848942892
1708433762.2059753,-1.703566551208496,-1.5280383054963131,-2.5122385660754603,5.807085501938619,0.8083177208900452,-3.3752108255969446
1708433762.208,-1.7025542259216309,-1.528379787956812,-2.511780087147848,5.806447970658102,0.807914674282074,-3.374273125325338
1708433762.2099655,-1.7015732526779175,-1.5287540306201954,-2.511369053517477,5.805809128075399,0.807490885257721,-3.3733375708209437
1708433762.211984,-1.7005271911621094,-1.5290209513953705,-2.510881010686056,5.805145728379049,0.8070369958877563,-3.372411076222555
1708433762.213992,-1.6995368003845215,-1.5293962334147473,-2.5105107466327112,5.804483282357015,0.8066824674606323,-3.371650044118063
1708433762.215983,-1.6984663009643555,-1.5296885159662743,-2.5100467840777796,5.803841340332784,0.8062597513198853,-3.3708041349994105
1708433762.2180436,-1.6974319219589233,-1.5300240863910695,-2.5096433798419397,5.803152906685629,0.805888831615448,-3.3700080553637903
1708433762.2199943,-1.696394443511963,-1.5304001879743119,-2.5092206637011927,5.802597152977743,0.8054826855659485,-3.3692436853991907
1708433762.2220163,-1.6953444480895996,-1.530766700660326,-2.508763615285055,5.801929700165548,0.8050783276557922,-3.3684690634356897
1708433762.2239811,-1.6942278146743774,-1.5310586851886292,-2.5084221998797815,5.801306473999777,0.8047178983688354,-3.367767397557394
1708433762.2259824,-1.693112850189209,-1.531404660349228,-2.507986132298605,5.80070577838973,0.8043690323829651,-3.367004458104269
1708433762.2279818,-1.692002773284912,-1.5316757683506985,-2.5076192061053675,5.80009554603652,0.8040609955787659,-3.3663504759417933
1708433762.2299976,-1.6908535957336426,-1.5320488487235089,-2.507211510335104,5.799505340843954,0.8037077784538269,-3.3657754103290003
1708433762.2319713,-1.6897852420806885,-1.5323456649533291,-2.506799284611837,5.798950302391805,0.803388237953186,-3.365136686955587
1708433762.2339857,-1.688588261604309,-1.5326881495169182,-2.5064323584186,5.798408257752218,0.803062915802002,-3.3645833174334925
1708433762.2359822,-1.6875128746032715,-1.5330659721842785,-2.5060563723193567,5.797848927765646,0.802772045135498,-3.363927666340963
1708433762.2379887,-1.6862865686416626,-1.5333683241954823,-2.505698029194967,5.797354805260458,0.8024576306343079,-3.363490883504049
1708433762.2399733,-1.6851706504821777,-1.5337185722640534,-2.505312983189718,5.796865331917562,0.8021734356880188,-3.3629406134234827
1708433762.24199,-1.6840099096298218,-1.5340214942446728,-2.504953447972433,5.7963493941123865,0.8019751310348511,-3.362560812626974
1708433762.243991,-1.6828784942626953,-1.5343716044775029,-2.5046547094928187,5.795970666199484,0.8017176985740662,-3.3619990984546106
1708433762.2459867,-1.6816948652267456,-1.5346474808505555,-2.5043044726001185,5.7955771563346765,0.8015074729919434,-3.361565891896383
1708433762.247995,-1.680551528930664,-1.534957432453968,-2.503917996083395,5.795166003495016,0.8012248277664185,-3.3611674944507044
1708433762.2499683,-1.679345965385437,-1.535225873147585,-2.503648106251852,5.79472433307723,0.8010596036911011,-3.360788885747091
1708433762.2519765,-1.6782426834106445,-1.5356195096722622,-2.50327974954714,5.794308531075277,0.8007937073707581,-3.360319201146261
1708433762.2539952,-1.6771435737609863,-1.535844349568226,-2.5029664675342005,5.793897259026327,0.8005771636962891,-3.3600197474109095
1708433762.2559972,-1.675933837890625,-1.5361714114299794,-2.5026775042163294,5.7935688374336145,0.8003441691398621,-3.359645191823141
1708433762.2580516,-1.6748278141021729,-1.5364467997900029,-2.5024059454547327,5.793171393662252,0.8001759648323059,-3.359306875859396
1708433762.26005,-1.6736915111541748,-1.5367912736586113,-2.502094332371847,5.792907106667318,0.7999880909919739,-3.3589840571032923
1708433762.2619922,-1.6725753545761108,-1.5370565478554745,-2.5018606821643274,5.7926076529319666,0.7997622489929199,-3.3586352507220667
1708433762.2640038,-1.6714051961898804,-1.5373040822199364,-2.5015926996814173,5.792368638306417,0.7996677160263062,-3.358410183583395
1708433762.266026,-1.670354962348938,-1.5376381252757092,-2.501307789479391,5.792197572975912,0.7995039224624634,-3.358187977467672
1708433762.267989,-1.6692832708358765,-1.5379273530891915,-2.5010843912707728,5.791944968491354,0.7993187308311462,-3.35798150697817
1708433762.2699807,-1.6681954860687256,-1.5381928955069561,-2.500885311757223,5.7917964337165735,0.7991745471954346,-3.3577166239367884
1708433762.2719834,-1.6670725345611572,-1.538537075077631,-2.500665012990133,5.791669237404623,0.7990017533302307,-3.3575037161456507
1708433762.2739923,-1.665993332862854,-1.5388190236738701,-2.500420395527975,5.791529881745138,0.7989238500595093,-3.3573463598834437
1708433762.2759933,-1.6649781465530396,-1.5390558254769822,-2.500221554433004,5.791429507523336,0.7987824082374573,-3.3572574297534388
1708433762.2779734,-1.6639118194580078,-1.5393958923271676,-2.5000551382647913,5.791460621147909,0.7986786365509033,-3.357109610234396
1708433762.2799747,-1.6629747152328491,-1.539637579848506,-2.4998136202441614,5.79138599613265,0.7986199259757996,-3.356980625783102
1708433762.2819748,-1.6619086265563965,-1.5399191372892638,-2.499638621007101,5.791365253716268,0.7985076308250427,-3.3569183985339563
1708433762.2839859,-1.660941243171692,-1.540169696589448,-2.499451224003927,5.7914219973380945,0.798427939414978,-3.356826368962423
1708433762.2859933,-1.6598964929580688,-1.5404468339732666,-2.4992623964892786,5.791519272118368,0.7983346581459045,-3.356774393712179
1708433762.287987,-1.658962368965149,-1.540754123856761,-2.4991098085986536,5.7916685221488855,0.7983238697052002,-3.356748167668478
1708433762.2899756,-1.6580508947372437,-1.5410446741482993,-2.4989498297320765,5.791918146401205,0.7982972264289856,-3.3567162195788782
1708433762.2919822,-1.6571323871612549,-1.5412936613759776,-2.4988394419299524,5.792093145638265,0.7982232570648193,-3.35669976869692
1708433762.293991,-1.6562687158584595,-1.5416338809630652,-2.49862248102297,5.7923457501228235,0.798187255859375,-3.356737200413839
1708433762.2960055,-1.655327558517456,-1.5418753431043406,-2.4985719362842005,5.792565691262045,0.7981300354003906,-3.3568297068225306
1708433762.2979734,-1.654463291168213,-1.5421155647239466,-2.4983633200274866,5.792814004212179,0.7981390953063965,-3.3568807283984583
1708433762.3000076,-1.6536531448364258,-1.5423881460777302,-2.4982715288745325,5.79313753822402,0.7981558442115784,-3.356990162526266
1708433762.3019736,-1.652820110321045,-1.5426163536361237,-2.498114887868063,5.793476927071371,0.7981272339820862,-3.3571141401873987
1708433762.3039718,-1.6520154476165771,-1.5429696601680298,-2.498024050389425,5.79385672786788,0.798193097114563,-3.3572140375720423
1708433762.3059838,-1.6512459516525269,-1.5432035785964509,-2.4978957811938685,5.794182050019064,0.7982203960418701,-3.357305351887838
1708433762.3079882,-1.650520920753479,-1.5434867658517142,-2.4978085199939173,5.794593560486593,0.7983017563819885,-3.3574257532702845
1708433762.3099775,-1.6497048139572144,-1.5437240947834034,-2.49768835703005,5.7951077101524255,0.798423171043396,-3.357537571583883
1708433762.311973,-1.6490154266357422,-1.5439777181348582,-2.4976287523852747,5.795598614006796,0.7984341382980347,-3.357640806828634
1708433762.3139968,-1.6483186483383179,-1.5442203015885134,-2.497544829045431,5.796100127487936,0.7984998822212219,-3.357825819646017
1708433762.316007,-1.6477004289627075,-1.5445438598147412,-2.4974973837481897,5.79664038398818,0.7985783815383911,-3.3579776922809046
1708433762.3179822,-1.6469781398773193,-1.5447612901083012,-2.497331682835714,5.797252046852865,0.7986924648284912,-3.3581369558917444
1708433762.3200176,-1.646320104598999,-1.545031401594617,-2.497312609349386,5.797826874047079,0.7987115979194641,-3.3583503405200403
1708433762.321982,-1.6456788778305054,-1.5451966889998694,-2.4972973505603235,5.798461663513937,0.7987748980522156,-3.358523193989889
1708433762.3239818,-1.645075798034668,-1.5454682570746918,-2.497265402470724,5.799131500511923,0.7988214492797852,-3.358680550252096
1708433762.325997,-1.6444798707962036,-1.5458034084043284,-2.497168842946188,5.7999257920081995,0.798905611038208,-3.3589754740344446
1708433762.327992,-1.643894076347351,-1.546023904611804,-2.497153107319967,5.800627457886495,0.7990367412567139,-3.3592258135425013
1708433762.3299963,-1.6433721780776978,-1.5462954093566914,-2.4971819559680384,5.80139051654891,0.7990543246269226,-3.3594980875598353
1708433762.3319826,-1.6428322792053223,-1.54654152811084,-2.4971984068499964,5.802212106972494,0.799213707447052,-3.3597782293902796
1708433762.3339837,-1.642362117767334,-1.5468097005835553,-2.4971497694598597,5.803099262505331,0.7993506789207458,-3.359999720250265
1708433762.3359928,-1.641853928565979,-1.5470052559724827,-2.497169319783346,5.803948986321249,0.7994858026504517,-3.360283915196554
1708433762.3379905,-1.6413239240646362,-1.5473615445992728,-2.4971779028521937,5.804815280228414,0.799601674079895,-3.360596005116598
1708433762.3399823,-1.640921711921692,-1.547559830625989,-2.497226063405172,5.805737006455221,0.7997581958770752,-3.360898796712057
1708433762.3419676,-1.640428066253662,-1.5478223294815798,-2.4972782770739954,5.806573974877157,0.7999231815338135,-3.3612845579730433
1708433762.3439775,-1.6400089263916016,-1.548068569307663,-2.49736196199526,5.807568895607748,0.8001049160957336,-3.361565653477804
1708433762.3459768,-1.639608383178711,-1.5483114582351227,-2.497446600590841,5.808568584709921,0.8002148866653442,-3.361917320881979
1708433762.3479836,-1.6392661333084106,-1.5485289257815857,-2.4975345770465296,5.8096351502235315,0.8004072308540344,-3.3622477690326136
1708433762.3499782,-1.6389061212539673,-1.5487646379372855,-2.4975338617907923,5.810628640442648,0.8005964756011963,-3.3626366297351282
1708433762.351988,-1.6385300159454346,-1.5489614077708502,-2.4976215998279017,5.811725961952963,0.8008070588111877,-3.3630076090442103
1708433762.3539886,-1.6382265090942383,-1.5491673213294526,-2.49770170847048,5.812790262490072,0.8009738922119141,-3.363380257283346
1708433762.3560112,-1.6379549503326416,-1.5493686900338908,-2.4977901617633265,5.813873278885641,0.8011451363563538,-3.3637262026416224
1708433762.358034,-1.6376757621765137,-1.5496547681144257,-2.4978860060321253,5.814981925278463,0.801358699798584,-3.3641207853900355
1708433762.3599827,-1.6374404430389404,-1.549853290697076,-2.4979451338397425,5.816052424698629,0.8015421032905579,-3.3644748369800013
1708433762.3620138,-1.637216567993164,-1.5501049321940918,-2.498077694569723,5.817246544152059,0.8017913699150085,-3.364889446889059
1708433762.3640134,-1.6369552612304688,-1.5502807658961792,-2.498230759297506,5.818458544998922,0.8020769357681274,-3.3652976194964808
1708433762.3659756,-1.6367838382720947,-1.5505250555327912,-2.4982739130603235,5.819706547051229,0.8022772073745728,-3.365725819264547
1708433762.368011,-1.6366081237792969,-1.550693766479828,-2.498385016118185,5.821012484818258,0.8025953769683838,-3.366183344517843
1708433762.3699837,-1.6364736557006836,-1.5509832718274374,-2.4985418955432337,5.822326171189108,0.8028193116188049,-3.3666144053088587
1708433762.3719826,-1.6362842321395874,-1.5511559967747708,-2.4986940065967005,5.823572623520651,0.8030794858932495,-3.3670695463763636
1708433762.374029,-1.6361359357833862,-1.5514897269061585,-2.498805348073141,5.824985372811117,0.8032898902893066,-3.3675807158099573
1708433762.3760428,-1.6360617876052856,-1.5516657636365672,-2.4989452997790735,5.826320159226217,0.8036131262779236,-3.368040386830465
1708433762.3780248,-1.635973334312439,-1.5519040928087016,-2.4991231600390833,5.827655422478475,0.8038987517356873,-3.368460480366842
1708433762.3799903,-1.63591468334198,-1.5520999890616913,-2.4992907683001917,5.8290068981941126,0.8041471242904663,-3.368936363850729
1708433762.3820467,-1.6358294486999512,-1.552354983319976,-2.499418322240011,5.830355870514669,0.8044264316558838,-3.3694615999804896
1708433762.3839843,-1.635785698890686,-1.5525533252260466,-2.4996236006366175,5.831836688309469,0.8047763109207153,-3.3699517885791224
1708433762.3859937,-1.6358108520507812,-1.5527573780021449,-2.499770466481344,5.833349931031027,0.805149257183075,-3.3703153769122522
1708433762.388019,-1.6358064413070679,-1.553031389867403,-2.4999950567828577,5.834833252220907,0.8055475354194641,-3.3708928267108362
1708433762.3899815,-1.6359249353408813,-1.5532583513161917,-2.500202004109518,5.83635305145339,0.8059728145599365,-3.3714237848864954
1708433762.3919923,-1.6359567642211914,-1.5534432989409943,-2.5004640261279505,5.8378262398536584,0.8063004612922668,-3.3719337622271937
1708433762.3940344,-1.6360526084899902,-1.5536653262427826,-2.500608030949728,5.839364635735311,0.8066717386245728,-3.372402016316549
1708433762.3959813,-1.6361196041107178,-1.5539334577373047,-2.5008488337146204,5.8409756300743005,0.8070849180221558,-3.3729258219348353
1708433762.3979728,-1.6362253427505493,-1.5542122770896931,-2.5011113325702112,5.842587816506185,0.8074173927307129,-3.3734496275531214
1708433762.3999732,-1.6363569498062134,-1.5543810234269877,-2.5013213793383997,5.8441893933113,0.8078368902206421,-3.3739879767047327
1708433762.401982,-1.6365102529525757,-1.5546687462231894,-2.501659695302145,5.84568868854598,0.8082332015037537,-3.37453538576235
1708433762.4040124,-1.6366610527038574,-1.5548820004663249,-2.5018890539752405,5.847515451699056,0.8086467385292053,-3.375066343938009
1708433762.4059782,-1.6368472576141357,-1.555169479256012,-2.502197567616598,5.849148976593771,0.8090724349021912,-3.3755655924426478
1708433762.4080274,-1.6370365619659424,-1.5554080738550802,-2.5025270620929163,5.850877749710836,0.8094687461853027,-3.37610632578005
1708433762.4099667,-1.6372811794281006,-1.5555884403041382,-2.5028062502490442,5.852672207146444,0.8099062442779541,-3.3767345587359827
1708433762.4119956,-1.637479543685913,-1.5558565717986603,-2.503092352543966,5.854425775795736,0.8103257417678833,-3.377201859151022
1708433762.4139705,-1.6377569437026978,-1.5560862620225926,-2.503408733998434,5.856172668724813,0.8107796907424927,-3.377774778996603
1708433762.415966,-1.638000249862671,-1.5563042622855683,-2.503809992467062,5.85799657085494,0.8112440705299377,-3.3783605734454554
1708433762.4179645,-1.6383417844772339,-1.556609646683075,-2.5040977636920374,5.859788286476888,0.8117348551750183,-3.378972832356588
1708433762.4199936,-1.6385974884033203,-1.5567962390235444,-2.5044785181628626,5.8616381762321375,0.8122183084487915,-3.3795838991748255
1708433762.4219837,-1.6389424800872803,-1.5570405286601563,-2.5047794024096888,5.863495933800497,0.8126779198646545,-3.3801570574389856
1708433762.4239888,-1.6393033266067505,-1.5572806934690853,-2.505183998738424,5.865423190384664,0.8132463693618774,-3.3807197252856653
1708433762.4259746,-1.639729380607605,-1.5574729724651952,-2.5056424776660364,5.867364990502157,0.8137091398239136,-3.38122803369631
1708433762.427975,-1.6401538848876953,-1.5577383798411866,-2.506012026463644,5.869352328568258,0.8142018914222717,-3.381815497075216
1708433762.4299748,-1.6405211687088013,-1.557902382021286,-2.5063913504229944,5.87131284454421,0.814744770526886,-3.3824926058398646
1708433762.4319866,-1.6409807205200195,-1.5581872326186677,-2.506812636052267,5.87333511093215,0.8152734041213989,-3.383003536854879
1708433762.4340322,-1.6414719820022583,-1.5584288344583292,-2.507272783909933,5.875271904259481,0.8157861232757568,-3.3837245146380823
1708433762.4360006,-1.6419402360916138,-1.5586181322908779,-2.5076993147479456,5.877272355347433,0.8163557052612305,-3.384211842213766
1708433762.4379952,-1.6424570083618164,-1.5588534635356446,-2.5081430117236536,5.879297601967611,0.8169496059417725,-3.384897295628683
1708433762.4399862,-1.6430109739303589,-1.5591054328582068,-2.5086267630206507,5.8813525317008875,0.8174996376037598,-3.385481659566061
1708433762.4419956,-1.6434921026229858,-1.5593558710864563,-2.509110991154806,5.8835065243537805,0.8180747032165527,-3.386144224797384
1708433762.4440703,-1.644131064414978,-1.5595691514066239,-2.5095887819873255,5.885626542359152,0.8187224268913269,-3.3867626825915735
1708433762.445995,-1.6447277069091797,-1.5598627489856263,-2.510047499333517,5.887737023621359,0.8193377256393433,-3.38743764558901
1708433762.4479945,-1.6453487873077393,-1.5600269001773377,-2.510580841694967,5.889927375107565,0.8199054598808289,-3.38802677789797
1708433762.449983,-1.6460069417953491,-1.5602913957885285,-2.511112991963522,5.892002451210775,0.8205766677856445,-3.3886786142932337
1708433762.451995,-1.6466575860977173,-1.56044493735347,-2.511620585118429,5.894154417305746,0.8211594223976135,-3.389374319707052
1708433762.454029,-1.647330403327942,-1.5607708257487793,-2.512143913899557,5.896312701493063,0.8218177556991577,-3.389954392110006
1708433762.4559927,-1.6480073928833008,-1.560890094642975,-2.512784783040182,5.898591267853536,0.8224734663963318,-3.3906055132495325
1708433762.4579897,-1.6487326622009277,-1.5612115490115066,-2.5133288542376917,5.900853144913473,0.8232086896896362,-3.3912516275988978
1708433762.4600217,-1.6494462490081787,-1.5614703458598633,-2.513895575200216,5.903125154763021,0.8238858580589294,-3.3918607870685022
1708433762.4619763,-1.6502070426940918,-1.5616884429803868,-2.5144830385791224,5.9054146883781335,0.8245905637741089,-3.3924995104419153
1708433762.4640236,-1.650970697402954,-1.5619648474133392,-2.5150824228869837,5.907724606781759,0.8253206610679626,-3.3931730429278772
1708433762.4660182,-1.651748776435852,-1.562230960731842,-2.515723530446188,5.910018908768453,0.8261032104492188,-3.3938282171832483
1708433762.4680111,-1.6525288820266724,-1.5624954265407105,-2.5163331667529505,5.91235779502944,0.8268368244171143,-3.394435707722799
1708433762.4700367,-1.6533547639846802,-1.5627401930144806,-2.516947094594137,5.91477524021224,0.8276429772377014,-3.3951194922076624
1708433762.471973,-1.6541796922683716,-1.5630150002292176,-2.517693583165304,5.917103040009298,0.8283748626708984,-3.39573580423464
1708433762.473983,-1.6550307273864746,-1.563320444231369,-2.51833945909609,5.919549453049459,0.8291550874710083,-3.396400276814596
1708433762.476007,-1.6559569835662842,-1.5635832643932481,-2.519019667302267,5.921914565354147,0.8298866152763367,-3.3970511595355433
