Eg3-git/Classifiers/Data Collection/u1/u1xyz3_ur3e_joint_states.csv
time,elbow_joint,shoulder_lift_joint,shoulder_pan_joint,wrist_1_joint,wrist_2_joint,wrist_3_joint
1708433786.886209,-2.151594400405884,-1.3337224584868927,-2.5166643301593226,6.1251282570655725,0.998932421207428,-3.1258171240436
1708433786.8882077,-2.1515774726867676,-1.3337267202189942,-2.5166643301593226,6.125128137856283,0.9989458322525024,-3.1257975737201136
1708433786.8901966,-2.1515660285949707,-1.3337343794158478,-2.5166600386248987,6.12518202045516,0.9989206194877625,-3.1257804075824183
1708433786.8922117,-2.1515774726867676,-1.3337429028800507,-2.5166359583484095,6.125170099526205,0.9989666938781738,-3.125829044972555
1708433786.8942027,-2.1515817642211914,-1.3337875318578263,-2.5166524092303675,6.125148999481954,0.9989339709281921,-3.125800911580221
1708433786.8961823,-2.1515774726867676,-1.333778904085495,-2.5166524092303675,6.12516866901473,0.9989789128303528,-3.1258171240436
1708433786.8982081,-2.1515774726867676,-1.3337917935899277,-2.5166600386248987,6.125129568367758,0.9989131689071655,-3.1257835070239466
1708433786.9001935,-2.151594400405884,-1.3337386411479493,-2.5166805426227015,6.125148999481954,0.9989206194877625,-3.1257641951190394
1708433786.902183,-2.1515862941741943,-1.333758459692337,-2.5166567007647913,6.125186431198873,0.9989206194877625,-3.125784699116842
1708433786.9041853,-2.151561737060547,-1.3337505471757432,-2.5166731516467493,6.125116336136617,0.9989221096038818,-3.125805203114645
1708433786.906177,-2.1515817642211914,-1.3337343794158478,-2.5166850725757044,6.125132667809286,0.9988964200019836,-3.1257813612567347
1708433786.9082296,-2.1515448093414307,-1.3337214899114151,-2.5166435877429407,6.125145900040426,0.9989054203033447,-3.1257522741900843
1708433786.9101756,-2.151561737060547,-1.3337670725635071,-2.5166361967669886,6.125157820969381,0.99892657995224,-3.125805203114645
1708433786.912197,-2.151589870452881,-1.3337386411479493,-2.5165987650500696,6.125137078552999,0.9989221096038818,-3.125805203114645
1708433786.9142003,-2.1515774726867676,-1.3337300431779404,-2.5166404883014124,6.125119316368856,0.9989009499549866,-3.1257932821856897
1708433786.9162228,-2.1515774726867676,-1.3338002574494858,-2.516665522252218,6.125202643662252,0.998900830745697,-3.125788990651266
1708433786.918197,-2.151595115661621,-1.3337832701257248,-2.516624991093771,6.1251656887824915,0.9989221096038818,-3.1257923285113733
1708433786.9202287,-2.151594400405884,-1.3337386411479493,-2.516665522252218,6.125141489296713,0.9988723397254944,-3.1258137861834925
1708433786.9221792,-2.1515862941741943,-1.333706260924675,-2.516616408024923,6.125153410225668,0.9989054203033447,-3.125760857258932
1708433786.9242175,-2.1515817642211914,-1.3337505620769043,-2.5166643301593226,6.125123846321859,0.9989355802536011,-3.125728432332174
1708433786.9261887,-2.151556968688965,-1.333697648053505,-2.516649309788839,6.12518202045516,0.9989188313484192,-3.1258094946490687
1708433786.9281878,-2.151535749435425,-1.3337627214244385,-2.5166075865374964,6.125148999481954,0.9988903403282166,-3.1257241407977503
1708433786.9301736,-2.1515729427337646,-1.3338165295175095,-2.516653601323263,6.125156748085775,0.9989264607429504,-3.125760857258932
1708433786.9322088,-2.1515402793884277,-1.3337462109378357,-2.5166121164904993,6.125145900040426,0.9988526701927185,-3.125760857258932
1708433786.9342167,-2.1515448093414307,-1.3337214899114151,-2.5166447798358362,6.125148999481954,0.9988694190979004,-3.125748936329977
1708433786.9362211,-2.1515684127807617,-1.3337670725635071,-2.5166121164904993,6.125120746880331,0.9988649487495422,-3.125744644795553
1708433786.9381955,-2.1515729427337646,-1.3337832701257248,-2.516576115285055,6.125087725907125,0.9988903403282166,-3.125728432332174
1708433786.9401956,-2.1515774726867676,-1.3337138307145615,-2.516620699559347,6.125132667809286,0.9988903403282166,-3.125760857258932
1708433786.9421928,-2.151561737060547,-1.3337429028800507,-2.5165641943561,6.125107514649191,0.9988527297973633,-3.1257241407977503
1708433786.944192,-2.1515448093414307,-1.3337343794158478,-2.5166001955615442,6.125120746880331,0.9988453388214111,-3.1257651487933558
1708433786.9461937,-2.1515774726867676,-1.333758459692337,-2.516559664403097,6.12518202045516,0.99883633852005,-3.125768486653463
1708433786.948215,-2.151594400405884,-1.3337713491967698,-2.516571585332052,6.125170099526205,0.9988319277763367,-3.125744644795553
1708433786.9502065,-2.1515820026397705,-1.3337257516435166,-2.516571585332052,6.125129568367758,0.9988527297973633,-3.1257651487933558
1708433786.9521897,-2.151561737060547,-1.3338079911521454,-2.5166011492358606,6.125137078552999,0.9988453388214111,-3.125748936329977
1708433786.9541907,-2.151594400405884,-1.3337960106185456,-2.5165510813342493,6.1251611588294885,0.9988289475440979,-3.125798765813009
1708433786.9562106,-2.1515660285949707,-1.333706260924675,-2.5165966192828577,6.125153410225668,0.998833417892456,-3.1257458368884485
1708433786.9581845,-2.151589870452881,-1.333778904085495,-2.5165966192828577,6.125187742501058,0.9988424181938171,-3.1257038752185267
1708433786.9602087,-2.1515448093414307,-1.3337548238090058,-2.5165672937976282,6.125144469528951,0.998833417892456,-3.125760857258932
1708433786.9622028,-2.1515402793884277,-1.3337798726609726,-2.516613308583395,6.125183331757345,0.9988003373146057,-3.1257246176349085
1708433786.964199,-2.151611328125,-1.3337224584868927,-2.516583506261007,6.125129568367758,0.9988215565681458,-3.125705067311422
1708433786.9662,-2.151548147201538,-1.3337670725635071,-2.5166176001178187,6.125092136650839,0.9988498091697693,-3.125737015401022
1708433786.968225,-2.1515448093414307,-1.3337300431779404,-2.516580406819479,6.125108825951376,0.9987884163856506,-3.125744644795553
1708433786.970221,-2.151589870452881,-1.3337548238090058,-2.5165565649615687,6.125137078552999,0.998821496963501,-3.125683371220724
1708433786.9722137,-2.1515438556671143,-1.3337541830590744,-2.516580406819479,6.125107514649191,0.9988226890563965,-3.125737015401022
1708433786.974221,-2.1515774726867676,-1.333730013375618,-2.5166459719287317,6.125170099526205,0.998821496963501,-3.1256888548480433
1708433786.9761922,-2.1515774726867676,-1.3337756109288712,-2.516580406819479,6.125153410225668,0.9988137483596802,-3.1256564299212855
1708433786.9781907,-2.1515729427337646,-1.333702028994896,-2.5166054407702845,6.125132667809286,0.9988018870353699,-3.1256683508502405
1708433786.9801881,-2.151585340499878,-1.3337548238090058,-2.5165641943561,6.125157820969381,0.998809278011322,-3.125643555318014
1708433786.9821951,-2.1515684127807617,-1.3337224584868927,-2.516559664403097,6.125177490502157,0.9987512826919556,-3.125675980244772
1708433786.98419,-2.1515774726867676,-1.3337756109288712,-2.516609017048971,6.125145900040426,0.9987930059432983,-3.1256726423846644
1708433786.9861877,-2.151594400405884,-1.3337514114430924,-2.516620699559347,6.125145900040426,0.9988018870353699,-3.1256521383868616
1708433786.9882166,-2.1515729427337646,-1.3337670725635071,-2.516559664403097,6.1251611588294885,0.998809278011322,-3.1256845633136194
1708433786.9901798,-2.1515774726867676,-1.3337224584868927,-2.516613308583395,6.125137078552999,0.9987691044807434,-3.125681225453512
1708433786.9921815,-2.1515820026397705,-1.3337224584868927,-2.516543451939718,6.125095593720236,0.9987929463386536,-3.1256607214557093
1708433786.9941862,-2.151613712310791,-1.3337376725724717,-2.5166176001178187,6.125166642456808,0.9988018870353699,-3.1256402174579065
1708433786.9962077,-2.1516430377960205,-1.3337591004422684,-2.516580406819479,6.12518202045516,0.9987521171569824,-3.125676933919088
1708433786.9981885,-2.1515729427337646,-1.3337181818536301,-2.5165846983539026,6.1251656887824915,0.9987854957580566,-3.125669304524557
1708433787.0002828,-2.151611328125,-1.3337462109378357,-2.516555372868673,6.125175463944235,0.9988062977790833,-3.125665012990133
1708433787.0021968,-2.151594400405884,-1.3337713491967698,-2.5166221300708216,6.125156748085775,0.9987854957580566,-3.1256607214557093
1708433787.0041876,-2.151589870452881,-1.3337267202189942,-2.5165846983539026,6.125132667809286,0.9988272786140442,-3.1256113688098353
1708433787.0061905,-2.1515774726867676,-1.3337267202189942,-2.516580406819479,6.1251622317130945,0.998778223991394,-3.1256449858294886
1708433787.008196,-2.1515684127807617,-1.3338037145188828,-2.516576115285055,6.125132667809286,0.9987565279006958,-3.125636164342062
1708433787.0101852,-2.151564121246338,-1.3337713193944474,-2.516543451939718,6.1251656887824915,0.998744785785675,-3.125657622014181
1708433787.0121887,-2.151576519012451,-1.3337670725635071,-2.516531531010763,6.125113236695089,0.9987735748291016,-3.125669304524557
1708433787.0142164,-2.151589870452881,-1.3337052923491974,-2.5165672937976282,6.125178801804342,0.9987357258796692,-3.1256330649005335
1708433787.0162022,-2.151589870452881,-1.3337419641068955,-2.516519610081808,6.125128137856283,0.9987492561340332,-3.125636164342062
1708433787.0181904,-2.151606798171997,-1.3337627214244385,-2.5166011492358606,6.1251622317130945,0.9987537264823914,-3.1256662050830286
1708433787.020194,-2.1516430377960205,-1.3337548238090058,-2.516580406819479,6.125177490502157,0.998778223991394,-3.125608269368307
1708433787.0222015,-2.151594400405884,-1.333730013375618,-2.5165978113757532,6.125157820969381,0.9987373352050781,-3.125624481831686
1708433787.0241916,-2.151581048965454,-1.333741934304573,-2.5165892283069056,6.125095593720236,0.998744785785675,-3.1256125609027308
1708433787.026188,-2.1515684127807617,-1.3337343794158478,-2.5165641943561,6.125140058785238,0.9987656474113464,-3.1255725065814417
1708433787.028205,-2.151611328125,-1.3337224584868927,-2.5165403524981897,6.125137078552999,0.998720645904541,-3.125629727040426
1708433787.0302014,-2.1515774726867676,-1.3337343794158478,-2.516535822545187,6.125153410225668,0.9987161755561829,-3.1256254355060022
1708433787.0322256,-2.1515774726867676,-1.3337713491967698,-2.5166054407702845,6.125108825951376,0.998744785785675,-3.125629727040426
1708433787.0341969,-2.151589870452881,-1.3337224584868927,-2.5165239016162317,6.125113236695089,0.9987373352050781,-3.1255767981158655
1708433787.0361893,-2.1515774726867676,-1.3337591004422684,-2.5165565649615687,6.125100004463949,0.998720645904541,-3.1255725065814417
1708433787.0382314,-2.1515774726867676,-1.3337548238090058,-2.516531531010763,6.125128137856283,0.998741865158081,-3.1256006399737757
1708433787.040241,-2.151594400405884,-1.3337713491967698,-2.516580406819479,6.125153410225668,0.9987087845802307,-3.1255810896502894
1708433787.042175,-2.1515684127807617,-1.3337428879788895,-2.516559664403097,6.125067102700033,0.9987296462059021,-3.125617806111471
1708433787.0442193,-2.151611328125,-1.3337138158134003,-2.5165849367724817,6.125104415207662,0.9986924529075623,-3.1255443731891077
1708433787.0461955,-2.1516270637512207,-1.3337675792029877,-2.5165401140796106,6.125178921013632,0.9987582564353943,-3.125610415135519
1708433787.0482106,-2.151597738265991,-1.3337172132781525,-2.5165403524981897,6.12518202045516,0.9986834526062012,-3.1255529562579554
1708433787.0501885,-2.1515729427337646,-1.3337224286845704,-2.5165446440326136,6.125170099526205,0.9987463355064392,-3.1255605856524866
1708433787.0522134,-2.1515774726867676,-1.3337386411479493,-2.5165565649615687,6.125154840737142,0.9987132549285889,-3.1255529562579554
1708433787.0541818,-2.151613712310791,-1.3337138307145615,-2.5165727774249476,6.125120746880331,0.9987132549285889,-3.1255605856524866
1708433787.0561802,-2.151618003845215,-1.3337386560491105,-2.5165641943561,6.125119435578146,0.9987042546272278,-3.125605885182516
1708433787.0581837,-2.1516270637512207,-1.3337755811265488,-2.5165446440326136,6.125145900040426,0.9987088441848755,-3.125507895146505
1708433787.0601823,-2.1515684127807617,-1.33370956898246,-2.5165239016162317,6.1251656887824915,0.9987132549285889,-3.125524107609884
1708433787.062186,-2.151606559753418,-1.3337756407311936,-2.516580406819479,6.125095593720236,0.998725175857544,-3.1255491415606897
1708433787.0642197,-2.151611328125,-1.333730013375618,-2.516580406819479,6.125141489296713,0.9987552165985107,-3.125557247792379
1708433787.0662034,-2.151559591293335,-1.3337917935899277,-2.5165815989123743,6.125095593720236,0.998683512210846,-3.1255529562579554
1708433787.0682528,-2.151564121246338,-1.3336933714202424,-2.516519610081808,6.125211465149679,0.998725175857544,-3.125516716633932
1708433787.0702803,-2.151597738265991,-1.3337224584868927,-2.5165773073779505,6.125122177391805,0.9986849427223206,-3.125561777745382
1708433787.0722268,-2.1515767574310303,-1.3337548238090058,-2.5165727774249476,6.125148999481954,0.9986968636512756,-3.1255984942065638
1708433787.0742483,-2.151613712310791,-1.333747149710991,-2.516531531010763,6.125137078552999,0.9987043142318726,-3.125561777745382
1708433787.0762148,-2.1515729427337646,-1.3337343794158478,-2.5165565649615687,6.125067102700033,0.9986638426780701,-3.1255036036120813
1708433787.0782118,-2.151618003845215,-1.3337257516435166,-2.5165935198413294,6.125145900040426,0.9986939430236816,-3.1255577246295374
1708433787.080239,-2.151613712310791,-1.3337309819510956,-2.5165608564959925,6.125120746880331,0.9986894130706787,-3.125528637562887
1708433787.0822048,-2.151581048965454,-1.3337841492942353,-2.5165403524981897,6.125132667809286,0.9987132549285889,-3.125512425099508
1708433787.084195,-2.1516225337982178,-1.3337386411479493,-2.5165489355670374,6.125100004463949,0.9987132549285889,-3.1255491415606897
1708433787.0862195,-2.151589870452881,-1.3336933714202424,-2.5165653864489954,6.1251622317130945,0.998717725276947,-3.1255338827716272
1708433787.0881999,-2.151585340499878,-1.3337875318578263,-2.5165980497943323,6.125174510269918,0.9987192153930664,-3.1255176703082483
1708433787.0901995,-2.151609420776367,-1.3337267202189942,-2.5165608564959925,6.125087845116415,0.9987058043479919,-3.1254971663104456
1708433787.0922072,-2.1516225337982178,-1.3337224584868927,-2.5166099707232874,6.1251622317130945,0.9986311197280884,-3.125482145939962
1708433787.0942042,-2.151585340499878,-1.3337627214244385,-2.5165610949145716,6.125157820969381,0.9986817240715027,-3.1255014578448694
1708433787.0962043,-2.151563882827759,-1.3337182116559525,-2.516519610081808,6.125108825951376,0.9987266659736633,-3.1255176703082483
1708433787.0981953,-2.151589870452881,-1.3337105375579377,-2.516535822545187,6.125126468926229,0.9986772537231445,-3.1255057493792933
1708433787.1001954,-2.151629686355591,-1.3337756109288712,-2.5165117422686976,6.125187742501058,0.9986984133720398,-3.1254435221301478
1708433787.1021929,-2.1516270637512207,-1.3337548089078446,-2.5165117422686976,6.125100004463949,0.9986653327941895,-3.1254478136645716
1708433787.1042058,-2.151602268218994,-1.3337591004422684,-2.5165074507342737,6.125132667809286,0.9986698031425476,-3.1254478136645716
1708433787.1061962,-2.1515729427337646,-1.3337627214244385,-2.5165403524981897,6.125141489296713,0.9986772537231445,-3.1254809538470667
1708433787.1081972,-2.151602268218994,-1.3336815249970932,-2.5165327231036585,6.125154721527853,0.9986281394958496,-3.1254733244525355
1708433787.1101923,-2.151611328125,-1.3337633621743699,-2.5165446440326136,6.125087845116415,0.9986772537231445,-3.125510279332296
1708433787.1122012,-2.151606559753418,-1.3337343794158478,-2.5165489355670374,6.1251622317130945,0.9987028241157532,-3.125460926686422
1708433787.1142013,-2.1515729427337646,-1.3337181818536301,-2.5164745489703577,6.125104415207662,0.9986608624458313,-3.125510279332296
1708433787.1162183,-2.1515934467315674,-1.3337343794158478,-2.5165041128741663,6.125132667809286,0.9986400008201599,-3.1254563967334192
1708433787.118194,-2.151563882827759,-1.3337471795133133,-2.5165534655200403,6.125100004463949,0.998702883720398,-3.125465218220846
1708433787.1202,-2.151606798171997,-1.3337267202189942,-2.5164757410632532,6.1251622317130945,0.9986653327941895,-3.1254401842700403
1708433787.1221998,-2.151581048965454,-1.3337875318578263,-2.5165117422686976,6.12507592418746,0.9986772537231445,-3.1254401842700403
1708433787.1242304,-2.151602268218994,-1.3337627214244385,-2.516550366078512,6.125128137856283,0.9986984133720398,-3.1254239718066614
1708433787.1261938,-2.1515934467315674,-1.333714799290039,-2.516557757054464,6.125087845116415,0.9986534118652344,-3.125441376362936
1708433787.1282067,-2.151606798171997,-1.3337105375579377,-2.516524855290548,6.125104415207662,0.9986236095428467,-3.1254618803607386
1708433787.130203,-2.151618242263794,-1.3337505620769043,-2.516529385243551,6.125132667809286,0.9987028241157532,-3.1253753344165247
1708433787.132201,-2.151602268218994,-1.3337181818536301,-2.5165205637561243,6.125104415207662,0.9986772537231445,-3.1254661718951624
1708433787.1342194,-2.151611328125,-1.3337505620769043,-2.516512695943014,6.125174391060629,0.9986772537231445,-3.1254738012896937
1708433787.1362138,-2.151581048965454,-1.333738626246788,-2.5165370146380823,6.125145900040426,0.9986698031425476,-3.1254575888263147
1708433787.1382031,-2.151602268218994,-1.3337755513242264,-2.51650840440859,6.125096547394552,0.9986817240715027,-3.1254456678973597
1708433787.1402004,-2.1515979766845703,-1.3337224584868927,-2.5164714495288294,6.125129568367758,0.9986653327941895,-3.125441376362936
1708433787.1421978,-2.1515684127807617,-1.333742917781212,-2.5165370146380823,6.125087725907125,0.9986578822135925,-3.125425163899557
1708433787.1442113,-2.151581048965454,-1.3337798726609726,-2.51648456255068,6.125109898834982,0.9986445307731628,-3.125401322041647
1708433787.1462014,-2.1516225337982178,-1.3337832254222413,-2.5164757410632532,6.125072824745931,0.9986653327941895,-3.125392738972799
1708433787.1482522,-2.151663303375244,-1.3337746423533936,-2.516496483479635,6.125105488091268,0.9986578822135925,-3.125401322041647
1708433787.1501935,-2.1515729427337646,-1.3337514412454148,-2.5165205637561243,6.125129568367758,0.9986326098442078,-3.125373188649313
1708433787.1522195,-2.151618003845215,-1.333726705317833,-2.5165415445910853,6.125092136650839,0.9986489415168762,-3.12537652650942
1708433787.1541977,-2.1516048908233643,-1.333730013375618,-2.516512695943014,6.125068414002218,0.9986370205879211,-3.125368897114889
1708433787.1561947,-2.151611328125,-1.3336900782636185,-2.5164921919452112,6.125129568367758,0.9986817240715027,-3.1254056135760706
1708433787.1581998,-2.151606559753418,-1.3337713342956086,-2.5165215174304407,6.125125157624044,0.9986608624458313,-3.1253650824176233
1708433787.1601887,-2.1515889167785645,-1.3336814504912873,-2.516468350087301,6.125122177391805,0.9986698031425476,-3.1253774801837366
1708433787.1621983,-2.151613712310791,-1.3337918680957337,-2.516496483479635,6.125059473305502,0.9986788630485535,-3.125385109578268
1708433787.1642015,-2.151625156402588,-1.333714799290039,-2.516480271016256,6.125071394234457,0.9986326098442078,-3.125401322041647
1708433787.1662269,-2.151597738265991,-1.3337713193944474,-2.5164757410632532,6.1251340983207605,0.9986370205879211,-3.125401322041647
1708433787.1682403,-2.1516225337982178,-1.3337386411479493,-2.5164921919452112,6.1250891564186,0.9986370205879211,-3.125368897114889
1708433787.1702123,-2.151618242263794,-1.3337267202189942,-2.5164595285998743,6.125096547394552,0.9986244440078735,-3.1253281275378626
1708433787.1722004,-2.151597738265991,-1.3337429028800507,-2.5165250937091272,6.1250891564186,0.998674213886261,-3.1254218260394495
1708433787.1742043,-2.1516339778900146,-1.3337756109288712,-2.51648456255068,6.125113236695089,0.9986414909362793,-3.125373188649313
1708433787.1761963,-2.151606798171997,-1.3337676388076325,-2.516468350087301,6.125122177391805,0.9986370205879211,-3.125373188649313
1708433787.1781979,-2.151585578918457,-1.333741934304573,-2.516500775014059,6.1250847456748865,0.998674213886261,-3.1253605524646204
1708433787.1802309,-2.1516225337982178,-1.3337713491967698,-2.516500775014059,6.12507580497817,0.9986127018928528,-3.125368897114889
1708433787.182195,-2.1515934467315674,-1.3337429028800507,-2.516468350087301,6.125068533211508,0.9986461400985718,-3.1253894011126917
1708433787.1842072,-2.1515934467315674,-1.3337224882892151,-2.5164604822741907,6.125059473305502,0.9986244440078735,-3.125401322041647
1708433787.1861982,-2.1516225337982178,-1.3337386411479493,-2.516455952321188,6.125060903816976,0.998711884021759,-3.125315252934591
1708433787.1882048,-2.151581048965454,-1.333714873795845,-2.516480032597677,6.125093567162313,0.9986534118652344,-3.1254025141345423
1708433787.1901927,-2.1515729427337646,-1.3337428879788895,-2.516512695943014,6.125032412796774,0.9986669421195984,-3.125373188649313
1708433787.192197,-2.151581048965454,-1.3337676388076325,-2.5164933840381067,6.125123131066122,0.9986669421195984,-3.125341240559713
1708433787.194196,-2.1516339778900146,-1.3337548238090058,-2.51648456255068,6.125044214516439,0.9986461400985718,-3.1253605524646204
1708433787.1961982,-2.151613712310791,-1.3337181818536301,-2.516472641621725,6.125027882843771,0.9986624717712402,-3.1253863016711634
1708433787.1982,-2.151564121246338,-1.3337548238090058,-2.516488854085104,6.125105488091268,0.9986200332641602,-3.1253650824176233
1708433787.2002127,-2.151602268218994,-1.3337224435857316,-2.516496483479635,6.12505208232955,0.9986081123352051,-3.1253650824176233
1708433787.2021997,-2.151576519012451,-1.3337591004422684,-2.5165591875659388,6.125081646233358,0.9986127018928528,-3.1253400484668177
1708433787.2042108,-2.151602268218994,-1.3337019693902512,-2.5165303389178675,6.125093567162313,0.9986370205879211,-3.1253982226001185
1708433787.2061934,-2.1516339778900146,-1.3337386411479493,-2.5164933840381067,6.125106799393453,0.9986127018928528,-3.1253531614886683
1708433787.208193,-2.151602268218994,-1.3337190610221406,-2.5165095965014856,6.125057565956869,0.9986414909362793,-3.125357453023092
1708433787.2101943,-2.151602268218994,-1.3336858016303559,-2.51648456255068,6.125097977906027,0.9986550211906433,-3.1253774801837366
1708433787.2121923,-2.1515934467315674,-1.3337713491967698,-2.516505304967062,6.125069844513693,0.9986171722412109,-3.1253238360034388
1708433787.2141972,-2.151581048965454,-1.3337461811355134,-2.5164595285998743,6.125056493073263,0.9986505508422852,-3.1253250280963343
1708433787.2161896,-2.1515774726867676,-1.333706260924675,-2.516505304967062,6.1250905869300745,0.9986335635185242,-3.125357453023092
1708433787.218208,-2.151581048965454,-1.333678127532341,-2.516451660786764,6.125072824745931,0.9986081123352051,-3.125361744557516
1708433787.220231,-2.1515934467315674,-1.3337105375579377,-2.516477171574728,6.125069844513693,0.9986171722412109,-3.1253894011126917
1708433787.2221968,-2.151597738265991,-1.3338079911521454,-2.516455952321188,6.12506531456069,0.9986200332641602,-3.1253369490252894
1708433787.224217,-2.151618242263794,-1.3337344092181702,-2.516480271016256,6.125057565956869,0.9986171722412109,-3.125390593205587
1708433787.2261949,-2.151646375656128,-1.3337505620769043,-2.5164876619922083,6.125072824745931,0.9986335635185242,-3.1253326574908655
1708433787.2282314,-2.151606559753418,-1.3337267351201554,-2.51644736925234,6.125106799393453,0.9985963702201843,-3.1253488699542444
1708433787.2302034,-2.151585340499878,-1.3337191057256241,-2.51644736925234,6.125060903816976,0.9985753893852234,-3.1253488699542444
1708433787.2322373,-2.1516385078430176,-1.3337267202189942,-2.516500775014059,6.1250072596366785,0.9986052513122559,-3.125357453023092
1708433787.23421,-2.1516225337982178,-1.3337029081634064,-2.516477171574728,6.125072824745931,0.9985917210578918,-3.125373188649313
1708433787.2362003,-2.151589870452881,-1.3337181818536301,-2.5164757410632532,6.125094997673788,0.9986461400985718,-3.1253650824176233
1708433787.2381954,-2.151597738265991,-1.3337514412454148,-2.5165141264544886,6.125048744469442,0.9986171722412109,-3.1253774801837366
1708433787.2401955,-2.151609420776367,-1.3337462109378357,-2.5165095965014856,6.1250412342842,0.9986127018928528,-3.125341240559713
1708433787.2421975,-2.151625156402588,-1.333742917781212,-2.51648456255068,6.125057565956869,0.9986335635185242,-3.1253443400012415
1708433787.2442112,-2.151559591293335,-1.3337386411479493,-2.516517225896017,6.12506531456069,0.9986171722412109,-3.125341240559713
1708433787.2461996,-2.1516339778900146,-1.3337224584868927,-2.516463820134298,6.125093567162313,0.9986081123352051,-3.1253605524646204
1708433787.248235,-2.1515767574310303,-1.3337676537087937,-2.51648456255068,6.125061976700582,0.9986215829849243,-3.1253488699542444
1708433787.250202,-2.1515891551971436,-1.33369433999572,-2.5165095965014856,6.12506531456069,0.9986081123352051,-3.1253982226001185
1708433787.2521973,-2.1515891551971436,-1.3337756109288712,-2.5165095965014856,6.12506531456069,0.9986379742622375,-3.125345532094137
1708433787.2541924,-2.151581048965454,-1.3337138009122391,-2.516463820134298,6.125060903816976,0.9985917210578918,-3.1253250280963343
1708433787.2561917,-2.1516048908233643,-1.333706260924675,-2.51648456255068,6.125039803772726,0.998629093170166,-3.125341240559713
1708433787.258201,-2.151589870452881,-1.3337548238090058,-2.516398255025045,6.1250531552131555,0.9986052513122559,-3.125357453023092
1708433787.2602003,-2.151611328125,-1.3337352585843583,-2.516435448323385,6.12506531456069,0.9985799789428711,-3.125373665486471
1708433787.2621956,-2.151555299758911,-1.3337514412454148,-2.516455952321188,6.12506531456069,0.9986335635185242,-3.1253605524646204
1708433787.2642019,-2.151629686355591,-1.3336976033500214,-2.516455952321188,6.1250531552131555,0.9986594319343567,-3.1253443400012415
1708433787.2662163,-2.151609420776367,-1.333754838710167,-2.516468350087301,6.125003921776571,0.9986216425895691,-3.1253164450274866
1708433787.2682517,-2.1516294479370117,-1.3337798726609726,-2.516477171574728,6.125057565956869,0.9986171722412109,-3.125357453023092
1708433787.2702305,-2.151585578918457,-1.3337224584868927,-2.51648456255068,6.125039922982015,0.9985963702201843,-3.1253369490252894
1708433787.2722774,-2.151613712310791,-1.333706260924675,-2.516455952321188,6.1250905869300745,0.9986127018928528,-3.125341240559713
1708433787.27429,-2.1516225337982178,-1.333726705317833,-2.5164814631091517,6.125039803772726,0.9986007809638977,-3.1253250280963343
1708433787.276203,-2.151581048965454,-1.3336858463338395,-2.516488854085104,6.125036823540487,0.9985888600349426,-3.125369373952047
1708433787.2781987,-2.151602268218994,-1.3337266755155106,-2.5164814631091517,6.12511574009017,0.9986007809638977,-3.1253774801837366
1708433787.2802012,-2.151609420776367,-1.3337224435857316,-2.516472641621725,6.125050174980917,0.9986216425895691,-3.1253531614886683
1708433787.2822003,-2.1516225337982178,-1.3337105375579377,-2.516444269810812,6.125057565956869,0.9985888600349426,-3.1253250280963343
1708433787.2842028,-2.1515767574310303,-1.3337557178786774,-2.5164647738086146,6.125043260842123,0.9986505508422852,-3.125349823628561
1708433787.2862046,-2.151597738265991,-1.3337590408376236,-2.51648456255068,6.125081646233358,0.9986052513122559,-3.125329319630758
1708433787.2881947,-2.151589870452881,-1.3337437224439164,-2.516517225896017,6.12506531456069,0.998563289642334,-3.1253326574908655
1708433787.2902236,-2.151641845703125,-1.3337788742831727,-2.51648456255068,6.1250412342842,0.9986594319343567,-3.125313107167379
1708433787.2922041,-2.151589870452881,-1.3337267202189942,-2.516468350087301,6.125012624054708,0.9985753893852234,-3.125369373952047
1708433787.2942014,-2.1516430377960205,-1.3337309819510956,-2.5164595285998743,6.125069844513693,0.9985933303833008,-3.1253488699542444
1708433787.296198,-2.151609420776367,-1.3337028932622452,-2.516455952321188,6.125106799393453,0.9986260533332825,-3.1253164450274866
1708433787.2981882,-2.1515774726867676,-1.3337429028800507,-2.516477171574728,6.12506531456069,0.9986216425895691,-3.1253326574908655
1708433787.300196,-2.1515722274780273,-1.3336900782636185,-2.5164933840381067,6.125032293587484,0.9986007809638977,-3.125377957020895
1708433787.302185,-2.1516294479370117,-1.333706260924675,-2.51648456255068,6.125060903816976,0.9986305832862854,-3.1253488699542444
1708433787.3042378,-2.151559591293335,-1.3337019991925736,-2.5164595285998743,6.12506531456069,0.998584508895874,-3.1253326574908655
1708433787.3061883,-2.151625156402588,-1.3337190610221406,-2.516500775014059,6.125048625260153,0.9986461400985718,-3.1253281275378626
1708433787.3082013,-2.151594400405884,-1.3336901676705857,-2.516451660786764,6.125106799393453,0.9986171722412109,-3.125357453023092
1708433787.310186,-2.1515934467315674,-1.3337462109378357,-2.516463820134298,6.125032293587484,0.9986171722412109,-3.1253369490252894
1708433787.312205,-2.151597738265991,-1.3337343794158478,-2.516505304967062,6.125060903816976,0.9986007809638977,-3.125373188649313
1708433787.3141897,-2.1515934467315674,-1.3337105375579377,-2.5165050665484827,6.1250412342842,0.9986052513122559,-3.125406805668966
1708433787.3161914,-2.1516294479370117,-1.3337386411479493,-2.51648456255068,6.125083076744833,0.9985722303390503,-3.1253369490252894
1708433787.318193,-2.1516788005828857,-1.3337105375579377,-2.516463820134298,6.12506531456069,0.9986260533332825,-3.12541109720339
1708433787.3201962,-2.1516225337982178,-1.3337472093156357,-2.516533676777975,6.125044214516439,0.9986127018928528,-3.1253562609301966
1708433787.322194,-2.1515934467315674,-1.3337428730777283,-2.51648456255068,6.125048625260153,0.9986007809638977,-3.1253605524646204
1708433787.324215,-2.1516597270965576,-1.3337756109288712,-2.5165022055255335,6.1250412342842,0.9986007809638977,-3.125373188649313
1708433787.3261964,-2.151606559753418,-1.3337029230645676,-2.516472641621725,6.125106799393453,0.9986127018928528,-3.1253281275378626
1708433787.328201,-2.1516339778900146,-1.3337309819510956,-2.516451660786764,6.125090467720785,0.9986052513122559,-3.125341240559713
1708433787.3301904,-2.1516294479370117,-1.3337756109288712,-2.516455952321188,6.12506531456069,0.9986335635185242,-3.1254144350634974
1708433787.3321984,-2.151625156402588,-1.3337514412454148,-2.5164933840381067,6.125072824745931,0.9986594319343567,-3.1253774801837366
1708433787.334213,-2.151618003845215,-1.33369433999572,-2.5164876619922083,6.125069844513693,0.9986127614974976,-3.125303332005636
1708433787.3362002,-2.151581048965454,-1.333697648053505,-2.516472641621725,6.125048625260153,0.9986052513122559,-3.1253488699542444
1708433787.338229,-2.1516225337982178,-1.3337299835732956,-2.516533676777975,6.125123131066122,0.9986260533332825,-3.1253369490252894
1708433787.3401957,-2.1516294479370117,-1.3337591004422684,-2.516496483479635,6.125074255257406,0.9986127018928528,-3.125369373952047
1708433787.3422005,-2.151641845703125,-1.3337309819510956,-2.516455952321188,6.1251025078590295,0.9986335635185242,-3.1253650824176233
1708433787.3442216,-2.151641845703125,-1.333714799290039,-2.5165379683123987,6.125057565956869,0.9986216425895691,-3.1253326574908655
1708433787.346216,-2.151620626449585,-1.3338079911521454,-2.5164921919452112,6.125081646233358,0.9985766410827637,-3.125341240559713
1708433787.348227,-2.1515934467315674,-1.3337309819510956,-2.5165424982654017,6.125090467720785,0.9986335635185242,-3.1253443400012415
1708433787.35022,-2.151613712310791,-1.3337181520513077,-2.516480271016256,6.12506531456069,0.9986171722412109,-3.1253650824176233
1708433787.3522184,-2.151609420776367,-1.3337343794158478,-2.5164385477649134,6.125061976700582,0.9986036419868469,-3.1253400484668177
1708433787.3542252,-2.151559591293335,-1.3337471795133133,-2.516442839299337,6.125039803772726,0.9986142516136169,-3.125373665486471
1708433787.356214,-2.151609420776367,-1.3337798726609726,-2.516500775014059,6.125086176186361,0.9986127018928528,-3.1253531614886683
1708433787.3582146,-2.151602268218994,-1.3336986166289826,-2.516480271016256,6.12506531456069,0.9986171722412109,-3.1253605524646204
1708433787.3602316,-2.1516048908233643,-1.3337224584868927,-2.516500775014059,6.125003921776571,0.9986127018928528,-3.1253531614886683
1708433787.3622015,-2.151609182357788,-1.3336986017278214,-2.516500775014059,6.1250038025672815,0.9985844492912292,-3.125357453023092
1708433787.3642488,-2.1516294479370117,-1.3337841641953965,-2.516480271016256,6.125081646233358,0.9986127018928528,-3.1253531614886683
1708433787.3662136,-2.1516597270965576,-1.333702878361084,-2.516468350087301,6.125048625260153,0.9986379742622375,-3.125406805668966
1708433787.3682563,-2.151618003845215,-1.333713875418045,-2.516500775014059,6.1250531552131555,0.9986216425895691,-3.125357453023092
1708433787.3702533,-2.151602268218994,-1.3337181818536301,-2.5164876619922083,6.125023591309347,0.9986171722412109,-3.1253250280963343
1708433787.3722296,-2.151618003845215,-1.3337190759233017,-2.5164757410632532,6.125035512238302,0.9985799789428711,-3.1253488699542444
1708433787.3742614,-2.1516294479370117,-1.333713860516884,-2.516500775014059,6.125081646233358,0.9985844492912292,-3.1253369490252894
1708433787.3761964,-2.151585578918457,-1.3337343794158478,-2.516455952321188,6.125069844513693,0.9986216425895691,-3.1253326574908655
1708433787.3782103,-2.151613712310791,-1.333714799290039,-2.51648456255068,6.12505208232955,0.9985933303833008,-3.1253443400012415
1708433787.3802042,-2.151613712310791,-1.3337190610221406,-2.5164933840381067,6.125069844513693,0.9986216425895691,-3.125341240559713
1708433787.3822224,-2.1516430377960205,-1.333698571925499,-2.51648456255068,6.125024902611532,0.9985799789428711,-3.1253250280963343
1708433787.3842325,-2.1515934467315674,-1.3337591302445908,-2.516533676777975,6.125066387444296,0.9985933303833008,-3.1253863016711634
1708433787.386216,-2.1515684127807617,-1.3337028485587616,-2.516488854085104,6.1250412342842,0.9985963702201843,-3.1253400484668177
1708433787.3882127,-2.1515684127807617,-1.3337267202189942,-2.516496483479635,6.125011670380392,0.9986052513122559,-3.1253519693957728
1708433787.3902068,-2.151602268218994,-1.3336943846992035,-2.51648456255068,6.125069844513693,0.9986423850059509,-3.1253488699542444
1708433787.3922045,-2.1516225337982178,-1.333678127532341,-2.516480271016256,6.125045645027914,0.9986052513122559,-3.1253250280963343
1708433787.394225,-2.151597738265991,-1.3337156933597107,-2.5165424982654017,6.125093567162313,0.9986260533332825,-3.125373188649313
1708433787.3962038,-2.1515891551971436,-1.3337267500213166,-2.516496483479635,6.125074255257406,0.9985933303833008,-3.1253863016711634
1708433787.3982124,-2.151609420776367,-1.333714799290039,-2.5164757410632532,6.125097858696737,0.9985963702201843,-3.1253894011126917
1708433787.4002273,-2.151581048965454,-1.3337309968522568,-2.51648456255068,6.125012624054708,0.9986260533332825,-3.1253605524646204
1708433787.4022226,-2.151625156402588,-1.3336976331523438,-2.516451660786764,6.125056493073263,0.998584508895874,-3.125390593205587
1708433787.404217,-2.1516225337982178,-1.33371056736026,-2.516468350087301,6.12502800205306,0.9986423850059509,-3.1254025141345423
1708433787.4062014,-2.1515979766845703,-1.3337352883866807,-2.516500775014059,6.1250531552131555,0.998629093170166,-3.125369373952047
1708433787.408205,-2.151618003845215,-1.333714784388878,-2.516496483479635,6.125072824745931,0.9985888600349426,-3.1253400484668177
1708433787.4102004,-2.1515729427337646,-1.3336943996003647,-2.516468350087301,6.125109898834982,0.9986052513122559,-3.1253488699542444
1708433787.4122229,-2.1516225337982178,-1.3337428581765671,-2.516463820134298,6.125029313355245,0.9986260533332825,-3.1253936926471155
1708433787.4142182,-2.1515684127807617,-1.3337471944144745,-2.5164714495288294,6.125044214516439,0.9986171722412109,-3.1253281275378626
1708433787.4162405,-2.1515722274780273,-1.3337352734855195,-2.516496483479635,6.12507854679183,0.9985844492912292,-3.1253519693957728
1708433787.4181979,-2.151585578918457,-1.3337309819510956,-2.5164714495288294,6.125032412796774,0.9985889196395874,-3.125369373952047
1708433787.4201958,-2.151625156402588,-1.3337799322656174,-2.5164933840381067,6.125044214516439,0.9986424446105957,-3.1253982226001185
1708433787.4222124,-2.151602268218994,-1.3336909276298066,-2.516463820134298,6.125048625260153,0.9986007809638977,-3.1254025141345423
1708433787.424197,-2.1515979766845703,-1.3337182712605973,-2.5164757410632532,6.1250531552131555,0.9986335039138794,-3.1253774801837366
1708433787.4262028,-2.1515767574310303,-1.3337719303420563,-2.51648456255068,6.125126588135519,0.9986260533332825,-3.125451151524679
1708433787.4282274,-2.1516430377960205,-1.3336942952922364,-2.5164385477649134,6.12506531456069,0.9985963702201843,-3.125335756932394
1708433787.4302163,-2.151618242263794,-1.3337429475835343,-2.5164921919452112,6.125114309578695,0.998629093170166,-3.1253820101367396
1708433787.432234,-2.151609420776367,-1.3336900782636185,-2.516472641621725,6.125081646233358,0.9986171722412109,-3.1253894011126917
1708433787.4342039,-2.151555299758911,-1.3337394905141373,-2.516554657612936,6.1250860569770715,0.9986261129379272,-3.1253443400012415
1708433787.4362261,-2.1516430377960205,-1.3337429028800507,-2.5164921919452112,6.125057565956869,0.9985889196395874,-3.125406805668966
1708433787.4382317,-2.151585578918457,-1.333730013375618,-2.5165379683123987,6.12502800205306,0.9986335635185242,-3.125364605580465
1708433787.4402387,-2.1515979766845703,-1.3337224286845704,-2.516512695943014,6.125069844513693,0.9986244440078735,-3.1253982226001185
1708433787.442189,-2.1516294479370117,-1.3337438118508835,-2.516524855290548,6.125111210137167,0.998629093170166,-3.1253982226001185
1708433787.444209,-2.151629686355591,-1.333702028994896,-2.516517225896017,6.12506531456069,0.9986171722412109,-3.1253894011126917
1708433787.446254,-2.1516294479370117,-1.3337148141912003,-2.516468350087301,6.1250412342842,0.9986007809638977,-3.1253820101367396
1708433787.448219,-2.1515979766845703,-1.333746225838997,-2.5164757410632532,6.125086176186361,0.9985888600349426,-3.1253894011126917
1708433787.450203,-2.151613712310791,-1.3337267202189942,-2.5165250937091272,6.125060903816976,0.9986594915390015,-3.125406805668966
1708433787.4522262,-2.1516225337982178,-1.333735243683197,-2.516488854085104,6.125016081124105,0.9986379742622375,-3.1254661718951624
1708433787.4542096,-2.1516225337982178,-1.3337225180915375,-2.5164876619922083,6.125074255257406,0.9985917210578918,-3.1253562609301966
1708433787.4562004,-2.1516270637512207,-1.3336824786714097,-2.5165250937091272,6.125097977906027,0.9985963106155396,-3.1253774801837366
1708433787.4582083,-2.1515979766845703,-1.3337062907269974,-2.5164876619922083,6.1251187203224084,0.9986260533332825,-3.1253400484668177
1708433787.460198,-2.151637554168701,-1.333719090824463,-2.516503874455587,6.1250891564186,0.9986414909362793,-3.1254218260394495
1708433787.4622135,-2.1516551971435547,-1.3337462556413193,-2.5165205637561243,6.125048625260153,0.9986037015914917,-3.1253936926471155
1708433787.4642067,-2.1516339778900146,-1.3337591600469132,-2.516500775014059,6.125023591309347,0.9986335635185242,-3.1254380385028284
1708433787.4662025,-2.1515729427337646,-1.3337028634599228,-2.5164995829211634,6.125097977906027,0.998629093170166,-3.125380818043844
1708433787.4682217,-2.151646375656128,-1.3336943697980423,-2.516503874455587,6.1250412342842,0.9986380338668823,-3.1253839174853724
1708433787.4702551,-2.1516551971435547,-1.3337471944144745,-2.5165379683123987,6.125008213310995,0.998662531375885,-3.1253719965564173
1708433787.4722548,-2.1516382694244385,-1.333714799290039,-2.516545836125509,6.125038254051962,0.9985917210578918,-3.1254306475268763
1708433787.4742422,-2.1516427993774414,-1.3337351989797135,-2.516435448323385,6.125094878464498,0.9986668825149536,-3.1254003683673304
1708433787.4762447,-2.1516382694244385,-1.333751456146576,-2.5165379683123987,6.125117051392355,0.9986335635185242,-3.125413242970602
1708433787.4782104,-2.1515979766845703,-1.3336900782636185,-2.51650840440859,6.12506531456069,0.9986036419868469,-3.125441376362936
1708433787.4802003,-2.151581048965454,-1.3337028932622452,-2.5165041128741663,6.125048625260153,0.9986461400985718,-3.125458542500631
1708433787.4822264,-2.151613712310791,-1.3337267500213166,-2.516496483479635,6.1250891564186,0.9986245036125183,-3.125408951436178
1708433787.4842288,-2.151585578918457,-1.3337105375579377,-2.5164757410632532,6.125048625260153,0.9986335635185242,-3.12546950975527
1708433787.4861887,-2.151594400405884,-1.3336943996003647,-2.516512695943014,6.125061976700582,0.998629093170166,-3.125437084828512
1708433787.4882188,-2.151609182357788,-1.3336866957000275,-2.516533676777975,6.125072824745931,0.998662531375885,-3.125432793294088
1708433787.4901977,-2.151609420776367,-1.3337386411479493,-2.5165370146380823,6.1250412342842,0.9986578226089478,-3.1254809538470667
1708433787.4922218,-2.1516430377960205,-1.3337557178786774,-2.516480032597677,6.1250191805656335,0.9986461400985718,-3.1254285017596644
1708433787.4942043,-2.1515767574310303,-1.3337352585843583,-2.516480271016256,6.1250891564186,0.9986414909362793,-3.1254690329181116
1708433787.496237,-2.151618003845215,-1.3336739552072068,-2.516533676777975,6.125048625260153,0.9986578822135925,-3.1254239718066614
1708433787.4982092,-2.1515979766845703,-1.3337063205293198,-2.516557757054464,6.12507854679183,0.998674213886261,-3.1254358927356165
1708433787.5002167,-2.1516294479370117,-1.3337633323720475,-2.516503874455587,6.125057565956869,0.9986326098442078,-3.125526491795675
1708433787.5022302,-2.1516385078430176,-1.3337718856385727,-2.5165370146380823,6.12507854679183,0.9986461400985718,-3.1255176703082483
1708433787.504217,-2.151581048965454,-1.3337019991925736,-2.5164952913867396,6.125114309578695,0.9986461400985718,-3.1254809538470667
1708433787.5062175,-2.151602268218994,-1.3336697083762665,-2.51650840440859,6.12506531456069,0.9986534118652344,-3.1254971663104456
1708433787.508209,-2.1515891551971436,-1.3337028634599228,-2.5165041128741663,6.124994981079855,0.9986445307731628,-3.125484291707174
1708433787.5102017,-2.151618003845215,-1.3337233078530808,-2.516512695943014,6.1250531552131555,0.998629093170166,-3.125476662312643
1708433787.5122287,-2.151581048965454,-1.333714799290039,-2.51650840440859,6.12502800205306,0.9986637830734253,-3.1255458037005823
1708433787.5142257,-2.1515979766845703,-1.3337548834136506,-2.5164669195758265,6.125048625260153,0.9986326098442078,-3.125488583241598
1708433787.516239,-2.151559591293335,-1.333697648053505,-2.516512695943014,6.125044214516439,0.9987013339996338,-3.1255133787738245
1708433787.5182045,-2.151625156402588,-1.3336943101933976,-2.5165041128741663,6.125083076744833,0.9986939430236816,-3.1255458037005823
1708433787.5202377,-2.1516294479370117,-1.3337147545865555,-2.5165205637561243,6.125036823540487,0.9987028241157532,-3.125504795704977
1708433787.5221992,-2.151613712310791,-1.3337105375579377,-2.5165041128741663,6.125039922982015,0.9986772537231445,-3.125504795704977
1708433787.5241995,-2.151613712310791,-1.3337138903192063,-2.5165284315692347,6.125048625260153,0.9986805319786072,-3.1254971663104456
1708433787.526187,-2.151613712310791,-1.3337352585843583,-2.5165205637561243,6.125023591309347,0.9987013339996338,-3.12547213235964
1708433787.5282085,-2.151581048965454,-1.3337105375579377,-2.5165415445910853,6.125052201538839,0.9987221360206604,-3.1255458037005823
1708433787.5301871,-2.151585340499878,-1.3336858612350007,-2.5165489355670374,6.125020491867819,0.9987508058547974,-3.125516716633932
1708433787.532226,-2.1515679359436035,-1.3336986166289826,-2.5165205637561243,6.1250531552131555,0.9987058043479919,-3.1255210081683558
1708433787.534194,-2.1516339778900146,-1.3337182116559525,-2.5165446440326136,6.12502800205306,0.9987058043479919,-3.125504795704977
1708433787.5362005,-2.151609182357788,-1.3337309819510956,-2.5165370146380823,6.125060903816976,0.9986682534217834,-3.125573460255758
1708433787.5381978,-2.1515934467315674,-1.3337556582740326,-2.5165403524981897,6.125069844513693,0.9986968636512756,-3.125536028538839
1708433787.5402007,-2.1515891551971436,-1.333685816531517,-2.5165534655200403,6.125094878464498,0.9986805319786072,-3.1255577246295374
1708433787.542198,-2.151585578918457,-1.3337267202189942,-2.5165162722217005,6.125106799393453,0.9987013339996338,-3.125544850026266
1708433787.544194,-2.1515722274780273,-1.3336943548968812,-2.5165117422686976,6.125033843308248,0.9986849427223206,-3.1255620161639612
1708433787.5462296,-2.1516382694244385,-1.3336986017278214,-2.5165773073779505,6.125016081124105,0.9987132549285889,-3.125577990208761
1708433787.5481956,-2.1516225337982178,-1.3337190610221406,-2.5165446440326136,6.125106799393453,0.998725175857544,-3.125532929097311
1708433787.5501997,-2.151646375656128,-1.3336943697980423,-2.5165446440326136,6.124994981079855,0.9987296462059021,-3.1255529562579554
1708433787.5521913,-2.1516506671905518,-1.3337224882892151,-2.5166054407702845,6.124999391823568,0.9987132549285889,-3.1255984942065638
1708433787.5542004,-2.1516339778900146,-1.333742932682373,-2.5165892283069056,6.125003921776571,0.998725175857544,-3.125540320073263
1708433787.5562012,-2.151559829711914,-1.3337190759233017,-2.5165892283069056,6.125032412796774,0.9987252354621887,-3.125540320073263
1708433787.5582016,-2.151629686355591,-1.3337224584868927,-2.5165846983539026,6.125083076744833,0.998741865158081,-3.1255529562579554
1708433787.5602238,-2.151625156402588,-1.3337105375579377,-2.5166338125811976,6.125081646233358,0.998720645904541,-3.1255486647235315
1708433787.5621972,-2.151618003845215,-1.3337428879788895,-2.516527239476339,6.125020491867819,0.9987463355064392,-3.125532929097311
1708433787.564217,-2.151602268218994,-1.3336943697980423,-2.5165959040271204,6.125069725304403,0.9987329244613647,-3.1255529562579554
1708433787.5662084,-2.1516382694244385,-1.3337633919766922,-2.516616408024923,6.12510238864974,0.9987133145332336,-3.125557247792379
1708433787.5682054,-2.1515774726867676,-1.3336696040681382,-2.516608778630392,6.125081646233358,0.9987462759017944,-3.125573460255758
1708433787.5702567,-2.151646375656128,-1.3337840896895905,-2.516571585332052,6.1250741360481165,0.9987284541130066,-3.125610415135519
1708433787.572211,-2.151613712310791,-1.3336985868266602,-2.516641680394308,6.125016081124105,0.9987132549285889,-3.125556294118063
1708433787.5742064,-2.151618003845215,-1.3337755811265488,-2.516576115285055,6.125036823540487,0.9987088441848755,-3.125605885182516
1708433787.5762165,-2.151613712310791,-1.3337267202189942,-2.5165966192828577,6.12506531456069,0.9987448453903198,-3.1255767981158655
1708433787.578194,-2.151618003845215,-1.3337633323720475,-2.5165749231921595,6.125032412796774,0.9987296462059021,-3.125540081654684
1708433787.580214,-2.151609420776367,-1.3337181818536301,-2.5165792147265833,6.125093567162313,0.9987492561340332,-3.1255767981158655
1708433787.5822127,-2.151618003845215,-1.333742917781212,-2.516604487095968,6.125048744469442,0.9987448453903198,-3.125645939503805
1708433787.584203,-2.1516225337982178,-1.333767057662346,-2.516637388859884,6.125050174980917,0.9987373352050781,-3.1255443731891077
1708433787.5862093,-2.1516225337982178,-1.3337028634599228,-2.516616408024923,6.1250531552131555,0.9987565279006958,-3.1255810896502894
1708433787.588197,-2.151581048965454,-1.3337105524590989,-2.516583506261007,6.125050174980917,0.9987700581550598,-3.125645939503805
1708433787.5902236,-2.151585578918457,-1.3336858463338395,-2.516608778630392,6.125016081124105,0.9987826347351074,-3.1256373564349573
1708433787.592198,-2.151581048965454,-1.3337797832540055,-2.51658803621401,6.1250860569770715,0.9987655878067017,-3.1256049315081995
1708433787.5942297,-2.1516294479370117,-1.3337267202189942,-2.5166295210467737,6.125048625260153,0.9987826943397522,-3.125683371220724
1708433787.5962276,-2.151625156402588,-1.3337670874646683,-2.51664907137026,6.125069844513693,0.9987565279006958,-3.1256049315081995
1708433787.59821,-2.151618003845215,-1.3337267500213166,-2.516616408024923,6.125069844513693,0.9987476468086243,-3.125629727040426
1708433787.6002102,-2.1516294479370117,-1.3337505620769043,-2.516604487095968,6.125123131066122,0.9988018870353699,-3.1256092230426233
1708433787.6022067,-2.1515767574310303,-1.3337309819510956,-2.5166624228106897,6.125060903816976,0.9987521171569824,-3.1256662050830286
1708433787.604211,-2.151620864868164,-1.3337429028800507,-2.5165672937976282,6.125036823540487,0.9987974762916565,-3.125596348439352
1708433787.606206,-2.1516339778900146,-1.3337386411479493,-2.516649309788839,6.125032412796774,0.9987854957580566,-3.1256211439715784
1708433787.6082392,-2.151609420776367,-1.3337267202189942,-2.516616408024923,6.125032293587484,0.9988349080085754,-3.1256781260119837
1708433787.6102166,-2.151581048965454,-1.3337062758258362,-2.51662522951235,6.125036823540487,0.9987854957580566,-3.1256049315081995
1708433787.612204,-2.151581048965454,-1.3337309819510956,-2.516620699559347,6.125060903816976,0.9987854957580566,-3.1256406942950647
1708433787.6142223,-2.151609182357788,-1.3336772632649918,-2.5166121164904993,6.1250891564186,0.998813807964325,-3.1256535688983362
1708433787.6162353,-2.1515934467315674,-1.333731011753418,-2.516620699559347,6.12506531456069,0.9987810254096985,-3.1256168524371546
1708433787.6182177,-2.151597738265991,-1.3337755811265488,-2.5166829268084925,6.125035512238302,0.9987929463386536,-3.1256049315081995
1708433787.6202178,-2.151585340499878,-1.3337233078530808,-2.5165956656085413,6.125072943955221,0.9988468289375305,-3.125657622014181
1708433787.6222074,-2.1515729427337646,-1.3337301176837464,-2.5166295210467737,6.1250412342842,0.9987766146659851,-3.125681225453512
1708433787.6242325,-2.151559591293335,-1.333690108065941,-2.516632858906881,6.1250531552131555,0.9988378286361694,-3.125619951878683
1708433787.6262097,-2.1516048908233643,-1.3337343794158478,-2.516632858906881,6.1250412342842,0.9988512992858887,-3.125657622014181
1708433787.6282184,-2.1515979766845703,-1.333690108065941,-2.5166001955615442,6.125032293587484,0.9988468289375305,-3.1256449858294886
1708433787.6302135,-2.1516294479370117,-1.333677278166153,-2.516620699559347,6.125035512238302,0.9988497495651245,-3.125653092061178
1708433787.6322227,-2.151581048965454,-1.333714799290039,-2.5166121164904993,6.125074255257406,0.9988290071487427,-3.125669304524557
1708433787.6342025,-2.151637554168701,-1.333714799290039,-2.516616408024923,6.12510238864974,0.9988378882408142,-3.125669304524557
1708433787.6361923,-2.151613712310791,-1.3337053519538422,-2.51662522951235,6.125016081124105,0.9988572597503662,-3.125669304524557
1708433787.6382024,-2.151625156402588,-1.3337713193944474,-2.5166001955615442,6.125039922982015,0.9988199472427368,-3.125681225453512
1708433787.6402242,-2.151618003845215,-1.3337429028800507,-2.516624991093771,6.12506531456069,0.998833417892456,-3.125648800526754
1708433787.6421943,-2.1515934467315674,-1.3337224584868927,-2.516616408024923,6.12506531456069,0.998833417892456,-3.125669304524557
1708433787.6442368,-2.151613712310791,-1.3337190610221406,-2.516616408024923,6.12502800205306,0.9988617300987244,-3.1256607214557093
1708433787.6461892,-2.1515934467315674,-1.3337756258300324,-2.516616408024923,6.125101077347555,0.9988572597503662,-3.125676933919088
1708433787.6481943,-2.151613712310791,-1.3337627214244385,-2.5166447798358362,6.125048625260153,0.9988784193992615,-3.125685516987936
1708433787.6502016,-2.151581048965454,-1.3336653423360367,-2.516587797795431,6.1250412342842,0.9988617300987244,-3.1256845633136194
1708433787.6521993,-2.151625156402588,-1.3337309521487732,-2.516632858906881,6.125114309578695,0.99883633852005,-3.1256888548480433
1708433787.65419,-2.151606798171997,-1.3337429028800507,-2.516616408024923,6.125048625260153,0.9988616704940796,-3.1256726423846644
1708433787.6561866,-2.151618003845215,-1.3337020438960572,-2.516632858906881,6.125060903816976,0.9988903403282166,-3.125725571309225
1708433787.6581879,-2.151580333709717,-1.3337267202189942,-2.516649309788839,6.125060903816976,0.9988363981246948,-3.125733200703756
1708433787.6601803,-2.1515979766845703,-1.3337105375579377,-2.516632858906881,6.125052201538839,0.9988947510719299,-3.1256888548480433
1708433787.6621876,-2.151620864868164,-1.3337675792029877,-2.5166242758380335,6.12510238864974,0.9988948106765747,-3.1256726423846644
1708433787.6641963,-2.151609420776367,-1.3337675494006653,-2.5166361967669886,6.125056493073263,0.9988740086555481,-3.1256845633136194
1708433787.6661923,-2.151611328125,-1.3337020736983796,-2.5166285673724573,6.1251025078590295,0.9988319277763367,-3.125705067311422
1708433787.6681945,-2.1516294479370117,-1.3337300431779404,-2.516657892857687,6.125081646233358,0.998865008354187,-3.125705067311422
1708433787.67027,-2.1516339778900146,-1.3337190610221406,-2.5166567007647913,6.125093567162313,0.9988768100738525,-3.125675980244772
1708433787.672231,-2.1515729427337646,-1.3337267202189942,-2.516616408024923,6.125111210137167,0.9988604187965393,-3.1256845633136194
1708433787.6742206,-2.151594400405884,-1.3337267351201554,-2.5166447798358362,6.125135409622946,0.9988858103752136,-3.1257007757769983
1708433787.676251,-2.151581048965454,-1.3337224584868927,-2.5166404883014124,6.125056493073263,0.9988980293273926,-3.1256876627551478
1708433787.6782231,-2.151671886444092,-1.3337917488864441,-2.5166154543506067,6.125097977906027,0.9988482594490051,-3.1257169882403772
1708433787.6802077,-2.151606559753418,-1.333747149710991,-2.516627375279562,6.125052201538839,0.9989054203033447,-3.1257169882403772
1708433787.6822104,-2.151613712310791,-1.3337224584868927,-2.516637388859884,6.125097977906027,0.99892657995224,-3.1257694403277796
1708433787.684213,-2.151646375656128,-1.3337548536113282,-2.5166404883014124,6.125072824745931,0.9989131093025208,-3.1257084051715296
1708433787.686218,-2.1516430377960205,-1.333713860516884,-2.5166285673724573,6.125077235489645,0.9989008903503418,-3.1257200876819056
1708433787.688217,-2.1516339778900146,-1.3337505620769043,-2.5166197458850306,6.125069844513693,0.9989221692085266,-3.125748936329977
1708433787.6902187,-2.1515979766845703,-1.3337309670499344,-2.5165746847735804,6.1250891564186,0.9989176392555237,-3.125777069722311
1708433787.6921985,-2.151602268218994,-1.333706260924675,-2.5166316668139856,6.125056493073263,0.9989221096038818,-3.1257932821856897
1708433787.6941848,-2.1515684127807617,-1.333698646431305,-2.5166197458850306,6.125096547394552,0.9989503622055054,-3.125732723866598
1708433787.696188,-2.151646375656128,-1.3336943697980423,-2.516649309788839,6.1250891564186,0.9989666938781738,-3.125740353261129
1708433787.698208,-2.151609420776367,-1.3337190759233017,-2.5166361967669886,6.125105488091268,0.9989175796508789,-3.1257739702807825
1708433787.70021,-2.1515979766845703,-1.333702878361084,-2.516616408024923,6.125039803772726,0.9989131093025208,-3.125777069722311
1708433787.702187,-2.151646375656128,-1.3337343794158478,-2.516632858906881,6.125142800598898,0.9988723397254944,-3.1257975737201136
1708433787.7042243,-2.151609420776367,-1.333767057662346,-2.5166242758380335,6.125097977906027,0.9989221096038818,-3.1257522741900843
1708433787.7061956,-2.1515767574310303,-1.3337675792029877,-2.5165990034686487,6.125092136650839,0.9989221096038818,-3.125777069722311
1708433787.7082248,-2.1515767574310303,-1.3337505620769043,-2.5166567007647913,6.125056493073263,0.9989250302314758,-3.125760857258932
1708433787.710192,-2.1516382694244385,-1.3337028485587616,-2.51660663286318,6.125105488091268,0.9989175796508789,-3.125788990651266
1708433787.7122393,-2.151589870452881,-1.333734394317009,-2.5166567007647913,6.125014650612631,0.9989086985588074,-3.125728432332174
1708433787.714182,-2.151625156402588,-1.3336943697980423,-2.5166404883014124,6.125072824745931,0.9989175796508789,-3.125748936329977
1708433787.7161956,-2.1515767574310303,-1.333763377075531,-2.5166686216937464,6.125077235489645,0.9989638328552246,-3.125784699116842
1708433787.7182178,-2.151589870452881,-1.3337428879788895,-2.5166481176959437,6.12505208232955,0.9988919496536255,-3.125772778187887
1708433787.7202435,-2.1516270637512207,-1.3337386411479493,-2.516665522252218,6.125105488091268,0.9988800883293152,-3.125805203114645
1708433787.7221932,-2.1516339778900146,-1.333719016318657,-2.5166447798358362,6.125101077347555,0.9989339709281921,-3.125744644795553
1708433787.7242208,-2.1515767574310303,-1.3337514114430924,-2.516611162816183,6.125093567162313,0.9989131093025208,-3.125768486653463
1708433787.7261949,-2.151585578918457,-1.3337267202189942,-2.5166242758380335,6.1250802157218835,0.9989175796508789,-3.125796620045797
1708433787.7281895,-2.151646375656128,-1.3337591302445908,-2.516627375279562,6.125117766648092,0.9989175796508789,-3.1257522741900843
1708433787.7301931,-2.151602268218994,-1.3337713193944474,-2.5166447798358362,6.1250847456748865,0.9989175796508789,-3.125812832509176
1708433787.732224,-2.1516506671905518,-1.3337419939092179,-2.5166567007647913,6.125101077347555,0.9989131093025208,-3.1257641951190394
1708433787.7342064,-2.1516339778900146,-1.3337505769780655,-2.5166154543506067,6.125145900040426,0.9989414215087891,-3.125784699116842
1708433787.73619,-2.151620864868164,-1.333746225838997,-2.5166032950030726,6.125093567162313,0.9988964200019836,-3.1257932821856897
1708433787.7382116,-2.1516597270965576,-1.3337267202189942,-2.5166121164904993,6.125047552376547,0.9989458918571472,-3.125812832509176
1708433787.7402134,-2.1515684127807617,-1.3337633472732087,-2.5166404883014124,6.125120746880331,0.9989623427391052,-3.1257932821856897
1708433787.7422154,-2.151594400405884,-1.3337429028800507,-2.5166731516467493,6.125083434372701,0.9988844990730286,-3.125796620045797
1708433787.744265,-2.151609182357788,-1.333714799290039,-2.516623083745138,6.125108825951376,0.9988844990730286,-3.125824753438131
1708433787.7462115,-2.1515767574310303,-1.333779827957489,-2.5166567007647913,6.125117766648092,0.998929500579834,-3.125854555760519
1708433787.7482345,-2.1515891551971436,-1.3337105524590989,-2.5166524092303675,6.1251340983207605,0.9989221096038818,-3.125800911580221
1708433787.750199,-2.151667594909668,-1.3337062907269974,-2.5166643301593226,6.125129568367758,0.9989131093025208,-3.1258085409747522
1708433787.7522016,-2.151581048965454,-1.333702028994896,-2.5166524092303675,6.125145900040426,0.9989175796508789,-3.125812832509176
1708433787.754211,-2.1516339778900146,-1.3337182116559525,-2.5166481176959437,6.125125157624044,0.9989548921585083,-3.125788990651266
1708433787.7562096,-2.1516225337982178,-1.3337139052203675,-2.5166361967669886,6.125092136650839,0.9989221096038818,-3.125829044972555
1708433787.758227,-2.1515979766845703,-1.3337675344995041,-2.5166404883014124,6.125153410225668,0.998929500579834,-3.1257718245135706
1708433787.7602181,-2.151585578918457,-1.3337675792029877,-2.5166567007647913,6.125129568367758,0.9988890290260315,-3.125812832509176
1708433787.762206,-2.1516339778900146,-1.3337062907269974,-2.516677443181173,6.125105488091268,0.9989414215087891,-3.125805203114645
1708433787.76423,-2.1516430377960205,-1.3336824488690873,-2.5166404883014124,6.125117766648092,0.9989054203033447,-3.1258042494403284
1708433787.766215,-2.1516294479370117,-1.3337267500213166,-2.5166285673724573,6.125109898834982,0.9989385008811951,-3.1257718245135706
1708433787.7682278,-2.1516294479370117,-1.3337514114430924,-2.5166447798358362,6.125096547394552,0.9989339709281921,-3.1258042494403284
1708433787.7702675,-2.1516430377960205,-1.333746225838997,-2.5166361967669886,6.125138389855184,0.9989131093025208,-3.125812832509176
1708433787.7722573,-2.151625156402588,-1.3336696934751053,-2.5166197458850306,6.125138389855184,0.9989385008811951,-3.125788990651266
1708433787.7742417,-2.1515729427337646,-1.3337071400931855,-2.5166404883014124,6.125092136650839,0.9988890290260315,-3.1258085409747522
1708433787.7763135,-2.1516339778900146,-1.3337224584868927,-2.5165956656085413,6.125116336136617,0.9988844990730286,-3.125829044972555
1708433787.7782154,-2.1516339778900146,-1.3337675792029877,-2.5166435877429407,6.125096547394552,0.9989638328552246,-3.125845972691671
1708433787.7802422,-2.1515684127807617,-1.3337841790965577,-2.5166807810412806,6.125113236695089,0.9989622831344604,-3.125796620045797
1708433787.7822068,-2.151618003845215,-1.333678202038147,-2.51658279100527,6.125072824745931,0.9989086985588074,-3.1257923285113733
1708433787.7842033,-2.151602268218994,-1.3337633323720475,-2.516693655644552,6.125101077347555,0.998929500579834,-3.125796620045797
1708433787.7862017,-2.1516294479370117,-1.3337675494006653,-2.5166524092303675,6.125092136650839,0.9989008903503418,-3.1257923285113733
1708433787.7882066,-2.1516339778900146,-1.3337019693902512,-2.5166285673724573,6.125120746880331,0.9988964200019836,-3.1258171240436
1708433787.7902343,-2.1516430377960205,-1.3336781424335022,-2.5166404883014124,6.125117766648092,0.9989131093025208,-3.1258171240436
1708433787.7922058,-2.151585578918457,-1.3336976182511826,-2.516632858906881,6.125142800598898,0.998929500579834,-3.1257522741900843
1708433787.7941906,-2.151589870452881,-1.3337513667396088,-2.5166612307177942,6.125178921013632,0.9989175796508789,-3.1257761160479944
1708433787.7961938,-2.1515934467315674,-1.3337386411479493,-2.5166154543506067,6.125096547394552,0.9989086985588074,-3.1258042494403284
1708433787.7981937,-2.151564121246338,-1.3336976927569886,-2.5166567007647913,6.125142800598898,0.9989339709281921,-3.1257804075824183
1708433787.8002079,-2.1516225337982178,-1.333714799290039,-2.5166731516467493,6.125092136650839,0.9989008903503418,-3.1257804075824183
1708433787.8021955,-2.151594400405884,-1.3337514114430924,-2.5166643301593226,6.125125157624044,0.9989175796508789,-3.1258373896228235
1708433787.8042247,-2.151602268218994,-1.333754838710167,-2.5166404883014124,6.125092136650839,0.9989175796508789,-3.1257835070239466
1708433787.8062,-2.1515722274780273,-1.3337105375579377,-2.5166121164904993,6.125096547394552,0.9989086985588074,-3.125850264226095
1708433787.8081985,-2.1515729427337646,-1.3337105375579377,-2.5166404883014124,6.12503873088912,0.9989175796508789,-3.125812832509176
1708433787.810185,-2.151618003845215,-1.3336943697980423,-2.5166197458850306,6.125087725907125,0.9989175796508789,-3.125833336506979
1708433787.8121915,-2.1515684127807617,-1.3336976927569886,-2.5166686216937464,6.125108825951376,0.9989175796508789,-3.125812832509176
1708433787.8142009,-2.1516339778900146,-1.333706260924675,-2.5166319052325647,6.1250802157218835,0.9989086985588074,-3.125812832509176
1708433787.8161974,-2.1515729427337646,-1.3337633323720475,-2.5166569391833704,6.125125157624044,0.9988920092582703,-3.125833336506979
1708433787.8182113,-2.151611328125,-1.3337548238090058,-2.51664907137026,6.125125157624044,0.998929500579834,-3.1258085409747522
1708433787.8202066,-2.151602268218994,-1.3337267202189942,-2.5166242758380335,6.125154721527853,0.9989131093025208,-3.125824276600973
1708433787.8222122,-2.151618003845215,-1.333759070639946,-2.5166893641101282,6.125120746880331,0.9989086985588074,-3.1257923285113733
1708433787.8242188,-2.151594400405884,-1.3337343794158478,-2.5166242758380335,6.125113236695089,0.99892657995224,-3.125812832509176
1708433787.8262029,-2.1515979766845703,-1.3337105524590989,-2.5166361967669886,6.125120746880331,0.9989503026008606,-3.1257923285113733
1708433787.8282366,-2.151611328125,-1.3336859059384842,-2.5166285673724573,6.125159132271566,0.9988964200019836,-3.1257804075824183
1708433787.8302052,-2.151589870452881,-1.333714799290039,-2.5166612307177942,6.125187742501058,0.9989131093025208,-3.125796620045797
1708433787.832204,-2.151602268218994,-1.3337105375579377,-2.5166612307177942,6.125043260842123,0.9989131093025208,-3.1258085409747522
1708433787.8342106,-2.1516270637512207,-1.333763287668564,-2.5166447798358362,6.12507592418746,0.9989131093025208,-3.1257804075824183
1708433787.8362155,-2.1516294479370117,-1.3337675792029877,-2.5166285673724573,6.125105488091268,0.9989666938781738,-3.125812832509176
1708433787.8382103,-2.151564121246338,-1.3337139052203675,-2.5166524092303675,6.125157820969381,0.9989622235298157,-3.125796620045797
1708433787.840213,-2.151594400405884,-1.3337514114430924,-2.5166197458850306,6.125150310784139,0.9988920092582703,-3.125812832509176
1708433787.8422139,-2.151609420776367,-1.3337062907269974,-2.5167134443866175,6.125120746880331,0.9989131093025208,-3.1258042494403284
1708433787.844212,-2.151625156402588,-1.333702028994896,-2.516637388859884,6.12505208232955,0.9989131689071655,-3.1257923285113733
1708433787.8462079,-2.1516225337982178,-1.3337514114430924,-2.5166361967669886,6.125159132271566,0.9989578127861023,-3.1258085409747522
1708433787.8482099,-2.1515729427337646,-1.333702028994896,-2.5166404883014124,6.125122058182516,0.9989414215087891,-3.1257923285113733
1708433787.8502183,-2.1515774726867676,-1.333681510095932,-2.5166481176959437,6.125138509064474,0.9989221096038818,-3.125833336506979
1708433787.852226,-2.151606559753418,-1.3337233078530808,-2.5166567007647913,6.125137078552999,0.9989385008811951,-3.12586218515505
1708433787.854231,-2.151618003845215,-1.3337352287820359,-2.5166731516467493,6.125101077347555,0.9989131093025208,-3.1258578936206263
1708433787.8562055,-2.151611328125,-1.3337182116559525,-2.516616408024923,6.1250966666038416,0.9988964200019836,-3.1258214155780237
1708433787.8582084,-2.1516270637512207,-1.3337548238090058,-2.5166316668139856,6.125142800598898,0.9989429116249084,-3.125845972691671
1708433787.8602402,-2.1516382694244385,-1.333714799290039,-2.5166316668139856,6.12505208232955,0.9988844990730286,-3.1258042494403284
1708433787.8622038,-2.151629686355591,-1.333690108065941,-2.5166612307177942,6.125163662224569,0.9989008903503418,-3.125763003026144
1708433787.8642159,-2.151611328125,-1.333702028994896,-2.5166404883014124,6.125105488091268,0.9989712238311768,-3.1258416811572474
1708433787.8661938,-2.151606798171997,-1.3337105375579377,-2.5166686216937464,6.1250891564186,0.9989175796508789,-3.1257761160479944
1708433787.8682027,-2.151589870452881,-1.3337224584868927,-2.5166075865374964,6.125117766648092,0.9989086985588074,-3.1257923285113733
1708433787.8702164,-2.1515989303588867,-1.3337590557387848,-2.516616408024923,6.125096547394552,0.9989339709281921,-3.1257718245135706
1708433787.872263,-2.151611328125,-1.3337190312198182,-2.5166154543506067,6.125093567162313,0.9988678097724915,-3.1257923285113733
1708433787.8742218,-2.1515774726867676,-1.3337718409350892,-2.5166242758380335,6.125068414002218,0.9988934993743896,-3.1258204619037073
1708433787.876204,-2.151594400405884,-1.3337713193944474,-2.5166731516467493,6.1250847456748865,0.9988678097724915,-3.1258171240436
1708433787.8782074,-2.1516339778900146,-1.3337105375579377,-2.5166567007647913,6.125130879669943,0.9988844990730286,-3.1257804075824183
1708433787.8802273,-2.151602268218994,-1.3337386411479493,-2.516681734715597,6.125101077347555,0.9989221096038818,-3.1258257071124476
1708433787.882208,-2.1515684127807617,-1.3337386411479493,-2.5166359583484095,6.125060903816976,0.9989054203033447,-3.1257718245135706
1708433787.8842204,-2.151581048965454,-1.3337429028800507,-2.5166154543506067,6.125039922982015,0.9988678097724915,-3.125756565724508
1708433787.8862102,-2.151594400405884,-1.3337190610221406,-2.5166032950030726,6.125026452332296,0.9988980293273926,-3.1257718245135706
1708433787.8882082,-2.151606559753418,-1.3337386411479493,-2.5166404883014124,6.125069725304403,0.9989054203033447,-3.1257641951190394
1708433787.8902247,-2.1516270637512207,-1.3336901378682633,-2.5166121164904993,6.125077235489645,0.9988723397254944,-3.1258085409747522
1708433787.8922057,-2.151585578918457,-1.3337309819510956,-2.5166121164904993,6.1250860569770715,0.9988890290260315,-3.125772778187887
1708433787.8942032,-2.1515774726867676,-1.3336781871369858,-2.5166359583484095,6.1250531552131555,0.9989008903503418,-3.125788990651266
1708433787.8962042,-2.151589870452881,-1.3337309819510956,-2.5166447798358362,6.125078666001119,0.9988678097724915,-3.1257804075824183
1708433787.898215,-2.151594400405884,-1.3336824488690873,-2.5166032950030726,6.125097977906027,0.9988723993301392,-3.1257813612567347
1708433787.900206,-2.151552677154541,-1.3337105375579377,-2.5166242758380335,6.125048744469442,0.9989385008811951,-3.125788990651266
1708433787.9022043,-2.151594400405884,-1.3337394905141373,-2.5166285673724573,6.125048625260153,0.9989221096038818,-3.125824753438131
1708433787.9042327,-2.151615619659424,-1.3336986166289826,-2.5166075865374964,6.124994981079855,0.9989548325538635,-3.1258085409747522
1708433787.906209,-2.151606559753418,-1.3337190461209794,-2.5166242758380335,6.125003921776571,0.9988723397254944,-3.125796620045797
1708433787.9082012,-2.151589870452881,-1.3337471646121521,-2.5166404883014124,6.125050174980917,0.9989458918571472,-3.125800911580221
1708433787.9102442,-2.1515729427337646,-1.3337675344995041,-2.51661187807192,6.124987470894613,0.9989008903503418,-3.125777069722311
1708433787.9122021,-2.1515448093414307,-1.3336781871369858,-2.5166359583484095,6.125012624054708,0.9989098906517029,-3.1257804075824183
1708433787.9142091,-2.1515729427337646,-1.333702878361084,-2.51664907137026,6.125046956330099,0.99892657995224,-3.125805203114645
1708433787.9162197,-2.1515729427337646,-1.3337437373450776,-2.516665522252218,6.124955880432882,0.9989265203475952,-3.125788990651266
1708433787.918197,-2.151561737060547,-1.3336986315301438,-2.5166075865374964,6.124972569733419,0.9989008903503418,-3.125788990651266
1708433787.920208,-2.1515402793884277,-1.3337675792029877,-2.5166643301593226,6.124932038574972,0.9988560080528259,-3.1257761160479944
1708433787.9221895,-2.1515660285949707,-1.3337062907269974,-2.5166893641101282,6.124954330712118,0.9989503026008606,-3.125805203114645
1708433787.9242454,-2.1515820026397705,-1.3337224584868927,-2.5166075865374964,6.1249511120613,0.9989175796508789,-3.125784699116842
1708433787.9261928,-2.1515536308288574,-1.3337062907269974,-2.5166242758380335,6.124889004021444,0.9989144206047058,-3.1257932821856897
1708433787.9282165,-2.151595115661621,-1.3337429028800507,-2.5166316668139856,6.124885785370626,0.9989548325538635,-3.125800911580221
1708433787.930193,-2.151550054550171,-1.333714799290039,-2.516665522252218,6.124808060913839,0.9989339709281921,-3.125784699116842
1708433787.932194,-2.1515324115753174,-1.3336986166289826,-2.5166643301593226,6.124809372216024,0.9989339113235474,-3.1257804075824183
1708433787.9342036,-2.1515493392944336,-1.3337105375579377,-2.5167091528521937,6.124828803330221,0.9989008903503418,-3.125788990651266
1708433787.9361997,-2.1515254974365234,-1.3337548238090058,-2.5166567007647913,6.124830114632406,0.99892657995224,-3.125796620045797
1708433787.9381988,-2.1515581607818604,-1.3337386411479493,-2.5166762510882776,6.124802934914388,0.9989221096038818,-3.125812832509176
1708433787.9402237,-2.151545763015747,-1.3337224584868927,-2.5166969935046595,6.124777781754293,0.9989175796508789,-3.125805203114645
1708433787.9422207,-2.1515095233917236,-1.3336986166289826,-2.5166481176959437,6.124761450081625,0.9988800883293152,-3.125796620045797
1708433787.944214,-2.1515297889709473,-1.3336824488690873,-2.5166762510882776,6.124709117203512,0.998929500579834,-3.125805203114645
1708433787.9462206,-2.151515007019043,-1.333714799290039,-2.516655508671896,6.124706017761984,0.9989414215087891,-3.1257641951190394
1708433787.9482253,-2.1514687538146973,-1.3337190610221406,-2.5167253653155726,6.124604451447286,0.9988996982574463,-3.1258171240436
1708433787.9502184,-2.1514978408813477,-1.3337352287820359,-2.516655508671896,6.124674546509542,0.9989774227142334,-3.125796620045797
1708433787.9522188,-2.1514530181884766,-1.3337590557387848,-2.516671959553854,6.124614345818319,0.9989774227142334,-3.125800911580221
1708433787.9542193,-2.151460886001587,-1.3336858612350007,-2.516700331364767,6.124564039498129,0.9989655017852783,-3.1257479826556605
1708433787.9562182,-2.151456356048584,-1.3337548238090058,-2.516716543828146,6.124586093216696,0.9990271925926208,-3.125777069722311
1708433787.9582164,-2.1514370441436768,-1.333747149710991,-2.5167537371264856,6.124550092011251,0.9990419745445251,-3.1257522741900843
1708433787.9602075,-2.1514458656311035,-1.3337352287820359,-2.516745154057638,6.1244932291801355,0.999037504196167,-3.125854555760519
1708433787.962212,-2.151487350463867,-1.333702878361084,-2.5167232195483606,6.124469506531515,0.999048113822937,-3.125829044972555
1708433787.9642432,-2.1513965129852295,-1.3337071251920243,-2.516768995915548,6.124470579415121,0.9991466999053955,-3.1258214155780237
1708433787.9662068,-2.1513679027557373,-1.3336790365031739,-2.5167973677264612,6.12442563751296,0.9991621375083923,-3.1257880369769495
1708433787.9682531,-2.1513161659240723,-1.3337429028800507,-2.51675254503359,6.124370324402609,0.9991817474365234,-3.1258042494403284
1708433787.970222,-2.151341676712036,-1.3337224584868927,-2.5167885462390345,6.124370324402609,0.9992398023605347,-3.1258042494403284
1708433787.972245,-2.1513776779174805,-1.333657757644989,-2.5167961756335657,6.1243464825446985,0.9992669224739075,-3.1257792154895228
1708433787.9742482,-2.1513547897338867,-1.3336986166289826,-2.516824547444479,6.124244916230001,0.999286949634552,-3.1258536020862024
1708433787.976224,-2.1513257026672363,-1.3337429028800507,-2.516815964375631,6.124240505486288,0.9993106126785278,-3.1258073488818567
1708433787.9782243,-2.151289463043213,-1.3336943697980423,-2.516902033482687,6.124205815583029,0.9993347525596619,-3.1258698145495813
1708433787.9802017,-2.1512691974639893,-1.3337755811265488,-2.516905132924215,6.1241729138191126,0.9993751645088196,-3.125868622456686
1708433787.9821925,-2.151293992996216,-1.333718241458275,-2.5169041792498987,6.124169814377584,0.9993977546691895,-3.1258395353900355
1708433787.9842083,-2.1512508392333984,-1.333714799290039,-2.51691180864443,6.1241129515464685,0.9993948340415955,-3.125892464314596
1708433787.9862232,-2.1511647701263428,-1.3336696785739441,-2.516951862965719,6.1241187928016565,0.999457836151123,-3.1259623209582728
1708433787.98822,-2.151169538497925,-1.3336866957000275,-2.517021719609396,6.124033558159628,0.9994247555732727,-3.1259213129626673
1708433787.9902036,-2.151157855987549,-1.333714799290039,-2.5170326868640345,6.1240423796470544,0.9995179176330566,-3.125920120869772
1708433787.9922328,-2.1511669158935547,-1.333702878361084,-2.517036024724142,6.124018180161276,0.9995673298835754,-3.1259806791888636
1708433787.9941885,-2.151130437850952,-1.3337071400931855,-2.5171013514148157,6.1239333031471155,0.9995911717414856,-3.12602144876589
1708433787.9962163,-2.1511101722717285,-1.3337352287820359,-2.5170958677874964,6.123953926354208,0.9996345639228821,-3.126028839741842
1708433787.998208,-2.1510376930236816,-1.3336781871369858,-2.5171776453601282,6.123952376633444,0.9996093511581421,-3.126101318989889
1708433788.0002313,-2.1510510444641113,-1.3337071400931855,-2.5171690622912806,6.123808967858114,0.9997143149375916,-3.1260927359210413
1708433788.0022035,-2.1509854793548584,-1.333702878361084,-2.517228905354635,6.12378619888381,0.9997637271881104,-3.126148525868551
1708433788.004202,-2.151014804840088,-1.3336986166289826,-2.5172036329852503,6.1237623570259,0.9997955560684204,-3.1261442343341272
1708433788.0061996,-2.1509087085723877,-1.3337275695851822,-2.5172277132617396,6.12378882148818,0.999850869178772,-3.126192871724264
1708433788.0082107,-2.1509015560150146,-1.3336866957000275,-2.5173006693469446,6.123666512757101,0.9999649524688721,-3.126204315816061
1708433788.0102255,-2.1508982181549072,-1.3336781871369858,-2.517304007207052,6.123594748764791,0.9999591708183289,-3.126216236745016
1708433788.0122175,-2.150846242904663,-1.3337157380631943,-2.5173400084124964,6.123594629555502,1.0000193119049072,-3.1262810865985315
1708433788.0142019,-2.150851249694824,-1.3337352287820359,-2.5173845926867884,6.123481142311849,1.0000998973846436,-3.126321856175558
1708433788.0161989,-2.15079927444458,-1.3336918962052842,-2.517383400593893,6.123437630921163,1.0001440048217773,-3.126279656087057
1708433788.0182087,-2.150733709335327,-1.3337071400931855,-2.51742393175234,6.1233911392982385,1.0002111196517944,-3.1263650099383753
1708433788.0202057,-2.1506612300872803,-1.3336705279401322,-2.5174761454211634,6.123380291252889,1.0002907514572144,-3.126408402119772
1708433788.022192,-2.1506543159484863,-1.3336995554021378,-2.517463032399313,6.12327121475295,1.0003747940063477,-3.126448456441061
1708433788.0242224,-2.1506154537200928,-1.3336876344731827,-2.517524305974142,6.1231857416923425,1.0005170106887817,-3.126456085835592
1708433788.0262065,-2.1505746841430664,-1.3336301755956192,-2.517555538808004,6.123134839325704,1.000519037246704,-3.1264763514148157
1708433788.0282135,-2.1505184173583984,-1.3336463582566758,-2.5175917784320276,6.123079526215353,1.0006282329559326,-3.126483742390768
1708433788.030193,-2.150481939315796,-1.3336918962052842,-2.5176201502429407,6.12304042556838,1.0007034540176392,-3.126523796712057
1708433788.0321975,-2.1504275798797607,-1.333683968787529,-2.517656151448385,6.122889506607809,1.000841736793518,-3.126559082661764
1708433788.0342255,-2.150362730026245,-1.3336668771556397,-2.5176671187030237,6.122845876007833,1.0008968114852905,-3.126575295125143
1708433788.0361938,-2.1503071784973145,-1.3336711388877411,-2.517707173024313,6.122766601830282,1.0009676218032837,-3.126676623021261
1708433788.038209,-2.150315999984741,-1.333626852636673,-2.517796579991476,6.1227526543434045,1.0010653734207153,-3.1266711393939417
1708433788.0402105,-2.1502525806427,-1.3336711388877411,-2.5178118387805384,6.122647869377889,1.001136064529419,-3.1267197767840784
1708433788.0422041,-2.1501710414886475,-1.3336634647897263,-2.517839018498556,6.122577297478475,1.0012497901916504,-3.1267431418048304
1708433788.0442247,-2.15016508102417,-1.3336103570512314,-2.517891232167379,6.122418868332662,1.001341462135315,-3.126749817525045
1708433788.0462055,-2.1500654220581055,-1.3335740727237244,-2.517902199422018,6.122404205590048,1.0013835430145264,-3.126814667378561
1708433788.0482821,-2.149989366531372,-1.333626852636673,-2.517979685460226,6.12236641624526,1.0015138387680054,-3.1269200483905237
1708433788.0501897,-2.1499440670013428,-1.333660052423813,-2.5180230776416224,6.122236239701071,1.001600980758667,-3.1269195715533655
1708433788.0521917,-2.1498630046844482,-1.333603875046112,-2.518078629170553,6.122112142830648,1.001751184463501,-3.1269715468036097
1708433788.0542104,-2.1498329639434814,-1.3335877519897004,-2.518168274556295,6.122044789582052,1.0018051862716675,-3.1269996801959437
1708433788.0561953,-2.1497490406036377,-1.3336316359094162,-2.5181835333453577,6.121986377030172,1.0019179582595825,-3.1270762125598353
1708433788.0581985,-2.1496899127960205,-1.3336073023131867,-2.5182302633868616,6.121837007790365,1.002079725265503,-3.1270621458636683
1708433788.060201,-2.1496782302856445,-1.3335507971099396,-2.518270794545309,6.121793854027548,1.0021291971206665,-3.1271308104144495
1708433788.062194,-2.1495721340179443,-1.3335551035455246,-2.518355671559469,6.121685015946188,1.0021997690200806,-3.127207342778341
1708433788.0642395,-2.149538040161133,-1.333559350376465,-2.5183828512774866,6.121630894928732,1.002354383468628,-3.1272504965411585
1708433788.0662053,-2.1494619846343994,-1.333518074159958,-2.51843506494631,6.121502387314596,1.00244140625,-3.127282444630758
1708433788.0682423,-2.1493611335754395,-1.3335019064000626,-2.5185275713550013,6.121364939003744,1.0025376081466675,-3.127338711415426
1708433788.0702176,-2.1492650508880615,-1.33353807151828,-2.5185464064227503,6.121319997101583,1.002662181854248,-3.127428118382589
1708433788.0722256,-2.1492676734924316,-1.3335841310075303,-2.5186145941363733,6.121202337532797,1.0027612447738647,-3.1274388472186487
1708433788.074199,-2.1491987705230713,-1.333535299902298,-2.5186660925494593,6.121054160385885,1.0028904676437378,-3.1274946371661585
1708433788.076191,-2.1491317749023438,-1.3335508120111008,-2.5187392870532435,6.120975243836202,1.0030016899108887,-3.1275506655322474
1708433788.078207,-2.1490883827209473,-1.3335517656854172,-2.518811289464132,6.120892631798544,1.0031256675720215,-3.12761098543276
1708433788.080224,-2.1489665508270264,-1.3335806292346497,-2.5189083258258265,6.120784985810079,1.003212809562683,-3.1276376883136194
1708433788.082194,-2.14892315864563,-1.3335764569095154,-2.518942896519796,6.12068937995986,1.0033329725265503,-3.12771445909609
1708433788.084215,-2.1488258838653564,-1.3335114282420655,-2.5189953486071985,6.120554911881246,1.003453254699707,-3.1277745405780237
1708433788.0861957,-2.148775577545166,-1.3334586483291169,-2.5190792719470423,6.1204649088676355,1.0035864114761353,-3.127810303364889
1708433788.0882485,-2.1486945152282715,-1.3335114282420655,-2.5191388765918177,6.120398866921224,1.003706693649292,-3.127845589314596
1708433788.0902095,-2.1486623287200928,-1.3336011481336136,-2.519136969243185,6.120250928192892,1.0038477182388306,-3.1279218832599085
1708433788.0922134,-2.148566961288452,-1.333527610903122,-2.5192342440234583,6.120103347092428,1.0039589405059814,-3.1279576460467737
1708433788.0942128,-2.1485326290130615,-1.3335310083678742,-2.519322458897726,6.120043384819784,1.0040910243988037,-3.1280015150653284
1708433788.0962043,-2.1484267711639404,-1.333527610903122,-2.519447628651754,6.119891035347738,1.0042412281036377,-3.1280816237079065
1708433788.0981982,-2.1483154296875,-1.3334955734065552,-2.5194790999041956,6.119812834053793,1.0043551921844482,-3.1281092802630823
1708433788.1002574,-2.148292303085327,-1.3335156005671998,-2.5195422808276575,6.119615065842428,1.0044515132904053,-3.1282182375537317
1708433788.1021857,-2.1482040882110596,-1.333491326575615,-2.519658629094259,6.119609820633688,1.0045790672302246,-3.1282408873187464
1708433788.1041894,-2.148120164871216,-1.3335317981294175,-2.519730869923727,6.119462239533224,1.0047235488891602,-3.1283581892596644
1708433788.1061935,-2.148090362548828,-1.333527610903122,-2.519761387501852,6.119269239693441,1.004855990409851,-3.128361527119772
1708433788.1082094,-2.147981643676758,-1.3335233491710206,-2.5198703447925013,6.119235861092367,1.0049761533737183,-3.1284216086017054
1708433788.110205,-2.147904634475708,-1.3335275811007996,-2.519930426274435,6.1191077111061,1.005133867263794,-3.128486220036642
1708433788.1122,-2.147866725921631,-1.333531768327095,-2.519993607197897,6.118962871819296,1.0052286386489868,-3.1285293737994593
1708433788.1141872,-2.1477253437042236,-1.333483250146248,-2.5201223532306116,6.118888127594747,1.005393624305725,-3.128646437321798
1708433788.1161866,-2.147736072540283,-1.333504081969597,-2.520154062901632,6.118735778122701,1.0055333375930786,-3.1286378542529505
1708433788.1181977,-2.147590160369873,-1.3334748160890122,-2.5202553907977503,6.1185786602790735,1.005682349205017,-3.1287058035479944
1708433788.1201863,-2.1475062370300293,-1.3335199368051072,-2.520284954701559,6.118504035263815,1.0057649612426758,-3.1287618319140833
1708433788.1221821,-2.1473965644836426,-1.3334748160890122,-2.5204113165484827,6.118364441185751,1.005922794342041,-3.128768269215719
1708433788.1242182,-2.147289991378784,-1.3334748160890122,-2.520437542592184,6.118325817375936,1.0060595273971558,-3.1288607756244105
1708433788.126204,-2.147226095199585,-1.3334955734065552,-2.5205379168139856,6.118201958924093,1.0061874389648438,-3.12891394296755
1708433788.1282403,-2.1472175121307373,-1.3334790778211136,-2.5205727259265345,6.118089782982626,1.0063107013702393,-3.1288958231555384
1708433788.1302397,-2.147096633911133,-1.3334790778211136,-2.5207274595843714,6.117946254998007,1.0064787864685059,-3.1289971510516565
1708433788.132217,-2.147001266479492,-1.333531768327095,-2.5207863489734095,6.117826449662008,1.0066232681274414,-3.129061762486593
1708433788.1342244,-2.1468429565429688,-1.3335241985372086,-2.5208423773394983,6.117719042092123,1.0067434310913086,-3.1291309038745325
1708433788.1362114,-2.146791934967041,-1.333507166509964,-2.520914141331808,6.117563593178549,1.0069011449813843,-3.129111353551046
1708433788.138216,-2.146738052368164,-1.3334876012853165,-2.5209980646716517,6.117451417237081,1.0070167779922485,-3.1291516462909144
1708433788.1402285,-2.146587610244751,-1.3335083437016984,-2.5210288206683558,6.1173367379005334,1.0071566104888916,-3.1292415300952356
1708433788.1422224,-2.1465091705322266,-1.333483250146248,-2.5211859385119837,6.117135154991903,1.0073505640029907,-3.1292763392077845
1708433788.1442363,-2.1464412212371826,-1.3335114282420655,-2.52122933069338,6.1169752953346155,1.0074992179870605,-3.1293044726001185
1708433788.1462028,-2.1463325023651123,-1.3334997457316895,-2.5213382879840296,6.1169131872947595,1.007585048675537,-3.129347864781515
1708433788.148238,-2.146240472793579,-1.333524228339531,-2.5214508215533655,6.116794931679525,1.0077592134475708,-3.1293795744525355
1708433788.1502059,-2.146162986755371,-1.3334220361760636,-2.5215142408954065,6.1167006371314905,1.0078661441802979,-3.1294122377978724
1708433788.1522202,-2.1460530757904053,-1.3334662181190033,-2.5215936342822474,6.116507994919576,1.0079728364944458,-3.1294859091388147
1708433788.1542275,-2.1459083557128906,-1.3335156005671998,-2.5216787497149866,6.1163601754005334,1.00814688205719,-3.129529062901632
1708433788.1562274,-2.1458873748779297,-1.3334997457316895,-2.5217538515674036,6.11621259430007,1.0083080530166626,-3.1295276323901575
1708433788.158216,-2.1457505226135254,-1.3335233640721817,-2.5218334833728235,6.116019713669576,1.008410096168518,-3.129568163548605
1708433788.1602082,-2.1456470489501953,-1.333527610903122,-2.521893564854757,6.115925061493673,1.008560299873352,-3.129616085683004
1708433788.1622057,-2.1455178260803223,-1.3334790778211136,-2.522005860005514,6.115772831230917,1.0086835622787476,-3.1296494642840784
1708433788.1642253,-2.1454386711120605,-1.3335233491710206,-2.5221312681781214,6.11567114570693,1.008832335472107,-3.1296313444720667
1708433788.166224,-2.145360231399536,-1.3335029196790238,-2.5221782366382044,6.115445720940389,1.0090378522872925,-3.129679028187887
1708433788.1682634,-2.1452395915985107,-1.333547980790474,-2.5222492853747767,6.115323054581442,1.009161353111267,-3.1296537558185022
1708433788.1702092,-2.145127534866333,-1.3335437935641785,-2.5223093668567103,6.115219700127401,1.0092980861663818,-3.1297526995288294
1708433788.1723008,-2.1450233459472656,-1.3335352700999756,-2.52238113084902,6.115019547730245,1.0094082355499268,-3.1297674814807337
1708433788.1742287,-2.144866943359375,-1.3335474145463486,-2.522489134465353,6.114823806076803,1.0096017122268677,-3.129799191151754
1708433788.1761916,-2.144784688949585,-1.3335352700999756,-2.5225818792926233,6.1147217629249475,1.0097720623016357,-3.1298111120807093
1708433788.1782033,-2.144702911376953,-1.333526687031128,-2.522637430821554,6.114532458573141,1.009931206703186,-3.1298556963550013
1708433788.1802108,-2.1445152759552,-1.3335351955941697,-2.522766415272848,6.114392387657919,1.0100804567337036,-3.1298304239856165
1708433788.1821942,-2.144472360610962,-1.3335755181363602,-2.5228171984301966,6.1143319485481165,1.0102347135543823,-3.1298380533801478
1708433788.184193,-2.1442699432373047,-1.3336167198470612,-2.5229175726519983,6.114109265595236,1.0104076862335205,-3.1298959890948694
1708433788.1861863,-2.1441428661346436,-1.3335877519897004,-2.523018185292379,6.113990652352133,1.0105563402175903,-3.12989050546755
1708433788.1882148,-2.143989086151123,-1.333623157148697,-2.5230441729175013,6.113864171295919,1.0106706619262695,-3.129911486302511
1708433788.1902006,-2.1438167095184326,-1.3336316359094162,-2.523144547139303,6.113733637123861,1.0108238458633423,-3.129878107701437
1708433788.192193,-2.1436896324157715,-1.3336231124452134,-2.523289505635397,6.113520252495565,1.0109893083572388,-3.129932467137472
1708433788.194206,-2.1435492038726807,-1.3336396229318161,-2.523369375859396,6.113410937577047,1.0110583305358887,-3.1298816839801233
1708433788.196247,-2.14349365234375,-1.3336634647897263,-2.5234501997577112,6.11325095871047,1.011254072189331,-3.129944149647848
1708433788.1982064,-2.1432833671569824,-1.333642990594246,-2.523541514073507,6.112973201065817,1.0114343166351318,-3.129906956349508
1708433788.2002246,-2.1431691646575928,-1.3337481033853074,-2.523653809224264,6.112793910294332,1.011597752571106,-3.1299472490893763
1708433788.2022083,-2.143009662628174,-1.3338086319020768,-2.523757521306173,6.1126102087791345,1.0117048025131226,-3.129923407231466
1708433788.2042203,-2.142820358276367,-1.3337513965419312,-2.523886028920309,6.1124305603797815,1.011919617652893,-3.129906956349508
1708433788.2062125,-2.1426305770874023,-1.3337182116559525,-2.5239079634295862,6.112281310349264,1.0120007991790771,-3.129944149647848
1708433788.2081954,-2.1425793170928955,-1.333757535820343,-2.5240662733661097,6.112079608231344,1.0122034549713135,-3.1298778692828577
1708433788.210202,-2.142361879348755,-1.3338027459434052,-2.5241251627551478,6.11192678192214,1.0123074054718018,-3.1298862139331263
1708433788.2121966,-2.14216947555542,-1.3338022244027634,-2.5242493788348597,6.111719000130453,1.0124845504760742,-3.129833523427145
1708433788.214216,-2.1419663429260254,-1.3338702482036133,-2.5243738333331507,6.111512529640951,1.0126562118530273,-3.129904095326559
1708433788.216192,-2.141810894012451,-1.3338983070901413,-2.5244815985309046,6.1112632630165,1.0128376483917236,-3.1298423449145716
1708433788.2181997,-2.1416313648223877,-1.3339502227357407,-2.5246344248401087,6.111121046334066,1.013033390045166,-3.1298707167254847
1708433788.2202625,-2.141448736190796,-1.3339820367148896,-2.5247259775744837,6.110835778504171,1.0131611824035645,-3.1298468748675745
1708433788.2222242,-2.1412155628204346,-1.334042565231659,-2.524829689656393,6.110632169037618,1.013378620147705,-3.1298349539386194
1708433788.224235,-2.14104962348938,-1.3340579581311722,-2.524933401738302,6.110393273621359,1.013490080833435,-3.1298022905932825
1708433788.22624,-2.140873670578003,-1.3340411198190232,-2.52502948442568,6.1102239964301965,1.0136659145355225,-3.1297770182238978
1708433788.2282221,-2.1406593322753906,-1.334085540180542,-2.5251687208758753,6.109938847809591,1.0138746500015259,-3.129712168370382
1708433788.2302172,-2.1404154300689697,-1.334137738948204,-2.525330368672506,6.109700071602621,1.014014720916748,-3.1297836939441126
1708433788.2322164,-2.140134572982788,-1.3341776740602036,-2.5254250208484095,6.109376776009359,1.0142730474472046,-3.129730288182394
1708433788.2342134,-2.1398513317108154,-1.3341888201287766,-2.5255823771106165,6.109048115998068,1.0143736600875854,-3.1296938101397913
1708433788.2362204,-2.1396071910858154,-1.3342929047397156,-2.525688711796896,6.10876094081954,1.0146174430847168,-3.1297288576709192
1708433788.2382066,-2.139357089996338,-1.3343254339746018,-2.525857988988058,6.108482825547018,1.0147961378097534,-3.129695479069845
1708433788.2402322,-2.139068365097046,-1.3343818944743653,-2.5259767214404505,6.1082661030586145,1.0149809122085571,-3.129617993031637
1708433788.2422445,-2.1388113498687744,-1.3343842339566727,-2.5261088053332728,6.107962596207418,1.015161395072937,-3.129667107258932
1708433788.2442222,-2.1384785175323486,-1.3344202947667618,-2.526310745869772,6.107642638474264,1.0153701305389404,-3.1295979658709925
1708433788.2462182,-2.1381664276123047,-1.3345039945891877,-2.5264208952533167,6.10728274562911,1.0155774354934692,-3.1295786539660853
1708433788.2482567,-2.1377851963043213,-1.334613026385643,-2.526580874119894,6.107024061470785,1.0157697200775146,-3.129575792943136
1708433788.2502363,-2.1375131607055664,-1.3346481931260605,-2.5267534891711634,6.1066698906715295,1.016040325164795,-3.129538599644796
1708433788.252228,-2.137160301208496,-1.3346832555583497,-2.52694541612734,6.106368052750387,1.016314148902893,-3.1294904390918177
1708433788.25423,-2.1367902755737305,-1.3347557795098801,-2.527142588292257,6.106019961624899,1.016464352607727,-3.129463497792379
1708433788.2562275,-2.1364359855651855,-1.3347864759019394,-2.5273097197162073,6.105683553009786,1.016700267791748,-3.129463497792379
1708433788.2582562,-2.13602352142334,-1.3348428916982193,-2.5274763743029993,6.105349886208334,1.016908884048462,-3.1294317881213587
1708433788.2602232,-2.1356401443481445,-1.3349871945432206,-2.5276578108416956,6.104983675270834,1.017154335975647,-3.1293466726886194
1708433788.26221,-2.135232448577881,-1.335010216837265,-2.5278494993792933,6.104544746666708,1.0174155235290527,-3.129322353993551
1708433788.2642238,-2.1347975730895996,-1.3351468008807679,-2.5280545393573206,6.10413538196639,1.0176633596420288,-3.129319492970602
1708433788.266224,-2.1343555450439453,-1.3351786595634003,-2.528229061757223,6.1037176726158044,1.0179204940795898,-3.1293047110186976
1708433788.2682436,-2.133903980255127,-1.3352981966784974,-2.5285280386554163,6.103231060295858,1.0182299613952637,-3.1291819254504603
1708433788.2702112,-2.1334614753723145,-1.3354101193002244,-2.528677527104513,6.102813589363851,1.0184450149536133,-3.129183355961935
1708433788.2722576,-2.132981300354004,-1.3354976040175934,-2.5288451353656214,6.10234700420455,1.0187546014785767,-3.1291471163379114
1708433788.2742708,-2.132570266723633,-1.3355651509812851,-2.5290287176715296,6.101940500527181,1.019019365310669,-3.1290586630450647
1708433788.276261,-2.132033109664917,-1.335721493964531,-2.5293009916888636,6.101436841278829,1.0192415714263916,-3.1290484110461634
1708433788.2782567,-2.1315455436706543,-1.3358368587544938,-2.5295496622668665,6.100925910263815,1.0195224285125732,-3.12892991701235
1708433788.2802086,-2.1309986114501953,-1.3359360259822388,-2.5297701994525355,6.1004488346870325,1.0198487043380737,-3.1288989225970667
1708433788.2822125,-2.1304585933685303,-1.3361279678395768,-2.530050579701559,6.099942195206442,1.0201534032821655,-3.128859583531515
1708433788.2842066,-2.129934310913086,-1.3362022948316117,-2.5303316752063196,6.099375235825338,1.020453929901123,-3.1288283506976526
1708433788.286193,-2.129322052001953,-1.3363389682820817,-2.5305455366717737,6.098785030632772,1.0207741260528564,-3.128735605870382
1708433788.2882125,-2.12872314453125,-1.3365509522012253,-2.530764881764547,6.098181354790487,1.0211246013641357,-3.1286543051349085
1708433788.2901962,-2.1281871795654297,-1.3367265474847336,-2.531091038380758,6.097615110665121,1.0214329957962036,-3.1286032835589808
1708433788.2922325,-2.127591133117676,-1.3368529987386246,-2.5313308874713343,6.097061621933737,1.0217124223709106,-3.1285584608661097
1708433788.2942023,-2.127004861831665,-1.3370205622962494,-2.531577173863546,6.0965486643608,1.0220578908920288,-3.1285467783557337
1708433788.2962584,-2.126356840133667,-1.3371157807162781,-2.5318663755999964,6.095994698792257,1.0224310159683228,-3.1284881273852747
1708433788.2981987,-2.1257760524749756,-1.33732462049041,-2.5321458021747034,6.095412480622091,1.0227086544036865,-3.128404204045431
1708433788.3002148,-2.125194549560547,-1.3374673289111634,-2.5324376265155237,6.094805824547567,1.0231252908706665,-3.1283066908465784
1708433788.3022387,-2.1244850158691406,-1.3376709979823609,-2.5327420870410364,6.094127285271444,1.023460030555725,-3.128296438847677
1708433788.304206,-2.1238205432891846,-1.3378473383239289,-2.533079210911886,6.093428241997518,1.023842215538025,-3.1282244364367884
1708433788.3061955,-2.1231162548065186,-1.3380071830800553,-2.5333505312549036,6.0926939127738855,1.0241953134536743,-3.1281150023089808
1708433788.3082092,-2.1224095821380615,-1.338160679941513,-2.533686701451437,6.092017042427816,1.0245637893676758,-3.128070656453268
1708433788.3102016,-2.1216800212860107,-1.3384246987155457,-2.533985439931051,6.091361152916708,1.0249360799789429,-3.128028217946188
1708433788.3122349,-2.1209278106689453,-1.3386117082885285,-2.5343220869647425,6.090680587082662,1.0253328084945679,-3.1279590765582483
1708433788.314196,-2.12015438079834,-1.3388225597194214,-2.53467041650881,6.0899319527442834,1.025665283203125,-3.127932373677389
1708433788.316211,-2.11944842338562,-1.3390117150596161,-2.5349648634540003,6.089242565422811,1.0260753631591797,-3.1278978029834192
1708433788.3182003,-2.1185998916625977,-1.3392008554986496,-2.535309378300802,6.088512646942892,1.0264601707458496,-3.127791229878561
1708433788.3201993,-2.1178019046783447,-1.339372531776764,-2.535711113606588,6.087748038559713,1.026807188987732,-3.1277690569507044
1708433788.3222246,-2.1170032024383545,-1.339623601441719,-2.536050860081808,6.0868811486061,1.02727472782135,-3.1276360193835657
1708433788.3242004,-2.1160693168640137,-1.33990831792865,-2.5364068190204065,6.08604775646285,1.0276906490325928,-3.127662960683004
1708433788.32619,-2.115226984024048,-1.340135709648468,-2.536754910145895,6.085231411248007,1.0281041860580444,-3.1275156180011194
1708433788.328199,-2.1143581867218018,-1.3403867197087784,-2.5371299425708216,6.084350096970358,1.028544545173645,-3.1274684111224573
1708433788.3301966,-2.1134347915649414,-1.3406009388021012,-2.537534538899557,6.083516824036398,1.028957486152649,-3.1274333635913294
1708433788.3322165,-2.1125457286834717,-1.3408445131829758,-2.5378976503955286,6.082671034127035,1.0293813943862915,-3.127390209828512
1708433788.3341904,-2.1115927696228027,-1.341120497589447,-2.53831392923464,6.081764209061422,1.029809832572937,-3.1272955576526087
1708433788.3362145,-2.1106173992156982,-1.3414191913655777,-2.5387263933764856,6.080881583481588,1.0302708148956299,-3.1272135416613978
1708433788.3381948,-2.1095900535583496,-1.3416863691857834,-2.5391057173358362,6.07996820190505,1.030740737915039,-3.1271820704089563
1708433788.3402116,-2.1085596084594727,-1.3419738125852128,-2.539517943059103,6.078974473267355,1.0311529636383057,-3.127080504094259
1708433788.3422003,-2.107572078704834,-1.342240111236908,-2.540027443562643,6.078065025597372,1.0316579341888428,-3.127017323170797
1708433788.3441954,-2.106508493423462,-1.3425398033908387,-2.5403853098498743,6.077166902809896,1.0321757793426514,-3.1269570032702845
1708433788.3461952,-2.1054680347442627,-1.3428830814412613,-2.5408013502704065,6.076049673348226,1.0326361656188965,-3.126902166997091
1708433788.348228,-2.1043283939361572,-1.343157337313034,-2.5412748495685022,6.075052726059713,1.0331331491470337,-3.126838986073629
1708433788.3501992,-2.103264093399048,-1.3434400272420426,-2.5416699091540735,6.074005830078878,1.033618450164795,-3.126798216496603
1708433788.3522332,-2.102168083190918,-1.3437953156283875,-2.5421140829669397,6.07299696186141,1.0341445207595825,-3.1266353766070765
1708433788.3541994,-2.1010563373565674,-1.3441151094487687,-2.542548958455221,6.071948992996969,1.034652829170227,-3.12665039697756
1708433788.3562002,-2.09993577003479,-1.3444051158479233,-2.543070141469137,6.070873725205221,1.0351648330688477,-3.1265738646136683
1708433788.3582044,-2.098752975463867,-1.3447198879769822,-2.543546740208761,6.069692599564352,1.03574800491333,-3.1265299955951136
1708433788.3602002,-2.097579002380371,-1.3450617057136078,-2.5439656416522425,6.06858383396224,1.036300778388977,-3.1264706293689173
1708433788.3622217,-2.096423625946045,-1.3453685653260727,-2.5445023218738,6.0674757836158655,1.0368046760559082,-3.1263986269580286
1708433788.3641963,-2.0952024459838867,-1.3457530450871964,-2.5450194517718714,6.0662869093711755,1.037390947341919,-3.1263721624957483
1708433788.3661983,-2.093980312347412,-1.346123070721962,-2.54551870027651,6.065159189492025,1.0378797054290771,-3.1262882391559046
1708433788.3682003,-2.0927560329437256,-1.3464531165412446,-2.546030108128683,6.0640238402183435,1.0384821891784668,-3.1262221972094935
1708433788.3701954,-2.0915141105651855,-1.3468324405005951,-2.546521011983053,6.062811839371481,1.0390307903289795,-3.1261354128467005
1708433788.3722413,-2.090252637863159,-1.3471870583346863,-2.5471351782428187,6.061633097916403,1.0396065711975098,-3.12608772913088
1708433788.3742397,-2.0889525413513184,-1.3475988668254395,-2.5476391951190394,6.060400593071737,1.0401445627212524,-3.1260185877429407
1708433788.376259,-2.087597608566284,-1.347952054148056,-2.5481866041766565,6.0591890690620325,1.0407265424728394,-3.125942055379049
1708433788.3782058,-2.086207151412964,-1.348371909265854,-2.5487337748156946,6.0578757403190515,1.041298747062683,-3.1258865038501185
