Eg3-git/Classifiers/Data Collection/u1/u1xyz5_ur3e_joint_states.csv
time,elbow_joint,shoulder_lift_joint,shoulder_pan_joint,wrist_1_joint,wrist_2_joint,wrist_3_joint
1708433813.2584345,-2.1538243293762207,-1.3350824874690552,-2.5190137068377894,6.133038866310873,1.0034561157226562,-3.2610209623919886
1708433813.2604604,-2.153794765472412,-1.335070253615715,-2.5190463701831263,6.132992851525106,1.0034923553466797,-3.261054340993063
1708433813.2624419,-2.153780460357666,-1.3351355654052277,-2.5190091768847864,6.133062708168783,1.0034756660461426,-3.2610045115100306
1708433813.2644293,-2.1537833213806152,-1.335089997654297,-2.519043509160177,6.133001673012533,1.003513216972351,-3.2609835306750696
1708433813.2664363,-2.1538033485412598,-1.335057095890381,-2.5189927260028284,6.133034574776449,1.0034968852996826,-3.2609971205340784
1708433813.2684283,-2.1538496017456055,-1.3351105761579056,-2.518989864979879,6.132947194367208,1.0034847259521484,-3.2609971205340784
1708433813.2704296,-2.1537718772888184,-1.3350780767253418,-2.519006315861837,6.133062708168783,1.0034847259521484,-3.2610045115100306
1708433813.272437,-2.1538033485412598,-1.3350788962892075,-2.5189688841449183,6.1330169318015955,1.0034756660461426,-3.2610753218280237
1708433813.2744238,-2.1538329124450684,-1.3351181608489533,-2.5189645926104944,6.133021342545309,1.003483533859253,-3.2610297838794153
1708433813.2764313,-2.1537551879882812,-1.3350780767253418,-2.5189972559558313,6.133037674217977,1.0034680366516113,-3.2609999815570276
1708433813.2784307,-2.1538243293762207,-1.3350975972465058,-2.518973414097921,6.133034574776449,1.0034712553024292,-3.2609599272357386
1708433813.2804365,-2.153780460357666,-1.3350615066340943,-2.519006315861837,6.13300501087264,1.0034561157226562,-3.2610045115100306
1708433813.2824461,-2.1538162231445312,-1.3350041073611756,-2.518994394932882,6.132943618088522,1.0034352540969849,-3.261038843785421
1708433813.2844899,-2.1537833213806152,-1.335114986901619,-2.5189808050738733,6.133001673012533,1.0034589767456055,-3.2610135714160364
1708433813.2864733,-2.153759479522705,-1.3350824874690552,-2.518994394932882,6.133046495705404,1.0034635066986084,-3.261022392903463
1708433813.288475,-2.1538162231445312,-1.3350496751121064,-2.519006315861837,6.133030164032736,1.0034352540969849,-3.2610161940204065
1708433813.2904549,-2.1538076400756836,-1.335103065972664,-2.519006315861837,6.133038866310873,1.0034680366516113,-3.2610178629504603
1708433813.2924435,-2.1537961959838867,-1.3351062399199982,-2.519038979207174,6.1329853413398645,1.0034308433532715,-3.2610061804400843
1708433813.294424,-2.153815746307373,-1.3351105761579056,-2.5189927260028284,6.132975327759542,1.0034352540969849,-3.2610181013690394
1708433813.2964392,-2.1538076400756836,-1.3351062846234818,-2.519006315861837,6.133095609932699,1.0034561157226562,-3.2609999815570276
1708433813.2984684,-2.153841018676758,-1.3351105761579056,-2.5190017859088343,6.133021342545309,1.0034936666488647,-3.2609599272357386
1708433813.3004491,-2.1538286209106445,-1.335115061407425,-2.5189927260028284,6.133021342545309,1.0034353733062744,-3.2609763781176966
1708433813.3024802,-2.153759479522705,-1.3350539964488526,-2.5190137068377894,6.132988440781393,1.0034517049789429,-3.2609670797931116
1708433813.304472,-2.153787612915039,-1.3350571554950257,-2.5190017859088343,6.133021342545309,1.003430724143982,-3.2610090414630335
1708433813.3064811,-2.1537675857543945,-1.335114986901619,-2.5189927260028284,6.13307141044692,1.00344717502594,-3.261010471974508
1708433813.3084416,-2.153815746307373,-1.3350702387145539,-2.5189645926104944,6.13299726226882,1.003476858139038,-3.2610045115100306
1708433813.310442,-2.1538076400756836,-1.3350856763175507,-2.5189853350268763,6.13300501087264,1.0034589767456055,-3.2609835306750696
1708433813.3124683,-2.153799057006836,-1.3351062548211594,-2.518973414097921,6.133034574776449,1.0034680366516113,-3.2609403769122522
1708433813.314441,-2.153742790222168,-1.3350539964488526,-2.5189719835864466,6.133041965752401,1.0034756660461426,-3.2609925905810755
1708433813.3164575,-2.1538453102111816,-1.335070253615715,-2.518973414097921,6.133021342545309,1.003517746925354,-3.2609806696521204
1708433813.3184392,-2.153799057006836,-1.335061491732933,-2.518989864979879,6.1330007193382166,1.0034756660461426,-3.2610181013690394
1708433813.3204665,-2.1538033485412598,-1.3350987446359177,-2.518989864979879,6.13301049449996,1.0034635066986084,-3.2609851996051233
1708433813.3224225,-2.1538076400756836,-1.3351474863341828,-2.5189853350268763,6.132980930596151,1.0035103559494019,-3.2609999815570276
1708433813.324428,-2.1538567543029785,-1.3350496751121064,-2.519022766743795,6.132988440781393,1.0034968852996826,-3.2609971205340784
1708433813.3264275,-2.15378475189209,-1.3350571703961869,-2.5189853350268763,6.133053886681356,1.0034680366516113,-3.2609480063067835
1708433813.32843,-2.153776168823242,-1.3350539964488526,-2.5189688841449183,6.133009421616354,1.0034441947937012,-3.2609897295581263
1708433813.3304238,-2.15383243560791,-1.3350659173778077,-2.5190091768847864,6.133021342545309,1.0034605264663696,-3.2610135714160364
1708433813.3324594,-2.153738498687744,-1.3350780767253418,-2.5189688841449183,6.133001673012533,1.003436803817749,-3.2609806696521204
1708433813.334432,-2.153787612915039,-1.3350366067937394,-2.519034449254171,6.132992851525106,1.0034397840499878,-3.2609718481646937
1708433813.336478,-2.153836727142334,-1.335114986901619,-2.5189808050738733,6.133013832360067,1.003432273864746,-3.2610209623919886
1708433813.3384287,-2.153799057006836,-1.3350780767253418,-2.5189839045154017,6.133005964546957,1.0034441947937012,-3.2609687487231653
1708433813.3404617,-2.1538033485412598,-1.3349961799434205,-2.519010607396261,6.133037674217977,1.0034234523773193,-3.261022392903463
1708433813.342458,-2.153791904449463,-1.3350452494672318,-2.5189762751208704,6.133013832360067,1.0034111738204956,-3.2609897295581263
1708433813.344457,-2.1538162231445312,-1.3350040328553696,-2.5189927260028284,6.132992851525106,1.0034143924713135,-3.260961357747213
1708433813.346464,-2.1538033485412598,-1.3350780767253418,-2.5190301577197474,6.132988440781393,1.0034441947937012,-3.2609732786761683
1708433813.3484814,-2.1538243293762207,-1.3350824874690552,-2.5189645926104944,6.133050787239828,1.0034561157226562,-3.260965887700216
1708433813.3504558,-2.1538453102111816,-1.3350377541831513,-2.518989864979879,6.1329678175743005,1.0034769773483276,-3.2609568277942103
1708433813.3524604,-2.153820037841797,-1.3350659173778077,-2.5190091768847864,6.133005964546957,1.0034517049789429,-3.2609241644488733
1708433813.354425,-2.1537675857543945,-1.3350780767253418,-2.5190017859088343,6.132972109108724,1.0034891366958618,-3.260961357747213
1708433813.3564215,-2.1537551879882812,-1.3350780767253418,-2.519006315861837,6.133021342545309,1.0033814907073975,-3.2609286944018763
1708433813.358423,-2.1538524627685547,-1.3350737553885956,-2.519006315861837,6.13305829742507,1.0034935474395752,-3.260961357747213
1708433813.360424,-2.1538243293762207,-1.3350780767253418,-2.5189972559558313,6.133033263474264,1.0035059452056885,-3.2609151045428675
1708433813.3624334,-2.153759479522705,-1.335103065972664,-2.5189808050738733,6.133049595146932,1.00344717502594,-3.2609522978412073
1708433813.364424,-2.1537420749664307,-1.3351150763085862,-2.519027058278219,6.133030164032736,1.0034724473953247,-3.2610016504870813
1708433813.3664284,-2.1537718772888184,-1.3350246858647843,-2.5189643541919153,6.132996308594503,1.0034111738204956,-3.2609525362597864
1708433813.3684418,-2.153841018676758,-1.335089997654297,-2.5189853350268763,6.133070575981893,1.003481388092041,-3.2609568277942103
1708433813.3704364,-2.153815746307373,-1.3350694191506882,-2.5190301577197474,6.133012640267172,1.0034486055374146,-3.260942045842306
1708433813.37243,-2.1537551879882812,-1.3350737404874344,-2.518989864979879,6.132980930596151,1.0034233331680298,-3.2609403769122522
1708433813.3744307,-2.1537718772888184,-1.3350911450437088,-2.5190046469317835,6.1330007193382166,1.0034650564193726,-3.260965887700216
1708433813.3764288,-2.1537833213806152,-1.3350868237069626,-2.519010607396261,6.13305829742507,1.0034486055374146,-3.260953966771261
1708433813.3784301,-2.153799057006836,-1.335114986901619,-2.518989864979879,6.133013832360067,1.0034111738204956,-3.2609203497516077
1708433813.380435,-2.153787612915039,-1.3351030957749863,-2.5189808050738733,6.132980930596151,1.003432273864746,-3.260911528264181
1708433813.3824573,-2.153776168823242,-1.3350452494672318,-2.5189972559558313,6.132996308594503,1.0034486055374146,-3.260920588170187
1708433813.384467,-2.1538243293762207,-1.3350539964488526,-2.5190046469317835,6.13305829742507,1.0034605264663696,-3.260961357747213
1708433813.3864734,-2.153791904449463,-1.335070253615715,-2.518989864979879,6.13300501087264,1.003436803817749,-3.2609086672412317
1708433813.3885162,-2.153799057006836,-1.3350868237069626,-2.519022766743795,6.133025634079733,1.0034441947937012,-3.260899607335226
1708433813.3904462,-2.153791904449463,-1.3350366067937394,-2.518989864979879,6.133022534638204,1.003415584564209,-3.260937515889303
1708433813.3924923,-2.153780460357666,-1.3350171756795426,-2.5189853350268763,6.133001553803243,1.0034278631210327,-3.260995690022604
1708433813.3944619,-2.1537675857543945,-1.3351474863341828,-2.5190001169787806,6.133033263474264,1.0034081935882568,-3.260958496724264
1708433813.3964705,-2.1538076400756836,-1.33503773928199,-2.5189765135394495,6.1329678175743005,1.0034531354904175,-3.260961357747213
1708433813.3984406,-2.153836727142334,-1.3350539964488526,-2.5189884344684046,6.132996308594503,1.0033828020095825,-3.260953966771261
1708433813.400476,-2.1537718772888184,-1.3350737553885956,-2.5190017859088343,6.133053886681356,1.003436803817749,-3.260963026677267
1708433813.4024467,-2.1537833213806152,-1.3350911450437088,-2.518989864979879,6.13305817821578,1.003432273864746,-3.260974947606222
1708433813.4045296,-2.153820037841797,-1.335070253615715,-2.519006315861837,6.133030164032736,1.0034081935882568,-3.260958496724264
1708433813.406438,-2.1538243293762207,-1.3351073873094101,-2.5189691225634974,6.133021342545309,1.0034502744674683,-3.2609406153308313
1708433813.4084654,-2.1537833213806152,-1.3350571703961869,-2.518961254750387,6.133055197983541,1.003436803817749,-3.2609203497516077
1708433813.41043,-2.1538033485412598,-1.3351062548211594,-2.518973414097921,6.132985460549154,1.0034531354904175,-3.2609329859363
1708433813.4124687,-2.153820037841797,-1.335098759537079,-2.5189972559558313,6.133045184403219,1.0034412145614624,-3.260953966771261
1708433813.4144435,-2.153794765472412,-1.335069404249527,-2.519022766743795,6.133046257286825,1.0033992528915405,-3.260946575795309
1708433813.4164283,-2.1537833213806152,-1.3350127649358292,-2.5190256277667444,6.133038747101583,1.003415584564209,-3.2609086672412317
1708433813.4184399,-2.153820037841797,-1.3350987446359177,-2.5189853350268763,6.1330007193382166,1.0033992528915405,-3.2608922163592737
1708433813.4204748,-2.1538243293762207,-1.3350615066340943,-2.518977944050924,6.133049595146932,1.0034619569778442,-3.2609251181231897
1708433813.4224708,-2.1537747383117676,-1.3351355654052277,-2.519038979207174,6.132996427803793,1.0034412145614624,-3.2609251181231897
1708433813.4244874,-2.153820037841797,-1.3350856763175507,-2.519055430089132,6.133083569794454,1.0034245252609253,-3.2609251181231897
1708433813.4264479,-2.153763771057129,-1.3350203496268769,-2.5190346876727503,6.133017051010885,1.003420114517212,-3.2609329859363
1708433813.4284687,-2.1537675857543945,-1.335101918583252,-2.5190137068377894,6.133041965752401,1.003436803817749,-3.260916058217184
1708433813.4304361,-2.153815746307373,-1.3350780767253418,-2.518989864979879,6.132972228318014,1.0034290552139282,-3.260937515889303
1708433813.432448,-2.153799057006836,-1.335008369093277,-2.518989864979879,6.13300501087264,1.0034245252609253,-3.260942284260885
1708433813.4344418,-2.1538004875183105,-1.3350583177855988,-2.5189645926104944,6.132981049805441,1.0034412145614624,-3.2609131971942347
1708433813.4364593,-2.153799057006836,-1.3350780767253418,-2.5190182367907923,6.133012640267172,1.003441333770752,-3.260946575795309
1708433813.4384422,-2.1538119316101074,-1.3350334179452439,-2.519027058278219,6.1330463764961145,1.0034037828445435,-3.260904137288229
1708433813.440459,-2.153759479522705,-1.3350737553885956,-2.518956724797384,6.132956015854635,1.003420114517212,-3.260946575795309
1708433813.442453,-2.153794765472412,-1.3350452494672318,-2.5189808050738733,6.133030164032736,1.003436803817749,-3.2609086672412317
1708433813.4444692,-2.1538286209106445,-1.3350334030440827,-2.5189688841449183,6.132964718132772,1.0033828020095825,-3.2609556357013147
1708433813.4464562,-2.153794765472412,-1.3350780767253418,-2.5190046469317835,6.133050787239828,1.0033903121948242,-3.2609086672412317
1708433813.4484375,-2.153776168823242,-1.3350911748460312,-2.5189808050738733,6.1329558966453455,1.0034412145614624,-3.260942045842306
1708433813.4504626,-2.153787612915039,-1.3350911450437088,-2.5190182367907923,6.133067118912496,1.0033873319625854,-3.2609177271472376
1708433813.4524593,-2.1537718772888184,-1.3350911450437088,-2.519022766743795,6.132988440781393,1.003382921218872,-3.260887686406271
1708433813.454454,-2.1537790298461914,-1.3350452494672318,-2.5190017859088343,6.133095490723409,1.0033947229385376,-3.260953966771261
1708433813.4564333,-2.1538033485412598,-1.3350737255862732,-2.5190137068377894,6.133041965752401,1.003415584564209,-3.260892454777853
1708433813.458439,-2.1538243293762207,-1.3350084286979218,-2.5190346876727503,6.133021342545309,1.0034412145614624,-3.2609086672412317
1708433813.4604475,-2.153791904449463,-1.3350452494672318,-2.5190466086017054,6.13300513008193,1.0034412145614624,-3.2609203497516077
1708433813.4624443,-2.1537833213806152,-1.3350911450437088,-2.5190182367907923,6.133021342545309,1.0034245252609253,-3.2609429995166224
1708433813.4644463,-2.1538004875183105,-1.335061491732933,-2.5190301577197474,6.133045184403219,1.0034335851669312,-3.2609131971942347
1708433813.4664435,-2.1538162231445312,-1.335098759537079,-2.5190346876727503,6.133021342545309,1.0034171342849731,-3.260946575795309
1708433813.4684393,-2.1538496017456055,-1.3350528192571183,-2.5190256277667444,6.132988440781393,1.0034290552139282,-3.2609012762652796
1708433813.4705215,-2.1537961959838867,-1.335037724380829,-2.5189972559558313,6.132992851525106,1.0034081935882568,-3.260946575795309
1708433813.4724553,-2.1537961959838867,-1.335107446914055,-2.5189808050738733,6.13300513008193,1.003415584564209,-3.260946575795309
1708433813.474445,-2.1538119316101074,-1.3350780767253418,-2.518989864979879,6.133009421616354,1.0034412145614624,-3.2609339396106165
1708433813.4764347,-2.153747081756592,-1.3350528490594407,-2.518989864979879,6.133025634079733,1.0034245252609253,-3.260942045842306
1708433813.4784358,-2.1537506580352783,-1.3350485277226944,-2.519027058278219,6.133021342545309,1.0033918619155884,-3.260887686406271
1708433813.480457,-2.1538119316101074,-1.3350987446359177,-2.519006315861837,6.133021342545309,1.0034456253051758,-3.2608967463122767
1708433813.4824731,-2.1537790298461914,-1.3350825023702164,-2.5190346876727503,6.133025753289022,1.0034126043319702,-3.2609265486346644
1708433813.4844737,-2.153791904449463,-1.3350824874690552,-2.5189972559558313,6.133030164032736,1.0033661127090454,-3.2609251181231897
1708433813.4864976,-2.1538281440734863,-1.3350868237069626,-2.519022766743795,6.132976639061727,1.0034081935882568,-3.2609058062182825
1708433813.4884763,-2.153799057006836,-1.3350825023702164,-2.519006315861837,6.133041965752401,1.0033918619155884,-3.2609131971942347
1708433813.4904447,-2.1537718772888184,-1.3350694191506882,-2.5190017859088343,6.133066880493917,1.0034081935882568,-3.260854784642355
1708433813.492481,-2.153811454772949,-1.3350289773992081,-2.5189927260028284,6.132996308594503,1.0033992528915405,-3.260942045842306
1708433813.4944768,-2.1537833213806152,-1.3350911748460312,-2.5189884344684046,6.133070337563314,1.003366231918335,-3.2609058062182825
1708433813.4964452,-2.1538119316101074,-1.335103065972664,-2.5190017859088343,6.133062588959493,1.0033706426620483,-3.2608848253833216
1708433813.4984546,-2.1538243293762207,-1.3350702387145539,-2.519022766743795,6.13300513008193,1.0034290552139282,-3.2609103361712855
1708433813.5004938,-2.1537833213806152,-1.3350301545909424,-2.5189762751208704,6.133025634079733,1.0034412145614624,-3.2609058062182825
1708433813.5024397,-2.1537833213806152,-1.3350409281304856,-2.5190091768847864,6.133033263474264,1.0034081935882568,-3.2609177271472376
1708433813.5044878,-2.1537904739379883,-1.3350615066340943,-2.5189972559558313,6.13300501087264,1.0034531354904175,-3.2609012762652796
1708433813.5064464,-2.1538119316101074,-1.3350528192571183,-2.5190017859088343,6.132979857712545,1.0034245252609253,-3.2609296480761927
1708433813.5084474,-2.1538076400756836,-1.3350868237069626,-2.5190137068377894,6.13296793678359,1.0034457445144653,-3.2608967463122767
1708433813.5104477,-2.1538243293762207,-1.335151807670929,-2.5189972559558313,6.133009421616354,1.0034245252609253,-3.2609220186816614
1708433813.5124564,-2.1538610458374023,-1.3350040328553696,-2.519038979207174,6.132984149246969,1.0033751726150513,-3.2609296480761927
1708433813.5144336,-2.153799057006836,-1.3350452494672318,-2.519022766743795,6.13302897193984,1.003436803817749,-3.2609086672412317
1708433813.5164316,-2.153794765472412,-1.3350528490594407,-2.519055430089132,6.133021342545309,1.0034620761871338,-3.2609384695636194
1708433813.5184202,-2.153763771057129,-1.3351073873094101,-2.5190346876727503,6.133021342545309,1.0034081935882568,-3.260937515889303
1708433813.5204346,-2.1538033485412598,-1.3350987446359177,-2.519022766743795,6.132996427803793,1.0034739971160889,-3.2609086672412317
1708433813.522453,-2.1538286209106445,-1.335000605588295,-2.5189839045154017,6.133041965752401,1.0034081935882568,-3.2609131971942347
1708433813.5244386,-2.1538453102111816,-1.3350334179452439,-2.5190301577197474,6.132981049805441,1.0033962726593018,-3.2609220186816614
1708433813.5264227,-2.153759479522705,-1.335095466380455,-2.5190017859088343,6.133013832360067,1.0034245252609253,-3.260887686406271
1708433813.5284455,-2.153726816177368,-1.3350452494672318,-2.518989864979879,6.1330007193382166,1.0034037828445435,-3.2609131971942347
1708433813.5304434,-2.153799057006836,-1.3350171756795426,-2.5190420786487024,6.13299726226882,1.0034290552139282,-3.2608967463122767
1708433813.5324306,-2.1538119316101074,-1.3350824874690552,-2.519050900136129,6.133070456772604,1.0034620761871338,-3.2608967463122767
1708433813.5344422,-2.1537718772888184,-1.3350452494672318,-2.5190301577197474,6.132996308594503,1.0034245252609253,-3.260904137288229
1708433813.5364273,-2.15378475189209,-1.3351105761579056,-2.5190497080432337,6.133001553803243,1.003399133682251,-3.2609012762652796
1708433813.5384457,-2.15378475189209,-1.3350615066340943,-2.5190346876727503,6.133037674217977,1.003432273864746,-3.2608802954303187
1708433813.5404525,-2.153780460357666,-1.3350745749524613,-2.5190137068377894,6.132972228318014,1.0033828020095825,-3.2608893553363245
1708433813.5424306,-2.1538162231445312,-1.3350258332541962,-2.5190301577197474,6.132951485901632,1.0034575462341309,-3.2609177271472376
1708433813.5444334,-2.1537513732910156,-1.3350420755198975,-2.5190466086017054,6.13301037529067,1.0033992528915405,-3.2609296480761927
1708433813.5464382,-2.153780460357666,-1.3350788962892075,-2.5190091768847864,6.133021342545309,1.0034126043319702,-3.2609296480761927
1708433813.5484262,-2.153747081756592,-1.3350780767253418,-2.5190017859088343,6.133025634079733,1.0033918619155884,-3.2609203497516077
1708433813.5504568,-2.1537680625915527,-1.3350943189910431,-2.5190420786487024,6.132963526039877,1.003485918045044,-3.2608805338488978
1708433813.5524542,-2.1538050174713135,-1.3350737553885956,-2.5189762751208704,6.133067118912496,1.0034245252609253,-3.2608802954303187
1708433813.5544384,-2.15378475189209,-1.3351280403188248,-2.519038979207174,6.1330182431037805,1.0034456253051758,-3.2609341780291956
1708433813.5564392,-2.1537935733795166,-1.3350780767253418,-2.5190046469317835,6.133021342545309,1.0034531354904175,-3.2609553972827356
1708433813.5584486,-2.153825283050537,-1.3350825023702164,-2.5190137068377894,6.132972109108724,1.003420114517212,-3.260942045842306
1708433813.5604475,-2.153763771057129,-1.335095466380455,-2.5190210978137415,6.132980930596151,1.0034037828445435,-3.2609131971942347
1708433813.5624447,-2.15378475189209,-1.3350377541831513,-2.5190301577197474,6.133030164032736,1.0034154653549194,-3.260951105748312
1708433813.5644455,-2.1537556648254395,-1.3350615066340943,-2.5190091768847864,6.133009421616354,1.003432273864746,-3.2609296480761927
1708433813.566461,-2.1537556648254395,-1.3350171756795426,-2.519006315861837,6.132988440781393,1.003420114517212,-3.260871235524313
1708433813.5684433,-2.153759479522705,-1.3350084286979218,-2.5190375486956995,6.133001673012533,1.003415584564209,-3.2609177271472376
1708433813.5704365,-2.1537723541259766,-1.3350334179452439,-2.5190256277667444,6.133034574776449,1.0034531354904175,-3.2609329859363
1708433813.5724366,-2.1537890434265137,-1.3350659173778077,-2.5190182367907923,6.132976519852438,1.0033785104751587,-3.260916058217184
1708433813.574433,-2.153780460357666,-1.3350334179452439,-2.5190137068377894,6.133001673012533,1.0034234523773193,-3.26097017923464
1708433813.5764384,-2.1538138389587402,-1.3350571703961869,-2.519061867390768,6.133005964546957,1.0034233331680298,-3.2609251181231897
1708433813.578448,-2.1537680625915527,-1.3350571703961869,-2.5190210978137415,6.133030164032736,1.003415584564209,-3.260937515889303
1708433813.5804644,-2.1537396907806396,-1.3350780767253418,-2.5190420786487024,6.13299726226882,1.0034233331680298,-3.260946575795309
1708433813.5824597,-2.1538004875183105,-1.335061491732933,-2.5190632979022425,6.1329853413398645,1.0034111738204956,-3.2609177271472376
1708433813.5844896,-2.1537601947784424,-1.3351224970868607,-2.5190137068377894,6.132976519852438,1.003411054611206,-3.260951105748312
1708433813.5864909,-2.1537513732910156,-1.3350571703961869,-2.5190587679492396,6.132960188179769,1.0034769773483276,-3.2609251181231897
1708433813.5884523,-2.1537513732910156,-1.3350868237069626,-2.5190420786487024,6.132969128876486,1.0034561157226562,-3.260942045842306
1708433813.5904496,-2.153714418411255,-1.3350943189910431,-2.5190256277667444,6.132969009667196,1.0034891366958618,-3.2609837690936487
1708433813.592439,-2.153780460357666,-1.3350943338922043,-2.5190137068377894,6.132980930596151,1.0034441947937012,-3.260899607335226
1708433813.5944414,-2.1538004875183105,-1.3350171756795426,-2.5190375486956995,6.133001673012533,1.0034517049789429,-3.260946575795309
1708433813.5964453,-2.1537556648254395,-1.3350615066340943,-2.5190420786487024,6.132980930596151,1.0034397840499878,-3.260916058217184
1708433813.5984416,-2.15378475189209,-1.3350290072015305,-2.5190137068377894,6.13301049449996,1.0034397840499878,-3.2609296480761927
1708433813.6004682,-2.153726816177368,-1.3350409281304856,-2.5190420786487024,6.132989632874288,1.0034695863723755,-3.2608922163592737
1708433813.6024408,-2.1537890434265137,-1.3350452345660706,-2.5190466086017054,6.132973420410909,1.0034561157226562,-3.2609131971942347
1708433813.6044362,-2.1537768840789795,-1.335070253615715,-2.5190210978137415,6.1329524395759485,1.0034847259521484,-3.2609131971942347
1708433813.606441,-2.1537063121795654,-1.335078940992691,-2.5190256277667444,6.132933008461752,1.003476858139038,-3.2609203497516077
1708433813.6084363,-2.1537396907806396,-1.335098759537079,-2.5190284887896937,6.132928716927328,1.0034605264663696,-3.260974947606222
1708433813.610436,-2.153757095336914,-1.3350496602109452,-2.5190330187426966,6.132989632874288,1.0034769773483276,-3.2609251181231897
1708433813.6124327,-2.1537396907806396,-1.3350539815476914,-2.5190420786487024,6.132940518646993,1.0034605264663696,-3.260920588170187
1708433813.6144435,-2.1537680625915527,-1.3350496602109452,-2.5190120379077356,6.1329537508781335,1.0035103559494019,-3.2609086672412317
1708433813.6164281,-2.153764486312866,-1.3350420755198975,-2.5190826098071497,6.1329418299491785,1.0034606456756592,-3.2609329859363
1708433813.6184323,-2.153735399246216,-1.3350496602109452,-2.5190709272967737,6.1329243061836145,1.0034517049789429,-3.2609251181231897
1708433813.620447,-2.1537187099456787,-1.33505833268676,-2.519099299107687,6.132973420410909,1.0034635066986084,-3.260899607335226
1708433813.6224253,-2.1537556648254395,-1.3350127053311844,-2.519040648137228,6.132904517441549,1.0035014152526855,-3.260949436818258
1708433813.6244323,-2.1537768840789795,-1.3351105910590668,-2.519094769154684,6.1329418299491785,1.0034680366516113,-3.260953966771261
1708433813.6264417,-2.1537601947784424,-1.3350452345660706,-2.51906925836672,6.132904517441549,1.003505825996399,-3.260942045842306
1708433813.628433,-2.1537442207336426,-1.3350868386081238,-2.5190873781787317,6.132900106697836,1.0035178661346436,-3.2609251181231897
1708433813.6304507,-2.1537680625915527,-1.3350911748460312,-2.519043747578756,6.132921087532797,1.0034847259521484,-3.260904137288229
1708433813.632433,-2.1537318229675293,-1.3350408983281632,-2.519057337437765,6.13299189785079,1.0034621953964233,-3.260965887700216
1708433813.6344314,-2.1537230014801025,-1.3350825023702164,-2.519126001988546,6.13296257236556,1.0034923553466797,-3.260944906865255
1708433813.636438,-2.153740406036377,-1.3350780767253418,-2.5191472212420862,6.1329176304634,1.0034879446029663,-3.260899607335226
1708433813.6384313,-2.153764486312866,-1.3350745898536225,-2.5191245714770716,6.132921087532797,1.0034953355789185,-3.2609329859363
1708433813.6404383,-2.153735399246216,-1.3350745898536225,-2.519102160130636,6.132922041207113,1.0034892559051514,-3.2609131971942347
1708433813.6424396,-2.153735399246216,-1.335061491732933,-2.5191500822650355,6.132914650231161,1.003442645072937,-3.260937515889303
1708433813.6444387,-2.153735399246216,-1.3350539964488526,-2.5190871397601526,6.132918941765585,1.0034711360931396,-3.260994259511129
1708433813.6464407,-2.1536951065063477,-1.3350987446359177,-2.519126001988546,6.132881986885824,1.003442645072937,-3.260949436818258
1708433813.6484387,-2.1537556648254395,-1.3350290072015305,-2.519158903752462,6.132905828743734,1.0035014152526855,-3.260977808629171
1708433813.6504474,-2.1537680625915527,-1.3350943189910431,-2.5191832224475306,6.132905828743734,1.0034589767456055,-3.260937515889303
1708433813.6524673,-2.1537230014801025,-1.3350334179452439,-2.5191381613360804,6.13286446312026,1.0034801959991455,-3.260949436818258
1708433813.6544456,-2.1537442207336426,-1.3351193082383652,-2.5191500822650355,6.1328492043311975,1.0034923553466797,-3.260958496724264
1708433813.6564665,-2.1537318229675293,-1.3350496602109452,-2.5191169420825403,6.132893907814779,1.0034879446029663,-3.260977808629171
1708433813.65843,-2.153715133666992,-1.3350702387145539,-2.5191291014300745,6.132857906609335,1.0034680366516113,-3.260949436818258
1708433813.6604433,-2.153715133666992,-1.3350301545909424,-2.5191050211535853,6.132868873863973,1.0034756660461426,-3.260944906865255
1708433813.662432,-2.1537318229675293,-1.3350868237069626,-2.5191078821765345,6.132877576142111,1.0034879446029663,-3.260965887700216
1708433813.6644554,-2.153757095336914,-1.3350868237069626,-2.5190961996661585,6.132902729302206,1.0034667253494263,-3.26097017923464
1708433813.666457,-2.1537318229675293,-1.3350539964488526,-2.5191426912890833,6.132878529816427,1.0035295486450195,-3.260961357747213
1708433813.6684403,-2.153719425201416,-1.3350702387145539,-2.5191546122180384,6.13290702083663,1.003483533859253,-3.260953966771261
1708433813.6704233,-2.153764486312866,-1.3351117831519623,-2.5191004912005823,6.132905828743734,1.0035492181777954,-3.260911528264181
1708433813.6724303,-2.1537318229675293,-1.3350246858647843,-2.5191004912005823,6.1327955601509,1.003528356552124,-3.2609687487231653
1708433813.674436,-2.153744697570801,-1.3350290072015305,-2.5190914312945765,6.132825243263998,1.0034998655319214,-3.260961357747213
1708433813.6764488,-2.1537280082702637,-1.3350824874690552,-2.5190885702716272,6.132817494660177,1.0035161972045898,-3.260944906865255
1708433813.6784434,-2.153764486312866,-1.3350737553885956,-2.5191336313830774,6.132857906609335,1.0034788846969604,-3.260911528264181
1708433813.6804442,-2.1536951065063477,-1.3350745898536225,-2.519130531941549,6.132865416794576,1.0035372972488403,-3.260902706776754
1708433813.6824389,-2.1537318229675293,-1.3350005459836503,-2.5191801230060022,6.132828342705526,1.0034863948822021,-3.260974947606222
1708433813.6844573,-2.1537036895751953,-1.3350955259850998,-2.5191500822650355,6.132828342705526,1.0035042762756348,-3.260977808629171
1708433813.6865356,-2.153707981109619,-1.33505833268676,-2.5191713015185755,6.132881986885824,1.0034953355789185,-3.260965887700216
1708433813.6884944,-2.1537485122680664,-1.3350955259850998,-2.5191124121295374,6.132898318558492,1.0035088062286377,-3.26097017923464
1708433813.6904893,-2.1537280082702637,-1.3350463968566437,-2.5191169420825403,6.132828342705526,1.003511667251587,-3.260986630116598
1708433813.6924627,-2.153785467147827,-1.3350463968566437,-2.519158903752462,6.132874119072714,1.0035042762756348,-3.261010471974508
1708433813.694435,-2.153764486312866,-1.3350334179452439,-2.5191245714770716,6.132788049965658,1.0034879446029663,-3.2610016504870813
1708433813.6964526,-2.1537485122680664,-1.3350365471890946,-2.519109551106588,6.132878529816427,1.0035492181777954,-3.260961357747213
1708433813.698467,-2.1536712646484375,-1.335017130976059,-2.519158903752462,6.132799970894613,1.0034879446029663,-3.2609568277942103
1708433813.7004538,-2.153744697570801,-1.3350702387145539,-2.5191336313830774,6.1328621981437585,1.0035374164581299,-3.260944906865255
1708433813.702473,-2.153712272644043,-1.3350171756795426,-2.5191741625415247,6.132890808373251,1.003495216369629,-3.260961357747213
1708433813.7044306,-2.1536879539489746,-1.3350911450437088,-2.5191455523120325,6.132849085121908,1.0035537481307983,-3.2609897295581263
1708433813.7064552,-2.153744697570801,-1.3350745749524613,-2.5190842787372034,6.132837164192953,1.0035206079483032,-3.2609360853778284
1708433813.7084627,-2.153715133666992,-1.3350780767253418,-2.5190885702716272,6.13281666019515,1.0035358667373657,-3.2609406153308313
1708433813.7104442,-2.153716564178467,-1.3350626689246674,-2.5191169420825403,6.132788049965658,1.0035150051116943,-3.260982338582174
1708433813.7124429,-2.1536993980407715,-1.3350626987269898,-2.5191004912005823,6.132805573731222,1.0035239458084106,-3.2609525362597864
1708433813.7144392,-2.1537280082702637,-1.335046411757805,-2.5191875139819544,6.132804381638326,1.003540277481079,-3.260899607335226
1708433813.7164872,-2.153707981109619,-1.3350745898536225,-2.5191004912005823,6.132780539780416,1.0035641193389893,-3.2609480063067835
1708433813.7184415,-2.153712272644043,-1.3350496602109452,-2.5191381613360804,6.132804381638326,1.0035762786865234,-3.260944906865255
1708433813.7205052,-2.153683662414551,-1.3350539964488526,-2.5191291014300745,6.132752048760214,1.0035446882247925,-3.260902706776754
1708433813.722429,-2.1536879539489746,-1.33505833268676,-2.5191336313830774,6.132792460709371,1.0035521984100342,-3.2609406153308313
1708433813.7244394,-2.153658866882324,-1.3350539964488526,-2.5191410223590296,6.132788049965658,1.003544807434082,-3.2609851996051233
1708433813.7264311,-2.153716564178467,-1.3350659173778077,-2.5191169420825403,6.132792460709371,1.003544807434082,-3.2609687487231653
1708433813.7284353,-2.153679847717285,-1.3350334030440827,-2.5191291014300745,6.132765280991354,1.0035641193389893,-3.2609732786761683
1708433813.7304304,-2.1537280082702637,-1.3350127053311844,-2.5191336313830774,6.132793652802267,1.0035730600357056,-3.2609806696521204
1708433813.7324934,-2.1537208557128906,-1.3350868386081238,-2.5191500822650355,6.132756459503927,1.0035820007324219,-3.2609732786761683
1708433813.7344382,-2.153663158416748,-1.33503773928199,-2.5191004912005823,6.132765280991354,1.0035195350646973,-3.261019531880514
1708433813.7364452,-2.1536965370178223,-1.33503773928199,-2.5191500822650355,6.1327857849891565,1.0035358667373657,-3.260977808629171
1708433813.7384365,-2.1536717414855957,-1.3350539964488526,-2.5191455523120325,6.1327282069023035,1.0035239458084106,-3.2609522978412073
1708433813.7404397,-2.153709650039673,-1.335067094569542,-2.519109551106588,6.132770764618673,1.0035477876663208,-3.2609732786761683
1708433813.7424302,-2.1536972522735596,-1.335078940992691,-2.5191202799426478,6.132714020996847,1.003594160079956,-3.2609687487231653
1708433813.7444372,-2.1536805629730225,-1.3350334030440827,-2.5191336313830774,6.132689106255331,1.0035358667373657,-3.260961357747213
1708433813.74644,-2.153655767440796,-1.3350659173778077,-2.5191546122180384,6.1327316639717,1.0035314559936523,-3.2609732786761683
1708433813.7484357,-2.1536269187927246,-1.3350745898536225,-2.5191004912005823,6.132702219277181,1.0035477876663208,-3.260961357747213
1708433813.7504447,-2.1536478996276855,-1.3350420755198975,-2.5191124121295374,6.132698642998495,1.0035971403121948,-3.2609315554248255
1708433813.7524312,-2.1536688804626465,-1.3350868386081238,-2.5191577116595667,6.132715332299032,1.0035641193389893,-3.260965887700216
1708433813.7544286,-2.1536478996276855,-1.3350745898536225,-2.5191291014300745,6.132628905564108,1.0035762786865234,-3.260961357747213
1708433813.756443,-2.1536645889282227,-1.335030199294426,-2.5191667715655726,6.132588970452108,1.0035268068313599,-3.260949436818258
1708433813.7584279,-2.1536312103271484,-1.33503773928199,-2.5191577116595667,6.132593261986532,1.0036016702651978,-3.260982100163595
1708433813.7604303,-2.153567314147949,-1.3350745898536225,-2.5191124121295374,6.13254069068984,1.003592610359192,-3.2609897295581263
1708433813.7624424,-2.1536083221435547,-1.3350420755198975,-2.5191577116595667,6.132557260781088,1.0035747289657593,-3.260974947606222
1708433813.7644534,-2.15362548828125,-1.33505833268676,-2.5191531817065638,6.132565963059225,1.00360906124115,-3.260965887700216
1708433813.7664373,-2.153575897216797,-1.33505833268676,-2.5191245714770716,6.132509338646688,1.00357186794281,-3.260949436818258
1708433813.7684433,-2.153620958328247,-1.3350626689246674,-2.5191381613360804,6.1324524758155725,1.0036379098892212,-3.260961357747213
1708433813.7704477,-2.1536011695861816,-1.3350214821151276,-2.5191455523120325,6.132441746979513,1.0036334991455078,-3.260982100163595
1708433813.7724564,-2.15362548828125,-1.3350833666375657,-2.5192204157458704,6.132465827256002,1.003636360168457,-3.26099402109255
1708433813.7744415,-2.1535634994506836,-1.335034580235817,-2.5191245714770716,6.132429826050558,1.0036319494247437,-3.2609406153308313
1708433813.7764335,-2.153527021408081,-1.3350214821151276,-2.5191786924945276,6.132401215821066,1.0036470890045166,-3.2609732786761683
1708433813.7784424,-2.153524398803711,-1.3350420755198975,-2.51918608347048,6.1323819039161584,1.00365149974823,-3.2609718481646937
1708433813.78044,-2.1535444259643555,-1.3350214821151276,-2.5191577116595667,6.132264244347372,1.0036962032318115,-3.26099402109255
1708433813.782432,-2.153520107269287,-1.3350171756795426,-2.5191577116595667,6.13228057602004,1.0036872625350952,-3.2609525362597864
1708433813.7844398,-2.1535286903381348,-1.3351041686585923,-2.519193474446432,6.132311451226034,1.0037246942520142,-3.261010471974508
1708433813.7864652,-2.153512954711914,-1.3350745898536225,-2.519198004399435,6.132241475373068,1.00376558303833,-3.261026922856466
1708433813.7885065,-2.1534969806671143,-1.3350420755198975,-2.519226376210348,6.132229673653402,1.0037922859191895,-3.2609806696521204
1708433813.790528,-2.1534318923950195,-1.335025818353035,-2.519226376210348,6.132226097374716,1.003775954246521,-3.2610016504870813
1708433813.79247,-2.1534290313720703,-1.3350420755198975,-2.519200865422384,6.132108437805929,1.0038702487945557,-3.2609971205340784
1708433813.7944806,-2.153433322906494,-1.3349608790925522,-2.5192297140704554,6.13212143161849,1.0038944482803345,-3.2610424200641077
1708433813.7964587,-2.153392791748047,-1.335078940992691,-2.5192506949054163,6.132138955384054,1.0038478374481201,-3.2609925905810755
1708433813.7984452,-2.1534059047698975,-1.3349973124316712,-2.5192700068103235,6.132028806000509,1.003884196281433,-3.2610660235034388
1708433813.8004737,-2.1533284187316895,-1.335046411757805,-2.519294087086813,6.132067310601034,1.003928780555725,-3.2610469500171106
1708433813.80245,-2.153319835662842,-1.3350594204715271,-2.519310537968771,6.132033216744222,1.0039619207382202,-3.261028830205099
1708433813.8045533,-2.153313159942627,-1.3350301694921036,-2.5192728678332728,6.132038819580831,1.0039812326431274,-3.261069122944967
1708433813.8064628,-2.1533262729644775,-1.3350136143020173,-2.51933461824526,6.13196228721694,1.0040265321731567,-3.2610483805285853
1708433813.8084826,-2.1532320976257324,-1.3350092482617875,-2.519322697316305,6.131938683777609,1.004012942314148,-3.261081043873922
1708433813.8104453,-2.153257369995117,-1.3349813681891938,-2.51933461824526,6.131951796799459,1.0040191411972046,-3.2611048857318323
1708433813.8124375,-2.153188705444336,-1.3350265634110947,-2.5193913618670862,6.131902682572164,1.0041013956069946,-3.261120144520895
1708433813.8144314,-2.1531615257263184,-1.3350103211453934,-2.5193539301501673,6.131883966713705,1.0041630268096924,-3.26113206544985
1708433813.816433,-2.153136730194092,-1.3349987280419846,-2.5193567911731165,6.131777393608846,1.0041000843048096,-3.261193339024679
1708433813.8184392,-2.1531312465667725,-1.3349658858827134,-2.5193687121020716,6.1317118284995935,1.0041406154632568,-3.2612250486956995
1708433813.820432,-2.153048515319824,-1.3349987131408234,-2.5193973223315638,6.131734716683187,1.0042141675949097,-3.2612817923175257
1708433813.822448,-2.1530168056488037,-1.3349378418973465,-2.519421402608053,6.131673681526937,1.0042096376419067,-3.2613099257098597
1708433813.824452,-2.1530120372772217,-1.3349583905986329,-2.5194738546954554,6.131594168930807,1.0042591094970703,-3.26129657426943
1708433813.8264322,-2.1530022621154785,-1.3349215251258393,-2.5194903055774134,6.13152431228713,1.0042951107025146,-3.261346403752462
1708433813.8284376,-2.1529645919799805,-1.3349061471274872,-2.5194812456714075,6.131547438889303,1.0043104887008667,-3.2613611857043665
1708433813.8304281,-2.152937889099121,-1.3349147898009797,-2.5195425192462366,6.131474363594808,1.004341721534729,-3.2613895575152796
1708433813.8324783,-2.152942180633545,-1.334901751284935,-2.51955753961672,6.131500828057089,1.004341721534729,-3.261375967656271
1708433813.8344266,-2.152893543243408,-1.334923432474472,-2.5195937792407435,6.1312845824058435,1.0043824911117554,-3.2614241282092493
1708433813.8364675,-2.1528170108795166,-1.3348735880902787,-2.5196638743029993,6.131294715195455,1.0043931007385254,-3.2614525000201624
1708433813.838434,-2.1528501510620117,-1.334922419195511,-2.519712034855978,6.131223904877462,1.0044503211975098,-3.261509720479147
1708433813.84044,-2.1527938842773438,-1.3348671358874817,-2.5196896235095423,6.131162869721212,1.0044740438461304,-3.261582676564352
1708433813.8424537,-2.1527347564697266,-1.334871531730034,-2.5197346846209925,6.1310706017311,1.0045267343521118,-3.2616191546069544
1708433813.844432,-2.152705669403076,-1.3348335784724732,-2.5197704474078577,6.13099085071639,1.0045417547225952,-3.2616429964648646
1708433813.8464258,-2.152674674987793,-1.3348671209863205,-2.519703213368551,6.130893814354696,1.004556655883789,-3.2616940180407923
1708433813.8484669,-2.1526427268981934,-1.334854082470276,-2.51976448694338,6.130863415985861,1.0046378374099731,-3.261744562779562
1708433813.8504589,-2.1526217460632324,-1.3348094087890168,-2.5198217074023646,6.130742656975546,1.004715919494629,-3.2618253866778772
1708433813.85247,-2.1525421142578125,-1.3348473620465775,-2.519841019307272,6.130676018982687,1.0047473907470703,-3.2618449370013636
1708433813.854439,-2.152498245239258,-1.334843010907509,-2.5198500792132776,6.130574691086569,1.0047911405563354,-3.261946503316061
1708433813.856481,-2.1524407863616943,-1.3348310750773926,-2.519852940236227,6.130490529328146,1.004834771156311,-3.2619577089892786
1708433813.8584497,-2.1524667739868164,-1.3348061603358765,-2.519877020512716,6.130435216217794,1.0048996210098267,-3.2620201746570032
1708433813.860474,-2.1524479389190674,-1.334794284110405,-2.5199101606952112,6.130315291672506,1.0049549341201782,-3.2621129194842737
1708433813.8624613,-2.1523513793945312,-1.3348354560187836,-2.5199626127826136,6.13026117065505,1.005027174949646,-3.2622178236590784
1708433813.8644376,-2.15226149559021,-1.3348028671792527,-2.5199821631061,6.130132305413046,1.005096197128296,-3.2622764746295374
1708433813.866453,-2.152238607406616,-1.3347986352494736,-2.519989554082052,6.13008879402236,1.005135416984558,-3.262372080479757
1708433813.8684678,-2.1521949768066406,-1.3347908121398468,-2.5200513044940394,6.129943954735555,1.0052286386489868,-3.2624805609332483
1708433813.8704717,-2.15217924118042,-1.3347585660270234,-2.52004057565798,6.129855859070577,1.0052181482315063,-3.262688461934225
1708433813.8725588,-2.152111053466797,-1.334758536224701,-2.5200615564929407,6.129801738053121,1.005323052406311,-3.262696091328756
1708433813.87445,-2.1520590782165527,-1.334725708966591,-2.520085398350851,6.129635917931356,1.0053834915161133,-3.262812678013937
1708433813.876469,-2.1519956588745117,-1.334783450966217,-2.5201290289508265,6.129601108818807,1.005439043045044,-3.2629547754870813
1708433813.8784502,-2.1519722938537598,-1.3347430688193818,-2.5201738516436976,6.129490124970236,1.0055243968963623,-3.263080898915426
1708433813.880434,-2.151916027069092,-1.3347993952086945,-2.5202022234546106,6.129349458008566,1.005568504333496,-3.263216797505514
1708433813.882451,-2.1518564224243164,-1.3348036718419571,-2.520184342061178,6.129262435227194,1.0056734085083008,-3.2633939425097864
1708433813.8844488,-2.1517350673675537,-1.3348080974868317,-2.5202954451190394,6.129105555802145,1.0056763887405396,-3.263516966496603
1708433813.8864758,-2.151703119277954,-1.3347473752549668,-2.5202940146075647,6.129025923996725,1.005781650543213,-3.263644043599264
1708433813.888502,-2.1516482830047607,-1.334698350434639,-2.520355288182394,6.128943192749777,1.0058250427246094,-3.2638254801379603
1708433813.8904483,-2.1515893936157227,-1.3346701723388215,-2.5203824679004114,6.128822195320883,1.005852460861206,-3.2639530340777796
1708433813.8924792,-2.151496648788452,-1.3346908402493973,-2.5204394499408167,6.128714430123129,1.0059994459152222,-3.264111344014303
1708433813.8944576,-2.1514523029327393,-1.3346831959537049,-2.520446840916769,6.128529417305746,1.0060460567474365,-3.2643089930163782
1708433813.8964384,-2.1514134407043457,-1.334715799694397,-2.5204618612872522,6.128449785500326,1.0061180591583252,-3.2645252386676233
1708433813.89844,-2.151353359222412,-1.3347168129733582,-2.5204981009112757,6.128366935044088,1.00618577003479,-3.264700476323263
1708433813.9004579,-2.1512763500213623,-1.3346561801484604,-2.52053672472109,6.128214585572042,1.0062536001205444,-3.264883104954855
1708433813.9024744,-2.151172399520874,-1.3346344840577622,-2.520532194768087,6.1280696270759485,1.0063540935516357,-3.2650957743274134
1708433813.9044464,-2.1511335372924805,-1.3346106571010132,-2.5205848852740687,6.12798701503829,1.006405234336853,-3.2653489748584192
1708433813.906463,-2.1510705947875977,-1.3346355867436905,-2.520654026662008,6.127834427147665,1.0065191984176636,-3.2655673662768763
1708433813.908441,-2.151010513305664,-1.3346486550620575,-2.5206688086139124,6.127747285157003,1.0065947771072388,-3.265848938618795
1708433813.9104621,-2.1509265899658203,-1.3345800352147599,-2.520749870930807,6.1276763556297205,1.0066670179367065,-3.2660816351519983
1708433813.9124706,-2.150829553604126,-1.3345475506833573,-2.520769182835714,6.127508508950033,1.006746768951416,-3.266320768986837
1708433813.9144485,-2.1507580280303955,-1.3345183295062562,-2.5208128134356897,6.127368438034811,1.006823182106018,-3.2665517965899866
1708433813.9164758,-2.150686502456665,-1.334568129186966,-2.520919148121969,6.127142894058981,1.006907343864441,-3.266799275075094
1708433813.9184418,-2.150618553161621,-1.3345356446555634,-2.52089506784548,6.126969563751974,1.006988525390625,-3.2670865694629114
1708433813.9204247,-2.150538206100464,-1.334490866666176,-2.520965878163473,6.126887905388632,1.007026195526123,-3.267390553151266
1708433813.9224856,-2.1504909992218018,-1.3344876927188416,-2.5209971109973353,6.12671576717452,1.007156491279602,-3.2677024046527308
1708433813.92445,-2.1504039764404297,-1.3344711375287552,-2.521094624196188,6.126613127976217,1.0072271823883057,-3.2680228392230433
1708433813.9264395,-2.1503305435180664,-1.33453685164962,-2.5211082140551966,6.126566397934713,1.0072917938232422,-3.268330160771505
1708433813.92845,-2.150271415710449,-1.3344920587590714,-2.521186415349142,6.1263407347495935,1.0074092149734497,-3.2686622778521937
1708433813.9304302,-2.1502039432525635,-1.3344639253667374,-2.521201197301046,6.1262186644370935,1.0074437856674194,-3.2689576784717005
1708433813.9324617,-2.150144100189209,-1.334468202,-2.5212371985064905,6.125997173577108,1.0075520277023315,-3.269312922154562
1708433813.9344404,-2.150117874145508,-1.3344356429627915,-2.521313730870382,6.125893819123068,1.0076165199279785,-3.2696524302112024
1708433813.9364443,-2.149996519088745,-1.3344606024077912,-2.5213406721698206,6.125747072487631,1.0077412128448486,-3.270045344029562
1708433813.9384327,-2.149928569793701,-1.3343942177346726,-2.521385733281271,6.1255613444145105,1.0078061819076538,-3.27040940919985
1708433813.940438,-2.149811267852783,-1.3344202649644394,-2.5214410463916224,6.125449406891622,1.0079306364059448,-3.2708075682269495
1708433813.9424727,-2.149686813354492,-1.3344825220159073,-2.5214815775500696,6.125291693001547,1.007981777191162,-3.271236244832174
1708433813.9444532,-2.1496734619140625,-1.3343843084624787,-2.52159554163088,6.125085222512045,1.008061408996582,-3.2716105620013636
1708433813.946455,-2.149601936340332,-1.334437758927681,-2.5216015020953577,6.124950277596273,1.0081501007080078,-3.2720628420459192
1708433813.948452,-2.149533748626709,-1.3343636107495804,-2.5216406027423304,6.124790417938986,1.0082463026046753,-3.2725349108325403
1708433813.9504461,-2.149444580078125,-1.3344051998904725,-2.5216644446002405,6.124667393952169,1.0082961320877075,-3.2729302088366907
1708433813.9524558,-2.1494133472442627,-1.334360660319664,-2.5216975847827356,6.12447868564681,1.0083696842193604,-3.273435417805807
1708433813.9544437,-2.149311065673828,-1.3343159270337601,-2.5217228571521204,6.124359953194418,1.008477807044983,-3.273841921483175
1708433813.956456,-2.1492340564727783,-1.3342952591231843,-2.5218549410449427,6.124158012657919,1.0085949897766113,-3.274362866078512
1708433813.9584413,-2.149155616760254,-1.3343365651420136,-2.521914784108297,6.124065029412069,1.008650302886963,-3.274773184453146
1708433813.9604428,-2.1490797996520996,-1.3343127530864258,-2.5219255129443567,6.123879539757528,1.0088005065917969,-3.275231424962179
1708433813.9624429,-2.149020195007324,-1.3342875254205246,-2.521923844014303,6.123715030937948,1.0088385343551636,-3.2757485548602503
1708433813.964461,-2.148930311203003,-1.3342918467572709,-2.5219884554492396,6.123654591828146,1.0089887380599976,-3.276192013417379
1708433813.966463,-2.1487865447998047,-1.3343258214047928,-2.5220542589770716,6.123453962593832,1.0090235471725464,-3.2766762415515345
1708433813.968461,-2.148707151412964,-1.3342605096152802,-2.5221262613879603,6.123276102333822,1.0091780424118042,-3.2771793047534388
1708433813.970496,-2.148700714111328,-1.3342767816833039,-2.5221579710589808,6.123166429787435,1.00920832157135,-3.2776973883258265
1708433813.9724965,-2.148587465286255,-1.334285483961441,-2.522189442311422,6.122969138413229,1.009320616722107,-3.278275791798727
1708433813.9744725,-2.148500442504883,-1.3342853796533127,-2.5222583452807825,6.122850525170126,1.0094170570373535,-3.278813187276022
1708433813.976454,-2.148399591445923,-1.3342041683248063,-2.522273365651266,6.122673618584432,1.009496808052063,-3.2792962233172815
1708433813.9784408,-2.1482954025268555,-1.3341962409070511,-2.5223379770862024,6.122559535294332,1.009567379951477,-3.279865328465597
1708433813.980442,-2.148195743560791,-1.3342496466687699,-2.522376839314596,6.1223580715949915,1.0097267627716064,-3.280416790639059
1708433813.9824693,-2.148181438446045,-1.3342541319182892,-2.5224292914019983,6.122197973519125,1.0097689628601074,-3.2809346357928675
1708433813.9844596,-2.148118495941162,-1.3342290979674836,-2.522423330937521,6.122067677765646,1.0098650455474854,-3.281494919453756
1708433813.9864783,-2.1479694843292236,-1.334135280256607,-2.522534433995382,6.121968614846029,1.0099867582321167,-3.2820075193988245
1708433813.988507,-2.14792537689209,-1.334234596495964,-2.5225659052478235,6.121722686081686,1.0100288391113281,-3.282595936452047
1708433813.990557,-2.147866725921631,-1.334160567527153,-2.5226169268237513,6.121617543488302,1.010113000869751,-3.283208672200338
1708433813.9924607,-2.14776611328125,-1.334197388296463,-2.5226739088641565,6.12149344661788,1.010267734527588,-3.2837680021869105
1708433813.99445,-2.147618055343628,-1.3342224073461075,-2.522672239934103,6.121350395470419,1.0103007555007935,-3.2843712011920374
1708433813.9964867,-2.1475579738616943,-1.3341323298266907,-2.5227368513690394,6.121173846512594,1.0104103088378906,-3.2849376837359827
1708433813.9984374,-2.1474545001983643,-1.3341439676335831,-2.5227564016925257,6.1210152981574915,1.01044499874115,-3.285583798085348
1708433814.0004666,-2.147329330444336,-1.3341411364129563,-2.522829834614889,6.120904671936788,1.010547161102295,-3.2861672083484095
1708433814.0024645,-2.147331714630127,-1.3341324043324967,-2.5228071848498743,6.120716321259298,1.0106267929077148,-3.2867775599109095
1708433814.0044422,-2.1471993923187256,-1.3341525954059144,-2.522921387349264,6.120520460396566,1.010703682899475,-3.2874138990985315
1708433814.006458,-2.1470861434936523,-1.3341323894313355,-2.5229647795306605,6.120373713761129,1.0107262134552002,-3.288168732319967
1708433814.008451,-2.147035837173462,-1.3341366809657593,-2.5230262915240687,6.120233166008749,1.0108102560043335,-3.2888456026660364
1708433814.0104327,-2.146960496902466,-1.3341612976840516,-2.523050133381979,6.120034682541647,1.0108871459960938,-3.2894755045520228
1708433814.0124362,-2.146881103515625,-1.3341656637242814,-2.5231176058398646,6.1199542162712,1.0109831094741821,-3.290151898060934
1708433814.0144534,-2.14674711227417,-1.3341453832438965,-2.523153845463888,6.1197805283363245,1.01105535030365,-3.290842596684591
1708433814.016444,-2.14666748046875,-1.334158481364586,-2.5232184568988245,6.119623887329855,1.0111019611358643,-3.291462008153097
1708433814.0184393,-2.146596670150757,-1.334137887959816,-2.5232823530780237,6.119415867119589,1.0112369060516357,-3.2921410242663782
1708433814.0204556,-2.146538257598877,-1.3341006201556702,-2.5233140627490442,6.119279849320211,1.0112417936325073,-3.2928646246539515
1708433814.0224483,-2.1463963985443115,-1.3341050458005448,-2.523353163396017,6.119129884033956,1.011387586593628,-3.293466869984762
1708433814.0244548,-2.1463167667388916,-1.3341168773225327,-2.5234220663653772,6.118957030564108,1.0115165710449219,-3.2942290941821497
1708433814.0264406,-2.1462581157684326,-1.3341125410846253,-2.5234251658069056,6.118761527329244,1.0115841627120972,-3.294934097920553
1708433814.0284374,-2.1461102962493896,-1.3341378432563324,-2.5235045591937464,6.118663894921102,1.0116804838180542,-3.2955878416644495
1708433814.0304418,-2.146070957183838,-1.3341082793525239,-2.5235944429980677,6.11852906921462,1.0117720365524292,-3.2962830702411097
1708433814.032452,-2.1459219455718994,-1.3341570657542725,-2.523581091557638,6.118352758675375,1.011839747428894,-3.297011677418844
1708433814.034438,-2.1458065509796143,-1.3340920817903061,-2.5236364046679896,6.118197667389669,1.0119166374206543,-3.297687355672018
1708433814.0364397,-2.1457157135009766,-1.3341613125852128,-2.5237143675433558,6.1180691597755334,1.012021541595459,-3.298431460057394
1708433814.0385036,-2.145671844482422,-1.3341570657542725,-2.5237656275378626,6.117896902352133,1.0120772123336792,-3.2991374174701136
1708433814.0404673,-2.1455271244049072,-1.3341411513141175,-2.523780409489767,6.117771494179525,1.0121238231658936,-3.2998772303210657
1708433814.0424402,-2.1453752517700195,-1.3342191886952897,-2.5238330999957483,6.117594826012411,1.0122169256210327,-3.3006752173053187
1708433814.0444617,-2.1452958583831787,-1.3341482889703293,-2.523902241383688,6.117415654450216,1.0122965574264526,-3.301408831273214
1708433814.046437,-2.1451306343078613,-1.3341692251018067,-2.5239575544940394,6.117264616280355,1.0123987197875977,-3.302091185246603
1708433814.0484595,-2.145080804824829,-1.3341898930123826,-2.523979965840475,6.11713873127059,1.0124530792236328,-3.302879873906271
1708433814.0504432,-2.1448798179626465,-1.3341439825347443,-2.5240774790393274,6.116904485016622,1.0125539302825928,-3.303627316151754
1708433814.0524507,-2.1447763442993164,-1.3342378598502656,-2.524109188710348,6.11679373958663,1.0126349925994873,-3.3044655958758753
1708433814.0544524,-2.1446940898895264,-1.334179939036705,-2.524194304143087,6.116611349373617,1.0127341747283936,-3.3052025477038782
1708433814.0564651,-2.1445462703704834,-1.334237815146782,-2.5242376963244837,6.1164177534873865,1.0128138065338135,-3.3060150782214563
1708433814.058458,-2.1444098949432373,-1.3342214983752747,-2.5242725054370325,6.116242635041036,1.0129188299179077,-3.3068605105029505
1708433814.060457,-2.144291400909424,-1.3342572164586564,-2.524381701146261,6.116070854454794,1.0130196809768677,-3.3075857798205774
1708433814.0624552,-2.1441116333007812,-1.3343233329108735,-2.52439529100527,6.115956771164694,1.0130916833877563,-3.308394257222311
1708433814.0644763,-2.143934965133667,-1.3342929941466828,-2.5244975725757044,6.115728127747335,1.013216257095337,-3.309247080479757
1708433814.0664606,-2.1438190937042236,-1.334337742333748,-2.5245452562915247,6.1155727980430505,1.0132509469985962,-3.309965197240011
1708433814.068443,-2.143700361251831,-1.3343171787313004,-2.5246413389789026,6.11545871475295,1.0132975578308105,-3.310761038457052
1708433814.0704541,-2.1435108184814453,-1.3343487542918702,-2.524684731160299,6.115303385048666,1.0134357213974,-3.311458174382345
1708433814.0724475,-2.1433680057525635,-1.334344432955124,-2.524743143712179,6.115045177727499,1.0134748220443726,-3.312218252812521
1708433814.0744543,-2.1432607173919678,-1.3343592596105118,-2.5248525778399866,6.114903199463644,1.013649344444275,-3.3129635492907923
1708433814.076442,-2.1430814266204834,-1.3344083589366456,-2.524926249180929,6.114720809250631,1.013724446296692,-3.3137033621417444
1708433814.078461,-2.1429429054260254,-1.3344408732703705,-2.525022093449728,6.114560711174764,1.0138462781906128,-3.3144243399249476
1708433814.0804362,-2.1427977085113525,-1.3344606173089524,-2.5250774065600794,6.114426243096151,1.0139360427856445,-3.315169159566061
1708433814.082436,-2.1426055431365967,-1.334509403710701,-2.525137726460592,6.114213692932882,1.0140939950942993,-3.31590181985964
1708433814.0844376,-2.1424500942230225,-1.3345368218472977,-2.52521258989443,6.114059912949362,1.014218807220459,-3.3166123072253626
1708433814.0864627,-2.142253875732422,-1.3345887672952195,-2.5252516905414026,6.113814937859335,1.0143181085586548,-3.317331854497091
1708433814.088506,-2.1420464515686035,-1.3345594120076676,-2.5253971258746546,6.113608467369833,1.014421820640564,-3.318094317113058
1708433814.0904667,-2.1419191360473633,-1.3345952343991776,-2.5254948774920862,6.1134856818015955,1.014513373374939,-3.3188043276416224
1708433814.0924299,-2.1417531967163086,-1.3346561205438157,-2.52555758157839,6.113257038384237,1.0146428346633911,-3.319495979939596
1708433814.0944803,-2.141580820083618,-1.334695191388466,-2.5256248156176966,6.113028991013326,1.0147842168807983,-3.3202531973468226
1708433814.096441,-2.141369581222534,-1.3347355139306565,-2.5257344881640833,6.112880217819967,1.0148876905441284,-3.3209639231311243
1708433814.0984697,-2.1411850452423096,-1.334852860575058,-2.5257931391345423,6.112581717758932,1.014991044998169,-3.321794335042135
1708433814.1004555,-2.1409335136413574,-1.33481918395076,-2.5259535948382776,6.112443911820211,1.015189528465271,-3.32251745859255
1708433814.102446,-2.1406686305999756,-1.334862769847252,-2.5260165373431605,6.112254130631246,1.0152875185012817,-3.323214832936422
1708433814.1044643,-2.1404504776000977,-1.3349920225194474,-2.5261741320239466,6.111984956055441,1.0154318809509277,-3.323952023183004
1708433814.1064756,-2.140230894088745,-1.335019053225853,-2.5262699762927454,6.111799585610189,1.0155818462371826,-3.3246925512896937
1708433814.1084597,-2.139979124069214,-1.3350060743144532,-2.5264185110675257,6.111563670426168,1.0157157182693481,-3.32533842722048
1708433814.1104593,-2.13974928855896,-1.3351594072631379,-2.5265219847308558,6.111339318543234,1.0158735513687134,-3.326022211705343
1708433814.1124387,-2.1394777297973633,-1.3352192503264924,-2.5266674200641077,6.111153709679403,1.0160585641860962,-3.3266261259662073
1708433814.114462,-2.139180898666382,-1.3352625531009217,-2.5268021265613,6.110900032311239,1.0162506103515625,-3.327355686818258
1708433814.1164985,-2.1388814449310303,-1.335362748508789,-2.5269628206836146,6.110705721169271,1.0164399147033691,-3.3280516306506556
1708433814.1184506,-2.138633966445923,-1.3353854578784485,-2.5271125475512903,6.1104785082633875,1.0165752172470093,-3.328735653554098
1708433814.1204414,-2.1382923126220703,-1.3354529005340119,-2.5272865931140345,6.110226976662435,1.0167962312698364,-3.329416338597433
1708433814.122465,-2.137960195541382,-1.3355441850474854,-2.527471367512838,6.110028612404623,1.0169601440429688,-3.3300541082965296
1708433814.124494,-2.1376044750213623,-1.3356855821660538,-2.5276346842395228,6.10978792884902,1.0171617269515991,-3.330705229436056
1708433814.126454,-2.1372642517089844,-1.3357899498990555,-2.527778450642721,6.109548675804891,1.0173742771148682,-3.331364456807272
1708433814.1284904,-2.1368653774261475,-1.3358161610415955,-2.5279210249530237,6.109253155976095,1.0175954103469849,-3.3320534865008753
1708433814.1304846,-2.136502504348755,-1.3359886419824143,-2.5281265417682093,6.1089703915412805,1.0178000926971436,-3.332668129597799
1708433814.1324584,-2.1361000537872314,-1.336068258886673,-2.528351370488302,6.108598220139303,1.0180072784423828,-3.3332625071154993
1708433814.1344593,-2.1357367038726807,-1.336163045173027,-2.528522555028097,6.1083199856574915,1.0182404518127441,-3.3339877764331263
1708433814.1364589,-2.1353135108947754,-1.3363803339055558,-2.528745953236715,6.108000147133627,1.0184974670410156,-3.334607187901632
1708433814.13847,-2.1349077224731445,-1.336495579486229,-2.528984610234396,6.107690679817953,1.0187736749649048,-3.335229460393087
1708433814.1404603,-2.1344637870788574,-1.3365944486907502,-2.529179398213522,6.107306825905599,1.0190056562423706,-3.3358081022845667
1708433814.1424618,-2.1340527534484863,-1.3367333275130768,-2.529423538838522,6.107028472214498,1.0192577838897705,-3.3364816347705286
1708433814.1444557,-2.1336510181427,-1.3368854981711884,-2.529663864766256,6.1067025540168665,1.019529938697815,-3.3371382395373743
1708433814.146454,-2.1331355571746826,-1.337008537059166,-2.5299020449267786,6.106330859452047,1.0198076963424683,-3.3376882711993616
1708433814.148469,-2.1326894760131836,-1.3372213554433365,-2.530163113270895,6.105975019722738,1.0201623439788818,-3.338285032902853
1708433814.1504717,-2.132122278213501,-1.3374086779407044,-2.530480925236837,6.105611550598898,1.020474910736084,-3.338867966328756
1708433814.152456,-2.131664276123047,-1.3375889521888276,-2.530731503163473,6.105193483620443,1.020811915397644,-3.339451853428976
1708433814.1544573,-2.1310768127441406,-1.337739573126175,-2.5310149828540247,6.104786622315206,1.021181583404541,-3.3400426546679896
1708433814.156649,-2.1305463314056396,-1.3379565191319962,-2.5313313643084925,6.104405271797933,1.0215002298355103,-3.340576235448019
1708433814.158453,-2.1299877166748047,-1.3381431114724656,-2.531637493764059,6.103990065842428,1.021813154220581,-3.341219965611593
1708433814.160459,-2.129453182220459,-1.3383760464242478,-2.5319445768939417,6.103644358902731,1.0221658945083618,-3.3417254129992884
1708433814.1624582,-2.128838300704956,-1.338533417587616,-2.5322192350970667,6.10319339016036,1.0225238800048828,-3.342219893132345
1708433814.1644733,-2.1282601356506348,-1.3387157928994675,-2.532599751149313,6.1027341959770105,1.0228992700576782,-3.342797581349508
1708433814.1664796,-2.127624988555908,-1.3389683377793808,-2.532919470463888,6.102246510773458,1.0233007669448853,-3.343328301106588
1708433814.1684499,-2.126957893371582,-1.3392281544259568,-2.5333333651172083,6.101698744087972,1.0236762762069702,-3.343766514454977
1708433814.1705024,-2.126283645629883,-1.3394539070180436,-2.5336976687060755,6.101212250977316,1.0241634845733643,-3.3442464510547083
1708433814.1724722,-2.125612735748291,-1.3397826266339798,-2.534081522618429,6.100747573166647,1.0245916843414307,-3.344693724309103
1708433814.174461,-2.1248650550842285,-1.3400393587401886,-2.5344656149493616,6.100261676102438,1.0250214338302612,-3.345168177281515
1708433814.1764712,-2.1242175102233887,-1.3402727407268067,-2.534931723271505,6.099703180580892,1.0254451036453247,-3.345635239277975
1708433814.178448,-2.123445987701416,-1.3404911917499085,-2.535306517277853,6.0992082236106775,1.025956153869629,-3.34611946741213
1708433814.1804621,-2.122694253921509,-1.3408037585071106,-2.5356817881213587,6.098722564965048,1.0264374017715454,-3.3465243021594446
1708433814.1824608,-2.1220102310180664,-1.3410892647555848,-2.5361138025866907,6.0981942293937585,1.0268367528915405,-3.346994463597433
1708433814.1844594,-2.121234655380249,-1.341380627160408,-2.5365172068225306,6.097647416382589,1.027260661125183,-3.3474424521075647
1708433814.1864605,-2.12039852142334,-1.341721088891365,-2.536938492451803,6.097069012909689,1.027747392654419,-3.347849432622091
1708433814.188469,-2.119568347930908,-1.3419959557107468,-2.537361447011129,6.096523630409994,1.0282422304153442,-3.3483291308032435
1708433814.1904778,-2.118745803833008,-1.3422248375466843,-2.5378618876086634,6.095897662430563,1.0287469625473022,-3.348701779042379
1708433814.1924424,-2.1178770065307617,-1.3425701421550293,-2.5383220354663294,6.095294344216146,1.0292900800704956,-3.349159304295675
1708433814.1944542,-2.1170108318328857,-1.3428871494582673,-2.538830582295553,6.094710218697347,1.0298997163772583,-3.3495126406299036
1708433814.1964717,-2.1160595417022705,-1.343223289852478,-2.5392521063434046,6.094063031464376,1.0303758382797241,-3.349900547658102
1708433814.198441,-2.1151692867279053,-1.343577341442444,-2.53983980814089,6.0933769820030115,1.0309531688690186,-3.350250307713644
1708433814.2004547,-2.1142287254333496,-1.3438885670951386,-2.5403016249286097,6.092745053559103,1.0314868688583374,-3.3505988756762903
1708433814.2024553,-2.113301992416382,-1.3442352277091523,-2.54081899324526,6.0920541165168665,1.0320881605148315,-3.3510239760028284
1708433814.2044535,-2.112321138381958,-1.3445535463145752,-2.541309420262472,6.091303336411276,1.0326365232467651,-3.351369921361105
1708433814.2064533,-2.111342430114746,-1.3449017417481919,-2.5418792406665247,6.090604769974508,1.0332725048065186,-3.351712767277853
1708433814.2084672,-2.1103076934814453,-1.345210076575615,-2.5424023310290735,6.0898955939109705,1.0338857173919678,-3.352083746586935
1708433814.2104483,-2.1092662811279297,-1.3456266087344666,-2.5429661909686487,6.089145290642538,1.0345675945281982,-3.3523531595813196
1708433814.2124822,-2.1082284450531006,-1.3459662956050416,-2.543522659932272,6.088409054070272,1.0351717472076416,-3.352757994328634
1708433814.2144625,-2.1071834564208984,-1.3463843625834961,-2.544103209172384,6.087597358017721,1.035825490951538,-3.3530154863940638
1708433814.2164426,-2.1060287952423096,-1.3467016977122803,-2.5446584860431116,6.086806642800131,1.0364460945129395,-3.3533759752856653
1708433814.2184427,-2.1049489974975586,-1.3471061897328873,-2.545266930256979,6.086041319161215,1.037149429321289,-3.353633467351095
1708433814.2204635,-2.103780746459961,-1.347542868261673,-2.5458906332599085,6.085155236511984,1.0377581119537354,-3.35392409959902
1708433814.2224486,-2.102599859237671,-1.3478875917247315,-2.546502176915304,6.084316837578573,1.0384466648101807,-3.3542569319354456
1708433814.2244642,-2.1015028953552246,-1.3482807588628312,-2.547143046055929,6.08347629287795,1.0391032695770264,-3.35452109972109
1708433814.2264633,-2.1003055572509766,-1.348654956822731,-2.5477879683123987,6.082636225014486,1.0398424863815308,-3.354767386113302
1708433814.228455,-2.099060535430908,-1.3491400939277192,-2.548483912144796,6.081778514176168,1.040610432624817,-3.355063025151388
1708433814.2304344,-2.0978214740753174,-1.3495503974011918,-2.549131695424215,6.080788481026449,1.0412927865982056,-3.3552892843829554
1708433814.2324722,-2.0966382026672363,-1.3500074756196518,-2.5498386065112513,6.079936134606161,1.0420480966567993,-3.3555730024920862
1708433814.2344494,-2.0953762531280518,-1.3503543150475998,-2.5505650679217737,6.078957426338949,1.0428224802017212,-3.3558648268329065
1708433814.2364516,-2.0941073894500732,-1.3508268010667344,-2.551244322453634,6.078103887825765,1.0435171127319336,-3.356083695088522
1708433814.238449,-2.0927846431732178,-1.3512641352466126,-2.5519514719592493,6.077117073326864,1.044258952140808,-3.3562734762774866
1708433814.240448,-2.091517925262451,-1.3517113786986847,-2.5527003447162073,6.076144444733419,1.044988751411438,-3.3565872351275843
1708433814.2425032,-2.090233325958252,-1.352157862191536,-2.5534818808185022,6.075095164566793,1.0458168983459473,-3.3568063418017786
1708433814.2444518,-2.0888352394104004,-1.3526034963181992,-2.5541418234454554,6.0740980980689905,1.0466593503952026,-3.3569751421557825
1708433814.2464392,-2.087442398071289,-1.3530656707337876,-2.5549009482013147,6.073016631394186,1.04743492603302,-3.357190195714132
1708433814.2485056,-2.0860209465026855,-1.3535124224475403,-2.5556536356555384,6.071984994202413,1.0482853651046753,-3.3574181238757532
1708433814.250452,-2.0846099853515625,-1.3540042352727433,-2.5564332644092005,6.070937979012289,1.0490710735321045,-3.3577075640307825
1708433814.2524433,-2.0831470489501953,-1.3545587968877335,-2.5572178999530237,6.069832074433126,1.0498439073562622,-3.3578642050372522
1708433814.2544496,-2.081691265106201,-1.354986236696579,-2.557967726384298,6.068723904877462,1.050644874572754,-3.3580971399890345
1708433814.2564394,-2.0802178382873535,-1.355534629230835,-2.5587995688067835,6.067680823593893,1.0515003204345703,-3.358304564152853
1708433814.2584527,-2.0787370204925537,-1.355996550326683,-2.5596700350390833,6.066606509476461,1.052314043045044,-3.3585038820849817
1708433814.2604482,-2.077192783355713,-1.356550933127739,-2.5604282061206263,6.065470087319174,1.0532163381576538,-3.3587165514575403
1708433814.2624478,-2.075711488723755,-1.3571397376111527,-2.561288658772604,6.0643300888831995,1.054126262664795,-3.3588369528399866
1708433814.2644784,-2.0740761756896973,-1.3576194953969498,-2.562148396168844,6.063245880394735,1.055086612701416,-3.3591066042529505
1708433814.2664435,-2.0724804401397705,-1.3581202638200303,-2.562988344823019,6.062062847405233,1.0560245513916016,-3.359232489262716
1708433814.268453,-2.0709116458892822,-1.3586927068284531,-2.563786331807272,6.060843455582418,1.0569382905960083,-3.3594375292407435
1708433814.2704504,-2.0693140029907227,-1.3592052322677155,-2.5647125879870813,6.059688794403829,1.0578693151474,-3.359566036854879
1708433814.272458,-2.067629098892212,-1.3597402435592194,-2.5655224959002894,6.058467614441671,1.0588027238845825,-3.3597591559039515
1708433814.2744575,-2.0660247802734375,-1.3603480768254776,-2.5664385000811976,6.057182180672445,1.0598152875900269,-3.3599348703967493
1708433814.2764459,-2.064317226409912,-1.3608121287873765,-2.567388121281759,6.055975305825033,1.0607694387435913,-3.360122028981344
1708433814.2784393,-2.0626537799835205,-1.3613834393075486,-2.568275753651754,6.054600107460775,1.0617671012878418,-3.3603032271014612
1708433814.2804527,-2.0609140396118164,-1.3619213712266465,-2.5692296663867396,6.053346740990438,1.062707781791687,-3.3604217211352747
1708433814.2824438,-2.0591342449188232,-1.3625120383552094,-2.5701141993152063,6.051975118904867,1.063727855682373,-3.36055571237673
1708433814.2844524,-2.0575103759765625,-1.363008366232254,-2.571047608052389,6.050660240441122,1.0646684169769287,-3.360725227986471
1708433814.2864335,-2.0557260513305664,-1.3636073482087632,-2.5720441977130335,6.049287903099813,1.0656541585922241,-3.360896889363424
1708433814.2884781,-2.053922414779663,-1.3641696286252518,-2.5729623476611536,6.047914731293478,1.0666851997375488,-3.3610573450671595
1708433814.2904568,-2.0520756244659424,-1.3647596103003998,-2.5739548842059534,6.04656873920516,1.0676761865615845,-3.3611882368670862
1708433814.2924478,-2.050292730331421,-1.3653619599393387,-2.5749474207507532,6.045078861504354,1.0687426328659058,-3.3612573782550257
1708433814.2944796,-2.0484702587127686,-1.3659030360034485,-2.5759404341327112,6.0436590788658044,1.0698045492172241,-3.361433808003561
1708433814.2967598,-2.046623945236206,-1.3664698463729401,-2.576836887990133,6.042238580971517,1.0707650184631348,-3.361615006123678
1708433814.2984805,-2.0447213649749756,-1.367046282892563,-2.5778937975512903,6.0408294079597376,1.0718610286712646,-3.3616600672351282
1708433814.300466,-2.0427663326263428,-1.367653490310051,-2.5789111296283167,6.039338338166036,1.072906494140625,-3.3618207613574427
1708433814.3024385,-2.040861129760742,-1.3682511311820527,-2.5800207296954554,6.037836658745565,1.074090838432312,-3.361941401158468
1708433814.3044653,-2.0388858318328857,-1.3688531529954453,-2.581064526234762,6.036446797638693,1.0751450061798096,-3.362051788960592
1708433814.306452,-2.036972999572754,-1.3694784951261063,-2.5820775667773646,6.034936058312216,1.0762717723846436,-3.3621800581561487
1708433814.308446,-2.034954786300659,-1.3701138210347672,-2.5831320921527308,6.03355752208785,1.0772987604141235,-3.362304751073019
1708433814.310465,-2.032930850982666,-1.3707604867270966,-2.584174458180563,6.032077300339498,1.0783406496047974,-3.3623419443713587
1708433814.3124583,-2.030961036682129,-1.3713124853423615,-2.58525520959963,6.030549752503195,1.0793190002441406,-3.3624706904040735
1708433814.3144493,-2.028916835784912,-1.3719467532685776,-2.5863500277148646,6.028969156533041,1.080439567565918,-3.3625648657428187
1708433814.3164675,-2.0268261432647705,-1.3726046842387696,-2.5875046888934534,6.027470814972677,1.0815651416778564,-3.3627219835864466
1708433814.3184633,-2.0247764587402344,-1.3732389968684693,-2.5885959307300013,6.025882351189413,1.0826624631881714,-3.362797562276022
1708433814.3204668,-2.022667407989502,-1.3738462936929245,-2.589731518422262,6.024262416153707,1.0838040113449097,-3.362840239201681
1708433814.3224561,-2.0205395221710205,-1.37449103713546,-2.5907917658435267,6.022618758469381,1.084854245185852,-3.362915102635519
1708433814.3244698,-2.018401622772217,-1.3751275998405,-2.5919631163226526,6.020942795067587,1.0859395265579224,-3.363094154988424
1708433814.3264623,-2.0161850452423096,-1.3758747440627594,-2.5930569807635706,6.0193225024040125,1.0870529413223267,-3.3631165663348597
1708433814.3284626,-2.0139830112457275,-1.376500592832901,-2.594257179890768,6.017646300583639,1.088222622871399,-3.3632171789752405
1708433814.3304582,-2.0118069648742676,-1.3771708321622391,-2.595471445714132,6.015980231552877,1.089369297027588,-3.363272730504171
1708433814.3324494,-2.0095605850219727,-1.3778345447829743,-2.596654478703634,6.014187800675192,1.0904977321624756,-3.363314453755514
1708433814.3344502,-2.0072860717773438,-1.3784687978080292,-2.5978453795062464,6.012619483261862,1.091573715209961,-3.3634141127215784
1708433814.336475,-2.005113363265991,-1.3790446829846879,-2.5989940802203577,6.010886180191793,1.092677354812622,-3.363499704991476
1708433814.3384733,-2.0029122829437256,-1.379737527375557,-2.6001527945147913,6.009201037674703,1.0938154458999634,-3.3635597864734095
1708433814.34045,-2.0007312297821045,-1.380332128410675,-2.601368014012472,6.007611858635702,1.0948915481567383,-3.363614861165182
1708433814.3424432,-1.9985425472259521,-1.3810074937394639,-2.602497402821676,6.005942570954122,1.0960066318511963,-3.3636794726001185
1708433814.3444574,-1.9964135885238647,-1.3816951972297211,-2.6036019960986536,6.004222738533773,1.0970227718353271,-3.36375600496401
1708433814.3464456,-1.9942198991775513,-1.382251889710762,-2.604802672063009,6.002616154938497,1.098160743713379,-3.3637731711017054
1708433814.3484702,-1.9920439720153809,-1.3829002243331452,-2.6059184710132044,6.000924455910482,1.0992597341537476,-3.363845411931173
1708433814.3504465,-1.9898697137832642,-1.3835795235684891,-2.6070359388934534,5.999316084175863,1.1003758907318115,-3.3638528029071253
1708433814.3524418,-1.9875837564468384,-1.3842256528190156,-2.6082447210894983,5.997679936676779,1.101456880569458,-3.363945547734396
1708433814.3544624,-1.9853792190551758,-1.384889469747879,-2.609398428593771,5.995955693512716,1.1025176048278809,-3.364019219075338
1708433814.3564546,-1.9831254482269287,-1.3855307561210175,-2.610570732747213,5.99435435512618,1.10359787940979,-3.3640740553485315
1708433814.3584588,-1.980947732925415,-1.3861899387887497,-2.6117029825793665,5.992732870369711,1.1047207117080688,-3.364129368458883
1708433814.3604448,-1.9787193536758423,-1.3869096648744126,-2.6128221193896692,5.991030800133505,1.1058419942855835,-3.3641160170184534
1708433814.3624427,-1.976511836051941,-1.3875528883985062,-2.6140242258654993,5.989320027619161,1.1069087982177734,-3.364225212727682
1708433814.3644593,-1.9742615222930908,-1.3882570725730439,-2.615182701741354,5.987702595978536,1.1080067157745361,-3.3642690817462366
1708433814.3664658,-1.972054123878479,-1.388868586426117,-2.616380039845602,5.985964524536886,1.109039306640625,-3.3643372694598597
1708433814.3685071,-1.9699060916900635,-1.3895647835782547,-2.617471996937887,5.984287488251486,1.1100839376449585,-3.3644004503833216
1708433814.3704581,-1.967739462852478,-1.3902401340058823,-2.618647877370016,5.9826135514076135,1.1111778020858765,-3.364394013081686
1708433814.3724685,-1.9655914306640625,-1.3909150522998353,-2.619831148778097,5.9809268591697595,1.1122556924819946,-3.364495817814962
1708433814.3744693,-1.963423252105713,-1.3915159416249772,-2.6210113207446497,5.979214656143942,1.1133472919464111,-3.3645857016192835
1708433814.376458,-1.9611643552780151,-1.3922028106502076,-2.622187916432516,5.977547037392416,1.1144452095031738,-3.3646534124957483
1708433814.3784592,-1.959000587463379,-1.3929071736386796,-2.623350445424215,5.9758620140846155,1.115517258644104,-3.364659372960226
1708433814.380449,-1.9567877054214478,-1.393564523463585,-2.6245418230639856,5.974146234780111,1.116634488105774,-3.3646865526782435
1708433814.38245,-1.954642653465271,-1.3941832345775147,-2.6256826559649866,5.972456323891439,1.1177932024002075,-3.364779774342672
1708433814.3844562,-1.9524675607681274,-1.3948675257018586,-2.6269012133227747,5.97087715843276,1.1188983917236328,-3.364835564290182
1708433814.3864508,-1.9502813816070557,-1.395500974064209,-2.62807280222048,5.969266640930929,1.1200270652770996,-3.3648913542376917
1708433814.3884828,-1.9480808973312378,-1.3961807203343888,-2.629232708607809,5.967722999840536,1.1210857629776,-3.36497146288027
1708433814.390472,-1.945868730545044,-1.3968444478562851,-2.630425278340475,5.966086852341451,1.1222368478775024,-3.3650525251971644
1708433814.3925102,-1.943631887435913,-1.3975327473929902,-2.631549898778097,5.964381444245138,1.1233210563659668,-3.3650711218463343
1708433814.3944812,-1.941413402557373,-1.3981594455293198,-2.6327365080462855,5.962772118836202,1.1244547367095947,-3.3651137987719935
1708433814.3964577,-1.9392201900482178,-1.3988219511559983,-2.633907143269674,5.961126076966085,1.125510334968567,-3.36515456834902
1708433814.3984761,-1.9370290040969849,-1.3994768571904679,-2.6350653807269495,5.959512698441305,1.1265535354614258,-3.3652518431292933
1708433814.4004521,-1.9348382949829102,-1.4001808327487488,-2.6362322012530726,5.957808840065756,1.1276556253433228,-3.365244452153341
1708433814.4024758,-1.9327037334442139,-1.400801033978798,-2.6373496691333216,5.956106292992391,1.1287407875061035,-3.365376059209005
1708433814.404447,-1.9305205345153809,-1.4014211905053635,-2.6384883562671106,5.9543648836906335,1.129856824874878,-3.36540133157839
1708433814.4064515,-1.9282736778259277,-1.4020575892976304,-2.6396337191211146,5.952751743584432,1.1309195756912231,-3.3654771486865442
1708433814.4084513,-1.9261226654052734,-1.4026524734548111,-2.6407654921161097,5.951093184738912,1.1320372819900513,-3.3654728571521204
1708433814.4104478,-1.9239492416381836,-1.4032841336778183,-2.6419764200793665,5.949405538826742,1.1331090927124023,-3.365565601979391
1708433814.4124985,-1.9217503070831299,-1.4039753538421174,-2.6430893580066126,5.947744357376852,1.1342768669128418,-3.3656049410449427
1708433814.414456,-1.919530987739563,-1.4045851689628144,-2.6443093458758753,5.9460641024406335,1.1354138851165771,-3.365676466618673
1708433814.4164877,-1.9172765016555786,-1.4052813810161133,-2.6454415957080286,5.944427478104391,1.1366126537322998,-3.3657289187060755
1708433814.4184544,-1.9150229692459106,-1.4058910769275208,-2.6465819517718714,5.942832457810201,1.1376796960830688,-3.3657761255847376
1708433814.4204485,-1.9128272533416748,-1.4065467727235337,-2.6477049032794397,5.941164600640096,1.138738989830017,-3.3658319155322474
1708433814.4224992,-1.9106452465057373,-1.4072428804687043,-2.648895565663473,5.939563143044271,1.1398167610168457,-3.3658726851092737
1708433814.4244714,-1.9084562063217163,-1.4078600865653534,-2.6500640551196497,5.93798707702712,1.1408820152282715,-3.36595589319338
1708433814.4264455,-1.9062672853469849,-1.408499465589859,-2.6512067953692835,5.93640290477828,1.1419810056686401,-3.365983311329977
1708433814.4284701,-1.904056191444397,-1.4091627162745972,-2.652339760457174,5.934725510865011,1.1430079936981201,-3.366007153187887
1708433814.4304695,-1.90188729763031,-1.4098024529269715,-2.653598133717672,5.933027255326071,1.1440502405166626,-3.3660951296435755
1708433814.4324825,-1.8996549844741821,-1.4104233545115967,-2.6547508875476282,5.931379782944479,1.145086407661438,-3.366159741078512
1708433814.4344482,-1.8974508047103882,-1.411053628926613,-2.6558974424945276,5.929832803993978,1.1460407972335815,-3.366232458745138
1708433814.4364495,-1.8952476978302002,-1.4117463690093537,-2.6570711771594446,5.928257214813986,1.146968960762024,-3.3662102858172815
1708433814.4384735,-1.8930751085281372,-1.4123562288335343,-2.6582303682910364,5.926716077118673,1.1479055881500244,-3.3662272135363978
1708433814.4404562,-1.890851616859436,-1.4130409967950364,-2.659395996724264,5.92517243602828,1.1488592624664307,-3.366303030644552
1708433814.442473,-1.888649582862854,-1.4136910897544404,-2.6605950037585657,5.923733341484823,1.1497653722763062,-3.366286818181173
1708433814.4444451,-1.886411428451538,-1.4143462789109726,-2.661738936101095,5.922226655274191,1.1505885124206543,-3.3662570158587855
1708433814.4465423,-1.8841149806976318,-1.4150080543807526,-2.662919584904806,5.920831429749288,1.151461124420166,-3.3662777582751673
1708433814.4484868,-1.88187575340271,-1.4157446038774033,-2.6640737692462366,5.9195077297981165,1.1523011922836304,-3.3662570158587855
1708433814.4504852,-1.879721999168396,-1.416320414548256,-2.6651607195483606,5.918151366501608,1.1530448198318481,-3.366265837346212
1708433814.452499,-1.877579927444458,-1.4170243752053757,-2.6663740316974085,5.916749107628622,1.153808832168579,-3.3662942091571253
1708433814.454466,-1.8753306865692139,-1.4177696716836472,-2.667520348225729,5.915455686836996,1.1546146869659424,-3.3662169615374964
1708433814.4564626,-1.8731689453125,-1.4183823627284546,-2.6686258951770228,5.914160835533895,1.155355453491211,-3.3661821524249476
1708433814.4584599,-1.8710246086120605,-1.4190409791520615,-2.669781510029928,5.912822830467977,1.1560629606246948,-3.3661285082446497
1708433814.4604511,-1.8687920570373535,-1.4197321248105546,-2.670919958745138,5.911657559662618,1.1567553281784058,-3.366081778203146
1708433814.4624882,-1.866641879081726,-1.4204195898822327,-2.672037665043966,5.910430896073141,1.157510757446289,-3.3660622278796595
1708433814.4644613,-1.8644211292266846,-1.421126202946045,-2.673196617756979,5.909208881645956,1.1581621170043945,-3.36597448984255
1708433814.4665089,-1.8622361421585083,-1.4217879486135026,-2.6743372122394007,5.90804003456191,1.158903956413269,-3.365978781376974
1708433814.4684513,-1.8600481748580933,-1.4225206685117264,-2.6755459944354456,5.906998383789816,1.1595723628997803,-3.3659351507769983
1708433814.4704766,-1.8577746152877808,-1.4231733840755005,-2.676682774220602,5.90587733963088,1.160186529159546,-3.365882937108175
1708433814.4724824,-1.8556535243988037,-1.4239028555205842,-2.677889887486593,5.904891240387716,1.1608288288116455,-3.3658319155322474
1708433814.474457,-1.8534785509109497,-1.4245604437640687,-2.67899996439089,5.903784739762106,1.1613374948501587,-3.365758244191305
1708433814.476477,-1.8512086868286133,-1.4252714079669495,-2.680211369191305,5.9027044651801965,1.16183602809906,-3.365683142338888
1708433814.4784944,-1.8490674495697021,-1.4259331834367295,-2.6812835375415247,5.90178273895339,1.1623647212982178,-3.365598980580465
1708433814.4804714,-1.846895694732666,-1.4266250890544434,-2.682410542164938,5.900786745339193,1.1629066467285156,-3.3654490152942103
1708433814.482486,-1.8447496891021729,-1.4272867006114502,-2.6835668722735804,5.899875509529867,1.1633661985397339,-3.365437094365255
1708433814.4844382,-1.8426737785339355,-1.42799927413974,-2.6846604982959192,5.8990057585533044,1.1637763977050781,-3.365290705357687
1708433814.4864752,-1.840549111366272,-1.428649054174759,-2.685763184224264,5.898102271347799,1.164156198501587,-3.3651796022998255
1708433814.4884803,-1.838547706604004,-1.429352731709816,-2.686836067830221,5.897225129395284,1.1645692586898804,-3.365079466496603
1708433814.4904897,-1.836483120918274,-1.4299370360425492,-2.6879761854754847,5.896493422776022,1.1649492979049683,-3.364918057118551
1708433814.4925156,-1.8343912363052368,-1.4305957120708008,-2.6890910307513636,5.89567397811965,1.165296196937561,-3.364802900944845
1708433814.4944677,-1.8323885202407837,-1.4313247066787262,-2.690205160771505,5.8949739811714075,1.1656534671783447,-3.36464769044985
1708433814.4965203,-1.8303674459457397,-1.4320188027671357,-2.691329304371969,5.89410828331069,1.1659718751907349,-3.3644588629352015
1708433814.4984677,-1.8283735513687134,-1.4326826345971604,-2.69239312807192,5.893480288773336,1.1662631034851074,-3.3643160502063196
1708433814.5004776,-1.8263425827026367,-1.4333242189935227,-2.6934924761401575,5.892831074982443,1.1665741205215454,-3.364160124455587
1708433814.5024862,-1.8243860006332397,-1.4339454931071778,-2.6945300737964075,5.892240869789877,1.1667513847351074,-3.3640299479113978
1708433814.5044405,-1.8225018978118896,-1.434658021931984,-2.695519034062521,5.891760456352987,1.1669838428497314,-3.3638413588153284
1708433814.5064662,-1.8205370903015137,-1.4353320014527817,-2.696550432835714,5.891221391945638,1.1672000885009766,-3.3637025992022913
1708433814.5084445,-1.8186947107315063,-1.4360537242940445,-2.6975460688220423,5.890687215119161,1.167371392250061,-3.3634944597827356
1708433814.5104952,-1.8168290853500366,-1.4367111039212723,-2.6985324064837855,5.8901545880134485,1.1676987409591675,-3.363324228917257
1708433814.5124848,-1.8149921894073486,-1.4373854857734223,-2.699557606373922,5.889764892845907,1.1679208278656006,-3.3630991617785853
1708433814.514494,-1.8131606578826904,-1.4380119901946564,-2.7006033102618616,5.88940857627944,1.1682016849517822,-3.362875286732809
1708433814.5164647,-1.8114006519317627,-1.4387161445668717,-2.7014854590045374,5.888960826187887,1.1684660911560059,-3.362729612980978
1708433814.5185318,-1.8095976114273071,-1.4393953543952485,-2.7024744192706507,5.888597476273336,1.1686447858810425,-3.362464729939596
1708433814.5204475,-1.8078088760375977,-1.44002157569442,-2.703411642705099,5.88815318325118,1.1687649488449097,-3.3622127215014856
1708433814.5224593,-1.806045651435852,-1.4406809222749253,-2.7043774763690394,5.887838589936056,1.1689375638961792,-3.3620296160327356
1708433814.5244448,-1.8043102025985718,-1.4413812023452302,-2.7053070704089563,5.887571799546041,1.1689780950546265,-3.361809555684225
1708433814.5264587,-1.8025975227355957,-1.4419784259847184,-2.706254307423727,5.887403714447775,1.1691570281982422,-3.361525599156515
1708433814.5284572,-1.8008590936660767,-1.4426701974919816,-2.7071502844439905,5.887134539871969,1.1692274808883667,-3.361319605504171
1708433814.5304446,-1.7991656064987183,-1.4433835309794922,-2.7080522219287317,5.886977064400472,1.1692798137664795,-3.36106783548464
1708433814.5324614,-1.7974947690963745,-1.4440250110677262,-2.708911959324972,5.886827456742086,1.169258952140808,-3.360767428074972
1708433814.5344374,-1.7957980632781982,-1.444654406314232,-2.709864679967062,5.886758553772726,1.169258952140808,-3.360508743916647
1708433814.5364494,-1.7942101955413818,-1.445319579248764,-2.7107139269458216,5.886661278992452,1.1692380905151367,-3.3602622191058558
1708433814.5384414,-1.7925771474838257,-1.4459937152317544,-2.7115958372699183,5.886659490853109,1.1692816019058228,-3.3599897066699427
1708433814.5404453,-1.790969729423523,-1.4466322746923943,-2.7124832312213343,5.886583077698507,1.1693024635314941,-3.359746519719259
1708433814.5424428,-1.7893699407577515,-1.447297030394413,-2.713334862385885,5.886588680535116,1.1693059206008911,-3.359394375477926
1708433814.5444646,-1.7878206968307495,-1.4479607579163094,-2.7142179648028772,5.886634933739462,1.1692651510238647,-3.3591471354113978
1708433814.5464494,-1.7863523960113525,-1.4486248058131714,-2.71506911913027,5.886651980667867,1.1692050695419312,-3.358792845402853
1708433814.5484772,-1.784862995147705,-1.4492748168161889,-2.715936009083883,5.886826264649191,1.169059157371521,-3.3585100809680384
1708433814.5504398,-1.7833595275878906,-1.4498482433012505,-2.716724459324972,5.886880385666647,1.1690202951431274,-3.358177725468771
1708433814.5524707,-1.7818671464920044,-1.4505327504924317,-2.71757942834963,5.88711045959548,1.168907880783081,-3.3578837553607386
1708433814.554443,-1.780439853668213,-1.4511732471040268,-2.7184181849109095,5.887181269913473,1.168799877166748,-3.357612911854879
1708433814.5564573,-1.778974175453186,-1.4517626476338883,-2.71924597421755,5.887365448265829,1.1686826944351196,-3.3572405020343226
1708433814.558453,-1.7775354385375977,-1.4523848381689568,-2.720023218785421,5.887578952103414,1.1686732769012451,-3.356987778340475
1708433814.5604415,-1.7761716842651367,-1.453036093418934,-2.720853392277853,5.887737619667806,1.1685636043548584,-3.3566227594958704
1708433814.5624783,-1.7747851610183716,-1.4536754128387948,-2.72157866159548,5.888035046845236,1.1685010194778442,-3.3562875429736536
1708433814.5644526,-1.773392677307129,-1.4542648208192368,-2.7223573366748255,5.888224231987753,1.1683416366577148,-3.355952326451437
1708433814.5664752,-1.7721071243286133,-1.4549585294774552,-2.723147455845968,5.888557779579916,1.1682921648025513,-3.35555607477297
1708433814.5685036,-1.7707469463348389,-1.4555774864605446,-2.7239108721362513,5.88884054401473,1.1681541204452515,-3.355213228856222
1708433814.5704503,-1.7694313526153564,-1.4562037673643609,-2.7246254126178187,5.889184701233663,1.1681286096572876,-3.3548126856433313
1708433814.5724812,-1.76817786693573,-1.4568815019777794,-2.725330177937643,5.8895290968711755,1.1679786443710327,-3.354475800191061
1708433814.5744681,-1.7669107913970947,-1.4574339103749772,-2.7260528246508997,5.889892446785726,1.1678416728973389,-3.3541386763202112
1708433814.5764925,-1.7656420469284058,-1.4580034178546448,-2.72677189508547,5.890238511353292,1.1676448583602905,-3.353733841572897
1708433814.578458,-1.7643851041793823,-1.4586149540594597,-2.727490488682882,5.890597808151998,1.167526125907898,-3.353351895009176
1708433814.5804515,-1.7631665468215942,-1.45924665153537,-2.728156868611471,5.89107762554244,1.1672923564910889,-3.3530572096454065
1708433814.582527,-1.7620047330856323,-1.4598828938654442,-2.728880230580465,5.891541588097372,1.1670759916305542,-3.3526468912707728
1708433814.5844784,-1.7608485221862793,-1.4605017837933083,-2.7294755617724817,5.89196406581954,1.1668986082077026,-3.3523276487933558
1708433814.586475,-1.7596869468688965,-1.4611088347486039,-2.7301252524005335,5.892517196923055,1.166709303855896,-3.3518391291247767
1708433814.588471,-1.7585725784301758,-1.461718627517559,-2.730875555668966,5.892990457802572,1.1663881540298462,-3.351481024418966
1708433814.5904896,-1.757546067237854,-1.4623412129333992,-2.7314654032336634,5.893501031189718,1.166260838508606,-3.3510692755328577
1708433814.5924852,-1.7564595937728882,-1.4629313361695786,-2.732124153767721,5.894094693451681,1.1660144329071045,-3.350659195576803
1708433814.594459,-1.7553907632827759,-1.4635117512992402,-2.7327304522143763,5.894663321762838,1.1657413244247437,-3.3502665201770228
1708433814.5964658,-1.7543699741363525,-1.464139112537243,-2.7333741823779505,5.895186292916097,1.1655250787734985,-3.3498976866351526
1708433814.5984488,-1.753404974937439,-1.464726024573185,-2.733926598225729,5.89582239368514,1.1652814149856567,-3.3494487444507044
1708433814.6004572,-1.7523775100708008,-1.465289169257023,-2.7345011870013636,5.896408784180441,1.165004014968872,-3.349079195653097
1708433814.6024837,-1.7513848543167114,-1.465888225739338,-2.7350836435901087,5.897051918297567,1.1648342609405518,-3.3486278692828577
1708433814.6044464,-1.7503553628921509,-1.4664556321552773,-2.7356584707843226,5.897716152458944,1.1645563840866089,-3.3481879870044153
1708433814.6064804,-1.749483346939087,-1.4670452189496537,-2.7362878958331507,5.8983614323432825,1.1643162965774536,-3.3477047125445765
1708433814.6084573,-1.7485978603363037,-1.467690647845604,-2.7368412653552454,5.899076688080587,1.1640597581863403,-3.34734017053713
1708433814.610454,-1.7477152347564697,-1.4682407689145585,-2.737380091344015,5.8997633335884,1.1638118028640747,-3.3468764464007776
1708433814.6124747,-1.7467868328094482,-1.4688265559128304,-2.7379310766803187,5.900522458344259,1.163547396659851,-3.3463786284076136
1708433814.6144593,-1.7459498643875122,-1.4694076117924233,-2.738342825566427,5.901256429940023,1.163282871246338,-3.3459978739367884
1708433814.6164737,-1.7450995445251465,-1.4699708607843895,-2.7388833204852503,5.902028071671285,1.1629949808120728,-3.345489565526144
1708433814.618448,-1.7442916631698608,-1.4705373880318184,-2.7394071261035364,5.9028066275413416,1.1626241207122803,-3.3450680414782923
1708433814.6204536,-1.7434489727020264,-1.4711091083339234,-2.739880386983053,5.903540241509237,1.162410855293274,-3.3445964495288294
1708433814.622448,-1.7426546812057495,-1.47165501237426,-2.7403481642352503,5.904404747277059,1.162093997001648,-3.3440941015826624
1708433814.6244693,-1.7418681383132935,-1.4721855235150834,-2.740892473851339,5.905146705895223,1.1618043184280396,-3.3436644713031214
1708433814.626459,-1.7411878108978271,-1.472827636902668,-2.7413020769702356,5.906015622406759,1.1615206003189087,-3.3432243506061
1708433814.628486,-1.740415334701538,-1.4732999739101906,-2.7417858282672327,5.906849372177877,1.1611844301223755,-3.3427398840533655
1708433814.6304526,-1.739705204963684,-1.4738692206195374,-2.742232147847311,5.907766210823812,1.1608105897903442,-3.342232052479879
1708433814.63245,-1.738974928855896,-1.4744742226651688,-2.742697064076559,5.90858684757308,1.160478949546814,-3.3418100515948694
1708433814.6344678,-1.73831307888031,-1.4749715787223359,-2.743089739476339,5.909500825196066,1.1601390838623047,-3.3412535826312464
1708433814.6364498,-1.7376742362976074,-1.4755765807679673,-2.743474785481588,5.910432088166036,1.159786343574524,-3.340756956730978
1708433814.6384583,-1.737034797668457,-1.4759966072491189,-2.7438865343676966,5.911370384484091,1.159376859664917,-3.340257708226339
1708433814.6404474,-1.736416220664978,-1.4766111013344307,-2.7443421522723597,5.912309396057882,1.1590241193771362,-3.3397775332080286
1708433814.6424615,-1.7358053922653198,-1.4771034357002755,-2.744671885167257,5.9132739184196375,1.1585944890975952,-3.339299742375509
1708433814.6444647,-1.7351977825164795,-1.4776234862259408,-2.745080296193258,5.914251434593954,1.1582024097442627,-3.3387911955462855
1708433814.646451,-1.7346742153167725,-1.4782043185881157,-2.7454844156848353,5.915304767876425,1.1578700542449951,-3.3382836023913782
1708433814.6484766,-1.734102487564087,-1.4786528584412117,-2.7458470503436487,5.916343319206991,1.1575114727020264,-3.337804142628805
1708433814.6504617,-1.7336206436157227,-1.4792008784464379,-2.746192757283346,5.9173598168189905,1.1570888757705688,-3.33722168604006
1708433814.6524627,-1.7330979108810425,-1.479731337433197,-2.746573273335592,5.918446171074667,1.1567219495773315,-3.336768929158346
1708433814.6544592,-1.7326717376708984,-1.480330043738224,-2.746814552937643,5.919441330223837,1.1562806367874146,-3.3361859957324427
1708433814.6564577,-1.732200264930725,-1.4808036398938675,-2.7471869627581995,5.9206133959587,1.1558442115783691,-3.3357041517840784
1708433814.658452,-1.7317614555358887,-1.4812926587513466,-2.7475133577929896,5.9217378971870325,1.1554638147354126,-3.3351438681231897
1708433814.6604712,-1.7313458919525146,-1.4817729827812691,-2.747781578694479,5.9227791903312585,1.1550312042236328,-3.3346367518054407
1708433814.66246,-1.730950117111206,-1.4822930109551926,-2.748110596333639,5.923923718720236,1.15457022190094,-3.3340724150287073
1708433814.6644728,-1.7305887937545776,-1.4828291696361084,-2.7483323256122034,5.92493902423934,1.1541212797164917,-3.3335447947131556
1708433814.666475,-1.7301719188690186,-1.4833620724133034,-2.7486658732043665,5.926086175232687,1.1536811590194702,-3.3329976240741175
1708433814.668472,-1.7298449277877808,-1.4837624219110985,-2.748862330113546,5.927244770317831,1.1532477140426636,-3.3324454466449183
1708433814.6704762,-1.7295786142349243,-1.484335684483387,-2.7491031328784388,5.928453314095297,1.1527751684188843,-3.331925694142477
1708433814.672468,-1.7292838096618652,-1.4848587599447747,-2.7493353525744837,5.929629790573873,1.1523184776306152,-3.3313286940204065
1708433814.6744876,-1.728962779045105,-1.4853174549392243,-2.7495792547809046,5.930824029236593,1.1518785953521729,-3.3308220545398157
1708433814.676499,-1.7286787033081055,-1.4857883167317887,-2.7497692743884485,5.932041275292196,1.1513981819152832,-3.33024245897402
1708433814.6784601,-1.7284621000289917,-1.4863082480481644,-2.7499564329730433,5.93326889255599,1.1509349346160889,-3.3296287695514124
1708433814.6804814,-1.7282544374465942,-1.4867471393993874,-2.7500866095172327,5.93443118312911,1.1503795385360718,-3.329085652028219
1708433814.6824446,-1.7280300855636597,-1.4872623992017289,-2.7502830664264124,5.935727822571554,1.1498703956604004,-3.328510586415426
1708433814.6844914,-1.7278507947921753,-1.4877434235862275,-2.750446144734518,5.936971056252279,1.1493829488754272,-3.327848498021261
1708433814.686458,-1.7277154922485352,-1.488177978699543,-2.750597063695089,5.938254344254293,1.1488665342330933,-3.327285353337423
1708433814.6885076,-1.7274984121322632,-1.488685393040516,-2.750754419957296,5.93944405296401,1.148337960243225,-3.3266878763781946
1708433814.6904635,-1.7274739742279053,-1.4891514417580147,-2.7507782618152063,5.940758096962728,1.1477794647216797,-3.32607609430422
1708433814.6924565,-1.727320671081543,-1.4895983275822182,-2.7509730497943323,5.942027914315023,1.1472374200820923,-3.3254762331592005
1708433814.694459,-1.727272629737854,-1.4901082974723359,-2.751044813786642,5.9433501837547205,1.1467162370681763,-3.3248515764819544
1708433814.6964595,-1.7271844148635864,-1.4905263793519516,-2.75108510652651,5.9447189448173425,1.1460812091827393,-3.324240032826559
1708433814.6984754,-1.7271816730499268,-1.4910061818412323,-2.7511706987964075,5.946082937508383,1.145495891571045,-3.323609177266256
1708433814.700466,-1.7272285223007202,-1.491519809966423,-2.751280132924215,5.947345244675436,1.1449867486953735,-3.3230138460742396
1708433814.7024436,-1.7271666526794434,-1.4918797847679635,-2.7512784639941614,5.948795187264242,1.144389033317566,-3.3223987261401575
1708433814.7044723,-1.7271623611450195,-1.4923501101187249,-2.751354757939474,5.9501041052635095,1.1438119411468506,-3.321794335042135
1708433814.7064624,-1.7272355556488037,-1.4928158608129998,-2.75135308900942,5.951573955803671,1.143195390701294,-3.3211877981769007
1708433814.7084558,-1.7272918224334717,-1.4932700407556077,-2.7513652483569544,5.952952015190878,1.1425944566726685,-3.32049805322756
1708433814.7104588,-1.7273757457733154,-1.4937503722361107,-2.7513816992389124,5.954376804619589,1.141959547996521,-3.3199077288257044
1708433814.7124588,-1.7274271249771118,-1.4941414904645463,-2.751378838215963,5.955782639771261,1.1413183212280273,-3.3192229906665247
1708433814.714486,-1.7275928258895874,-1.4945599001697083,-2.751324717198507,5.95721589305953,1.140723466873169,-3.3185461203204554
1708433814.7164757,-1.727655053138733,-1.4950525549105187,-2.7512932459460657,5.958638059883871,1.1401171684265137,-3.317895237599508
1708433814.7184691,-1.7278199195861816,-1.4954225954464455,-2.751226011906759,5.960161673813619,1.1394546031951904,-3.3172178904162806
1708433814.720478,-1.727942705154419,-1.4958376374891778,-2.75111967722048,5.96158395984725,1.1387689113616943,-3.3165555636035364
1708433814.722454,-1.7281343936920166,-1.4963272002390404,-2.751094166432516,5.963059890061178,1.138083815574646,-3.3159077803241175
1708433814.7244642,-1.728306531906128,-1.4966483947685738,-2.7509520689593714,5.96457992771224,1.1374260187149048,-3.3151755968676966
1708433814.7264702,-1.7285476922988892,-1.4971423608115693,-2.750874106084005,5.966056692391195,1.1367405652999878,-3.314516846333639
1708433814.7284613,-1.7287112474441528,-1.4975528878024598,-2.7507286707507532,5.967664348870077,1.136040210723877,-3.3138425985919397
1708433814.730455,-1.7289760112762451,-1.4979856249741097,-2.7506046930896204,5.969188797264852,1.1353672742843628,-3.3131900469409388
1708433814.7324538,-1.7292436361312866,-1.498315305714943,-2.7504923979388636,5.970739948540487,1.1346299648284912,-3.31246525446047
1708433814.7344596,-1.7294867038726807,-1.498773419564106,-2.750341002141134,5.972351777344503,1.1339877843856812,-3.3117664496051233
1708433814.736451,-1.7297831773757935,-1.4991838422468682,-2.750249687825338,5.973874437599935,1.133222222328186,-3.3110910097705286
1708433814.7384503,-1.7301065921783447,-1.4995717045715828,-2.7500744501696985,5.975448357849874,1.1325271129608154,-3.3104077021228235
1708433814.740456,-1.7304866313934326,-1.4999356505325814,-2.7498634497271937,5.977084743767538,1.1317569017410278,-3.3097248713122767
1708433814.7424552,-1.730920672416687,-1.5003232446363945,-2.749733273183004,5.978719460755148,1.1309716701507568,-3.308913771306173
1708433814.744469,-1.7312952280044556,-1.5007045802525063,-2.7494922319995325,5.980451929360189,1.1301950216293335,-3.308223311101095
1708433814.7464705,-1.731727123260498,-1.5009838056615372,-2.7492809931384485,5.982057559281149,1.1293479204177856,-3.3075245062457483
1708433814.7484665,-1.7321248054504395,-1.5014504802278061,-2.749077383671896,5.9836745140846155,1.1284832954406738,-3.3067808786975306
