Eg3-git/Classifiers/Data Collection/u1/u1xyz2_ur3e_joint_states.csv
time,elbow_joint,shoulder_lift_joint,shoulder_pan_joint,wrist_1_joint,wrist_2_joint,wrist_3_joint
1708433773.590103,-2.141244888305664,-1.3334277284196396,-2.527250353490011,6.1094103930290125,1.018593430519104,-3.1206756273852747
1708433773.592102,-2.141190528869629,-1.3334234368852158,-2.527254883443014,6.109439003258505,1.0186100006103516,-3.1207011381732386
1708433773.5941036,-2.141195058822632,-1.333439679150917,-2.527210060750143,6.109404670983114,1.0185638666152954,-3.1206966082202356
1708433773.5961077,-2.14123797416687,-1.3333465617946167,-2.527212921773092,6.109458076744833,1.0185309648513794,-3.1206846872912806
1708433773.5980952,-2.141162395477295,-1.333432064657547,-2.527247492467062,6.109400260239401,1.0185890197753906,-3.120666805897848
1708433773.6001115,-2.1412155628204346,-1.3334277433208008,-2.527254883443014,6.109446036606588,1.0185638666152954,-3.1207221190081995
1708433773.6020977,-2.1411995887756348,-1.3334200543216248,-2.527238432561056,6.109439003258505,1.018526554107666,-3.1206920782672327
1708433773.604132,-2.141233444213867,-1.3334474724582215,-2.52726394334902,6.109417903214254,1.0185472965240479,-3.120683256779806
1708433773.6061187,-2.1412065029144287,-1.3334158223918458,-2.527259413396017,6.1094329235847376,1.0185517072677612,-3.1206756273852747
1708433773.6081412,-2.141174554824829,-1.3334439855865021,-2.527280871068136,6.1094549773033044,1.0185472965240479,-3.1206801573382776
1708433773.6101043,-2.1412110328674316,-1.3334483069232483,-2.527280871068136,6.109404670983114,1.0185072422027588,-3.1206257979022425
1708433773.612115,-2.141188144683838,-1.3334735494903107,-2.527231041585104,6.109400260239401,1.0185309648513794,-3.1206920782672327
1708433773.61409,-2.1412110328674316,-1.3334200543216248,-2.5272520224200647,6.1094257710273645,1.0185561180114746,-3.1206169764148157
1708433773.6160922,-2.1412243843078613,-1.3334233921817322,-2.527247492467062,6.109478699951925,1.0185638666152954,-3.1207011381732386
1708433773.6180983,-2.141195058822632,-1.3334562343410035,-2.5272682348834437,6.1094668982322595,1.0185561180114746,-3.1206677595721644
1708433773.6200943,-2.141244888305664,-1.3333834123662491,-2.527221981679098,6.1094257710273645,1.0185770988464355,-3.1206677595721644
1708433773.6221263,-2.141195058822632,-1.3334200841239472,-2.527242962514059,6.109397041588583,1.0185309648513794,-3.12068754831423
1708433773.6241014,-2.141201972961426,-1.3333540123752137,-2.527221981679098,6.109413373261251,1.0185648202896118,-3.1207085291491907
1708433773.6260927,-2.1412289142608643,-1.3334277433208008,-2.527226511632101,6.109430062561788,1.018510341644287,-3.1206422487842005
1708433773.62811,-2.141174554824829,-1.33341899633918,-2.527259413396017,6.109434592514791,1.018527865409851,-3.1206632296191614
1708433773.6301124,-2.1411712169647217,-1.3334569197944184,-2.5272672812091272,6.109441745072164,1.0185692310333252,-3.1206677595721644
1708433773.6321359,-2.141185998916626,-1.3334396493485947,-2.527250353490011,6.109421360283651,1.018527865409851,-3.1207128206836146
1708433773.6340995,-2.141190528869629,-1.3334158074906846,-2.527221981679098,6.109412419586935,1.0185561180114746,-3.1207175890551966
1708433773.63612,-2.14123797416687,-1.3334363114884873,-2.527193609868185,6.109437334328451,1.018526554107666,-3.120643917714254
1708433773.6380892,-2.1412065029144287,-1.3334158223918458,-2.527289692555563,6.1094329235847376,1.0185353755950928,-3.1206722895251673
1708433773.6400912,-2.141179084777832,-1.333415837293007,-2.5271862188922327,6.109439003258505,1.018560528755188,-3.1206141153918665
1708433773.6420743,-2.141190528869629,-1.333399922852852,-2.527259413396017,6.109413373261251,1.0185441970825195,-3.1206756273852747
1708433773.644084,-2.14123797416687,-1.3333746653846283,-2.527276341115133,6.109409081726827,1.0185515880584717,-3.120676581059591
1708433773.6460829,-2.141185998916626,-1.3334363114884873,-2.527217451726095,6.109491097718038,1.0185649394989014,-3.1207428614245813
1708433773.6481369,-2.141166925430298,-1.3334525537541886,-2.527238432561056,6.1094257710273645,1.0185397863388062,-3.1206513086902063
1708433773.650077,-2.1412041187286377,-1.3334234219840546,-2.5272565523730677,6.109430062561788,1.018548607826233,-3.120671335850851
1708433773.6521058,-2.141157865524292,-1.3334569943002244,-2.527217451726095,6.109417903214254,1.0185528993606567,-3.1206677595721644
1708433773.654084,-2.141179323196411,-1.3334234219840546,-2.527231041585104,6.109453666001119,1.0185604095458984,-3.1206632296191614
1708433773.6560907,-2.1412243843078613,-1.3334158074906846,-2.527221981679098,6.109437334328451,1.0185366868972778,-3.1206722895251673
1708433773.6580822,-2.141256093978882,-1.333464877014496,-2.527214590703146,6.109441745072164,1.0185366868972778,-3.1206722895251673
1708433773.6601367,-2.141183614730835,-1.3333998930505295,-2.527280871068136,6.109397041588583,1.018548607826233,-3.1206846872912806
1708433773.6620882,-2.141195058822632,-1.3334085506251832,-2.527254883443014,6.109450566559591,1.0184739828109741,-3.1207101980792444
1708433773.6640887,-2.1411995887756348,-1.3334233921817322,-2.52727181116213,6.1094257710273645,1.018561840057373,-3.1206303278552454
1708433773.6660814,-2.1412110328674316,-1.3334071648171921,-2.527276341115133,6.109446036606588,1.0184828042984009,-3.1207099596606653
1708433773.668086,-2.1412198543548584,-1.333399922852852,-2.527254883443014,6.109462368279257,1.018561840057373,-3.1206393877612513
1708433773.6700947,-2.14123797416687,-1.33337818205867,-2.527214590703146,6.109397041588583,1.0185648202896118,-3.1207011381732386
1708433773.6720908,-2.1411712169647217,-1.3334244799664994,-2.527210060750143,6.109434592514791,1.0185648202896118,-3.1206303278552454
1708433773.6740835,-2.141183614730835,-1.333489791756012,-2.5272401014911097,6.109469997673788,1.0185003280639648,-3.1207099596606653
1708433773.6761076,-2.1412065029144287,-1.3334115010550995,-2.5272401014911097,6.109401571541586,1.0185291767120361,-3.1206937471972864
1708433773.6780934,-2.141174554824829,-1.3334071648171921,-2.527198139821188,6.109356748848715,1.0185692310333252,-3.120643917714254
1708433773.6800783,-2.141162395477295,-1.333420069222786,-2.527254883443014,6.109400260239401,1.0184870958328247,-3.1206186453448694
1708433773.6820655,-2.1412198543548584,-1.3334525537541886,-2.5272682348834437,6.109453666001119,1.018548607826233,-3.120643917714254
1708433773.6840906,-2.141188144683838,-1.3334483218244095,-2.5272236506091517,6.109356748848715,1.0185322761535645,-3.120664660130636
1708433773.6860738,-2.1411995887756348,-1.333439664249756,-2.52726394334902,6.109405982285299,1.0185027122497559,-3.1206722895251673
1708433773.6880865,-2.1412198543548584,-1.3334439855865021,-2.52726394334902,6.109446036606588,1.018515944480896,-3.1206467787372034
1708433773.690075,-2.1412084102630615,-1.3333833825639267,-2.527231041585104,6.1094103930290125,1.018527865409851,-3.1206892172442835
1708433773.6920817,-2.1412289142608643,-1.3334277433208008,-2.527297321950094,6.109385239868917,1.0185322761535645,-3.1206980387317103
1708433773.694085,-2.1412041187286377,-1.3333963316730042,-2.52726394334902,6.109372126847067,1.0185160636901855,-3.1206513086902063
1708433773.6960738,-2.1412198543548584,-1.3334115010550995,-2.527247492467062,6.109446036606588,1.0185292959213257,-3.1206393877612513
1708433773.6980703,-2.1411712169647217,-1.3334234219840546,-2.5272775332080286,6.1094549773033044,1.0185456275939941,-3.120643917714254
1708433773.7000725,-2.1412065029144287,-1.3334407073310395,-2.527214590703146,6.109439003258505,1.018560528755188,-3.1206393877612513
1708433773.7020755,-2.141233444213867,-1.3334128868630906,-2.527221981679098,6.109414922982015,1.0184870958328247,-3.1206393877612513
1708433773.7040887,-2.1412155628204346,-1.33341899633918,-2.5272191206561487,6.109388339310446,1.018561840057373,-3.120676581059591
1708433773.7061002,-2.1412041187286377,-1.3334493798068543,-2.52726394334902,6.1094103930290125,1.0185561180114746,-3.1206632296191614
1708433773.7081172,-2.141195058822632,-1.3334115010550995,-2.527231041585104,6.109430062561788,1.018560528755188,-3.1206467787372034
1708433773.7100883,-2.1412198543548584,-1.3334158223918458,-2.527177397404806,6.109401571541586,1.018527865409851,-3.1206467787372034
1708433773.7120795,-2.1411995887756348,-1.3334071350148697,-2.5272727648364466,6.109434592514791,1.0185279846191406,-3.1206756273852747
1708433773.714092,-2.1411757469177246,-1.3333998930505295,-2.5272355715381067,6.109380829125204,1.018548607826233,-3.1206350962268274
1708433773.7161052,-2.1412198543548584,-1.3334115010550995,-2.527242962514059,6.109491932183065,1.0185203552246094,-3.120643917714254
1708433773.7180936,-2.1412014961242676,-1.3334439855865021,-2.5272355715381067,6.109414922982015,1.0185692310333252,-3.1206846872912806
1708433773.7200813,-2.1411995887756348,-1.3334071648171921,-2.527247492467062,6.109397041588583,1.018527865409851,-3.120643917714254
1708433773.7220905,-2.141188144683838,-1.333391250377037,-2.5272355715381067,6.109380829125204,1.0185116529464722,-3.1207011381732386
1708433773.724089,-2.1411995887756348,-1.333391250377037,-2.5272071997271937,6.109385239868917,1.0185292959213257,-3.120631996785299
1708433773.7260716,-2.1412110328674316,-1.3334525537541886,-2.527177397404806,6.109409081726827,1.0185366868972778,-3.1206467787372034
1708433773.728108,-2.141179323196411,-1.3333868247321625,-2.527193609868185,6.109388339310446,1.018548607826233,-3.1206892172442835
1708433773.730076,-2.141188144683838,-1.3333998781493683,-2.5272565523730677,6.109450566559591,1.018561840057373,-3.1206846872912806
1708433773.7320898,-2.1411757469177246,-1.3334158223918458,-2.527242962514059,6.109380829125204,1.018578052520752,-3.120681111012594
1708433773.734094,-2.1411385536193848,-1.3333998930505295,-2.527193609868185,6.109392750054159,1.0184828042984009,-3.120681111012594
1708433773.7360969,-2.141157865524292,-1.3334027391723176,-2.527193609868185,6.109437334328451,1.0185692310333252,-3.1206141153918665
1708433773.738094,-2.141157865524292,-1.3333627444556733,-2.527242962514059,6.109409081726827,1.0185292959213257,-3.1206722895251673
1708433773.740086,-2.141179323196411,-1.3334407222322007,-2.527214590703146,6.109394061356344,1.0185397863388062,-3.1207128206836146
1708433773.7420712,-2.1411757469177246,-1.333439664249756,-2.527247492467062,6.109409081726827,1.0185397863388062,-3.1206303278552454
1708433773.744085,-2.141233444213867,-1.333432064657547,-2.527221981679098,6.109446036606588,1.0185116529464722,-3.1206558386432093
1708433773.7460732,-2.1411995887756348,-1.3333919805339356,-2.5272730032550257,6.109434592514791,1.0184783935546875,-3.1206892172442835
1708433773.7480977,-2.141174554824829,-1.3334483218244095,-2.527259413396017,6.1094257710273645,1.0185441970825195,-3.1206722895251673
1708433773.7500708,-2.141195058822632,-1.333420069222786,-2.5272672812091272,6.1094257710273645,1.0185366868972778,-3.1206677595721644
1708433773.7520788,-2.1411757469177246,-1.333439664249756,-2.5272071997271937,6.1094223139579675,1.018515944480896,-3.1206586996661585
1708433773.7540753,-2.1412110328674316,-1.3333875846913834,-2.527238432561056,6.109400260239401,1.0185528993606567,-3.120676581059591
1708433773.7560854,-2.141179323196411,-1.3334277433208008,-2.5272191206561487,6.109430062561788,1.0185366868972778,-3.1206513086902063
1708433773.7580988,-2.1411588191986084,-1.3333998930505295,-2.527231041585104,6.109380829125204,1.0185366868972778,-3.1206722895251673
1708433773.7600865,-2.141190528869629,-1.3334114861539383,-2.527210060750143,6.109385239868917,1.0185366868972778,-3.1206677595721644
1708433773.762097,-2.141179323196411,-1.3334735494903107,-2.5272355715381067,6.109397041588583,1.0185322761535645,-3.1206393877612513
1708433773.7641084,-2.1411545276641846,-1.3334363263896485,-2.5271862188922327,6.109446036606588,1.0185441970825195,-3.1205814520465296
1708433773.7660995,-2.1411545276641846,-1.3334309172681351,-2.5272026697741907,6.109450566559591,1.0184783935546875,-3.1206586996661585
1708433773.7681003,-2.141140937805176,-1.333439664249756,-2.5272162596331995,6.109364139824667,1.0184870958328247,-3.1207144896136683
1708433773.770084,-2.1412041187286377,-1.3334245097688218,-2.527226511632101,6.109409081726827,1.0184708833694458,-3.120681111012594
1708433773.772089,-2.1411633491516113,-1.3334277433208008,-2.5272772947894495,6.1094257710273645,1.0185322761535645,-3.1206513086902063
1708433773.7740972,-2.1411757469177246,-1.3334115159562607,-2.5272071997271937,6.109392750054159,1.0184870958328247,-3.1206892172442835
1708433773.7761018,-2.141188144683838,-1.3334115010550995,-2.52720553079714,6.1093554375465295,1.0185648202896118,-3.120627466832296
1708433773.778101,-2.141183614730835,-1.3334320795587082,-2.5272727648364466,6.109434592514791,1.0185366868972778,-3.120615545903341
1708433773.7801058,-2.1411757469177246,-1.3333919805339356,-2.527177397404806,6.109450566559591,1.018527865409851,-3.120660368596212
1708433773.7820837,-2.141162395477295,-1.333374710088112,-2.527198139821188,6.109446036606588,1.0184797048568726,-3.1205976645099085
1708433773.7841258,-2.1411995887756348,-1.3333998930505295,-2.5271998087512415,6.1094432947929285,1.0184739828109741,-3.1206231752978724
1708433773.7860954,-2.1411454677581787,-1.333358423118927,-2.5271952787982386,6.109401571541586,1.0185528993606567,-3.1206846872912806
1708433773.7880857,-2.1411633491516113,-1.3333789569190522,-2.5272236506091517,6.109446036606588,1.0185365676879883,-3.1206260363208216
1708433773.790092,-2.1411666870117188,-1.3334158074906846,-2.5271862188922327,6.1094223139579675,1.0184577703475952,-3.120672051106588
1708433773.7921004,-2.1412129402160645,-1.3334655326655884,-2.5272327105151575,6.109413373261251,1.0185292959213257,-3.120620075856344
1708433773.794083,-2.1411757469177246,-1.3334233921817322,-2.5272730032550257,6.109413373261251,1.0185561180114746,-3.1206980387317103
1708433773.796098,-2.1411802768707275,-1.333387554889061,-2.5272191206561487,6.109384047776022,1.0185322761535645,-3.1206231752978724
1708433773.798082,-2.1412041187286377,-1.3334234070828934,-2.5272191206561487,6.109446036606588,1.018548607826233,-3.1206467787372034
1708433773.80008,-2.1411499977111816,-1.3333998930505295,-2.5272682348834437,6.109364139824667,1.0185322761535645,-3.1206067244159144
1708433773.8020923,-2.1411757469177246,-1.3334735494903107,-2.5272117296801966,6.1094103930290125,1.0185441970825195,-3.120685640965597
1708433773.804107,-2.141174554824829,-1.3334041398814698,-2.527242962514059,6.109413373261251,1.0185116529464722,-3.1206393877612513
1708433773.8061128,-2.1411969661712646,-1.3334157925895234,-2.5272071997271937,6.109398591309347,1.0185441970825195,-3.1206393877612513
1708433773.8081162,-2.1412129402160645,-1.3334071648171921,-2.5272236506091517,6.109409081726827,1.0184828042984009,-3.120681111012594
1708433773.8100817,-2.1411499977111816,-1.3333868247321625,-2.5272401014911097,6.109447824745931,1.0185292959213257,-3.120643917714254
1708433773.8120868,-2.1411757469177246,-1.3333789867213746,-2.527247492467062,6.109430062561788,1.0185322761535645,-3.1206558386432093
1708433773.8141198,-2.141188144683838,-1.333456204538681,-2.5272236506091517,6.109426724701681,1.0185322761535645,-3.120660368596212
1708433773.8160963,-2.1412155628204346,-1.333354116683342,-2.5272026697741907,6.109450566559591,1.0184828042984009,-3.120627466832296
1708433773.8181026,-2.141195058822632,-1.3334525537541886,-2.5272236506091517,6.109401571541586,1.0185235738754272,-3.120689932500021
1708433773.8200998,-2.141183614730835,-1.3334811341813584,-2.527193609868185,6.1094257710273645,1.0185203552246094,-3.120676581059591
1708433773.8220901,-2.141183614730835,-1.3334158223918458,-2.5272281805621546,6.109385239868917,1.0185116529464722,-3.1206632296191614
1708433773.8240855,-2.141188144683838,-1.3334244799664994,-2.527198139821188,6.109416949539938,1.0185116529464722,-3.1206677595721644
1708433773.8260913,-2.141162395477295,-1.3333833527616044,-2.5272191206561487,6.1094549773033044,1.018515944480896,-3.1206558386432093
1708433773.8280888,-2.141179323196411,-1.333464891915657,-2.5272355715381067,6.109430062561788,1.0185322761535645,-3.1206632296191614
1708433773.830098,-2.141157865524292,-1.3333999079516907,-2.5272401014911097,6.109347808151998,1.0184664726257324,-3.1206632296191614
1708433773.832093,-2.1411757469177246,-1.3334277284196396,-2.527247492467062,6.109401571541586,1.018527865409851,-3.1206632296191614
1708433773.8341095,-2.1412627696990967,-1.3333746653846283,-2.5271862188922327,6.109441745072164,1.0185235738754272,-3.1206558386432093
1708433773.83609,-2.141166925430298,-1.3334128868630906,-2.527214590703146,6.109401571541586,1.0185235738754272,-3.120664660130636
1708433773.8380992,-2.141179323196411,-1.3334244799664994,-2.5272355715381067,6.109441745072164,1.018560528755188,-3.1206756273852747
1708433773.8400934,-2.141233444213867,-1.3333955717137833,-2.5272191206561487,6.109439003258505,1.018515944480896,-3.1206677595721644
1708433773.842084,-2.1412041187286377,-1.3333790016225358,-2.5272162596331995,6.1093764183814905,1.0185528993606567,-3.1206303278552454
1708433773.844099,-2.141179323196411,-1.3334233921817322,-2.5272281805621546,6.109426724701681,1.018527865409851,-3.120676581059591
1708433773.846086,-2.1412084102630615,-1.333432064657547,-2.5272327105151575,6.109439003258505,1.018527865409851,-3.1206722895251673
1708433773.8481176,-2.141185998916626,-1.3334115010550995,-2.5272372404681605,6.109441745072164,1.018515944480896,-3.120643917714254
1708433773.8500993,-2.1412198543548584,-1.3334483069232483,-2.5271740595446985,6.1094549773033044,1.018527865409851,-3.1206722895251673
1708433773.8521178,-2.141162395477295,-1.333383322959282,-2.5272043387042444,6.109458076744833,1.0184783935546875,-3.1206558386432093
1708433773.8541353,-2.1412198543548584,-1.3334525537541886,-2.5271695295916956,6.109434592514791,1.0185322761535645,-3.1206350962268274
1708433773.8560889,-2.1412200927734375,-1.3334396493485947,-2.527214590703146,6.1094668982322595,1.0184828042984009,-3.1206513086902063
1708433773.8581045,-2.141195058822632,-1.3334234219840546,-2.5271862188922327,6.109409081726827,1.0185366868972778,-3.1206846872912806
1708433773.8600771,-2.141256093978882,-1.333420069222786,-2.5272608439074915,6.1094329235847376,1.0185648202896118,-3.1206513086902063
1708433773.862071,-2.1412065029144287,-1.333404154782631,-2.5272401014911097,6.109424102097311,1.0185322761535645,-3.1206937471972864
1708433773.8640823,-2.141183614730835,-1.333432064657547,-2.527214590703146,6.109446036606588,1.0184741020202637,-3.1207085291491907
1708433773.8660796,-2.1412041187286377,-1.33341899633918,-2.527160708104269,6.1094549773033044,1.0185353755950928,-3.1206467787372034
1708433773.8680804,-2.1412243843078613,-1.3334041398814698,-2.5271831194507044,6.109478699951925,1.0185322761535645,-3.1206393877612513
1708433773.870071,-2.141233444213867,-1.3334483218244095,-2.5271907488452356,6.109437334328451,1.0185322761535645,-3.1206513086902063
1708433773.872086,-2.1412155628204346,-1.3333955717137833,-2.527231041585104,6.109424102097311,1.0185397863388062,-3.1206722895251673
1708433773.8740864,-2.141195058822632,-1.3334244054606934,-2.5272401014911097,6.109453666001119,1.018561840057373,-3.1206303278552454
1708433773.8761017,-2.1412198543548584,-1.333383322959282,-2.527242962514059,6.109453666001119,1.018515944480896,-3.1206632296191614
1708433773.87807,-2.1412041187286377,-1.3334407222322007,-2.527214590703146,6.109478699951925,1.0185455083847046,-3.1206892172442835
1708433773.8800757,-2.141166925430298,-1.3334200990251084,-2.5271528402911585,6.109468924790182,1.0185366868972778,-3.1207338015185755
1708433773.8820848,-2.141185998916626,-1.3334735494903107,-2.5271907488452356,6.109531152039327,1.0185648202896118,-3.1206722895251673
1708433773.8840785,-2.141195058822632,-1.3334071648171921,-2.5272191206561487,6.109477746277609,1.0185292959213257,-3.1206677595721644
1708433773.8860784,-2.141174554824829,-1.3334483218244095,-2.527165238057272,6.109436023026266,1.0185203552246094,-3.1206513086902063
1708433773.8880782,-2.141136407852173,-1.3333920550397416,-2.527226511632101,6.10948525646285,1.0185322761535645,-3.120666805897848
1708433773.8900785,-2.1412291526794434,-1.3333789867213746,-2.527210060750143,6.109482276230612,1.0185648202896118,-3.1206937471972864
1708433773.8920753,-2.1412129402160645,-1.3333790761283417,-2.5271695295916956,6.109452235489645,1.018548607826233,-3.1206801573382776
1708433773.8940804,-2.1412243843078613,-1.3334362667850037,-2.5272608439074915,6.1095478413398645,1.0185335874557495,-3.1206801573382776
1708433773.8960724,-2.141244888305664,-1.3334157925895234,-2.5272401014911097,6.109501588135519,1.0185322761535645,-3.120671335850851
1708433773.8980768,-2.1412041187286377,-1.33340276897464,-2.5272026697741907,6.10949860790328,1.018515944480896,-3.1206215063678187
1708433773.9000893,-2.141166925430298,-1.3334128272584458,-2.527221981679098,6.109521257668295,1.018548607826233,-3.1206722895251673
1708433773.9020855,-2.1412041187286377,-1.3333585423282166,-2.527193609868185,6.109522330551901,1.0184828042984009,-3.120671335850851
1708433773.9041185,-2.141188144683838,-1.333404154782631,-2.5272117296801966,6.109583246498861,1.0185235738754272,-3.1206756273852747
1708433773.9061062,-2.1412289142608643,-1.3333913397840043,-2.527247492467062,6.109565603524008,1.0185322761535645,-3.120633665715353
1708433773.9081266,-2.1411995887756348,-1.3334450733712693,-2.5272207895862024,6.109582292824545,1.0184870958328247,-3.1207292715655726
1708433773.91011,-2.141244888305664,-1.3334234368852158,-2.5272191206561487,6.109553563385763,1.0185322761535645,-3.120683256779806
1708433773.912097,-2.141201972961426,-1.3334483069232483,-2.5272236506091517,6.109565603524008,1.0185203552246094,-3.1207338015185755
1708433773.914109,-2.141179084777832,-1.3334200245193024,-2.5272026697741907,6.109549271851339,1.018527865409851,-3.120720450078146
1708433773.9161134,-2.1412198543548584,-1.3334320497563859,-2.527181927357809,6.1095865843589685,1.0185366868972778,-3.1207531134234827
1708433773.9180956,-2.1412110328674316,-1.3334041249803086,-2.5272236506091517,6.109565603524008,1.0185116529464722,-3.1207454840289515
1708433773.9201202,-2.1412065029144287,-1.3334363263896485,-2.5272191206561487,6.109556662827291,1.0185366868972778,-3.1207085291491907
1708433773.9220824,-2.1412065029144287,-1.333391250377037,-2.527198139821188,6.109552252083578,1.0185397863388062,-3.1207574049579065
1708433773.9240973,-2.1412084102630615,-1.3334352684072037,-2.5271952787982386,6.109521257668295,1.0185366868972778,-3.1207366625415247
1708433773.9260828,-2.1412198543548584,-1.3334234368852158,-2.5271740595446985,6.109547960549154,1.018515944480896,-3.1207085291491907
1708433773.9280949,-2.1412243843078613,-1.3334027242711564,-2.5271831194507044,6.109573352127828,1.018548607826233,-3.1206920782672327
1708433773.9300916,-2.1411995887756348,-1.3334406924298783,-2.527177397404806,6.109531509667196,1.018548607826233,-3.120695177708761
1708433773.932096,-2.141233444213867,-1.3334277433208008,-2.527198139821188,6.109549271851339,1.018527865409851,-3.1207366625415247
1708433773.9340928,-2.1412065029144287,-1.3334115159562607,-2.5272281805621546,6.109639036446371,1.0185770988464355,-3.12073523203005
1708433773.9360776,-2.141195058822632,-1.3334115159562607,-2.527226511632101,6.1095852730567834,1.018527865409851,-3.1207857767688196
1708433773.9381173,-2.141185998916626,-1.3333919805339356,-2.5271907488452356,6.109625685005941,1.018527865409851,-3.120810333882467
1708433773.9401104,-2.141253709793091,-1.3334243905595322,-2.527198139821188,6.109555709152975,1.0185661315917969,-3.12073523203005
1708433773.9420931,-2.141277551651001,-1.333367110495903,-2.5272191206561487,6.109547006874838,1.0184828042984009,-3.120747152959005
1708433773.944113,-2.141174554824829,-1.3333913099816819,-2.5272401014911097,6.1095852730567834,1.018548607826233,-3.120756212865011
1708433773.946094,-2.141174554824829,-1.3333913099816819,-2.527193609868185,6.109583842545309,1.0185190439224243,-3.1207805315600794
1708433773.948097,-2.1412289142608643,-1.3334200394204636,-2.5272443930255335,6.10964201667861,1.018527865409851,-3.12073523203005
1708433773.9500828,-2.1412065029144287,-1.3334562194398423,-2.527214590703146,6.109618294029989,1.018515944480896,-3.1208015123950403
1708433773.9521098,-2.1412155628204346,-1.3334200543216248,-2.5272281805621546,6.109633195191183,1.0185366868972778,-3.12077242532839
1708433773.954096,-2.141201972961426,-1.3334362667850037,-2.5272026697741907,6.109683501511373,1.018548607826233,-3.1207714716540735
1708433773.956102,-2.1412110328674316,-1.3334041249803086,-2.5271952787982386,6.109621274262228,1.0185116529464722,-3.1207760016070765
1708433773.9581125,-2.1412065029144287,-1.3334569197944184,-2.5272026697741907,6.109600531845846,1.0185397863388062,-3.1207714716540735
1708433773.9601033,-2.1412198543548584,-1.3334041398814698,-2.5272207895862024,6.109591710358419,1.0185397863388062,-3.1207383314715784
1708433773.962082,-2.141260862350464,-1.333489717250206,-2.5272520224200647,6.109600531845846,1.0185692310333252,-3.1208370367633265
1708433773.9640887,-2.1412065029144287,-1.333443970685341,-2.5272071997271937,6.109640705376425,1.018548607826233,-3.1207760016070765
1708433773.9660752,-2.141235828399658,-1.3334114712527771,-2.527181927357809,6.109591710358419,1.018548607826233,-3.1208160559283655
1708433773.9681113,-2.141240358352661,-1.3333790761283417,-2.5272026697741907,6.109643804817953,1.0185116529464722,-3.120768133793966
1708433773.9700854,-2.141162395477295,-1.3333955866149445,-2.5272071997271937,6.109645116120138,1.0185235738754272,-3.120763603840963
1708433773.9720807,-2.1412243843078613,-1.3334200543216248,-2.5272281805621546,6.109643804817953,1.0185692310333252,-3.1208458582507532
1708433773.9740782,-2.14123797416687,-1.3333912801793595,-2.5272071997271937,6.109657037049093,1.0185561180114746,-3.1207590738879603
1708433773.9760737,-2.141240358352661,-1.3334277433208008,-2.5272236506091517,6.109637605934896,1.018527865409851,-3.120763603840963
1708433773.9780838,-2.1412065029144287,-1.333395616417267,-2.5272281805621546,6.10965262630538,1.0185648202896118,-3.1207545439349573
1708433773.9800754,-2.1412289142608643,-1.3334072095206757,-2.5271695295916956,6.109575021057882,1.018527865409851,-3.1207714716540735
1708433773.9820743,-2.141244888305664,-1.3334483069232483,-2.5272565523730677,6.109640705376425,1.0185322761535645,-3.1208177248584192
1708433773.9841077,-2.141244888305664,-1.3334362518838425,-2.5272026697741907,6.109649526863851,1.0185116529464722,-3.120838467274801
1708433773.9860845,-2.1412289142608643,-1.3334680509618302,-2.527231041585104,6.109615552216329,1.0185561180114746,-3.1207426230060022
1708433773.9880986,-2.141190528869629,-1.333452583556511,-2.5272117296801966,6.109643804817953,1.018527865409851,-3.1208086649524134
1708433773.9900935,-2.141249418258667,-1.3334114861539383,-2.5272117296801966,6.109707224159994,1.0185235738754272,-3.1207805315600794
1708433773.9920924,-2.141181707382202,-1.333399922852852,-2.5272355715381067,6.109619962960043,1.0185397863388062,-3.1207760016070765
1708433773.994104,-2.141244888305664,-1.3333912652781983,-2.5272191206561487,6.109603631287374,1.0185397863388062,-3.1207879225360315
1708433773.9960854,-2.1412198543548584,-1.3334114712527771,-2.5271573702441614,6.109694111138143,1.018548607826233,-3.1207545439349573
1708433773.9980805,-2.1412243843078613,-1.333439664249756,-2.5272207895862024,6.109616863518514,1.0185322761535645,-3.1208177248584192
1708433774.0000858,-2.1412289142608643,-1.3334362667850037,-2.5272191206561487,6.109658348351278,1.0185528993606567,-3.1207969824420374
1708433774.002075,-2.141260862350464,-1.3333628636649628,-2.527247492467062,6.109649526863851,1.0185441970825195,-3.1207924524890345
1708433774.0041056,-2.141162395477295,-1.3334277433208008,-2.52718168893923,6.1096852896507166,1.0185682773590088,-3.1208131949054163
1708433774.0060844,-2.1412065029144287,-1.3334362667850037,-2.527205769215719,6.109645116120138,1.018581509590149,-3.120763603840963
1708433774.0080967,-2.141190528869629,-1.3334777069142838,-2.5271952787982386,6.109587418823995,1.0185846090316772,-3.120838467274801
1708433774.01011,-2.1412289142608643,-1.3334200394204636,-2.5272401014911097,6.109694111138143,1.0185517072677612,-3.1207760016070765
1708433774.0120938,-2.141201972961426,-1.333399922852852,-2.5272281805621546,6.109657037049093,1.0185726881027222,-3.1207805315600794
1708433774.0141296,-2.1412155628204346,-1.3334158074906846,-2.5272071997271937,6.109616863518514,1.0185890197753906,-3.1208086649524134
1708433774.0161169,-2.141240358352661,-1.3333628487638016,-2.5272191206561487,6.109657037049093,1.018593430519104,-3.1207924524890345
1708433774.018084,-2.141265392303467,-1.3334277433208008,-2.5272071997271937,6.109616863518514,1.0185072422027588,-3.1208162943469446
1708433774.0200877,-2.1412742137908936,-1.3333913099816819,-2.5272117296801966,6.1096852896507166,1.0185561180114746,-3.1207924524890345
1708433774.022076,-2.141201972961426,-1.333427758221962,-2.5272327105151575,6.109645116120138,1.0185399055480957,-3.1207264105426233
1708433774.024085,-2.1412243843078613,-1.3334041398814698,-2.5272281805621546,6.109645116120138,1.0185073614120483,-3.1207426230060022
1708433774.0260818,-2.141253709793091,-1.3334158223918458,-2.5271862188922327,6.109645116120138,1.0185028314590454,-3.1208296457873743
1708433774.0280943,-2.1412110328674316,-1.3334483069232483,-2.5272489229785364,6.109686600952902,1.018514633178711,-3.1208072344409388
1708433774.0301037,-2.1412289142608643,-1.3334562194398423,-2.5271740595446985,6.109694111138143,1.0185517072677612,-3.1208012739764612
1708433774.032119,-2.141253709793091,-1.3334524643472214,-2.5271785894977015,6.109633195191183,1.0185397863388062,-3.1207714716540735
1708433774.0341003,-2.141190528869629,-1.333432064657547,-2.5272401014911097,6.109640705376425,1.0185517072677612,-3.1207714716540735
1708433774.0361125,-2.141233444213867,-1.3334234219840546,-2.5272355715381067,6.10966585853652,1.0185116529464722,-3.1207969824420374
1708433774.0381026,-2.1411995887756348,-1.3333912950805207,-2.5272191206561487,6.109649526863851,1.0185561180114746,-3.1208086649524134
1708433774.0401177,-2.141242265701294,-1.3334362667850037,-2.5272117296801966,6.109686481743612,1.0185397863388062,-3.1207805315600794
1708433774.0420995,-2.1412289142608643,-1.33347241700206,-2.5272443930255335,6.10966585853652,1.0185397863388062,-3.1207924524890345
1708433774.0441213,-2.141197443008423,-1.333408535724022,-2.5272026697741907,6.109623062401571,1.018548607826233,-3.1207590738879603
1708433774.0460927,-2.1412110328674316,-1.333391235475876,-2.5272355715381067,6.109636294632711,1.0185648202896118,-3.1207380930529993
1708433774.048094,-2.141190528869629,-1.3334071946195145,-2.527247492467062,6.109633195191183,1.0185638666152954,-3.1207590738879603
1708433774.0500958,-2.1412155628204346,-1.3334071946195145,-2.5272236506091517,6.109633195191183,1.0185726881027222,-3.1207850615130823
1708433774.0520816,-2.141240358352661,-1.3333998632482071,-2.5272191206561487,6.109624373703756,1.0185770988464355,-3.1207969824420374
1708433774.0540998,-2.141195058822632,-1.3334524941495438,-2.5271907488452356,6.109619962960043,1.0185561180114746,-3.1208413282977503
1708433774.056106,-2.1412899494171143,-1.3334362667850037,-2.5271649996386927,6.109609353333273,1.0185890197753906,-3.120747152959005
1708433774.058089,-2.141253709793091,-1.333439664249756,-2.5272026697741907,6.109600531845846,1.0185890197753906,-3.1207760016070765
1708433774.0601182,-2.141195058822632,-1.3334767830422898,-2.5271320978747767,6.109608042031088,1.0185846090316772,-3.1207760016070765
1708433774.0620925,-2.141256093978882,-1.3334157925895234,-2.5272117296801966,6.109645116120138,1.0185517072677612,-3.1207760016070765
1708433774.0640988,-2.1411995887756348,-1.3334724319032212,-2.5272355715381067,6.109624373703756,1.0185801982879639,-3.1207545439349573
1708433774.0660934,-2.1412065029144287,-1.3334200394204636,-2.527217451726095,6.109657037049093,1.0185353755950928,-3.1207850615130823
1708433774.0680974,-2.1412110328674316,-1.3333790761283417,-2.5272281805621546,6.109690892487325,1.0186055898666382,-3.1207590738879603
1708433774.0700908,-2.1412270069122314,-1.3334190261415024,-2.5272026697741907,6.109624373703756,1.0185472965240479,-3.1208043734179896
1708433774.072096,-2.1412110328674316,-1.333443970685341,-2.527214590703146,6.109637605934896,1.0185726881027222,-3.1208086649524134
1708433774.0741076,-2.1412651538848877,-1.333439664249756,-2.5272117296801966,6.109658348351278,1.0185726881027222,-3.1207879225360315
1708433774.0760942,-2.141193151473999,-1.333411530857422,-2.5271740595446985,6.10966585853652,1.0185472965240479,-3.1207895914660853
1708433774.0780993,-2.1412312984466553,-1.3334352684072037,-2.5272520224200647,6.109670269280233,1.0185801982879639,-3.1208162943469446
1708433774.080091,-2.1412289142608643,-1.333439679150917,-2.5272236506091517,6.109653937607565,1.0186011791229248,-3.1208177248584192
1708433774.0820844,-2.141242742538452,-1.333448277120926,-2.5272281805621546,6.109612452774801,1.0185846090316772,-3.1207836310016077
1708433774.0840878,-2.1412065029144287,-1.3334309321692963,-2.5272443930255335,6.109698521881857,1.0185967683792114,-3.1207850615130823
1708433774.0860898,-2.1412312984466553,-1.3334200543216248,-2.5272236506091517,6.109612452774801,1.0185428857803345,-3.1208131949054163
1708433774.088107,-2.1412110328674316,-1.3334190559438248,-2.5272281805621546,6.109649526863851,1.0185801982879639,-3.120751682912008
1708433774.0900862,-2.141249418258667,-1.3334483069232483,-2.5272191206561487,6.109653937607565,1.018563985824585,-3.1208131949054163
1708433774.092081,-2.141197443008423,-1.333395616417267,-2.5272443930255335,6.109633195191183,1.018559455871582,-3.1208131949054163
1708433774.0940943,-2.141256093978882,-1.333448351626732,-2.527198139821188,6.109624373703756,1.0185682773590088,-3.120751682912008
1708433774.0960977,-2.1412155628204346,-1.333439664249756,-2.5272281805621546,6.109637605934896,1.0185561180114746,-3.1208131949054163
1708433774.098084,-2.1412243843078613,-1.3333790314248581,-2.5271862188922327,6.109640705376425,1.0185682773590088,-3.1208041349994105
1708433774.1001005,-2.1412065029144287,-1.3334115159562607,-2.527198139821188,6.109596121102133,1.018560528755188,-3.120793883000509
1708433774.102078,-2.1412110328674316,-1.333436281686165,-2.5271952787982386,6.109661447792806,1.0186177492141724,-3.1207714716540735
1708433774.104092,-2.141235828399658,-1.3333875846913834,-2.5271862188922327,6.10964201667861,1.0185801982879639,-3.1207760016070765
1708433774.1061003,-2.1412198543548584,-1.333443970685341,-2.5272610823260706,6.109677779465475,1.0185515880584717,-3.1207924524890345
1708433774.1081219,-2.141235828399658,-1.3333912652781983,-2.527231041585104,6.109661447792806,1.0185726881027222,-3.1207969824420374
1708433774.1101124,-2.141190528869629,-1.3334320497563859,-2.5272071997271937,6.10966585853652,1.0186011791229248,-3.1207879225360315
1708433774.1120994,-2.1412854194641113,-1.3334277433208008,-2.5271740595446985,6.109600531845846,1.0185801982879639,-3.1208205858813685
1708433774.1140912,-2.141240358352661,-1.3334234219840546,-2.5272236506091517,6.1096287844474695,1.0185967683792114,-3.120763603840963
1708433774.1160927,-2.1412742137908936,-1.3334200543216248,-2.5272026697741907,6.109624373703756,1.0185967683792114,-3.120763603840963
1708433774.1181045,-2.141249418258667,-1.333427758221962,-2.5272071997271937,6.109640705376425,1.018559455871582,-3.1207714716540735
1708433774.1200917,-2.141235828399658,-1.3333869290402909,-2.5272608439074915,6.109591710358419,1.0185846090316772,-3.1207383314715784
1708433774.122085,-2.141235828399658,-1.3334309470704575,-2.5271695295916956,6.109645116120138,1.0185890197753906,-3.1207457224475306
1708433774.1240857,-2.1412065029144287,-1.3333423149636765,-2.5271740595446985,6.109637605934896,1.0185472965240479,-3.1207805315600794
1708433774.1260855,-2.141181707382202,-1.3334158223918458,-2.527198139821188,6.109609353333273,1.0185682773590088,-3.1207295099841517
1708433774.1280835,-2.1412065029144287,-1.3334396493485947,-2.527210060750143,6.109613883286276,1.018613338470459,-3.1208160559283655
1708433774.130083,-2.141240358352661,-1.3334483218244095,-2.5271862188922327,6.1096287844474695,1.0185506343841553,-3.1207836310016077
1708433774.132083,-2.141193151473999,-1.3335177165320893,-2.5271831194507044,6.1096746800239465,1.0185846090316772,-3.1207717100726526
1708433774.1340907,-2.141235828399658,-1.3334605407765885,-2.527193609868185,6.109600531845846,1.018559455871582,-3.1207879225360315
1708433774.136071,-2.141181707382202,-1.3334071946195145,-2.527226511632101,6.109600531845846,1.018559455871582,-3.1207426230060022
1708433774.1380737,-2.141244888305664,-1.333436281686165,-2.527198139821188,6.109604942589559,1.0185967683792114,-3.1207879225360315
1708433774.140089,-2.141249418258667,-1.3334072095206757,-2.5272281805621546,6.109637605934896,1.0186011791229248,-3.1207924524890345
1708433774.1420786,-2.1412312984466553,-1.3334277284196396,-2.5272401014911097,6.1095852730567834,1.0185967683792114,-3.12073523203005
1708433774.1441255,-2.1412110328674316,-1.3334277433208008,-2.527226511632101,6.109604942589559,1.018563985824585,-3.1207836310016077
1708433774.1460748,-2.141233444213867,-1.3333919805339356,-2.527181927357809,6.109604942589559,1.0185757875442505,-3.1207760016070765
1708433774.1481,-2.141188144683838,-1.3334362518838425,-2.5272281805621546,6.109572040825643,1.0185712575912476,-3.1207383314715784
1708433774.150085,-2.1412243843078613,-1.3333833676627656,-2.5272401014911097,6.109625685005941,1.0185561180114746,-3.1207969824420374
1708433774.152074,-2.1412155628204346,-1.333443970685341,-2.5272327105151575,6.109604942589559,1.018571376800537,-3.1207502524005335
1708433774.1540837,-2.1412289142608643,-1.3334190559438248,-2.5272026697741907,6.10956751087264,1.0185801982879639,-3.1207922140704554
1708433774.1560955,-2.141174554824829,-1.3334277433208008,-2.5272401014911097,6.109612452774801,1.0185728073120117,-3.1208131949054163
1708433774.1580806,-2.141186237335205,-1.3334648621133347,-2.5272489229785364,6.109633195191183,1.018559455871582,-3.1207590738879603
1708433774.1601117,-2.141185998916626,-1.333439664249756,-2.5272281805621546,6.109592664032736,1.0185472965240479,-3.1207545439349573
1708433774.1620898,-2.141190528869629,-1.333448277120926,-2.5272682348834437,6.109618294029989,1.018592357635498,-3.1207545439349573
1708433774.1640954,-2.141181707382202,-1.3333913099816819,-2.527198139821188,6.109621274262228,1.0185757875442505,-3.1207383314715784
1708433774.166104,-2.141201972961426,-1.333439664249756,-2.5272162596331995,6.109555589943685,1.0185757875442505,-3.1207671801196497
1708433774.1681097,-2.141185998916626,-1.3334190559438248,-2.527210060750143,6.109625685005941,1.0185846090316772,-3.1207383314715784
1708433774.1701145,-2.141190528869629,-1.333399922852852,-2.5272071997271937,6.109561192780294,1.0186134576797485,-3.120735470448629
1708433774.1720982,-2.141190528869629,-1.3334568750909348,-2.527189079915182,6.109664189606466,1.0185712575912476,-3.1207218805896204
1708433774.174107,-2.141233444213867,-1.3334190559438248,-2.5272520224200647,6.109573352127828,1.0185879468917847,-3.1207850615130823
1708433774.1761227,-2.1412289142608643,-1.3334072095206757,-2.5272236506091517,6.109643447190084,1.0186207294464111,-3.1208134333239954
1708433774.178089,-2.141235828399658,-1.3334439855865021,-2.527210060750143,6.109560119896688,1.0185638666152954,-3.1207805315600794
1708433774.1801376,-2.1412198543548584,-1.3333747696927567,-2.5272608439074915,6.109573352127828,1.0185801982879639,-3.120735470448629
1708433774.1820896,-2.141235828399658,-1.3334277433208008,-2.527226511632101,6.1095971939857385,1.0186089277267456,-3.120767895375387
1708433774.1841185,-2.1412110328674316,-1.3334439855865021,-2.5271740595446985,6.109540331154623,1.0185682773590088,-3.120805803929464
1708433774.1861107,-2.141251802444458,-1.3334200543216248,-2.5271876494037073,6.109561192780294,1.0185757875442505,-3.120735470448629
1708433774.1880984,-2.1412110328674316,-1.333439664249756,-2.5271862188922327,6.109552252083578,1.0185846090316772,-3.120751682912008
1708433774.1901076,-2.141244888305664,-1.3334277433208008,-2.5272281805621546,6.109537589340963,1.0185757875442505,-3.120763603840963
1708433774.1921039,-2.141240358352661,-1.3333875846913834,-2.527181927357809,6.109564530640402,1.0185844898223877,-3.120723311101095
1708433774.1941035,-2.141260862350464,-1.3334200543216248,-2.5272236506091517,6.109628188401022,1.0185846090316772,-3.120789353047506
1708433774.196103,-2.1412289142608643,-1.3333875846913834,-2.5272682348834437,6.109504568367758,1.0185890197753906,-3.120707098637716
1708433774.1981053,-2.1412270069122314,-1.3334028285792847,-2.5271862188922327,6.109525668412008,1.0185638666152954,-3.120719019566671
1708433774.2001073,-2.141265392303467,-1.333436281686165,-2.5272026697741907,6.109501588135519,1.0185846090316772,-3.120735470448629
1708433774.202101,-2.141179323196411,-1.3333875846913834,-2.5272281805621546,6.109513509064474,1.0185757875442505,-3.1207767168628138
1708433774.2040944,-2.141244888305664,-1.3334320497563859,-2.527247492467062,6.109501588135519,1.0185638666152954,-3.12079364458193
1708433774.2060933,-2.141235828399658,-1.3334027838758011,-2.527214590703146,6.109557974129476,1.0185561180114746,-3.1206820646869105
1708433774.2081046,-2.141273021697998,-1.3334158223918458,-2.5272071997271937,6.10948525646285,1.018538475036621,-3.120727841054098
1708433774.210137,-2.141282081604004,-1.3333912801793595,-2.5272355715381067,6.109497177391805,1.0185890197753906,-3.120739761983053
1708433774.2121422,-2.141179323196411,-1.3333790314248581,-2.5272401014911097,6.109522330551901,1.018563985824585,-3.120727841054098
1708433774.2141087,-2.141197443008423,-1.3334071946195145,-2.5271907488452356,6.109513509064474,1.0185682773590088,-3.1207619349109095
1708433774.2161002,-2.141256093978882,-1.3333999079516907,-2.5271649996386927,6.109489667206564,1.0185844898223877,-3.1206920782672327
1708433774.2181423,-2.1412198543548584,-1.3334234368852158,-2.5272401014911097,6.109456646233358,1.0185846090316772,-3.120699469243185
1708433774.220094,-2.1412110328674316,-1.333460510974266,-2.5271862188922327,6.109522330551901,1.0185561180114746,-3.1206966082202356
1708433774.2220962,-2.1412198543548584,-1.3334482920220871,-2.5271740595446985,6.109505998879232,1.0185682773590088,-3.1207082907306116
1708433774.2240925,-2.1412155628204346,-1.3333869290402909,-2.5272281805621546,6.109489667206564,1.0185757875442505,-3.120633665715353
1708433774.2260876,-2.141201972961426,-1.3334158223918458,-2.5272565523730677,6.109543430596151,1.0185638666152954,-3.1206350962268274
1708433774.22809,-2.141240358352661,-1.3334072095206757,-2.5272191206561487,6.109489667206564,1.0185638666152954,-3.1206722895251673
1708433774.2300956,-2.1412243843078613,-1.3334200394204636,-2.527165238057272,6.109531152039327,1.0185428857803345,-3.1206467787372034
1708433774.2321098,-2.1412110328674316,-1.3334568750909348,-2.527165238057272,6.1094610569770715,1.0185517072677612,-3.1206396261798304
1708433774.2341049,-2.1412155628204346,-1.3333671551993866,-2.5271862188922327,6.109503018646993,1.0185399055480957,-3.120676581059591
1708433774.2361445,-2.1412200927734375,-1.3334158223918458,-2.5272236506091517,6.109526741295614,1.01851487159729,-3.120664660130636
1708433774.238095,-2.141235828399658,-1.3334648174098511,-2.527231041585104,6.109441745072164,1.0185638666152954,-3.1206396261798304
1708433774.24011,-2.141183614730835,-1.3334234368852158,-2.527231041585104,6.109478699951925,1.0185397863388062,-3.120620075856344
1708433774.2420766,-2.141251802444458,-1.3333875846913834,-2.5272026697741907,6.109482276230612,1.0185399055480957,-3.1206350962268274
1708433774.2440803,-2.1412291526794434,-1.3334362667850037,-2.527198139821188,6.1094610569770715,1.0185846090316772,-3.120615545903341
1708433774.2460873,-2.141174554824829,-1.3334234368852158,-2.527210060750143,6.109503018646993,1.0185221433639526,-3.120640818272726
1708433774.2480845,-2.1412041187286377,-1.3334362667850037,-2.5272191206561487,6.109449255257406,1.0185561180114746,-3.120676581059591
1708433774.2500913,-2.1412243843078613,-1.3334158223918458,-2.5272026697741907,6.109482276230612,1.0185638666152954,-3.1206277052508753
1708433774.2520833,-2.141162395477295,-1.333399922852852,-2.5272520224200647,6.109430062561788,1.018559455871582,-3.1206615606891077
1708433774.2541194,-2.141195058822632,-1.333399922852852,-2.5272236506091517,6.109437334328451,1.0185399055480957,-3.1206451098071497
1708433774.256105,-2.1412312984466553,-1.3333913099816819,-2.5272071997271937,6.109384047776022,1.0185770988464355,-3.120620075856344
1708433774.2580984,-2.141249418258667,-1.3334320497563859,-2.527181927357809,6.109495389252462,1.0185517072677612,-3.1206660906421106
1708433774.260101,-2.141244888305664,-1.333439664249756,-2.5272565523730677,6.109434592514791,1.0185441970825195,-3.120603863392965
1708433774.2620804,-2.141179323196411,-1.3334200394204636,-2.5272071997271937,6.109490978508749,1.0185353755950928,-3.120615545903341
1708433774.2641046,-2.1412291526794434,-1.3334041398814698,-2.5272730032550257,6.1094257710273645,1.0185399055480957,-3.120587412511007
1708433774.2660983,-2.1412651538848877,-1.3334200543216248,-2.5271785894977015,6.1094655869300745,1.0185604095458984,-3.120628897343771
1708433774.2680926,-2.1412065029144287,-1.333367110495903,-2.5272730032550257,6.109453666001119,1.0185726881027222,-3.120596233998434
1708433774.2700846,-2.1412110328674316,-1.3333713424256821,-2.5271952787982386,6.109441745072164,1.0185976028442383,-3.120612446461813
1708433774.272089,-2.1411702632904053,-1.3333912801793595,-2.5271649996386927,6.109446036606588,1.0185726881027222,-3.12059194246401
1708433774.2741132,-2.141260862350464,-1.33345182359729,-2.5272491613971155,6.109450566559591,1.0185072422027588,-3.120570484791891
1708433774.2760952,-2.1411995887756348,-1.333395616417267,-2.5271740595446985,6.109437334328451,1.018560528755188,-3.120582882558004
1708433774.2780905,-2.1412110328674316,-1.3334525239518662,-2.5272355715381067,6.109469997673788,1.0185441970825195,-3.1205793062793177
1708433774.2800891,-2.1412110328674316,-1.3333790761283417,-2.5272355715381067,6.109478699951925,1.0185561180114746,-3.1205838362323206
1708433774.2820983,-2.1412065029144287,-1.333439664249756,-2.5272071997271937,6.109443414002218,1.0185441970825195,-3.120624367390768
1708433774.2840967,-2.141244888305664,-1.3334190261415024,-2.5272071997271937,6.109412419586935,1.0185203552246094,-3.1205838362323206
1708433774.286107,-2.141240358352661,-1.3333913099816819,-2.5272281805621546,6.1094223139579675,1.018560528755188,-3.1205838362323206
1708433774.2880948,-2.1412651538848877,-1.3334200543216248,-2.5271862188922327,6.109474408417501,1.0185648202896118,-3.1205628553973597
1708433774.2901063,-2.1412065029144287,-1.3334158223918458,-2.527181927357809,6.109413373261251,1.0185235738754272,-3.120617214833395
1708433774.292095,-2.1412155628204346,-1.3334482920220871,-2.527160708104269,6.109377372055807,1.0185116529464722,-3.120534960423605
1708433774.2941368,-2.141179323196411,-1.3334320497563859,-2.5271740595446985,6.109421360283651,1.0185397863388062,-3.1205762068377894
1708433774.2961183,-2.141190528869629,-1.3333833676627656,-2.5272191206561487,6.109414803772726,1.0185147523880005,-3.1205793062793177
1708433774.2981532,-2.1412289142608643,-1.3333790314248581,-2.5272446314441126,6.109434592514791,1.0185160636901855,-3.1205318609820765
1708433774.3001635,-2.1412243843078613,-1.333408535724022,-2.5271573702441614,6.109401571541586,1.0185726881027222,-3.1205642859088343
1708433774.302112,-2.141260862350464,-1.3334277433208008,-2.5271831194507044,6.109430062561788,1.0185441970825195,-3.1205318609820765
1708433774.3041096,-2.141235828399658,-1.3333868843368073,-2.5271907488452356,6.109409081726827,1.0185692310333252,-3.120544974003927
1708433774.3061285,-2.1412289142608643,-1.333443970685341,-2.5271740595446985,6.109401571541586,1.0185484886169434,-3.120596949254171
1708433774.308139,-2.1412155628204346,-1.3334475022605439,-2.5271740595446985,6.109439003258505,1.018581509590149,-3.1205881277667444
1708433774.3101268,-2.1412065029144287,-1.3334158223918458,-2.5272162596331995,6.109372126847067,1.0185279846191406,-3.1205361525165003
1708433774.3121195,-2.1412289142608643,-1.333443970685341,-2.5271876494037073,6.109430062561788,1.0185322761535645,-3.120568815861837
1708433774.3141203,-2.1412289142608643,-1.3334406924298783,-2.5272026697741907,6.109431135445394,1.0185726881027222,-3.120556894932882
1708433774.3161368,-2.1412696838378906,-1.3334277433208008,-2.5272026697741907,6.109394061356344,1.0185203552246094,-3.1205199400531214
1708433774.3181107,-2.1412065029144287,-1.333399922852852,-2.5271907488452356,6.109401571541586,1.0185235738754272,-3.1205034891711634
1708433774.3200955,-2.141183614730835,-1.333448277120926,-2.527198139821188,6.10936866977767,1.018548607826233,-3.1205154101001185
1708433774.3220994,-2.141179323196411,-1.3334115010550995,-2.52718168893923,6.109474408417501,1.0185455083847046,-3.120556894932882
1708433774.3241205,-2.1412110328674316,-1.3334158223918458,-2.5272401014911097,6.109397041588583,1.0185235738754272,-3.120573107396261
1708433774.3261154,-2.1412289142608643,-1.3334525239518662,-2.5271573702441614,6.109430062561788,1.0184872150421143,-3.1205111185656946
1708433774.3281078,-2.1412041187286377,-1.3333713424256821,-2.527142588292257,6.109397041588583,1.0184872150421143,-3.1205318609820765
1708433774.330106,-2.1412243843078613,-1.333448277120926,-2.5272327105151575,6.109413373261251,1.0185322761535645,-3.120598379765646
1708433774.3321152,-2.1412110328674316,-1.3334041398814698,-2.5272117296801966,6.109417903214254,1.0185322761535645,-3.1205199400531214
1708433774.3341126,-2.1412289142608643,-1.3333551448634644,-2.5272162596331995,6.109359729080953,1.018479824066162,-3.12051231065859
1708433774.3360832,-2.1412110328674316,-1.333395616417267,-2.5271619001971644,6.109413373261251,1.0184828042984009,-3.120516602193014
1708433774.3380892,-2.141249418258667,-1.3333584827235718,-2.527175490056173,6.109434592514791,1.0184828042984009,-3.1205480734454554
1708433774.3401003,-2.141186237335205,-1.3334406924298783,-2.527104918156759,6.109356629639425,1.0185292959213257,-3.120561186467306
1708433774.3420994,-2.1412155628204346,-1.3334648174098511,-2.527097527180807,6.109447824745931,1.0184621810913086,-3.1204784552203577
1708433774.3441043,-2.141233444213867,-1.3333628487638016,-2.527097527180807,6.109377372055807,1.018484115600586,-3.1205154101001185
1708433774.3460867,-2.141183614730835,-1.3334439855865021,-2.527064625416891,6.109414922982015,1.018479824066162,-3.120528523121969
1708433774.3480911,-2.141195058822632,-1.3334277433208008,-2.5271111170398157,6.109417903214254,1.0185203552246094,-3.1204960981952112
1708433774.3501008,-2.141197443008423,-1.3334482920220871,-2.5271366278277796,6.109398591309347,1.0184767246246338,-3.120544974003927
1708433774.3520904,-2.141201972961426,-1.3334439855865021,-2.5270660559283655,6.109397041588583,1.018479824066162,-3.120521370564596
1708433774.354088,-2.141188144683838,-1.3334277433208008,-2.5271080175982874,6.1093729613120935,1.018466591835022,-3.120528523121969
1708433774.356097,-2.141249418258667,-1.3334028285792847,-2.5270989576922815,6.109417903214254,1.0185484886169434,-3.120540444050924
1708433774.3580945,-2.141233444213867,-1.333443970685341,-2.527100388203756,6.109450566559591,1.018515944480896,-3.12051231065859
1708433774.360091,-2.1412155628204346,-1.3333628487638016,-2.5271201769458216,6.109441745072164,1.0185365676879883,-3.12052566209902
1708433774.3620868,-2.141233444213867,-1.3334277433208008,-2.5270496050464075,6.109417903214254,1.0184634923934937,-3.120471779500143
1708433774.3640928,-2.141235828399658,-1.3333833527616044,-2.5271170775042933,6.109394061356344,1.018537998199463,-3.120467011128561
1708433774.3660858,-2.141253709793091,-1.333448277120926,-2.5270541349994105,6.109356629639425,1.0185497999191284,-3.120478932057516
1708433774.3680973,-2.1412155628204346,-1.3334482920220871,-2.527116839085714,6.109398591309347,1.0184621810913086,-3.120471779500143
1708433774.3700962,-2.141233444213867,-1.3334041398814698,-2.5271201769458216,6.1094103930290125,1.0184842348098755,-3.120500389729635
1708433774.372096,-2.1412289142608643,-1.3334200394204636,-2.5270586649524134,6.109394061356344,1.0184872150421143,-3.120434586201803
1708433774.3741033,-2.141273021697998,-1.3334027838758011,-2.5270615259753626,6.109394061356344,1.0184634923934937,-3.1204915682422083
1708433774.376086,-2.141179323196411,-1.333439664249756,-2.5270705858813685,6.109377372055807,1.0184708833694458,-3.1205080191241663
1708433774.378096,-2.1412110328674316,-1.3333800596049805,-2.5270898977862757,6.109417903214254,1.0184392929077148,-3.1204968134509485
1708433774.3800948,-2.1412110328674316,-1.333395616417267,-2.5271411577807825,6.1094549773033044,1.0184797048568726,-3.120483462010519
1708433774.3820906,-2.141183853149414,-1.333408535724022,-2.5270870367633265,6.109356748848715,1.0184392929077148,-3.12051231065859
1708433774.384099,-2.1412198543548584,-1.3334128272584458,-2.5271156469928187,6.109426724701681,1.0184305906295776,-3.1204641501056116
1708433774.3861024,-2.1412696838378906,-1.3333833527616044,-2.527106587086813,6.109398591309347,1.0184810161590576,-3.120509449635641
1708433774.388135,-2.141251802444458,-1.3333919805339356,-2.5270825068103235,6.109434592514791,1.0184688568115234,-3.1204760710345667
1708433774.3900988,-2.1412243843078613,-1.333443970685341,-2.5271275679217737,6.10938190200881,1.0184677839279175,-3.120487991963522
1708433774.3921132,-2.141183614730835,-1.333448277120926,-2.5270825068103235,6.109364139824667,1.0184929370880127,-3.1204803625689905
1708433774.3940895,-2.1411995887756348,-1.3333913099816819,-2.5270541349994105,6.1094103930290125,1.0184810161590576,-3.120504919682638
1708433774.396099,-2.141190528869629,-1.3333999079516907,-2.5271247068988245,6.1093729613120935,1.0184766054153442,-3.1204641501056116
1708433774.3980892,-2.141240358352661,-1.3334234219840546,-2.5270705858813685,6.109389650612631,1.0184721946716309,-3.12044340768923
1708433774.4001057,-2.1411995887756348,-1.3333913099816819,-2.5270705858813685,6.109414922982015,1.0184885263442993,-3.120422665272848
1708433774.4020903,-2.14123797416687,-1.333408535724022,-2.5271289984332483,6.109377372055807,1.0184272527694702,-3.1204760710345667
1708433774.404124,-2.141195058822632,-1.333443970685341,-2.5271034876452845,6.109405982285299,1.0184766054153442,-3.1204891840564173
1708433774.4060884,-2.1412084102630615,-1.3333869290402909,-2.5270825068103235,6.109407293587484,1.0184392929077148,-3.120459858571188
1708433774.4081106,-2.141244888305664,-1.3334562194398423,-2.5270496050464075,6.109431254654684,1.018485426902771,-3.1204641501056116
1708433774.410124,-2.1412289142608643,-1.3333868843368073,-2.5271366278277796,6.10936866977767,1.0184481143951416,-3.1204314867602747
1708433774.4121146,-2.1411995887756348,-1.3334320497563859,-2.5270453135119837,6.109316336899557,1.0184688568115234,-3.1204314867602747
1708433774.4141154,-2.141201972961426,-1.3334041398814698,-2.5271156469928187,6.109369981079855,1.0184152126312256,-3.1204522291766565
1708433774.4161212,-2.1412243843078613,-1.3334406477263947,-2.5270898977862757,6.1094103930290125,1.0184688568115234,-3.1204922834979456
1708433774.418136,-2.1412289142608643,-1.3333868843368073,-2.5270944277392786,6.109405982285299,1.0184775590896606,-3.120394531880514
1708433774.4200993,-2.1412198543548584,-1.3334277433208008,-2.5270705858813685,6.109394061356344,1.0184271335601807,-3.1204195658313196
1708433774.4220886,-2.1412110328674316,-1.3334190559438248,-2.5271275679217737,6.109356629639425,1.0183955430984497,-3.1204641501056116
1708433774.4241233,-2.141201972961426,-1.3334072095206757,-2.5271201769458216,6.109336006432333,1.018431544303894,-3.1204033533679407
1708433774.4261131,-2.141197443008423,-1.3334524941495438,-2.5270779768573206,6.109431135445394,1.0184152126312256,-3.1204729715930384
1708433774.4280918,-2.1412243843078613,-1.3333833527616044,-2.5271080175982874,6.109441745072164,1.0184437036514282,-3.1204610506640833
1708433774.430094,-2.141240358352661,-1.3334406924298783,-2.5271156469928187,6.109394061356344,1.0184197425842285,-3.1204684416400355
1708433774.4321017,-2.1412065029144287,-1.3334115159562607,-2.5270779768573206,6.10938190200881,1.0184240341186523,-3.1204283873187464
1708433774.4341114,-2.1412155628204346,-1.3333875846913834,-2.5270796457873743,6.109426724701681,1.0184810161590576,-3.1204491297351282
1708433774.4361107,-2.1412198543548584,-1.3333999079516907,-2.5270751158343714,6.109398591309347,1.0184240341186523,-3.1204076449023646
1708433774.438092,-2.1412110328674316,-1.333443970685341,-2.527106587086813,6.109377372055807,1.0184731483459473,-3.12043267885317
1708433774.4401102,-2.141166925430298,-1.3334028285792847,-2.5270705858813685,6.109434592514791,1.0184240341186523,-3.1204403082477015
1708433774.4420896,-2.141201972961426,-1.3334028285792847,-2.5271337668048304,6.10938190200881,1.0184657573699951,-3.1204445997821253
1708433774.4440994,-2.1412243843078613,-1.3334362667850037,-2.5271080175982874,6.109389650612631,1.0184073448181152,-3.1204403082477015
1708433774.4461055,-2.141235828399658,-1.3334320497563859,-2.5270960966693323,6.109405982285299,1.0184152126312256,-3.1204360167132776
1708433774.4481032,-2.1412155628204346,-1.33345182359729,-2.5271275679217737,6.109405982285299,1.0183911323547363,-3.1204033533679407
1708433774.4500935,-2.1412198543548584,-1.3334362667850037,-2.5271499792682093,6.1094103930290125,1.0183911323547363,-3.1204195658313196
1708433774.4521046,-2.141197443008423,-1.333408535724022,-2.5270915667163294,6.109364139824667,1.0184205770492554,-3.1204357782946985
1708433774.4540792,-2.141185998916626,-1.3333747249892731,-2.5270825068103235,6.109413373261251,1.0184240341186523,-3.1205011049853724
1708433774.456113,-2.141179323196411,-1.3334320497563859,-2.5270705858813685,6.10940300205306,1.0184284448623657,-3.1204522291766565
1708433774.4580865,-2.1411702632904053,-1.3333875846913834,-2.5270870367633265,6.109419214516439,1.0184284448623657,-3.1204729715930384
1708433774.4600835,-2.141201972961426,-1.3333875846913834,-2.5270989576922815,6.1094103930290125,1.018399953842163,-3.12044340768923
1708433774.4620738,-2.1412243843078613,-1.3334277433208008,-2.5271034876452845,6.109446036606588,1.0183955430984497,-3.120487991963522
1708433774.46409,-2.141193151473999,-1.3334449541619797,-2.5270660559283655,6.109439003258505,1.018432855606079,-3.120439116154806
1708433774.4660814,-2.141235828399658,-1.3333551448634644,-2.5270870367633265,6.109394061356344,1.018334150314331,-3.12052566209902
1708433774.4681118,-2.141240358352661,-1.3333703738502045,-2.5271366278277796,6.1094223139579675,1.0184162855148315,-3.1204960981952112
1708433774.4701476,-2.141170024871826,-1.3334200394204636,-2.5270989576922815,6.109417903214254,1.0183837413787842,-3.120544974003927
1708433774.4721506,-2.14123797416687,-1.3333790761283417,-2.5270453135119837,6.109392750054159,1.0184248685836792,-3.12051231065859
1708433774.4741013,-2.141233444213867,-1.3333999079516907,-2.5270705858813685,6.109361040383138,1.018355131149292,-3.1205080191241663
1708433774.4761052,-2.141201972961426,-1.3334041398814698,-2.5270825068103235,6.109365570336141,1.0184086561203003,-3.1205838362323206
1708433774.4780855,-2.1412289142608643,-1.333439664249756,-2.5271156469928187,6.109389650612631,1.0183089971542358,-3.120620075856344
1708433774.4800913,-2.141201972961426,-1.3333919954350968,-2.5270870367633265,6.109417903214254,1.0183924436569214,-3.120599333439962
1708433774.482086,-2.1412198543548584,-1.3334777069142838,-2.5270989576922815,6.1094432947929285,1.0183595418930054,-3.1206467787372034
1708433774.484114,-2.1412291526794434,-1.3333681386760254,-2.5270898977862757,6.109352338105001,1.018376111984253,-3.120702330266134
1708433774.4860857,-2.1412270069122314,-1.3334200543216248,-2.5270989576922815,6.109439003258505,1.0183517932891846,-3.1206920782672327
1708433774.4880977,-2.141190528869629,-1.3333833527616044,-2.5271034876452845,6.109419214516439,1.0183517932891846,-3.1207528750049036
1708433774.4900808,-2.1412243843078613,-1.333448277120926,-2.5271034876452845,6.109434592514791,1.018393874168396,-3.1207812468158167
1708433774.4921138,-2.141195058822632,-1.3334158223918458,-2.5271201769458216,6.109340297966757,1.0183025598526,-3.1208012739764612
1708433774.494089,-2.1412289142608643,-1.3333833527616044,-2.5270705858813685,6.109380829125204,1.0183560848236084,-3.1208367983447474
1708433774.4961002,-2.141185998916626,-1.3333919805339356,-2.5270705858813685,6.1094223139579675,1.0182619094848633,-3.1208398977862757
1708433774.4980788,-2.1412110328674316,-1.3334612411311646,-2.5270825068103235,6.109377372055807,1.0183277130126953,-3.1208956877337855
1708433774.5000908,-2.141195297241211,-1.333436296587326,-2.5270870367633265,6.1094223139579675,1.0182995796203613,-3.1209855715381067
1708433774.5020843,-2.1412243843078613,-1.333424450164177,-2.5270751158343714,6.1094103930290125,1.0183038711547852,-3.121025625859396
1708433774.5040917,-2.141201972961426,-1.3334439855865021,-2.5270631949054163,6.109413373261251,1.0183038711547852,-3.1209827105151575
1708433774.5060925,-2.1411702632904053,-1.3334525239518662,-2.5270960966693323,6.109347808151998,1.0183157920837402,-3.121067825947897
1708433774.5081015,-2.1412065029144287,-1.3333094430020829,-2.5270915667163294,6.109428036003866,1.0183038711547852,-3.1211112181292933
1708433774.5101552,-2.1412110328674316,-1.3334115010550995,-2.5270915667163294,6.109356629639425,1.0183038711547852,-3.12124473253359
1708433774.5121207,-2.1412289142608643,-1.333436281686165,-2.5270586649524134,6.1093764183814905,1.0183038711547852,-3.1213460604297083
1708433774.514118,-2.141240358352661,-1.333371327524521,-2.5270915667163294,6.1093580601509,1.018320083618164,-3.121385161076681
1708433774.5161014,-2.141244888305664,-1.3333595109036942,-2.5271034876452845,6.10940300205306,1.0183082818984985,-3.1214690844165247
1708433774.518086,-2.141233444213867,-1.3333713871291657,-2.5270779768573206,6.109365570336141,1.018296480178833,-3.121502701436178
1708433774.5200803,-2.141249418258667,-1.333367110495903,-2.5270915667163294,6.10934470871047,1.0182632207870483,-3.12162429491152
1708433774.5220878,-2.1412243843078613,-1.3333800596049805,-2.5270631949054163,6.109362470894613,1.0182514190673828,-3.1217427889453333
1708433774.5241,-2.1412110328674316,-1.3333955866149445,-2.5270586649524134,6.109355079918661,1.018288254737854,-3.121897045766012
1708433774.5260909,-2.1412110328674316,-1.3334200543216248,-2.5270422140704554,6.109322058945455,1.0182470083236694,-3.1219545046435755
1708433774.5280902,-2.1411995887756348,-1.3333919805339356,-2.5270779768573206,6.109342682152548,1.0182307958602905,-3.12207538286318
1708433774.5300837,-2.141233444213867,-1.3334085059216996,-2.527104918156759,6.109301674156942,1.0182350873947144,-3.122235123311178
1708433774.5321443,-2.141253709793091,-1.333355189566948,-2.5270331541644495,6.109304058342733,1.018272042274475,-3.1223390738116663
1708433774.5341148,-2.141190528869629,-1.3334200394204636,-2.5270631949054163,6.109274375229635,1.0182108879089355,-3.1225202719317835
1708433774.5361073,-2.141185998916626,-1.3333681386760254,-2.5270960966693323,6.109266865044393,1.0182185173034668,-3.122643057500021
1708433774.5380974,-2.141166925430298,-1.3333757382682343,-2.5270496050464075,6.109201180725851,1.0182108879089355,-3.122758213673727
1708433774.5400906,-2.1412110328674316,-1.3334005934051056,-2.5270541349994105,6.109235274582662,1.0182437896728516,-3.122958485280172
1708433774.542082,-2.1412110328674316,-1.3333963018706818,-2.5271170775042933,6.109149205475607,1.0182526111602783,-3.1231396834002894
1708433774.5440881,-2.1412110328674316,-1.3333560240319748,-2.527118746434347,6.109108793526449,1.0182183980941772,-3.123287026082174
1708433774.5460827,-2.1412110328674316,-1.3333833527616044,-2.5270302931415003,6.109118926316061,1.0182316303253174,-3.123467747365133
1708433774.548121,-2.1412084102630615,-1.3333757531693955,-2.5270660559283655,6.1091264365013025,1.0182316303253174,-3.1236465612994593
1708433774.5500922,-2.141188144683838,-1.3333930981210251,-2.5270512739764612,6.109053599625387,1.0181868076324463,-3.1237905661212366
1708433774.5520914,-2.141183614730835,-1.3333681237748642,-2.5270512739764612,6.109100925713339,1.018178105354309,-3.1239658037768763
1708433774.5540955,-2.1412174701690674,-1.3333595109036942,-2.5270376841174524,6.108997928887167,1.0182075500488281,-3.1241782347308558
1708433774.5561118,-2.1411757469177246,-1.3333757382682343,-2.5270870367633265,6.10892807224349,1.0182316303253174,-3.1244357267962855
1708433774.5580857,-2.1411845684051514,-1.3334171783975144,-2.5270586649524134,6.10895465591506,1.018195629119873,-3.1245573202716272
1708433774.5600853,-2.1411845684051514,-1.3333725345185776,-2.527060333882467,6.10895465591506,1.0182000398635864,-3.124773089085714
1708433774.562073,-2.1411473751068115,-1.3334050190499802,-2.5270796457873743,6.108947145729818,1.0181913375854492,-3.125016991292135
1708433774.5641103,-2.141127109527588,-1.333359496002533,-2.5270512739764612,6.108881461411276,1.018162727355957,-3.125237528477804
1708433774.566079,-2.1411495208740234,-1.333388776784279,-2.5270825068103235,6.1089199660118005,1.0181584358215332,-3.125476662312643
1708433774.5680985,-2.1411564350128174,-1.3333931130221863,-2.5270348230945032,6.10885916927413,1.0181877613067627,-3.1256476084338587
1708433774.570099,-2.1411359310150146,-1.3334128570607682,-2.5270512739764612,6.108905064850607,1.0181878805160522,-3.1258800665484827
1708433774.5720856,-2.1410906314849854,-1.3333681386760254,-2.527121369038717,6.10882734039382,1.0182044506072998,-3.1261075178729456
1708433774.5740848,-2.1411359310150146,-1.3333223027041932,-2.5270302931415003,6.108836281090536,1.018174648284912,-3.1264124552356165
1708433774.5760832,-2.1410715579986572,-1.3333671402982255,-2.5271006266223353,6.108795869141378,1.0182000398635864,-3.1266148726092737
1708433774.5781112,-2.141052007675171,-1.3334049445441742,-2.5270376841174524,6.108780848770895,1.0181584358215332,-3.126930538808004
1708433774.5800836,-2.1410725116729736,-1.3333757382682343,-2.5270841757403772,6.108736264496603,1.0182163715362549,-3.1271899382220667
1708433774.5820806,-2.1410272121429443,-1.3333224070123215,-2.5270915667163294,6.108749496727743,1.0181834697723389,-3.1274667421924036
1708433774.5840752,-2.1410043239593506,-1.3334041100791474,-2.5270586649524134,6.108721363335409,1.018162727355957,-3.127742354069845
1708433774.5861032,-2.1410176753997803,-1.3333919805339356,-2.5270422140704554,6.108639108925619,1.0182163715362549,-3.1279688517199915
1708433774.5880985,-2.140968084335327,-1.3333681386760254,-2.5270348230945032,6.108616578369894,1.018174648284912,-3.128260914479391
1708433774.5900848,-2.1409037113189697,-1.3333843809417267,-2.527055803929464,6.108637678414144,1.0182000398635864,-3.1285703817950647
1708433774.592082,-2.1408708095550537,-1.3334128570607682,-2.5270302931415003,6.10854338386611,1.0182163715362549,-3.128878180180685
1708433774.5941367,-2.1408913135528564,-1.3333681386760254,-2.5270260016070765,6.108598458557882,1.0181715488433838,-3.1292014757739466
1708433774.5960774,-2.14083194732666,-1.3333638173392792,-2.527104918156759,6.108467447548666,1.0182031393051147,-3.1295579115497034
1708433774.5980852,-2.1408274173736572,-1.3333757382682343,-2.5270348230945032,6.108477461128988,1.018162727355957,-3.129908625279562
1708433774.6000953,-2.140829563140869,-1.3334287715009232,-2.527017895375387,6.108416545182028,1.018195629119873,-3.130244318638937
1708433774.6020856,-2.1407222747802734,-1.3333757382682343,-2.527072016392843,6.108404743462362,1.0181715488433838,-3.1306126753436487
1708433774.6040962,-2.1407480239868164,-1.3333638322404404,-2.527043883000509,6.108390676766195,1.0182044506072998,-3.130971972142355
1708433774.60609,-2.140672445297241,-1.3333638173392792,-2.526989523564474,6.108297216683187,1.0181790590286255,-3.1313560644732874
1708433774.6081028,-2.1406314373016357,-1.333350883131363,-2.527052942906515,6.1082849381263635,1.0182000398635864,-3.1317041555987757
1708433774.6100936,-2.1406166553497314,-1.3333757382682343,-2.527055803929464,6.108217584877767,1.0182044506072998,-3.1320415178882044
1708433774.612134,-2.140568733215332,-1.333359496002533,-2.5270376841174524,6.108205306320944,1.0181834697723389,-3.132418696080343
1708433774.614113,-2.1405484676361084,-1.3333963018706818,-2.5270631949054163,6.1081488011176965,1.0182044506072998,-3.1327770392047327
1708433774.61611,-2.1405088901519775,-1.333424450164177,-2.5270751158343714,6.108089077263632,1.0181715488433838,-3.1331616083728235
1708433774.6180942,-2.140451192855835,-1.3333713424256821,-2.5270870367633265,6.108005273133077,1.0181834697723389,-3.133606497441427
1708433774.6200864,-2.140411615371704,-1.3334493351033707,-2.5271034876452845,6.108030545502462,1.018192172050476,-3.1339803377734583
1708433774.6220798,-2.1404037475585938,-1.3334287416986008,-2.5270825068103235,6.107966649323263,1.0182000398635864,-3.13440448442568
1708433774.6241157,-2.1403558254241943,-1.3333868843368073,-2.5270705858813685,6.107899176865377,1.0182044506072998,-3.1347997824298304
1708433774.6260874,-2.140288829803467,-1.3333671253970643,-2.5270660559283655,6.107846724777975,1.0181913375854492,-3.1352348963366907
1708433774.6280851,-2.1402738094329834,-1.333432064657547,-2.5270660559283655,6.107757317810812,1.0182241201400757,-3.135675017033712
1708433774.6301003,-2.140183687210083,-1.333448277120926,-2.5270989576922815,6.107690083771505,1.0182404518127441,-3.1361375490771692
1708433774.6320972,-2.140152931213379,-1.3333912801793595,-2.5271320978747767,6.107659804611959,1.0182689428329468,-3.136482540761129
1708433774.6340928,-2.1400811672210693,-1.3334483367255707,-2.527118508015768,6.10755084732131,1.0182404518127441,-3.1368983427630823
1708433774.636097,-2.1400539875030518,-1.3334648323110123,-2.527135197316305,6.107531535416403,1.0182404518127441,-3.1374123732196253
1708433774.638106,-2.139972686767578,-1.3334352684072037,-2.527130667363302,6.107431161194601,1.0182316303253174,-3.137876097355978
1708433774.6400986,-2.1399292945861816,-1.3334756654552002,-2.527175490056173,6.107362854271688,1.0182557106018066,-3.138287130986349
1708433774.6420808,-2.139800548553467,-1.3334997606328507,-2.5271785894977015,6.107332575112142,1.018288254737854,-3.138738218938009
1708433774.6440945,-2.1397411823272705,-1.3335604232600708,-2.5272579828845423,6.1072192070777795,1.0182750225067139,-3.13922626176943
1708433774.6460748,-2.139674186706543,-1.333559350376465,-2.527214590703146,6.107132422714987,1.0183038711547852,-3.1397419611560267
1708433774.6480987,-2.139570713043213,-1.3335878264955063,-2.527288262044088,6.107015836029806,1.0183364152908325,-3.1402574221240442
1708433774.650093,-2.1394665241241455,-1.3336473417333146,-2.5272792021380823,6.106936919480123,1.018290638923645,-3.1407249609576624
1708433774.6520772,-2.1394197940826416,-1.3336189550212403,-2.5273481051074427,6.106867778092184,1.0183606147766113,-3.141202990208761
1708433774.654094,-2.1393277645111084,-1.3336754602244874,-2.5273435751544397,6.106827485352316,1.0183674097061157,-3.141686741505758
1708433774.6560917,-2.1391899585723877,-1.3336344224265595,-2.5273450056659144,6.1066781161125085,1.0184043645858765,-3.1421898047076624
1708433774.6581202,-2.139103412628174,-1.333755911593773,-2.5274110476123255,6.1065406678016565,1.0184074640274048,-3.1427024046527308
1708433774.6601567,-2.138984203338623,-1.3338006746819993,-2.5275052229510706,6.10646282413558,1.0184118747711182,-3.143162790928976
1708433774.6620932,-2.138815402984619,-1.3337627214244385,-2.527482811604635,6.106358516007223,1.018480896949768,-3.1437609831439417
1708433774.6641397,-2.138688564300537,-1.3337984693101426,-2.5275309721576136,6.10627161243514,1.0185203552246094,-3.1442106405841272
1708433774.666097,-2.138563632965088,-1.3337977689555665,-2.5275760332690638,6.106119382172384,1.0185561180114746,-3.144737784062521
1708433774.66809,-2.1384692192077637,-1.333890752201416,-2.527579132710592,6.106012809067526,1.0185890197753906,-3.1452413241015833
1708433774.6700876,-2.1382853984832764,-1.3339430701783677,-2.5276148954974573,6.10588430145339,1.018592357635498,-3.1458378473864954
1708433774.6721237,-2.138152837753296,-1.3339992624572297,-2.52775746980776,6.105736362725057,1.018635869026184,-3.1462906042682093
1708433774.6740868,-2.137911796569824,-1.3340308529189606,-2.5277724901782435,6.1056017754371545,1.0187016725540161,-3.146862570439474
1708433774.6761074,-2.1378304958343506,-1.334074230199196,-2.527846161519186,6.105429875641622,1.018716812133789,-3.1474018732654017
1708433774.6780934,-2.1376378536224365,-1.3341222417405625,-2.5279136339770716,6.105213510781088,1.0187902450561523,-3.1479700247394007
1708433774.6801617,-2.137450695037842,-1.3341179204038163,-2.527940336857931,6.105008828430929,1.0187922716140747,-3.1485171953784388
1708433774.6820903,-2.1372475624084473,-1.3342101585916062,-2.5280545393573206,6.104812967568197,1.0188900232315063,-3.1490519682513636
1708433774.684089,-2.1369805335998535,-1.3342290681651612,-2.528076950703756,6.104638087540426,1.0189703702926636,-3.1496344248401087
1708433774.6861022,-2.1367738246917725,-1.3343100261739274,-2.528132502232687,6.104479419976034,1.0189847946166992,-3.1502116362201136
1708433774.688094,-2.136575222015381,-1.3343949031880875,-2.5281880537616175,6.104324209481039,1.0190701484680176,-3.150705162678854
1708433774.6901078,-2.1363322734832764,-1.3343637597611924,-2.528292719517843,6.10419379451827,1.019118309020996,-3.151313368474142
1708433774.6920984,-2.1361243724823,-1.3344691407731553,-2.528388802205221,6.103989350586691,1.0191980600357056,-3.1518107096301478
1708433774.694109,-2.1359012126922607,-1.3345536601594468,-2.5284698645221155,6.103789078980245,1.0192537307739258,-3.152371946965353
1708433774.6961117,-2.1356701850891113,-1.3345842373422165,-2.5285704771624964,6.103593218117513,1.0193880796432495,-3.152947489415304
1708433774.6981053,-2.1353330612182617,-1.3346637052348633,-2.5286574999438685,6.1033856747444055,1.0194646120071411,-3.1534531752215784
1708433774.7001057,-2.1350910663604736,-1.3347482842257996,-2.5287652651416224,6.103163945465841,1.0194865465164185,-3.1540218035327356
1708433774.702106,-2.134791851043701,-1.334843785767891,-2.5288825670825403,6.10286699512557,1.0195752382278442,-3.1545773188220423
1708433774.7041104,-2.1344621181488037,-1.3349351298860093,-2.5289631525622767,6.102681624680319,1.0196219682693481,-3.155043427144186
1708433774.706128,-2.134188175201416,-1.3349702966264267,-2.5290725866900843,6.10243450382308,1.0197793245315552,-3.1555941740619105
1708433774.708107,-2.133852958679199,-1.3350986403277894,-2.5292587916003626,6.102122294693746,1.0198798179626465,-3.1561387220965784
1708433774.710107,-2.133493423461914,-1.3351855737021943,-2.529315773640768,6.101830827980795,1.0199936628341675,-3.156644407902853
1708433774.7121496,-2.133068799972534,-1.3352864247611542,-2.5295255819903772,6.101548540383138,1.020118236541748,-3.157184902821676
1708433774.7141037,-2.132706642150879,-1.335430772309639,-2.5296605269061487,6.101192700653829,1.020262598991394,-3.1576998869525355
1708433774.7161136,-2.1323232650756836,-1.3355540496161957,-2.529858652745382,6.100856649666586,1.0203649997711182,-3.1582561174975794
1708433774.7181342,-2.1319522857666016,-1.335645155315735,-2.5300477186786097,6.10053180435256,1.020501971244812,-3.158776585255758
1708433774.7201216,-2.131516695022583,-1.3358088296702881,-2.5301736036883753,6.100191342621603,1.0206223726272583,-3.1592965761767786
1708433774.7221,-2.1311230659484863,-1.33597748101268,-2.5303624312030237,6.099865186005392,1.0207464694976807,-3.1598570982562464
1708433774.7240841,-2.1306047439575195,-1.3360959601453324,-2.5305350462542933,6.099498855858602,1.0208789110183716,-3.160301748906271
1708433774.7260811,-2.130232334136963,-1.3362438392690201,-2.530707661305563,6.099171745568075,1.0210440158843994,-3.1608203093158167
1708433774.7281048,-2.1296892166137695,-1.3364077371409913,-2.5308945814715784,6.098784553795614,1.021172046661377,-3.1613505522357386
1708433774.7300825,-2.1292526721954346,-1.3365589094213028,-2.531083647404806,6.098430621414938,1.021316409111023,-3.1618714968310755
1708433774.7320895,-2.1287012100219727,-1.3367351305535813,-2.531254831944601,6.097968566208639,1.0214799642562866,-3.1624348799334925
1708433774.7340808,-2.128185987472534,-1.3368732345155259,-2.53149921098818,6.097582804947653,1.0216245651245117,-3.1629160086261194
1708433774.7360942,-2.1276235580444336,-1.3370688569596787,-2.531731669102804,6.0971120474632166,1.0218212604522705,-3.1634534041034144
1708433774.73808,-2.1270017623901367,-1.33723637581382,-2.531955067311422,6.096714484482565,1.0220717191696167,-3.1639466921435755
1708433774.7400975,-2.126469850540161,-1.3374317598393937,-2.5322070757495325,6.096276390343466,1.0222270488739014,-3.164469067250387
1708433774.7420816,-2.1258792877197266,-1.3376641285470505,-2.5323780218707483,6.095797884255209,1.0224148035049438,-3.1649766604052942
1708433774.7440987,-2.1252758502960205,-1.3377546232989808,-2.5326433817492884,6.095297443657675,1.0225458145141602,-3.165488306676046
1708433774.746078,-2.1246540546417236,-1.3380313974669953,-2.5328338781939905,6.094807255059042,1.0227186679840088,-3.1659420172320765
1708433774.7480955,-2.1240029335021973,-1.3381860119155427,-2.533119026814596,6.094288575440206,1.022997498512268,-3.1664138476001185
1708433774.7500963,-2.1233723163604736,-1.3383771789124985,-2.533412758504049,6.093696701317587,1.023188591003418,-3.1668556372271937
1708433774.7520869,-2.122668981552124,-1.3386786592057724,-2.533654276524679,6.093124258309164,1.0233396291732788,-3.167302672063009
1708433774.754106,-2.1219701766967773,-1.3388733577779313,-2.533910099660055,6.092553484230795,1.0236093997955322,-3.1678014437304896
1708433774.7560947,-2.1212148666381836,-1.3391032230905076,-2.534304920827047,6.091984021454611,1.0238828659057617,-3.1682141462909144
1708433774.7580984,-2.1205031871795654,-1.3393425208381196,-2.534560028706686,6.0913933394248865,1.0240378379821777,-3.1686530748950403
1708433774.7601001,-2.1197400093078613,-1.3395982694676896,-2.5349136034594935,6.090750682144918,1.024282693862915,-3.16908842722048
1708433774.7620916,-2.1189842224121094,-1.3398299229196091,-2.5351629892932337,6.090197670250692,1.024506688117981,-3.169626061116354
1708433774.7640939,-2.1182174682617188,-1.340153918867447,-2.5354867617236536,6.08957992771224,1.0247231721878052,-3.1699987093554896
1708433774.7660966,-2.117365598678589,-1.340310053234436,-2.5358150641070765,6.088883745461263,1.0249725580215454,-3.170471731816427
1708433774.7681124,-2.1164710521698,-1.3406353306821366,-2.5361960569964808,6.08816813209609,1.0251877307891846,-3.1708603541003626
1708433774.7700894,-2.115644693374634,-1.3408818405917664,-2.5365622679339808,6.087508904724874,1.0254653692245483,-3.17126971880068
1708433774.7720938,-2.1147348880767822,-1.3411440265229722,-2.5368767420398157,6.086815345078268,1.025750756263733,-3.171804491673605
1708433774.7740903,-2.1138908863067627,-1.3414975267699738,-2.5371995607959192,6.086069810181417,1.0260111093521118,-3.172190252934591
1708433774.7760963,-2.112976551055908,-1.3417708736709137,-2.5375877062426966,6.0853028176124475,1.0262665748596191,-3.1725743452655237
1708433774.7780843,-2.11201810836792,-1.3420298558524628,-2.5379560629474085,6.084589111595907,1.0265682935714722,-3.17299992242922
1708433774.7800863,-2.110985279083252,-1.3423569363406678,-2.538349215184347,6.083808290749349,1.0268644094467163,-3.1734421888934534
1708433774.782088,-2.110065221786499,-1.3426395517638703,-2.5387168566333216,6.083031999855795,1.0271496772766113,-3.1737940947162073
1708433774.784109,-2.1090338230133057,-1.3429589730552216,-2.539121929799215,6.0821770308311365,1.0274220705032349,-3.1742520968066614
1708433774.7861,-2.108065605163574,-1.3432657283595582,-2.539520565663473,6.081396329193868,1.027653455734253,-3.1745932737933558
1708433774.788128,-2.106969118118286,-1.3435677152923127,-2.5399497191058558,6.0805715201194666,1.0280166864395142,-3.1750131289111536
1708433774.7901146,-2.1059939861297607,-1.3439309757998963,-2.5402749220477503,6.079738843231954,1.0283163785934448,-3.1754003206836146
1708433774.792101,-2.1048636436462402,-1.3442124289325257,-2.5407186190234583,6.078881013184347,1.0286524295806885,-3.175795380269186
1708433774.7940881,-2.1037683486938477,-1.3446379166892548,-2.541176144276754,6.077998983650961,1.0289863348007202,-3.176121775303976
1708433774.7960844,-2.102649688720703,-1.3449354332736512,-2.541605297719137,6.077114331513204,1.0293010473251343,-3.1764889399157923
1708433774.7980902,-2.101573944091797,-1.345249743466713,-2.542077604924337,6.076150524407186,1.029608964920044,-3.1768973509417933
1708433774.8001187,-2.1003944873809814,-1.345682219868042,-2.54246694246401,6.075210439949789,1.0299458503723145,-3.1772075335132044
1708433774.8020983,-2.099246025085449,-1.3459937584451218,-2.5429397265063685,6.074282276421346,1.0302659273147583,-3.1776798407184046
1708433774.8041039,-2.098048210144043,-1.3463623833707352,-2.5434165636645716,6.073334204941549,1.03066885471344,-3.178018633519308
1708433774.806116,-2.0968685150146484,-1.3467014294913788,-2.543941322957174,6.072340357094564,1.031004548072815,-3.1783862749682825
1708433774.8081634,-2.09564208984375,-1.3470603388598938,-2.5444255510913294,6.071347701340475,1.0312801599502563,-3.178757969533102
1708433774.810104,-2.094397783279419,-1.3474318844131012,-2.5448887983905237,6.0704054711158655,1.031630277633667,-3.179075543080465
1708433774.812117,-2.0930657386779785,-1.3478303414634247,-2.5453601519214075,6.06932686546401,1.0319699048995972,-3.1794031302081507
1708433774.8141065,-2.091768980026245,-1.348193184738495,-2.5459252039538782,6.068273889809408,1.0323108434677124,-3.1797989050494593
1708433774.8161082,-2.090480327606201,-1.348588154917099,-2.546419922505514,6.067240583687582,1.0327162742614746,-3.18011719385256
1708433774.8181643,-2.08917498588562,-1.3489985626987,-2.546976868306295,6.066212999611654,1.033052682876587,-3.1805265585528772
1708433774.8201084,-2.087787628173828,-1.3493684989264985,-2.547479216252462,6.065128195076742,1.0334059000015259,-3.180828873311178
1708433774.8221128,-2.0864782333374023,-1.3498085004142304,-2.548051897679464,6.0640238402183435,1.0337872505187988,-3.18113619485964
1708433774.8241143,-2.0850560665130615,-1.350234643822052,-2.548612658177511,6.062951195030966,1.0341598987579346,-3.1814473311053675
1708433774.8260956,-2.0836222171783447,-1.3506327730468293,-2.549192253743307,6.0618417141731165,1.034551978111267,-3.181706492100851
1708433774.8281183,-2.082218647003174,-1.3511254054358979,-2.5497852007495325,6.060672390251913,1.0348955392837524,-3.1819778124438685
1708433774.8301024,-2.0806872844696045,-1.351564274435379,-2.5503364245044153,6.059585559159078,1.0353187322616577,-3.182244125996725
1708433774.8321068,-2.0792043209075928,-1.352001668219902,-2.550908152257101,6.058465468674459,1.0356738567352295,-3.1825390497790735
1708433774.834109,-2.0777945518493652,-1.3523861926845093,-2.551467243825094,6.057255732804098,1.036019206047058,-3.182843033467428
1708433774.836094,-2.0762901306152344,-1.3528581124595185,-2.5520628134356897,6.056054341584005,1.03638756275177,-3.1831393877612513
1708433774.8381124,-2.0747125148773193,-1.3532678347877045,-2.552751127873556,6.054846870690145,1.0368304252624512,-3.1834192911731165
1708433774.840137,-2.0731732845306396,-1.3537417513183136,-2.5532835165606897,6.053581821709432,1.037284016609192,-3.1836541334735315
1708433774.8421001,-2.0715577602386475,-1.3542890411666413,-2.553927723561422,6.0522851822669885,1.0376065969467163,-3.1839011351214808
1708433774.8441203,-2.0700039863586426,-1.3547276121428986,-2.554605309163229,6.050935375481405,1.0380688905715942,-3.184197966252462
1708433774.8461022,-2.0683581829071045,-1.3552428495934983,-2.555166308079855,6.049695598870077,1.0383834838867188,-3.184420410786764
1708433774.8480957,-2.0667502880096436,-1.3557526928237458,-2.5557997862445276,6.048367726593771,1.03878915309906,-3.1846144835101526
1708433774.850106,-2.065089702606201,-1.3561774653247376,-2.5564728418933313,6.047070610314169,1.0392276048660278,-3.1849079767810267
1708433774.8521245,-2.06343412399292,-1.3567199868014832,-2.557194534932272,6.045725571900167,1.039615511894226,-3.1850367228137415
1708433774.854116,-2.061750650405884,-1.357234002356865,-2.5578025023089808,6.044418442040243,1.039994716644287,-3.185293976460592
1708433774.8561065,-2.0600428581237793,-1.35776540756736,-2.558474842702047,6.043045866280355,1.0404006242752075,-3.185481135045187
1708433774.858097,-2.0583646297454834,-1.3583200138858338,-2.559122625981466,6.041658389359274,1.040780782699585,-3.185713593159811
1708433774.8600903,-2.0566203594207764,-1.3588137340596695,-2.5597649256335657,6.04033528545455,1.041189432144165,-3.185831371937887
1708433774.8620908,-2.054833173751831,-1.359379769568779,-2.5604618231402796,6.0389267084892175,1.0416158437728882,-3.1860557238208216
1708433774.8641167,-2.053067207336426,-1.3598850530437012,-2.561136786137716,6.037487375527181,1.0420695543289185,-3.1862435976611536
1708433774.866096,-2.0512924194335938,-1.3605213177255173,-2.561885658894674,6.036030638008871,1.0424396991729736,-3.186452929173605
1708433774.8681078,-2.0494754314422607,-1.3609883797219773,-2.562577549611227,6.0345754502113245,1.04286527633667,-3.1865831057177942
1708433774.8701015,-2.0476653575897217,-1.3615718942931672,-2.563261095677511,6.033166515618124,1.0432528257369995,-3.186709229146139
1708433774.8720965,-2.045854330062866,-1.3621173960021515,-2.5639761129962366,6.03171073177413,1.0436588525772095,-3.18685752550234
1708433774.874105,-2.043992042541504,-1.3627503526261826,-2.5647147337542933,6.030258643418112,1.044080376625061,-3.1870291868792933
1708433774.8760865,-2.0420584678649902,-1.3633272808841248,-2.565437142048971,6.028775203018942,1.0444397926330566,-3.1871569792376917
1708433774.8780982,-2.0402064323425293,-1.3639043432525177,-2.5662060419665735,6.027227985649862,1.0448499917984009,-3.1873510519610804
1708433774.8800998,-2.0382940769195557,-1.3644704532674332,-2.566958252583639,6.025748240738668,1.0452786684036255,-3.1873870531665247
1708433774.8821049,-2.036268949508667,-1.3651090276292344,-2.567685906087057,6.024193274765768,1.0456992387771606,-3.18752366701235
1708433774.8840985,-2.0343360900878906,-1.3656446647695084,-2.568432156239645,6.022584187775411,1.0460096597671509,-3.18764311472048
1708433774.8860984,-2.032379388809204,-1.3663452577641984,-2.5692485014544886,6.021149265557089,1.0463461875915527,-3.187685791646139
1708433774.8881109,-2.0303292274475098,-1.3668993425420304,-2.569984022771017,6.019520151406088,1.0467737913131714,-3.1878348032580774
1708433774.8901205,-2.0283522605895996,-1.367488757973053,-2.5707228819476526,6.0179273960884,1.0471004247665405,-3.1878536383258265
1708433774.8921216,-2.026305913925171,-1.368093879227974,-2.5715232531176966,6.016348111420431,1.0474567413330078,-3.187970225011007
1708433774.8941195,-2.024261474609375,-1.3688013565591355,-2.572306219731466,6.014738905220785,1.0478578805923462,-3.188025776539938
1708433774.8961105,-2.02219820022583,-1.369324730043747,-2.5730765501605433,6.0132096884544275,1.0482796430587769,-3.188057247792379
1708433774.8981006,-2.0200753211975098,-1.3699878615191956,-2.5738547484027308,6.011520373612203,1.0486514568328857,-3.1881092230426233
1708433774.9001105,-2.0179941654205322,-1.3706049931100388,-2.5746572653399866,6.0099291680152795,1.0490084886550903,-3.1881449858294886
1708433774.9020994,-2.015817642211914,-1.3712925475886841,-2.575428072606222,6.008306252747335,1.0493366718292236,-3.188209597264425
1708433774.9041052,-2.0137171745300293,-1.371847392325737,-2.576202456151144,6.006684887200155,1.0496209859848022,-3.188233200703756
1708433774.9061012,-2.011543035507202,-1.3725317430547257,-2.576977793370382,6.005101430207052,1.0499008893966675,-3.1882126967059534
1708433774.9081004,-2.0093445777893066,-1.373165176515915,-2.577832285557882,6.0034252283866785,1.0501863956451416,-3.1882615725146692
1708433774.9101002,-2.0071916580200195,-1.3738940370133896,-2.57859450975527,6.001773345261373,1.050506353378296,-3.188233200703756
1708433774.9121351,-2.0049209594726562,-1.3745702666095276,-2.579458777104513,6.000137436180868,1.0508108139038086,-3.188171927128927
1708433774.914149,-2.002742052078247,-1.3752283316901703,-2.5803197065936487,5.998583423882284,1.0512046813964844,-3.188124481831686
1708433774.9161577,-2.0005481243133545,-1.375943974857666,-2.5811920801745813,5.996866929322042,1.0515815019607544,-3.188031260167257
1708433774.9181032,-1.9983274936676025,-1.376593531375267,-2.5820401350604456,5.9953192351158044,1.0519052743911743,-3.188029114400045
1708433774.9201207,-1.9961198568344116,-1.3772829186967392,-2.58278471628298,5.993692743569174,1.0520671606063843,-3.187993828450338
1708433774.922088,-1.9939721822738647,-1.3780037772706528,-2.583571497594015,5.992020594864645,1.0522680282592773,-3.187925640736715
1708433774.9241145,-1.9917405843734741,-1.3786573123982926,-2.584344212208883,5.990350472718038,1.0524648427963257,-3.187770668660299
1708433774.9260864,-1.989452838897705,-1.3793942344239731,-2.585198465977804,5.988785970001974,1.0527725219726562,-3.187756601964132
1708433774.9280903,-1.9873038530349731,-1.380035327082016,-2.5860183874713343,5.987137424736776,1.0530641078948975,-3.1877084414111536
1708433774.9300895,-1.9850280284881592,-1.3807999801686783,-2.5868926684008997,5.985552656441488,1.0533305406570435,-3.1876402536975306
1708433774.9321175,-1.9828474521636963,-1.3814444553903122,-2.5876625219928187,5.98397849777297,1.053594946861267,-3.1876006762133997
1708433774.9340954,-1.9807088375091553,-1.3821514558843155,-2.588468376790182,5.982440459519186,1.0537545680999756,-3.1875668207751673
1708433774.936104,-1.9785289764404297,-1.3828581732562562,-2.589209858571188,5.9808435318763635,1.0540367364883423,-3.1874077955829065
1708433774.9380867,-1.976318597793579,-1.3835982841304322,-2.5901134649859827,5.979277241020956,1.054172158241272,-3.1873281637774866
1708433774.9400966,-1.9741756916046143,-1.3842673611691971,-2.590864960347311,5.977663385659017,1.0543932914733887,-3.1872080008136194
1708433774.942092,-1.9718999862670898,-1.3850842875293274,-2.5916391054736536,5.976185190468588,1.054612636566162,-3.187108818684713
1708433774.9441116,-1.969761610031128,-1.385826737885811,-2.592458788548605,5.97450481632308,1.0547963380813599,-3.1869798342334192
1708433774.9460905,-1.9675705432891846,-1.3865901243737717,-2.593327347432272,5.973018395691671,1.0549852848052979,-3.1868940035449427
1708433774.9480867,-1.9654052257537842,-1.3873359274915238,-2.5940447489367884,5.971594083100118,1.0551120042800903,-3.186741892491476
1708433774.95012,-1.9632654190063477,-1.3880548489144822,-2.5948525110827845,5.969988691597738,1.0552071332931519,-3.186596457158224
1708433774.9520926,-1.9610849618911743,-1.3888463091901322,-2.5956102053271692,5.968631851464071,1.0553570985794067,-3.1864710489856165
1708433774.954097,-1.9588738679885864,-1.38956272721801,-2.596388641987936,5.967139708786764,1.0554639101028442,-3.1862662474261683
1708433774.9561656,-1.9566651582717896,-1.3903584790280838,-2.5971770922290247,5.965631234436788,1.0556542873382568,-3.1861353556262415
1708433774.9581172,-1.9544541835784912,-1.3911787134459992,-2.5980032126056116,5.964168178826132,1.0557866096496582,-3.1859260241137903
1708433774.9601073,-1.9523069858551025,-1.3919325482896348,-2.5987280050860804,5.962731587677755,1.055869460105896,-3.1857145468341272
1708433774.9621265,-1.950062870979309,-1.39265729606662,-2.59949237505068,5.961370694428243,1.055904507637024,-3.1855385939227503
1708433774.964117,-1.9479856491088867,-1.3934329760125657,-2.6002474466906946,5.959992038994589,1.055894374847412,-3.1853678862201136
1708433774.9661145,-1.945792317390442,-1.394170121555664,-2.600960079823629,5.958592283516683,1.0559526681900024,-3.1850748697863978
1708433774.9681575,-1.9436924457550049,-1.3949454885772248,-2.6017401854144495,5.957234251290121,1.0559930801391602,-3.184875551854269
1708433774.9701364,-1.9414823055267334,-1.3957033914378663,-2.6024630705462855,5.955843198090353,1.0560123920440674,-3.1847131888019007
1708433774.9720986,-1.9394086599349976,-1.3964206737330933,-2.603185478840963,5.954496729164877,1.0560487508773804,-3.184500757847921
1708433774.9741051,-1.9373427629470825,-1.3971479100039979,-2.6038511435138147,5.953154432564535,1.056032419204712,-3.1842897574054163
1708433774.976103,-1.935286045074463,-1.3979351681521912,-2.6046443621264856,5.951963412552633,1.056016206741333,-3.1840458551989954
1708433774.9781065,-1.933286190032959,-1.39863674462352,-2.605285708104269,5.950704204827108,1.0559755563735962,-3.1837766806231897
1708433774.98013,-1.931289792060852,-1.3993798953345795,-2.6060143152820032,5.949510323792257,1.0559438467025757,-3.1835292021380823
1708433774.982089,-1.9292469024658203,-1.4001469624093552,-2.6066394487964075,5.948258864670553,1.0558463335037231,-3.1833272616015833
1708433774.9841104,-1.9272089004516602,-1.400868372326233,-2.6073437372790735,5.947081076889791,1.0557664632797241,-3.18309194246401
1708433774.9860876,-1.9252967834472656,-1.4016151887229462,-2.6080015341388147,5.945881473809042,1.0556976795196533,-3.1827660242663782
1708433774.9881387,-1.923309087753296,-1.4022964251092453,-2.6086679140674036,5.944707500725546,1.0556747913360596,-3.182483498250143
1708433774.990107,-1.9213459491729736,-1.403024600153305,-2.6093769709216517,5.943557607918539,1.0556597709655762,-3.1822317282306116
1708433774.9921074,-1.9194928407669067,-1.4037666034749527,-2.609981362019674,5.942495453148641,1.0556116104125977,-3.1819353739367884
1708433774.994101,-1.91756010055542,-1.4045256239226838,-2.6106119791613978,5.941387998848715,1.0555025339126587,-3.181737248097555
1708433774.9961457,-1.9156904220581055,-1.405203254227974,-2.6113083998309534,5.940405475884237,1.0554389953613281,-3.1814542452441614
1708433774.9980936,-1.913837194442749,-1.4059266609004517,-2.611934487019674,5.939345109253683,1.0553666353225708,-3.1811392943011683
1708433775.000097,-1.9119764566421509,-1.4066655051759263,-2.6125243345843714,5.93836389759139,1.055212378501892,-3.180838648472921
1708433775.0021088,-1.9101911783218384,-1.4074619126370926,-2.6131776014911097,5.937461125641622,1.055076003074646,-3.1805058161364954
1708433775.0040903,-1.9084078073501587,-1.4081957948258896,-2.613722626362936,5.9364439127738855,1.0548944473266602,-3.1801708380328577
1708433775.0060873,-1.90662682056427,-1.4088941675475617,-2.614322010670797,5.935587394028463,1.0546778440475464,-3.1798551718341272
1708433775.0080934,-1.9048033952713013,-1.4096658688834687,-2.6150034109698694,5.934714424401083,1.0544942617416382,-3.179568115864889
1708433775.01009,-1.9030659198760986,-1.41030569494281,-2.6155126730548304,5.933860289841451,1.0542571544647217,-3.1792646090136927
1708433775.0121374,-1.9013148546218872,-1.4110786032727738,-2.6161368528949183,5.933019149094381,1.0540568828582764,-3.178908173237936
1708433775.0141613,-1.8996152877807617,-1.4117201429656525,-2.6166701952563685,5.932227122574606,1.053831696510315,-3.178619448338644
1708433775.016158,-1.8978869915008545,-1.4125005018762131,-2.6172364393817347,5.931373464852133,1.0535136461257935,-3.1782379786120813
1708433775.0181208,-1.8961920738220215,-1.4131911408952256,-2.617805067692892,5.930617320328512,1.0532419681549072,-3.1779406706439417
1708433775.0201347,-1.894531488418579,-1.4138898116401215,-2.618295733128683,5.929830300598898,1.0530065298080444,-3.1775720755206507
1708433775.0221074,-1.8928818702697754,-1.4146273595145722,-2.6188510099994105,5.929101335793295,1.0527379512786865,-3.177220646535055
1708433775.024104,-1.8913105726242065,-1.415346310739853,-2.6193905512439173,5.928375112801351,1.0524393320083618,-3.176868502293722
1708433775.026101,-1.8896995782852173,-1.416090340619423,-2.6199238936053675,5.927705752640524,1.0522046089172363,-3.1764658133136194
1708433775.028177,-1.8881053924560547,-1.4167475712350388,-2.6204195658313196,5.9270843146140955,1.0519195795059204,-3.176106039677755
1708433775.0300944,-1.8865466117858887,-1.4175113153508683,-2.6208933035479944,5.926403987198629,1.0516232252120972,-3.175746742879049
1708433775.032128,-1.885026216506958,-1.4182019990733643,-2.6214099566089075,5.925767051964559,1.051307201385498,-3.175375763569967
1708433775.0340981,-1.8834943771362305,-1.4189170610955735,-2.621896568928854,5.925222503929891,1.050972819328308,-3.1750083605395716
1708433775.0361047,-1.8820409774780273,-1.419602931743004,-2.6223838965045374,5.92473732212142,1.0506970882415771,-3.174628559743063
1708433775.0380979,-1.8805668354034424,-1.420304836039879,-2.6228376070605677,5.9241641638572595,1.0503363609313965,-3.1741934458362024
1708433775.0401597,-1.8791038990020752,-1.4210084539702912,-2.6232646147357386,5.923653113632955,1.0499911308288574,-3.173814360295431
1708433775.0420985,-1.8776851892471313,-1.4217148882201691,-2.623740259801046,5.9232075093086145,1.0495867729187012,-3.1734591166125696
1708433775.044104,-1.8762555122375488,-1.42242984593425,-2.6241546312915247,5.922706711083212,1.0492128133773804,-3.172988001500265
1708433775.0460937,-1.8748310804367065,-1.423071251516678,-2.6246312300311487,5.9223049757774255,1.0488728284835815,-3.1726227442370813
1708433775.0481052,-1.8734761476516724,-1.4238074731877823,-2.6249991098987024,5.921915280609884,1.048528790473938,-3.1721985975848597
1708433775.0501187,-1.8721129894256592,-1.4244531703046341,-2.625437084828512,5.921581613808431,1.0480769872665405,-3.1717546621905726
1708433775.0520942,-1.8707393407821655,-1.425127537255623,-2.6258040110217493,5.921201813011923,1.0477172136306763,-3.171309773121969
1708433775.0540957,-1.8694560527801514,-1.4258174312165757,-2.626197640095846,5.920885669976034,1.0473418235778809,-3.170896593724386
1708433775.0561936,-1.8681849241256714,-1.426529974942543,-2.626557175313131,5.920599686890402,1.0468846559524536,-3.1704443136798304
1708433775.058105,-1.8668644428253174,-1.4272237134030838,-2.6269405523883265,5.920312154084005,1.0464760065078735,-3.1700177828418177
1708433775.0601044,-1.8655931949615479,-1.4279388797334214,-2.627312246953146,5.920033800392904,1.0460137128829956,-3.1694355646716517
1708433775.0621033,-1.864337682723999,-1.4286761593869706,-2.6276219526873987,5.919712292938986,1.0455806255340576,-3.169115130101339
1708433775.064099,-1.8630733489990234,-1.4293416452458878,-2.628007237111227,5.919574010163107,1.0451310873031616,-3.1687048117267054
1708433775.0661006,-1.861884355545044,-1.4300002318671723,-2.628345553074972,5.919301616936483,1.0446912050247192,-3.1682446638690394
1708433775.0681262,-1.8606846332550049,-1.4306998711875458,-2.628709379826681,5.919077265053549,1.044217824935913,-3.167790953313009
1708433775.0700955,-1.8595082759857178,-1.431350128059723,-2.629028622304098,5.9188740132148645,1.0438097715377808,-3.1673112551318567
1708433775.0721016,-1.8583366870880127,-1.4320281755975266,-2.629334274922506,5.918791281967916,1.0433485507965088,-3.166872803364889
1708433775.0741081,-1.857245922088623,-1.4327149999192734,-2.629683319722311,5.91857002952651,1.0428110361099243,-3.1663745085345667
1708433775.0761101,-1.8561594486236572,-1.4334026289037247,-2.6299660841571253,5.918496358185568,1.0423221588134766,-3.165922228490011
1708433775.0780935,-1.8550822734832764,-1.4340287011912842,-2.63025409380068,5.918387162476339,1.041812777519226,-3.165337387715475
